Eg3-git/Classifiers/Data Collection/u7/u7abc3_ur3e_joint_states.csv
time,elbow_joint,shoulder_lift_joint,shoulder_pan_joint,wrist_1_joint,wrist_2_joint,wrist_3_joint
1708440407.324457,-1.1042078733444214,-1.682406564752096,-2.526442591344015,2.2798959451862792,-1.0170062224017542,-0.04166776338686162
1708440407.3263927,-1.1042885780334473,-1.6824528179564417,-2.5264557043658655,2.279852791423462,-1.0169809500323694,-0.042328659688131154
1708440407.328399,-1.1042561531066895,-1.6824318371214808,-2.52643067041506,2.279913826579712,-1.0169366041766565,-0.04299956956972295
1708440407.3304136,-1.1042348146438599,-1.682415624658102,-2.526463333760397,2.2799181181141357,-1.0169051329242151,-0.04369575182069951
1708440407.3324046,-1.1042755842208862,-1.6824075184264125,-2.5264676252948206,2.279913826579712,-1.0169256369220179,-0.04438811937441045
1708440407.3344026,-1.104251742362976,-1.682427545587057,-2.526447121297018,2.2799300390430908,-1.0168889204608362,-0.04501706758608037
1708440407.3364224,-1.1043449640274048,-1.682427545587057,-2.526365343724386,2.279860182399414,-1.0168898741351526,-0.04564267793764287
1708440407.3384247,-1.1042919158935547,-1.682406564752096,-2.5263901392566126,2.2799510198780517,-1.0168655554400843,-0.046358887349263966
1708440407.3404274,-1.1043243408203125,-1.6823650799193324,-2.5264316240893763,2.279913826579712,-1.0168212095843714,-0.047028366719381154
1708440407.3424332,-1.104360818862915,-1.6824141941466273,-2.526391331349508,2.2799436289020996,-1.0167763868915003,-0.04766971269716436
1708440407.3444397,-1.1043113470077515,-1.6824513874449671,-2.526403252278463,2.279904766673706,-1.0168383757220667,-0.04835683504213506
1708440407.3464088,-1.1043187379837036,-1.682427545587057,-2.5263662973987024,2.27989308416333,-1.0167449156390589,-0.049111191426412404
1708440407.3484085,-1.1043801307678223,-1.6823917828001917,-2.526395861302511,2.279928608531616,-1.01672870317568,-0.04983407655824834
1708440407.3503923,-1.10438871383667,-1.682420393029684,-2.526346747075216,2.279904766673706,-1.0167339483844202,-0.050490681325094044
1708440407.3523834,-1.1044138669967651,-1.6824118099608363,-2.526383701954977,2.2799030977436523,-1.0167210737811487,-0.051238361989156544
1708440407.354399,-1.1043758392333984,-1.682415624658102,-2.5263431707965296,2.2799574571796875,-1.0167296568499964,-0.05198699632753545
1708440407.3563964,-1.104371428489685,-1.682378431359762,-2.5263553301440638,2.2799784380146484,-1.0166814962970179,-0.05270845094789678
1708440407.358389,-1.1044365167617798,-1.682411333123678,-2.5263236204730433,2.2799195486256103,-1.0166533629046839,-0.053376022969381154
1708440407.3604205,-1.104358434677124,-1.6824199161925257,-2.5263193289386194,2.2799195486256103,-1.0167024771319788,-0.054099384938375294
1708440407.3623667,-1.1044071912765503,-1.682387491265768,-2.5262702147113245,2.2799858289906005,-1.0166176001178187,-0.05482656160463506
1708440407.3643749,-1.1044484376907349,-1.6823464832701625,-2.526287619267599,2.2800051408955078,-1.016646687184469,-0.05553275743593389
1708440407.366381,-1.1044397354125977,-1.6823860607542933,-2.5262628237353724,2.2799605566212158,-1.0166099707232874,-0.05626088777651006
1708440407.3683755,-1.104443907737732,-1.6823464832701625,-2.526250664387838,2.2799767690845947,-1.016609017048971,-0.05695993105043584
1708440407.3703723,-1.1045104265213013,-1.6823107204832972,-2.526222292576925,2.279967947597168,-1.016601864491598,-0.05768424669374639
1708440407.3724365,-1.1045295000076294,-1.6822778187193812,-2.526214663182394,2.2799886900135498,-1.0165532271014612,-0.058387104664937794
1708440407.3743777,-1.1044883728027344,-1.682295938531393,-2.526219193135397,2.2799932199665527,-1.016557518635885,-0.059089008961812794
1708440407.3764105,-1.1044764518737793,-1.682286878625387,-2.5262439886676233,2.2800683218189697,-1.0166147390948694,-0.05994159380067998
1708440407.3783739,-1.1045371294021606,-1.682274957696432,-2.5261741320239466,2.279996319408081,-1.0165746847735804,-0.06061774889101201
1708440407.3804078,-1.1044926643371582,-1.6822759113707484,-2.5262113253222864,2.280033512706421,-1.0165184179889124,-0.06138068834413701
1708440407.3823962,-1.1044883728027344,-1.6822229824461878,-2.5261784235583704,2.280050440425537,-1.0165098349200647,-0.0620039145099085
1708440407.3843849,-1.1045327186584473,-1.6822644672789515,-2.5261784235583704,2.280057831401489,-1.0165184179889124,-0.06282169023622686
1708440407.3863914,-1.1044960021972656,-1.6822668514647425,-2.5261548201190394,2.280090494746826,-1.0164626280414026,-0.06353885332216436
1708440407.388386,-1.104516625404358,-1.682289262811178,-2.5261545817004603,2.279987021083496,-1.0164302031146448,-0.06430656114687139
1708440407.3903966,-1.1045241355895996,-1.6823021374144496,-2.526130978261129,2.280019922847412,-1.0164225737201136,-0.0650871435748499
1708440407.392392,-1.1045284271240234,-1.6822148762144984,-2.526179615651266,2.280017061824463,-1.0163901487933558,-0.06580049196352178
1708440407.394391,-1.1045615673065186,-1.6821896038451136,-2.526151482258932,2.28001253187146,-1.01642352739443,-0.06647807756532842
1708440407.3963768,-1.104548454284668,-1.6821867428221644,-2.526147190724508,2.280041380519531,-1.0163949171649378,-0.06718808809389287
1708440407.3983967,-1.1045809984207153,-1.6821986637511195,-2.5261314550982874,2.2800280290791015,-1.016390625630514,-0.06798345247377569
1708440407.4004135,-1.104560375213623,-1.6822601757445277,-2.5260990301715296,2.280019922847412,-1.01636249223818,-0.06875878969301397
1708440407.4023738,-1.1045397520065308,-1.6822735271849574,-2.5260990301715296,2.2800726133533935,-1.0163787047015589,-0.06950217882265264
1708440407.4043946,-1.1045961380004883,-1.6822692356505335,-2.526095692311422,2.280095263118408,-1.016334358845846,-0.07025653520692998
1708440407.4063838,-1.104575514793396,-1.682200094262594,-2.5260751883136194,2.2800473409840087,-1.0163105169879358,-0.07109243074526006
1708440407.4083881,-1.1045799255371094,-1.6822077236571253,-2.5260871092425745,2.280062361354492,-1.0162785688983362,-0.07182628313173467
1708440407.4103696,-1.1045550107955933,-1.6822825870909632,-2.526148859654562,2.280057831401489,-1.0162738005267542,-0.07255250612367803
1708440407.4123683,-1.1046411991119385,-1.6821867428221644,-2.5260751883136194,2.280074043864868,-1.0162542502032679,-0.07330304781068975
1708440407.4143765,-1.1046067476272583,-1.6821743450560511,-2.5260468165027063,2.2800652223774414,-1.01625901857485,-0.07409030595888311
1708440407.4163806,-1.1046605110168457,-1.6821629009642542,-2.5260794798480433,2.280090494746826,-1.0162785688983362,-0.07489425340761358
1708440407.4183953,-1.1046323776245117,-1.682237287560934,-2.5260751883136194,2.2800890642353515,-1.016242806111471,-0.0756610075580042
1708440407.4203875,-1.1046111583709717,-1.6822196445860804,-2.526055399571554,2.280102415675781,-1.016198460255758,-0.07637483278383428
1708440407.4224055,-1.104668140411377,-1.6822239361205042,-2.526055399571554,2.2800683218189697,-1.016174618397848,-0.07713681856264287
1708440407.4243836,-1.104668140411377,-1.682134290734762,-2.5260639826404017,2.2800845342823486,-1.0162394682513636,-0.07790881792177373
1708440407.4263706,-1.104655146598816,-1.6821581325926722,-2.5260520617114466,2.280015392894409,-1.0162199179278772,-0.07859737077821904
1708440407.428417,-1.104668140411377,-1.682200094262594,-2.526006285344259,2.280057831401489,-1.0161750952350062,-0.07932454744447881
1708440407.4303665,-1.1046595573425293,-1.682178636590475,-2.526015106831686,2.2800978857227783,-1.0161874930011194,-0.08007318178285772
1708440407.432388,-1.1046843528747559,-1.6821853123106898,-2.526043478642599,2.2801098066517334,-1.0161836783038538,-0.080787483845846
1708440407.434421,-1.104691982269287,-1.682200094262594,-2.5259910265551966,2.2800935941883544,-1.016111199055807,-0.08154565492738897
1708440407.4364173,-1.1046757698059082,-1.6821347675719203,-2.5259953180896204,2.2801055151173095,-1.0160983244525355,-0.08234960237611944
1708440407.4384155,-1.1046669483184814,-1.6821805439391078,-2.5259791056262415,2.2800606924244384,-1.016106907521383,-0.08300239244569951
1708440407.440414,-1.1046876907348633,-1.6821919880309046,-2.525959316884176,2.2800399500080566,-1.016135040913717,-0.08378440538515264
1708440407.4424088,-1.104729413986206,-1.6821571789183558,-2.5259388128863733,2.2800726133533935,-1.016094986592428,-0.08442813554872686
1708440407.4444156,-1.1047163009643555,-1.6821729145445765,-2.525975529347555,2.2801055151173095,-1.0160787741290491,-0.08519345918764287
1708440407.4463975,-1.1047039031982422,-1.6821309528746546,-2.525931183491842,2.2800978857227783,-1.0160992781268519,-0.0858071486102503
1708440407.4484293,-1.1047120094299316,-1.68214811901235,-2.525951687489645,2.2800890642353515,-1.0160296599017542,-0.08652002016176397
1708440407.450418,-1.1047195196151733,-1.68206848720693,-2.525919262562887,2.2801009851643066,-1.0160544554339808,-0.08718568483461553
1708440407.4523902,-1.1047487258911133,-1.6821772060790003,-2.5259440580951136,2.2800444799610595,-1.0160759131061,-0.08784515062441045
1708440407.4543848,-1.104784607887268,-1.6821595631041468,-2.525935475026266,2.2800280290791015,-1.016047779713766,-0.08849984804262334
1708440407.4563777,-1.1047370433807373,-1.6821190319456996,-2.5258830229388636,2.280059261912964,-1.0160186926471155,-0.08924419084657842
1708440407.4583828,-1.104760766029358,-1.68214811901235,-2.525907341633932,2.2800771433063964,-1.0159991423236292,-0.08987886110414678
1708440407.460387,-1.1047444343566895,-1.6821547947325648,-2.5258830229388636,2.2800771433063964,-1.0159905592547815,-0.0905683676349085
1708440407.462371,-1.1047357320785522,-1.6821352444090785,-2.5258830229388636,2.2801307874866943,-1.0160000959979456,-0.09116822877992803
1708440407.4643738,-1.1047563552856445,-1.6821876964964808,-2.5258830229388636,2.2801174360462646,-1.0159834066974085,-0.0918806234942835
1708440407.466407,-1.1047239303588867,-1.6821657619872035,-2.52588397661318,2.2800444799610595,-1.0160120169269007,-0.09253436723817998
1708440407.4684,-1.104743480682373,-1.6821967564024867,-2.5258591810809534,2.2800935941883544,-1.0159671942340296,-0.09323102632631475
1708440407.4703925,-1.1047683954238892,-1.6821681461729945,-2.525851551686422,2.2801217275806884,-1.0159629026996058,-0.09390527406801397
1708440407.472391,-1.1047477722167969,-1.6821238003172816,-2.525851551686422,2.2800518709370117,-1.0159347693072718,-0.09452706972231084
1708440407.4743807,-1.1048040390014648,-1.6821524105467738,-2.5258634726153772,2.2800473409840087,-1.0159228483783167,-0.09518558183778936
1708440407.4764025,-1.1047477722167969,-1.6821896038451136,-2.5258472601519983,2.2800564008900146,-1.0159185568438929,-0.09581977525819951
1708440407.4783938,-1.104759693145752,-1.6822010479369105,-2.525851551686422,2.2800978857227783,-1.015895191823141,-0.09651548067201787
1708440407.4804206,-1.1048084497451782,-1.6821352444090785,-2.525855843220846,2.2800606924244384,-1.015862766896383,-0.09718352953066045
1708440407.4823754,-1.1047682762145996,-1.6821257076659144,-2.525843922291891,2.2800683218189697,-1.0158994833575647,-0.09775239626039678
1708440407.484388,-1.1047552824020386,-1.6821919880309046,-2.5258310476886194,2.2801217275806884,-1.0159161726581019,-0.09846145311464483
1708440407.486381,-1.104812741279602,-1.682176252404684,-2.525806490574972,2.2800606924244384,-1.0158799330340784,-0.09912473360170537
1708440407.4884107,-1.104771614074707,-1.6821524105467738,-2.525802199040548,2.2800935941883544,-1.0158641974078577,-0.09976417223085576
1708440407.4903944,-1.1048166751861572,-1.6821967564024867,-2.525790278111593,2.2800771433063964,-1.0158599058734339,-0.10036117235292608
1708440407.4924123,-1.104799747467041,-1.6821638546385707,-2.5258153120623987,2.2800771433063964,-1.0158150831805628,-0.10102397600282842
1708440407.494395,-1.1048166751861572,-1.6821967564024867,-2.5258196035968226,2.2800845342823486,-1.0158031622516077,-0.10174829164613897
1708440407.4963944,-1.104758381843567,-1.6821681461729945,-2.5258196035968226,2.280074043864868,-1.015832249318258,-0.10234576860536748
1708440407.498424,-1.104787826538086,-1.682117601434225,-2.5258122126208704,2.2801055151173095,-1.0158246199237269,-0.10301334062685186
1708440407.5004158,-1.1047673225402832,-1.6821681461729945,-2.5257752577411097,2.2800726133533935,-1.0158041159259241,-0.10368186632265264
1708440407.5024245,-1.1048040390014648,-1.6821352444090785,-2.5257707277881067,2.280059500331543,-1.0157387892352503,-0.10421687761415654
1708440407.504378,-1.1047672033309937,-1.6821400127806605,-2.5257752577411097,2.2800935941883544,-1.0157673994647425,-0.10490447679628545
1708440407.506388,-1.104783535003662,-1.6821638546385707,-2.5257347265826624,2.2800697523304443,-1.0157507101642054,-0.10548574129213506
1708440407.508383,-1.104799747467041,-1.6821805439391078,-2.5257630983935755,2.2800533014484863,-1.0157550016986292,-0.10614329973329717
1708440407.510376,-1.1047511100769043,-1.6821309528746546,-2.52574330965151,2.2801307874866943,-1.0157440344439905,-0.10682183900942022
1708440407.5124402,-1.1047347784042358,-1.68217196087026,-2.5257468859301966,2.2801009851643066,-1.0157354513751429,-0.10742360750307256
1708440407.5143907,-1.104787826538086,-1.6821729145445765,-2.5257347265826624,2.280090494746826,-1.0157516638385218,-0.10806209245790654
1708440407.5163932,-1.1047477722167969,-1.68214811901235,-2.5257673899279993,2.2801098066517334,-1.0157116095172327,-0.10865480104555303
1708440407.5183988,-1.1047673225402832,-1.6821729145445765,-2.525715176259176,2.2800564008900146,-1.0157159010516565,-0.10931188264955694
1708440407.5204072,-1.1048084497451782,-1.682139059106344,-2.525735680256979,2.280102415675781,-1.0156386534320276,-0.10986501375307256
1708440407.522475,-1.1047595739364624,-1.6821967564024867,-2.525698963795797,2.280062361354492,-1.0157159010516565,-0.11039907137026006
1708440407.524389,-1.104833960533142,-1.6821547947325648,-2.5257118383990687,2.280015392894409,-1.0156877676593226,-0.11100560823549444
1708440407.5264227,-1.1048414707183838,-1.6822225056090296,-2.5257445017444056,2.2800606924244384,-1.0156920591937464,-0.11160546938051397
1708440407.5284607,-1.1047554016113281,-1.6822010479369105,-2.5256956259356897,2.2800697523304443,-1.0156753698932093,-0.11218482652773076
1708440407.5304227,-1.1047673225402832,-1.6822134457030238,-2.525731388722555,2.2800368505665283,-1.0156515280352991,-0.11278897920717412
1708440407.5324256,-1.104799747467041,-1.682183404962057,-2.5257194677936,2.2800533014484863,-1.0156644026385706,-0.11335164705385381
1708440407.534435,-1.104833960533142,-1.682143350640768,-2.5256882349597376,2.28007881223645,-1.0156438986407679,-0.11388570467104131
1708440407.5364316,-1.104771614074707,-1.6822091541686,-2.525675598775045,2.280017061824463,-1.0156438986407679,-0.11454564729799444
1708440407.5384104,-1.1047965288162231,-1.6821547947325648,-2.525658194218771,2.280041380519531,-1.0156319777118128,-0.1150592009173792
1708440407.5404155,-1.104783535003662,-1.6821805439391078,-2.5256462732898157,2.280008001918457,-1.0156729857074183,-0.11571151414980108
1708440407.542421,-1.1047909259796143,-1.6822134457030238,-2.5256882349597376,2.280000610942505,-1.0156243483172815,-0.11620885530580694
1708440407.5443985,-1.104787826538086,-1.6822010479369105,-2.5256388823138636,2.280017061824463,-1.0155919233905237,-0.116737190877096
1708440407.5464125,-1.104820966720581,-1.6821595631041468,-2.525651756917135,2.279987021083496,-1.0156081358539026,-0.11733085313905889
1708440407.5483954,-1.1048040390014648,-1.682145734826559,-2.5256062189685267,2.28001253187146,-1.0155919233905237,-0.11782914796938115
1708440407.5503936,-1.1048078536987305,-1.682216306725973,-2.5256388823138636,2.2799932199665527,-1.0155885855304163,-0.11837655702699834
1708440407.5523982,-1.104795217514038,-1.682150503198141,-2.5256550947772425,2.2799858289906005,-1.0155556837665003,-0.11892110506166631
1708440407.5544343,-1.104783535003662,-1.6821524105467738,-2.5256930033313196,2.2799648481556396,-1.0155394713031214,-0.11945754686464483
1708440407.556488,-1.1048084497451782,-1.6822225056090296,-2.5256150404559534,2.279933138484619,-1.0155394713031214,-0.11998349825014287
1708440407.558432,-1.1047433614730835,-1.682139059106344,-2.5256312529193323,2.279928608531616,-1.0155599753009241,-0.12051898637880498
1708440407.5603786,-1.1047801971435547,-1.6822182140746058,-2.5256312529193323,2.279909296626709,-1.0155513922320765,-0.12105113664735967
1708440407.5623848,-1.1047347784042358,-1.6821967564024867,-2.525660578404562,2.279888554210327,-1.0156014601336878,-0.12158662477602178
1708440407.564385,-1.1047921180725098,-1.682117601434225,-2.5256193319903772,2.2798632818409423,-1.015519920979635,-0.12212783495058233
1708440407.5663934,-1.1047682762145996,-1.6822010479369105,-2.525660578404562,2.279872103328369,-1.0155165831195276,-0.12266666093935186
1708440407.5684059,-1.1047964096069336,-1.6821595631041468,-2.525623623524801,2.2798899847218017,-1.015475098286764,-0.12323218980898076
1708440407.5703936,-1.1047552824020386,-1.682139059106344,-2.5256474653827112,2.279872103328369,-1.0155037085162562,-0.12371331850160772
1708440407.5724695,-1.1047606468200684,-1.68214811901235,-2.525627915059225,2.279901905650757,-1.0154512564288538,-0.12424165407289678
1708440407.57438,-1.1047487258911133,-1.68214811901235,-2.5255983511554163,2.279880924815796,-1.0154426733600062,-0.12477046648134404
1708440407.5763829,-1.1047639846801758,-1.6821829281248988,-2.5256312529193323,2.2799269396015625,-1.0154851118670862,-0.12529355684389287
1708440407.57842,-1.1047228574752808,-1.682221075097555,-2.5255778471576136,2.2798897463032226,-1.0154808203326624,-0.1258176008807581
1708440407.5803766,-1.1047358512878418,-1.682216306725973,-2.525583092366354,2.2798446851917724,-1.0154479185687464,-0.1263335386859339
1708440407.582373,-1.1047390699386597,-1.682178636590475,-2.525644365941183,2.2798446851917724,-1.0154402891742151,-0.12687474886049444
1708440407.584376,-1.1047477722167969,-1.6821595631041468,-2.5256322065936487,2.2798492151447753,-1.0154684225665491,-0.12736541429628545
1708440407.586433,-1.1047195196151733,-1.6821958027281703,-2.525623623524801,2.2798074918934326,-1.0154402891742151,-0.12791806856264287
1708440407.5884206,-1.1047120094299316,-1.682122369805807,-2.525590960179464,2.279825373286865,-1.0154607931720179,-0.12843352953066045
1708440407.5904477,-1.1047606468200684,-1.6822134457030238,-2.525599543248312,2.279808922404907,-1.0154121557818812,-0.12887603441347295
1708440407.5924158,-1.1046907901763916,-1.6822191677489222,-2.5255711714373987,2.279862566585205,-1.0154078642474573,-0.12947494188417608
1708440407.5944011,-1.1047401428222656,-1.682258745233053,-2.5255916754352015,2.279834194774292,-1.0153959433185022,-0.1299822966205042
1708440407.5963852,-1.1047239303588867,-1.682221075097555,-2.525538508092062,2.2797927099415283,-1.0154488722430628,-0.13048011461366826
1708440407.5983775,-1.1047251224517822,-1.6822296581664027,-2.525607172642843,2.279768868083618,-1.01542836824526,-0.13095504442323858
1708440407.6004348,-1.104716420173645,-1.682200094262594,-2.5255797545062464,2.279797001475952,-1.0154121557818812,-0.13148957887758428
1708440407.602401,-1.1047325134277344,-1.6822048626341761,-2.525522057210104,2.2797881799885253,-1.0154240767108362,-0.1320131460772913
1708440407.6043954,-1.104729413986206,-1.6821876964964808,-2.5255547205554407,2.2797896105,-1.0154250303851526,-0.13253814378847295
1708440407.6063871,-1.1046831607818604,-1.6822520695128382,-2.5255678335772913,2.279782219524048,-1.015388313923971,-0.13307315507997686
1708440407.6083972,-1.1046950817108154,-1.6822239361205042,-2.5255473295794886,2.2797249990650634,-1.0154088179217737,-0.1335681120501917
1708440407.610371,-1.1046788692474365,-1.6822520695128382,-2.52558404604067,2.2796878057667236,-1.015400234852926,-0.1340726057635706
1708440407.612388,-1.1046594381332397,-1.6821824512877406,-2.52555495897402,2.279766722316406,-1.0153802076922815,-0.1345599333392542
1708440407.6143832,-1.104650616645813,-1.6822120151915492,-2.5255635420428675,2.2797176080891113,-1.0153759161578577,-0.13507253328432256
1708440407.6164,-1.104691982269287,-1.6821743450560511,-2.525522057210104,2.2796847063251953,-1.0154097715960901,-0.1355512777911585
1708440407.6184144,-1.104691982269287,-1.6821876964964808,-2.5255635420428675,2.279738350505493,-1.015315357838766,-0.13599807420839483
1708440407.6204336,-1.104696273803711,-1.6822568378844203,-2.5255797545062464,2.279651327724121,-1.0153401533709925,-0.13653213182558233
1708440407.622391,-1.1046562194824219,-1.6822320423521937,-2.5255427996264856,2.279681845302246,-1.0153687636004847,-0.1370490233050745
1708440407.624426,-1.1046595573425293,-1.6822477779784144,-2.5255592505084437,2.2796739774891357,-1.0154131094561976,-0.1375487486468714
1708440407.6264024,-1.1046193838119507,-1.6822191677489222,-2.5255473295794886,2.2796694475361328,-1.0153968969928187,-0.13807422319521123
1708440407.6283932,-1.1045949459075928,-1.6822520695128382,-2.5255723635302942,2.279615564937256,-1.0153973738299769,-0.1385443846331995
1708440407.630392,-1.1046024560928345,-1.6822520695128382,-2.5255797545062464,2.279615803355835,-1.0153358618365687,-0.139015022908346
1708440407.632399,-1.1046454906463623,-1.682279726068014,-2.5255473295794886,2.2796382147022705,-1.0153687636004847,-0.1394894758807581
1708440407.634411,-1.1046329736709595,-1.6822558842101039,-2.5255678335772913,2.2796084123798828,-1.0153644720660608,-0.13998252550234014
1708440407.6363747,-1.1045992374420166,-1.6822759113707484,-2.5255635420428675,2.2796098428913574,-1.0153520742999476,-0.14048272768129522
1708440407.638387,-1.104560375213623,-1.6822840176024378,-2.5255592505084437,2.2795964914509277,-1.0153315703021448,-0.14097530046571904
1708440407.6403933,-1.1045722961425781,-1.6822930775084437,-2.5255678335772913,2.2795511919208984,-1.015315357838766,-0.14146787325014287
1708440407.6423967,-1.1045528650283813,-1.682319780389303,-2.5255306402789515,2.2795933920093994,-1.0153477827655237,-0.14188176790346319
1708440407.6443744,-1.104532241821289,-1.6823035679259242,-2.5255842844592493,2.2795845705219726,-1.0154097715960901,-0.1424196402179163
1708440407.646386,-1.1044989824295044,-1.682279726068014,-2.525592867528097,2.279561682338379,-1.0153358618365687,-0.14284164110292608
1708440407.6483877,-1.1044796705245972,-1.682315012017721,-2.5255842844592493,2.279573603267334,-1.0153558889972132,-0.14339238802065069
1708440407.6503952,-1.1044840812683105,-1.6823364696898402,-2.52555495897402,2.279616041774414,-1.0153358618365687,-0.143867317830221
1708440407.6523762,-1.1045045852661133,-1.6823440990843714,-2.5255351702319544,2.279557152385376,-1.0153773466693323,-0.14433843294252569
1708440407.6543803,-1.1044807434082031,-1.6823960743346156,-2.5256288687335413,2.279524489040039,-1.0153687636004847,-0.14481097856630498
1708440407.6564162,-1.1043776273727417,-1.6823350391783656,-2.525576655064718,2.2794627386280517,-1.0153687636004847,-0.14523202577699834
1708440407.6583862,-1.1043758392333984,-1.6823588810362757,-2.5255427996264856,2.279461308116577,-1.0153759161578577,-0.1456974188434046
1708440407.6604016,-1.1044126749038696,-1.6823440990843714,-2.5256004969226282,2.279416723842285,-1.015360180531637,-0.1461427847491663
1708440407.6623843,-1.104322075843811,-1.6823941669859828,-2.5255253950702112,2.2794391351887207,-1.0153926054583948,-0.1465700308429163
1708440407.6644208,-1.1043438911437988,-1.6824737987914027,-2.5255842844592493,2.2793888288685302,-1.0153926054583948,-0.1470425764666956
1708440407.6663816,-1.1043167114257812,-1.682439466516012,-2.5256038347827356,2.279332323665283,-1.0154011885272425,-0.1474984327899378
1708440407.6683953,-1.1042842864990234,-1.6825248203673304,-2.5255959669696253,2.279315872783325,-1.0154011885272425,-0.14790040651430303
1708440407.6704051,-1.1042273044586182,-1.6825577221312464,-2.5256200472461146,2.2793337541767578,-1.0153644720660608,-0.14830333391298467
1708440407.6723905,-1.1042166948318481,-1.6825324497618617,-2.5256288687335413,2.2792557913013916,-1.0154011885272425,-0.14877635637392217
1708440407.6743722,-1.1041678190231323,-1.6825515232481898,-2.525595251713888,2.279233379954956,-1.0154131094561976,-0.14922839799989873
1708440407.6763692,-1.1041196584701538,-1.6825753651061,-2.525644365941183,2.279215021724365,-1.0154412428485315,-0.14967757860292608
1708440407.6783721,-1.1040925979614258,-1.6825877628722132,-2.525599543248312,2.2791690069385986,-1.015400234852926,-0.15007001558412725
1708440407.6803727,-1.104053020477295,-1.6826282940306605,-2.525627915059225,2.279125137920044,-1.015456501637594,-0.15043479601015264
1708440407.6823695,-1.1039880514144897,-1.68272127727651,-2.5256157557116907,2.279043121928833,-1.015496555958883,-0.1508849302874964
1708440407.6843944,-1.103874921798706,-1.6827269993224085,-2.5256193319903772,2.2790567117878417,-1.0154879728900355,-0.15127164522279912
1708440407.6864038,-1.1038804054260254,-1.6827970943846644,-2.525688711796896,2.279095335597656,-1.0155003706561487,-0.15169173875917608
1708440407.688389,-1.103758454322815,-1.6827551327147425,-2.525613609944479,2.278979941005371,-1.0155327955829065,-0.15207082429994756
1708440407.6903868,-1.1037163734436035,-1.682836195031637,-2.5256593863116663,2.2789317804523925,-1.015548054371969,-0.15250903764833623
1708440407.692386,-1.1036237478256226,-1.6828214130797328,-2.525675598775045,2.2788888651081542,-1.0156338850604456,-0.1529453436480921
1708440407.6944125,-1.1035268306732178,-1.6829067669310511,-2.5257044474231165,2.278894825572632,-1.0156577269183558,-0.15335590044130498
1708440407.696396,-1.103410243988037,-1.6829587421812953,-2.5257518927203577,2.2787558275410156,-1.015653435383932,-0.1537383238421839
1708440407.698382,-1.1033563613891602,-1.6830278835692347,-2.525731388722555,2.2787417608448486,-1.0156601111041468,-0.1541674772845667
1708440407.7004068,-1.1032553911209106,-1.6830598316588343,-2.5257838408099573,2.2787105280109863,-1.0156591574298304,-0.1545661131488245
1708440407.7023726,-1.103110909461975,-1.6831356487669886,-2.5257795492755335,2.2785870271870117,-1.0156877676593226,-0.15498811403383428
1708440407.7043707,-1.1029661893844604,-1.6831428013243617,-2.5258448759662073,2.278491659755371,-1.0156920591937464,-0.15537006059755498
1708440407.7064314,-1.1028748750686646,-1.6832267246642054,-2.5258646647082728,2.27844945966687,-1.0157559553729456,-0.15576631227602178
1708440407.7083788,-1.1027021408081055,-1.6833034954466761,-2.525818649922506,2.2783817487904052,-1.0158126989947718,-0.1561954657184046
1708440407.7104228,-1.1025711297988892,-1.683392187158102,-2.525900427495138,2.2782861429401855,-1.015808407460348,-0.15657502809633428
1708440407.7123706,-1.1023807525634766,-1.6834427318968714,-2.5259605089770716,2.2781781393238525,-1.0158160368548792,-0.1569917837726038
1708440407.7143764,-1.1021904945373535,-1.6835171184935511,-2.525947395955221,2.2780119615742187,-1.0158355871783655,-0.15739995638002569
1708440407.7164307,-1.102038860321045,-1.6835743389525355,-2.5259843508349817,2.2779084879108886,-1.0158684889422815,-0.15779573122133428
1708440407.7183719,-1.1018749475479126,-1.6836911640562953,-2.526020590459005,2.277773542995117,-1.0158432165728968,-0.15812570253481084
1708440407.72041,-1.1016626358032227,-1.6837512455382289,-2.526076380406515,2.2776071268269042,-1.0158994833575647,-0.1585300604449671
1708440407.7223904,-1.1014752388000488,-1.6838823757567347,-2.5260587374316614,2.2774695593067626,-1.0159161726581019,-0.15897113481630498
1708440407.7244072,-1.1012012958526611,-1.6839572391905726,-2.526128355656759,2.277331753368042,-1.015951935444967,-0.15927488008608037
1708440407.7264147,-1.1009538173675537,-1.6840950451292933,-2.5262046496020716,2.2772373396107177,-1.016019646321432,-0.15964204469789678
1708440407.7284093,-1.1006864309310913,-1.6842190227904261,-2.526191536580221,2.276974602336548,-1.0160520712481897,-0.16003019014467412
1708440407.7304108,-1.1003689765930176,-1.6842853031554164,-2.526219908391134,2.276808186168335,-1.0161078611956995,-0.16042739549745733
1708440407.7324579,-1.100046992301941,-1.6844426594176234,-2.52630860010256,2.2766031461903076,-1.0161588827716272,-0.16071588197817022
1708440407.7344453,-1.0997905731201172,-1.6845289669432582,-2.526339832936422,2.276460571880005,-1.0162437597857874,-0.16111356416811162
1708440407.736403,-1.0994774103164673,-1.6846615276732386,-2.526372734700338,2.276272936458252,-1.01628286043276,-0.16149741808046514
1708440407.7384021,-1.099141240119934,-1.6847759685912074,-2.5263999144183558,2.2760483461567382,-1.0163310209857386,-0.1619027296649378
1708440407.7404118,-1.0987968444824219,-1.6850153408446253,-2.5264273325549524,2.2758263784595947,-1.016451660786764,-0.1622245947467249
1708440407.7423942,-1.0984042882919312,-1.685108324090475,-2.5264914671527308,2.2756282526203613,-1.0164955298053187,-0.16262513795961553
1708440407.7443888,-1.0980368852615356,-1.6853372059264125,-2.5265591780291956,2.275343819255493,-1.016595188771383,-0.16299373308290654
1708440407.7463984,-1.0976043939590454,-1.6854883633055628,-2.526607338582174,2.2751166063496093,-1.016662899647848,-0.16333038011659795
1708440407.748424,-1.0971958637237549,-1.685639043847555,-2.5266595522509974,2.2747906881519775,-1.0168030897723597,-0.1636894384967249
1708440407.7503886,-1.0967721939086914,-1.6858669720091761,-2.5267520586596888,2.2745329576679687,-1.0168913046466272,-0.16402894655336553
1708440407.7524126,-1.0963441133499146,-1.68607821087026,-2.526782814656393,2.2741991716572265,-1.0168774763690394,-0.1643317381488245
1708440407.7543855,-1.095882773399353,-1.6863228283324183,-2.526904884968893,2.273885651225708,-1.017022434865133,-0.164774243031637
1708440407.756423,-1.095423936843872,-1.6864773235716761,-2.5269857088672083,2.27360908567395,-1.0171549955951136,-0.1651061216937464
1708440407.7584083,-1.0949275493621826,-1.6867710552611292,-2.5270729700671595,2.2731620508381347,-1.0172465483294886,-0.16537601152528936
1708440407.760383,-1.0944520235061646,-1.686974664727682,-2.527104441319601,2.2728449541279296,-1.0173867384540003,-0.16580325761903936
1708440407.762421,-1.0939370393753052,-1.6872617206969203,-2.527216974888937,2.2723938661762695,-1.0174902121173304,-0.16611224809755498
1708440407.7643838,-1.0933517217636108,-1.6875130138792933,-2.5272472540484827,2.272040291423462,-1.0176013151751917,-0.16653424898256475
1708440407.7664042,-1.092764139175415,-1.6878124676146449,-2.527376953755514,2.2715510564991455,-1.0177419821368616,-0.16687423387636358
1708440407.7684147,-1.0921807289123535,-1.6880833111205042,-2.527412239705221,2.2712041574665527,-1.0178173224078577,-0.1671674887286585
1708440407.7703831,-1.091601848602295,-1.6884237728514613,-2.5274952093707483,2.2708088594624023,-1.0179289023028772,-0.16746169725526983
1708440407.7724376,-1.0909103155136108,-1.6886788807311,-2.5276323000537317,2.270425720805786,-1.018085781727926,-0.16780215898622686
1708440407.7743943,-1.0903149843215942,-1.6890102825560511,-2.5276792685138147,2.2700387674519042,-1.0181244055377405,-0.16812497774233037
1708440407.7764096,-1.0897119045257568,-1.6893025837340296,-2.5278244654284876,2.2695962625690917,-1.018285099660055,-0.1684358755694788
1708440407.7783964,-1.0890313386917114,-1.6896778545775355,-2.5278964678393763,2.269155665034912,-1.0183756987201136,-0.16879207292665654
1708440407.7803895,-1.088379979133606,-1.690010210076803,-2.528013054524557,2.268685980434082,-1.0185325781451624,-0.16908723512758428
1708440407.7823973,-1.0876106023788452,-1.6903530559935511,-2.5280872027026575,2.268207235927246,-1.0186923185931605,-0.1694720427142542
1708440407.784389,-1.086907982826233,-1.6906506023802699,-2.528217140828268,2.2676819997974853,-1.0188000837909144,-0.16978389421571904
1708440407.7864158,-1.0861756801605225,-1.6909939251341761,-2.52828032175173,2.2671827512928466,-1.0189440886126917,-0.1700666586505335
1708440407.788405,-1.0854113101959229,-1.6914063892760218,-2.5284255186664026,2.2666687208363037,-1.0190704504596155,-0.17041427293886358
1708440407.7903929,-1.084587812423706,-1.691756387750143,-2.5285168329821985,2.266087456340454,-1.0192425886737269,-0.17075139680971319
1708440407.7923763,-1.0837719440460205,-1.6921807728209437,-2.5286040941821497,2.265535755748413,-1.019374195729391,-0.17100936571230108
1708440407.7944002,-1.0829341411590576,-1.6925369701781214,-2.5287449995623987,2.264941616649292,-1.0195830504046839,-0.1713503042804163
1708440407.7963827,-1.082112193107605,-1.6929017506041468,-2.5288932959186,2.2644123274036865,-1.0196931997882288,-0.17163020769228154
1708440407.7984073,-1.0812610387802124,-1.6933261356749476,-2.529013220463888,2.263857288951538,-1.0198381582843226,-0.17194825807680303
1708440407.800437,-1.080450177192688,-1.6937700710692347,-2.529189650212423,2.2632779318043212,-1.0199578444110315,-0.17225724855531865
1708440407.8023763,-1.0795129537582397,-1.6942211590208949,-2.5292933622943323,2.262619896526001,-1.0200980345355433,-0.17258817354311162
1708440407.804412,-1.0785431861877441,-1.6946450672545375,-2.529363218938009,2.2619709211536865,-1.020257298146383,-0.17282182375063115
1708440407.8064036,-1.0776031017303467,-1.695137163201803,-2.52954870859255,2.2613162237354736,-1.0203445593463343,-0.17318326631654912
1708440407.8083968,-1.0766034126281738,-1.6955253086485804,-2.5297210852252405,2.260669394130371,-1.0205524603473108,-0.17347461382021123
1708440407.8103662,-1.075615644454956,-1.6959153614439906,-2.5298574606524866,2.2599028783985595,-1.0207203070269983,-0.17377025285829717
1708440407.8123627,-1.0745633840560913,-1.6964684925475062,-2.530008856450216,2.2592341142841796,-1.0208237806903284,-0.17405635515321904
1708440407.814376,-1.073585867881775,-1.6969310245909632,-2.5301571528064173,2.2585739332386474,-1.021015469227926,-0.17436582246889287
1708440407.8163865,-1.0725362300872803,-1.6974436245360316,-2.530304495488302,2.2578164774128417,-1.0212200323687952,-0.17473203340639287
1708440407.8183818,-1.0715011358261108,-1.6978804073729457,-2.5304725805865687,2.25706069051709,-1.0214117209063929,-0.1749966780291956
1708440407.8203964,-1.07039213180542,-1.6984311542906703,-2.530604426060812,2.25635473310437,-1.0215752760516565,-0.17529184023012334
1708440407.8224075,-1.0692886114120483,-1.6989881000914515,-2.5307558218585413,2.255533142680786,-1.0216978232013147,-0.1755593458758753
1708440407.8244247,-1.0681360960006714,-1.6995312176146449,-2.530928436909811,2.2547237116047363,-1.0219147841082972,-0.17590791383852178
1708440407.8263752,-1.066994071006775,-1.7000514469542445,-2.5310514608966272,2.2539354997822265,-1.0221107641803187,-0.17623597780336553
1708440407.8283818,-1.0658912658691406,-1.7006498775877894,-2.5312283674823206,2.2531019884296875,-1.0222657362567347,-0.17652684846986944
1708440407.830379,-1.0646789073944092,-1.7011972866454066,-2.53147799173464,2.2522894579121093,-1.0224655310260218,-0.17683059373964483
1708440407.8323689,-1.0634769201278687,-1.7018186054625453,-2.5315924326526087,2.2514571386524658,-1.0226247946368616,-0.17708951631654912
1708440407.8343947,-1.062239408493042,-1.7023970089354457,-2.531797234212057,2.2506350713917236,-1.0228241125689905,-0.17739659944643194
1708440407.8364203,-1.0610666275024414,-1.703036447564596,-2.5319414774524134,2.2497140604206542,-1.0230243841754358,-0.17778283754457647
1708440407.838394,-1.0597853660583496,-1.703564306298727,-2.532104794179098,2.2488013940998535,-1.0231950918780726,-0.17806846300234014
1708440407.8403833,-1.0585545301437378,-1.7042480907835902,-2.532313410435812,2.2479349809833984,-1.0234230200396937,-0.17834645906557256
1708440407.8423896,-1.0572630167007446,-1.7048951588072718,-2.5324400107013147,2.2470647531696777,-1.0236342589007776,-0.17866355577577764
1708440407.8443913,-1.055922269821167,-1.7055732212462367,-2.532649342213766,2.2460548120686035,-1.023907486592428,-0.17892724672426397
1708440407.8463979,-1.0546479225158691,-1.7061230144896449,-2.5327921549426478,2.245123787517212,-1.0241683165179651,-0.17921859422792608
1708440407.8484166,-1.053269624710083,-1.7068006000914515,-2.5329766909228724,2.2442192274281005,-1.0243638197528284,-0.17958289781679326
1708440407.8503733,-1.0519767999649048,-1.7074758015074671,-2.533140007649557,2.243264361018799,-1.0245378653155726,-0.1798337141620081
1708440407.8523781,-1.0505964756011963,-1.7081448040404261,-2.5333080927478235,2.242274447078369,-1.0247133413897913,-0.1801365057574671
1708440407.8544047,-1.0492050647735596,-1.7088195286192835,-2.5335336367236536,2.2413100439259033,-1.024994198475973,-0.180460278187887
1708440407.8563995,-1.0477304458618164,-1.7095476589598597,-2.5336666742907923,2.240285797710083,-1.025217358266012,-0.1807311216937464
1708440407.8583755,-1.0462968349456787,-1.710200925866598,-2.5339162985431116,2.239245577449463,-1.0254328886615198,-0.181040112172262
1708440407.8603723,-1.0448412895202637,-1.7110053501524867,-2.5340428988086146,2.2381314474293212,-1.0256560484515589,-0.18141252199281865
1708440407.8623815,-1.0433146953582764,-1.711710115472311,-2.5342631975757044,2.2371346193500976,-1.0258596579181116,-0.18165141740907842
1708440407.8643975,-1.0418426990509033,-1.7124563656248988,-2.534480396901266,2.2360336023518066,-1.0261157194720667,-0.1819546858416956
1708440407.8664012,-1.0403789281845093,-1.7131740055479945,-2.5346933046924036,2.23499505102124,-1.0263116995440882,-0.1822875181781214
1708440407.8683975,-1.0387691259384155,-1.7139293156065882,-2.5348392168628138,2.2339183527180175,-1.0265348593341272,-0.1825960318194788
1708440407.870372,-1.0371947288513184,-1.7146221599974574,-2.535060707722799,2.2328802782246093,-1.0267589727984827,-0.18291026750673467
1708440407.8723981,-1.0356318950653076,-1.7154509029784144,-2.535271946583883,2.231722517604492,-1.0269902388202112,-0.18319398561586553
1708440407.87439,-1.034014105796814,-1.716245790521139,-2.535492483769552,2.230642719859741,-1.0272577444659632,-0.1835711638080042
1708440407.8763735,-1.0323387384414673,-1.7169743976988734,-2.535708491002218,2.229449911708496,-1.0274818579303187,-0.18389922777284795
1708440407.878367,-1.0307044982910156,-1.7177607021727503,-2.5359047094928187,2.2283503252216796,-1.0277412573443812,-0.18414527574648076
1708440407.8803654,-1.0290298461914062,-1.7185131512083949,-2.536079231892721,2.227154417628906,-1.0279243628131312,-0.1845181624041956
1708440407.882374,-1.0273499488830566,-1.7193480930724085,-2.5362876097308558,2.2259079652973632,-1.0282858053790491,-0.18480426469911748
1708440407.8843718,-1.0256547927856445,-1.720149656335348,-2.5365360418902796,2.224743290538452,-1.0285494963275355,-0.185129467641012
1708440407.886404,-1.0238813161849976,-1.7210008106627406,-2.5366671721087855,2.223526878947876,-1.028783146535055,-0.18545276323427373
1708440407.888404,-1.0220822095870972,-1.7218309841551722,-2.536947552357809,2.2222418028065185,-1.0291040579425257,-0.18568975130190069
1708440407.8903856,-1.0203979015350342,-1.7227193317809046,-2.537208143864767,2.221055431956909,-1.0293834845172327,-0.18606692949403936
1708440407.8923845,-1.0185827016830444,-1.7235280476012171,-2.537415329610006,2.2197982507893066,-1.0296056906329554,-0.18644744554628545
1708440407.89437,-1.0167758464813232,-1.7244016132750453,-2.537607494984762,2.218477888698242,-1.0298407713519495,-0.18677884737123662
1708440407.8963857,-1.01496422290802,-1.7252651653685511,-2.537884298955099,2.217193050975464,-1.0301039854632776,-0.187082592641012
1708440407.898387,-1.013094425201416,-1.7261282406248988,-2.538107935582296,2.2159146505543212,-1.0303762594806116,-0.18742305437196904
1708440407.900382,-1.0111714601516724,-1.7270356617369593,-2.538335625325338,2.2145346838184814,-1.030651871358053,-0.18770915666689092
1708440407.9023952,-1.009331226348877,-1.728006502191061,-2.538529936467306,2.2132503229328613,-1.030863110219137,-0.188028637562887
1708440407.9043808,-1.0074344873428345,-1.7288395367064417,-2.5387828985797327,2.2118839460560302,-1.0310667196856897,-0.18843442598451787
1708440407.906413,-1.0055243968963623,-1.7299052677550257,-2.5390477816211146,2.2105399805256347,-1.0313227812396448,-0.18869048753847295
1708440407.9083884,-1.0035529136657715,-1.7307716808714808,-2.5393031279193323,2.2091938692280273,-1.0316069761859339,-0.18908912340273076
1708440407.9103887,-1.0016106367111206,-1.7317553959288539,-2.5396204630481165,2.2077366548725585,-1.0319135824786585,-0.1894319693194788
1708440407.91237,-0.999538004398346,-1.7327162228026332,-2.5398343245135706,2.2063602644154052,-1.0322216192828577,-0.189737621937887
1708440407.914381,-0.9975574612617493,-1.7336727581419886,-2.5401113669024866,2.2049318987080078,-1.0325334707843226,-0.19011193910707647
1708440407.916373,-0.9956211447715759,-1.7346412144102992,-2.540358845387594,2.2035607534595947,-1.0328086058246058,-0.19040137926210576
1708440407.9183826,-0.9935468435287476,-1.7357398472227992,-2.5406106154071253,2.2020491796680908,-1.0330551306353968,-0.19077712694276983
1708440407.9204166,-0.9914854764938354,-1.7366858921446742,-2.5408223311053675,2.2005340295979003,-1.0333426634417933,-0.19110519090761358
1708440407.9224062,-0.9894485473632812,-1.7377673588194789,-2.541114632283346,2.1991135317036132,-1.0336464087115687,-0.19144088426698858
1708440407.9243858,-0.9873745441436768,-1.7387992344298304,-2.5414233843432825,2.1976942259022216,-1.0339620749102991,-0.19185430208315069
1708440407.9263735,-0.9852879047393799,-1.7398644886412562,-2.541662041340963,2.1962482172199707,-1.0342744032489222,-0.19222528139223272
1708440407.928408,-0.9831738471984863,-1.7408582172789515,-2.5419393221484583,2.1947502332874755,-1.0345609823810022,-0.19253093401064092
1708440407.9304283,-0.9810155034065247,-1.7419668636717738,-2.542173687611715,2.1932317453571777,-1.03485614458193,-0.19290286699403936
1708440407.932374,-0.9787983298301697,-1.7430383167662562,-2.5424748102771204,2.1917518812366943,-1.0352566877948206,-0.19331628481020147
1708440407.9343886,-0.9766362905502319,-1.7441112003722132,-2.542689625416891,2.1902119356342773,-1.0355799833880823,-0.1936433951007288
1708440407.9364042,-0.9744548201560974,-1.7452331982054652,-2.543023173009054,2.188685579890869,-1.035891358052389,-0.19404679933656865
1708440407.9383826,-0.9722387194633484,-1.7463399372496546,-2.5432825724231165,2.187171383494995,-1.0362075010882776,-0.19439822832216436
1708440407.9403841,-0.9700097441673279,-1.7474352322020472,-2.5435553232776087,2.1855825620838623,-1.036525074635641,-0.19474393526186162
1708440407.9423847,-0.9677837491035461,-1.7485133610167445,-2.54385215440859,2.184103174800537,-1.0368574301349085,-0.19509727159609014
1708440407.9444199,-0.9656315445899963,-1.7495905361571253,-2.544074598942892,2.182555838222168,-1.0371931234942835,-0.19550973573793584
1708440407.946391,-0.9634309411048889,-1.7506348095335902,-2.544330898915426,2.1810988622852783,-1.037468735371725,-0.1958068052874964
1708440407.9483805,-0.9612330794334412,-1.7517510853209437,-2.5446229616748255,2.17958848058667,-1.0377228895770472,-0.19612580934633428
1708440407.9503987,-0.9590392112731934,-1.7528907261290492,-2.5448620955096644,2.1780800062366943,-1.038062874470846,-0.19655973116029912
1708440407.952378,-0.9568559527397156,-1.7539659939207972,-2.5451868216144007,2.1764916616627197,-1.0384023825274866,-0.19695550600160772
1708440407.954398,-0.9546003937721252,-1.7550889454283656,-2.5454421679126185,2.1749958234974365,-1.0386922995196741,-0.19731265703310186
1708440407.9564831,-0.9523710608482361,-1.7561561069884242,-2.5457757155047815,2.17338673650708,-1.038992706929342,-0.1976702849017542
1708440407.9583995,-0.9502133727073669,-1.7572008572020472,-2.5459776560412806,2.171794815654419,-1.0392444769488733,-0.19806224504579717
1708440407.9603703,-0.9479659199714661,-1.7583114109435023,-2.5462492148028772,2.1702510553547363,-1.039551083241598,-0.19842988649477178
1708440407.9623833,-0.9457377791404724,-1.7594372234740199,-2.5465295950519007,2.1686572271534423,-1.0398147741900843,-0.19877273241151983
1708440407.9643774,-0.9436221718788147,-1.7604924641051234,-2.546875301991598,2.1671036916920166,-1.0401352087603968,-0.1991365591632288
1708440407.9663663,-0.9413308501243591,-1.7615677318968714,-2.5471673647509974,2.1655608850666503,-1.0404017607318323,-0.1995318571673792
1708440407.9684076,-0.9392310380935669,-1.7627016506590785,-2.5474541823016565,2.164078636760376,-1.0407264868365687,-0.19990808168520147
1708440407.9703655,-0.9370442032814026,-1.7637769184508265,-2.547779385243551,2.162531538600586,-1.0409887472735804,-0.20016891161073858
1708440407.9723992,-0.9347717761993408,-1.7648526630797328,-2.548042599354879,2.1610135275074462,-1.041328255330221,-0.20062572160829717
1708440407.9743748,-0.9325335621833801,-1.7659584484496058,-2.5483298937426966,2.1594955164143066,-1.0415952841388147,-0.20098525682558233
1708440407.976393,-0.9303515553474426,-1.767038484612936,-2.548584286366598,2.1579817968555908,-1.0418914000140589,-0.20135814348329717
1708440407.9783642,-0.9281678795814514,-1.7680908642210902,-2.548917833958761,2.15640036642041,-1.0422018210040491,-0.20174152055849248
1708440407.9803782,-0.9259291291236877,-1.769221921960348,-2.5492222944842737,2.154813213939331,-1.0425713698016565,-0.20207244554628545
1708440407.9823992,-0.9237504601478577,-1.7703081570067347,-2.5494676272021692,2.1533025938221435,-1.042849365864889,-0.20237905183901006
1708440407.9843743,-0.9215447902679443,-1.7713490925230921,-2.5497565905200403,2.15182272970166,-1.0430925528155726,-0.20275432268251592
1708440407.9864805,-0.9193569421768188,-1.7724634609618128,-2.5500486532794397,2.150306149119995,-1.0433643499957483,-0.20309764543642217
1708440407.9883778,-0.9171277284622192,-1.7735439739623011,-2.550284449254171,2.148803396815918,-1.043607536946432,-0.20345765749086553
1708440407.9903884,-0.9148697257041931,-1.774654050866598,-2.550596300755636,2.1472133833118896,-1.0439642111407679,-0.2038496176349085
1708440407.992424,-0.91274094581604,-1.7757064304747523,-2.5508928934680384,2.145702524776123,-1.0442498365985315,-0.20419723192323858
1708440407.9943907,-0.910568118095398,-1.7768312893309535,-2.551218096409933,2.1441733080097656,-1.0446160475360315,-0.20457679430116826
1708440407.9963908,-0.9083494544029236,-1.7778765163817347,-2.551443878804342,2.1426989275166015,-1.0448601881610315,-0.2049315611468714
1708440407.9984097,-0.9061576724052429,-1.779001852075094,-2.5517447630511683,2.1410648065754394,-1.0452373663531702,-0.20527965227235967
1708440408.0003953,-0.9039598703384399,-1.7800737820067347,-2.552040402089254,2.1394755083271484,-1.045633618031637,-0.2056806723224085
1708440408.0024102,-0.9017769694328308,-1.781151910821432,-2.5523205439196985,2.1379470068165283,-1.0459168593036097,-0.20608932176698858
1708440408.0043745,-0.8995678424835205,-1.782260080377096,-2.552640978490011,2.1364521223255615,-1.0462272802936,-0.2064293066607874
1708440408.0064628,-0.897357165813446,-1.7833687267699183,-2.5529497305499476,2.1348540025898437,-1.0465872923480433,-0.20678216615785772
1708440408.0083804,-0.8952265977859497,-1.7844191990294398,-2.553192917500631,2.1333042818256835,-1.0468781630145472,-0.20707589784731084
1708440408.0103886,-0.8931071758270264,-1.7855297527708949,-2.553439442311422,2.1319076257893066,-1.0471857229815882,-0.2075751463519495
1708440408.01238,-0.8908635973930359,-1.7866646252074183,-2.5537927786456507,2.1303581434437255,-1.0474846998797815,-0.20793658891786748
1708440408.0143611,-0.8886952996253967,-1.7877370319762171,-2.5540719668017786,2.1288186746784667,-1.0477679411517542,-0.20828038850893194
1708440408.0164168,-0.8864949345588684,-1.7887512646117152,-2.554307524357931,2.127260847682617,-1.0480602423297327,-0.208566967641012
1708440408.0183861,-0.8842764496803284,-1.789804597894186,-2.55457050005068,2.1256577211567382,-1.0483549276935022,-0.2089155356036585
1708440408.0204282,-0.8820505738258362,-1.7908932171263636,-2.5549004713641565,2.124156876201294,-1.0486276785479944,-0.20936853090395147
1708440408.022463,-0.8798595070838928,-1.7920996151366175,-2.5551231543170374,2.122556372279785,-1.0489099661456507,-0.20967036882509404
1708440408.0243893,-0.8776051998138428,-1.7931295833983363,-2.5553656260119837,2.121110363597534,-1.0491936842547815,-0.21003896394838506
1708440408.026389,-0.8753902316093445,-1.794227739373678,-2.5556955973254603,2.11959354459729,-1.0495289007769983,-0.2103942076312464
1708440408.0283933,-0.8731728792190552,-1.7952991924681605,-2.5559750239001673,2.1181208330341796,-1.0497964064227503,-0.21071988741029912
1708440408.0304158,-0.8709717988967896,-1.7964135609068812,-2.5561934153186243,2.1166435915180664,-1.050168816243307,-0.21106177965273076
1708440408.0324657,-0.8687332272529602,-1.7974826298155726,-2.556519095097677,2.115062637920044,-1.05048114458193,-0.21143943468202764
1708440408.0344048,-0.8665658831596375,-1.7985626659789027,-2.5567668120013636,2.1136318880268554,-1.0507882277118128,-0.2118004004107874
1708440408.0363986,-0.864315390586853,-1.7997094593443812,-2.556998316441671,2.112074537868164,-1.0510876814471644,-0.2121194044696253
1708440408.0384216,-0.8621106743812561,-1.8007823429503382,-2.557291094456808,2.1105081278034667,-1.0514166990863245,-0.21246749559511358
1708440408.040423,-0.8599051237106323,-1.801927228967184,-2.5575783888446253,2.1089462476917724,-1.0517447630511683,-0.21279842058290654
1708440408.0423775,-0.8577552437782288,-1.8030134640135707,-2.5578458944903772,2.1074344354816894,-1.052044693623678,-0.2131741682635706
1708440408.0444133,-0.8555315732955933,-1.8040405712523402,-2.5580979029284876,2.1058904367634277,-1.052363697682516,-0.21351319948305303
1708440408.046388,-0.8533636331558228,-1.805154939691061,-2.558390204106466,2.104278488750122,-1.052666489277975,-0.2138288656817835
1708440408.0484223,-0.8511582016944885,-1.806246896783346,-2.558678213750021,2.1027399736591796,-1.0530241171466272,-0.21422845522035772
1708440408.0503707,-0.8489884734153748,-1.807385107079977,-2.558986488972799,2.1012095647999267,-1.0532754103290003,-0.21456748643984014
1708440408.0524244,-0.8468142747879028,-1.8084236584105433,-2.5592296759234827,2.099641724223755,-1.0535662809955042,-0.21497136751283819
1708440408.0544386,-0.8445855379104614,-1.8095785580077113,-2.5595338980304163,2.0981311041065673,-1.0538838545428675,-0.21530419984926397
1708440408.0564184,-0.842438280582428,-1.8106891117491664,-2.5598021189319056,2.0965987878986816,-1.0541909376727503,-0.21562654176820928
1708440408.0583742,-0.8402390480041504,-1.8117310009398402,-2.560032908116476,2.0950841146656494,-1.054446045552389,-0.2159493605243128
1708440408.0603948,-0.8380466103553772,-1.812815328637594,-2.560361925755636,2.093498392696045,-1.0547259489642542,-0.2163785139666956
1708440408.0623705,-0.8358211517333984,-1.8139239750304164,-2.5606616179095667,2.0919992166706542,-1.0550215880023401,-0.21671754518617803
1708440408.0643902,-0.8336186408996582,-1.8150583706297816,-2.5609172026263636,2.0904831129261474,-1.0553138891803187,-0.21711427370180303
1708440408.0663683,-0.8314285278320312,-1.8161140880980433,-2.5611844698535364,2.0889267164417724,-1.0556328932391565,-0.21742564836610967
1708440408.068402,-0.8293147087097168,-1.8172189197936,-2.5615103880511683,2.0873982149311523,-1.0559290091144007,-0.21779948869814092
1708440408.0703855,-0.8270315527915955,-1.818340917626852,-2.5618189016925257,2.0858842569538574,-1.0562213102923792,-0.2181461493121546
1708440408.0723763,-0.8248869180679321,-1.8194414577879847,-2.562138621007101,2.0843960481831054,-1.0565045515643519,-0.21849519411195928
1708440408.0743968,-0.8226895928382874,-1.8204761944212855,-2.5623491446124476,2.082862301463745,-1.0569022337542933,-0.2188628355609339
1708440408.076405,-0.8204516172409058,-1.821606298486227,-2.5626493136035364,2.0813097196766357,-1.0571563879596155,-0.2192314306842249
1708440408.0783699,-0.8183074593544006,-1.8227220974364222,-2.5629335085498255,2.0797313886829834,-1.0573952833758753,-0.21957284608949834
1708440408.0803735,-0.8160136938095093,-1.823763986627096,-2.563225809727804,2.0781988340565185,-1.0577767531024378,-0.21994573274721319
1708440408.082364,-0.8138785362243652,-1.8248211346068324,-2.563500706349508,2.076660080546997,-1.0580766836749476,-0.22034246126283819
1708440408.08443,-0.8115730285644531,-1.8260027370848597,-2.5637734572040003,2.0751253801533203,-1.0584328810321253,-0.2207258383380335
1708440408.086407,-0.8094071745872498,-1.827085634271139,-2.5641070047961634,2.073605938548706,-1.0586836973773401,-0.22106439272035772
1708440408.0883904,-0.8071728348731995,-1.8281618557372035,-2.5643330256091517,2.0720700460621337,-1.0589707533465784,-0.221414868031637
1708440408.0903842,-0.8049877882003784,-1.8292962513365687,-2.5646207968341272,2.070603771800659,-1.0592878500567835,-0.22178346315492803
1708440408.092408,-0.8027909398078918,-1.8303681812682093,-2.5648890177356165,2.069021387691162,-1.0596326033221644,-0.22207814851869756
1708440408.0943823,-0.800631582736969,-1.831430574456686,-2.5651519934283655,2.0674523550220947,-1.059955898915426,-0.2224820295916956
1708440408.0963964,-0.7984098196029663,-1.832553049127096,-2.5654946009265345,2.065943880672119,-1.0602591673480433,-0.22283822694887334
1708440408.098388,-0.7962790727615356,-1.833566804925436,-2.5657649675952356,2.0644499498554687,-1.0605743567096155,-0.22315627733339483
1708440408.1004493,-0.7940831780433655,-1.8347097835936488,-2.566016737614767,2.062906427974365,-1.0608952681170862,-0.22351295152773076
1708440408.1023693,-0.7918728590011597,-1.8357736072936,-2.5662646929370325,2.0613910394855957,-1.0612276236163538,-0.22388106981386358
1708440408.1044035,-0.7896884679794312,-1.836879392663473,-2.5666025320636194,2.0597616869160156,-1.061526123677389,-0.2242644468890589
1708440408.1063986,-0.7874558568000793,-1.837937971154684,-2.5668862501727503,2.058279438609741,-1.0618584791766565,-0.22460633913149053
1708440408.1083817,-0.7851914167404175,-1.839015623132223,-2.567136828099386,2.0567874151417236,-1.0621660391436976,-0.2249987761126917
1708440408.110368,-0.783027708530426,-1.840060373345846,-2.5674098173724573,2.0552596288868408,-1.0624659697162073,-0.22534257570375615
1708440408.1124022,-0.7808595299720764,-1.8412562809386195,-2.5676680246936243,2.053754969234131,-1.062737290059225,-0.22580510774721319
1708440408.1143806,-0.7786191701889038,-1.842356344262594,-2.5679526964770716,2.0521718698688964,-1.0630491415606897,-0.2261107603656214
1708440408.116377,-0.776435136795044,-1.8434082470335902,-2.56824499765505,2.0506746011921386,-1.0633862654315394,-0.22647315660585576
1708440408.1183856,-0.7741774320602417,-1.8443824253477992,-2.5685043970691126,2.049191399211548,-1.063669506703512,-0.2268608252154749
1708440408.1204147,-0.7720228433609009,-1.8455811939635218,-2.568768564854757,2.0475827890583496,-1.0640047232257288,-0.2272127310382288
1708440408.1224036,-0.7697919011116028,-1.8466712437071742,-2.5690892378436487,2.046086235637329,-1.064279858266012,-0.22753841081728154
1708440408.124413,-0.7676356434822083,-1.8477055035033167,-2.569331947957174,2.0445679861256103,-1.0645797888385218,-0.22794849077333623
1708440408.1264012,-0.7653881907463074,-1.8488360844054164,-2.569571081792013,2.043013258571289,-1.0648887793170374,-0.22828990617860967
1708440408.1283898,-0.7631837725639343,-1.849966665307516,-2.5698962847339075,2.041478319759033,-1.0651186148272913,-0.22860461870302373
1708440408.1303847,-0.7609710097312927,-1.8510495624937953,-2.570155445729391,2.0398878294178466,-1.0655086676227015,-0.2289975325213831
1708440408.132421,-0.7588310837745667,-1.8520852528014125,-2.570479694996969,2.038343592281006,-1.0657833258258265,-0.2293613592730921
1708440408.1343818,-0.7566266059875488,-1.8531867466368617,-2.5707317034350794,2.036842032069824,-1.0661199728595179,-0.22972327867616826
1708440408.136391,-0.7543911933898926,-1.8542376957335414,-2.571052376423971,2.0352563101002197,-1.066399399434225,-0.230079476033346
1708440408.138394,-0.7522331476211548,-1.855417867700094,-2.5712583700763147,2.033782644862793,-1.0667155424701136,-0.2304013411151331
1708440408.1404388,-0.7500577569007874,-1.8564869366087855,-2.571583096181051,2.032240076656006,-1.0670159498797815,-0.23079282442201787
1708440408.1423836,-0.7478049397468567,-1.857598444024557,-2.571899477635519,2.030620499248169,-1.0673559347735804,-0.231147591267721
1708440408.144424,-0.7456355094909668,-1.8587032757201136,-2.572178904210226,2.0291549402424316,-1.067712132130758,-0.231546703969137
1708440408.1464078,-0.7434329390525818,-1.8597594700255335,-2.572439495717184,2.027644081706665,-1.06797963777651,-0.23194581667055303
1708440408.1483943,-0.741240382194519,-1.8608528576292933,-2.572702232991354,2.0261117654987792,-1.0682185331927698,-0.2323082129107874
1708440408.1504087,-0.7390801906585693,-1.8619333706297816,-2.5729990641223353,2.024613543147705,-1.0685222784625452,-0.23268396059145147
1708440408.1523976,-0.736893892288208,-1.863025804559225,-2.573331419621603,2.0231141287037353,-1.0688250700580042,-0.23300582567323858
1708440408.1544428,-0.7346159219741821,-1.864147802392477,-2.573561970387594,2.021566315288208,-1.0691502729998987,-0.2333901564227503
1708440408.1564448,-0.7324785590171814,-1.865223070184225,-2.5738418737994593,2.02006117879834,-1.0694258848773401,-0.23373300233949834
1708440408.158411,-0.7302804589271545,-1.866293569604391,-2.574097458516256,2.0184456545063476,-1.06968862215151,-0.23412019411195928
1708440408.1603866,-0.72806715965271,-1.867284437219137,-2.574394766484396,2.01691119253125,-1.0699570814715784,-0.23440152803529912
1708440408.1623733,-0.7257512211799622,-1.8684541187682093,-2.5747528711902063,2.0152882772633056,-1.0702241102801722,-0.23480683961977178
1708440408.1643765,-0.7236229777336121,-1.8695723019041957,-2.5749011675464075,2.0137595373341064,-1.0705283323871058,-0.23518830934633428
1708440408.1663823,-0.721347987651825,-1.870603700677389,-2.5752559343921106,2.0122336584278564,-1.0707834402667444,-0.23561412492860967
1708440408.1683729,-0.7191872000694275,-1.8717361889281214,-2.5755675474749964,2.010728283519409,-1.071120564137594,-0.2358782927142542
1708440408.1703715,-0.7170202732086182,-1.8728605709471644,-2.575843397771017,2.009215756053589,-1.0714691321002405,-0.2362902800189417
1708440408.1723788,-0.714777410030365,-1.8739596805968226,-2.576122824345724,2.0077811914631347,-1.0717766920672815,-0.23663312593568975
1708440408.1743734,-0.7126681804656982,-1.8750235042967738,-2.5763898531543177,2.0062498289295654,-1.072092358266012,-0.23700362840761358
1708440408.1763728,-0.7104203104972839,-1.8760982952513636,-2.576682154332296,2.0046793657490234,-1.0724614302264612,-0.23733789125551397
1708440408.1783733,-0.7081950306892395,-1.877207418481344,-2.5769503752337855,2.0031916338154296,-1.0727441946612757,-0.23765689531435186
1708440408.1803772,-0.7059770226478577,-1.878413816491598,-2.577254835759298,2.0016378599354248,-1.0730798880206507,-0.23806935945619756
1708440408.182407,-0.7038906216621399,-1.879430433312887,-2.5775273481952112,2.0001422601887207,-1.0734036604510706,-0.23845988908876592
1708440408.1843796,-0.7017003893852234,-1.8806077442564906,-2.5778263250934046,1.9986421304890136,-1.0737808386432093,-0.23883086839784795
1708440408.1864405,-0.699432373046875,-1.8816725216307582,-2.5780769030200403,1.997075005168579,-1.0740421454059046,-0.2391751448260706
1708440408.188389,-0.6973286271095276,-1.8827349148192347,-2.5784226099597376,1.995595856303833,-1.0743210951434534,-0.23950082460512334
1708440408.1904106,-0.695106565952301,-1.8838664493956507,-2.578637663518087,1.9940485197254638,-1.074670139943258,-0.23984080949892217
1708440408.1924052,-0.692891538143158,-1.8850022755064906,-2.578965727482931,1.9925429063984375,-1.074986759816305,-0.24023515382875615
1708440408.194392,-0.690730631351471,-1.886085649529928,-2.579299275075094,1.9911071497150878,-1.075228516255514,-0.240549389516012
1708440408.1963956,-0.6885601282119751,-1.8871857128539027,-2.5795462767230433,1.9896382528492431,-1.0755694548236292,-0.24093228975404912
1708440408.198439,-0.6862862706184387,-1.8882914982237757,-2.5798216501819056,1.9881269174763183,-1.075881306325094,-0.24128371873964483
1708440408.2004268,-0.6840481162071228,-1.8894273243346156,-2.5801263491259974,1.9866110521503906,-1.0761531035052698,-0.24162656465639287
1708440408.2024007,-0.6818544864654541,-1.890524526635641,-2.580381695424215,1.9850305753895263,-1.076538387929098,-0.24205142656435186
1708440408.2043781,-0.6796044111251831,-1.891630312005514,-2.580664936696188,1.9835874277302246,-1.0767806212054651,-0.24235755601991826
1708440408.2064128,-0.6774187684059143,-1.8927527866759242,-2.580940548573629,1.9820183950611572,-1.0770652929889124,-0.24267560640443975
1708440408.2084317,-0.6752022504806519,-1.893848558465475,-2.581252638493673,1.9805337625690917,-1.0773442427264612,-0.24308330217470342
1708440408.2104018,-0.6730513572692871,-1.89491667369985,-2.5815210978137415,1.978984757060669,-1.0775912443744105,-0.24339849153627569
1708440408.2124422,-0.6708446145057678,-1.8960606060423792,-2.581829611455099,1.9775072771259765,-1.0779364744769495,-0.24375707307924444
1708440408.2143884,-0.6686356067657471,-1.8971053562560023,-2.582160774861471,1.9759408670612792,-1.078240219746725,-0.24406034151186162
1708440408.2164192,-0.666510283946991,-1.8982016048827113,-2.5824454466449183,1.9743773180195312,-1.0785191694842737,-0.2443917433368128
1708440408.2184322,-0.6642349362373352,-1.8993097744383753,-2.582719628010885,1.9728433328815917,-1.0788400808917444,-0.24474794069399053
1708440408.220412,-0.6620051264762878,-1.9003964863219203,-2.5830233732806605,1.9712840753742675,-1.0791471640216272,-0.24516040483583623
1708440408.2224243,-0.6598926782608032,-1.901529928246969,-2.583306852971212,1.9697465139576416,-1.0794265905963343,-0.2455356756793421
1708440408.2243955,-0.6576777100563049,-1.9025827846922816,-2.583611075078146,1.9683455663868408,-1.0797022024737757,-0.24583942094911748
1708440408.2263994,-0.6554452180862427,-1.9036790333189906,-2.583942953740255,1.9667939382740478,-1.0800307432757776,-0.24620038667787725
1708440408.2283742,-0.6532610058784485,-1.9048215351500453,-2.5842259565936487,1.9652585226246337,-1.0803707281695765,-0.2465594450580042
1708440408.2304287,-0.651066243648529,-1.9059139690794886,-2.5845213572131556,1.9637409883686523,-1.0806744734393519,-0.24694663683046514
1708440408.2324069,-0.6489536762237549,-1.9069935284056605,-2.5847845713244837,1.9622551637836914,-1.0809381643878382,-0.24725038210024053
1708440408.2344117,-0.6467470526695251,-1.9080521068968714,-2.585092608128683,1.960817499751709,-1.0812371412860315,-0.24764997163881475
1708440408.2364182,-0.644454300403595,-1.9091879330077113,-2.585372511540548,1.9592811304279785,-1.0816105047809046,-0.24795610109438115
1708440408.2384484,-0.6423203349113464,-1.910196920434469,-2.5856719652758997,1.9577779012867431,-1.0818775335894983,-0.24837190309633428
1708440408.2403858,-0.6401144862174988,-1.9113122425475062,-2.5859270731555384,1.9562675195881347,-1.0821641127215784,-0.24870568910707647
1708440408.2424054,-0.6378713250160217,-1.912466665307516,-2.586259190236227,1.9547452169605712,-1.0824969450580042,-0.24903518358339483
1708440408.2443933,-0.6356061100959778,-1.913567682305807,-2.5865424315081995,1.9532238680073242,-1.0827925840960901,-0.2493961493121546
1708440408.2463875,-0.633449137210846,-1.9146295986571253,-2.5868616739856165,1.9516479211994628,-1.0830963293658655,-0.249702278767721
1708440408.2483997,-0.6312230825424194,-1.915746351281637,-2.587132994328634,1.9502038198658447,-1.0833867231952112,-0.2500827948199671
1708440408.2504096,-0.6290379166603088,-1.916821619073385,-2.5875025431262415,1.9486753183552246,-1.0836508909808558,-0.25039655367006475
1708440408.2523978,-0.6268048286437988,-1.9179536304869593,-2.5877578894244593,1.9472078520008544,-1.0839231649981897,-0.25079471269716436
1708440408.2544062,-0.6246074438095093,-1.9191051922240199,-2.58807617822756,1.945791168803833,-1.0842517058001917,-0.25109941164125615
1708440408.2564056,-0.6223552227020264,-1.920328279534811,-2.5883880297290247,1.9443260866352539,-1.0845802466021937,-0.2514155546771448
1708440408.258383,-0.6202046275138855,-1.9214221439757289,-2.588635269795553,1.9428400236317138,-1.0848997274981897,-0.2517326513873499
1708440408.2604063,-0.618004560470581,-1.9224587879576625,-2.588970724736349,1.941418095225952,-1.0851386229144495,-0.25213367143739873
1708440408.2623768,-0.6157676577568054,-1.9235969982542933,-2.5893150011645716,1.9399725633808593,-1.085398022328512,-0.25241166750063115
1708440408.2643988,-0.6136266589164734,-1.9247361622252406,-2.5896263758288782,1.9386045175739746,-1.0856569449054163,-0.2527874151812952
1708440408.266398,-0.6113815903663635,-1.9259411297240199,-2.589931313191549,1.9371074873157959,-1.0859969297992151,-0.2530558745013636
1708440408.2684126,-0.6092286109924316,-1.9270597896971644,-2.5902865568744105,1.9356772142597656,-1.086421314870016,-0.2534578482257288
1708440408.270396,-0.6070036292076111,-1.9282194576659144,-2.5905609766589563,1.934227390880249,-1.0866110960589808,-0.25377208391298467
1708440408.2724023,-0.6048393845558167,-1.9293705425658167,-2.590877358113424,1.9327635008045654,-1.0868895689593714,-0.25408631960024053
1708440408.2744021,-0.6026554703712463,-1.930469652215475,-2.591240946446554,1.9312583643146972,-1.0871747175799769,-0.25447017351259404
1708440408.2763932,-0.6004586219787598,-1.9316917858519496,-2.5914631525622767,1.9298407274433593,-1.087470833455221,-0.2547491232501429
1708440408.2783926,-0.5982878804206848,-1.9328438244261683,-2.5918150583850306,1.9283901888081054,-1.0878155867206019,-0.25511199632753545
1708440408.280415,-0.5960673689842224,-1.93400301555776,-2.59216815630068,1.9269417959400634,-1.0880621115313929,-0.2554433981524866
1708440408.2823815,-0.5938724875450134,-1.935192724267477,-2.5924459139453333,1.9255296426960449,-1.0883615652667444,-0.2557795683490198
1708440408.2844298,-0.5916927456855774,-1.9363719425597132,-2.592818800603048,1.9240915018269042,-1.088653866444723,-0.2561844030963343
1708440408.2864015,-0.5895481705665588,-1.9375177822508753,-2.5931461493121546,1.9227349001118164,-1.0889256636248987,-0.2564738432513636
1708440408.2883987,-0.5873118042945862,-1.938676496545309,-2.5934861342059534,1.9212774473377685,-1.089200798665182,-0.2567551771747034
1708440408.2903936,-0.5851467847824097,-1.9397980175414027,-2.5937355200396937,1.919900580043457,-1.0895097891436976,-0.25706655183901006
1708440408.2923949,-0.5828998684883118,-1.9409963093199671,-2.5940986315356653,1.918412132854126,-1.089757267628805,-0.25741511980165654
1708440408.294413,-0.5807344913482666,-1.9421478710570277,-2.594456736241476,1.9169601637073974,-1.0901015440570276,-0.25773460069765264
1708440408.2964394,-0.5786099433898926,-1.9432813129820765,-2.5947473684894007,1.9155620771595459,-1.0903242270099085,-0.25805694261659795
1708440408.2984312,-0.5764451622962952,-1.9445058308043421,-2.595119301472799,1.9140936571308593,-1.0906413237201136,-0.2583377997027796
1708440408.3004413,-0.5741915106773376,-1.9457265339293421,-2.5954423586474817,1.9126435953327636,-1.0908835569964808,-0.25869876543153936
1708440408.302395,-0.5720551013946533,-1.946815629998678,-2.5958107153521937,1.9112395483204345,-1.0912249724017542,-0.259071175252096
1708440408.3043988,-0.5697989463806152,-1.947886129418844,-2.596092764531271,1.9097773271748046,-1.0914390722857874,-0.2593625227557581
1708440408.3063958,-0.5675722360610962,-1.949080606500143,-2.596473995839254,1.908320589656494,-1.091755215321676,-0.2597573439227503
1708440408.3084283,-0.5653708577156067,-1.9502421818175257,-2.5968456904040735,1.9069146352955322,-1.0920122305499476,-0.2600520292865198
1708440408.3103902,-0.5630979537963867,-1.9515024624266566,-2.5971649328814905,1.905458851451538,-1.0922711531268519,-0.2603347937213343
1708440408.3123899,-0.5608304142951965,-1.9527279339232386,-2.597482983266012,1.904034062022827,-1.0925558249102991,-0.26063615480531865
1708440408.3143833,-0.5586125254631042,-1.953740736047262,-2.597842518483297,1.9026779371448974,-1.092811409627096,-0.2609770933734339
1708440408.3163903,-0.5564395189285278,-1.9549323521056117,-2.598182264958517,1.9012724596210937,-1.0930584112750452,-0.26130801836122686
1708440408.3183968,-0.5542754530906677,-1.9561025104918421,-2.5986080805407923,1.8998989301868896,-1.0932696501361292,-0.2616193930255335
1708440408.3204155,-0.5520876049995422,-1.957228799859518,-2.598881785069601,1.8984476762958984,-1.0934913794146937,-0.261937443410055
1708440408.3224156,-0.5499374866485596,-1.9583522282042445,-2.5992422739612024,1.8971723753162841,-1.093738857899801,-0.2622774283038538
1708440408.324448,-0.5477410554885864,-1.9594999752440394,-2.5995853582965296,1.8956958490559082,-1.0940101782428187,-0.2626140753375452
1708440408.3264046,-0.5455266237258911,-1.9606105289854945,-2.5999208132373255,1.8943061071583251,-1.094245735798971,-0.26295739809145147
1708440408.328427,-0.5433083772659302,-1.9617940388121546,-2.60024339357485,1.8927864271351318,-1.09459096590151,-0.2633093039142054
1708440408.330408,-0.5411015748977661,-1.9630137882628382,-2.600647513066427,1.8913752275654296,-1.0948546568499964,-0.2635992209063929
1708440408.3324497,-0.5388253927230835,-1.9640914402403773,-2.6010153929339808,1.8898908334919433,-1.0951460043536585,-0.26386005083193
1708440408.3343933,-0.5366862416267395,-1.965287824670309,-2.601318422948019,1.888427658671997,-1.095417324696676,-0.2642119566546839
1708440408.3364003,-0.5343986749649048,-1.9664613209166468,-2.60161263147463,1.8870226579853515,-1.0957496801959437,-0.26459247270693
1708440408.338391,-0.5322356820106506,-1.9675623379149378,-2.6019893328296106,1.885655089015625,-1.096001450215475,-0.2648261229144495
1708440408.3403897,-0.530036449432373,-1.968755384484762,-2.6023088137256067,1.8842386442371826,-1.0962918440448206,-0.2651632467852991
1708440408.3424072,-0.5278789401054382,-1.969926496545309,-2.602712694798605,1.8828555780598144,-1.0966094175921839,-0.2654536406146448
1708440408.3444166,-0.5256997346878052,-1.9710546932616175,-2.6030646006213587,1.8814751344868164,-1.096879784260885,-0.26579267183412725
1708440408.3463836,-0.5234944224357605,-1.9722401104369105,-2.6033511797534388,1.8800958830067138,-1.0971034208880823,-0.26609498659242803
1708440408.3484023,-0.5212443470954895,-1.9734302959837855,-2.6036532560931605,1.878659411067627,-1.097396198903219,-0.26637202898134404
1708440408.3503768,-0.5190868377685547,-1.9745828113951625,-2.604063336049215,1.8773328500935058,-1.0976112524615687,-0.26675445238222295
1708440408.3523746,-0.5169011354446411,-1.975764890710348,-2.6043699423419397,1.8758997160145263,-1.097891632710592,-0.2670815626727503
1708440408.354378,-0.5146540403366089,-1.976971288720602,-2.6047468821154993,1.874535246486328,-1.0981267134295862,-0.2674177328692835
1708440408.3564026,-0.5125544667243958,-1.978152414361471,-2.6050081888781946,1.8731345373341064,-1.0983551184283655,-0.2676752249347132
1708440408.3584359,-0.5102521181106567,-1.9793430767455042,-2.605429712926046,1.8717798429676513,-1.0986679236041468,-0.26802236238588506
1708440408.3603854,-0.508088231086731,-1.980485578576559,-2.6056793371783655,1.8702425199696044,-1.0988953749286097,-0.2683752218829554
1708440408.3623717,-0.5058798789978027,-1.981680532495016,-2.6060028711902063,1.8688344198414306,-1.0991266409503382,-0.2686517874347132
1708440408.3643708,-0.5037404894828796,-1.9828459225096644,-2.606375519429342,1.867466612453125,-1.099382225667135,-0.26896411577333623
1708440408.3663795,-0.5014559626579285,-1.9840408764281214,-2.606734577809469,1.866030140514038,-1.0996668974505823,-0.2693117300616663
1708440408.3683827,-0.4993254244327545,-1.9852010212340296,-2.607013765965597,1.8646878439136962,-1.0999258200274866,-0.2696140448199671
1708440408.3703828,-0.49713996052742004,-1.9863482914366664,-2.6074190775500696,1.8633348184772949,-1.1002629438983362,-0.2699654738055628
1708440408.3723853,-0.4948917627334595,-1.9876138172545375,-2.607757870350973,1.8618649679371337,-1.1005342642413538,-0.27028018632997686
1708440408.3744042,-0.49267494678497314,-1.9887663326659144,-2.608084503804342,1.8605987268635253,-1.1007979551898401,-0.27055389085878545
1708440408.3763885,-0.4905252754688263,-1.9899069271483363,-2.608419958745138,1.8591853815266113,-1.1010692755328577,-0.2708948294269007
1708440408.3783903,-0.4883154034614563,-1.991129537621969,-2.608767573033468,1.8577472406574707,-1.1013248602496546,-0.2712033430682581
1708440408.380386,-0.4861082136631012,-1.9921804867186488,-2.6091118494616907,1.8563591676899414,-1.1015971342669886,-0.2715542952166956
1708440408.3824177,-0.48390793800354004,-1.99339022258901,-2.60944635072817,1.8548845487781982,-1.1018174330340784,-0.2718585173236292
1708440408.3843708,-0.4817619025707245,-1.9945770702757777,-2.609778706227438,1.853449745769165,-1.102060619984762,-0.27215272585024053
1708440408.3864374,-0.4795301854610443,-1.9957391224303187,-2.6101141611682337,1.8520425993153076,-1.1023662726031702,-0.2724669615374964
1708440408.3884046,-0.47732940316200256,-1.996932169000143,-2.6104779879199427,1.8505946832844238,-1.1026256720172327,-0.2727707068072718
1708440408.3904023,-0.4750545918941498,-1.9981490574278773,-2.610874954854147,1.8492085176655273,-1.102868382130758,-0.2730444113360804
1708440408.392414,-0.47292983531951904,-1.9993568859496058,-2.611208740864889,1.84786502897229,-1.103133503590719,-0.2733648459063929
1708440408.3943734,-0.4707522392272949,-2.0004784069456996,-2.611535612736837,1.8463918405720214,-1.103307072316305,-0.2737162748919886
1708440408.396379,-0.46856552362442017,-2.0016499958434046,-2.611887518559591,1.845034046764038,-1.103633228932516,-0.2740114370929163
1708440408.3984058,-0.46632814407348633,-2.0027953586974085,-2.612263266240255,1.8435835081287841,-1.1038759390460413,-0.27429420152773076
1708440408.400414,-0.4641076326370239,-2.0039926968016566,-2.6125529448138636,1.842254562968872,-1.1041572729693812,-0.27456790605653936
1708440408.4024177,-0.46185824275016785,-2.0051633320250453,-2.6129592100726526,1.8408631521412353,-1.1043766180621546,-0.27491790453066045
1708440408.4044168,-0.4597410559654236,-2.006310602227682,-2.6132493654834192,1.839472456569336,-1.104647461568014,-0.27514821687807256
1708440408.4063716,-0.4574950635433197,-2.0074993572630824,-2.6136258284198206,1.8380765157886962,-1.1049369017230433,-0.2755487600909632
1708440408.4083836,-0.4553017020225525,-2.0087062321104945,-2.614021603261129,1.836726112956665,-1.1051872412311,-0.2758424917804163
1708440408.410373,-0.4531645178794861,-2.0098773441710414,-2.6142993609057825,1.835324450130127,-1.1054590384112757,-0.27610570589174444
1708440408.4124002,-0.45091935992240906,-2.011062284509176,-2.6146543661700647,1.8339451986500244,-1.1057031790362757,-0.2763717810260218
1708440408.414395,-0.4487120807170868,-2.0122438869872035,-2.6150456110583704,1.8326396185108642,-1.1059754530536097,-0.2766922155963343
1708440408.4163816,-0.44649139046669006,-2.013449331323141,-2.615438763295309,1.8312594133564453,-1.1061161200152796,-0.2769663969623011
1708440408.4184184,-0.44427940249443054,-2.0146671734251917,-2.615800444279806,1.8298682409473876,-1.1064017454730433,-0.2772458235370081
1708440408.4204361,-0.44201982021331787,-2.015865465203756,-2.616201941167013,1.8284374910541992,-1.1066177527057093,-0.2775333563434046
1708440408.4224193,-0.43985623121261597,-2.017048498193258,-2.616556946431295,1.8270911413380126,-1.1067846457110804,-0.2778280417071741
1708440408.4243934,-0.4376353621482849,-2.018191000024313,-2.61688739458193,1.8257295328327636,-1.1069648901568812,-0.27813560167421514
1708440408.4264057,-0.43534550070762634,-2.0193945370116175,-2.6172922293292444,1.8243540960499267,-1.1071737448321741,-0.27844554582704717
1708440408.4284003,-0.4331648051738739,-2.0206929645934046,-2.617626730595724,1.8229526716419677,-1.1073887983905237,-0.27864295641054326
1708440408.4303877,-0.4309707283973694,-2.0217319927611292,-2.6180103460894983,1.8216208654591064,-1.1076577345477503,-0.2788928190814417
1708440408.4324152,-0.42881619930267334,-2.023019929925436,-2.6184142271624964,1.820286675090454,-1.1078694502459925,-0.2792423407184046
1708440408.434423,-0.42670121788978577,-2.0241710148253382,-2.618805710469381,1.8189286428638916,-1.1081255117999476,-0.279489819203512
1708440408.4364045,-0.42450761795043945,-2.0253783665099085,-2.6191561857806605,1.8176140028187255,-1.1083644072162073,-0.279759709035055
1708440408.4383972,-0.4223558008670807,-2.026537080804342,-2.619547669087545,1.8162750440784912,-1.1085880438434046,-0.28003436723818
1708440408.440398,-0.4201308488845825,-2.0277439556517542,-2.619895044957296,1.8148764806934814,-1.1088975111590784,-0.2802937666522425
1708440408.442403,-0.417819082736969,-2.028910299340719,-2.62028676668276,1.8135439592548828,-1.109124485646383,-0.28053313890566045
1708440408.444427,-0.41570624709129333,-2.0301414928831996,-2.6206207911120813,1.8121861654468994,-1.1093161741839808,-0.28079539934267217
1708440408.4465058,-0.4134325087070465,-2.0313950977721156,-2.6210816542254847,1.8109900194355468,-1.1095441023456019,-0.2810633818255823
1708440408.4484031,-0.41122058033943176,-2.032614847222799,-2.6214688459979456,1.8096009927937011,-1.1097272078143519,-0.28129512468446904
1708440408.450421,-0.40911802649497986,-2.0337640247740687,-2.6217919031726282,1.8083171087452392,-1.1099398771869105,-0.2815502325641077
1708440408.4524338,-0.4068261682987213,-2.03503479580068,-2.622171227131979,1.8069700437733154,-1.1100905577289026,-0.2818344275103968
1708440408.454381,-0.40461814403533936,-2.0362101993956507,-2.62258750597109,1.805736466045044,-1.1102269331561487,-0.2820170561419886
1708440408.4563682,-0.40244168043136597,-2.037447591821188,-2.6229422728167933,1.8044146734425048,-1.11039907137026,-0.2822969595538538
1708440408.458381,-0.40030595660209656,-2.0386764011778773,-2.6233094374286097,1.803147240276001,-1.1105712095843714,-0.2825434843646448
1708440408.4603932,-0.39812517166137695,-2.0398832760252894,-2.6237638632403772,1.8019162851520996,-1.1107705275165003,-0.28282434145082647
1708440408.4623823,-0.3958829641342163,-2.041091104547018,-2.62412673631777,1.8005820947834472,-1.1109464804278772,-0.28300220171083623
1708440408.4643946,-0.3937881588935852,-2.042339941064352,-2.624530617390768,1.7993175226398925,-1.1111748854266565,-0.2832744757281702
1708440408.4663928,-0.3915383815765381,-2.0435077152647914,-2.6248891989337366,1.797893925304077,-1.1113141218768519,-0.2835291067706507
1708440408.468404,-0.389300674200058,-2.0447823009886683,-2.625284258519308,1.7966465192982177,-1.111574951802389,-0.2837484518634241
1708440408.4703827,-0.3870700001716614,-2.0460010967650355,-2.625732962285177,1.795271559352539,-1.111774746571676,-0.2839549223529261
1708440408.4723797,-0.384869247674942,-2.0472785435118617,-2.6261120478259485,1.7939538198658447,-1.111941162739889,-0.2842033545123499
1708440408.4743907,-0.38269513845443726,-2.0484844646849574,-2.6265080610858362,1.7927192884632568,-1.112173859273092,-0.28445560136903936
1708440408.4763873,-0.3804861307144165,-2.049699922601217,-2.62687856355776,1.7913974958607177,-1.1123212019549769,-0.28465301195253545
1708440408.4783738,-0.37822505831718445,-2.0509587726988734,-2.6273589769946497,1.7901336389729003,-1.1124518553363245,-0.28489715257753545
1708440408.4803984,-0.37602752447128296,-2.0521818600096644,-2.6277347246753138,1.7888247209736328,-1.1126163641559046,-0.2852066198932093
1708440408.4824088,-0.3738141357898712,-2.053397317925924,-2.628152672444479,1.7875348764606933,-1.1127751509295862,-0.2854049841510218
1708440408.4843965,-0.3716336190700531,-2.0545793972411097,-2.6285322348224085,1.7862984377094726,-1.1128905455218714,-0.28562814394106084
1708440408.4864085,-0.3694050908088684,-2.05582394222402,-2.628995720540182,1.784954233760498,-1.1131027380572718,-0.2857936064349573
1708440408.48839,-0.36728695034980774,-2.057026525537008,-2.629366461430685,1.783691330546997,-1.1132305304156702,-0.2859891096698206
1708440408.4904048,-0.36500149965286255,-2.0583301983275355,-2.6298065821277063,1.7824100691029052,-1.1134098211871546,-0.2861884276019495
1708440408.492395,-0.3628065884113312,-2.059535165826315,-2.630225721989767,1.7811438280292968,-1.113581959401266,-0.28650218645204717
1708440408.4944031,-0.36069923639297485,-2.0607310734190882,-2.630658213292257,1.7799078661152343,-1.113802735005514,-0.286717716847555
1708440408.4964035,-0.358492374420166,-2.0619336567320765,-2.6310365835772913,1.7786115843006591,-1.1139496008502405,-0.28695708910097295
1708440408.4984152,-0.356290340423584,-2.0631820164122523,-2.6314478556262415,1.7772509294697265,-1.1141088644610804,-0.28715545335878545
1708440408.5004234,-0.3540957570075989,-2.0644289455809535,-2.6318512598620813,1.7759770590015869,-1.1143243948565882,-0.28741199174989873
1708440408.5024014,-0.3519176244735718,-2.065627714196676,-2.6322909037219446,1.774681492442749,-1.1145122686969202,-0.2876065413104456
1708440408.5044076,-0.349655419588089,-2.06689514736318,-2.6326780954944056,1.7734638887592773,-1.1146519819842737,-0.28784162202943975
1708440408.5063713,-0.3475174009799957,-2.06813444713735,-2.633122507725851,1.7721778589436035,-1.114880386983053,-0.2880895773517054
1708440408.5083907,-0.3453531563282013,-2.069353242913717,-2.6335464159594935,1.7708322244831542,-1.1149795691119593,-0.2882769743548792
1708440408.5103776,-0.34309443831443787,-2.07059969524526,-2.6339195410357874,1.76961795865979,-1.1151626745807093,-0.2885368506060999
1708440408.5124106,-0.3409329354763031,-2.0718537769713343,-2.6343444029437464,1.7683634000965576,-1.1153386274920862,-0.2887523810016077
1708440408.5143714,-0.3387058973312378,-2.0730415783324183,-2.63482910791506,1.7670635420032959,-1.1154525915728968,-0.2889307180987757
1708440408.5163844,-0.3365456163883209,-2.0742351017394007,-2.6351431051837366,1.7658113676258544,-1.1156442801104944,-0.2891581694232386
1708440408.5184095,-0.33443066477775574,-2.0755187473692835,-2.6355345884906214,1.7645224767872314,-1.1158612410174769,-0.2894347349749964
1708440408.5203788,-0.33218273520469666,-2.0767651997008265,-2.6359179655658167,1.7631980615803222,-1.1160700956927698,-0.2896612326251429
1708440408.5224059,-0.33001184463500977,-2.0779954395689906,-2.6363375822650355,1.761838360423706,-1.1162532011615198,-0.28984338441957647
1708440408.5243874,-0.3277764618396759,-2.079238077203268,-2.6367371718036097,1.7604891496845703,-1.1164358297931116,-0.29008704820741826
1708440408.526388,-0.32560309767723083,-2.0804926357665003,-2.637136761342184,1.7592579561420898,-1.1166437307940882,-0.2902911345111292
1708440408.5284066,-0.3233755826950073,-2.0817438564696253,-2.6375280062304896,1.7579619127460937,-1.1167753378497522,-0.29057151476015264
1708440408.5303836,-0.3211539387702942,-2.082994600335592,-2.637907091771261,1.7565945821949462,-1.116922680531637,-0.29086143175234014
1708440408.5323975,-0.3189338743686676,-2.0841709576048792,-2.638327185307638,1.7553140360065917,-1.1171358267413538,-0.29095727602113897
1708440408.5343711,-0.3166709840297699,-2.085430761376852,-2.638649050389425,1.7540461260029296,-1.1172459761248987,-0.29127341905702764
1708440408.536437,-0.3145428001880646,-2.08659090618276,-2.6390648523913782,1.7527641493031005,-1.1173895041095179,-0.2914226690875452
1708440408.538394,-0.3123188018798828,-2.0877796612181605,-2.6394644419299524,1.7515269952961425,-1.117577854787008,-0.29171592393984014
1708440408.5403812,-0.3100735545158386,-2.089036603967184,-2.6398633162127894,1.750260277385376,-1.117781941090719,-0.2919400374041956
1708440408.5423968,-0.3077981173992157,-2.09022917369985,-2.6403043905841272,1.748962088222168,-1.1179412047015589,-0.2921517531024378
1708440408.544395,-0.305696576833725,-2.0914741955199183,-2.6406713167773646,1.7477544981190185,-1.1181166807757776,-0.2923849264727991
1708440408.5463958,-0.3034795820713043,-2.092592855493063,-2.6410377661334437,1.746518297786377,-1.1182177702533167,-0.29255515733827764
1708440408.548393,-0.3012784421443939,-2.093930860558981,-2.641486946736471,1.7452358442493896,-1.1184757391559046,-0.2928245703326624
1708440408.550377,-0.2991335391998291,-2.095140119592184,-2.6419060865985315,1.7439064222523193,-1.1187370459186,-0.29303247133363897
1708440408.5523858,-0.2969020903110504,-2.09629549602651,-2.642329756413595,1.7426161009022216,-1.1188181082354944,-0.29324418703188115
1708440408.5543804,-0.2947646379470825,-2.0976087055602015,-2.6427329222308558,1.7413603502460937,-1.119051758443014,-0.2935121695147913
1708440408.5563924,-0.292507529258728,-2.0988270244994105,-2.64315635362734,1.7400011259266357,-1.1192029158221644,-0.2936795393573206
1708440408.5583873,-0.2903057336807251,-2.100067277947897,-2.643571678792135,1.7386743265339355,-1.1193082968341272,-0.2939398924456995
1708440408.560376,-0.2881348133087158,-2.1012331447997035,-2.6439598242389124,1.7374674516865234,-1.1194732824908655,-0.2942007223712366
1708440408.5623906,-0.28595951199531555,-2.102433820764059,-2.644297186528341,1.7361547189899902,-1.11965257326235,-0.2943795363055628
1708440408.5644073,-0.2836362421512604,-2.10368074993276,-2.6446719805346888,1.73491017400708,-1.1197589079486292,-0.29464847246278936
1708440408.56641,-0.2814984619617462,-2.1048795185484828,-2.645125214253561,1.7335881429859619,-1.1199477354632776,-0.29490882555116826
1708440408.5684137,-0.2793561816215515,-2.1061512432494105,-2.6455605665790003,1.732341929072998,-1.120171848927633,-0.2951296011554163
1708440408.5703988,-0.2770741879940033,-2.1073337994017542,-2.64596397081484,1.7310313421436767,-1.120335880910055,-0.29539376894106084
1708440408.572384,-0.27485138177871704,-2.1086536846556605,-2.6463921705829065,1.7297462660023193,-1.1204946676837366,-0.29558116594423467
1708440408.574433,-0.2726198136806488,-2.109878202477926,-2.646794859563009,1.7284695345112304,-1.1207440535174769,-0.29575997987856084
1708440408.5763927,-0.2704662084579468,-2.1110836468138636,-2.6471527258502405,1.7271708685108642,-1.120882813130514,-0.29597598711122686
1708440408.5783918,-0.26830658316612244,-2.1123210392394007,-2.6476545969592493,1.7258879381367187,-1.1210373083697718,-0.29626971880068
1708440408.580407,-0.266141414642334,-2.113556524316305,-2.6480777899371546,1.7245773512073974,-1.121237579976217,-0.29651385942568
1708440408.5823796,-0.2639641761779785,-2.114817281762594,-2.648424212132589,1.723311110133789,-1.1213725248919886,-0.2966530958758753
1708440408.5843945,-0.2617005407810211,-2.116051336328024,-2.6488803068744105,1.722003622645996,-1.1215041319476526,-0.2969134489642542
1708440408.5864089,-0.25943851470947266,-2.1173063717284144,-2.6493077913867396,1.7206215101429443,-1.1216848532306116,-0.2971285025226038
1708440408.5884168,-0.25732967257499695,-2.118425031701559,-2.6496995131122034,1.7193240362354736,-1.1218350569354456,-0.29737741151918584
1708440408.5904176,-0.25518566370010376,-2.119661947289938,-2.650101963673727,1.7180935579487304,-1.1220038572894495,-0.2976263205157679
1708440408.5924022,-0.25287818908691406,-2.1209298572936,-2.6505168120013636,1.7168604570576171,-1.1222236792193812,-0.2977398077594202
1708440408.5943973,-0.2507287859916687,-2.122173925439352,-2.6509864966021937,1.7155565458485107,-1.1223591009723108,-0.2980540434466761
1708440408.5963843,-0.2485436201095581,-2.123428007165426,-2.6513732115374964,1.7142998415180664,-1.1225131193744105,-0.298286263142721
1708440408.5983963,-0.24635884165763855,-2.1246167622008265,-2.651764218007223,1.7131048875996093,-1.122751537953512,-0.29846507707704717
1708440408.6003962,-0.24413488805294037,-2.125866552392477,-2.652137104664938,1.7117490011402587,-1.1228483358966272,-0.29872256914247686
1708440408.6023996,-0.24195951223373413,-2.127165456811422,-2.6526029745685022,1.7105366426655273,-1.1230652968036097,-0.29890472093691045
1708440408.6043737,-0.2398034632205963,-2.1283699474730433,-2.6530388037311,1.7092758852192382,-1.123237435017721,-0.29914552370180303
1708440408.606381,-0.23758456110954285,-2.129618307153219,-2.653450314198629,1.7079481321522216,-1.1233633200274866,-0.29936534563173467
1708440408.608395,-0.2354215681552887,-2.130862375298971,-2.653849426900045,1.7066384988972167,-1.123580280934469,-0.2995560804950159
1708440408.6103783,-0.23325635492801666,-2.132059236566061,-2.654219452534811,1.705409212703369,-1.123772923146383,-0.29980165163149053
1708440408.6123927,-0.23098362982273102,-2.1332980595030726,-2.654620949422018,1.7040852743336181,-1.1239326635943812,-0.3000701109515589
1708440408.6143665,-0.22879981994628906,-2.134554525414938,-2.6550238768206995,1.7027787405201416,-1.1240795294391077,-0.3002818266498011
1708440408.616384,-0.22657690942287445,-2.135759016076559,-2.6553900877581995,1.701444073314331,-1.1243036429034632,-0.3005474249469202
1708440408.618386,-0.22439689934253693,-2.1369391880431117,-2.6557939688311976,1.700101061458252,-1.1244390646563929,-0.30076629320253545
1708440408.6203864,-0.2221854031085968,-2.1381641827025355,-2.65617281595339,1.6988887029835205,-1.1246183554278772,-0.3009994665728968
1708440408.6223981,-0.2199350893497467,-2.139461179772848,-2.6565890947925013,1.6975626188465576,-1.124781910573141,-0.3012140432940882
1708440408.6244216,-0.21775081753730774,-2.140656133691305,-2.657017532979147,1.6963047224232177,-1.1249941031085413,-0.3014462629901331
1708440408.6264005,-0.21558067202568054,-2.1418992481627406,-2.657445494328634,1.6950344282337646,-1.1251815001117151,-0.30163747469057256
1708440408.6283855,-0.21340572834014893,-2.143196245233053,-2.6578527132617396,1.6937438684650878,-1.1254008452044886,-0.30187780061830694
1708440408.6303964,-0.21117711067199707,-2.1444126568236292,-2.6581719557391565,1.692492886180542,-1.125556770955221,-0.30215579668153936
1708440408.6323824,-0.20902371406555176,-2.1456362209715785,-2.6586156527148646,1.6912142473408203,-1.1257198492633265,-0.3023012320147913
1708440408.634387,-0.2067955881357193,-2.146855493585104,-2.6590140501605433,1.6899785238453369,-1.1258581320392054,-0.30255443254579717
1708440408.6363838,-0.2045934796333313,-2.1480895481505335,-2.6593640486346644,1.6887094217487792,-1.1260913054095667,-0.30274993578066045
1708440408.6383934,-0.2024117112159729,-2.149269243279928,-2.6598051230060022,1.6874219614216308,-1.1262267271624964,-0.30301028886903936
1708440408.6404142,-0.20021659135818481,-2.150539060632223,-2.6602934042560022,1.6861001688190917,-1.1263979117022913,-0.3032625357257288
1708440408.6424155,-0.19793754816055298,-2.1517259083189906,-2.6606071631061,1.6847993570515136,-1.1265748182879847,-0.30344945589174444
1708440408.6444046,-0.19565080106258392,-2.1530209980406703,-2.6610310713397425,1.6834658819385986,-1.1267665068255823,-0.30372745195497686
1708440408.6463778,-0.1935207098722458,-2.1541859112181605,-2.6614394823657435,1.6822008329578857,-1.126937214528219,-0.30393916765321904
1708440408.6483965,-0.1913190484046936,-2.15537228206777,-2.66185433069338,1.6809143263050537,-1.1270855108844202,-0.30409318605531865
1708440408.6503978,-0.18905197083950043,-2.1567074261107386,-2.662241284047262,1.6797160345264892,-1.1272276083575647,-0.30439550081361944
1708440408.6524212,-0.18685008585453033,-2.1578432522215785,-2.662701670323507,1.6784059244343261,-1.1274083296405237,-0.30459911028017217
1708440408.6544178,-0.18468336760997772,-2.1591059170165003,-2.6630681196795862,1.677151842708252,-1.1276043097125452,-0.3047416845904749
1708440408.6564243,-0.18253874778747559,-2.1602899036803187,-2.6635525862323206,1.6758410173603515,-1.1277311483966272,-0.30499011674989873
1708440408.6584105,-0.18029391765594482,-2.161551137963766,-2.66398531595339,1.6745263773151855,-1.127862278615133,-0.3052027861224573
1708440408.6603813,-0.17803896963596344,-2.162745615045065,-2.664447847996847,1.6732963758656005,-1.1280344168292444,-0.3053219954120081
1708440408.6624007,-0.17589537799358368,-2.16403927425527,-2.664978567753927,1.672123833293579,-1.1281135717975062,-0.3054464499102991
1708440408.6643796,-0.17375870048999786,-2.165328641931051,-2.665567461644308,1.670982761973999,-1.128186051045553,-0.30551416078676397
1708440408.666397,-0.17157281935214996,-2.1666704616942347,-2.666131083165304,1.669849081630371,-1.1281726996051233,-0.3054564634906214
1708440408.6683855,-0.16940805315971375,-2.167912622491354,-2.666665856038229,1.668679876918457,-1.128115479146139,-0.3055055777179163
1708440408.6703632,-0.16723017394542694,-2.169209142724508,-2.6672208944903772,1.6674963670917968,-1.1280110518084925,-0.30546409288515264
1708440408.6723726,-0.16495616734027863,-2.170499464074606,-2.667784039174215,1.6663636404224853,-1.1279638449298304,-0.3053510824786585
1708440408.6743762,-0.16272950172424316,-2.1717664204039515,-2.668379608784811,1.6651698785969238,-1.1278508345233362,-0.30526715913881475
1708440408.6763928,-0.16053447127342224,-2.173087259332174,-2.6689725557910364,1.6640538412281494,-1.127723519002096,-0.30511409441103154
1708440408.6783926,-0.15832297503948212,-2.1743856869139613,-2.669554058705465,1.6629485326954345,-1.127591911946432,-0.3049376646624964
1708440408.6803904,-0.15607242286205292,-2.1757313213744105,-2.670201603566305,1.6619774538227539,-1.127512280141012,-0.30480653444399053
1708440408.6824136,-0.15396638214588165,-2.1771351299681605,-2.670983616505758,1.6609999376484375,-1.1273763815509241,-0.3045576254474085
1708440408.684392,-0.15169163048267365,-2.1783954105772914,-2.6716249624835413,1.660043402309082,-1.127207104359762,-0.3042638937579554
1708440408.6864007,-0.1495354026556015,-2.17974390606069,-2.6723368803607386,1.658984823817871,-1.1270316282855433,-0.3039768377887171
1708440408.68843,-0.14728409051895142,-2.1810318432249964,-2.673131291066305,1.6580423551746826,-1.1267545858966272,-0.30368024507631475
1708440408.69039,-0.1451166421175003,-2.182399889031881,-2.6739311853991907,1.6571952539631347,-1.126462761555807,-0.30331498781313115
1708440408.6924207,-0.14288915693759918,-2.1838466129698695,-2.67470628419985,1.6562911707111816,-1.126138989125387,-0.3027885595904749
1708440408.6944034,-0.14076364040374756,-2.1851617298521937,-2.6755009333239954,1.655367060298584,-1.125852409993307,-0.3022993246661585
1708440408.6963878,-0.13867850601673126,-2.1865436039366664,-2.6763368288623255,1.6545561987110595,-1.1254518667804163,-0.30185252824892217
1708440408.6984086,-0.1366090327501297,-2.187864919702047,-2.677163902913229,1.6536666589924316,-1.124967400227682,-0.3013117949115198
1708440408.7004476,-0.13443823158740997,-2.1892949543394984,-2.6780503431903284,1.652883453960083,-1.1245654265033167,-0.30073768297304326
1708440408.7024326,-0.1323666125535965,-2.1905514202513636,-2.678929392491476,1.652068777675293,-1.1240933577166956,-0.3001144568072718
1708440408.7044148,-0.13036011159420013,-2.191911836663717,-2.679783646260397,1.651327057475708,-1.1236017386065882,-0.29940969148744756
1708440408.706391,-0.1283099502325058,-2.1932436428465785,-2.6806979815112513,1.650658054942749,-1.123132054005758,-0.29857045808901006
1708440408.7084296,-0.1262744814157486,-2.194590230981344,-2.6816652456866663,1.6499783235737304,-1.1226213614093226,-0.2979348341571253
1708440408.7103803,-0.12436604499816895,-2.1959368191161097,-2.682579580937521,1.6492840486713867,-1.1220529715167444,-0.29725486436952764
1708440408.712374,-0.12238281220197678,-2.197200437585348,-2.68347675005068,1.6486047941395263,-1.1214855352984827,-0.2965343634234827
1708440408.7143664,-0.12044283747673035,-2.198510309258932,-2.68441611925234,1.647960825557373,-1.120948616658346,-0.29574567476381475
1708440408.7163928,-0.11852611601352692,-2.199826856652731,-2.6854713598834437,1.6473530965992431,-1.1203530470477503,-0.29496843019594365
1708440408.7183745,-0.11664973944425583,-2.2011195621886195,-2.6863487402545374,1.6466731268116455,-1.1196935812579554,-0.29408246675600225
1708440408.7203968,-0.11476185917854309,-2.2024342022337855,-2.6873651186572474,1.6461199957081298,-1.1191118399249476,-0.2932975927935999
1708440408.722388,-0.11292937397956848,-2.2036835155882777,-2.6883261839496058,1.645568771953247,-1.118448559437887,-0.29235822359193975
1708440408.7244093,-0.11108231544494629,-2.2049461803831996,-2.6893370787249964,1.6449438768574218,-1.1177776495562952,-0.2914775053607386
1708440408.7263942,-0.1093406155705452,-2.2062655887999476,-2.690331761037008,1.6444503503986816,-1.1170356909381312,-0.2905495802508753
1708440408.728427,-0.1075010746717453,-2.2074319324889125,-2.6914032141314905,1.6439317899891357,-1.1164115110980433,-0.2896187941180628
1708440408.7304013,-0.10566723346710205,-2.208705087701315,-2.6924825350390833,1.6434225279041748,-1.1157005468951624,-0.28861934343446904
1708440408.7324076,-0.1038724035024643,-2.209846159020895,-2.6934691111194056,1.6428448396870117,-1.1150029341327112,-0.28770333925356084
1708440408.7344098,-0.10211178660392761,-2.2110868893065394,-2.6944835821734827,1.6424519258686523,-1.1142318884478968,-0.28672677675356084
1708440408.7364101,-0.1004464328289032,-2.2122088871397914,-2.6955233255969446,1.6419061857410888,-1.1134894529925745,-0.2856515089618128
1708440408.7383864,-0.09869793802499771,-2.213404794732565,-2.696451012288229,1.6414765554615478,-1.1127308050738733,-0.28474361101259404
1708440408.7404,-0.09699001163244247,-2.2144905529417933,-2.697550360356466,1.6410376268574218,-1.111955467854635,-0.28379899660219365
1708440408.7423801,-0.09529493004083633,-2.2156535587706507,-2.698557440434591,1.6405891615101318,-1.1112054030047815,-0.2827070395099085
1708440408.7444112,-0.09362056106328964,-2.2168265781798304,-2.6996362845050257,1.6402067381092529,-1.1104009787188929,-0.28161937395204717
1708440408.7464013,-0.09193349629640579,-2.2179776630797328,-2.7006338278399866,1.6397699552723388,-1.109654728566305,-0.28061181703676397
1708440408.7484086,-0.09036974608898163,-2.2189961872496546,-2.701698605214254,1.6393634515949707,-1.108858887349264,-0.27957040468324834
1708440408.7503824,-0.08868701010942459,-2.2201973400511683,-2.7026670614825647,1.638988896007202,-1.1080997625934046,-0.2785251776324671
1708440408.7523794,-0.08707935363054276,-2.2211977444090785,-2.7037463823901575,1.6385935980030517,-1.1073606649981897,-0.27746469179262334
1708440408.7543845,-0.08558304607868195,-2.222302099267477,-2.7047813574420374,1.6382827001759033,-1.1065076033221644,-0.27627307573427373
1708440408.756383,-0.08400137722492218,-2.223377843896383,-2.705848042164938,1.6378609377094726,-1.1056831518756312,-0.27517778078188115
1708440408.7583895,-0.08253096044063568,-2.224422594110006,-2.706885639821188,1.6375412183948974,-1.1049445311175745,-0.27407771745790654
1708440408.7604651,-0.08095436543226242,-2.2254768810667933,-2.7079206148730677,1.6372601228901367,-1.1039822737323206,-0.2728527227984827
1708440408.7623885,-0.07946282625198364,-2.226442953149313,-2.7088890711413782,1.6369024950214843,-1.103159252797262,-0.27166921297182256
1708440408.764394,-0.07793338596820831,-2.227471014062399,-2.7099042574511927,1.6366361814686279,-1.1023333708392542,-0.27049237886537725
1708440408.7663677,-0.07653439044952393,-2.2284614048399867,-2.710942093526022,1.6363488870808105,-1.1014679113971155,-0.2693393866168421
1708440408.7683723,-0.07511702924966812,-2.2293912372984828,-2.7119110266314905,1.636042519206665,-1.1006344000445765,-0.26815539995302373
1708440408.7703881,-0.07367784529924393,-2.2304612598814906,-2.7129746119128626,1.6359001833149414,-1.0997613112079065,-0.2669008413897913
1708440408.7723994,-0.07229119539260864,-2.231368680993551,-2.7139890829669397,1.6355597215839843,-1.098910156880514,-0.26566869417299444
1708440408.77444,-0.0709194615483284,-2.232269426385397,-2.714994494115011,1.635321779842041,-1.0980518499957483,-0.26445132890810186
1708440408.7764068,-0.06951151043176651,-2.2331749401488246,-2.716057840977804,1.635122461909912,-1.0971549193011683,-0.2633279005633753
1708440408.778427,-0.06811293214559555,-2.2342130146422328,-2.717034165059225,1.634894533748291,-1.0962751547442835,-0.26207048097719365
1708440408.7803988,-0.06682074815034866,-2.2350670299925746,-2.718024555836813,1.6346909242817382,-1.0953381697284144,-0.26080209413637334
