Eg3-git/Classifiers/Data Collection/u7/u7abc2_ur3e_joint_states.csv
time,elbow_joint,shoulder_lift_joint,shoulder_pan_joint,wrist_1_joint,wrist_2_joint,wrist_3_joint
1708440367.7702124,-1.1058391332626343,-1.681441446343893,-2.5263193289386194,2.281392975444458,-1.016778294240133,0.5596413612365723
1708440367.7722383,-1.1058598756790161,-1.681502481500143,-2.5263474623309534,2.281355782146118,-1.0167697111712855,0.5596413612365723
1708440367.7742224,-1.1058673858642578,-1.6814857921996058,-2.5263269583331507,2.281369372005127,-1.0167205969439905,0.5596134066581726
1708440367.7762198,-1.1058762073516846,-1.6814481220641078,-2.5263193289386194,2.2813920217701416,-1.0167740027057093,0.5596294403076172
1708440367.7782447,-1.1058554649353027,-1.6814233265318812,-2.5263312498675745,2.281388683910034,-1.0167534987079065,0.5596622228622437
1708440367.7802632,-1.105847954750061,-1.681432386437887,-2.52635628381838,2.281367703075073,-1.0167372862445276,0.5596413612365723
1708440367.7822146,-1.1058435440063477,-1.681465288201803,-2.5263312498675745,2.281360312099121,-1.0167372862445276,0.5596458315849304
1708440367.7842371,-1.1058228015899658,-1.681432386437887,-2.5263355414019983,2.2813514906116943,-1.0167654196368616,0.5596413612365723
1708440367.7862206,-1.1058881282806396,-1.681481500665182,-2.5263596216784876,2.2814220625111084,-1.0167534987079065,0.559624969959259
1708440367.7882838,-1.1058598756790161,-1.6814724407591761,-2.5263519922839563,2.2813796240040283,-1.0167577902423304,0.5596222877502441
1708440367.790231,-1.105818271636963,-1.681469579736227,-2.5263596216784876,2.2813467222401123,-1.0167740027057093,0.5596368908882141
1708440367.7922494,-1.1058272123336792,-1.6814571819701136,-2.5263312498675745,2.281384153957031,-1.0168111960040491,0.5596609711647034
1708440367.7942286,-1.105847954750061,-1.681493421594137,-2.5263474623309534,2.281343861217163,-1.0167577902423304,0.5596532821655273
1708440367.7962236,-1.105797529220581,-1.6814891300597132,-2.5263431707965296,2.281430883998535,-1.0167740027057093,0.5596818327903748
1708440367.7982266,-1.1058183908462524,-1.6814948521056117,-2.5263105074511927,2.2814130026051025,-1.0167654196368616,0.5596789121627808
1708440367.8002453,-1.105797529220581,-1.6815115414061488,-2.5263388792621058,2.2813586431690673,-1.0167949835406702,0.5596622228622437
1708440367.80225,-1.1058228015899658,-1.681443830529684,-2.5263641516314905,2.2814010816761474,-1.0167697111712855,0.5596833229064941
1708440367.8042774,-1.1058391332626343,-1.6815186939635218,-2.5263150374041956,2.281397505397461,-1.0167949835406702,0.5596745610237122
1708440367.8062358,-1.1058523654937744,-1.6815444431700648,-2.5262942949878138,2.281315727824829,-1.0167859236346644,0.5596458315849304
1708440367.8082182,-1.1058404445648193,-1.681497713128561,-2.5263519922839563,2.281360312099121,-1.0167668501483362,0.5595954060554504
1708440367.8102255,-1.1058316230773926,-1.681514402429098,-2.5262954870807093,2.2814056116291503,-1.0167816321002405,0.5596222877502441
1708440367.8122184,-1.1058567762374878,-1.681460519830221,-2.5263355414019983,2.2813302713581542,-1.0167697111712855,0.5596294403076172
1708440367.8142288,-1.105834722518921,-1.6815053425230921,-2.5263312498675745,2.281393213863037,-1.01677114168276,0.5596413612365723
1708440367.8162057,-1.105846643447876,-1.681432386437887,-2.5262988249408167,2.281388683910034,-1.0167949835406702,0.5596458315849304
1708440367.8182104,-1.1058598756790161,-1.681502481500143,-2.5263355414019983,2.281339569682739,-1.0167740027057093,0.5596368312835693
1708440367.820228,-1.1058152914047241,-1.6814857921996058,-2.526311699544088,2.281388683910034,-1.0167372862445276,0.5596654415130615
1708440367.8222122,-1.1058197021484375,-1.681465288201803,-2.5262942949878138,2.2814056116291503,-1.016778294240133,0.5596622228622437
1708440367.8242223,-1.1058598756790161,-1.6814905605711878,-2.5263236204730433,2.281372233028076,-1.016778294240133,0.5596458315849304
1708440367.8262177,-1.105836033821106,-1.6814948521056117,-2.526316229497091,2.2813350397297363,-1.016794506703512,0.5596458911895752
1708440367.8282151,-1.1058152914047241,-1.6814571819701136,-2.5263031164752405,2.281355782146118,-1.0167859236346644,0.5596654415130615
1708440367.830242,-1.1058316230773926,-1.681436677972311,-2.5263355414019983,2.281369133586548,-1.0167577902423304,0.5596864819526672
1708440367.8322396,-1.1058567762374878,-1.681465288201803,-2.52635628381838,2.281360312099121,-1.0167577902423304,0.5596564412117004
1708440367.83421,-1.1058272123336792,-1.681436677972311,-2.5262988249408167,2.2813467222401123,-1.0167282263385218,0.5597028136253357
1708440367.8362167,-1.1058598756790161,-1.6814562282957972,-2.5262988249408167,2.2813965517231445,-1.0168026129352015,0.5596397519111633
1708440367.838257,-1.1058197021484375,-1.6815067730345667,-2.5263312498675745,2.281388683910034,-1.0167620817767542,0.559726893901825
1708440367.8402383,-1.1058272123336792,-1.681502481500143,-2.5263193289386194,2.2813586431690673,-1.0167577902423304,0.5596623420715332
1708440367.842226,-1.1058152914047241,-1.681502481500143,-2.5263386408435267,2.281379385585449,-1.0167368094073694,0.559726893901825
1708440367.8442423,-1.1058316230773926,-1.681559225121969,-2.5263236204730433,2.2814101415821533,-1.0167325178729456,0.559698224067688
1708440367.846218,-1.1058598756790161,-1.681443830529684,-2.5262988249408167,2.2813185888477783,-1.0167325178729456,0.5597056746482849
1708440367.8482733,-1.1058316230773926,-1.681443830529684,-2.5263236204730433,2.2814130026051025,-1.0167906920062464,0.559698224067688
1708440367.8502188,-1.1058435440063477,-1.6814857921996058,-2.5263355414019983,2.2813631731220703,-1.0167949835406702,0.559725284576416
1708440367.852213,-1.1058316230773926,-1.6814905605711878,-2.526278082524435,2.2814010816761474,-1.016799275075094,0.559696614742279
1708440367.854234,-1.1058316230773926,-1.681493421594137,-2.5262790361987513,2.2814220625111084,-1.0167501608477991,0.5597403645515442
1708440367.8562627,-1.1057989597320557,-1.6814996204771937,-2.526283327733175,2.2813965517231445,-1.0167415777789515,0.5597297549247742
1708440367.858219,-1.1058404445648193,-1.681502481500143,-2.5263150374041956,2.2814265924641113,-1.0167248884784144,0.5597538352012634
1708440367.8602333,-1.1058523654937744,-1.6814857921996058,-2.526304070149557,2.2813467222401123,-1.016787354146139,0.5597461462020874
1708440367.8622112,-1.1058272123336792,-1.681493421594137,-2.5263400713550013,2.281381054515503,-1.0167129675494593,0.5597326159477234
1708440367.8642192,-1.1058316230773926,-1.6814905605711878,-2.5262985865222376,2.2813514906116943,-1.0167501608477991,0.5597821474075317
1708440367.8662007,-1.105847954750061,-1.681427618066305,-2.526339832936422,2.2813965517231445,-1.016743008290426,0.5597493648529053
1708440367.8682022,-1.105802059173584,-1.6814524135985316,-2.5263031164752405,2.2814249235340576,-1.016731087361471,0.5597493648529053
1708440367.8701942,-1.1058108806610107,-1.681497713128561,-2.5263074080096644,2.2814056116291503,-1.016726318989889,0.559753954410553
1708440367.8721986,-1.1058435440063477,-1.681497713128561,-2.5262911955462855,2.281355782146118,-1.0167353788958948,0.5597236752510071
1708440367.8741975,-1.1058316230773926,-1.681465288201803,-2.5262745062457483,2.281372233028076,-1.0166857878314417,0.5597657561302185
1708440367.8762035,-1.1058241128921509,-1.6814724407591761,-2.526311699544088,2.2814101415821533,-1.0166528860675257,0.5597821474075317
1708440367.8781948,-1.1058152914047241,-1.681493421594137,-2.5263355414019983,2.2813631731220703,-1.0166743437396448,0.5597538948059082
1708440367.8802156,-1.1058152914047241,-1.681497713128561,-2.526311699544088,2.2813965517231445,-1.0166457335101526,0.5597732067108154
1708440367.8822086,-1.1058450937271118,-1.6814772091307582,-2.526344362889425,2.281343861217163,-1.016632382069723,0.5597360134124756
1708440367.884196,-1.1058495044708252,-1.681497713128561,-2.5262823740588587,2.281355782146118,-1.0166500250445765,0.5597776770591736
1708440367.8861923,-1.1058077812194824,-1.6814772091307582,-2.526311699544088,2.2813705640980224,-1.0166710058795374,0.5597448945045471
1708440367.8882391,-1.105836033821106,-1.6814772091307582,-2.526364866887228,2.281385584468506,-1.0166834036456507,0.5598105192184448
1708440367.8902214,-1.1058152914047241,-1.6814524135985316,-2.5263074080096644,2.2814220625111084,-1.0166457335101526,0.5597597360610962
1708440367.8922231,-1.1057699918746948,-1.681497713128561,-2.5263031164752405,2.2814175325581054,-1.0166710058795374,0.559768795967102
1708440367.8942163,-1.1058077812194824,-1.6814843616881312,-2.526283327733175,2.281360312099121,-1.0166900793658655,0.5597981214523315
1708440367.8962362,-1.1057989597320557,-1.681481500665182,-2.5263074080096644,2.2813302713581542,-1.0166576544391077,0.5597316026687622
1708440367.8982193,-1.1058316230773926,-1.6814891300597132,-2.5262461344348353,2.281339569682739,-1.0166247526751917,0.5598104596138
1708440367.900237,-1.1058241128921509,-1.681509634057516,-2.526311699544088,2.281372233028076,-1.0166743437396448,0.5598045587539673
1708440367.9022694,-1.1058077812194824,-1.6814724407591761,-2.526344362889425,2.2813467222401123,-1.0166786352740687,0.5598180294036865
1708440367.9042077,-1.1058077812194824,-1.6814891300597132,-2.5262954870807093,2.2813631731220703,-1.0166710058795374,0.5597848892211914
1708440367.9062214,-1.1058241128921509,-1.681469579736227,-2.526283327733175,2.281367703075073,-1.0167034308062952,0.5598149299621582
1708440367.90823,-1.1058197021484375,-1.6815053425230921,-2.52633244196047,2.2814130026051025,-1.0167034308062952,0.5598209500312805
1708440367.9102101,-1.1058375835418701,-1.681559225121969,-2.5262911955462855,2.281414671535156,-1.0166710058795374,0.5598253607749939
1708440367.912231,-1.1057744026184082,-1.681514402429098,-2.526283327733175,2.281376762981079,-1.0166457335101526,0.5598164200782776
1708440367.9142118,-1.1057907342910767,-1.681469579736227,-2.5262823740588587,2.281360312099121,-1.0166619459735315,0.5598495602607727
1708440367.9162524,-1.1058450937271118,-1.681502481500143,-2.5263248125659388,2.281364842052124,-1.0166218916522425,0.5598507523536682
1708440367.9182239,-1.1057699918746948,-1.681460519830221,-2.5263248125659388,2.281379385585449,-1.0166171232806605,0.5598405599594116
1708440367.9202287,-1.105759620666504,-1.6814562282957972,-2.526327912007467,2.281360312099121,-1.0166381041156214,0.5598777532577515
1708440367.9222586,-1.1057953834533691,-1.681493421594137,-2.5263236204730433,2.281343861217163,-1.0166590849505823,0.5597970485687256
1708440367.9242227,-1.1058168411254883,-1.68150057415151,-2.5262866655932825,2.2813350397297363,-1.0166500250445765,0.5598418116569519
1708440367.92622,-1.1057671308517456,-1.6814590893187464,-2.526283327733175,2.281423493022583,-1.0166338125811976,0.5598328113555908
1708440367.9282677,-1.1057790517807007,-1.681502481500143,-2.5262911955462855,2.281360312099121,-1.0166752974139612,0.559850811958313
1708440367.9302473,-1.1057922840118408,-1.681509634057516,-2.5262790361987513,2.281331940288208,-1.0166710058795374,0.5598044991493225
1708440367.9322693,-1.1057997941970825,-1.681526323358053,-2.526267115269796,2.281367703075073,-1.0166099707232874,0.5598298907279968
1708440367.9342575,-1.1057790517807007,-1.681514402429098,-2.5262702147113245,2.2813452917286376,-1.0166128317462366,0.5598748922348022
1708440367.93625,-1.1057790517807007,-1.6814772091307582,-2.526299778615133,2.281376762981079,-1.0166590849505823,0.5598164200782776
1708440367.9382641,-1.1057878732681274,-1.6814772091307582,-2.526283327733175,2.2813586431690673,-1.0166009108172815,0.5598540306091309
1708440367.9402401,-1.105804204940796,-1.681530614892477,-2.526320521031515,2.281369133586548,-1.0166500250445765,0.5598748326301575
1708440367.9422314,-1.1057329177856445,-1.6814772091307582,-2.526315991078512,2.281397505397461,-1.0166834036456507,0.5598074197769165
1708440367.9442601,-1.1057759523391724,-1.6814891300597132,-2.5262702147113245,2.281294746989868,-1.0166423956500452,0.5598613619804382
1708440367.9462545,-1.1057552099227905,-1.6814514599242152,-2.526283327733175,2.281343861217163,-1.0166457335101526,0.5598360300064087
1708440367.948253,-1.1057790517807007,-1.6815296612181605,-2.526287619267599,2.281339569682739,-1.0166471640216272,0.5598613619804382
1708440367.9502442,-1.1057627201080322,-1.681526323358053,-2.526287619267599,2.281381054515503,-1.0166543165790003,0.5598822832107544
1708440367.952259,-1.1058086156845093,-1.6815053425230921,-2.5262418429004114,2.281339569682739,-1.0166218916522425,0.5598405003547668
1708440367.9542663,-1.1057507991790771,-1.681497713128561,-2.5262461344348353,2.281381292934082,-1.0166261831866663,0.5598704218864441
1708440367.9562273,-1.105738878250122,-1.6814753017821253,-2.526320521031515,2.281311197871826,-1.0166876951800745,0.559844970703125
1708440367.9582243,-1.1057552099227905,-1.6814891300597132,-2.526267115269796,2.281385584468506,-1.0166662375079554,0.5598524212837219
1708440367.9602156,-1.1057552099227905,-1.6816045246519984,-2.5262628237353724,2.281355782146118,-1.0166099707232874,0.5598568320274353
1708440367.9622164,-1.1057891845703125,-1.681481500665182,-2.52633244196047,2.281311197871826,-1.0166423956500452,0.5598524212837219
1708440367.9642568,-1.1057759523391724,-1.6814843616881312,-2.52633244196047,2.281352921123169,-1.016592804585592,0.5598029494285583
1708440367.9662285,-1.105738878250122,-1.68150057415151,-2.526311699544088,2.2813514906116943,-1.0166590849505823,0.5598360300064087
1708440367.9682124,-1.1057238578796387,-1.681554456750387,-2.526250664387838,2.281327410335205,-1.0166171232806605,0.5599302649497986
1708440367.9702158,-1.1057238578796387,-1.681509634057516,-2.526320521031515,2.281339569682739,-1.0166261831866663,0.5598896741867065
1708440367.9722092,-1.105715036392212,-1.6815368137755335,-2.5262540022479456,2.281341000194214,-1.0166543165790003,0.5598434209823608
1708440367.9742074,-1.1057446002960205,-1.6814919910826625,-2.5262582937823694,2.281355782146118,-1.0166218916522425,0.5598598122596741
1708440367.9762015,-1.1057772636413574,-1.6815368137755335,-2.526315991078512,2.281336470241211,-1.0166261831866663,0.5598807334899902
1708440367.9782312,-1.1057640314102173,-1.6815296612181605,-2.5262745062457483,2.281381054515503,-1.0166381041156214,0.559921145439148
1708440367.9802125,-1.1057357788085938,-1.6815501652159632,-2.526249710713522,2.281336470241211,-1.0166085402118128,0.5598928928375244
1708440367.9822075,-1.1057476997375488,-1.6815453968443812,-2.52623421350588,2.281352921123169,-1.0166381041156214,0.5598761439323425
1708440367.9842045,-1.1057357788085938,-1.6815339527525843,-2.52633244196047,2.2813827234455566,-1.0166218916522425,0.5598884224891663
1708440367.9862072,-1.1057238578796387,-1.6815864048399867,-2.526254955922262,2.2813452917286376,-1.0166381041156214,0.5598524212837219
1708440367.9882302,-1.1057521104812622,-1.6816026173033656,-2.526250664387838,2.281336470241211,-1.0166471640216272,0.5598807334899902
1708440367.9902503,-1.1057031154632568,-1.6815577946104945,-2.5262747446643274,2.281303806895874,-1.0166471640216272,0.5598928928375244
1708440367.992256,-1.1056578159332275,-1.6815906963744105,-2.5262919108020228,2.2812904554554443,-1.0166471640216272,0.5598839521408081
1708440367.994228,-1.105728268623352,-1.6815773449339808,-2.5262790361987513,2.2813545900532226,-1.0166471640216272,0.559867262840271
1708440367.9962494,-1.1057357788085938,-1.6815759144225062,-2.526315991078512,2.281309052104614,-1.0166471640216272,0.5598762035369873
1708440367.9982285,-1.105726957321167,-1.6816688976683558,-2.5262790361987513,2.2813047605701904,-1.0166009108172815,0.5599212050437927
1708440368.00022,-1.1057446002960205,-1.681573053399557,-2.5262954870807093,2.2812599378773193,-1.0166142622577112,0.5598839521408081
1708440368.0022297,-1.1057329177856445,-1.681596418420309,-2.526250664387838,2.2812227445789794,-1.016651455556051,0.5598928928375244
1708440368.0042298,-1.1056904792785645,-1.6816183529295863,-2.526311699544088,2.2812318044849853,-1.016639534627096,0.5598762035369873
1708440368.0062432,-1.1057075262069702,-1.681596418420309,-2.526320521031515,2.281252546901367,-1.0166471640216272,0.5599138736724854
1708440368.0082304,-1.1057772636413574,-1.68158020595693,-2.526283327733175,2.281236096019409,-1.0165975729571741,0.5598959922790527
1708440368.0102215,-1.105728268623352,-1.681584974328512,-2.526299778615133,2.281252546901367,-1.0166171232806605,0.5598315596580505
1708440368.0122025,-1.1057238578796387,-1.6816045246519984,-2.526267115269796,2.281186266536377,-1.016618553792135,0.5599256753921509
1708440368.0142148,-1.1057194471359253,-1.6815277538695277,-2.5263400713550013,2.2812272745319824,-1.0166261831866663,0.5598269701004028
1708440368.0162234,-1.105749249458313,-1.6816183529295863,-2.5262625853167933,2.2811943727680664,-1.016651455556051,0.5599048137664795
1708440368.0182316,-1.1056995391845703,-1.68158020595693,-2.5262747446643274,2.281273289317749,-1.0166471640216272,0.5598762035369873
1708440368.020214,-1.1056995391845703,-1.6816250286498011,-2.5263074080096644,2.28125707685437,-1.0165885130511683,0.5599372386932373
1708440368.022223,-1.1056904792785645,-1.6815759144225062,-2.5262954870807093,2.28119079648938,-1.0166261831866663,0.5598716735839844
1708440368.0242176,-1.1056995391845703,-1.681601186791891,-2.5262790361987513,2.281306191081665,-1.0166052023517054,0.5598598122596741
1708440368.0262015,-1.1056995391845703,-1.6815549335875453,-2.526283327733175,2.281248016948364,-1.0166261831866663,0.559867262840271
1708440368.0282362,-1.1056876182556152,-1.6815954647459925,-2.5262869040118616,2.281240625972412,-1.0166381041156214,0.5598807334899902
1708440368.030227,-1.1056920289993286,-1.681601186791891,-2.5262790361987513,2.2812153536030273,-1.0166500250445765,0.5598717331886292
1708440368.0322282,-1.1056995391845703,-1.681601186791891,-2.526320521031515,2.281203432674072,-1.0166128317462366,0.5599092841148376
1708440368.034206,-1.105650544166565,-1.6816383800902308,-2.526250664387838,2.2811953264423828,-1.0166218916522425,0.5599182844161987
1708440368.0361986,-1.105728268623352,-1.6816092930235804,-2.526275698338644,2.281237764949463,-1.0166304747210901,0.5599048137664795
1708440368.0382648,-1.1056904792785645,-1.68168367962026,-2.526283327733175,2.281282349223755,-1.0166338125811976,0.5598807334899902
1708440368.0402176,-1.1056756973266602,-1.681592126885885,-2.5262919108020228,2.281306191081665,-1.0166052023517054,0.5599372386932373
1708440368.0422263,-1.1056756973266602,-1.6816584072508753,-2.526287619267599,2.2812198835560302,-1.0166261831866663,0.5599048137664795
1708440368.0442207,-1.105696439743042,-1.6816383800902308,-2.5262625853167933,2.2812272745319824,-1.0166052023517054,0.5599507689476013
1708440368.046204,-1.1056832075119019,-1.6816359959044398,-2.526315991078512,2.281237764949463,-1.016651455556051,0.5599092841148376
1708440368.04822,-1.1056593656539917,-1.6816555462279261,-2.5262582937823694,2.281273289317749,-1.0166381041156214,0.5598136782646179
1708440368.050218,-1.105708360671997,-1.6816250286498011,-2.5262911955462855,2.281240625972412,-1.0166142622577112,0.5598807334899902
1708440368.052238,-1.1057039499282837,-1.681596418420309,-2.52627140680422,2.281207962627075,-1.0166619459735315,0.5599256753921509
1708440368.0542245,-1.1056876182556152,-1.6816135845580042,-2.526304308568136,2.281265898341797,-1.0166500250445765,0.5599182844161987
1708440368.0562096,-1.1057039499282837,-1.68158020595693,-2.526327912007467,2.281212254161499,-1.0166261831866663,0.5598796010017395
1708440368.0582013,-1.1056995391845703,-1.681601186791891,-2.526315991078512,2.2812318044849853,-1.0166338125811976,0.5598974227905273
1708440368.0602098,-1.1057039499282837,-1.6816250286498011,-2.526320521031515,2.28129427015271,-1.0166009108172815,0.5599003434181213
1708440368.0622191,-1.105674147605896,-1.6816135845580042,-2.52630860010256,2.281224175090454,-1.0166338125811976,0.5598928928375244
1708440368.0642176,-1.1056756973266602,-1.681634088555807,-2.52633244196047,2.281207962627075,-1.0166743437396448,0.5598839521408081
1708440368.0662055,-1.105708360671997,-1.6816116772093714,-2.526287619267599,2.281224175090454,-1.0166500250445765,0.5598568916320801
1708440368.0682085,-1.1057039499282837,-1.6816183529295863,-2.52627140680422,2.2812272745319824,-1.0166052023517054,0.5599092841148376
1708440368.0702069,-1.1056920289993286,-1.6816045246519984,-2.5262869040118616,2.2812437254139404,-1.0166290442096155,0.5599092841148376
1708440368.072213,-1.1057127714157104,-1.681584974328512,-2.526283327733175,2.281207962627075,-1.0166457335101526,0.5599302053451538
1708440368.074235,-1.1056756973266602,-1.6816183529295863,-2.526275698338644,2.28123323499646,-1.0166290442096155,0.5598884224891663
1708440368.0762084,-1.1056785583496094,-1.68158020595693,-2.5262790361987513,2.281254215831421,-1.0166290442096155,0.5598148703575134
1708440368.0782132,-1.1056668758392334,-1.681676527062887,-2.5262635389911097,2.281236096019409,-1.0166338125811976,0.5598974227905273
1708440368.0802205,-1.1057623624801636,-1.6815878353514613,-2.5262582937823694,2.2812198835560302,-1.0166500250445765,0.5599138140678406
1708440368.0822246,-1.1056832075119019,-1.681634088555807,-2.5262954870807093,2.281245155925415,-1.0166247526751917,0.5599064230918884
1708440368.0842385,-1.105696439743042,-1.6816326580443324,-2.526299778615133,2.28119079648938,-1.0166457335101526,0.5599092841148376
1708440368.0862224,-1.1056474447250366,-1.6816374264159144,-2.52630860010256,2.281277819270752,-1.0166338125811976,0.5598807334899902
1708440368.0883121,-1.105663776397705,-1.681596418420309,-2.526250425969259,2.2812914091297607,-1.0166171232806605,0.5598974823951721
1708440368.0902338,-1.1056801080703735,-1.6815878353514613,-2.5262790361987513,2.281224175090454,-1.0166290442096155,0.5598852634429932
1708440368.0922327,-1.1056832075119019,-1.6815668545165003,-2.526299778615133,2.281236096019409,-1.0166290442096155,0.5598928928375244
1708440368.0942445,-1.1056876182556152,-1.6816464863219203,-2.52633244196047,2.281221314067505,-1.0166710058795374,0.5598360300064087
1708440368.0962546,-1.1056712865829468,-1.681596418420309,-2.5262954870807093,2.2811989027210693,-1.016604248677389,0.5598716735839844
1708440368.0982258,-1.1056756973266602,-1.681592126885885,-2.526336733494894,2.281265898341797,-1.0166948477374476,0.5598433613777161
1708440368.100269,-1.1057039499282837,-1.6816135845580042,-2.526250425969259,2.281265898341797,-1.0166576544391077,0.5598807334899902
1708440368.1022217,-1.1056578159332275,-1.681596418420309,-2.526283327733175,2.2811998563953857,-1.0166485945331019,0.5598823428153992
1708440368.104235,-1.1057298183441162,-1.6816183529295863,-2.526254955922262,2.2812108236500244,-1.0167115370379847,0.5598360300064087
1708440368.1062248,-1.1056593656539917,-1.681629320184225,-2.526316229497091,2.281265898341797,-1.016670052205221,0.5598568916320801
1708440368.1082168,-1.1056756973266602,-1.681596418420309,-2.526250664387838,2.281228705043457,-1.0166991392718714,0.5598613619804382
1708440368.1102092,-1.105708360671997,-1.681629320184225,-2.5262954870807093,2.2812318044849853,-1.0166834036456507,0.5598732829093933
1708440368.112213,-1.1056846380233765,-1.6816183529295863,-2.526328150426046,2.2812198835560302,-1.0166834036456507,0.5598732829093933
1708440368.1142457,-1.1056785583496094,-1.6816092930235804,-2.526299778615133,2.281306191081665,-1.0166528860675257,0.5598733425140381
1708440368.116221,-1.1056712865829468,-1.6816464863219203,-2.5262702147113245,2.281207962627075,-1.016670052205221,0.5598732829093933
1708440368.1182163,-1.1056876182556152,-1.6816626987852992,-2.526316229497091,2.281273289317749,-1.0166814962970179,0.5598688721656799
1708440368.1202369,-1.105716586112976,-1.6816135845580042,-2.526299778615133,2.28123323499646,-1.016670052205221,0.5597910284996033
1708440368.122222,-1.1056801080703735,-1.681596418420309,-2.5262461344348353,2.281240625972412,-1.0166485945331019,0.5598479509353638
1708440368.124225,-1.1056920289993286,-1.6816555462279261,-2.52633244196047,2.281228705043457,-1.016719166432516,0.5598822832107544
1708440368.1262183,-1.1057008504867554,-1.6816383800902308,-2.5262964407550257,2.2812153536030273,-1.0167024771319788,0.559782087802887
1708440368.1282163,-1.1057119369506836,-1.6816092930235804,-2.5262582937823694,2.2812318044849853,-1.0166814962970179,0.5598102807998657
1708440368.1302605,-1.1057254076004028,-1.6816159687437953,-2.52627140680422,2.281245155925415,-1.0166857878314417,0.5598028302192688
1708440368.132235,-1.105696439743042,-1.681634088555807,-2.5262911955462855,2.281252546901367,-1.0167158285724085,0.5598495006561279
1708440368.1342263,-1.1057127714157104,-1.68158020595693,-2.5262628237353724,2.281248016948364,-1.0167024771319788,0.559847891330719
1708440368.1362197,-1.1056832075119019,-1.6815878353514613,-2.526316229497091,2.281268997783325,-1.0167115370379847,0.5598896741867065
1708440368.138236,-1.1056948900222778,-1.681596418420309,-2.526259247456686,2.281277819270752,-1.0167034308062952,0.5598360300064087
1708440368.1402547,-1.1056712865829468,-1.6815759144225062,-2.526304308568136,2.281224175090454,-1.0166814962970179,0.5598867535591125
1708440368.142211,-1.1057254076004028,-1.681584974328512,-2.5262540022479456,2.2812809187122802,-1.0166409651385706,0.5598208904266357
1708440368.144253,-1.105708360671997,-1.681634088555807,-2.5262582937823694,2.281212254161499,-1.016665283833639,0.5598687529563904
1708440368.1462302,-1.1056549549102783,-1.6816555462279261,-2.5262790361987513,2.28125707685437,-1.0166938940631312,0.5598028898239136
1708440368.1482396,-1.1056948900222778,-1.681596418420309,-2.5262745062457483,2.281237764949463,-1.0166938940631312,0.5598000288009644
1708440368.1502223,-1.1056549549102783,-1.6816250286498011,-2.5263074080096644,2.2813150125690917,-1.0166938940631312,0.5598417520523071
1708440368.1522286,-1.105662226676941,-1.681626935998434,-2.526320521031515,2.28125707685437,-1.0167143980609339,0.5598074197769165
1708440368.154215,-1.105662226676941,-1.681685586968893,-2.5262582937823694,2.2812511163898925,-1.0166891256915491,0.5598540306091309
1708440368.1562111,-1.1056370735168457,-1.6816383800902308,-2.526328150426046,2.28125707685437,-1.016665283833639,0.5597954392433167
1708440368.15822,-1.1056712865829468,-1.6815268001952113,-2.52633244196047,2.281236096019409,-1.0166609922992151,0.5598539710044861
1708440368.1602244,-1.1056876182556152,-1.6816383800902308,-2.5262628237353724,2.281277819270752,-1.016726318989889,0.5597954392433167
1708440368.1622677,-1.1056458950042725,-1.6815711460509242,-2.526311699544088,2.28129427015271,-1.0167396704303187,0.5597881078720093
1708440368.1642053,-1.1056832075119019,-1.6816045246519984,-2.526304308568136,2.2812599378773193,-1.016731087361471,0.5598253607749939
1708440368.1662028,-1.105737328529358,-1.681596418420309,-2.526328150426046,2.2812318044849853,-1.01671010652651,0.5597713589668274
1708440368.1682632,-1.1057119369506836,-1.6816183529295863,-2.5263236204730433,2.281248016948364,-1.0166938940631312,0.5598180294036865
1708440368.170214,-1.105663776397705,-1.6815639934935511,-2.526304070149557,2.281261368388794,-1.016754452382223,0.5598104596138
1708440368.1722388,-1.1057209968566895,-1.681596418420309,-2.5262954870807093,2.2812391954609375,-1.0166848341571253,0.5598224401473999
1708440368.174208,-1.1056785583496094,-1.6816135845580042,-2.526304070149557,2.281301661128662,-1.016726318989889,0.5598060488700867
1708440368.1762178,-1.105662226676941,-1.6815935573973597,-2.526327912007467,2.281248016948364,-1.0166924635516565,0.5598060488700867
1708440368.1782413,-1.1057039499282837,-1.6816159687437953,-2.526267115269796,2.2812599378773193,-1.0167549292193812,0.5597758889198303
1708440368.1802282,-1.1056712865829468,-1.6816183529295863,-2.5262869040118616,2.2812272745319824,-1.016738239918844,0.5597493648529053
1708440368.1822474,-1.1056785583496094,-1.681629320184225,-2.5262702147113245,2.281285210246704,-1.0167668501483362,0.5597493648529053
1708440368.1842146,-1.1057119369506836,-1.6816464863219203,-2.5262954870807093,2.2812599378773193,-1.0167620817767542,0.559802770614624
1708440368.1862042,-1.1057119369506836,-1.6816045246519984,-2.5262747446643274,2.281306191081665,-1.0167043844806116,0.5597657561302185
1708440368.1882281,-1.1057031154632568,-1.6816135845580042,-2.5263193289386194,2.281228705043457,-1.0168111960040491,0.5596876740455627
1708440368.1902454,-1.105749249458313,-1.681584974328512,-2.526304070149557,2.2812437254139404,-1.0168069044696253,0.5597372055053711
1708440368.1922238,-1.1057446002960205,-1.6816541157164515,-2.526299778615133,2.281265898341797,-1.0167773405658167,0.5597448945045471
1708440368.1942496,-1.105728268623352,-1.681535383264059,-2.5262911955462855,2.281248016948364,-1.0168069044696253,0.5597657561302185
1708440368.1962404,-1.1056876182556152,-1.6815773449339808,-2.5263074080096644,2.2812599378773193,-1.0167487303363245,0.5597118139266968
1708440368.1982067,-1.1056876182556152,-1.681596418420309,-2.5262866655932825,2.281268997783325,-1.0167606512652796,0.5597326755523682
1708440368.200245,-1.1057075262069702,-1.6816054783263148,-2.5262869040118616,2.2812153536030273,-1.0167892614947718,0.5597448348999023
1708440368.202239,-1.1057039499282837,-1.6816207371153773,-2.526311699544088,2.2812108236500244,-1.0168059507953089,0.559802770614624
1708440368.2043095,-1.105708360671997,-1.6816207371153773,-2.5262823740588587,2.2812809187122802,-1.0167577902423304,0.559711754322052
1708440368.206216,-1.1057039499282837,-1.681650777856344,-2.526311699544088,2.2812318044849853,-1.0167773405658167,0.5597297549247742
1708440368.2082074,-1.1057164669036865,-1.681584974328512,-2.5262911955462855,2.28129427015271,-1.0167906920062464,0.559740424156189
1708440368.2102118,-1.1057039499282837,-1.6816092930235804,-2.52633244196047,2.2812763887592773,-1.0167444388019007,0.5597162246704102
1708440368.2122068,-1.1057254076004028,-1.681626935998434,-2.5263400713550013,2.281240625972412,-1.0168102423297327,0.559753954410553
1708440368.214218,-1.1056948900222778,-1.6815501652159632,-2.5262823740588587,2.281264467830322,-1.0167563597308558,0.5597208142280579
1708440368.2161956,-1.1056995391845703,-1.6815759144225062,-2.52635628381838,2.281306191081665,-1.0167773405658167,0.5596877336502075
1708440368.2181897,-1.1056756973266602,-1.681596418420309,-2.5262985865222376,2.2812318044849853,-1.0167935530291956,0.5597538948059082
1708440368.2202463,-1.1056458950042725,-1.6816045246519984,-2.5263355414019983,2.281289740199707,-1.016796890889303,0.5597088932991028
1708440368.2222075,-1.1056712865829468,-1.6816183529295863,-2.526328150426046,2.2812318044849853,-1.016829792653219,0.5597224235534668
1708440368.224204,-1.1056756973266602,-1.681568285027975,-2.5263074080096644,2.2811900812336425,-1.016817871724264,0.5597297549247742
1708440368.2262201,-1.1056801080703735,-1.6816135845580042,-2.5263193289386194,2.2812763887592773,-1.0168669859515589,0.559722363948822
1708440368.2282162,-1.105716586112976,-1.6816116772093714,-2.5263517538653772,2.2812198835560302,-1.016890827809469,0.5596848130226135
1708440368.2302208,-1.1056832075119019,-1.681629320184225,-2.5263074080096644,2.2812153536030273,-1.0168536345111292,0.5597764253616333
1708440368.2322652,-1.1056430339813232,-1.6816374264159144,-2.5263224283801478,2.281289740199707,-1.0168655554400843,0.5597012042999268
1708440368.2342386,-1.1056681871414185,-1.681629320184225,-2.5263224283801478,2.281228705043457,-1.0168564955340784,0.5596937537193298
1708440368.2362099,-1.1056876182556152,-1.6816250286498011,-2.526371781026022,2.281273289317749,-1.0169270674334925,0.5596565008163452
1708440368.2382493,-1.105696439743042,-1.68158020595693,-2.526301924382345,2.281207962627075,-1.0168855826007288,0.5596532821655273
1708440368.2402325,-1.1057209968566895,-1.681601186791891,-2.526363197957174,2.2812809187122802,-1.0169017950641077,0.5596442222595215
1708440368.2422469,-1.1056681871414185,-1.6816250286498011,-2.526334349309103,2.2812318044849853,-1.016921345387594,0.5595802664756775
1708440368.2442281,-1.1057008504867554,-1.6816092930235804,-2.526346508656637,2.281248016948364,-1.0169451872455042,0.5595727562904358
1708440368.246243,-1.105684518814087,-1.6816374264159144,-2.526407543812887,2.2812198835560302,-1.0169537703143519,0.559605598449707
1708440368.2482183,-1.1057008504867554,-1.6816374264159144,-2.5264151732074183,2.2812318044849853,-1.016989533101217,0.5596312880516052
1708440368.2502184,-1.1056116819381714,-1.6816417179503382,-2.5264764467822474,2.28125707685437,-1.016998593007223,0.5595188140869141
1708440368.252215,-1.1056890487670898,-1.6816250286498011,-2.526489321385519,2.28131811201062,-1.0170066992389124,0.5595564246177673
1708440368.2542784,-1.105619192123413,-1.6816493473448695,-2.5264230410205286,2.2812108236500244,-1.016989533101217,0.5595743656158447
1708440368.2562366,-1.105607271194458,-1.6816626987852992,-2.5264185110675257,2.281261368388794,-1.0169523398028772,0.5595036745071411
1708440368.25823,-1.105599045753479,-1.6816240749754847,-2.5264304319964808,2.28125707685437,-1.0169852415667933,0.5595412850379944
1708440368.2602313,-1.1055902242660522,-1.6816283665099085,-2.5264883677112024,2.2812318044849853,-1.0169852415667933,0.5595428943634033
1708440368.2622113,-1.105599045753479,-1.6816374264159144,-2.526450220738546,2.281277819270752,-1.0169976393329065,0.5595126748085022
1708440368.2642155,-1.105549931526184,-1.6816045246519984,-2.526458803807394,2.281224175090454,-1.017041031514303,0.559485912322998
1708440368.266203,-1.1055516004562378,-1.6816207371153773,-2.526532236729757,2.281212254161499,-1.0170705954181116,0.5594903826713562
1708440368.2682457,-1.1055604219436646,-1.681690355340475,-2.5264459292041224,2.281285210246704,-1.017069164906637,0.5594650506973267
1708440368.2702246,-1.1055368185043335,-1.6816584072508753,-2.526511255894796,2.281298800105713,-1.017102066670553,0.5594620704650879
1708440368.2722297,-1.1054987907409668,-1.6816374264159144,-2.526572291051046,2.281181975001953,-1.0171516577350062,0.5594096183776855
1708440368.2742195,-1.1055034399032593,-1.6816283665099085,-2.5264981428729456,2.281277819270752,-1.0171054045306605,0.5594350099563599
1708440368.276219,-1.105512261390686,-1.6816326580443324,-2.5265069643603724,2.28125707685437,-1.0171082655536097,0.5593993067741394
1708440368.2782223,-1.1054973602294922,-1.6816569767394007,-2.526572291051046,2.2812318044849853,-1.0171693007098597,0.559354305267334
1708440368.2802253,-1.1054692268371582,-1.6816402874388636,-2.5265679995166224,2.281252546901367,-1.0172103087054651,0.5593302249908447
1708440368.2822244,-1.1054267883300781,-1.6816493473448695,-2.5265384356128138,2.2811717230030517,-1.0171893278705042,0.5592690706253052
1708440368.2842155,-1.1053979396820068,-1.6816817722716273,-2.5265591780291956,2.281212254161499,-1.017266575490133,0.5592330694198608
1708440368.2862146,-1.1054493188858032,-1.6816569767394007,-2.526595417653219,2.2811598020740966,-1.0171955267535608,0.5592555403709412
1708440368.2883272,-1.105371356010437,-1.6816851101317347,-2.5266085306750696,2.281237764949463,-1.0172651449786585,0.5591761469841003
1708440368.2902405,-1.105359435081482,-1.6817017994322718,-2.526574436818258,2.2811505037495117,-1.0173266569720667,0.5591896176338196
1708440368.292239,-1.1053141355514526,-1.6816936932005824,-2.526583258305685,2.2811640936085205,-1.0173104445086878,0.5591673254966736
1708440368.2942324,-1.1052978038787842,-1.6816402874388636,-2.526578966771261,2.28117744504895,-1.017346207295553,0.5591059327125549
1708440368.2962356,-1.1053200960159302,-1.681692739526266,-2.5265985170947474,2.2810966211506347,-1.0173538366900843,0.5590685606002808
1708440368.2982316,-1.1053156852722168,-1.681650301019186,-2.5266180674182337,2.281083031291626,-1.0173776785479944,0.5590882301330566
1708440368.3002474,-1.1052591800689697,-1.681758543054098,-2.5266223589526575,2.2810727792927246,-1.0173810164081019,0.5590136051177979
1708440368.302229,-1.1052346229553223,-1.6817165813841761,-2.5266388098346155,2.2810847002216796,-1.0173972288714808,0.5590314865112305
1708440368.3042436,-1.1052651405334473,-1.6817342243590296,-2.5266955534564417,2.2811173635670166,-1.0174091498004358,0.558991014957428
1708440368.3062243,-1.1052154302597046,-1.6817370853819789,-2.5266714731799524,2.281020088786743,-1.017444912587301,0.5589340329170227
1708440368.3082416,-1.1052110195159912,-1.6817409000792445,-2.5266836325274866,2.280988855952881,-1.0174434820758265,0.5589190125465393
1708440368.310239,-1.105158805847168,-1.6817566357054652,-2.5267120043383997,2.281000776881836,-1.0175092856036585,0.558890700340271
1708440368.3122618,-1.1051597595214844,-1.681793829003805,-2.526736084614889,2.280956192607544,-1.0174930731402796,0.5588474869728088
1708440368.3142502,-1.105094313621521,-1.6817647419371546,-2.526710812245504,2.2809063631245117,-1.0175002256976526,0.5587873458862305
1708440368.3162344,-1.1051478385925293,-1.6817928753294886,-2.526710812245504,2.2809242445179443,-1.0175407568561,0.5587963461875916
1708440368.3182435,-1.1051239967346191,-1.6818629703917445,-2.5267348925219935,2.2809032636829834,-1.0175440947162073,0.5586619973182678
1708440368.320848,-1.1051239967346191,-1.6818257770934046,-2.5267675558673304,2.28086702405896,-1.0176127592669886,0.5586543679237366
1708440368.3222604,-1.1050719022750854,-1.6818005047240199,-2.5267589727984827,2.280855341548584,-1.0176246801959437,0.5585616230964661
1708440368.324269,-1.1050504446029663,-1.681829114953512,-2.5268288294421595,2.280848904246948,-1.0176203886615198,0.5585840344429016
1708440368.3262358,-1.105068325996399,-1.6818529568114222,-2.5267913977252405,2.2808279234119873,-1.0176814238177698,0.5585076808929443
1708440368.3282802,-1.1050325632095337,-1.681890150109762,-2.5267913977252405,2.280820532436035,-1.017684284840719,0.5584762096405029
1708440368.330246,-1.1050325632095337,-1.6818930111327113,-2.526790205632345,2.28080861150708,-1.0176962057696741,0.5584256052970886
1708440368.3322983,-1.105025053024292,-1.6819216213622035,-2.526815954838888,2.280775948161743,-1.01772386232485,0.5582908391952515
1708440368.3343031,-1.1049636602401733,-1.6818815670409144,-2.5268190542804163,2.280772848720215,-1.0177491346942347,0.558268666267395
1708440368.3362718,-1.1049391031265259,-1.6819035015501917,-2.526835266743795,2.2807230192371826,-1.0177610556231897,0.5582132935523987
1708440368.3382847,-1.1049437522888184,-1.6819335422911585,-2.5268190542804163,2.2807082372852783,-1.0178330580340784,0.5581232905387878
1708440368.3402674,-1.1048916578292847,-1.68192782024526,-2.5268471876727503,2.2807065683552246,-1.0178373495685022,0.5580396056175232
1708440368.3422492,-1.1049079895019531,-1.6819244823851527,-2.5268622080432337,2.2806801038929443,-1.0178611914264124,0.5579721927642822
1708440368.3442714,-1.1048836708068848,-1.681990762750143,-2.526940886174337,2.280693455333374,-1.0178282896624964,0.5579456090927124
1708440368.3462613,-1.1048673391342163,-1.6819325886168421,-2.5268994013415735,2.280747099513672,-1.017867390309469,0.5578005909919739
1708440368.348281,-1.1048359870910645,-1.6819726429381312,-2.5269365946399134,2.2806362348743896,-1.017846409474508,0.5577313899993896
1708440368.3502977,-1.1048686504364014,-1.6819936237730921,-2.52690297762026,2.2806407648273925,-1.0179360548602503,0.5576525330543518
1708440368.3522754,-1.104787826538086,-1.681939264337057,-2.52690297762026,2.2806154924580078,-1.0178898016559046,0.5576225519180298
1708440368.35423,-1.1048041582107544,-1.6819635830321253,-2.5269179979907435,2.2806333738514404,-1.0179689566241663,0.5574967265129089
1708440368.3562212,-1.1047759056091309,-1.6819664440550746,-2.526931111012594,2.2806050020405273,-1.0180004278766077,0.5574594140052795
1708440368.358242,-1.1047683954238892,-1.6819683514037074,-2.5269551912890833,2.2805678087421875,-1.0180214087115687,0.5573171973228455
1708440368.360262,-1.1046985387802124,-1.6819755039610804,-2.5269137064563196,2.28058569013562,-1.0179956595050257,0.5572664141654968
1708440368.3622112,-1.1046621799468994,-1.6820174656310023,-2.526971403752462,2.280556841487549,-1.0179622809039515,0.5571991205215454
1708440368.364214,-1.104691982269287,-1.6820665798582972,-2.5269551912890833,2.280510588283203,-1.018019978200094,0.557121217250824
1708440368.3662195,-1.1046384572982788,-1.6819993458189906,-2.5269628206836146,2.2805775839039306,-1.0180485884295862,0.5569642782211304
1708440368.3682094,-1.104668140411377,-1.682016511956686,-2.5270400683032435,2.2805613714405517,-1.0180514494525355,0.5568522810935974
1708440368.3702614,-1.1046487092971802,-1.6820322475829066,-2.526990000401632,2.2805299001881103,-1.0180352369891565,0.5567309260368347
1708440368.3722456,-1.1046323776245117,-1.6820231876769007,-2.5269954840289515,2.2805256086536865,-1.0180633703814905,0.5566112995147705
1708440368.3742085,-1.104554533958435,-1.6820560894408167,-2.5270686785327356,2.280477448100708,-1.0181034247027796,0.5565620064735413
1708440368.3761988,-1.1045708656311035,-1.6820560894408167,-2.527060095463888,2.2805182176777343,-1.0180991331683558,0.5563927292823792
1708440368.3782215,-1.1045262813568115,-1.68206848720693,-2.5270355383502405,2.280456467265747,-1.018094841633932,0.5562493205070496
1708440368.3802075,-1.1045440435409546,-1.6820560894408167,-2.52702242532839,2.280456467265747,-1.0180991331683558,0.5560997724533081
1708440368.3822072,-1.104560375213623,-1.682117601434225,-2.52706748643984,2.2805027204700927,-1.018111530934469,0.5559488534927368
1708440368.3842335,-1.1045396327972412,-1.6821161709227503,-2.52706748643984,2.280404492015503,-1.0181487242328089,0.55585777759552
1708440368.386217,-1.104536533355713,-1.6820665798582972,-2.527072016392843,2.2803999620625,-1.0181801954852503,0.5557020306587219
1708440368.3882754,-1.1045241355895996,-1.6821280918517054,-2.527083937321798,2.2803427416035156,-1.0182088057147425,0.5555495619773865
1708440368.390229,-1.1045500040054321,-1.6820923290648402,-2.527079407368795,2.2803546625324707,-1.0181830565081995,0.5554313063621521
1708440368.3922412,-1.1045002937316895,-1.6821071110167445,-2.527039353047506,2.280388041133545,-1.0181997458087366,0.5552592873573303
1708440368.39422,-1.1045136451721191,-1.6821371517577113,-2.527116362248556,2.2803889948078613,-1.018198315297262,0.555118978023529
1708440368.3962526,-1.104472041130066,-1.6821161709227503,-2.5270989576922815,2.2803725439259033,-1.018191162739889,0.5549468994140625
1708440368.3982143,-1.104472041130066,-1.6821238003172816,-2.527100149785177,2.2804059225269775,-1.0182269255267542,0.554750919342041
1708440368.4002378,-1.1044645309448242,-1.6821614704527796,-2.5270989576922815,2.2803351122089843,-1.018247429524557,0.5546507239341736
1708440368.4022186,-1.1044645309448242,-1.6821071110167445,-2.5270708242999476,2.280261679286621,-1.0182135740863245,0.5544695258140564
1708440368.4042504,-1.1044234037399292,-1.6821443043150843,-2.5270989576922815,2.280336781139038,-1.018259350453512,0.5542781352996826
1708440368.4062502,-1.1044737100601196,-1.6821280918517054,-2.5271242300616663,2.280357761973999,-1.0182884375201624,0.5541015267372131
1708440368.408248,-1.104444146156311,-1.6821638546385707,-2.5271032492267054,2.280242367381714,-1.0182793776141565,0.5539358258247375
1708440368.410213,-1.1043977737426758,-1.6821524105467738,-2.5270989576922815,2.280324860210083,-1.0182626883136194,0.5536649823188782
1708440368.4122827,-1.1044039726257324,-1.6822091541686,-2.5270870367633265,2.2803265291401367,-1.0182927290545862,0.5534389615058899
1708440368.4142282,-1.104399561882019,-1.6821524105467738,-2.5270989576922815,2.2802750307270507,-1.0182836691485804,0.5533658862113953
1708440368.4162164,-1.1043964624404907,-1.6821524105467738,-2.5270946661578577,2.2802857595631103,-1.0182951132403772,0.5530996322631836
1708440368.4182234,-1.104354977607727,-1.6821629009642542,-2.5271197001086634,2.2802485662647705,-1.0182626883136194,0.5529079437255859
1708440368.4202344,-1.1043593883514404,-1.682150503198141,-2.5270827452289026,2.2802766996571044,-1.0182626883136194,0.5527091026306152
1708440368.422224,-1.104365348815918,-1.682139059106344,-2.527123037968771,2.2802366453358154,-1.0182884375201624,0.5525147318840027
1708440368.4242206,-1.1043275594711304,-1.682150503198141,-2.5271273295031946,2.2803408342548828,-1.0182908217059534,0.5522905588150024
1708440368.4262211,-1.10440993309021,-1.6822496853270472,-2.5271154085742396,2.280240936870239,-1.0182536284076136,0.5520719885826111
1708440368.4282138,-1.1043438911437988,-1.682242055932516,-2.527090374623434,2.280217095012329,-1.0182989279376429,0.5518971085548401
1708440368.430222,-1.1043483018875122,-1.6822091541686,-2.527078453694479,2.28019563734021,-1.0182817617999476,0.5516536235809326
1708440368.4322407,-1.1043363809585571,-1.682221075097555,-2.5271316210376185,2.2802137571522216,-1.0183075110064905,0.5514587163925171
1708440368.434214,-1.1043037176132202,-1.682237287560934,-2.5271361509906214,2.280226154918335,-1.0183075110064905,0.5511595010757446
1708440368.436271,-1.10426664352417,-1.682221075097555,-2.5271154085742396,2.2802137571522216,-1.0183075110064905,0.5509220361709595
1708440368.438232,-1.104324460029602,-1.682167192498678,-2.527078453694479,2.280167265529297,-1.0183432737933558,0.550710916519165
1708440368.4403012,-1.1042829751968384,-1.682237287560934,-2.5270989576922815,2.280167265529297,-1.0183032194720667,0.5504506826400757
1708440368.4422328,-1.1043496131896973,-1.6821919880309046,-2.5271111170398157,2.280183716411255,-1.0183523336993616,0.5502117276191711
1708440368.4442468,-1.1042993068695068,-1.6822120151915492,-2.527106825505392,2.2801882463642578,-1.0182660261737269,0.549960196018219
1708440368.446229,-1.1042842864990234,-1.68217196087026,-2.5270708242999476,2.2801520067402343,-1.0183032194720667,0.5497118234634399
1708440368.4482198,-1.1042635440826416,-1.6821581325926722,-2.527062002812521,2.2801689344593505,-1.0183404127704065,0.5495023131370544
1708440368.450234,-1.1043081283569336,-1.6822077236571253,-2.527090374623434,2.2801689344593505,-1.0183075110064905,0.5492842793464661
1708440368.4522767,-1.1042635440826416,-1.682200094262594,-2.5270989576922815,2.280165596599243,-1.0183189550982874,0.549000084400177
1708440368.4542549,-1.1042635440826416,-1.6822120151915492,-2.527085844670431,2.2801355558582763,-1.0182908217059534,0.5486997365951538
1708440368.4562047,-1.1042516231536865,-1.682200094262594,-2.5270989576922815,2.280149145717285,-1.0183280150042933,0.5485227704048157
1708440368.4582088,-1.1042301654815674,-1.6822544536986292,-2.5270827452289026,2.280149145717285,-1.0183189550982874,0.5482134819030762
1708440368.460244,-1.1042931079864502,-1.6822048626341761,-2.5270946661578577,2.280179186458252,-1.0183280150042933,0.5479337573051453
1708440368.4622488,-1.104267954826355,-1.6822453937926234,-2.5270913282977503,2.2801284033009033,-1.0183237234698694,0.547650933265686
1708440368.4642308,-1.1042723655700684,-1.6822029552855433,-2.5270827452289026,2.2801293569752197,-1.0183122793780726,0.5474205017089844
1708440368.4662075,-1.104302167892456,-1.6822363338866175,-2.527062002812521,2.280149145717285,-1.0182865301715296,0.5471095442771912
1708440368.4682121,-1.104300618171692,-1.6822077236571253,-2.527073923741476,2.280141754741333,-1.0183447043048304,0.5468581914901733
1708440368.4702141,-1.1042516231536865,-1.682228227654928,-2.5271197001086634,2.280158205623291,-1.0182951132403772,0.546586275100708
1708440368.472216,-1.1042842864990234,-1.6821986637511195,-2.5271242300616663,2.2801400858112792,-1.0182865301715296,0.5462898015975952
1708440368.4742444,-1.1042516231536865,-1.6822453937926234,-2.5270827452289026,2.2801174360462646,-1.0182660261737269,0.5460327863693237
1708440368.4762194,-1.1042931079864502,-1.6821867428221644,-2.5270913282977503,2.28013722478833,-1.0183122793780726,0.5457156896591187
1708440368.4782186,-1.1042931079864502,-1.6822453937926234,-2.5270989576922815,2.2801129060932617,-1.0182908217059534,0.5454733967781067
1708440368.4802167,-1.1042723655700684,-1.6822191677489222,-2.5271111170398157,2.2801174360462646,-1.0182374159442347,0.5451460480690002
1708440368.482217,-1.1042650938034058,-1.6822692356505335,-2.5270913282977503,2.2800845342823486,-1.0182750860797327,0.5448616147041321
1708440368.4842296,-1.1042389869689941,-1.682200094262594,-2.5271077791797083,2.2800935941883544,-1.0182817617999476,0.5445509552955627
1708440368.4862266,-1.1042842864990234,-1.6822239361205042,-2.5270589033709925,2.28009216367688,-1.018271271382467,0.5442873239517212
1708440368.4882877,-1.1042604446411133,-1.6822806797423304,-2.5270708242999476,2.2801009851643066,-1.0182459990130823,0.5440256595611572
1708440368.490262,-1.1042472124099731,-1.6822120151915492,-2.5270913282977503,2.2800726133533935,-1.0182388464557093,0.5437248945236206
1708440368.492281,-1.1042814254760742,-1.6822239361205042,-2.52706748643984,2.2801055151173095,-1.018182102833883,0.5434799194335938
1708440368.4942505,-1.1042886972427368,-1.6822658977904261,-2.527112070714132,2.2800606924244384,-1.018210236226217,0.543195366859436
1708440368.4962547,-1.1042426824569702,-1.6822058163084925,-2.527100149785177,2.280085964793823,-1.018191162739889,0.5428727269172668
1708440368.4982352,-1.104248046875,-1.6822782955565394,-2.5270512739764612,2.2800637918659667,-1.0181954542743128,0.5425657033920288
1708440368.5002475,-1.10433030128479,-1.6822191677489222,-2.5270138422595423,2.2800683218189697,-1.0181549231158655,0.5422532558441162
1708440368.5022867,-1.104300618171692,-1.6821867428221644,-2.5270708242999476,2.2800978857227783,-1.0181382338153284,0.5419555902481079
1708440368.5042496,-1.1042433977127075,-1.6822048626341761,-2.5270827452289026,2.2801307874866943,-1.0181296507464808,0.5416399836540222
1708440368.50624,-1.1042301654815674,-1.6822191677489222,-2.527100149785177,2.2801174360462646,-1.0181339422809046,0.5413392782211304
1708440368.5082285,-1.1042886972427368,-1.6822568378844203,-2.5270589033709925,2.2801055151173095,-1.0181635061847132,0.5410117506980896
1708440368.5102272,-1.104213833808899,-1.6822782955565394,-2.5270589033709925,2.2801098066517334,-1.0181143919574183,0.5407214164733887
1708440368.5122619,-1.1042019128799438,-1.682237287560934,-2.5270424524890345,2.2801098066517334,-1.0180767218219202,0.5403938293457031
1708440368.514235,-1.1043050289154053,-1.6822239361205042,-2.5270424524890345,2.2800518709370117,-1.0181487242328089,0.5400832891464233
1708440368.5162106,-1.1042433977127075,-1.6822077236571253,-2.5270307699786585,2.2800325590321044,-1.0180991331683558,0.539731502532959
1708440368.5182316,-1.1042931079864502,-1.6821867428221644,-2.5269768873797815,2.280041380519531,-1.018094841633932,0.539384126663208
1708440368.5202184,-1.1042886972427368,-1.6822568378844203,-2.527043883000509,2.2800652223774414,-1.018066708241598,0.5390942692756653
1708440368.5222347,-1.1042472124099731,-1.6821910343565882,-2.527043883000509,2.280106945628784,-1.0180662314044397,0.538775622844696
1708440368.5242379,-1.1042604446411133,-1.6822239361205042,-2.526970450078146,2.2800564008900146,-1.0180724302874964,0.5384765267372131
1708440368.5262105,-1.1042977571487427,-1.6822692356505335,-2.526994291936056,2.2800606924244384,-1.0180023352252405,0.5381014943122864
1708440368.5282362,-1.1042767763137817,-1.6821958027281703,-2.5270443598376673,2.280010862941406,-1.0180113951312464,0.5377659201622009
1708440368.530213,-1.10427987575531,-1.6822477779784144,-2.5270074049579065,2.280106945628784,-1.0180156866656702,0.5373985171318054
1708440368.5322528,-1.1042886972427368,-1.6822453937926234,-2.526953999196188,2.280102415675781,-1.0179584662066858,0.5370559096336365
1708440368.5342486,-1.10427987575531,-1.6823111973204554,-2.526937786732809,2.2800652223774414,-1.018012825642721,0.5367090106010437
1708440368.5362604,-1.104267954826355,-1.68229403118276,-2.5269508997546595,2.2800652223774414,-1.0179556051837366,0.5363591909408569
1708440368.5382931,-1.1042433977127075,-1.6822077236571253,-2.5269179979907435,2.280045910472534,-1.0179198423968714,0.5360390543937683
1708440368.5403316,-1.104248046875,-1.6822029552855433,-2.5270043055163782,2.2800935941883544,-1.0179289023028772,0.5357097387313843
1708440368.5423272,-1.1042886972427368,-1.682261129418844,-2.526943031941549,2.280085964793823,-1.017911736165182,0.5353540182113647
1708440368.5442922,-1.1042389869689941,-1.6822735271849574,-2.52696401277651,2.2800533014484863,-1.017862621937887,0.5349412560462952
1708440368.5462983,-1.1042604446411133,-1.6821910343565882,-2.5269561449633997,2.2800533014484863,-1.0178511778460901,0.5346194505691528
1708440368.5482893,-1.1042604446411133,-1.6822363338866175,-2.526890818272726,2.2800487714954834,-1.0178106466876429,0.534264862537384
1708440368.550316,-1.104213833808899,-1.6822320423521937,-2.526890818272726,2.2799946504780273,-1.0178478399859827,0.5338970422744751
1708440368.552302,-1.1042649745941162,-1.6822520695128382,-2.5268994013415735,2.2800652223774414,-1.0178535620318812,0.5335383415222168
1708440368.5542662,-1.1042767763137817,-1.6822363338866175,-2.5268428961383265,2.280028982753418,-1.0177596251117151,0.5331913828849792
1708440368.5563154,-1.1042346954345703,-1.6821938953795375,-2.526886526738302,2.28005497037854,-1.0177386442767542,0.5328413248062134
1708440368.558232,-1.10427987575531,-1.6822272739806117,-2.5268548170672815,2.280041380519531,-1.01774770418276,0.5323970317840576
1708440368.5602324,-1.1042931079864502,-1.6822363338866175,-2.5268383661853235,2.280015392894409,-1.017735783253805,0.5320337414741516
1708440368.5622292,-1.104267954826355,-1.6822148762144984,-2.526863400136129,2.279998942012451,-1.0177400747882288,0.5316553115844727
1708440368.5642693,-1.1043094396591187,-1.6822568378844203,-2.526867691670553,2.280066891307495,-1.0177162329303187,0.5312756896018982
1708440368.566303,-1.10427987575531,-1.6822320423521937,-2.5267983118640345,2.280050440425537,-1.0177415052997034,0.5309371948242188
1708440368.5682683,-1.10427987575531,-1.6822320423521937,-2.526856009160177,2.280090494746826,-1.0176590124713343,0.5305542945861816
1708440368.570231,-1.104300618171692,-1.6822148762144984,-2.526855770741598,2.280017061824463,-1.0176590124713343,0.5300967693328857
1708440368.5722768,-1.1042842864990234,-1.6822644672789515,-2.5268471876727503,2.280008001918457,-1.0176189581500452,0.5296987295150757
1708440368.5742447,-1.1042604446411133,-1.6822782955565394,-2.526799027119772,2.2800533014484863,-1.0176189581500452,0.5293294787406921
1708440368.5762675,-1.1042931079864502,-1.6822558842101039,-2.526832167302267,2.280017061824463,-1.0175994078265589,0.5289959907531738
1708440368.5782263,-1.1042977571487427,-1.6822363338866175,-2.5268071333514612,2.279991551036499,-1.0176127592669886,0.5285831689834595
1708440368.5801995,-1.1042754650115967,-1.6822668514647425,-2.526827637349264,2.2800378042408447,-1.0175259749041956,0.5282018780708313
1708440368.5822005,-1.1042842864990234,-1.6823064289488734,-2.526815954838888,2.280024452800415,-1.0175884405719202,0.5277812480926514
1708440368.584207,-1.104267954826355,-1.6822434864439906,-2.5268364588366907,2.2800378042408447,-1.0175274054156702,0.5273613333702087
1708440368.5861995,-1.1042345762252808,-1.6822296581664027,-2.5268121401416224,2.28005497037854,-1.0174949804889124,0.5269845128059387
1708440368.5882409,-1.1042650938034058,-1.6822840176024378,-2.5267751852618616,2.2799886900135498,-1.017486874257223,0.5265405178070068
1708440368.5902545,-1.10427987575531,-1.6822477779784144,-2.526738230382101,2.280000610942505,-1.0175321737872522,0.5261948108673096
1708440368.5922384,-1.1042428016662598,-1.6822601757445277,-2.5267470518695276,2.2799977499195556,-1.0175169149981897,0.5257958173751831
1708440368.5942636,-1.1042433977127075,-1.682279726068014,-2.526766602193014,2.279967947597168,-1.0175169149981897,0.5253604650497437
1708440368.5962257,-1.1042767763137817,-1.6822930775084437,-2.526738230382101,2.279967947597168,-1.0174887816058558,0.5250612497329712
1708440368.598227,-1.1042560338974,-1.6822644672789515,-2.5267470518695276,2.279996319408081,-1.0175021330462855,0.52458256483078
1708440368.6002367,-1.1042472124099731,-1.6822887859740199,-2.5267303625689905,2.279956026668213,-1.0175135771380823,0.5241187810897827
1708440368.6022556,-1.1042635440826416,-1.6823169193663539,-2.5267348925219935,2.2799932199665527,-1.017477814351217,0.5237498879432678
1708440368.6042726,-1.1043140888214111,-1.6823212109007777,-2.5267391840564173,2.2799886900135498,-1.0174735228167933,0.5232856869697571
1708440368.6062262,-1.1042767763137817,-1.6822930775084437,-2.526743475590841,2.279939575786255,-1.0174687544452112,0.5228474736213684
1708440368.6082287,-1.1042886972427368,-1.6822716198363246,-2.526715103779928,2.279939575786255,-1.0173843542682093,0.5223554968833923
1708440368.6102064,-1.1042516231536865,-1.6822716198363246,-2.5267346541034144,2.2800096708485107,-1.017453972493307,0.5219411253929138
1708440368.6122582,-1.1042886972427368,-1.6823002300658167,-2.5266738573657435,2.2799486356922607,-1.017437760029928,0.5215356349945068
1708440368.6142247,-1.1042723655700684,-1.6822668514647425,-2.526694361363546,2.2799226480671386,-1.017392937337057,0.5210810899734497
1708440368.6162224,-1.1042962074279785,-1.6823302708067835,-2.526698891316549,2.279945059413574,-1.0173676649676722,0.5206336975097656
1708440368.618208,-1.1043169498443604,-1.6823331318297328,-2.5266836325274866,2.2799574571796875,-1.017371956502096,0.5201627016067505
1708440368.6202338,-1.1042560338974,-1.682279726068014,-2.526715103779928,2.2799648481556396,-1.0173972288714808,0.5196935534477234
1708440368.6222067,-1.1042560338974,-1.6822377643980921,-2.526654068623678,2.2799619871326904,-1.01733905473818,0.5192145109176636
1708440368.6242218,-1.1042389869689941,-1.682307859460348,-2.526694361363546,2.2799693781086425,-1.0173566977130335,0.518719494342804
1708440368.6262033,-1.1042604446411133,-1.6822668514647425,-2.526686970387594,2.2799693781086425,-1.0173285643206995,0.5182223916053772
1708440368.6282313,-1.1042931079864502,-1.6823121509947718,-2.526675049458639,2.279937668437622,-1.0172751585589808,0.5177895426750183
1708440368.6302214,-1.1043094396591187,-1.6822706661620082,-2.5266881624804896,2.2799829679676513,-1.0173209349261683,0.5174020528793335
1708440368.6322587,-1.1042886972427368,-1.6822377643980921,-2.5266955534564417,2.2799405294605712,-1.0173667112933558,0.516886293888092
1708440368.634226,-1.104300618171692,-1.6823226414122523,-2.5266671816455286,2.2799784380146484,-1.0172837416278284,0.5163224935531616
1708440368.636257,-1.1042604446411133,-1.6822377643980921,-2.5266714731799524,2.2799195486256103,-1.017275635396139,0.5157577991485596
1708440368.6382515,-1.1042635440826416,-1.682307859460348,-2.526646677647726,2.279888554210327,-1.0173047224627894,0.515239953994751
1708440368.6402724,-1.1042226552963257,-1.682324071923727,-2.5266714731799524,2.2799619871326904,-1.017297093068258,0.5148245096206665
1708440368.6422431,-1.1042428016662598,-1.682315012017721,-2.5266268889056605,2.279937668437622,-1.0172637144671839,0.514281153678894
1708440368.6442575,-1.1042560338974,-1.6823169193663539,-2.5266714731799524,2.279916687602661,-1.0173223654376429,0.5137993693351746
1708440368.6462362,-1.1042754650115967,-1.6823035679259242,-2.5266388098346155,2.279921217555664,-1.017280403767721,0.5132729411125183
1708440368.648251,-1.1043140888214111,-1.6823002300658167,-2.526672665272848,2.279928608531616,-1.0172608534442347,0.5127814412117004
1708440368.650237,-1.1042723655700684,-1.682319780389303,-2.5266552607165735,2.2799665170856933,-1.0172446409808558,0.5123372673988342
1708440368.6522326,-1.1042962074279785,-1.6823364696898402,-2.526619259511129,2.279925747508667,-1.0172565619098108,0.5117629766464233
1708440368.6542842,-1.1042977571487427,-1.6823498211302699,-2.5266223589526575,2.279888554210327,-1.0172651449786585,0.5112553834915161
1708440368.6562421,-1.1042604446411133,-1.6823483906187953,-2.526616160069601,2.279949589366577,-1.0172937552081507,0.5107571482658386
1708440368.6582341,-1.1042723655700684,-1.6823107204832972,-2.526676956807272,2.279867573375366,-1.0172279516803187,0.5101868510246277
1708440368.660218,-1.1042604446411133,-1.6823398075499476,-2.5265868345843714,2.279888554210327,-1.0172489325152796,0.5096234679222107
1708440368.6623094,-1.1043050289154053,-1.6823035679259242,-2.5266030470477503,2.279888554210327,-1.0172742048846644,0.5091060996055603
1708440368.6642148,-1.1042754650115967,-1.6823307476439417,-2.5265985170947474,2.279880924815796,-1.0172532240497034,0.5085224509239197
1708440368.6662154,-1.1042472124099731,-1.6823317013182582,-2.526607338582174,2.279876633281372,-1.017282787953512,0.5080785155296326
1708440368.6682389,-1.104225754737854,-1.6823598347105921,-2.526639763508932,2.279885454768799,-1.0172413031207483,0.5074453949928284
1708440368.6702082,-1.1043050289154053,-1.6823598347105921,-2.526578966771261,2.2798616129108886,-1.0172041098224085,0.5069459080696106
1708440368.6722543,-1.1042560338974,-1.6823531589903773,-2.5266650358783167,2.279860182399414,-1.0171926657306116,0.5063725709915161
1708440368.6742237,-1.1042472124099731,-1.6823226414122523,-2.5266106764422815,2.2798446851917724,-1.0172460714923304,0.5057955384254456
1708440368.67622,-1.1042767763137817,-1.6823622188963832,-2.526607338582174,2.2798661428638916,-1.0172413031207483,0.5051712393760681
1708440368.6782162,-1.1042635440826416,-1.6823274097838343,-2.526595417653219,2.279880924815796,-1.0172460714923304,0.5045851469039917
1708440368.680271,-1.1042814254760742,-1.6823364696898402,-2.526591126118795,2.2798735338398437,-1.0172384420977991,0.5040199160575867
1708440368.6822476,-1.10427987575531,-1.6823274097838343,-2.526611630116598,2.2799362379261474,-1.0171921888934534,0.5034416317939758
1708440368.6842248,-1.1042591333389282,-1.6823350391783656,-2.526578966771261,2.2798401552387695,-1.0171807448016565,0.5028434991836548
1708440368.686219,-1.1042842864990234,-1.6823016605772914,-2.526591126118795,2.2798616129108886,-1.0172460714923304,0.5022112727165222
1708440368.688233,-1.1042767763137817,-1.6823440990843714,-2.5266149679767054,2.279852791423462,-1.0171969572650355,0.5015893578529358
1708440368.6902587,-1.104227066040039,-1.6823483906187953,-2.526619259511129,2.2798916536518554,-1.0172293821917933,0.5009392499923706
1708440368.6922426,-1.1042391061782837,-1.6823483906187953,-2.526604239140646,2.2798871236988525,-1.0171969572650355,0.5003289580345154
1708440368.6942444,-1.104248046875,-1.6823183498778285,-2.5265868345843714,2.2798327642628173,-1.0172103087054651,0.4996950328350067
1708440368.6962242,-1.1042723655700684,-1.6823398075499476,-2.526644293461935,2.2798492151447753,-1.0172250906573694,0.4991154372692108
1708440368.6982393,-1.1042814254760742,-1.6823226414122523,-2.526627842579977,2.2798165517994384,-1.0171850363360804,0.4984605610370636
1708440368.7002501,-1.1042516231536865,-1.6823932133116664,-2.52663237253298,2.2798282343098144,-1.0172460714923304,0.49774453043937683
1708440368.7022474,-1.1042814254760742,-1.6823722324767054,-2.526607338582174,2.2797881799885253,-1.0172293821917933,0.49714821577072144
1708440368.7042506,-1.10427987575531,-1.6823598347105921,-2.526611630116598,2.2798165517994384,-1.0171969572650355,0.4965183138847351
1708440368.7062368,-1.1042604446411133,-1.6824184856810511,-2.5265823046313685,2.27985064565625,-1.0171969572650355,0.49584290385246277
1708440368.7082279,-1.1042560338974,-1.6823512516417445,-2.526583258305685,2.2798372942158203,-1.0172088781939905,0.4951612651348114
1708440368.7102423,-1.1042650938034058,-1.6823812923827113,-2.5266030470477503,2.2798537450977783,-1.0172012487994593,0.4944874346256256
1708440368.7122827,-1.1042695045471191,-1.6824118099608363,-2.526583258305685,2.27981345235791,-1.0172088781939905,0.4938253164291382
1708440368.7142408,-1.104248046875,-1.6823555431761683,-2.5265875498401087,2.2798208433338623,-1.0172012487994593,0.4932416081428528
1708440368.7162302,-1.1042433977127075,-1.6823512516417445,-2.526574436818258,2.2798446851917724,-1.0171592871295374,0.49250659346580505
1708440368.71823,-1.1043140888214111,-1.6823598347105921,-2.526550356541769,2.2798616129108886,-1.017233673726217,0.4918396770954132
1708440368.720244,-1.104248046875,-1.6823932133116664,-2.526616160069601,2.279846115703247,-1.0172088781939905,0.49111321568489075
1708440368.7222266,-1.1042345762252808,-1.6823483906187953,-2.526566807423727,2.279838724727295,-1.0171926657306116,0.49045661091804504
1708440368.7242587,-1.1042345762252808,-1.6823588810362757,-2.5265255610095423,2.2798046308704834,-1.0172293821917933,0.489779531955719
1708440368.7262337,-1.1042226552963257,-1.6824165783324183,-2.526578728352682,2.279810352916382,-1.0172293821917933,0.48913222551345825
1708440368.7282226,-1.1042433977127075,-1.6823512516417445,-2.52663237253298,2.279808922404907,-1.0172341505633753,0.48838913440704346
1708440368.7302332,-1.1043020486831665,-1.6823722324767054,-2.5265875498401087,2.279831572169922,-1.0171759764300745,0.4876013994216919
1708440368.7322266,-1.1042317152023315,-1.6824165783324183,-2.526541773472921,2.279831572169922,-1.0172041098224085,0.4869244396686554
1708440368.7342558,-1.1042317152023315,-1.6823708019652308,-2.526591126118795,2.279764338130615,-1.0172622839557093,0.48618948459625244
1708440368.736256,-1.1042649745941162,-1.6823307476439417,-2.526583258305685,2.27981345235791,-1.0172579924212855,0.48549848794937134
1708440368.738265,-1.1042197942733765,-1.682387491265768,-2.526562277470724,2.2797896105,-1.0172742048846644,0.4847432076931
1708440368.7402987,-1.104227066040039,-1.6823498211302699,-2.526599709187643,2.279843254680298,-1.0171921888934534,0.4839809536933899
1708440368.7422478,-1.1042494773864746,-1.6823307476439417,-2.526562277470724,2.27982680379834,-1.0172370115863245,0.48326119780540466
1708440368.7442563,-1.1042317152023315,-1.682354589501852,-2.526599709187643,2.2797598081776123,-1.0172293821917933,0.48255330324172974
1708440368.7462523,-1.1042405366897583,-1.6823708019652308,-2.5266040007220667,2.279815121287964,-1.0172041098224085,0.48181024193763733
1708440368.7482398,-1.104215383529663,-1.6823379002013148,-2.526607338582174,2.279764338130615,-1.017266575490133,0.48108524084091187
1708440368.750225,-1.1042317152023315,-1.6823917828001917,-2.526655975972311,2.279768868083618,-1.0172579924212855,0.48039135336875916
1708440368.7522264,-1.1042524576187134,-1.6824590168394984,-2.526562515889303,2.279777689571045,-1.0172207991229456,0.47971466183662415
1708440368.7542284,-1.1042286157608032,-1.6824075184264125,-2.5265987555133265,2.279785080546997,-1.0172117392169397,0.4789738357067108
1708440368.7562444,-1.10418701171875,-1.6824408970274867,-2.5265665690051478,2.2797562318989257,-1.0172699133502405,0.4783121645450592
1708440368.7582357,-1.1042003631591797,-1.6824289760985316,-2.526578966771261,2.279782219524048,-1.0172370115863245,0.47757604718208313
1708440368.7602425,-1.1042286157608032,-1.6823755703368128,-2.5266204516040247,2.2797598081776123,-1.0172279516803187,0.4768334627151489
1708440368.7622232,-1.1042286157608032,-1.6824032268919886,-2.5265920797931116,2.279773159618042,-1.0173071066485804,0.47614145278930664
1708440368.7642643,-1.1041959524154663,-1.6824008427061976,-2.5266531149493616,2.279751701945923,-1.0172651449786585,0.475467324256897
1708440368.7663372,-1.1042286157608032,-1.6823331318297328,-2.526604239140646,2.2797533708759765,-1.0172608534442347,0.47471025586128235
1708440368.7682397,-1.104204773902893,-1.6824075184264125,-2.526574436818258,2.2797652918049316,-1.0173104445086878,0.47400882840156555
1708440368.770201,-1.1042418479919434,-1.6823498211302699,-2.526578966771261,2.279810352916382,-1.017280403767721,0.47329166531562805
1708440368.7722006,-1.104197382926941,-1.6823798618712367,-2.526595417653219,2.2797652918049316,-1.0172727743731897,0.4724954664707184
1708440368.7742472,-1.1041550636291504,-1.6823798618712367,-2.526604239140646,2.2797896105,-1.0172551313983362,0.47178342938423157
1708440368.7762082,-1.1041431427001953,-1.6824022732176722,-2.526639763508932,2.2797326284595947,-1.0172889868365687,0.47106513381004333
1708440368.7782109,-1.1041641235351562,-1.682387491265768,-2.526595417653219,2.2797598081776123,-1.0172637144671839,0.4702991545200348
1708440368.7802336,-1.104192852973938,-1.6823498211302699,-2.5266366640674036,2.2797114092060546,-1.0173047224627894,0.4695500433444977
1708440368.7822177,-1.104128360748291,-1.6823755703368128,-2.5265701452838343,2.2797867494770507,-1.0173166433917444,0.46880340576171875
1708440368.7842138,-1.1041477918624878,-1.6824122867979945,-2.526562277470724,2.2797278600880126,-1.0173047224627894,0.4680303931236267
1708440368.7862182,-1.104150652885437,-1.6823917828001917,-2.526583258305685,2.2797579008289794,-1.0173209349261683,0.46734875440597534
1708440368.788249,-1.1041884422302246,-1.6823588810362757,-2.526591126118795,2.2797443109699707,-1.0173209349261683,0.46653157472610474
1708440368.7902539,-1.104204773902893,-1.6824032268919886,-2.526599709187643,2.279707117671631,-1.0173609892474573,0.46582692861557007
1708440368.7922356,-1.1041884422302246,-1.6823932133116664,-2.5266485849963587,2.2798032003590087,-1.0173729101764124,0.4649978578090668
1708440368.794227,-1.1041944026947021,-1.6824289760985316,-2.5266030470477503,2.2798196512409667,-1.0173118750201624,0.46426817774772644
1708440368.7962182,-1.104181170463562,-1.6824165783324183,-2.5265579859363,2.2797912794300537,-1.0173404852496546,0.463458776473999
1708440368.7982247,-1.1041641235351562,-1.6823960743346156,-2.526583258305685,2.2797443109699707,-1.0173700491534632,0.4627342224121094
1708440368.8002224,-1.1041550636291504,-1.6824289760985316,-2.526574436818258,2.2797652918049316,-1.0173853079425257,0.4619731307029724
1708440368.802287,-1.104181170463562,-1.6824008427061976,-2.526574436818258,2.279782219524048,-1.0173729101764124,0.4612082839012146
1708440368.8042417,-1.1041810512542725,-1.682361742059225,-2.526599709187643,2.2797896105,-1.0173524061786097,0.4603939950466156
1708440368.8062177,-1.1041676998138428,-1.6823960743346156,-2.5265823046313685,2.2797533708759765,-1.0173476378070276,0.459553986787796
1708440368.808239,-1.104181170463562,-1.6823846302428187,-2.5266030470477503,2.2798032003590087,-1.0174062887774866,0.45872411131858826
1708440368.8102171,-1.104181170463562,-1.6824337444701136,-2.5265701452838343,2.2797958093830566,-1.017388645802633,0.4579562842845917
1708440368.812275,-1.1041477918624878,-1.6824008427061976,-2.5265579859363,2.2797562318989257,-1.0173900763141077,0.4571952223777771
1708440368.8142343,-1.1041975021362305,-1.6823631725706996,-2.526623551045553,2.2797397810169677,-1.0173686186419886,0.4563281834125519
1708440368.8162174,-1.1041432619094849,-1.6824032268919886,-2.5265942255603235,2.2797207075306396,-1.0174062887774866,0.4555780589580536
1708440368.8182232,-1.1041685342788696,-1.6823846302428187,-2.526607338582174,2.2797607618519287,-1.0173729101764124,0.4547077715396881
1708440368.8202276,-1.1041595935821533,-1.6824075184264125,-2.526583258305685,2.279794140453003,-1.0173595587359827,0.4539431631565094
1708440368.8222153,-1.104192852973938,-1.6823679409422816,-2.526619259511129,2.2797867494770507,-1.0174225012408655,0.4531497657299042
1708440368.8242226,-1.104150652885437,-1.6824008427061976,-2.526591126118795,2.2797896105,-1.0174344221698206,0.45238861441612244
1708440368.8262188,-1.1041855812072754,-1.6824008427061976,-2.5266311804400843,2.2797741132923584,-1.0173810164081019,0.4516284763813019
1708440368.8282487,-1.1041676998138428,-1.6823846302428187,-2.526591126118795,2.2797562318989257,-1.017376724873678,0.4508090913295746
1708440368.8302145,-1.1041721105575562,-1.6824208698668421,-2.5266574064837855,2.2797533708759765,-1.017421070729391,0.4500831663608551
1708440368.8322206,-1.1041676998138428,-1.6823331318297328,-2.526635471974508,2.279719038600586,-1.017437760029928,0.4493095278739929
1708440368.8342557,-1.1041269302368164,-1.6823512516417445,-2.526616160069601,2.279773159618042,-1.017425839100973,0.4485628604888916
1708440368.8362405,-1.104122519493103,-1.6823889217772425,-2.526562277470724,2.279777689571045,-1.0173915068255823,0.44779670238494873
1708440368.8382258,-1.104122519493103,-1.6823398075499476,-2.526623551045553,2.279794140453003,-1.0174225012408655,0.4470421373844147
1708440368.840318,-1.1041550636291504,-1.6824165783324183,-2.526644293461935,2.279815121287964,-1.0173872152911585,0.446357399225235
1708440368.8422499,-1.1041314601898193,-1.6823631725706996,-2.5265329519854944,2.279751701945923,-1.0173957983600062,0.44561532139778137
1708440368.8442626,-1.1042345762252808,-1.6823770008482875,-2.5265868345843714,2.279831572169922,-1.0173957983600062,0.444868266582489
1708440368.84621,-1.1041641235351562,-1.6823770008482875,-2.526616160069601,2.279798670406006,-1.0174420515643519,0.4441893994808197
1708440368.8482587,-1.1041721105575562,-1.6823464832701625,-2.526574436818258,2.279794140453003,-1.0174201170550745,0.44341740012168884
1708440368.850215,-1.1041550636291504,-1.6823755703368128,-2.526599709187643,2.279838724727295,-1.017425839100973,0.44262179732322693
1708440368.8522375,-1.1041840314865112,-1.6823722324767054,-2.526599709187643,2.279838724727295,-1.017449680958883,0.44190898537635803
1708440368.8542519,-1.1042211055755615,-1.6823398075499476,-2.526616160069601,2.279768868083618,-1.0174124876605433,0.44117990136146545
1708440368.8562238,-1.1042003631591797,-1.6823846302428187,-2.526627842579977,2.2798046308704834,-1.0174005667315882,0.4404214918613434
1708440368.858233,-1.1042003631591797,-1.6823421917357386,-2.526619259511129,2.2798616129108886,-1.017404858266012,0.4397079348564148
1708440368.8602283,-1.104191541671753,-1.6823679409422816,-2.526627842579977,2.2798208433338623,-1.0173676649676722,0.43892034888267517
1708440368.8622198,-1.1042330265045166,-1.6823598347105921,-2.526574436818258,2.2798752027698974,-1.017453972493307,0.43817561864852905
1708440368.8642225,-1.104204773902893,-1.6823555431761683,-2.526604239140646,2.2798165517994384,-1.0174582640277308,0.4374241232872009
1708440368.8662126,-1.1042330265045166,-1.6823064289488734,-2.526627842579977,2.2798191744038085,-1.017425839100973,0.43668192625045776
1708440368.868267,-1.1042197942733765,-1.6823350391783656,-2.526616160069601,2.2799061971851806,-1.017444912587301,0.43601763248443604
1708440368.8702192,-1.1042286157608032,-1.6823092899718226,-2.526611630116598,2.2799181181141357,-1.0174244085894983,0.43524765968322754
1708440368.872259,-1.1042405366897583,-1.6823440990843714,-2.526616160069601,2.2798794943043212,-1.0174124876605433,0.4345376789569855
1708440368.8742218,-1.1042433977127075,-1.6823574505248011,-2.526611630116598,2.2799300390430908,-1.0173829237567347,0.4337558448314667
1708440368.8762155,-1.1042650938034058,-1.6823064289488734,-2.526627842579977,2.279916687602661,-1.017416779194967,0.4330686330795288
1708440368.8782105,-1.104236125946045,-1.6823531589903773,-2.526595417653219,2.279975576991699,-1.017416779194967,0.4323427975177765
1708440368.8802,-1.1042931079864502,-1.6823531589903773,-2.526627842579977,2.2799619871326904,-1.0174420515643519,0.43163228034973145
1708440368.882201,-1.1042604446411133,-1.6823440990843714,-2.526591126118795,2.2799829679676513,-1.0174124876605433,0.4308985471725464
1708440368.8842,-1.1042842864990234,-1.6823440990843714,-2.526623551045553,2.2799693781086425,-1.017388645802633,0.43015509843826294
1708440368.8862076,-1.1043376922607422,-1.6822945080199183,-2.5265448729144495,2.2800051408955078,-1.0174420515643519,0.42948612570762634
1708440368.8883398,-1.1042723655700684,-1.6823317013182582,-2.5266030470477503,2.279967947597168,-1.0174582640277308,0.42869436740875244
1708440368.8902314,-1.1043452024459839,-1.682328840295309,-2.526574436818258,2.280000610942505,-1.017416779194967,0.42790231108665466
1708440368.8922517,-1.1043081283569336,-1.682315012017721,-2.526566807423727,2.280041380519531,-1.017404858266012,0.42714065313339233
1708440368.8942266,-1.1043609380722046,-1.6822535000243128,-2.526604239140646,2.280003471965454,-1.0174005667315882,0.426439106464386
1708440368.8962202,-1.104377269744873,-1.682279726068014,-2.5265987555133265,2.280132456416748,-1.017404858266012,0.4256809651851654
1708440368.8982217,-1.1043682098388672,-1.682279726068014,-2.526604239140646,2.2800368505665283,-1.017421070729391,0.4249131381511688
1708440368.9002771,-1.1043845415115356,-1.6822344265379847,-2.5265875498401087,2.2801055151173095,-1.0173595587359827,0.4242329001426697
1708440368.9022906,-1.1043305397033691,-1.6822558842101039,-2.526591126118795,2.2801293569752197,-1.0174091498004358,0.42345407605171204
1708440368.9042385,-1.1044070720672607,-1.6822272739806117,-2.526595417653219,2.280167265529297,-1.0174344221698206,0.4226909875869751
1708440368.9062233,-1.1044397354125977,-1.6822387180724085,-2.526640001927511,2.280149145717285,-1.0173900763141077,0.4219858646392822
1708440368.9082193,-1.1044278144836426,-1.6822387180724085,-2.526607338582174,2.2801825243183593,-1.017388645802633,0.421222448348999
1708440368.9102328,-1.1045153141021729,-1.682298322717184,-2.526607338582174,2.2802225786396484,-1.0173595587359827,0.42046111822128296
1708440368.9122434,-1.104472041130066,-1.6821867428221644,-2.526578966771261,2.2801808553883056,-1.0173729101764124,0.419739693403244
1708440368.9142118,-1.1044764518737793,-1.6822191677489222,-2.526595417653219,2.280247135753296,-1.0173404852496546,0.41909167170524597
1708440368.9162443,-1.1044927835464478,-1.6822239361205042,-2.5265710989581507,2.280249996776245,-1.0173853079425257,0.4183184802532196
1708440368.918205,-1.1045002937316895,-1.6822453937926234,-2.526627842579977,2.2802619177052,-1.0173209349261683,0.41765373945236206
1708440368.9202082,-1.1045150756835938,-1.6821876964964808,-2.5265579859363,2.2802619177052,-1.0173075834857386,0.41698744893074036
1708440368.922233,-1.104548454284668,-1.6821958027281703,-2.526591126118795,2.280312939281128,-1.0173237959491175,0.4163177013397217
1708440368.9242146,-1.1045647859573364,-1.6821876964964808,-2.526604239140646,2.280317469234131,-1.017297093068258,0.4156779646873474
1708440368.926211,-1.1046502590179443,-1.6822091541686,-2.526583258305685,2.280357761973999,-1.0173047224627894,0.41497933864593506
1708440368.9282224,-1.1046243906021118,-1.6821829281248988,-2.526578966771261,2.280341311092041,-1.017297093068258,0.4143633544445038
1708440368.9301994,-1.1046288013458252,-1.68214811901235,-2.5265753904925745,2.2804269033619384,-1.017280403767721,0.41363847255706787
1708440368.932205,-1.1046487092971802,-1.6821266613402308,-2.526562277470724,2.280397816295288,-1.017268482838766,0.41298753023147583
1708440368.9342458,-1.104680061340332,-1.6821028194823207,-2.526554886494772,2.2804297643848876,-1.0172517935382288,0.4124208390712738
1708440368.9362643,-1.1046637296676636,-1.6821443043150843,-2.526550356541769,2.2804223734089355,-1.0172818342791956,0.41171303391456604
1708440368.938261,-1.1046756505966187,-1.6820908985533656,-2.526605192814962,2.2804624277302246,-1.017268482838766,0.41104134917259216
1708440368.9402633,-1.1046948432922363,-1.6820594273009242,-2.5265710989581507,2.28046099721875,-1.0172770659076136,0.4103049337863922
1708440368.9422264,-1.1047773361206055,-1.6821204624571742,-2.526541773472921,2.2804862695881347,-1.0172532240497034,0.40966692566871643
1708440368.9442809,-1.1047922372817993,-1.6820551357665003,-2.5265591780291956,2.2805227476307373,-1.0172117392169397,0.40905463695526123
1708440368.9462707,-1.1048011779785156,-1.682070871392721,-2.52651030222048,2.2805046278187255,-1.0172293821917933,0.40839678049087524
1708440368.9482763,-1.1048448085784912,-1.682047029534811,-2.5265591780291956,2.2805821138569335,-1.0172131697284144,0.4077714681625366
1708440368.9503176,-1.1048359870910645,-1.6820279560484828,-2.5265265146838587,2.280594750041626,-1.017233673726217,0.4070756137371063
1708440368.9522617,-1.1048567295074463,-1.6820484600462855,-2.5265515486346644,2.2806004720875244,-1.0171812216388147,0.40636146068573
1708440368.9542496,-1.1049013137817383,-1.6820322475829066,-2.5265234152423304,2.280613823527954,-1.017193619404928,0.40574511885643005
1708440368.9562562,-1.1048924922943115,-1.6820484600462855,-2.5265842119800013,2.2806004720875244,-1.017172638569967,0.40517356991767883
1708440368.958236,-1.1048991680145264,-1.6820217571654261,-2.5265396277057093,2.2806526857563476,-1.0172026793109339,0.40454211831092834
1708440368.960296,-1.1049362421035767,-1.6820126972594203,-2.526555840169088,2.2807070451923828,-1.017176930104391,0.4039049446582794
1708440368.962372,-1.1049724817276,-1.6819726429381312,-2.52651554742922,2.280747099513672,-1.0171411673175257,0.4031950831413269
1708440368.9642339,-1.1050087213516235,-1.6819635830321253,-2.52651554742922,2.280684395427368,-1.0171082655536097,0.402644544839859
1708440368.966227,-1.1050325632095337,-1.6819635830321253,-2.526450220738546,2.2807201582142334,-1.0170920530902308,0.40190261602401733
1708440368.9682322,-1.1050533056259155,-1.681955953637594,-2.526540819798605,2.2806829649158935,-1.0171173254596155,0.4012680947780609
1708440368.9702404,-1.1050941944122314,-1.681936880151266,-2.526487175618307,2.2807440000721435,-1.0170438925372522,0.40065449476242065
1708440368.9722338,-1.1050763130187988,-1.6819740734496058,-2.526470963154928,2.280780239696167,-1.0170930067645472,0.4000380039215088
1708440368.9742417,-1.1051045656204224,-1.6819125614561976,-2.526475254689352,2.2808546262928466,-1.0170276800738733,0.39934930205345154
1708440368.9762533,-1.1050794124603271,-1.6818753681578578,-2.526442591344015,2.2808613020130615,-1.017041031514303,0.39875128865242004
1708440368.9782376,-1.105173110961914,-1.6819097004332484,-2.5264514128314417,2.2808233934589843,-1.0170334021197718,0.3981630802154541
1708440368.9802256,-1.1051315069198608,-1.6819426021971644,-2.5264349619494837,2.2808641630360107,-1.0170868078814905,0.3974696397781372
1708440368.982239,-1.1051915884017944,-1.6819020710387171,-2.526414219533102,2.2809058862873535,-1.0170214811908167,0.3968486487865448
1708440368.98423,-1.1052242517471313,-1.6818815670409144,-2.5264514128314417,2.280908985728882,-1.0170095602618616,0.396124005317688
1708440368.986231,-1.1052109003067017,-1.681864400903219,-2.5264557043658655,2.2809550005146484,-1.0170052687274378,0.39555609226226807
1708440368.9882653,-1.1053214073181152,-1.6818200550475062,-2.5264065901385706,2.2809738355823974,-1.0170095602618616,0.39488115906715393
1708440368.990258,-1.1052560806274414,-1.6818486652769984,-2.5264514128314417,2.280951662654541,-1.0170109907733362,0.3942987620830536
1708440368.9923193,-1.1052755117416382,-1.681812425652975,-2.5265045801745813,2.2810186582752685,-1.0169523398028772,0.3936615288257599
1708440368.9942603,-1.105308175086975,-1.6818005047240199,-2.5264392534839075,2.281000776881836,-1.0169404188739222,0.3929849863052368
1708440368.9962616,-1.1053845882415771,-1.6817957363524378,-2.526414219533102,2.281024618739746,-1.016961399708883,0.3923943340778351
1708440368.9982426,-1.1053141355514526,-1.6817671261229457,-2.5264762083636683,2.281024618739746,-1.016909424458639,0.3917095959186554
1708440369.0002532,-1.1053845882415771,-1.6817556820311488,-2.526419464741842,2.2810579973408203,-1.0168927351581019,0.39119213819503784
1708440369.002246,-1.1053965091705322,-1.6818391285338343,-2.526447836552755,2.2810520368763427,-1.016876522694723,0.39046135544776917
1708440369.0042505,-1.1054412126541138,-1.6817647419371546,-2.5264435450183313,2.2811173635670166,-1.0168359915362757,0.38985589146614075
1708440369.0062976,-1.1054645776748657,-1.6817895374693812,-2.5264435450183313,2.281137390727661,-1.0169060865985315,0.38920900225639343
1708440369.0082626,-1.1054449081420898,-1.6817523441710414,-2.5263739267932337,2.281141920680664,-1.0168855826007288,0.38865530490875244
1708440369.010254,-1.1054311990737915,-1.6817237339415492,-2.5263901392566126,2.2811731535145263,-1.0168402830706995,0.3880685567855835
1708440369.0122306,-1.1055047512054443,-1.681758543054098,-2.5263589064227503,2.2812012869068603,-1.0168326536761683,0.38750743865966797
1708440369.0142498,-1.1055241823196411,-1.681732793847555,-2.5264163653003138,2.28117744504895,-1.0168417135821741,0.3869251608848572
1708440369.0162418,-1.1055047512054443,-1.681741853753561,-2.526395622883932,2.2812012869068603,-1.0168922583209437,0.38631758093833923
1708440369.0182471,-1.1055285930633545,-1.6817499599852503,-2.526383701954977,2.2812511163898925,-1.0168207327472132,0.38574323058128357
1708440369.020232,-1.1055212020874023,-1.681704660455221,-2.5264325777636927,2.2811669546314697,-1.0168431440936487,0.3851716220378876
1708440369.0222356,-1.105532169342041,-1.681741853753561,-2.5263662973987024,2.2812349039265136,-1.0168045202838343,0.3845895826816559
1708440369.0242226,-1.1055396795272827,-1.6817165813841761,-2.526330057774679,2.281221314067505,-1.016838852559225,0.38401487469673157
1708440369.0262191,-1.1055723428726196,-1.681671758691305,-2.5263553301440638,2.2811924654194335,-1.0168255011187952,0.38345664739608765
1708440369.028214,-1.1055842638015747,-1.6817208729186,-2.526371781026022,2.2811879354664306,-1.0168221632586878,0.382877379655838
1708440369.0302336,-1.1055591106414795,-1.6817299328246058,-2.5263355414019983,2.28123323499646,-1.0168221632586878,0.3823277950286865
1708440369.0322154,-1.1055842638015747,-1.6817208729186,-2.5263596216784876,2.2811953264423828,-1.0167816321002405,0.38172444701194763
1708440369.034255,-1.1055798530578613,-1.681699892083639,-2.5262988249408167,2.2811717230030517,-1.016801659260885,0.3812066316604614
1708440369.0362859,-1.1055679321289062,-1.681711813012594,-2.5262823740588587,2.2812868791767578,-1.0168059507953089,0.38066136837005615
1708440369.038243,-1.105575442314148,-1.6816803417601527,-2.5263474623309534,2.281203432674072,-1.0167859236346644,0.38008546829223633
1708440369.040349,-1.1056125164031982,-1.681741853753561,-2.5263474623309534,2.281237764949463,-1.0167816321002405,0.37956294417381287
1708440369.0422623,-1.1056050062179565,-1.6817165813841761,-2.526282612477438,2.281228705043457,-1.0168069044696253,0.3789761960506439
1708440369.0443203,-1.1055798530578613,-1.6817299328246058,-2.526310745869772,2.2812198835560302,-1.0167787710772913,0.37840035557746887
1708440369.0462415,-1.1055516004562378,-1.681765695611471,-2.5263312498675745,2.281216784114502,-1.0167487303363245,0.3778638541698456
1708440369.048239,-1.105532169342041,-1.6817089519896449,-2.5263193289386194,2.281228705043457,-1.0167534987079065,0.37731724977493286
1708440369.050242,-1.1055277585983276,-1.6817370853819789,-2.526360575352804,2.2811879354664306,-1.0167458693133753,0.3767801523208618
1708440369.0522513,-1.105576753616333,-1.6817342243590296,-2.5263431707965296,2.281224175090454,-1.0167534987079065,0.3761679530143738
1708440369.0542567,-1.105532169342041,-1.6817089519896449,-2.5263312498675745,2.2811998563953857,-1.0167534987079065,0.37561964988708496
1708440369.0563517,-1.1054736375808716,-1.6817165813841761,-2.5262942949878138,2.2812089163013916,-1.016778294240133,0.37512022256851196
1708440369.0582614,-1.105553150177002,-1.6816908321776332,-2.5263150374041956,2.2811924654194335,-1.0167501608477991,0.37450239062309265
1708440369.0602367,-1.105433464050293,-1.6818062267699183,-2.5263193289386194,2.2811969953724365,-1.0167577902423304,0.3740081489086151
1708440369.062219,-1.1054840087890625,-1.681836267510885,-2.5263193289386194,2.2811731535145263,-1.0167534987079065,0.3735233545303345
1708440369.064241,-1.1054528951644897,-1.6818047962584437,-2.5263269583331507,2.2811149793812255,-1.0167740027057093,0.37297260761260986
1708440369.0662203,-1.1054692268371582,-1.6818210087218226,-2.5263519922839563,2.2811314302631835,-1.0167697111712855,0.37244102358818054
1708440369.0682325,-1.1053550243377686,-1.6818157635130824,-2.5263312498675745,2.281087799663208,-1.01677114168276,0.371874064207077
1708440369.0702171,-1.1053625345230103,-1.681833883325094,-2.526310745869772,2.281075878734253,-1.0167368094073694,0.37141352891921997
1708440369.0722096,-1.1052814722061157,-1.6819139919676722,-2.526346747075216,2.2810816007801513,-1.0167620817767542,0.37080663442611694
1708440369.0742044,-1.1052873134613037,-1.6818677387633265,-2.5263641516314905,2.2810281950184326,-1.0167606512652796,0.37030908465385437
1708440369.0762584,-1.1052724123001099,-1.6819616756834925,-2.526318136845724,2.2810534673878173,-1.0167816321002405,0.36984914541244507
1708440369.0782301,-1.1052063703536987,-1.6819950542845667,-2.526407543812887,2.281005306834839,-1.0167935530291956,0.3692997097969055
1708440369.0802495,-1.1051418781280518,-1.681985994378561,-2.526334349309103,2.280914469356201,-1.0167773405658167,0.3687896132469177
1708440369.0822213,-1.105143427848816,-1.6820341549315394,-2.52638823190798,2.2809197145649414,-1.0167935530291956,0.3682941794395447
1708440369.0842588,-1.105100154876709,-1.6820365391173304,-2.526383701954977,2.280908985728882,-1.016817871724264,0.3678241968154907
1708440369.0862212,-1.1049790382385254,-1.6820651493468226,-2.5264151732074183,2.2808262544819335,-1.0167935530291956,0.36732104420661926
1708440369.0882213,-1.1049681901931763,-1.6821133098998011,-2.526428286229269,2.2807742792316894,-1.0168712774859827,0.3667973577976227
1708440369.0902734,-1.1048375368118286,-1.6821204624571742,-2.526419464741842,2.2807864385792236,-1.0168417135821741,0.36633163690567017
1708440369.0922475,-1.1047624349594116,-1.6821910343565882,-2.5264273325549524,2.2807411390491943,-1.0168989340411585,0.3658033609390259
1708440369.0942602,-1.1047194004058838,-1.6821967564024867,-2.5264273325549524,2.2806481558033447,-1.0168855826007288,0.36530959606170654
1708440369.0962446,-1.1046020984649658,-1.6822077236571253,-2.526475254689352,2.2805706697651367,-1.0169346968280237,0.36480453610420227
1708440369.0982678,-1.1045143604278564,-1.6822897396483363,-2.5265124479876917,2.280489607448242,-1.016916577016012,0.3643651604652405
1708440369.100261,-1.1043561697006226,-1.682340761224264,-2.526527706776754,2.2804221349903564,-1.0169509092914026,0.3638787567615509
1708440369.10224,-1.1042739152908325,-1.6823846302428187,-2.526493851338522,2.2803382116505126,-1.016961399708883,0.3633951246738434
1708440369.1043243,-1.1041209697723389,-1.6824318371214808,-2.526560370122091,2.2802750307270507,-1.0169943014727991,0.36288338899612427
1708440369.1062357,-1.1039278507232666,-1.6825176678099574,-2.5265796820269983,2.280151053065918,-1.0169695059405726,0.36238768696784973
1708440369.1082485,-1.1038463115692139,-1.6825820408263148,-2.526562277470724,2.280054731959961,-1.0170214811908167,0.36189964413642883
1708440369.1102178,-1.1035996675491333,-1.6826616726317347,-2.526587788258688,2.2798942762562255,-1.0170214811908167,0.3614959716796875
1708440369.1122124,-1.1034704446792603,-1.682687898675436,-2.526640001927511,2.2798148828693847,-1.0170782248126429,0.36102885007858276
1708440369.1142213,-1.1032366752624512,-1.6827999554076136,-2.526651684437887,2.2796425062366943,-1.017052952443258,0.36055272817611694
1708440369.1162422,-1.1030577421188354,-1.6828390560545863,-2.5266998449908655,2.279560013408325,-1.017102066670553,0.36009082198143005
1708440369.118225,-1.1028311252593994,-1.682964941064352,-2.526707712803976,2.279357357616089,-1.017097298298971,0.35962343215942383
1708440369.1202402,-1.1025928258895874,-1.6829906902708949,-2.526764456425802,2.2791902261921386,-1.0171173254596155,0.3592132329940796
1708440369.1222363,-1.1023279428482056,-1.6831847629942835,-2.5267348925219935,2.2790581422993164,-1.0171993414508265,0.35870039463043213
1708440369.1242373,-1.1020807027816772,-1.6832930050291957,-2.5268121401416224,2.2789155679890136,-1.017214600239889,0.35821717977523804
1708440369.126216,-1.1017836332321167,-1.6833750210204066,-2.52687651315798,2.278719349498413,-1.0172174612628382,0.3577830195426941
1708440369.1282537,-1.1015363931655884,-1.6834637127318324,-2.5269082228290003,2.2785934644886474,-1.0172160307513636,0.3573649525642395
1708440369.1302269,-1.1012855768203735,-1.6836210689940394,-2.5269115606891077,2.27834598600354,-1.0172446409808558,0.356986939907074
1708440369.1322246,-1.100897192955017,-1.6837526760497035,-2.5269323031054896,2.2782041269489746,-1.017301384602682,0.35653436183929443
1708440369.13422,-1.100602388381958,-1.6838976345457972,-2.52696401277651,2.277953787440918,-1.0173490683185022,0.35601067543029785
1708440369.1362553,-1.100279688835144,-1.684030672112936,-2.5270443598376673,2.2777749735065917,-1.017388645802633,0.3555588126182556
1708440369.1382384,-1.0999270677566528,-1.6842075786986292,-2.5270524660693567,2.2774979311176757,-1.017526928578512,0.35520505905151367
1708440369.1403353,-1.0995674133300781,-1.6843019924559535,-2.5270913282977503,2.2772461610981445,-1.0175660292254847,0.35481950640678406
1708440369.1422565,-1.0991957187652588,-1.6844994030394496,-2.5271645228015345,2.277002974147461,-1.0176351706134241,0.3543374240398407
1708440369.1442726,-1.0987697839736938,-1.684671541253561,-2.52717096010317,2.2767392831989746,-1.0176737944232386,0.35395708680152893
1708440369.1462395,-1.0983765125274658,-1.6848465404906214,-2.5272279421435755,2.276463671321533,-1.0177443663226526,0.3534752428531647
1708440369.148251,-1.0980055332183838,-1.685099264184469,-2.527304236088888,2.276181622142456,-1.0177882353412073,0.35318341851234436
1708440369.1502378,-1.0976231098175049,-1.6851831875243128,-2.5273268858539026,2.2759029108234863,-1.0179012457477015,0.35268470644950867
1708440369.152243,-1.0971823930740356,-1.6854211292662562,-2.527363125477926,2.275585337276123,-1.0179527441607874,0.352293998003006
1708440369.154237,-1.0967260599136353,-1.6856290302672328,-2.5274558703051966,2.275292082423828,-1.0180648008929651,0.3519156575202942
1708440369.1562703,-1.0962657928466797,-1.6858593426146449,-2.527564827595846,2.27495185911145,-1.0181573073016565,0.3515264689922333
1708440369.158292,-1.0957696437835693,-1.686132093469137,-2.5276249090777796,2.274491711253784,-1.0182650724994105,0.351062536239624
1708440369.160321,-1.095240592956543,-1.686338563958639,-2.527684752141134,2.274153872127197,-1.0183685461627405,0.3506840765476227
1708440369.1622899,-1.0947498083114624,-1.686615606347555,-2.527768675480978,2.273782654399536,-1.0184882322894495,0.3502455949783325
1708440369.1642509,-1.0941729545593262,-1.686854978600973,-2.527823273335592,2.2733496862598876,-1.0185630957232874,0.34985050559043884
1708440369.1663048,-1.0936529636383057,-1.6871797047057093,-2.5278800169574183,2.2729708391376953,-1.0186665693866175,0.349419504404068
1708440369.168237,-1.093183159828186,-1.6874786816039027,-2.527968470250265,2.2725750642963867,-1.0187833944903772,0.3490105867385864
1708440369.170227,-1.0925506353378296,-1.6877018413939417,-2.5280774275409144,2.272225781078003,-1.0189030806170862,0.34858226776123047
1708440369.1722367,-1.091949701309204,-1.6880699596800746,-2.528173271809713,2.2717596727558593,-1.0190122763263147,0.3481753468513489
1708440369.1742198,-1.0913171768188477,-1.6883498630919398,-2.528220240269796,2.271315260524414,-1.0191486517535608,0.3477731943130493
1708440369.1762228,-1.0906283855438232,-1.6886707744994105,-2.528299872075216,2.2709037500568847,-1.019219223652975,0.3472970426082611
1708440369.1782272,-1.0900460481643677,-1.688958307305807,-2.5283923784839075,2.270439787501953,-1.019355599080221,0.34695151448249817
1708440369.1802344,-1.089263677597046,-1.6892892322936,-2.5284720102893274,2.27000014364209,-1.019454304371969,0.3465653657913208
1708440369.1822188,-1.0885592699050903,-1.6896587810912074,-2.528555218373434,2.26955954610791,-1.0196431318866175,0.3460756838321686
1708440369.1842587,-1.0879263877868652,-1.6900044880309046,-2.5286553541766565,2.269026919002197,-1.0197714010821741,0.34570175409317017
1708440369.1862164,-1.087143898010254,-1.690313001672262,-2.528788391743795,2.268596573466919,-1.0198987166034144,0.3452959656715393
1708440369.188211,-1.0864038467407227,-1.6907216511168421,-2.528905216847555,2.2680906492420654,-1.0199692885028284,0.34487563371658325
1708440369.1903033,-1.0857023000717163,-1.6909815273680628,-2.528964106236593,2.2675997453876953,-1.0201333204852503,0.3444606363773346
1708440369.1922517,-1.0849696397781372,-1.691324373284811,-2.5290349165545862,2.2670790392109375,-1.0202882925616663,0.3440294563770294
1708440369.1942797,-1.0841944217681885,-1.6918136082091273,-2.5291429201709192,2.2665557104298095,-1.0204489866839808,0.34366434812545776
1708440369.1962662,-1.083377480506897,-1.6922794781126917,-2.529304091130392,2.265918179149292,-1.020609203969137,0.34320229291915894
1708440369.1982348,-1.0824713706970215,-1.692554613152975,-2.5294318834887903,2.265317125911377,-1.0207598845111292,0.34282928705215454
1708440369.2003212,-1.0816446542739868,-1.6929947338499964,-2.5295801798449915,2.264697476024292,-1.0209644476519983,0.3424268662929535
1708440369.2022383,-1.0808221101760864,-1.6933909855284632,-2.5297167936908167,2.264061852092407,-1.021055046712057,0.3420388400554657
1708440369.2042766,-1.0798763036727905,-1.6937805614867152,-2.5298038164721888,2.2634574609943847,-1.021198574696676,0.3416532278060913
1708440369.2062922,-1.0790482759475708,-1.6942340336241664,-2.529952351246969,2.2628554540821533,-1.021355454121725,0.34116068482398987
1708440369.2082388,-1.0781853199005127,-1.694672246972555,-2.53005558649172,2.2622687059589843,-1.0214827696429651,0.34079545736312866
1708440369.210214,-1.0772775411605835,-1.6950627766051234,-2.5302327314959925,2.2616497713276367,-1.021618668233053,0.34032565355300903
1708440369.2122207,-1.0762308835983276,-1.695526739160055,-2.530384127293722,2.260944052333496,-1.0217178503619593,0.3399764895439148
1708440369.2142282,-1.0752800703048706,-1.695965429345602,-2.530503813420431,2.260295792216919,-1.0218985716449183,0.3395533859729767
1708440369.2162364,-1.0743002891540527,-1.6964155636229457,-2.530656639729635,2.2595435815998535,-1.022041145955221,0.3390594720840454
1708440369.2182164,-1.0732762813568115,-1.6969362697997035,-2.5307756106006067,2.258819504375122,-1.0222132841693323,0.338623970746994
1708440369.2202117,-1.0722159147262573,-1.6973992786803187,-2.530895535145895,2.2581121164509277,-1.0224135557757776,0.3382515609264374
1708440369.2222147,-1.0712172985076904,-1.6979104481139125,-2.5310636202441614,2.257488651866577,-1.0226052443133753,0.3377588987350464
1708440369.2242703,-1.070143461227417,-1.6983844242491664,-2.531227175389425,2.2566696840473632,-1.0227764288531702,0.33733999729156494
1708440369.2262213,-1.0691078901290894,-1.698918958703512,-2.531428639088766,2.255870504970215,-1.0230043570147913,0.336922287940979
1708440369.2282045,-1.0679399967193604,-1.6994801960387171,-2.53153902689089,2.25517384588208,-1.0231965223895472,0.33649542927742004
1708440369.2302036,-1.0668221712112427,-1.6999765835204066,-2.531708065663473,2.254366560573242,-1.023395840321676,0.3360750079154968
1708440369.232247,-1.0656530857086182,-1.7005063496031703,-2.5318716208087366,2.2535974222370605,-1.0236275831805628,0.3356810212135315
1708440369.2342124,-1.0645509958267212,-1.701089998284811,-2.53204852739443,2.252782030696533,-1.0238354841815394,0.3352040648460388
1708440369.2362914,-1.063356637954712,-1.70170321087026,-2.5321837107287806,2.251929445857666,-1.0239785353290003,0.33481135964393616
1708440369.23826,-1.062229037284851,-1.7022572956480921,-2.532351557408468,2.2510897356220703,-1.024224583302633,0.33435913920402527
1708440369.2402878,-1.0609670877456665,-1.7028395138182582,-2.5325401465045374,2.2502197462269287,-1.0244281927691858,0.33387672901153564
1708440369.2422683,-1.0597525835037231,-1.7033840618529261,-2.532667938862936,2.249325676555298,-1.0246017614947718,0.3333932161331177
1708440369.2442484,-1.058483362197876,-1.7040606937804164,-2.532872025166647,2.248466654414795,-1.0248640219317835,0.33292117714881897
1708440369.246289,-1.0572855472564697,-1.7046886883177699,-2.5330572764026087,2.2475027280994873,-1.0250371138202112,0.33244970440864563
1708440369.2482433,-1.0559394359588623,-1.705297132531637,-2.5331838766681116,2.2465945917316894,-1.02531606355776,0.33203572034835815
