Eg3-git/Classifiers/Data Collection/u7/u7abc4_ur3e_joint_states.csv
time,elbow_joint,shoulder_lift_joint,shoulder_pan_joint,wrist_1_joint,wrist_2_joint,wrist_3_joint
1708440433.1624916,-1.1035796403884888,-1.6826549969115199,-2.526943031941549,2.279290123576782,-1.0178511778460901,0.28528282046318054
1708440433.1645303,-1.1035915613174438,-1.6826392612852992,-2.5269179979907435,2.2792929845997314,-1.0178921858416956,0.2852201461791992
1708440433.166531,-1.1035960912704468,-1.6827088795103968,-2.5268941561328333,2.2792720037647705,-1.0178435484515589,0.2852201461791992
1708440433.168535,-1.1036049127578735,-1.6826392612852992,-2.526943031941549,2.2792813020893554,-1.0178478399859827,0.28522011637687683
1708440433.1705258,-1.1036094427108765,-1.682643552819723,-2.526943031941549,2.2792884546467285,-1.0178759733783167,0.2852291762828827
1708440433.1725194,-1.1035960912704468,-1.6826302013792933,-2.526951853428976,2.27930657445874,-1.0178239981280726,0.2852664291858673
1708440433.174528,-1.1035722494125366,-1.6827122173705042,-2.5269597212420862,2.2792796331593017,-1.017867390309469,0.2852439880371094
1708440433.1765063,-1.1036005020141602,-1.682645937005514,-2.526914660130636,2.2793046671101074,-1.0178230444537562,0.28523653745651245
1708440433.1785064,-1.1035960912704468,-1.682645937005514,-2.5269606749164026,2.2793382841297607,-1.0178630987750452,0.2852201461791992
1708440433.1805363,-1.103588581085205,-1.6826220951476039,-2.526919190083639,2.2792929845997314,-1.0178597609149378,0.28523653745651245
1708440433.1824996,-1.103588581085205,-1.682645937005514,-2.526923481618063,2.2793218332478027,-1.0178640524493616,0.28523656725883484
1708440433.184503,-1.1036287546157837,-1.6826654873290003,-2.5269597212420862,2.2792720037647705,-1.0177863279925745,0.28523653745651245
1708440433.1865063,-1.1036287546157837,-1.682720800439352,-2.526943031941549,2.279329224223755,-1.0178435484515589,0.28523653745651245
1708440433.1885042,-1.103570580482483,-1.6826912365355433,-2.526893917714254,2.2793003755756835,-1.0178683439837855,0.28520798683166504
1708440433.1904888,-1.1035796403884888,-1.6826101742186488,-2.52690297762026,2.2792884546467285,-1.0178521315204065,0.285173624753952
1708440433.1924853,-1.1036376953125,-1.6826549969115199,-2.526935640965597,2.2792975145527343,-1.0178478399859827,0.2852291762828827
1708440433.1944962,-1.1036124229431152,-1.6826263866820277,-2.526910368596212,2.2793173032947998,-1.0178402105914515,0.28522759675979614
1708440433.1965027,-1.1036168336868286,-1.6826478443541468,-2.52696401277651,2.2793173032947998,-1.0178597609149378,0.2852124571800232
1708440433.1984951,-1.1035633087158203,-1.6826254330077113,-2.526984755192892,2.2792884546467285,-1.0178564230548304,0.28519001603126526
1708440433.200491,-1.103588581085205,-1.6827284298338832,-2.52688175836672,2.2792929845997314,-1.0178402105914515,0.2852124571800232
1708440433.2024908,-1.1035349369049072,-1.6826592884459437,-2.526910368596212,2.279320402736328,-1.0178445021258753,0.2852320671081543
1708440433.2045064,-1.1035722494125366,-1.6825925312437953,-2.526968542729513,2.2793218332478027,-1.0178359190570276,0.28519606590270996
1708440433.2064917,-1.1036049127578735,-1.6826416454710902,-2.526926581059591,2.2792839246937255,-1.0178564230548304,0.285257488489151
1708440433.2084968,-1.1036168336868286,-1.6826030216612757,-2.526914660130636,2.2793592649647216,-1.0178239981280726,0.2852201461791992
1708440433.2105014,-1.1036168336868286,-1.6826592884459437,-2.526914660130636,2.2793502050587158,-1.0178077856646937,0.2851915955543518
1708440433.2124946,-1.1036049127578735,-1.6826592884459437,-2.526931111012594,2.279345675105713,-1.0177786985980433,0.28526198863983154
1708440433.214524,-1.1036213636398315,-1.6827088795103968,-2.5269058386432093,2.2792839246937255,-1.0178034941302698,0.2852034270763397
1708440433.216597,-1.1036547422409058,-1.6826683483519496,-2.526931111012594,2.2793873983570556,-1.0178197065936487,0.2851588726043701
1708440433.2185194,-1.1035587787628174,-1.682605882684225,-2.526951853428976,2.279366655940674,-1.017815415059225,0.2851870656013489
1708440433.2205796,-1.1036367416381836,-1.682613035241598,-2.526968542729513,2.2793544965931396,-1.0178487936602991,0.28523656725883484
1708440433.2225163,-1.1036367416381836,-1.6826640568175257,-2.526931111012594,2.2793947893330078,-1.0178163687335413,0.2852291762828827
1708440433.2245073,-1.1035869121551514,-1.6826549969115199,-2.526956383381979,2.2793947893330078,-1.017771069203512,0.2852112054824829
1708440433.2264988,-1.103641390800476,-1.682596822778219,-2.526914660130636,2.2793757158466796,-1.0178001562701624,0.2852320671081543
1708440433.2284982,-1.1036332845687866,-1.6826549969115199,-2.526910368596212,2.279308481807373,-1.0177915732013147,0.2852034270763397
1708440433.2305245,-1.1036278009414673,-1.682687898675436,-2.526898447667257,2.2793680864521484,-1.0178282896624964,0.2852124571800232
1708440433.232523,-1.1036049127578735,-1.6826592884459437,-2.526914660130636,2.2793337541767578,-1.0177672545062464,0.28524845838546753
1708440433.2344868,-1.1036486625671387,-1.6826392612852992,-2.526919190083639,2.27934114515271,-1.0177839438067835,0.2851901054382324
1708440433.2364874,-1.1036243438720703,-1.6826921902098597,-2.5269561449633997,2.2793664175220947,-1.01780873933901,0.28523653745651245
1708440433.2385027,-1.1036196947097778,-1.682645937005514,-2.526898447667257,2.279299421901367,-1.0178163687335413,0.2851870656013489
1708440433.2405088,-1.1036367416381836,-1.682645937005514,-2.526907269154684,2.279362125987671,-1.0177958647357386,0.285243958234787
1708440433.2425125,-1.1036196947097778,-1.682720800439352,-2.526874367390768,2.279385967845581,-1.0178282896624964,0.28523367643356323
1708440433.2445064,-1.1036397218704224,-1.682643552819723,-2.526947323475973,2.2794112402149658,-1.0178001562701624,0.285194456577301
1708440433.246495,-1.1037157773971558,-1.6826263866820277,-2.526935640965597,2.27936760961499,-1.0177958647357386,0.28524109721183777
1708440433.248488,-1.103635311126709,-1.68267883876943,-2.52690297762026,2.2794453340717773,-1.0177882353412073,0.2852439880371094
1708440433.2505136,-1.1036680936813354,-1.682687898675436,-2.5268896261798304,2.2794555860706787,-1.0177391211139124,0.28521567583084106
1708440433.2525098,-1.1036152839660645,-1.6826526127257289,-2.526911799107687,2.279470368022583,-1.0178044478045862,0.28518256545066833
1708440433.2544935,-1.1036888360977173,-1.682687898675436,-2.526935640965597,2.279498501414917,-1.0178044478045862,0.2851409614086151
1708440433.2565176,-1.1036680936813354,-1.6826354465880335,-2.526898447667257,2.279498739833496,-1.0177796522723597,0.28523656725883484
1708440433.2584808,-1.1036725044250488,-1.682648321191305,-2.526898447667257,2.2794570165821533,-1.0178454558001917,0.285223126411438
1708440433.2604868,-1.103635311126709,-1.6826569042601527,-2.526923481618063,2.27950303136792,-1.0178163687335413,0.2852455973625183
1708440433.2624843,-1.1036561727523804,-1.6826549969115199,-2.526877466832296,2.2795139986225585,-1.0177629629718226,0.28522470593452454
1708440433.2644932,-1.1036813259124756,-1.6826416454710902,-2.526886288319723,2.2795321184345703,-1.0178044478045862,0.2852259576320648
1708440433.2665155,-1.1036888360977173,-1.6826526127257289,-2.52688175836672,2.279461308116577,-1.0177925268756312,0.2852439880371094
1708440433.2685025,-1.1036591529846191,-1.6826354465880335,-2.526848856602804,2.2794851499744873,-1.0178130308734339,0.2852395176887512
1708440433.270516,-1.1036814451217651,-1.6826683483519496,-2.526910368596212,2.279520197505615,-1.01780873933901,0.28527262806892395
1708440433.2725053,-1.1036680936813354,-1.682613035241598,-2.526919190083639,2.279477758998535,-1.0177553335772913,0.28530988097190857
1708440433.2744944,-1.103712797164917,-1.682645937005514,-2.5269280115710657,2.279470368022583,-1.0177796522723597,0.2852591574192047
1708440433.2765217,-1.1037172079086304,-1.6826526127257289,-2.526886288319723,2.279536409968994,-1.0177882353412073,0.28525006771087646
1708440433.278487,-1.1036754846572876,-1.6826445064940394,-2.526919190083639,2.279494209880493,-1.0177672545062464,0.28528159856796265
1708440433.2805305,-1.1037036180496216,-1.6826964817442835,-2.526984755192892,2.279461308116577,-1.0177882353412073,0.28533199429512024
1708440433.2825198,-1.1036992073059082,-1.6826101742186488,-2.526886288319723,2.2794851499744873,-1.0177801291095179,0.28535300493240356
1708440433.2844982,-1.1037036180496216,-1.6826192341246546,-2.5269323031054896,2.2795111375996093,-1.0177672545062464,0.28537270426750183
1708440433.286524,-1.103696346282959,-1.6826101742186488,-2.526914660130636,2.279477758998535,-1.0177629629718226,0.2854043245315552
1708440433.288502,-1.1037461757659912,-1.6826402149596156,-2.526893917714254,2.279473229045532,-1.01780873933901,0.28540870547294617
1708440433.2904916,-1.1037505865097046,-1.6826211414732875,-2.526914660130636,2.2794312673756103,-1.0178163687335413,0.2854475975036621
1708440433.2924936,-1.1037253141403198,-1.682687898675436,-2.526923481618063,2.2794760900684814,-1.0177596251117151,0.2854803800582886
1708440433.2945092,-1.1037206649780273,-1.6826921902098597,-2.526914660130636,2.2795020776936035,-1.0177715460406702,0.2855279743671417
1708440433.2965214,-1.1037489175796509,-1.6826302013792933,-2.526877466832296,2.2795139986225585,-1.017775837575094,0.28553253412246704
1708440433.298527,-1.103711724281311,-1.682648321191305,-2.526890579854147,2.2795020776936035,-1.0178011099444788,0.2855146527290344
1708440433.3004951,-1.103772759437561,-1.6826402149596156,-2.526914660130636,2.2794851499744873,-1.017775837575094,0.2855837643146515
1708440433.3025024,-1.1037073135375977,-1.6826101742186488,-2.526914660130636,2.2794851499744873,-1.0177596251117151,0.28566601872444153
1708440433.3044813,-1.1037236452102661,-1.6827088795103968,-2.526907269154684,2.2795066076466064,-1.0177882353412073,0.2856345772743225
1708440433.3065226,-1.1037355661392212,-1.6826211414732875,-2.52692681947817,2.2795020776936035,-1.0178001562701624,0.285675048828125
1708440433.3085122,-1.1037445068359375,-1.6826526127257289,-2.526939932500021,2.2795347410389404,-1.0177796522723597,0.28569114208221436
1708440433.3104851,-1.1037683486938477,-1.6826526127257289,-2.526898447667257,2.2795304495045166,-1.0178044478045862,0.2857346534729004
1708440433.3125284,-1.1037683486938477,-1.6826774082579554,-2.526919190083639,2.2795347410389404,-1.0178130308734339,0.28578704595565796
1708440433.3144727,-1.1037474870681763,-1.6826569042601527,-2.5269606749164026,2.279524489040039,-1.017796818410055,0.28583207726478577
1708440433.316541,-1.1037474870681763,-1.6826073131956996,-2.5269280115710657,2.279599590892456,-1.017775837575094,0.28587520122528076
1708440433.3185096,-1.1037802696228027,-1.6826569042601527,-2.526923481618063,2.2795185285755615,-1.0178044478045862,0.28594109416007996
1708440433.3204978,-1.1037846803665161,-1.6826235256590785,-2.526939932500021,2.279536171550415,-1.0177391211139124,0.28596368432044983
1708440433.3224924,-1.1037594079971313,-1.682596822778219,-2.526935640965597,2.279611511821411,-1.017824951802389,0.28596946597099304
1708440433.3245275,-1.1038175821304321,-1.6826073131956996,-2.526923481618063,2.27959053098645,-1.0177672545062464,0.28604763746261597
1708440433.3265018,-1.1037713289260864,-1.6826149425902308,-2.526890579854147,2.279566212291382,-1.0177596251117151,0.2860952913761139
1708440433.3285005,-1.103789210319519,-1.6826263866820277,-2.5269773642169397,2.27959053098645,-1.0178130308734339,0.2861489951610565
1708440433.3305025,-1.1037802696228027,-1.6826192341246546,-2.526919190083639,2.279552622432373,-1.0177596251117151,0.2862480878829956
1708440433.3325243,-1.1038130521774292,-1.6826354465880335,-2.526923481618063,2.2796024519154052,-1.0177434126483362,0.2863031327724457
1708440433.334493,-1.1038211584091187,-1.6826073131956996,-2.526939932500021,2.279564543361328,-1.0177839438067835,0.2863301932811737
1708440433.3364882,-1.1037921905517578,-1.6826101742186488,-2.5269058386432093,2.27954809247937,-1.0177925268756312,0.2863977253437042
1708440433.338494,-1.1037622690200806,-1.6826030216612757,-2.5268951098071497,2.279644413585327,-1.0177839438067835,0.2865350544452667
1708440433.3405247,-1.1038329601287842,-1.6825858555235804,-2.5269280115710657,2.2796189027973632,-1.0177796522723597,0.2865605354309082
1708440433.3424814,-1.1038492918014526,-1.6826235256590785,-2.52690297762026,2.2796143728443603,-1.0178044478045862,0.28665465116500854
1708440433.344499,-1.1038165092468262,-1.6825877628722132,-2.526919190083639,2.2796010214039306,-1.0177596251117151,0.2867821156978607
1708440433.3464952,-1.1038075685501099,-1.6826149425902308,-2.526890579854147,2.2796799379536132,-1.017775837575094,0.28687483072280884
1708440433.3485048,-1.1038284301757812,-1.6825834713377894,-2.526907269154684,2.2796053129383544,-1.0177305380450647,0.28695717453956604
1708440433.3505495,-1.1037994623184204,-1.6826073131956996,-2.526939932500021,2.2796589571186523,-1.0177882353412073,0.28704994916915894
1708440433.352487,-1.10383141040802,-1.6825901470580042,-2.526919190083639,2.2796010214039306,-1.0177925268756312,0.28712934255599976
1708440433.3545275,-1.103835940361023,-1.6826354465880335,-2.5269115606891077,2.2796382147022705,-1.0177467505084437,0.2873101234436035
1708440433.3564792,-1.103880524635315,-1.6826120815672816,-2.526902739201681,2.2796827989765625,-1.017787281666891,0.2873430550098419
1708440433.3584821,-1.103847861289978,-1.6825982532896937,-2.5269323031054896,2.2796410757252197,-1.0178325811969202,0.28751373291015625
1708440433.3604934,-1.1038641929626465,-1.6825620136656703,-2.52690297762026,2.279582901591919,-1.0178077856646937,0.2876497805118561
1708440433.3624754,-1.103880524635315,-1.6825710735716761,-2.526914660130636,2.2796410757252197,-1.0178044478045862,0.2877648174762726
1708440433.3645194,-1.1038389205932617,-1.6825834713377894,-2.526956383381979,2.279620333308838,-1.0177915732013147,0.2878873348236084
1708440433.3664987,-1.103896975517273,-1.6824842892088832,-2.5269280115710657,2.279632015819214,-1.0178001562701624,0.28800734877586365
1708440433.3685064,-1.1039588451385498,-1.68251432994985,-2.526914660130636,2.279620333308838,-1.0177629629718226,0.28812262415885925
1708440433.3705058,-1.1039167642593384,-1.6825276813902796,-2.5269160906421106,2.279643936748169,-1.01780873933901,0.28829425573349
1708440433.3725033,-1.1039587259292603,-1.6824714146056117,-2.5269444624530237,2.279695435161255,-1.0177958647357386,0.2884950637817383
1708440433.3745022,-1.10392427444458,-1.6824513874449671,-2.526886288319723,2.279693766231201,-1.0178239981280726,0.28860577940940857
1708440433.3764987,-1.1039198637008667,-1.682472368279928,-2.5269160906421106,2.279726429576538,-1.0178282896624964,0.28884357213974
1708440433.3785188,-1.1038870811462402,-1.6824900112547816,-2.5269280115710657,2.2797176080891113,-1.0178077856646937,0.28895747661590576
1708440433.380535,-1.1039317846298218,-1.682389875451559,-2.526923481618063,2.2797130781361084,-1.0178692976581019,0.2891324460506439
1708440433.3825278,-1.1039659976959229,-1.682366510430807,-2.5269280115710657,2.2797249990650634,-1.0177753607379358,0.28931376338005066
1708440433.384496,-1.1039830446243286,-1.682406564752096,-2.526923481618063,2.2797912794300537,-1.0178325811969202,0.2895214557647705
1708440433.3864882,-1.1039153337478638,-1.6823960743346156,-2.52692681947817,2.2797698217579345,-1.0178197065936487,0.2897157669067383
1708440433.3884795,-1.1039345264434814,-1.6823798618712367,-2.526923481618063,2.279777689571045,-1.0178120771991175,0.289887934923172
1708440433.3905044,-1.103981614112854,-1.682324071923727,-2.526938501988546,2.279834194774292,-1.0178120771991175,0.29012730717658997
1708440433.3925362,-1.103976845741272,-1.6823464832701625,-2.526972834263937,2.279777689571045,-1.0178163687335413,0.290311336517334
1708440433.3944824,-1.1039843559265137,-1.6823846302428187,-2.526931111012594,2.2798001009174804,-1.0178206602679651,0.2905760705471039
1708440433.3965423,-1.1039724349975586,-1.6823722324767054,-2.526980225239889,2.279825373286865,-1.0178282896624964,0.2907617390155792
1708440433.3984885,-1.1039843559265137,-1.6823002300658167,-2.526931111012594,2.279817982310913,-1.017799202595846,0.2909979224205017
1708440433.400501,-1.1039633750915527,-1.6823183498778285,-2.526911799107687,2.279858036632202,-1.017881218587057,0.2911549508571625
1708440433.4024744,-1.1039633750915527,-1.6823317013182582,-2.526951853428976,2.2798752027698974,-1.0178802649127405,0.29146018624305725
1708440433.4044878,-1.1039769649505615,-1.6823064289488734,-2.526898447667257,2.2798313337513427,-1.017855469380514,0.29170867800712585
1708440433.4064825,-1.1039878129959106,-1.6823169193663539,-2.526893917714254,2.2798735338398437,-1.017900292073385,0.2919643819332123
1708440433.4084973,-1.1040698289871216,-1.682319780389303,-2.526951853428976,2.279848261470459,-1.017883602772848,0.29221126437187195
1708440433.4104893,-1.1040698289871216,-1.682319780389303,-2.52690297762026,2.279860182399414,-1.0179246107684534,0.29251453280448914
1708440433.4124663,-1.104069709777832,-1.6823121509947718,-2.5269597212420862,2.2799436289020996,-1.0178960005389612,0.2927243709564209
1708440433.414495,-1.104063630104065,-1.6823574505248011,-2.526893917714254,2.279953880901001,-1.017907444630758,0.29304438829421997
1708440433.416524,-1.1040806770324707,-1.6823903522887171,-2.526919190083639,2.2799345689960937,-1.017928425465719,0.29338541626930237
1708440433.4184873,-1.1041271686553955,-1.6823531589903773,-2.5269444624530237,2.279904766673706,-1.0178793112384241,0.2936594784259796
1708440433.420507,-1.1041134595870972,-1.6823498211302699,-2.526919190083639,2.2799710470386962,-1.0178960005389612,0.2939493954181671
1708440433.4224942,-1.1041208505630493,-1.6822825870909632,-2.526975933705465,2.2799574571796875,-1.0179241339312952,0.29422932863235474
1708440433.424486,-1.104132890701294,-1.682286878625387,-2.526947323475973,2.2799529272266845,-1.0179198423968714,0.2945331335067749
1708440433.4264965,-1.104177474975586,-1.682253976861471,-2.526931111012594,2.2799858289906005,-1.0179274717914026,0.2948457896709442
1708440433.428515,-1.104181170463562,-1.682291646996969,-2.526939932500021,2.2800065714069824,-1.0179112593280237,0.2951330244541168
1708440433.430541,-1.1041719913482666,-1.6823049984373988,-2.5269597212420862,2.2799932199665527,-1.0179198423968714,0.29538288712501526
1708440433.432482,-1.1042003631591797,-1.6823421917357386,-2.526919190083639,2.280050440425537,-1.0179112593280237,0.29577288031578064
1708440433.4344888,-1.1042048931121826,-1.6822840176024378,-2.5269058386432093,2.280028982753418,-1.0179718176471155,0.2960815727710724
1708440433.4364831,-1.104204773902893,-1.6822668514647425,-2.52692681947817,2.2800771433063964,-1.017956558858053,0.2964286804199219
1708440433.4385378,-1.1042078733444214,-1.682295938531393,-2.5269597212420862,2.2800444799610595,-1.0179756323443812,0.29680582880973816
1708440433.440526,-1.104274034500122,-1.6823002300658167,-2.526947323475973,2.2800845342823486,-1.0179427305804651,0.29706138372421265
1708440433.4425144,-1.1042569875717163,-1.6822511158385218,-2.52692681947817,2.2801427084156494,-1.0180209318744105,0.29738137125968933
1708440433.4445152,-1.1042767763137817,-1.6822840176024378,-2.526914660130636,2.2801055151173095,-1.0180123488055628,0.2977541387081146
1708440433.446525,-1.1042814254760742,-1.6822272739806117,-2.5269444624530237,2.280120297069214,-1.0180285612689417,0.2981131970882416
1708440433.4485476,-1.1042932271957397,-1.6822320423521937,-2.526938501988546,2.280170126552246,-1.0180242697345179,0.29840829968452454
1708440433.4505906,-1.1042814254760742,-1.6822272739806117,-2.526919190083639,2.2801825243183593,-1.0179951826678675,0.29881682991981506
1708440433.452504,-1.1043081283569336,-1.6822148762144984,-2.526923481618063,2.2801989752003173,-1.018036190663473,0.2991892993450165
1708440433.4545465,-1.1043037176132202,-1.6821986637511195,-2.5269058386432093,2.280226154918335,-1.0180233160602015,0.29951372742652893
1708440433.4564857,-1.1043037176132202,-1.6822411022581996,-2.5269058386432093,2.2802559572407226,-1.0180266539203089,0.2999427020549774
1708440433.4585092,-1.10434091091156,-1.6822411022581996,-2.526910368596212,2.280221624965332,-1.0180838743792933,0.3002929091453552
1708440433.460487,-1.1043319702148438,-1.6821958027281703,-2.526931111012594,2.280249996776245,-1.0181005636798304,0.3007046580314636
1708440433.4624858,-1.1043275594711304,-1.68223299602651,-2.526943031941549,2.280290051097534,-1.0180962721454065,0.3010662794113159
1708440433.4645085,-1.1043484210968018,-1.6822463474669398,-2.526947323475973,2.2802766996571044,-1.0180795828448694,0.3014989495277405
1708440433.4665153,-1.1043275594711304,-1.682141443292135,-2.5269597212420862,2.280301972026489,-1.0180752913104456,0.3019461929798126
1708440433.4685206,-1.104356288909912,-1.6821876964964808,-2.526943031941549,2.280357761973999,-1.0180876890765589,0.3022996485233307
1708440433.47052,-1.1043592691421509,-1.682200094262594,-2.5269671122180384,2.280237837428711,-1.0180342833148401,0.302743524312973
1708440433.4725573,-1.1044083833694458,-1.6821681461729945,-2.52696401277651,2.280390425319336,-1.0180547873126429,0.30311319231987
1708440433.4745035,-1.1043950319290161,-1.6821805439391078,-2.5269880930529993,2.280385895366333,-1.0180991331683558,0.3035321533679962
1708440433.476505,-1.1044530868530273,-1.68214811901235,-2.5269792715655726,2.2804269033619384,-1.0181158224688929,0.3039809763431549
1708440433.4785545,-1.1044481992721558,-1.6821967564024867,-2.5270207563983362,2.2804059225269775,-1.0181034247027796,0.30434557795524597
1708440433.4805052,-1.1044853925704956,-1.6821729145445765,-2.526986900960104,2.2804598051258544,-1.018111530934469,0.3047616481781006
1708440433.4825613,-1.1044808626174927,-1.6821614704527796,-2.5270164648639124,2.2804013925739746,-1.018090550099508,0.30525678396224976
1708440433.4846127,-1.1045211553573608,-1.6820818386473597,-2.526986900960104,2.2804505068012695,-1.0180986563311976,0.3056383430957794
1708440433.4864953,-1.104559063911438,-1.6821772060790003,-2.527052704487936,2.280407353038452,-1.0182002226458948,0.30613505840301514
1708440433.488494,-1.1045194864273071,-1.6821443043150843,-2.526994291936056,2.280452175731323,-1.0181472937213343,0.30655694007873535
1708440433.4904819,-1.1045411825180054,-1.6821524105467738,-2.5270915667163294,2.280510826701782,-1.0181711355792444,0.3070252537727356
1708440433.492503,-1.1045886278152466,-1.6821133098998011,-2.5270348230945032,2.2805046278187255,-1.0181997458087366,0.3074050843715668
1708440433.4944863,-1.1045767068862915,-1.6821238003172816,-2.5270662943469446,2.280536099071167,-1.0181873480426233,0.30785253643989563
1708440433.4965224,-1.104575276374817,-1.6821118793883265,-2.5270217100726526,2.280556841487549,-1.0181825796710413,0.3083569407463074
1708440433.4984872,-1.1046109199523926,-1.6821090183653773,-2.5270705858813685,2.280564232463501,-1.0182321707354944,0.3088655173778534
1708440433.5005004,-1.1046414375305176,-1.6820618114867152,-2.5271034876452845,2.280658646220825,-1.0181997458087366,0.30923208594322205
1708440433.5025,-1.1046398878097534,-1.6820842228331507,-2.5271318594561976,2.2806123930164794,-1.0182150045977991,0.309728741645813
1708440433.5044832,-1.1046725511550903,-1.6820594273009242,-2.527118508015768,2.280654116267822,-1.018219296132223,0.31022846698760986
1708440433.506504,-1.1046398878097534,-1.682042738000387,-2.5270782152758997,2.2806526857563476,-1.018243137990133,0.3106952905654907
1708440433.5085,-1.1046890020370483,-1.6820842228331507,-2.5271528402911585,2.280610962505005,-1.0182355085956019,0.3111875653266907
1708440433.510514,-1.1047581434249878,-1.6820231876769007,-2.5270944277392786,2.2806319433399658,-1.0183008352862757,0.31156596541404724
1708440433.5125127,-1.1047083139419556,-1.68200745205068,-2.527118508015768,2.280681534404419,-1.018259350453512,0.3121567666530609
1708440433.5144858,-1.104749083518982,-1.682018896142477,-2.527109686528341,2.280749960536621,-1.0182421843158167,0.3126119077205658
1708440433.516532,-1.1047192811965942,-1.6820279560484828,-2.527135197316305,2.2807366090961914,-1.0182669798480433,0.31306779384613037
1708440433.5185008,-1.104756474494934,-1.6819921932616175,-2.527135197316305,2.2807246881672363,-1.018259350453512,0.31359657645225525
1708440433.520531,-1.1047773361206055,-1.6819755039610804,-2.527172390614645,2.2807187277027587,-1.0183032194720667,0.3140915632247925
1708440433.5225117,-1.1048176288604736,-1.6819635830321253,-2.5271294752704065,2.280796690578125,-1.0183475653277796,0.3145162761211395
1708440433.5245333,-1.1047967672348022,-1.6819726429381312,-2.5271382967578333,2.280817432994507,-1.0183075110064905,0.31501591205596924
1708440433.5265205,-1.1047950983047485,-1.681944032708639,-2.5271843115436,2.280866785640381,-1.0183313528644007,0.31554868817329407
1708440433.5284932,-1.1048285961151123,-1.6819607220091761,-2.527130905781881,2.2808443742939453,-1.0183184782611292,0.3159118592739105
1708440433.5305479,-1.104807734489441,-1.6819526157774867,-2.527172390614645,2.2808658319660644,-1.0183551947223108,0.316426157951355
1708440433.5325072,-1.104868769645691,-1.681944032708639,-2.527175251637594,2.2808851438709716,-1.0183423201190394,0.3169122040271759
1708440433.5344875,-1.104876160621643,-1.6819549999632777,-2.527159039174215,2.28086702405896,-1.018362824116842,0.31741127371788025
1708440433.536483,-1.1048836708068848,-1.6819244823851527,-2.527159039174215,2.280930443401001,-1.0183661619769495,0.3179110884666443
1708440433.538475,-1.104921579360962,-1.6819125614561976,-2.527175251637594,2.2809151846119384,-1.0184271971331995,0.3184424936771393
1708440433.5405633,-1.1048790216445923,-1.6819244823851527,-2.5272041002856653,2.2809950548359375,-1.0184357802020472,0.31893298029899597
1708440433.5425212,-1.1049362421035767,-1.6818963489928187,-2.5271576086627405,2.280956192607544,-1.0184028784381312,0.31932562589645386
1708440433.5444999,-1.1049362421035767,-1.6819168529906214,-2.5271998087512415,2.2809976774403076,-1.0184434095965784,0.3198665380477905
1708440433.5465195,-1.1049437522888184,-1.6818462810912074,-2.5271697680102747,2.281008167857788,-1.0184109846698206,0.32041865587234497
1708440433.5485232,-1.1049391031265259,-1.6819049320616664,-2.5272725264178675,2.281033440227173,-1.0184109846698206,0.3208480179309845
1708440433.5505064,-1.1049970388412476,-1.6818510494627894,-2.5271952787982386,2.2810579973408203,-1.0184510389911097,0.32136422395706177
1708440433.5525262,-1.1049879789352417,-1.681868692437643,-2.527186457310812,2.2810444074818115,-1.0184467474566858,0.321804016828537
1708440433.554501,-1.105078935623169,-1.6818553409972132,-2.527247492467062,2.2811309534260253,-1.018430534993307,0.3223590850830078
1708440433.5564964,-1.1050490140914917,-1.6818510494627894,-2.5272443930255335,2.2810773092457275,-1.0184629599200647,0.3228125274181366
1708440433.558495,-1.1050639152526855,-1.6818486652769984,-2.5272191206561487,2.2810892301746826,-1.0184629599200647,0.3233450651168823
1708440433.5605118,-1.1051137447357178,-1.6818438969054164,-2.527206007634298,2.2811130720325927,-1.0184991995440882,0.32391107082366943
1708440433.562511,-1.1050264835357666,-1.6818767986693324,-2.527193848286764,2.281146450633667,-1.0184500853167933,0.32435548305511475
1708440433.564498,-1.1051254272460938,-1.6818157635130824,-2.5272398630725306,2.28110854207959,-1.0184906164752405,0.3248178958892822
1708440433.566508,-1.1051031351089478,-1.6818858585753382,-2.527198378239767,2.2811283308216552,-1.0185273329364222,0.3253038823604584
1708440433.5685127,-1.1050868034362793,-1.681857248345846,-2.5272679964648646,2.2812058168598632,-1.0185111204730433,0.3258726894855499
1708440433.570516,-1.1051945686340332,-1.6818448505797328,-2.527292553578512,2.2811686235615234,-1.018547836934225,0.3263510763645172
1708440433.5724938,-1.105143427848816,-1.681833406487936,-2.5272672812091272,2.2812043863483886,-1.0184982458697718,0.32678020000457764
1708440433.5745258,-1.105155110359192,-1.681803365746969,-2.5272672812091272,2.281254215831421,-1.0185349623309534,0.32724452018737793
1708440433.5764937,-1.1051342487335205,-1.681866308251852,-2.5273402372943323,2.2811953264423828,-1.0185263792621058,0.3276979327201843
1708440433.5784974,-1.1052212715148926,-1.681833883325094,-2.527299944554464,2.281228705043457,-1.0185588041888636,0.32821401953697205
1708440433.580541,-1.1051253080368042,-1.6818090877928675,-2.5273118654834192,2.2813033300587158,-1.0185545126544397,0.3286881744861603
1708440433.5824864,-1.1051706075668335,-1.6818257770934046,-2.5272672812091272,2.281248016948364,-1.018550221120016,0.32919561862945557
1708440433.5844984,-1.1052526235580444,-1.6817714176573695,-2.5272629896747034,2.2812627989002685,-1.0185750166522425,0.32960811257362366
1708440433.5864913,-1.1052570343017578,-1.6817556820311488,-2.5272985140429896,2.2812809187122802,-1.0184930006610315,0.3300032913684845
1708440433.5884886,-1.1052272319793701,-1.6817318401732386,-2.5273073355304163,2.2812792497822265,-1.018616024647848,0.3304433822631836
1708440433.5904906,-1.1052361726760864,-1.6817928753294886,-2.5273357073413294,2.2813500601002197,-1.018611256276266,0.3308200538158417
1708440433.592498,-1.1052560806274414,-1.6817599735655726,-2.5273237864123743,2.2813591200062255,-1.018635098134176,0.3313693404197693
1708440433.5945013,-1.1052480936050415,-1.6817847690977992,-2.527344528828756,2.2813665109821777,-1.0185816923724573,0.33177450299263
1708440433.5965164,-1.105251669883728,-1.6817342243590296,-2.5273268858539026,2.281324549312256,-1.0186188856707972,0.3322283625602722
1708440433.5985458,-1.1053051948547363,-1.6817847690977992,-2.5273523966418665,2.2814110952564697,-1.0186556021319788,0.33269697427749634
1708440433.6005018,-1.1052933931350708,-1.681760927239889,-2.5273330847369593,2.2813617426105957,-1.0186103026019495,0.33320099115371704
1708440433.6025138,-1.105247139930725,-1.6817237339415492,-2.527350966130392,2.281364842052124,-1.0186265150653284,0.3336680829524994
1708440433.6045234,-1.1052799224853516,-1.6817237339415492,-2.527371946965353,2.281379385585449,-1.0186827818499964,0.33411145210266113
1708440433.6064863,-1.105284333229065,-1.6817075214781703,-2.527313534413473,2.281392975444458,-1.0186460653888147,0.33451658487319946
1708440433.6084976,-1.1052590608596802,-1.6817542515196742,-2.5273543039904993,2.2813965517231445,-1.0186460653888147,0.3349926471710205
1708440433.6104975,-1.1052829027175903,-1.6817180118956507,-2.527337614689962,2.2813965517231445,-1.0187023321734827,0.3354009985923767
1708440433.6124878,-1.1052634716033936,-1.6817075214781703,-2.527379576359884,2.2814459043690185,-1.0186980406390589,0.3359142541885376
1708440433.6144984,-1.1052709817886353,-1.6817461452879847,-2.527424399052755,2.2813572126575927,-1.018714729939596,0.33630332350730896
1708440433.6165297,-1.1052992343902588,-1.6817699871458949,-2.527407948170797,2.2814039426990966,-1.0186613241778772,0.336734801530838
1708440433.618546,-1.1053037643432617,-1.6816956005492152,-2.527428690587179,2.2813498216816406,-1.0187352339373987,0.3371743857860565
1708440433.6205165,-1.10524582862854,-1.681732793847555,-2.5273991266833704,2.2814368444630126,-1.0187342802630823,0.33757710456848145
1708440433.6225066,-1.1053156852722168,-1.681666990319723,-2.527414385472433,2.2814323145100097,-1.018726650868551,0.3380174934864044
1708440433.6245103,-1.105324625968933,-1.6817370853819789,-2.527430597935812,2.2813920217701416,-1.0188115278827112,0.33841732144355774
1708440433.626502,-1.1053348779678345,-1.6817165813841761,-2.527418915425436,2.281390591258667,-1.0188072363482874,0.3387938439846039
1708440433.6285448,-1.1052948236465454,-1.681704660455221,-2.5274677912341517,2.2814158636280517,-1.0187986532794397,0.33925071358680725
1708440433.6305077,-1.1053773164749146,-1.681704660455221,-2.5274022261248987,2.2814368444630126,-1.0188100973712366,0.3396803140640259
1708440433.6325235,-1.105290412902832,-1.6817251644530238,-2.527475420628683,2.281477137202881,-1.018801514302389,0.340043842792511
1708440433.6345003,-1.1053037643432617,-1.6817132435240687,-2.5274797121631067,2.281444235438965,-1.0188420454608362,0.34043776988983154
1708440433.636491,-1.105339527130127,-1.681704660455221,-2.52747089067568,2.28147999822583,-1.0188496748553675,0.34083428978919983
1708440433.6384912,-1.1054027080535889,-1.6816593609251917,-2.5274797121631067,2.281505985850952,-1.0188940207110804,0.341302752494812
1708440433.6405,-1.1053475141525269,-1.6817103825011195,-2.527482811604635,2.281484528178833,-1.0189226309405726,0.3416692614555359
1708440433.6424894,-1.105318546295166,-1.681692739526266,-2.527442757283346,2.2814172941395263,-1.0189302603351038,0.34197747707366943
1708440433.644507,-1.105318546295166,-1.6816803417601527,-2.527478281651632,2.2814499574848632,-1.0189464727984827,0.34238478541374207
1708440433.6465297,-1.105360984802246,-1.681704660455221,-2.5274909178363245,2.281447334880493,-1.0189421812640589,0.3427527844905853
1708440433.6485295,-1.1053156852722168,-1.6816803417601527,-2.5275026003467005,2.281472607249878,-1.0189736525165003,0.34316474199295044
1708440433.6505258,-1.1053565740585327,-1.6817089519896449,-2.5275679270373743,2.281463547343872,-1.0189855734454554,0.34350714087486267
1708440433.65256,-1.1053730249404907,-1.681704660455221,-2.5275147596942347,2.281454487437866,-1.0190303961383265,0.3439158797264099
1708440433.6545212,-1.1053231954574585,-1.681711813012594,-2.5275591055499476,2.2814790445515136,-1.0190141836749476,0.344218373298645
1708440433.6565177,-1.105302095413208,-1.6817132435240687,-2.5275636355029505,2.281501455897949,-1.0190380255328577,0.3446209728717804
1708440433.6585107,-1.1052948236465454,-1.681671758691305,-2.527595345173971,2.2814923959919433,-1.019057575856344,0.3449757993221283
1708440433.6605074,-1.1053276062011719,-1.681711813012594,-2.527599875126974,2.2814618784138183,-1.0190618673907679,0.3453393280506134
1708440433.6625032,-1.1052992343902588,-1.681711813012594,-2.527579132710592,2.2815298277088623,-1.0190618673907679,0.3457433581352234
1708440433.6645005,-1.105377435684204,-1.6816626987852992,-2.527595345173971,2.281459017390869,-1.019113842641012,0.3460700809955597
1708440433.6665008,-1.105318546295166,-1.6817180118956507,-2.527661148701803,2.2814923959919433,-1.0191009680377405,0.3464049696922302
1708440433.6685224,-1.1053156852722168,-1.6817132435240687,-2.5276432673083704,2.281454487437866,-1.0191534201251429,0.3467446565628052
1708440433.6705494,-1.1053037643432617,-1.681666990319723,-2.5276315847979944,2.281562491054199,-1.0192187468158167,0.3470589220523834
1708440433.6725192,-1.1053320169448853,-1.681666990319723,-2.5276673475848597,2.28147999822583,-1.019210163746969,0.34736597537994385
1708440433.6744947,-1.1052829027175903,-1.6817089519896449,-2.5276389757739466,2.281438036555908,-1.0192254225360315,0.3477433919906616
1708440433.6765025,-1.105318546295166,-1.6817523441710414,-2.527703348790304,2.2815133768269042,-1.0192578474627894,0.34805282950401306
1708440433.6785429,-1.1052857637405396,-1.6817370853819789,-2.527682367955343,2.2814337450214843,-1.0192168394671839,0.34833553433418274
1708440433.6805081,-1.1053365468978882,-1.6817208729186,-2.527670685444967,2.281447334880493,-1.019280735646383,0.34867987036705017
1708440433.6825116,-1.1053202152252197,-1.6817389927306117,-2.527698818837301,2.2814664083668212,-1.0193012396441858,0.34900763630867004
1708440433.6845055,-1.1053320169448853,-1.6817180118956507,-2.5277350584613245,2.2814952570148925,-1.0193536917315882,0.3492682874202728
1708440433.6864808,-1.1053276062011719,-1.68176331142568,-2.5277188459979456,2.28147999822583,-1.0193560759173792,0.3496244251728058
1708440433.6885095,-1.1053082942962646,-1.6817251644530238,-2.527710739766256,2.2814923959919433,-1.0193570295916956,0.3499232530593872
1708440433.690515,-1.105339527130127,-1.6817089519896449,-2.5277469793902796,2.281501455897949,-1.0193846861468714,0.3501989543437958
1708440433.6924975,-1.1052829027175903,-1.6817251644530238,-2.5277231375323694,2.281484528178833,-1.019437615071432,0.35052216053009033
1708440433.6945126,-1.1053156852722168,-1.681732793847555,-2.5278082529651087,2.2814618784138183,-1.0194290320025843,0.3508051633834839
1708440433.696543,-1.1052709817886353,-1.681650301019186,-2.527782980595724,2.2815298277088623,-1.0194204489337366,0.35115545988082886
1708440433.698496,-1.105225682258606,-1.681765695611471,-2.5278247038470667,2.281447334880493,-1.0194528738604944,0.3514263331890106
1708440433.700503,-1.1052590608596802,-1.681666990319723,-2.527832094823019,2.281534119243286,-1.0194767157184046,0.3516882658004761
1708440433.7025125,-1.105300784111023,-1.6817342243590296,-2.527790371571676,2.281475468272827,-1.0194929281817835,0.3519832491874695
1708440433.7044911,-1.105247139930725,-1.6817370853819789,-2.527851645146505,2.2815133768269042,-1.019512955342428,0.3523155152797699
1708440433.706484,-1.105247139930725,-1.6817342243590296,-2.527884546910421,2.2814292150684814,-1.019512955342428,0.3525446355342865
1708440433.7084851,-1.1052680015563965,-1.6817208729186,-2.5278266111956995,2.281460686320923,-1.019553009663717,0.3529035449028015
1708440433.710806,-1.1052607297897339,-1.681699892083639,-2.5278294722186487,2.281435413951538,-1.0195768515216272,0.35314905643463135
1708440433.7125065,-1.1052607297897339,-1.681704660455221,-2.5278878847705286,2.281409664744995,-1.019642178212301,0.3534125089645386
1708440433.7145245,-1.1052181720733643,-1.6817299328246058,-2.5278506914721888,2.2815024095722656,-1.0195849577533167,0.3537071645259857
1708440433.7165942,-1.1051870584487915,-1.681741853753561,-2.527846161519186,2.281439705485962,-1.0196335951434534,0.3539541959762573
1708440433.7185261,-1.105215311050415,-1.6816626987852992,-2.527837340031759,2.281510515803955,-1.0196564833270472,0.35419195890426636
1708440433.7205143,-1.105215311050415,-1.6817342243590296,-2.527890984212057,2.28147999822583,-1.0196684042560022,0.35453808307647705
1708440433.7225137,-1.1051915884017944,-1.6817165813841761,-2.527902905141012,2.2814814287373046,-1.0196965376483362,0.3547801971435547
1708440433.7245085,-1.1051795482635498,-1.6817370853819789,-2.527907435094015,2.281435175532959,-1.0196879545794886,0.3550182282924652
1708440433.7264895,-1.105155110359192,-1.68176331142568,-2.527914826069967,2.281435413951538,-1.019691292439596,0.3552621304988861
1708440433.728831,-1.1051812171936035,-1.6817089519896449,-2.527914826069967,2.2814203935810546,-1.0197446982013147,0.35551851987838745
1708440433.7305343,-1.105143427848816,-1.681711813012594,-2.5278940836535853,2.2814368444630126,-1.019740406666891,0.3558028042316437
1708440433.7325323,-1.1051857471466064,-1.6817461452879847,-2.5279465357409876,2.2814459043690185,-1.0197966734515589,0.3561316728591919
1708440433.7345147,-1.1051523685455322,-1.681728025475973,-2.5278852621661585,2.2814413744160156,-1.0197394529925745,0.3563981354236603
1708440433.7364929,-1.1051150560379028,-1.6817089519896449,-2.52796441713442,2.281427784557007,-1.0197480360614222,0.35661494731903076
1708440433.73852,-1.105126976966858,-1.6817499599852503,-2.5279837290393274,2.2814203935810546,-1.0197470823871058,0.3568175435066223
1708440433.7405393,-1.1051194667816162,-1.6817075214781703,-2.5280001799212855,2.281372233028076,-1.019787613545553,0.35707032680511475
1708440433.7425196,-1.1050838232040405,-1.6817699871458949,-2.5279465357409876,2.2813920217701416,-1.0198081175433558,0.35731008648872375
1708440433.7444992,-1.1051239967346191,-1.6817499599852503,-2.5279675165759485,2.281334801311157,-1.0198167006122034,0.3575284481048584
1708440433.7465448,-1.1051137447357178,-1.6817237339415492,-2.5280285517321985,2.2813350397297363,-1.0198114554034632,0.3577691316604614
1708440433.748509,-1.1051045656204224,-1.6817075214781703,-2.5279837290393274,2.281334801311157,-1.0198772589312952,0.3580234944820404
1708440433.7504833,-1.1050519943237305,-1.6818109951415003,-2.527933422719137,2.281320019359253,-1.019827667866842,0.35828113555908203
1708440433.7525246,-1.1051090955734253,-1.6816746197142542,-2.5279510656939905,2.281327410335205,-1.019815746937887,0.35849517583847046
1708440433.7544944,-1.1050639152526855,-1.681728025475973,-2.527978006993429,2.281306667918823,-1.019843880330221,0.3587509095668793
1708440433.7565184,-1.1050446033477783,-1.6817075214781703,-2.5279510656939905,2.281315727824829,-1.0198362509356897,0.35898324847221375
1708440433.7585325,-1.105047583580017,-1.681760927239889,-2.5279837290393274,2.2813336092182617,-1.0198600927936,0.3592347800731659
1708440433.7605336,-1.105007290840149,-1.6817690334715785,-2.5279791990863245,2.281308098430298,-1.0198643843280237,0.35950738191604614
1708440433.7625155,-1.105023741722107,-1.6817237339415492,-2.5279791990863245,2.2812718588062744,-1.0198524633990687,0.35971659421920776
1708440433.7644944,-1.1050535440444946,-1.681798597375387,-2.5279956499682825,2.2812718588062744,-1.0198882261859339,0.35996946692466736
1708440433.7665205,-1.1049834489822388,-1.6817237339415492,-2.5280118624316614,2.2812837797352294,-1.0198686758624476,0.36017587780952454
1708440433.7685552,-1.104966402053833,-1.681793829003805,-2.527958695088522,2.2812627989002685,-1.0198925177203577,0.36037489771842957
1708440433.7705092,-1.104992389678955,-1.6817733250060023,-2.5279749075519007,2.2812554079243164,-1.0198600927936,0.3605744540691376
1708440433.7724953,-1.105001449584961,-1.6817823849120082,-2.527954165135519,2.281245155925415,-1.0198882261859339,0.3608510494232178
1708440433.7745063,-1.1049301624298096,-1.6817690334715785,-2.5279868284808558,2.2811953264423828,-1.019855801259176,0.3610187768936157
1708440433.7764945,-1.104988932609558,-1.6817409000792445,-2.527954165135519,2.281237764949463,-1.0198600927936,0.36120128631591797
1708440433.7785006,-1.1049517393112183,-1.6817208729186,-2.5279298464404505,2.28125707685437,-1.019855801259176,0.36141708493232727
1708440433.7805426,-1.104925513267517,-1.6817566357054652,-2.527937714253561,2.281240625972412,-1.0198190847979944,0.36165836453437805
1708440433.7825756,-1.1049318313598633,-1.6817451916136683,-2.527958695088522,2.281174345607422,-1.019872013722555,0.36190932989120483
1708440433.7844944,-1.1049391031265259,-1.6817475757994593,-2.5279868284808558,2.2811998563953857,-1.0198925177203577,0.36202895641326904
1708440433.7864976,-1.1049437522888184,-1.6816956005492152,-2.527958695088522,2.2811686235615234,-1.0198600927936,0.3623223602771759
1708440433.7885003,-1.1049362421035767,-1.6818109951415003,-2.5279791990863245,2.28117744504895,-1.019916836415426,0.36254239082336426
1708440433.7905083,-1.1049407720565796,-1.6817451916136683,-2.5279675165759485,2.2811640936085205,-1.0198114554034632,0.36275795102119446
1708440433.7925093,-1.1049318313598633,-1.6817270718016566,-2.5280001799212855,2.2811521726795654,-1.0198686758624476,0.36295998096466064
1708440433.7944953,-1.1048990488052368,-1.6817885837950648,-2.5279629866229456,2.281165524119995,-1.0198763052569788,0.36317551136016846
1708440433.796554,-1.1049079895019531,-1.6817523441710414,-2.5279555956469935,2.281074209804199,-1.0198481718646448,0.36340445280075073
1708440433.7984865,-1.1048790216445923,-1.6817270718016566,-2.5279133955584925,2.281132860774658,-1.0198686758624476,0.363648384809494
1708440433.8005118,-1.1049124002456665,-1.6817566357054652,-2.5279179255114954,2.2810966211506347,-1.019799534474508,0.3638891875743866
1708440433.802531,-1.104917049407959,-1.6817499599852503,-2.5279465357409876,2.2811130720325927,-1.0198524633990687,0.3640764057636261
1708440433.8045204,-1.1049007177352905,-1.6817566357054652,-2.527942959462301,2.2810847002216796,-1.0198243300067347,0.3642544150352478
1708440433.8065279,-1.1049259901046753,-1.6817976437010707,-2.5278807322131556,2.281063957805298,-1.0197470823871058,0.36449122428894043
1708440433.8085027,-1.1048673391342163,-1.6818090877928675,-2.527942959462301,2.2810355859943847,-1.0197480360614222,0.3646719753742218
1708440433.8105078,-1.1048299074172974,-1.6817733250060023,-2.527931276951925,2.2810355859943847,-1.019813362752096,0.36484891176223755
1708440433.8124874,-1.1048554182052612,-1.6817885837950648,-2.527865711842672,2.2810579973408203,-1.0197480360614222,0.36503878235816956
1708440433.8144996,-1.1049184799194336,-1.6817885837950648,-2.527865711842672,2.2810489374348144,-1.0197036902057093,0.36526331305503845
1708440433.8165255,-1.1048552989959717,-1.6818138561644496,-2.5278998056994837,2.281031056041382,-1.0197208563434046,0.3655160367488861
1708440433.8185408,-1.104831576347351,-1.6817757091917933,-2.527874771748678,2.2810579973408203,-1.0196393171893519,0.3656946122646332
1708440433.8205245,-1.104864239692688,-1.6818472347655238,-2.527846161519186,2.280987187022827,-1.0196197668658655,0.36586517095565796
1708440433.822514,-1.1049015522003174,-1.6818019352354945,-2.5278056303607386,2.280968113536499,-1.0196283499347132,0.366082102060318
1708440433.8244913,-1.1048270463943481,-1.6818348369994105,-2.5278189818011683,2.281000776881836,-1.0195677916156214,0.3663424849510193
1708440433.826491,-1.1048508882522583,-1.6817885837950648,-2.5278027693377894,2.2810425001331787,-1.0195677916156214,0.36650997400283813
1708440433.828497,-1.1048434972763062,-1.6818539104857386,-2.527823273335592,2.280951662654541,-1.0195725599872034,0.366737425327301
1708440433.8304965,-1.1048479080200195,-1.681807657281393,-2.5278082529651087,2.280935211772583,-1.0195477644549769,0.3669201731681824
1708440433.8324993,-1.1048433780670166,-1.6818167171873988,-2.5277634302722376,2.280956192607544,-1.0195120016681116,0.3670996129512787
1708440433.8345053,-1.1049096584320068,-1.681803365746969,-2.5277262369738978,2.280988855952881,-1.019512955342428,0.36735984683036804
1708440433.836499,-1.1048226356506348,-1.6818539104857386,-2.5276766459094446,2.2809976774403076,-1.0194280783282679,0.36752787232398987
1708440433.838494,-1.1048851013183594,-1.6817823849120082,-2.5277062098132532,2.280935211772583,-1.0194008986102503,0.3677176535129547
1708440433.8405116,-1.1048195362091064,-1.6818601093687953,-2.527670685444967,2.2809650140949707,-1.0193646589862269,0.36795884370803833
1708440433.8425083,-1.1048359870910645,-1.6818272076048792,-2.5277119318591517,2.2809530931660156,-1.0193451086627405,0.36813679337501526
1708440433.844514,-1.1048270463943481,-1.6818448505797328,-2.5277121702777308,2.2809712129780273,-1.0192721525775355,0.36833304166793823
1708440433.8465421,-1.1048270463943481,-1.681868692437643,-2.5276103655444544,2.2809695440479736,-1.019268814717428,0.3685501515865326
1708440433.8485382,-1.1048403978347778,-1.681859632531637,-2.5275822321521204,2.280895395869873,-1.019184414540426,0.36869946122169495
1708440433.8505147,-1.1047987937927246,-1.681831499139303,-2.527541462575094,2.280892534846924,-1.0191524664508265,0.3689184784889221
1708440433.8525047,-1.1048598289489746,-1.681803365746969,-2.527571503316061,2.280912323588989,-1.019120995198385,0.3690841794013977
1708440433.8545122,-1.104852318763733,-1.6818815670409144,-2.527545992528097,2.280841751689575,-1.019080940877096,0.3692128658294678
1708440433.8565128,-1.1048508882522583,-1.6818930111327113,-2.5275428930865687,2.280874415034912,-1.0190532843219202,0.36947914958000183
1708440433.8585277,-1.1048181056976318,-1.6818887195982875,-2.527478281651632,2.28094665586438,-1.01896840730776,0.36964717507362366
1708440433.8605251,-1.1049014329910278,-1.6818510494627894,-2.527478281651632,2.280912323588989,-1.0189531485186976,0.36982959508895874
1708440433.8625016,-1.104921579360962,-1.6818963489928187,-2.527482811604635,2.280888004893921,-1.0189335981952112,0.3700225353240967
1708440433.8645382,-1.1048389673233032,-1.681864400903219,-2.5274885336505335,2.280871554011963,-1.0188291708575647,0.3701843023300171
1708440433.866513,-1.1048851013183594,-1.6818553409972132,-2.527426306401388,2.2808477121540527,-1.018862549458639,0.37039247155189514
1708440433.868592,-1.1048598289489746,-1.6818586788573207,-2.5273824373828333,2.2809132772633056,-1.018757168446676,0.37056422233581543
1708440433.8705177,-1.1048598289489746,-1.6818844280638636,-2.52739125887026,2.2808760839649658,-1.0186932722674769,0.3707548975944519
1708440433.8725395,-1.1048271656036377,-1.6818224392332972,-2.527350966130392,2.2808732229420166,-1.018653694783346,0.3709595799446106
1708440433.8745122,-1.1048508882522583,-1.6818887195982875,-2.527339045201437,2.2808851438709716,-1.0186179319964808,0.37107324600219727
1708440433.876516,-1.1048939228057861,-1.6818634472289027,-2.5273223559008997,2.2808353143879394,-1.0185654799090784,0.37130725383758545
1708440433.8785176,-1.1048598289489746,-1.6818767986693324,-2.5273118654834192,2.2808522421070556,-1.0185015837298792,0.3714580833911896
1708440433.8805285,-1.1048717498779297,-1.6819049320616664,-2.527229611073629,2.280847950572632,-1.0184820334063929,0.37170353531837463
1708440433.8825295,-1.1049140691757202,-1.6819216213622035,-2.527217690144674,2.2808279234119873,-1.0184629599200647,0.3718833327293396
1708440433.8845034,-1.1048882007598877,-1.6819306812682093,-2.5272191206561487,2.2808686929890136,-1.0183699766742151,0.3720075488090515
1708440433.8864832,-1.104880690574646,-1.6818887195982875,-2.5271785894977015,2.28083245336499,-1.0183466116534632,0.3721391260623932
1708440433.8884919,-1.1048389673233032,-1.681894918481344,-2.527167860661642,2.2808613020130615,-1.0182583967791956,0.3723066747188568
1708440433.890528,-1.1048790216445923,-1.681864400903219,-2.527106825505392,2.2808686929890136,-1.018231217061178,0.37248334288597107
1708440433.8925047,-1.1048673391342163,-1.6819378338255824,-2.527106825505392,2.2808822828480224,-1.018130127583639,0.37266311049461365
1708440433.8945246,-1.1048790216445923,-1.6819006405272425,-2.5270989576922815,2.2808443742939453,-1.018139664326803,0.3728756308555603
1708440433.8965445,-1.1048836708068848,-1.681864400903219,-2.5271077791797083,2.2808233934589843,-1.018038574849264,0.37295621633529663
1708440433.8984966,-1.104905128479004,-1.6818438969054164,-2.527079407368795,2.28083245336499,-1.0179784933673304,0.37317028641700745
1708440433.9004972,-1.1048915386199951,-1.6818767986693324,-2.527018133793966,2.2808748918720703,-1.0179145971881312,0.3733200132846832
1708440433.9024904,-1.1048916578292847,-1.6818486652769984,-2.526989761983053,2.280853195781372,-1.0178664366351526,0.3734518885612488
1708440433.9044905,-1.1048916578292847,-1.6818481884398402,-2.5269537607776087,2.2808279234119873,-1.017815415059225,0.37360724806785583
1708440433.9064922,-1.1049407720565796,-1.6818767986693324,-2.5269418398486536,2.280857725734375,-1.017750088368551,0.37377646565437317
1708440433.9085097,-1.1049199104309082,-1.6818815670409144,-2.526923481618063,2.280804081554077,-1.017735783253805,0.37391290068626404
1708440433.9104998,-1.1048990488052368,-1.6818396053709925,-2.526911799107687,2.2807997900196533,-1.017695728932516,0.3740517199039459
1708440433.91249,-1.1049244403839111,-1.6818272076048792,-2.526890579854147,2.2807997900196533,-1.0176475683795374,0.3741928040981293
1708440433.9145253,-1.1049318313598633,-1.6819020710387171,-2.5268502871142786,2.2807299333759765,-1.0176170508014124,0.3743017017841339
1708440433.9165552,-1.1049226522445679,-1.6818486652769984,-2.5268145243274134,2.2808658319660644,-1.0175727049456995,0.3744214177131653
1708440433.9185421,-1.1049816608428955,-1.6818810902037562,-2.5268071333514612,2.280796690578125,-1.0174716154681605,0.37451761960983276
1708440433.9205217,-1.1049845218658447,-1.6819049320616664,-2.5267706553088587,2.2807952600666503,-1.0174363295184534,0.37464895844459534
1708440433.9225214,-1.1049726009368896,-1.6818486652769984,-2.5267096201526087,2.2808658319660644,-1.0173962751971644,0.3747868835926056
1708440433.924503,-1.1049799919128418,-1.6818486652769984,-2.526710573826925,2.280833883876465,-1.017343823109762,0.3748599588871002
1708440433.9265184,-1.1050059795379639,-1.6818272076048792,-2.526723925267355,2.280829353923462,-1.0172918478595179,0.37502941489219666
1708440433.928511,-1.1050387620925903,-1.6818486652769984,-2.5267120043383997,2.280804081554077,-1.0172436873065394,0.375090628862381
1708440433.9305096,-1.1049834489822388,-1.6819187603392542,-2.5266180674182337,2.280817432994507,-1.0172608534442347,0.37520289421081543
1708440433.9325283,-1.1049834489822388,-1.6818858585753382,-2.5265985170947474,2.280825062389038,-1.0172131697284144,0.3753105401992798
1708440433.9345174,-1.1049834489822388,-1.6819139919676722,-2.5265446344958704,2.280862017268799,-1.017144505177633,0.3754439055919647
1708440433.9365184,-1.1050490140914917,-1.6818438969054164,-2.526562277470724,2.280853195781372,-1.0171292463885706,0.37549787759780884
1708440433.9384909,-1.1050565242767334,-1.6818677387633265,-2.5265679995166224,2.280792160625122,-1.0170772711383265,0.37561723589897156
1708440433.9405131,-1.1050639152526855,-1.6818977795042933,-2.5264979044543665,2.280804081554077,-1.0170248190509241,0.3757266104221344
1708440433.9425404,-1.1050028800964355,-1.681857248345846,-2.52647835413088,2.280841274852417,-1.016989533101217,0.37579700350761414
1708440433.9445229,-1.1050763130187988,-1.6819068394102992,-2.526470963154928,2.2807952600666503,-1.016899887715475,0.3759048283100128
1708440433.9465804,-1.1050809621810913,-1.6818553409972132,-2.526463333760397,2.280801220531128,-1.016909424458639,0.376018762588501
1708440433.9485333,-1.1051090955734253,-1.6818133793272914,-2.5264151732074183,2.2808233934589843,-1.0168688933001917,0.37607234716415405
1708440433.9504974,-1.1050384044647217,-1.681911130944723,-2.5263825098620813,2.280850334758423,-1.0167964140521448,0.37616661190986633
1708440433.9525137,-1.1051182746887207,-1.6818486652769984,-2.5263498465167444,2.280799551601074,-1.0168221632586878,0.3762039840221405
1708440433.954498,-1.1051329374313354,-1.681831499139303,-2.526367489491598,2.280825062389038,-1.0167611281024378,0.37628504633903503
1708440433.956496,-1.105100154876709,-1.6818777523436488,-2.5263925234424036,2.280804081554077,-1.0167296568499964,0.3763403296470642
1708440433.9585326,-1.1051239967346191,-1.681864400903219,-2.526264492665426,2.280862017268799,-1.0166853109942835,0.37639284133911133
1708440433.9605403,-1.1051404476165771,-1.681831499139303,-2.5263224283801478,2.2808279234119873,-1.0166447798358362,0.3763909339904785
1708440433.962523,-1.1051478385925293,-1.6818486652769984,-2.5262940565692347,2.2808117109486084,-1.0166047255145472,0.3764013946056366
1708440433.9645038,-1.1051359176635742,-1.6818930111327113,-2.5262745062457483,2.28080861150708,-1.0165975729571741,0.37651535868644714
1708440433.9665003,-1.1052021980285645,-1.681836267510885,-2.526245896016256,2.2808703619190673,-1.016601864491598,0.37653952836990356
1708440433.9685192,-1.1051884889602661,-1.6818815670409144,-2.526250425969259,2.280879421825073,-1.0165098349200647,0.37652599811553955
1708440433.970515,-1.1052424907684326,-1.6818486652769984,-2.5262964407550257,2.2807833391376953,-1.0164936224566858,0.3765707015991211
1708440433.9725163,-1.1052213907241821,-1.6817943058409632,-2.5262680689441126,2.280820532436035,-1.016498867665426,0.3765931725502014
1708440433.9745092,-1.1051781177520752,-1.681868692437643,-2.5262308756457728,2.2808443742939453,-1.0164783636676233,0.3766234815120697
1708440433.976532,-1.1051989793777466,-1.6818858585753382,-2.5262113253222864,2.28083245336499,-1.0164344946490687,0.3766562044620514
1708440433.978562,-1.1052361726760864,-1.681911130944723,-2.5261946360217493,2.280836983317993,-1.0164225737201136,0.37660670280456543
1708440433.9805262,-1.1052515506744385,-1.681836267510885,-2.5261665026294153,2.280874653453491,-1.0163453261004847,0.37654075026512146
1708440433.9825258,-1.1052861213684082,-1.6818858585753382,-2.526220146809713,2.2808398443409423,-1.0163539091693323,0.37657517194747925
1708440433.9845307,-1.105312705039978,-1.6818272076048792,-2.526224676762716,2.2808777528950195,-1.0163138548480433,0.37653785943984985
1708440433.9865103,-1.1053082942962646,-1.6818691692748011,-2.5262368361102503,2.2808443742939453,-1.0163429419146937,0.3764825463294983
1708440433.9884934,-1.10529625415802,-1.6818200550475062,-2.5261557737933558,2.2808443742939453,-1.0163148085223597,0.37648698687553406
1708440433.9904902,-1.1053037643432617,-1.6818210087218226,-2.526184145604269,2.280816002483032,-1.0162585417376917,0.3764105439186096
1708440433.9925096,-1.105360984802246,-1.6818157635130824,-2.5261271635638636,2.28083245336499,-1.0162256399737757,0.3763628602027893
1708440433.994478,-1.1053156852722168,-1.6818200550475062,-2.52610952058901,2.2808777528950195,-1.0162385145770472,0.37632226943969727
1708440433.996564,-1.1053484678268433,-1.6818777523436488,-2.526135269795553,2.2808777528950195,-1.016214672719137,0.37622642517089844
1708440433.9985056,-1.105330467224121,-1.681838174859518,-2.5261483828174036,2.2808777528950195,-1.0162275473224085,0.37617403268814087
1708440434.0005012,-1.105383276939392,-1.6817838154234828,-2.526090208684103,2.2808613020130615,-1.0161860624896448,0.3761007487773895
1708440434.0025213,-1.1054412126541138,-1.6818801365294398,-2.5261645952807825,2.2809132772633056,-1.0162394682513636,0.37603652477264404
1708440434.0045059,-1.1053757667541504,-1.6818047962584437,-2.526177946721212,2.2808732229420166,-1.0161789099322718,0.3760559558868408
1708440434.006506,-1.1054538488388062,-1.6818090877928675,-2.5261076132403772,2.2808732229420166,-1.0162032286273401,0.375946581363678
1708440434.0084887,-1.1053906679153442,-1.6817556820311488,-2.5261152426349085,2.2808894354053955,-1.0161708037005823,0.3759481906890869
1708440434.0104918,-1.1054234504699707,-1.6817780933775843,-2.5260663668261927,2.280859871501587,-1.016200367604391,0.37583887577056885
1708440434.012511,-1.1054482460021973,-1.6817361317076625,-2.5260499159442347,2.280825300807617,-1.0161545912372034,0.37573549151420593
1708440434.0145009,-1.1054693460464478,-1.681728025475973,-2.5260987917529505,2.280925913447998,-1.0161917845355433,0.3756471276283264
1708440434.0164988,-1.1054884195327759,-1.6817847690977992,-2.526067558919088,2.2809032636829834,-1.0161708037005823,0.3756052851676941
1708440434.018525,-1.1055048704147339,-1.6817208729186,-2.5260303656207483,2.2809242445179443,-1.0161264578448694,0.3754347860813141
1708440434.0205128,-1.1055048704147339,-1.6817370853819789,-2.526071850453512,2.2809769350239257,-1.0161588827716272,0.37525835633277893
1708440434.0225291,-1.1055123805999756,-1.6816908321776332,-2.5260420481311243,2.280939741725586,-1.0161264578448694,0.375199556350708
1708440434.0245068,-1.1055376529693604,-1.6817165813841761,-2.526050869618551,2.281000776881836,-1.0161469618426722,0.3750394582748413
1708440434.0265229,-1.105516791343689,-1.681732793847555,-2.52608830133547,2.280939741725586,-1.016123119984762,0.3749079406261444
1708440434.0285108,-1.1054986715316772,-1.681772371331686,-2.526039187108175,2.281062527293823,-1.0161555449115198,0.37475261092185974
1708440434.0305214,-1.105528712272644,-1.681671758691305,-2.5260303656207483,2.281029148692749,-1.0161274115191858,0.3745306432247162
1708440434.0325732,-1.1055514812469482,-1.6817594967284144,-2.52608830133547,2.281003637904785,-1.016135040913717,0.37439459562301636
1708440434.0345206,-1.105597734451294,-1.6816626987852992,-2.526059691105978,2.281020088786743,-1.0160992781268519,0.3742028772830963
1708440434.03653,-1.1055961847305298,-1.6817017994322718,-2.526043478642599,2.2811145025440673,-1.016111199055807,0.37405627965927124
1708440434.0384974,-1.1055963039398193,-1.6816770039000453,-2.526039187108175,2.2810444074818115,-1.016106907521383,0.37391719222068787
1708440434.040491,-1.1055917739868164,-1.6816684208311976,-2.5260477701770228,2.2810653883167724,-1.0161197821246546,0.3737061321735382
1708440434.042532,-1.1055872440338135,-1.681692739526266,-2.5260568300830286,2.2810563284107666,-1.0160906950580042,0.3734964430332184
1708440434.0445063,-1.1055736541748047,-1.6816760502257289,-2.526043478642599,2.281083031291626,-1.0160916487323206,0.3733499050140381
1708440434.046527,-1.1056681871414185,-1.6816727123656214,-2.526026789342062,2.2811264234730224,-1.0160992781268519,0.3731537461280823
1708440434.048523,-1.1056355237960815,-1.6816359959044398,-2.52608830133547,2.2811383444019775,-1.0160992781268519,0.37293073534965515
1708440434.050529,-1.105639934539795,-1.6817432842650355,-2.526043478642599,2.281162901515625,-1.016083065663473,0.372724324464798
1708440434.0525272,-1.105700969696045,-1.6817146740355433,-2.526048008595602,2.28110854207959,-1.0161078611956995,0.37247562408447266
1708440434.0545056,-1.10565185546875,-1.6816612682738246,-2.526048008595602,2.281094952220581,-1.0161035696612757,0.3722348213195801
1708440434.056531,-1.1057209968566895,-1.6816612682738246,-2.526039187108175,2.281193895930908,-1.016094986592428,0.37202391028404236
1708440434.058502,-1.1056904792785645,-1.6817194424071253,-2.5260775724994105,2.281165524119995,-1.0161035696612757,0.3717963695526123
1708440434.0604947,-1.1057403087615967,-1.6816727123656214,-2.526059691105978,2.2811478811451416,-1.016050163899557,0.37160593271255493
1708440434.0624938,-1.1057641506195068,-1.6816522083678187,-2.5260565916644495,2.2812511163898925,-1.0160544554339808,0.3713785409927368
1708440434.0645106,-1.1058043241500854,-1.6816402874388636,-2.526043478642599,2.281258745784424,-1.0160873571978968,0.3710060119628906
1708440434.066517,-1.1058213710784912,-1.6816770039000453,-2.5260523001300257,2.2811998563953857,-1.016066853200094,0.3708084225654602
1708440434.0685332,-1.105787992477417,-1.6817075214781703,-2.5260313192950647,2.28123323499646,-1.0160840193377894,0.37057051062583923
1708440434.0705032,-1.105858564376831,-1.6816283665099085,-2.5260074774371546,2.281203432674072,-1.0160711447345179,0.3703233599662781
1708440434.0725317,-1.1057907342910767,-1.6816655598082484,-2.526048008595602,2.28125707685437,-1.0160787741290491,0.3700030446052551
1708440434.0744889,-1.1058270931243896,-1.6816374264159144,-2.526022497807638,2.281224175090454,-1.0161078611956995,0.3697695732116699
1708440434.0765429,-1.1058480739593506,-1.6816450558104457,-2.526027027760641,2.281273289317749,-1.016066853200094,0.3694731891155243
1708440434.0785084,-1.105864405632019,-1.6816283665099085,-2.5259953180896204,2.2812153536030273,-1.0160625616656702,0.369181364774704
1708440434.080511,-1.1058107614517212,-1.6816493473448695,-2.525989834462301,2.2812673288532714,-1.0160906950580042,0.3688729703426361
1708440434.0825546,-1.105880856513977,-1.6817146740355433,-2.5260074774371546,2.2812673288532714,-1.016083065663473,0.36859020590782166
1708440434.0844991,-1.105879306793213,-1.6816464863219203,-2.5260401407824915,2.2813381391712646,-1.0161121527301233,0.36825841665267944
1708440434.0865138,-1.105900764465332,-1.681601186791891,-2.5260193983661097,2.281324549312256,-1.016066853200094,0.3679918348789215
1708440434.088507,-1.1059199571609497,-1.6816541157164515,-2.526043478642599,2.2813381391712646,-1.0160797278033655,0.3675977885723114
1708440434.0905051,-1.105909824371338,-1.681601186791891,-2.5260239283191126,2.2813381391712646,-1.0161197821246546,0.36739444732666016
1708440434.0924962,-1.1058746576309204,-1.6815773449339808,-2.5259910265551966,2.281303568477295,-1.0160296599017542,0.3669794499874115
1708440434.0945067,-1.1059036254882812,-1.681531091729635,-2.5260568300830286,2.2813736635395507,-1.016066853200094,0.3666534125804901
1708440434.0965283,-1.1059274673461914,-1.6815277538695277,-2.5260401407824915,2.2812957006641845,-1.016083065663473,0.3663017153739929
1708440434.0984983,-1.1059155464172363,-1.6815935573973597,-2.5260074774371546,2.281348391170166,-1.0160625616656702,0.36596938967704773
1708440434.1004972,-1.105911135673523,-1.6815115414061488,-2.5260074774371546,2.281352921123169,-1.0160754362689417,0.36567315459251404
1708440434.102496,-1.1059110164642334,-1.6815229854979457,-2.5260029474841517,2.28131548940625,-1.016083065663473,0.3652842044830322
1708440434.1044934,-1.1059653759002686,-1.6815229854979457,-2.5259864966021937,2.281343861217163,-1.0161564985858362,0.3649277985095978
1708440434.106493,-1.1059428453445435,-1.6815277538695277,-2.5260120073901575,2.281367703075073,-1.016050163899557,0.3645729422569275
1708440434.1084886,-1.1059398651123047,-1.6814962826170863,-2.5260523001300257,2.2814249235340576,-1.0160587469684046,0.36425453424453735
1708440434.1104915,-1.1059472560882568,-1.6815368137755335,-2.5260239283191126,2.2813748556324462,-1.016066853200094,0.3639279007911682
1708440434.1124866,-1.1059926748275757,-1.6815206013121546,-2.5260401407824915,2.2813467222401123,-1.016083065663473,0.3635239005088806
1708440434.1144977,-1.1059972047805786,-1.6815430126585902,-2.5260239283191126,2.2814547258564453,-1.0160625616656702,0.36317673325538635
1708440434.1165237,-1.105979084968567,-1.6815430126585902,-2.5260401407824915,2.281390591258667,-1.016083065663473,0.3628355860710144
1708440434.1185312,-1.1059999465942383,-1.6815253696837367,-2.525998655949728,2.2814203935810546,-1.016083065663473,0.36246711015701294
1708440434.1205335,-1.10597562789917,-1.6815716228880824,-2.5259907881366175,2.2814816671558837,-1.016094986592428,0.36210963129997253
1708440434.1225214,-1.105991005897522,-1.6814962826170863,-2.5260642210589808,2.281411333675049,-1.0161274115191858,0.3616456687450409
1708440434.1245003,-1.105991005897522,-1.6815387211241664,-2.5260193983661097,2.281472607249878,-1.0160787741290491,0.36124277114868164
1708440434.1265,-1.1060163974761963,-1.681556840936178,-2.5260282198535364,2.281423254604004,-1.0160701910602015,0.3609137237071991
1708440434.1284966,-1.1060521602630615,-1.6815053425230921,-2.5259864966021937,2.281477137202881,-1.0161317030536097,0.3605183959007263
1708440434.1305223,-1.1060384511947632,-1.6814772091307582,-2.5260523001300257,2.281463547343872,-1.016123119984762,0.3601219952106476
1708440434.1325173,-1.1060855388641357,-1.6815234623351039,-2.5260120073901575,2.281460686320923,-1.0161154905902308,0.3596591651439667
1708440434.1345246,-1.106019377708435,-1.6814891300597132,-2.525998655949728,2.281489058131836,-1.0160701910602015,0.35929983854293823
1708440434.1365037,-1.1060011386871338,-1.681474348107809,-2.5260193983661097,2.281517906779907,-1.0160906950580042,0.35892146825790405
1708440434.1385047,-1.1060810089111328,-1.6815053425230921,-2.5260029474841517,2.2815462785908203,-1.016083065663473,0.3584038317203522
1708440434.1405077,-1.1060855388641357,-1.6814857921996058,-2.525998655949728,2.281470699901245,-1.0161359945880335,0.3580312728881836
1708440434.1425138,-1.106088399887085,-1.6814481220641078,-2.5260162989245813,2.2814664083668212,-1.0161154905902308,0.35759538412094116
1708440434.1444921,-1.1060549020767212,-1.6814829311766566,-2.525989834462301,2.2814969259449462,-1.0160906950580042,0.35726651549339294
1708440434.1465194,-1.1060585975646973,-1.6814662418761195,-2.5260117689715784,2.281505985850952,-1.016135040913717,0.3568204641342163
1708440434.1484988,-1.1060974597930908,-1.6814242802061976,-2.526076380406515,2.2815088468739013,-1.0161307493792933,0.35646265745162964
1708440434.150495,-1.106071949005127,-1.6814199886717738,-2.526004139577047,2.2814790445515136,-1.0161555449115198,0.3559896647930145
1708440434.1524935,-1.1061121225357056,-1.6814457378783167,-2.525998655949728,2.2814997869678955,-1.0161188284503382,0.35560342669487
1708440434.1545024,-1.106128454208374,-1.681441446343893,-2.525965754185812,2.2815415102192382,-1.016139332448141,0.3552263379096985
1708440434.1565008,-1.1061301231384277,-1.6814290485777796,-2.5259907881366175,2.2814878660389404,-1.016163174306051,0.3547980487346649
1708440434.1585023,-1.1060974597930908,-1.6813990078368128,-2.5260325113879603,2.2815145689197998,-1.0161836783038538,0.3543819785118103
1708440434.1604986,-1.106092929840088,-1.6814242802061976,-2.5259700457202356,2.2814745145985107,-1.0161502997027796,0.3539793789386749
1708440434.1624928,-1.1061047315597534,-1.6814214191832484,-2.5260074774371546,2.2815579611011962,-1.0161545912372034,0.35356757044792175
1708440434.1644988,-1.1060675382614136,-1.6814381084837855,-2.5259996096240442,2.2815372186848144,-1.0162032286273401,0.353153258562088
1708440434.1665041,-1.1061002016067505,-1.6814333401122035,-2.525961462651388,2.2815772730061035,-1.01617938676943,0.35280293226242065
1708440434.1685266,-1.1061077117919922,-1.6814242802061976,-2.5260444323169153,2.281502886409424,-1.016196076069967,0.35230177640914917
1708440434.1705232,-1.1061285734176636,-1.6814290485777796,-2.5260029474841517,2.2815653520771484,-1.0162113348590296,0.3519362509250641
1708440434.172489,-1.1060497760772705,-1.681474348107809,-2.5260446707354944,2.2815653520771484,-1.0161789099322718,0.3515084385871887
1708440434.1745026,-1.1061285734176636,-1.6814948521056117,-2.5259700457202356,2.2815729814716796,-1.0161917845355433,0.351056843996048
1708440434.1764915,-1.1061285734176636,-1.6814786396422328,-2.5260282198535364,2.281533880824707,-1.0161832014666956,0.3507080674171448
1708440434.1785002,-1.1060913801193237,-1.681432386437887,-2.5260029474841517,2.2815355497547607,-1.0162113348590296,0.35027220845222473
1708440434.1804965,-1.106095790863037,-1.6814948521056117,-2.5259953180896204,2.281613751048706,-1.016202751790182,0.34991446137428284
1708440434.1825252,-1.1060749292373657,-1.6814829311766566,-2.525998655949728,2.2815400797077636,-1.0161903540240687,0.34942811727523804
1708440434.1845047,-1.106144905090332,-1.6814457378783167,-2.5260193983661097,2.281588240260742,-1.016198460255758,0.3490041494369507
1708440434.1865256,-1.1061240434646606,-1.6814571819701136,-2.5260489622699183,2.281592770213745,-1.0162437597857874,0.3486486077308655
1708440434.1885207,-1.1061002016067505,-1.681441446343893,-2.5259953180896204,2.2815989690968017,-1.0161903540240687,0.34824997186660767
1708440434.19052,-1.1060912609100342,-1.681436677972311,-2.526020590459005,2.281542940730713,-1.0162394682513636,0.34775298833847046
1708440434.1925118,-1.1061285734176636,-1.6814705334105433,-2.525998655949728,2.281563921565674,-1.0162394682513636,0.34731325507164
1708440434.1945207,-1.1061077117919922,-1.6814381084837855,-2.5259907881366175,2.281585379237793,-1.0162394682513636,0.34688642621040344
1708440434.1965215,-1.1060868501663208,-1.6814457378783167,-2.5260356108294886,2.281601830119751,-1.016226593648092,0.34649619460105896
1708440434.1984951,-1.106083869934082,-1.6815158329405726,-2.5259864966021937,2.281534119243286,-1.0162676016436976,0.34603947401046753
1708440434.2005045,-1.1060987710952759,-1.6814199886717738,-2.5259907881366175,2.281498356456421,-1.0162504355060022,0.34572094678878784
1708440434.2025137,-1.106144905090332,-1.6814662418761195,-2.5260193983661097,2.2815565305897216,-1.0162351767169397,0.34523871541023254
1708440434.2045183,-1.106088399887085,-1.6814948521056117,-2.5259907881366175,2.281563921565674,-1.016226593648092,0.34478676319122314
1708440434.2064922,-1.1061033010482788,-1.681469579736227,-2.5260313192950647,2.281609221095703,-1.01625901857485,0.3444052040576935
1708440434.2085004,-1.106095790863037,-1.6813932857909144,-2.525998655949728,2.281521959895752,-1.0162871519671839,0.34396010637283325
1708440434.2104893,-1.1061121225357056,-1.6814290485777796,-2.5260446707354944,2.28158084928479,-1.016254727040426,0.3436283469200134
1708440434.21248,-1.1061121225357056,-1.6814123592772425,-2.5260656515704554,2.281554861659668,-1.016254727040426,0.34312674403190613
1708440434.2145367,-1.1060749292373657,-1.6814829311766566,-2.5260685125934046,2.2815684515186767,-1.016242806111471,0.34275710582733154
1708440434.2165427,-1.1060705184936523,-1.6813632450499476,-2.526043478642599,2.281576319331787,-1.0162671248065394,0.342292845249176
1708440434.2185152,-1.106066107749939,-1.6814500294127406,-2.5260356108294886,2.281588240260742,-1.0162385145770472,0.341888964176178
1708440434.220533,-1.1061121225357056,-1.6814705334105433,-2.5260239283191126,2.281606360072754,-1.0162633101092737,0.34149059653282166
1708440434.2225232,-1.1060913801193237,-1.6813913784422816,-2.525989834462301,2.2815162378498535,-1.0162385145770472,0.3410433530807495
1708440434.224499,-1.10610032081604,-1.6814524135985316,-2.5260775724994105,2.2815400797077636,-1.0162995497332972,0.3406619429588318
1708440434.226488,-1.1061002016067505,-1.6814242802061976,-2.525998655949728,2.281510038966797,-1.0162952581988733,0.34025484323501587
1708440434.2285008,-1.106149435043335,-1.6814547977843226,-2.5260818640338343,2.2815772730061035,-1.0162504355060022,0.33977773785591125
1708440434.2304943,-1.1061196327209473,-1.6814424000182093,-2.5260239283191126,2.2815987306782226,-1.0162785688983362,0.33937522768974304
1708440434.2325404,-1.1060630083084106,-1.6814457378783167,-2.5259700457202356,2.2815310198017578,-1.0162909666644495,0.3390099108219147
1708440434.2344835,-1.106083869934082,-1.6813961468138636,-2.5260313192950647,2.2815491396137695,-1.0162671248065394,0.3385787904262543
1708440434.2365336,-1.1060750484466553,-1.6814829311766566,-2.525998655949728,2.281606360072754,-1.0163114706622522,0.33813440799713135
1708440434.2385066,-1.1060839891433716,-1.6814705334105433,-2.5260239283191126,2.2815355497547607,-1.0162456671344202,0.3377167284488678
1708440434.2404807,-1.106071949005127,-1.6815086803831996,-2.5260730425464075,2.2815162378498535,-1.0162656942950647,0.33731722831726074
1708440434.242503,-1.106071949005127,-1.6814705334105433,-2.5260282198535364,2.2815610605427246,-1.0163028875934046,0.33689385652542114
1708440434.2445037,-1.1060385704040527,-1.6814080677428187,-2.5260356108294886,2.2815207678028564,-1.0162909666644495,0.336532860994339
1708440434.246507,-1.1060882806777954,-1.6814500294127406,-2.5260356108294886,2.2815772730061035,-1.0163396040545862,0.33606305718421936
1708440434.248513,-1.106095790863037,-1.681441446343893,-2.525994125996725,2.281454487437866,-1.0162995497332972,0.3356480598449707
1708440434.2505069,-1.1060550212860107,-1.6814290485777796,-2.5260401407824915,2.2815608221241455,-1.0163105169879358,0.3352647125720978
1708440434.2525299,-1.1060794591903687,-1.6814481220641078,-2.525998655949728,2.2814909654804687,-1.0163148085223597,0.3348951041698456
1708440434.254527,-1.1060340404510498,-1.681432386437887,-2.525994125996725,2.2814790445515136,-1.0163515249835413,0.3344385623931885
1708440434.2565084,-1.1060503721237183,-1.6814905605711878,-2.526006285344259,2.2814664083668212,-1.0163191000567835,0.3340478241443634
1708440434.258508,-1.1060930490493774,-1.6814242802061976,-2.5260852018939417,2.2814878660389404,-1.0163429419146937,0.33361703157424927
1708440434.2605057,-1.1060686111450195,-1.6814996204771937,-2.526059691105978,2.2814954954334716,-1.0163233915912073,0.33323055505752563
1708440434.2624793,-1.1060384511947632,-1.681469579736227,-2.526006285344259,2.2814952570148925,-1.0163105169879358,0.33285975456237793
1708440434.2644908,-1.10606849193573,-1.681465288201803,-2.526006285344259,2.281438036555908,-1.0163634459124964,0.332459956407547
1708440434.2664793,-1.1060192584991455,-1.6815067730345667,-2.526015106831686,2.281447096461914,-1.0163310209857386,0.33205288648605347
1708440434.2685463,-1.1060476303100586,-1.681474348107809,-2.526026789342062,2.281414433116577,-1.0163310209857386,0.3316729664802551
1708440434.2704906,-1.1060208082199097,-1.681432386437887,-2.5260632673846644,2.2814695078083496,-1.0163958708392542,0.3313244581222534
1708440434.2724981,-1.105979084968567,-1.6814857921996058,-2.526059691105978,2.2814487653919677,-1.0163138548480433,0.33092790842056274
1708440434.274486,-1.1060283184051514,-1.681465288201803,-2.5260356108294886,2.2814368444630126,-1.0163300673114222,0.3305189609527588
1708440434.2764914,-1.1059880256652832,-1.6814857921996058,-2.526026789342062,2.2814456659504394,-1.0163667837726038,0.3301946520805359
1708440434.2785225,-1.1060044765472412,-1.6814242802061976,-2.5260477701770228,2.2814158636280517,-1.0163829962359827,0.3298566937446594
1708440434.280514,-1.1059926748275757,-1.6815186939635218,-2.526039187108175,2.2813965517231445,-1.0163419882403772,0.3294643461704254
1708440434.2825508,-1.105959177017212,-1.681481500665182,-2.526055399571554,2.2814668852039794,-1.0163496176349085,0.3290649354457855
1708440434.284522,-1.1059845685958862,-1.6814233265318812,-2.5260642210589808,2.281364842052124,-1.016407314931051,0.32870617508888245
1708440434.2864914,-1.1059637069702148,-1.6814514599242152,-2.526022497807638,2.281384153957031,-1.0163701216327112,0.3283616304397583
1708440434.2884884,-1.1059726476669312,-1.681469579736227,-2.526072088872091,2.281360312099121,-1.0163863340960901,0.32805246114730835
1708440434.2904868,-1.105942726135254,-1.681481500665182,-2.526039187108175,2.28133933126416,-1.016411606465475,0.3276127874851227
1708440434.292507,-1.105906367301941,-1.681481500665182,-2.5260465780841272,2.281290217036865,-1.0164192358600062,0.32728204131126404
1708440434.2944937,-1.105894684791565,-1.681460519830221,-2.526080910359518,2.281360312099121,-1.016374413167135,0.32691553235054016
1708440434.2965176,-1.1059036254882812,-1.681502481500143,-2.526092592869894,2.2812883096882324,-1.0164397398578089,0.32658475637435913
1708440434.2984908,-1.105933666229248,-1.681465288201803,-2.5260794798480433,2.2812539774128417,-1.0164106527911585,0.32620933651924133
1708440434.300496,-1.1059244871139526,-1.681502481500143,-2.526104513798849,2.2812718588062744,-1.0164106527911585,0.32589372992515564
1708440434.3025453,-1.105879306793213,-1.681481500665182,-2.526100222264425,2.2813219267078857,-1.0164106527911585,0.32555583119392395
1708440434.3044841,-1.105879306793213,-1.6814843616881312,-2.526104752217428,2.281308098430298,-1.0164712111102503,0.325199693441391
1708440434.3065286,-1.105808973312378,-1.681493421594137,-2.526100222264425,2.281322403545044,-1.0164712111102503,0.3248686194419861
1708440434.3084898,-1.1058181524276733,-1.681439062158102,-2.5260587374316614,2.281261368388794,-1.016463581715719,0.32450518012046814
1708440434.3104887,-1.1058673858642578,-1.681493421594137,-2.5260544458972376,2.2812675672718505,-1.0164831320392054,0.324219673871994
1708440434.3125226,-1.1058107614517212,-1.68150057415151,-2.5261359850512903,2.281212254161499,-1.0164669195758265,0.3238336741924286
1708440434.3144884,-1.1057987213134766,-1.6815186939635218,-2.5261197725879114,2.281224175090454,-1.0164912382708948,0.32358574867248535
1708440434.3165405,-1.1057789325714111,-1.681559225121969,-2.526073757802145,2.281252546901367,-1.0164912382708948,0.3232368528842926
1708440434.3185344,-1.1057626008987427,-1.6814633808531703,-2.5261197725879114,2.281228705043457,-1.0164783636676233,0.3229134976863861
1708440434.3205485,-1.105783462524414,-1.681559225121969,-2.5260899702655237,2.2811686235615234,-1.0165193716632288,0.3225863575935364
1708440434.3225377,-1.1057850122451782,-1.68150057415151,-2.5260987917529505,2.2811640936085205,-1.0164945761310022,0.32227516174316406
1708440434.3245108,-1.105710506439209,-1.6815129719176234,-2.5261645952807825,2.2811433511921386,-1.0165355841266077,0.32200896739959717
1708440434.326508,-1.1057193279266357,-1.6815220318236292,-2.5260945002185267,2.2811283308216552,-1.016515080128805,0.3216559886932373
1708440434.3285203,-1.1057119369506836,-1.6814919910826625,-2.5261195341693323,2.281115933055542,-1.0165227095233362,0.3213834762573242
1708440434.3304977,-1.1056948900222778,-1.6815339527525843,-2.5261109511004847,2.28110854207959,-1.0164979139911097,0.3211081027984619
1708440434.3325346,-1.1056876182556152,-1.6815253696837367,-2.526184145604269,2.281066580409668,-1.0165346304522913,0.32078948616981506
1708440434.3345125,-1.1056264638900757,-1.6815206013121546,-2.526139561329977,2.2810892301746826,-1.0165303389178675,0.3204813003540039
1708440434.3365107,-1.1056921482086182,-1.681601186791891,-2.526184145604269,2.2810064989277343,-1.0165260473834437,0.32020601630210876
1708440434.3384883,-1.1055781841278076,-1.6816250286498011,-2.52616793314089,2.281062527293823,-1.016505543385641,0.31992384791374207
1708440434.3405263,-1.1056071519851685,-1.681634088555807,-2.5261991659747522,2.2810324865528564,-1.0165789763080042,0.31960368156433105
1708440434.3425167,-1.1056207418441772,-1.6815878353514613,-2.526220146809713,2.2810417848774414,-1.016517464314596,0.3193747401237488
1708440434.3445194,-1.1055917739868164,-1.6816116772093714,-2.526179615651266,2.280963583583496,-1.0165703932391565,0.3191317319869995
1708440434.3465474,-1.1055798530578613,-1.6816984615721644,-2.5262158552752894,2.281000776881836,-1.0165823141681116,0.31879889965057373
1708440434.3485224,-1.1055351495742798,-1.6816984615721644,-2.526212278996603,2.2809902864643554,-1.0166032950030726,0.3185129165649414
1708440434.3504908,-1.1054733991622925,-1.6816450558104457,-2.5261741320239466,2.280927820796631,-1.016590420399801,0.3182351589202881
1708440434.3525174,-1.1055105924606323,-1.6816612682738246,-2.526207987462179,2.2809604841419677,-1.0166142622577112,0.3179682195186615
1708440434.3545039,-1.1054913997650146,-1.6816522083678187,-2.5261991659747522,2.2809666830250244,-1.016634766255514,0.317755788564682
1708440434.3565333,-1.1055048704147339,-1.6816894016661585,-2.5262606779681605,2.280921383494995,-1.0166872183429163,0.31744614243507385
1708440434.3585029,-1.1054856777191162,-1.6816894016661585,-2.5262280146228235,2.280908985728882,-1.0166457335101526,0.31717103719711304
1708440434.3605068,-1.1054482460021973,-1.681741853753561,-2.5262768904315394,2.280892534846924,-1.0167067686664026,0.3169000744819641
1708440434.3624983,-1.1054115295410156,-1.68176331142568,-2.5262606779681605,2.280888004893921,-1.0166447798358362,0.3165713846683502
1708440434.3645213,-1.105427861213684,-1.6817699871458949,-2.5262308756457728,2.2808615404316406,-1.016738239918844,0.31636133790016174
1708440434.3665571,-1.1053742170333862,-1.6817451916136683,-2.526259247456686,2.280792160625122,-1.0167468229876917,0.31611934304237366
1708440434.3685057,-1.1053757667541504,-1.6817699871458949,-2.5262890497790735,2.2807504373737792,-1.0167339483844202,0.3158789575099945
1708440434.3705032,-1.1053519248962402,-1.681760927239889,-2.52630860010256,2.2807184892841796,-1.0167697111712855,0.31565558910369873
1708440434.3725321,-1.1053410768508911,-1.6818090877928675,-2.5262296835528772,2.2806946474262695,-1.0167697111712855,0.3153929114341736
1708440434.3745108,-1.1052799224853516,-1.681838174859518,-2.526254717503683,2.280684395427368,-1.0167372862445276,0.31506648659706116
1708440434.3765259,-1.1052182912826538,-1.6818586788573207,-2.526311699544088,2.2807411390491943,-1.0167902151690882,0.31488534808158875
1708440434.3785193,-1.1051944494247437,-1.68190397838735,-2.526328150426046,2.280688925380371,-1.0168021360980433,0.31460100412368774
1708440434.3805108,-1.1051796674728394,-1.6818305454649867,-2.5263312498675745,2.2806362348743896,-1.0167611281024378,0.3143993318080902
1708440434.3825738,-1.105150580406189,-1.6818930111327113,-2.5263477007495325,2.2806050020405273,-1.016846005116598,0.31412726640701294
1708440434.3845246,-1.1050747632980347,-1.6819168529906214,-2.5263312498675745,2.280602141017578,-1.016817871724264,0.31385478377342224
1708440434.3865237,-1.105071783065796,-1.6819287739195765,-2.526350800191061,2.280524178142212,-1.0169032255755823,0.31362420320510864
1708440434.3884885,-1.1050100326538086,-1.6819473705687464,-2.526313606892721,2.280512257213257,-1.0168536345111292,0.31336843967437744
1708440434.3905,-1.104949951171875,-1.6820126972594203,-2.526358668004171,2.2804838854023437,-1.0168569723712366,0.3131905198097229
1708440434.3925147,-1.104918122291565,-1.6820298633971156,-2.5263825098620813,2.280480309123657,-1.0168655554400843,0.3129451870918274
1708440434.394487,-1.1049561500549316,-1.6820322475829066,-2.5263825098620813,2.28043715536084,-1.0168855826007288,0.31271427869796753
1708440434.3965032,-1.1048625707626343,-1.6820727787413539,-2.526423994694845,2.2804252344318847,-1.0169342199908655,0.3124648630619049
1708440434.3985028,-1.1047942638397217,-1.6821056805052699,-2.5264480749713343,2.280393524760864,-1.0169623533831995,0.31226593255996704
1708440434.4005032,-1.1047550439834595,-1.6820923290648402,-2.5264020601855677,2.280365152949951,-1.016949478779928,0.31212249398231506
1708440434.4025083,-1.1047312021255493,-1.6821571789183558,-2.5264840761767786,2.2802840906330566,-1.0169737974749964,0.3118695020675659
1708440434.4045057,-1.104663610458374,-1.682176252404684,-2.526463333760397,2.2802366453358154,-1.0170539061175745,0.3116777241230011
1708440434.406506,-1.1045660972595215,-1.68217196087026,-2.5264914671527308,2.2802082735249023,-1.0170820395099085,0.31145939230918884
1708440434.4085112,-1.104543924331665,-1.6822987995543421,-2.526524368916647,2.2801782327839355,-1.0171015898333948,0.3112543523311615
1708440434.4104936,-1.1044257879257202,-1.6822973690428675,-2.5265067259417933,2.2801293569752197,-1.0171497503863733,0.31110477447509766
1708440434.4124987,-1.1044278144836426,-1.6822644672789515,-2.5265234152423304,2.2800890642353515,-1.0171735922442835,0.310861200094223
1708440434.4145205,-1.1043063402175903,-1.682319780389303,-2.5265799204455774,2.280010862941406,-1.017176930104391,0.31072384119033813
1708440434.4165056,-1.1042388677597046,-1.6823889217772425,-2.526513163243429,2.2799767690845947,-1.0171850363360804,0.31044819951057434
1708440434.4185345,-1.1041340827941895,-1.682387491265768,-2.526616160069601,2.279945059413574,-1.0171969572650355,0.3102447986602783
1708440434.4205236,-1.1040173768997192,-1.6825186214842738,-2.526616160069601,2.2798148828693847,-1.0172455946551722,0.3100048899650574
1708440434.4225178,-1.1039297580718994,-1.6825248203673304,-2.5266268889056605,2.2797555166431884,-1.0172608534442347,0.3098631799221039
1708440434.4245079,-1.1038223505020142,-1.6825233898558558,-2.526646439229147,2.279689236278198,-1.0173261801349085,0.3096925616264343
1708440434.426503,-1.1037355661392212,-1.6826015911498011,-2.526670519505636,2.2796053129383544,-1.0173457304583948,0.30948758125305176
1708440434.4285276,-1.1035778522491455,-1.6826073131956996,-2.526686731969015,2.279475374812744,-1.0173490683185022,0.30928388237953186
1708440434.430496,-1.1034293174743652,-1.6826969585814417,-2.526748005543844,2.2794031339832763,-1.0174186865436,0.3091748356819153
1708440434.432517,-1.103301763534546,-1.6827928028502406,-2.5267840067492884,2.2793304163166503,-1.0173242727862757,0.30892929434776306
1708440434.4345527,-1.103145956993103,-1.682814737359518,-2.526766363774435,2.2792484003254394,-1.0174339453326624,0.308705598115921
1708440434.4365082,-1.1029696464538574,-1.6829101047911585,-2.526872221623556,2.2791897493549804,-1.0174005667315882,0.30853310227394104
1708440434.4385054,-1.1028175354003906,-1.6829806766905726,-2.5268965403186243,2.279035730952881,-1.0174687544452112,0.3083743751049042
1708440434.4405515,-1.1025971174240112,-1.683047433892721,-2.5269323031054896,2.2789363104053955,-1.017524544392721,0.30822035670280457
1708440434.442495,-1.10243821144104,-1.6830812893309535,-2.526910368596212,2.2787555891224365,-1.0175731817828577,0.3080318570137024
1708440434.444505,-1.1021877527236938,-1.6831861935057582,-2.527053419743673,2.278656168574951,-1.0176289717303675,0.30793485045433044
1708440434.4465134,-1.1020125150680542,-1.6833082638182582,-2.5270162264453333,2.2784225183674316,-1.0176680723773401,0.3076893091201782
1708440434.4485207,-1.1017675399780273,-1.6833540401854457,-2.5270350615130823,2.2783235746571044,-1.0177162329303187,0.30752626061439514
1708440434.4505165,-1.1015701293945312,-1.6835080585875453,-2.52710467973818,2.2781707483479003,-1.01774770418276,0.3073303997516632
1708440434.4525156,-1.101227045059204,-1.6835743389525355,-2.5271440188037317,2.278027220363281,-1.0178487936602991,0.30717024207115173
1708440434.4545193,-1.1009780168533325,-1.6837645969786585,-2.5271502176867884,2.2778214651295166,-1.0179045836078089,0.30697864294052124
1708440434.4565206,-1.1007272005081177,-1.6838919124998988,-2.5272114912616175,2.2776428896137695,-1.0179927984820765,0.3068651258945465
1708440434.458522,-1.1003865003585815,-1.6840101681151332,-2.527238670979635,2.277425928706787,-1.0180719534503382,0.3066317141056061
1708440434.4605305,-1.1001079082489014,-1.684176584283346,-2.5273149649249476,2.277243061656616,-1.0181449095355433,0.30650168657302856
1708440434.4624908,-1.0997798442840576,-1.6842943630614222,-2.5273807684527796,2.277057095164917,-1.0181925932513636,0.3062877357006073
1708440434.4645061,-1.0994423627853394,-1.6844221554198207,-2.527440849934713,2.276803894633911,-1.0182321707354944,0.3062232434749603
1708440434.466526,-1.0990898609161377,-1.6846023998656214,-2.527475420628683,2.276517792338989,-1.018327538167135,0.30603477358818054
1708440434.4685905,-1.0987796783447266,-1.6848155460753382,-2.527466599141256,2.2763683038898925,-1.018322769795553,0.30585524439811707
1708440434.4705086,-1.0983326435089111,-1.684993406335348,-2.527604405079977,2.2760824400135498,-1.0184844175921839,0.30568307638168335
1708440434.4725509,-1.097966194152832,-1.6852222881712855,-2.527701441441671,2.2758487898060302,-1.018547836934225,0.3055441081523895
1708440434.4745297,-1.0975594520568848,-1.685458322564596,-2.527724091206686,2.2754835325428466,-1.0186360518084925,0.3053838610649109
1708440434.4764895,-1.097081184387207,-1.68560852626943,-2.5277708212481897,2.2751759725758056,-1.0187318960772913,0.30520591139793396
1708440434.4785018,-1.0966163873672485,-1.6858898601927699,-2.5278638044940394,2.2748593527027587,-1.0188201109515589,0.3050325810909271
1708440434.4805074,-1.096211314201355,-1.6860681972899378,-2.5279117266284388,2.2744955259510498,-1.0188582579242151,0.30494245886802673
1708440434.4825127,-1.0956557989120483,-1.686331411401266,-2.528019730244772,2.2740632730671386,-1.0189831892596644,0.30466753244400024
1708440434.484509,-1.0951976776123047,-1.686598917047018,-2.5280917326556605,2.2737535673328857,-1.0190098921405237,0.3045821487903595
1708440434.4864898,-1.09468674659729,-1.686838289300436,-2.528172318135397,2.273392363185547,-1.0191705862628382,0.3044382333755493
1708440434.4885004,-1.0940943956375122,-1.6871549091734828,-2.5282235781299036,2.273003502483032,-1.019238297139303,0.3042422831058502
1708440434.4905262,-1.0935344696044922,-1.6874224148192347,-2.5283330122577112,2.2726239401051025,-1.0193374792682093,0.3040538728237152
1708440434.492493,-1.0929226875305176,-1.6877185306944789,-2.52845269838442,2.2721850115009765,-1.0194905439959925,0.3039434850215912
1708440434.4945278,-1.0923227071762085,-1.6880442104735316,-2.528503958378927,2.271768494243286,-1.019585434590475,0.3037729263305664
1708440434.4965334,-1.091744065284729,-1.6883694134154261,-2.528562847767965,2.2713326650806884,-1.0197256247149866,0.30360084772109985
1708440434.4984918,-1.0910545587539673,-1.6886731586852015,-2.5287285486804407,2.2709037500568847,-1.0198372046100062,0.3034360110759735
1708440434.500531,-1.0904392004013062,-1.68900789837026,-2.528803888951437,2.27044860898938,-1.0200141111956995,0.30334338545799255
1708440434.5025394,-1.0897293090820312,-1.6892653904356898,-2.528950277959005,2.2700483041950683,-1.0201132933246058,0.3031696081161499
1708440434.5045152,-1.089026927947998,-1.6896335087218226,-2.5289960543261927,2.2695321279713134,-1.0202730337726038,0.3030426502227783
1708440434.5064943,-1.0882742404937744,-1.6900092564024867,-2.5291171709643763,2.2690698343464355,-1.0203965345965784,0.30279260873794556
1708440434.5085196,-1.087567687034607,-1.690343519250387,-2.529229466115133,2.268639250392578,-1.0205524603473108,0.3026610016822815
1708440434.5105293,-1.086789608001709,-1.6906973324217738,-2.529358212147848,2.268127127284668,-1.0206640402423304,0.302508682012558
1708440434.5125103,-1.086033821105957,-1.6911493740477503,-2.529412571583883,2.2675625520893554,-1.0207832495318812,0.30244123935699463
1708440434.5144894,-1.0852266550064087,-1.6914626560606898,-2.5295477549182337,2.2670253950306396,-1.0209434668170374,0.3022526800632477
1708440434.5165005,-1.0844316482543945,-1.691907068292135,-2.529684368764059,2.266479416484497,-1.0211551825152796,0.30205225944519043
1708440434.5185087,-1.0835829973220825,-1.6922975979247035,-2.529792133961813,2.265838070506714,-1.0212667624102991,0.30187562108039856
1708440434.5205173,-1.082736611366272,-1.6927105389037074,-2.529940668736593,2.2652556139179687,-1.0214183966266077,0.30178290605545044
1708440434.522511,-1.0818235874176025,-1.6930295429625453,-2.530081335698263,2.264594240779541,-1.0215581099139612,0.301643967628479
1708440434.5245032,-1.0809686183929443,-1.6935554943480433,-2.5301879088031214,2.2639781671711425,-1.0216458479510706,0.30149558186531067
1708440434.5265079,-1.080027461051941,-1.6939975223936976,-2.5303810278521937,2.263408585185669,-1.021801773701803,0.3012128174304962
1708440434.5285006,-1.0790750980377197,-1.694420953790182,-2.530534092579977,2.26269714414563,-1.021949593220846,0.3011484742164612
1708440434.5304987,-1.0781553983688354,-1.6948920689024867,-2.530595842991964,2.262092276210449,-1.0221012274371546,0.3009762763977051
1708440434.532515,-1.0771633386611938,-1.6953259907164515,-2.5307892004596155,2.2614268499561767,-1.0222042242633265,0.300820916891098
1708440434.5344982,-1.0761688947677612,-1.6958009205260218,-2.5309274832354944,2.260739966029785,-1.0223806540118616,0.3006249964237213
1708440434.5364897,-1.0750876665115356,-1.69622864345693,-2.5310681501971644,2.2600321012684326,-1.0225518385516565,0.3005233407020569
1708440434.5385053,-1.0740807056427002,-1.6968018017210902,-2.531219784413473,2.2593282896229248,-1.0227564016925257,0.3002717196941376
1708440434.5404906,-1.0730112791061401,-1.697242876092428,-2.531437937413351,2.258596821422241,-1.022928539906637,0.3001045882701874
1708440434.542483,-1.0718798637390137,-1.6977912388243617,-2.5315240065204065,2.2578977781483154,-1.0231521765338343,0.29999834299087524
1708440434.5445294,-1.0708500146865845,-1.698313375512594,-2.5317235628711146,2.257110758418701,-1.0233238379107874,0.29982027411460876
1708440434.54652,-1.0697542428970337,-1.6988965473570765,-2.531940762196676,2.2563418585010986,-1.0235722700702112,0.2996273636817932
1708440434.548511,-1.068630337715149,-1.6994387112059535,-2.5321133772479456,2.2556420999714355,-1.0236943403827112,0.2994191348552704
1708440434.550515,-1.067404866218567,-1.699972768823141,-2.532301966344015,2.254784031505249,-1.023926083241598,0.2992592453956604
1708440434.5524995,-1.066273808479309,-1.7005979023375453,-2.5324283281909388,2.253944082851074,-1.0241692701922815,0.29905104637145996
1708440434.554493,-1.0651136636734009,-1.701149126092428,-2.5325916449176233,2.253095789546631,-1.024344269429342,0.29883873462677
1708440434.5564985,-1.063864827156067,-1.7016645870604457,-2.5327802340136927,2.2522854047962646,-1.024510685597555,0.2987503707408905
1708440434.5584912,-1.062656283378601,-1.702313085595602,-2.5329440275775355,2.2513927656361084,-1.0246947447406214,0.29859939217567444
1708440434.5605,-1.0613915920257568,-1.7029463253416957,-2.533135954533712,2.250532789821289,-1.0249808470355433,0.2983408272266388
1708440434.5624897,-1.0601361989974976,-1.7035452328123988,-2.5333192984210413,2.2496837812611084,-1.0251286665545862,0.2981656491756439
1708440434.5644906,-1.0589009523391724,-1.704172273675436,-2.5334928671466272,2.2487429815479736,-1.025362793599264,0.2979365885257721
1708440434.5665193,-1.0575194358825684,-1.7048412762083949,-2.533651892338888,2.2478222089954834,-1.0255211035357874,0.29780352115631104
1708440434.5685222,-1.0562283992767334,-1.705538888970846,-2.53387695947756,2.246915026302002,-1.025754753743307,0.297623872756958
1708440434.570542,-1.054923415184021,-1.7061158619322718,-2.5339987913714808,2.2459565836140136,-1.0259855429278772,0.2973906993865967
1708440434.572516,-1.0535500049591064,-1.7066966495909632,-2.5342724959002894,2.2450458246418457,-1.0262129942523401,0.2972409725189209
1708440434.574524,-1.0521790981292725,-1.7074033222594203,-2.5343945662127894,2.2440754610249023,-1.0264609495746058,0.29709139466285706
1708440434.5765095,-1.0508458614349365,-1.7081319294371546,-2.534644428883688,2.2431301313587646,-1.02667743364443,0.29683977365493774
1708440434.5785344,-1.0494179725646973,-1.7087928257384242,-2.534827534352438,2.242069645518921,-1.0268891493426722,0.29671433568000793
1708440434.580525,-1.0479613542556763,-1.7095052204527796,-2.5350621382342737,2.2410713869282226,-1.0270584265338343,0.29649001359939575
1708440434.5825248,-1.0465185642242432,-1.710214754144186,-2.535187307988302,2.2400705057331542,-1.0272939840899866,0.29627475142478943
1708440434.5845413,-1.045033574104309,-1.710884233514303,-2.535440746937887,2.238968535060547,-1.0275495688067835,0.2960427403450012
1708440434.5865207,-1.0434998273849487,-1.7116881809630335,-2.535574738179342,2.237896128291748,-1.0278194586383265,0.2958481013774872
1708440434.5885143,-1.042008876800537,-1.7123390636839808,-2.5358572641955774,2.2368950086781005,-1.0280125776873987,0.29564449191093445
1708440434.5904984,-1.040497064590454,-1.713102479974264,-2.5360494295703333,2.235790176982544,-1.028318230305807,0.29545319080352783
1708440434.5925395,-1.0389388799667358,-1.7138368091978968,-2.5362609068499964,2.2347850042530517,-1.0284956137286585,0.29519757628440857
1708440434.5944965,-1.0373502969741821,-1.714607378045553,-2.5364156405078333,2.233700676555298,-1.0287116209613245,0.29497748613357544
1708440434.5964859,-1.0357969999313354,-1.7153698406615199,-2.536623779927389,2.2325758176990966,-1.0289648214923304,0.29480236768722534
1708440434.5985289,-1.0341193675994873,-1.7161404095091761,-2.5368309656726282,2.231426878566406,-1.0291956106769007,0.2945747971534729
1708440434.6005003,-1.0325026512145996,-1.7168857059874476,-2.5370646158801478,2.2303055959888916,-1.0294602552997034,0.2943533957004547
1708440434.6025653,-1.030800700187683,-1.7176844082274378,-2.537299935017721,2.2291619020649414,-1.0296834150897425,0.29420968890190125
1708440434.6044948,-1.0291467905044556,-1.7184797726073207,-2.537480179463522,2.228027268046997,-1.0298731962787073,0.2939363718032837
1708440434.6065116,-1.0273977518081665,-1.7193638286986292,-2.537729088460104,2.226864739055298,-1.0301383177386683,0.29370439052581787
1708440434.6085038,-1.0257234573364258,-1.720123907128805,-2.537948195134298,2.2256521421619873,-1.030386749898092,0.29350948333740234
1708440434.610504,-1.023914098739624,-1.7209702930846156,-2.5381396452533167,2.224498673076294,-1.0306904951678675,0.2932732403278351
1708440434.6125157,-1.022106647491455,-1.7217594585814417,-2.538424317036764,2.2232469755360107,-1.0309456030475062,0.2930549681186676
1708440434.6144946,-1.0203899145126343,-1.7226063213744105,-2.538656775151388,2.2220260339924316,-1.0311716238604944,0.2928439676761627
1708440434.6165276,-1.0185757875442505,-1.7234446010985316,-2.538802687321798,2.2207233148762207,-1.0313904921161097,0.2926614284515381
1708440434.6185331,-1.016743540763855,-1.7243725262083949,-2.539100710545675,2.219417019481323,-1.0316923300372522,0.29236361384391785
1708440434.6205466,-1.0149966478347778,-1.7252003155150355,-2.5392869154559534,2.2181524473377685,-1.0319622198687952,0.29216957092285156
1708440434.622554,-1.013091802597046,-1.7260633907713832,-2.5395522753344935,2.2168261247822265,-1.0322702566729944,0.2919538915157318
1708440434.624521,-1.0112316608428955,-1.7269612751402796,-2.539832655583517,2.2154695230671386,-1.0325458685504358,0.29169344902038574
1708440434.6265101,-1.0093189477920532,-1.7278014622130335,-2.54004413286318,2.2141806322285156,-1.0327642599688929,0.29145845770835876
1708440434.6285012,-1.0074052810668945,-1.7287622890868128,-2.540316645299093,2.212890549296997,-1.0329797903644007,0.2911863625049591
1708440434.63053,-1.005454659461975,-1.7297364674010218,-2.5405405203448694,2.2114805418201904,-1.0332706610309046,0.2909812927246094
1708440434.6325421,-1.0035039186477661,-1.730633398095602,-2.540738646184103,2.210151358241699,-1.03347093263735,0.29076576232910156
1708440434.634533,-1.001526117324829,-1.7316261730589808,-2.541036907826559,2.2087783056446533,-1.0337112585650843,0.29052963852882385
1708440434.6365607,-0.9994726777076721,-1.7325602970519007,-2.5412710348712366,2.2073566156574707,-1.0339282194720667,0.2902693748474121
