Eg3-git/Classifiers/Data Collection/u7/u7abc5_ur3e_joint_states.csv
time,elbow_joint,shoulder_lift_joint,shoulder_pan_joint,wrist_1_joint,wrist_2_joint,wrist_3_joint
1708440459.4226797,-1.1040728092193604,-1.6824118099608363,-2.5268142859088343,2.27974717199292,-1.0175994078265589,0.02419823221862316
1708440459.4246438,-1.1040518283843994,-1.6824199161925257,-2.526839796696798,2.279798670406006,-1.017571274434225,0.02415180206298828
1708440459.4266415,-1.1040488481521606,-1.6824199161925257,-2.5268035570727747,2.279782219524048,-1.017604176198141,0.02410980686545372
1708440459.428615,-1.1040488481521606,-1.682394643823141,-2.52682334581484,2.279822273845337,-1.0175922552691858,0.024147365242242813
1708440459.4306114,-1.1040400266647339,-1.6823841534056605,-2.526835266743795,2.2798032003590087,-1.0176289717303675,0.02414284460246563
1708440459.4326434,-1.104019045829773,-1.6823917828001917,-2.5268307367907923,2.279782219524048,-1.0176332632647913,0.02414284460246563
1708440459.434658,-1.1040563583374023,-1.6824118099608363,-2.526815954838888,2.279782219524048,-1.0175841490374964,0.024160759523510933
1708440459.4366426,-1.1040942668914795,-1.682411333123678,-2.526835266743795,2.279773159618042,-1.0176008383380335,0.024135416373610497
1708440459.4386184,-1.1040698289871216,-1.6823960743346156,-2.526806894932882,2.2797443109699707,-1.0175798575030726,0.024181615561246872
1708440459.440616,-1.1040325164794922,-1.682427545587057,-2.5268381277667444,2.2797698217579345,-1.0175841490374964,0.02415180206298828
1708440459.4426193,-1.1040325164794922,-1.682383199731344,-2.5268307367907923,2.279735251063965,-1.0175922552691858,0.024165194481611252
1708440459.444596,-1.1039907932281494,-1.6824318371214808,-2.526888910924093,2.2797562318989257,-1.0175922552691858,0.024139899760484695
1708440459.446639,-1.1040533781051636,-1.6824118099608363,-2.526839796696798,2.2797397810169677,-1.0176008383380335,0.02417588233947754
1708440459.4486017,-1.1040161848068237,-1.6824685535826625,-2.5268307367907923,2.2797443109699707,-1.0176084677325647,0.024130988866090775
1708440459.4506102,-1.1040250062942505,-1.6824032268919886,-2.526778046284811,2.2797562318989257,-1.017632309590475,0.024114293977618217
1708440459.4526684,-1.1040414571762085,-1.6824318371214808,-2.526827875767843,2.2797562318989257,-1.017604176198141,0.02412773109972477
1708440459.454631,-1.104004144668579,-1.6824232540526332,-2.526811424885885,2.2797605234333496,-1.0175922552691858,0.02412317506968975
1708440459.4566305,-1.1039878129959106,-1.682443758050436,-2.52682334581484,2.2797621923634033,-1.017604176198141,0.02414732798933983
1708440459.458617,-1.104020595550537,-1.6823746166624964,-2.5268142859088343,2.2796997266956787,-1.0176246801959437,0.024135421961545944
1708440459.4606264,-1.10402512550354,-1.682415624658102,-2.526839796696798,2.2797278600880126,-1.017632309590475,0.024144427850842476
1708440459.4626038,-1.1040370464324951,-1.6824490032591761,-2.526839796696798,2.2796639639088134,-1.0176203886615198,0.024180429056286812
1708440459.464658,-1.1040130853652954,-1.6823989353575648,-2.526806894932882,2.2796878057667236,-1.017616097127096,0.02415180206298828
1708440459.466671,-1.1040414571762085,-1.682439466516012,-2.526806894932882,2.2797130781361084,-1.0176528135882776,0.024102380499243736
1708440459.4686117,-1.1040042638778687,-1.6824232540526332,-2.526802364979879,2.279702826137207,-1.0176246801959437,0.024144425988197327
1708440459.4705954,-1.1040116548538208,-1.682411333123678,-2.5268307367907923,2.2796684938618164,-1.017587963734762,0.02413543127477169
1708440459.472729,-1.1040579080581665,-1.6823917828001917,-2.526818815861837,2.27966491758313,-1.017616097127096,0.024160783737897873
1708440459.4746385,-1.104020595550537,-1.6823789081969203,-2.526818815861837,2.279702826137207,-1.0176532904254358,0.024165267124772072
1708440459.476652,-1.1040624380111694,-1.6824232540526332,-2.52682334581484,2.2796575266071777,-1.0176528135882776,0.024090532213449478
1708440459.4786205,-1.1040325164794922,-1.6824070415892542,-2.526872698460714,2.2796410757252197,-1.017604176198141,0.02414441667497158
1708440459.480625,-1.1039751768112183,-1.6823755703368128,-2.526872698460714,2.2796663480946044,-1.0176408926593226,0.024131005629897118
1708440459.4826093,-1.1039378643035889,-1.6824404201903285,-2.526818815861837,2.279686375255249,-1.017628018056051,0.02413097955286503
1708440459.4846442,-1.103996753692627,-1.6824032268919886,-2.526872698460714,2.279690905208252,-1.017632309590475,0.024148931726813316
1708440459.4867458,-1.1040042638778687,-1.6824318371214808,-2.526806894932882,2.2796456056782226,-1.0176366011248987,0.02415180206298828
1708440459.4886181,-1.1039632558822632,-1.6824032268919886,-2.526856247578756,2.27970735609021,-1.0176203886615198,0.024180443957448006
1708440459.490617,-1.1039588451385498,-1.6823989353575648,-2.5268471876727503,2.2796620565601806,-1.0175955931292933,0.02410237304866314
1708440459.4925945,-1.103965163230896,-1.6824032268919886,-2.526835266743795,2.2796730238148193,-1.0176118055926722,0.024097925052046776
1708440459.494618,-1.1040103435516357,-1.6823374233641566,-2.526832405720846,2.279620333308838,-1.0176203886615198,0.024184854701161385
1708440459.4966044,-1.1039297580718994,-1.682387491265768,-2.526818815861837,2.279677315349243,-1.017656151448385,0.02416818216443062
1708440459.4986017,-1.1039724349975586,-1.682443758050436,-2.526811424885885,2.2796410757252197,-1.017632309590475,0.024127721786499023
1708440459.500604,-1.103965163230896,-1.6824318371214808,-2.526844326649801,2.279615803355835,-1.0176528135882776,0.024130988866090775
1708440459.5026252,-1.103981614112854,-1.6824070415892542,-2.526802364979879,2.2795964914509277,-1.0176118055926722,0.0241068284958601
1708440459.5046303,-1.1039481163024902,-1.6824318371214808,-2.526872698460714,2.2796782690235595,-1.017632309590475,0.024132167920470238
1708440459.5066056,-1.1039481163024902,-1.6824761829771937,-2.526827875767843,2.2796456056782226,-1.017628018056051,0.024139881134033203
1708440459.5086203,-1.1039481163024902,-1.6824642620482386,-2.526811424885885,2.2796010214039306,-1.0176528135882776,0.02413543500006199
1708440459.510621,-1.1039389371871948,-1.682394643823141,-2.526818815861837,2.2796663480946044,-1.01764423051943,0.02418486401438713
1708440459.5126042,-1.1039389371871948,-1.6824308834471644,-2.526768986378805,2.2796501356312255,-1.017616097127096,0.024172615259885788
1708440459.5146055,-1.1039316654205322,-1.6824232540526332,-2.526848856602804,2.2796544271656494,-1.0176604429828089,0.024126453325152397
1708440459.5166118,-1.1039615869522095,-1.682411333123678,-2.526802364979879,2.2796217638203125,-1.0176604429828089,0.024193845689296722
1708440459.5186093,-1.1039153337478638,-1.6824480495848597,-2.526773516331808,2.2796410757252197,-1.0176766554461878,0.024114293977618217
1708440459.5206108,-1.1039481163024902,-1.6824308834471644,-2.526785437260763,2.2796217638203125,-1.0176809469806116,0.024148862808942795
1708440459.5226521,-1.1039481163024902,-1.6824642620482386,-2.526848856602804,2.2796053129383544,-1.0176485220538538,0.024156248196959496
1708440459.52466,-1.1039526462554932,-1.6824232540526332,-2.526815954838888,2.2796010214039306,-1.01764423051943,0.02413543500006199
1708440459.5266454,-1.103957176208496,-1.6824599705138148,-2.5268307367907923,2.2795919614979248,-1.0176118055926722,0.024168169125914574
1708440459.5286367,-1.1038655042648315,-1.6824232540526332,-2.526806894932882,2.2796053129383544,-1.0176528135882776,0.024139881134033203
1708440459.530636,-1.1039451360702515,-1.6824852428831996,-2.526806894932882,2.2796425062366943,-1.0176194349872034,0.024177150800824165
1708440459.5326521,-1.103940725326538,-1.6824146709837855,-2.5268517176257532,2.2795888620563964,-1.0176485220538538,0.024156248196959496
1708440459.5346353,-1.1039570569992065,-1.6823936901488246,-2.526799027119772,2.2796010214039306,-1.017656151448385,0.024148862808942795
1708440459.5367005,-1.1038880348205566,-1.682488580743307,-2.5268426577197474,2.2795771795460205,-1.017628018056051,0.024139899760484695
1708440459.538659,-1.1039050817489624,-1.6824642620482386,-2.526827875767843,2.279560013408325,-1.017604176198141,0.024168169125914574
1708440459.540627,-1.103945016860962,-1.682467599908346,-2.526806894932882,2.279623432750366,-1.0176485220538538,0.024118704721331596
1708440459.5425985,-1.1038743257522583,-1.6824337444701136,-2.526789967213766,2.279618664378784,-1.0175955931292933,0.02410237304866314
1708440459.5446477,-1.1038788557052612,-1.682528635064596,-2.5268517176257532,2.2795979219624023,-1.0175913015948694,0.024118740111589432
1708440459.5466115,-1.1038880348205566,-1.6824799976744593,-2.526835266743795,2.2796024519154052,-1.0176528135882776,0.024156248196959496
1708440459.5486476,-1.1038761138916016,-1.6824342213072718,-2.526811424885885,2.2795771795460205,-1.0176647345172327,0.024148862808942795
1708440459.550616,-1.1038788557052612,-1.6825601063170375,-2.526853386555807,2.2795814710804443,-1.0176451841937464,0.024172615259885788
1708440459.5526364,-1.1038833856582642,-1.682474275628561,-2.526794497166769,2.279564543361328,-1.0176528135882776,0.02415180206298828
1708440459.5546036,-1.1038833856582642,-1.6825558147826136,-2.526848856602804,2.279611511821411,-1.017628018056051,0.024156248196959496
1708440459.5566077,-1.1039378643035889,-1.6825181446471156,-2.526832405720846,2.279618664378784,-1.0176237265216272,0.024114293977618217
1708440459.5586383,-1.1039259433746338,-1.6824900112547816,-2.526832405720846,2.27959053098645,-1.0176485220538538,0.024139881134033203
1708440459.560601,-1.1038717031478882,-1.682547231713766,-2.526811424885885,2.279595060939453,-1.0176647345172327,0.024156248196959496
1708440459.5626483,-1.1038596630096436,-1.6825133762755335,-2.5267825762378138,2.279606981868408,-1.0176690260516565,0.024130988866090775
1708440459.56466,-1.1038460731506348,-1.6825386486449183,-2.526848856602804,2.2795392709919433,-1.0176075140582483,0.024159183725714684
1708440459.5666602,-1.1038552522659302,-1.682531019250387,-2.52682334581484,2.279519720668457,-1.0176485220538538,0.024172615259885788
1708440459.5686548,-1.1039215326309204,-1.6825429401793421,-2.526815954838888,2.279569073314331,-1.0176032225238245,0.024172639474272728
1708440459.5706527,-1.1038788557052612,-1.6825667820372523,-2.526811424885885,2.279595060939453,-1.0176194349872034,0.024159178137779236
1708440459.57267,-1.10390043258667,-1.682629247704977,-2.526806894932882,2.279566212291382,-1.0176356474505823,0.024172615259885788
1708440459.5746436,-1.1039015054702759,-1.6825877628722132,-2.5268035570727747,2.279566212291382,-1.0176971594439905,0.024118740111589432
1708440459.5766225,-1.1038715839385986,-1.682603498498434,-2.526794497166769,2.279552622432373,-1.017672363911764,0.024130988866090775
1708440459.57864,-1.1038460731506348,-1.6825429401793421,-2.526827875767843,2.279564543361328,-1.0176399389850062,0.024165229871869087
1708440459.5806522,-1.1038761138916016,-1.6825877628722132,-2.526848856602804,2.279573603267334,-1.017632309590475,0.02416074275970459
1708440459.5826874,-1.1038341522216797,-1.6825553379454554,-2.526806894932882,2.279561682338379,-1.0176809469806116,0.02417588233947754
1708440459.5846655,-1.1038880348205566,-1.6825386486449183,-2.526820484791891,2.2795750337788085,-1.0176485220538538,0.024147342890501022
1708440459.5866385,-1.1039140224456787,-1.6825343571104945,-2.526799027119772,2.279540939921997,-1.0176075140582483,0.024172615259885788
1708440459.5886557,-1.103896975517273,-1.6825467548766078,-2.526841465626852,2.279595060939453,-1.017632309590475,0.02415178343653679
1708440459.5906315,-1.1038806438446045,-1.6825748882689417,-2.526820484791891,2.279599590892456,-1.0176151434527796,0.02415626123547554
1708440459.5926843,-1.1038925647735596,-1.682563921014303,-2.5268142859088343,2.279569073314331,-1.017632309590475,0.024147342890501022
1708440459.5946414,-1.1038477420806885,-1.6825467548766078,-2.526815954838888,2.279557152385376,-1.0176118055926722,0.024147355929017067
1708440459.596647,-1.1038447618484497,-1.6825429401793421,-2.526789967213766,2.2795378404804687,-1.0176604429828089,0.024114293977618217
1708440459.5986025,-1.1038522720336914,-1.6825581989684046,-2.526827875767843,2.279545231456421,-1.0176151434527796,0.02418934740126133
1708440459.6005995,-1.1038060188293457,-1.6825877628722132,-2.526829544697897,2.2795378404804687,-1.017672363911764,0.02412320487201214
1708440459.60265,-1.1037942171096802,-1.682603498498434,-2.526794497166769,2.279545231456421,-1.0176680723773401,0.024118730798363686
1708440459.60462,-1.1038239002227783,-1.6825877628722132,-2.526811424885885,2.279604120845459,-1.0176637808429163,0.024160783737897873
1708440459.606679,-1.1038522720336914,-1.6825791798033656,-2.5267825762378138,2.279475374812744,-1.0176118055926722,0.02416817843914032
1708440459.6086023,-1.1038165092468262,-1.682563921014303,-2.526778046284811,2.2795542913624267,-1.0176108519183558,0.024180427193641663
1708440459.6106021,-1.103825569152832,-1.6825510464110316,-2.526794497166769,2.2795585828968505,-1.0176070372210901,0.02413543500006199
1708440459.612627,-1.103795051574707,-1.6825429401793421,-2.52682334581484,2.279496117229126,-1.0176604429828089,0.02413097955286503
1708440459.6145992,-1.1037757396697998,-1.6826244793333949,-2.526865307484762,2.2795259195515136,-1.017616097127096,0.02416374906897545
1708440459.6166432,-1.1037994623184204,-1.682563921014303,-2.5268517176257532,2.279549761409424,-1.0176366011248987,0.024213189259171486
1708440459.61862,-1.1037876605987549,-1.6825553379454554,-2.526839796696798,2.2794760900684814,-1.017616097127096,0.024172615259885788
1708440459.6206274,-1.1037757396697998,-1.6825710735716761,-2.526785437260763,2.279484196300171,-1.0176647345172327,0.024114301428198814
1708440459.6226544,-1.1037994623184204,-1.6825019321837367,-2.526832405720846,2.2795676428028564,-1.0176518599139612,0.02413102053105831
1708440459.6246939,-1.103783130645752,-1.6825753651061,-2.5268142859088343,2.2795304495045166,-1.017604176198141,0.02412647008895874
1708440459.6266348,-1.1037713289260864,-1.682563921014303,-2.526802364979879,2.2794975477406005,-1.0176485220538538,0.02418934740126133
1708440459.6286988,-1.1038165092468262,-1.6825224361815394,-2.526789967213766,2.2795585828968505,-1.017628018056051,0.024151811376214027
1708440459.6306245,-1.1038328409194946,-1.6825596294798792,-2.526789967213766,2.2794641691395263,-1.0176647345172327,0.024114195257425308
1708440459.6326568,-1.1038583517074585,-1.6825596294798792,-2.526789967213766,2.2795185285755615,-1.0176203886615198,0.024180438369512558
1708440459.6346323,-1.103804111480713,-1.6825710735716761,-2.526806894932882,2.2795466619678955,-1.0176485220538538,0.024184854701161385
1708440459.6366324,-1.103825569152832,-1.6825267277159632,-2.526815954838888,2.2794975477406005,-1.0176366011248987,0.02412320114672184
1708440459.6386857,-1.1038165092468262,-1.6825667820372523,-2.526811424885885,2.2795139986225585,-1.0176356474505823,0.02418486401438713
1708440459.640665,-1.1037877798080444,-1.6825710735716761,-2.526818815861837,2.2795094686695556,-1.0176032225238245,0.024139881134033203
1708440459.6426566,-1.103837490081787,-1.68259920696401,-2.52682334581484,2.2794686990925292,-1.01764423051943,0.024156248196959496
1708440459.6445944,-1.1038211584091187,-1.6825877628722132,-2.526844326649801,2.2794932562061767,-1.01764423051943,0.024205660447478294
1708440459.646618,-1.1038284301757812,-1.6825834713377894,-2.526799027119772,2.2794760900684814,-1.0176962057696741,0.024130988866090775
1708440459.6485999,-1.1038240194320679,-1.6826077900328578,-2.526815954838888,2.2795066076466064,-1.0176766554461878,0.024193894118070602
1708440459.6505992,-1.103837490081787,-1.6825949154295863,-2.526806894932882,2.279488726253174,-1.0176766554461878,0.02413543500006199
1708440459.6526136,-1.103778600692749,-1.6825429401793421,-2.526745144520895,2.2794641691395263,-1.0176237265216272,0.02416372299194336
1708440459.6545973,-1.103804111480713,-1.6825667820372523,-2.526768986378805,2.2795020776936035,-1.0176194349872034,0.02414282038807869
1708440459.6566648,-1.103795051574707,-1.6825710735716761,-2.526799027119772,2.2795020776936035,-1.0176399389850062,0.02415623888373375
1708440459.6585913,-1.1038086414337158,-1.6825906238951625,-2.526811424885885,2.2795230585285644,-1.0176313559161585,0.024159178137779236
1708440459.6606264,-1.1038284301757812,-1.6825343571104945,-2.526827875767843,2.279484196300171,-1.017684284840719,0.024168169125914574
1708440459.662619,-1.1037830114364624,-1.6825467548766078,-2.5267871061908167,2.2794553476520996,-1.0176118055926722,0.024114293977618217
1708440459.6646478,-1.1037859916687012,-1.6825181446471156,-2.52682334581484,2.2795020776936035,-1.0176766554461878,0.024159187451004982
1708440459.666619,-1.103790521621704,-1.6825510464110316,-2.526820484791891,2.2794975477406005,-1.0176118055926722,0.02417588233947754
1708440459.6686213,-1.1038211584091187,-1.6825224361815394,-2.526789967213766,2.2795585828968505,-1.017628018056051,0.02416372299194336
1708440459.6705804,-1.1037877798080444,-1.6825667820372523,-2.526827875767843,2.2795230585285644,-1.0176151434527796,0.02416374161839485
1708440459.6726098,-1.1038085222244263,-1.6825510464110316,-2.526820484791891,2.279473229045532,-1.0176528135882776,0.024139881134033203
1708440459.6746545,-1.1037713289260864,-1.6825267277159632,-2.526845995579855,2.2795395094105224,-1.01764423051943,0.02415180206298828
1708440459.6766381,-1.1038284301757812,-1.6825753651061,-2.5268035570727747,2.2794570165821533,-1.0176895300494593,0.024133926257491112
1708440459.6786401,-1.103804111480713,-1.682596345941061,-2.526811424885885,2.2794553476520996,-1.0176237265216272,0.024151811376214027
1708440459.6806433,-1.1038628816604614,-1.6825710735716761,-2.526778046284811,2.279505177135132,-1.0176399389850062,0.024171436205506325
1708440459.6826265,-1.1038085222244263,-1.6825877628722132,-2.526811424885885,2.2795230585285644,-1.0176194349872034,0.02414282038807869
1708440459.6846101,-1.103825569152832,-1.682531019250387,-2.526794497166769,2.2794851499744873,-1.0176237265216272,0.024180417880415916
1708440459.6866088,-1.1038174629211426,-1.682547231713766,-2.526848856602804,2.2795139986225585,-1.0176151434527796,0.024142811074852943
1708440459.6886775,-1.1037803888320923,-1.682592054406637,-2.526789967213766,2.2795139986225585,-1.0175913015948694,0.024159187451004982
1708440459.6906471,-1.1038075685501099,-1.6825553379454554,-2.526778046284811,2.2794641691395263,-1.0176604429828089,0.02417711541056633
1708440459.6926095,-1.10384202003479,-1.6825877628722132,-2.526815954838888,2.2795304495045166,-1.0176885763751429,0.024109842255711555
1708440459.6946344,-1.103825569152832,-1.6825252972044886,-2.5267871061908167,2.279488726253174,-1.0176809469806116,0.02420417033135891
1708440459.6965923,-1.1038086414337158,-1.6825510464110316,-2.526839796696798,2.2794975477406005,-1.0176518599139612,0.024163687601685524
1708440459.6986022,-1.1038403511047363,-1.6825429401793421,-2.526806894932882,2.2795511919208984,-1.01764423051943,0.024130988866090775
1708440459.7006085,-1.1038120985031128,-1.6825224361815394,-2.526845995579855,2.2795139986225585,-1.0176070372210901,0.024159181863069534
1708440459.7026172,-1.1037876605987549,-1.6825710735716761,-2.526820484791891,2.2794932562061767,-1.0176399389850062,0.024162551388144493
1708440459.7046006,-1.1037877798080444,-1.6825839481749476,-2.526827875767843,2.2795066076466064,-1.0176237265216272,0.024184854701161385
1708440459.7065976,-1.1038120985031128,-1.6825753651061,-2.526815954838888,2.27948967992749,-1.0176470915423792,0.024131029844284058
1708440459.7085965,-1.103819489479065,-1.6826244793333949,-2.52682334581484,2.2795395094105224,-1.017616097127096,0.02416372299194336
1708440459.7106209,-1.1038120985031128,-1.6825753651061,-2.526789967213766,2.279488726253174,-1.0176518599139612,0.02418931946158409
1708440459.7126005,-1.103754997253418,-1.6825224361815394,-2.526853386555807,2.2795466619678955,-1.0175908247577112,0.024138428270816803
1708440459.714644,-1.1038165092468262,-1.6825429401793421,-2.5267825762378138,2.2794641691395263,-1.0176485220538538,0.02415180206298828
1708440459.716631,-1.1038075685501099,-1.6825553379454554,-2.526811424885885,2.2794357973286132,-1.0176366011248987,0.024147355929017067
1708440459.7185938,-1.1037859916687012,-1.6825553379454554,-2.526848856602804,2.2794806200214843,-1.0176237265216272,0.024138418957591057
1708440459.7206,-1.103858470916748,-1.6825396023192347,-2.526802364979879,2.2795466619678955,-1.0175994078265589,0.024122072383761406
1708440459.7226002,-1.1037859916687012,-1.6825596294798792,-2.526811424885885,2.27948967992749,-1.0176604429828089,0.024150267243385315
1708440459.724738,-1.1038119792938232,-1.6825510464110316,-2.52682334581484,2.2795066076466064,-1.0176695028888147,0.024131011217832565
1708440459.7266192,-1.10373854637146,-1.6826006374754847,-2.526802364979879,2.2794975477406005,-1.0176485220538538,0.02416374906897545
1708440459.7286725,-1.1038403511047363,-1.6825796566405238,-2.526778046284811,2.2795557218739013,-1.017632309590475,0.024192247539758682
1708440459.7306142,-1.1037949323654175,-1.682535310784811,-2.5267825762378138,2.2795139986225585,-1.017616097127096,0.024187803268432617
1708440459.7326543,-1.103804111480713,-1.6825596294798792,-2.526820484791891,2.2794975477406005,-1.0176237265216272,0.02413387969136238
1708440459.7346337,-1.1038328409194946,-1.6825553379454554,-2.526806894932882,2.2795259195515136,-1.0176604429828089,0.024172639474272728
1708440459.7366297,-1.1038211584091187,-1.6825224361815394,-2.526794497166769,2.2795542913624267,-1.0176246801959437,0.02418333850800991
1708440459.7386904,-1.103790521621704,-1.6825596294798792,-2.526778046284811,2.2795378404804687,-1.017632309590475,0.024130960926413536
1708440459.740633,-1.1038403511047363,-1.6825796566405238,-2.526773516331808,2.2795511919208984,-1.0176070372210901,0.02416372299194336
1708440459.7426016,-1.1038119792938232,-1.682568212548727,-2.526799027119772,2.2795721727558593,-1.017611328755514,0.024105319753289223
1708440459.744594,-1.1038612127304077,-1.6825267277159632,-2.526794497166769,2.279524489040039,-1.0176118055926722,0.024201205000281334
1708440459.7465928,-1.1037949323654175,-1.6825558147826136,-2.526825014744894,2.2795585828968505,-1.0176027456866663,0.024201294407248497
1708440459.7485976,-1.103814959526062,-1.6825181446471156,-2.526841465626852,2.2795395094105224,-1.0176027456866663,0.024150295183062553
1708440459.7505906,-1.1038568019866943,-1.6825429401793421,-2.526829544697897,2.2795676428028564,-1.017611328755514,0.02420417033135891
1708440459.7525854,-1.1038358211517334,-1.6825429401793421,-2.5268035570727747,2.2795213895985107,-1.017632309590475,0.02417142316699028
1708440459.7545984,-1.1038641929626465,-1.682596345941061,-2.526778046284811,2.279488726253174,-1.0176532904254358,0.02413840964436531
1708440459.7565913,-1.1038761138916016,-1.6825710735716761,-2.5268035570727747,2.279517098064087,-1.017632309590475,0.024175873026251793
1708440459.758584,-1.1038731336593628,-1.6825596294798792,-2.526827875767843,2.2795795637318115,-1.017632309590475,0.02416818216443062
1708440459.7606118,-1.1038806438446045,-1.6825553379454554,-2.526778046284811,2.2795304495045166,-1.0176413694964808,0.02415790967643261
1708440459.7626011,-1.10383141040802,-1.6825429401793421,-2.526815954838888,2.2794930177875976,-1.0175922552691858,0.024204134941101074
1708440459.7646632,-1.10383141040802,-1.68259920696401,-2.5267871061908167,2.279529018993042,-1.0176084677325647,0.024193810299038887
1708440459.7666314,-1.103843331336975,-1.6826006374754847,-2.526740614567892,2.2795631128498535,-1.0175994078265589,0.024159161373972893
1708440459.7686245,-1.1038761138916016,-1.682519098321432,-2.526853386555807,2.279505177135132,-1.0176366011248987,0.02414282038807869
1708440459.7706163,-1.103843331336975,-1.6825062237181605,-2.526794497166769,2.2795705038258056,-1.0175922552691858,0.024147365242242813
1708440459.7726414,-1.1039259433746338,-1.6825429401793421,-2.526832405720846,2.279578133220337,-1.017604176198141,0.024180429056286812
1708440459.7746716,-1.1038625240325928,-1.6825553379454554,-2.5267871061908167,2.2795213895985107,-1.0176084677325647,0.024130929261446
1708440459.7766511,-1.1038833856582642,-1.6825839481749476,-2.5267825762378138,2.2795333105274658,-1.01758319536318,0.024204183369874954
1708440459.7786438,-1.1038669347763062,-1.6824976406493128,-2.5267825762378138,2.279566212291382,-1.0176127592669886,0.02413398027420044
1708440459.780789,-1.1038717031478882,-1.682502885858053,-2.526794497166769,2.279540939921997,-1.0175965468036097,0.02416372299194336
1708440459.782652,-1.1039378643035889,-1.6825233898558558,-2.5267871061908167,2.279496117229126,-1.0176203886615198,0.024184899404644966
1708440459.7846181,-1.1039215326309204,-1.682531019250387,-2.526820484791891,2.2795631128498535,-1.017604176198141,0.02415178343653679
1708440459.7866323,-1.1038914918899536,-1.6825515232481898,-2.5267751852618616,2.279512568111084,-1.0175593535052698,0.024229520931839943
1708440459.7886286,-1.103916883468628,-1.6825014553465785,-2.526820484791891,2.279578133220337,-1.017604176198141,0.024138346314430237
1708440459.7906094,-1.1039198637008667,-1.6825553379454554,-2.5267751852618616,2.279552622432373,-1.0175874868976038,0.02417588233947754
1708440459.792668,-1.1039214134216309,-1.6825596294798792,-2.526836935673849,2.279635115260742,-1.0176084677325647,0.02419678494334221
1708440459.7946143,-1.1038789749145508,-1.682507177392477,-2.5267661253558558,2.279615803355835,-1.017616097127096,0.02417588233947754
1708440459.7966726,-1.1039378643035889,-1.6825515232481898,-2.5268035570727747,2.279573603267334,-1.0176294485675257,0.024187803268432617
1708440459.79864,-1.1039153337478638,-1.6825796566405238,-2.5267496744738978,2.279573603267334,-1.0175965468036097,0.024224966764450073
1708440459.800639,-1.103865385055542,-1.6825558147826136,-2.5267961660968226,2.2795824247547607,-1.0176084677325647,0.024147355929017067
1708440459.8025784,-1.1039153337478638,-1.682465215722555,-2.52675706544985,2.2795933920093994,-1.0175922552691858,0.024159187451004982
1708440459.8046062,-1.1039153337478638,-1.682563921014303,-2.5268080870257776,2.27959053098645,-1.0176084677325647,0.024201294407248497
1708440459.8066335,-1.1039481163024902,-1.6824819050230921,-2.526761595402853,2.2796217638203125,-1.0176127592669886,0.024133944883942604
1708440459.808614,-1.1039153337478638,-1.6825105152525843,-2.526832405720846,2.2796382147022705,-1.0175750891314905,0.024187803268432617
1708440459.8105857,-1.1039481163024902,-1.682535310784811,-2.5267871061908167,2.2796663480946044,-1.0176008383380335,0.02419223263859749
1708440459.8126097,-1.103965163230896,-1.6825438938536585,-2.5267377535449427,2.2797161775776367,-1.0175874868976038,0.02417588233947754
1708440459.814582,-1.1039434671401978,-1.682519098321432,-2.526832405720846,2.279719277019165,-1.0175922552691858,0.02415475808084011
1708440459.8165991,-1.103925347328186,-1.682547231713766,-2.5267961660968226,2.2797176080891113,-1.0175922552691858,0.024154741317033768
1708440459.8185878,-1.1039469242095947,-1.6825553379454554,-2.526806894932882,2.279693766231201,-1.0175727049456995,0.02414282038807869
1708440459.8206277,-1.1040178537368774,-1.682563921014303,-2.526761595402853,2.279726429576538,-1.0175378958331507,0.024220537394285202
1708440459.8226476,-1.1039468050003052,-1.682563921014303,-2.526820484791891,2.279639406795166,-1.0175707975970667,0.024147355929017067
1708440459.8246255,-1.1039751768112183,-1.682490964929098,-2.5267587343799036,2.2796529966541748,-1.0176127592669886,0.02414282038807869
1708440459.8266368,-1.1039680242538452,-1.6825396023192347,-2.5267661253558558,2.27966491758313,-1.0176218191729944,0.024183357134461403
1708440459.8286173,-1.1039797067642212,-1.682563921014303,-2.5267825762378138,2.279651327724121,-1.01758319536318,0.02417588233947754
1708440459.8306286,-1.1040014028549194,-1.6825596294798792,-2.5267706553088587,2.279726429576538,-1.0175507704364222,0.024134010076522827
1708440459.832657,-1.104013204574585,-1.6825515232481898,-2.5268171469317835,2.279643936748169,-1.017555061970846,0.024242006242275238
1708440459.8346088,-1.10402512550354,-1.682547231713766,-2.5267542044269007,2.279726429576538,-1.0176218191729944,0.02420417033135891
1708440459.836608,-1.1040579080581665,-1.6825601063170375,-2.526811424885885,2.279698296184204,-1.0175798575030726,0.02417147345840931
1708440459.8386068,-1.1039952039718628,-1.6825438938536585,-2.5267542044269007,2.279730959529541,-1.0176261107074183,0.02410527504980564
1708440459.840631,-1.1040130853652954,-1.6825396023192347,-2.526778046284811,2.2796849447437744,-1.0175593535052698,0.024217568337917328
1708440459.842685,-1.1040518283843994,-1.6825105152525843,-2.5267255941974085,2.2796923357197265,-1.0175965468036097,0.024199724197387695
1708440459.8446429,-1.104074239730835,-1.6825515232481898,-2.5267210642444056,2.2796804147907714,-1.0175769964801233,0.02415027655661106
1708440459.8466492,-1.1040325164794922,-1.682547231713766,-2.5267797152148646,2.279705687160156,-1.0175593535052698,0.024138374254107475
1708440459.8486116,-1.1039997339248657,-1.6825429401793421,-2.5267422834979456,2.2796849447437744,-1.017597500477926,0.02418486401438713
1708440459.8506212,-1.1040281057357788,-1.6825062237181605,-2.5267677942859095,2.2796878057667236,-1.017552677785055,0.024201231077313423
1708440459.8526459,-1.1040281057357788,-1.6825276813902796,-2.5267091433154505,2.2797249990650634,-1.0174816290484827,0.024180414155125618
1708440459.8546107,-1.104004144668579,-1.68255676845693,-2.5267422834979456,2.2797340589710693,-1.0175440947162073,0.02416372299194336
1708440459.8566294,-1.1040533781051636,-1.6825643978514613,-2.5267513434039515,2.279705687160156,-1.0175154844867151,0.024187803268432617
1708440459.8586037,-1.1040279865264893,-1.682535310784811,-2.5267136732684534,2.2797340589710693,-1.01750356355776,0.02416699007153511
1708440459.860606,-1.1040234565734863,-1.6825601063170375,-2.5267391840564173,2.2797295290180664,-1.017557446156637,0.024187803268432617
1708440459.8626394,-1.1040608882904053,-1.6825114689269007,-2.526727263127462,2.2797295290180664,-1.017557446156637,0.024151872843503952
1708440459.864625,-1.1040898561477661,-1.6825157604613246,-2.526689592991964,2.2797958093830566,-1.0175045172320765,0.024154750630259514
1708440459.866653,-1.10401451587677,-1.6824952564635218,-2.52665359178652,2.2797326284595947,-1.0175202528582972,0.024131005629897118
1708440459.868612,-1.104051947593689,-1.6825319729247035,-2.5266581217395228,2.2797896105,-1.017486874257223,0.024180417880415916
1708440459.8706038,-1.1040925979614258,-1.682502885858053,-2.5266671816455286,2.279794140453003,-1.0175336042987269,0.024163704365491867
1708440459.8726478,-1.1040518283843994,-1.6825648746886195,-2.5266838709460657,2.279806061381958,-1.0175378958331507,0.024180417880415916
1708440459.8746495,-1.1040762662887573,-1.6824828586974085,-2.5266507307635706,2.279846115703247,-1.0175483862506312,0.024163758382201195
1708440459.8766477,-1.1040716171264648,-1.6825157604613246,-2.5266552607165735,2.2798327642628173,-1.0175727049456995,0.024130981415510178
1708440459.8786452,-1.1041209697723389,-1.6824995479979457,-2.5267258326159876,2.279829903239868,-1.0175727049456995,0.02422494813799858
1708440459.8806195,-1.1040717363357544,-1.6824671230711878,-2.5266221205340784,2.2798990446278076,-1.0175769964801233,0.024201205000281334
1708440459.8826513,-1.104111909866333,-1.682446142236227,-2.526619259511129,2.2798706728168945,-1.0175350348102015,0.02409791760146618
1708440459.8846223,-1.1041194200515747,-1.6824995479979457,-2.526652161275045,2.2798945146748046,-1.0175512472735804,0.0241968035697937
1708440459.8866432,-1.1041208505630493,-1.6824265919127406,-2.5266431013690394,2.279864712352417,-1.0176056067096155,0.02422207221388817
1708440459.8886375,-1.104140281677246,-1.6823903522887171,-2.5265937487231653,2.2798871236988525,-1.0175560156451624,0.02418488822877407
1708440459.8906145,-1.1041595935821533,-1.6824070415892542,-2.5266340414630335,2.279880924815796,-1.0175560156451624,0.024180429056286812
1708440459.8926363,-1.1041313409805298,-1.6823789081969203,-2.526619259511129,2.2798735338398437,-1.0175231138812464,0.024138381704688072
1708440459.894612,-1.1041641235351562,-1.6824032268919886,-2.5266688505755823,2.2799152570911865,-1.017590347920553,0.024192262440919876
1708440459.89663,-1.104144811630249,-1.682411333123678,-2.5266717115985315,2.279852791423462,-1.0175469557391565,0.024156248196959496
1708440459.8986123,-1.1041594743728638,-1.6823798618712367,-2.5266385714160364,2.2798072534748535,-1.0175440947162073,0.024184899404644966
1708440459.9006097,-1.1041855812072754,-1.6823841534056605,-2.5266850630389612,2.2798780637928466,-1.0175393263446253,0.024213142693042755
1708440459.9026253,-1.1041685342788696,-1.6823555431761683,-2.526619259511129,2.2799061971851806,-1.0175069014178675,0.02418483980000019
1708440459.90461,-1.1041386127471924,-1.6823231182494105,-2.5266552607165735,2.279872103328369,-1.0175202528582972,0.024180414155125618
1708440459.9066448,-1.104181170463562,-1.6823765240111292,-2.5266717115985315,2.2799107271381835,-1.0175707975970667,0.02413538098335266
1708440459.9086478,-1.1041686534881592,-1.6823069057860316,-2.5266552607165735,2.279897375697754,-1.0175002256976526,0.024187803268432617
1708440459.910622,-1.1041357517242432,-1.682324071923727,-2.5266221205340784,2.279897375697754,-1.017508331929342,0.02418333664536476
1708440459.9126592,-1.1041765213012695,-1.6822992763915003,-2.5266340414630335,2.2798899847218017,-1.017508331929342,0.024117499589920044
1708440459.914618,-1.1041313409805298,-1.6823035679259242,-2.5266597906695765,2.279900475139282,-1.0175169149981897,0.024154717102646828
1708440459.916721,-1.104181170463562,-1.6822840176024378,-2.5266597906695765,2.279864712352417,-1.017545525227682,0.024180427193641663
1708440459.9186192,-1.1041765213012695,-1.6822673283019007,-2.526679340993063,2.279880924815796,-1.0175288359271448,0.024168217554688454
1708440459.920639,-1.1041686534881592,-1.6823250255980433,-2.52667481104006,2.279880924815796,-1.017524544392721,0.02414577268064022
1708440459.9226236,-1.1041641235351562,-1.6822339497008265,-2.5266581217395228,2.2798899847218017,-1.0175407568561,0.024138346314430237
1708440459.9246843,-1.1041549444198608,-1.6822601757445277,-2.5266130606280726,2.279876633281372,-1.0175154844867151,0.024184882640838623
1708440459.9266407,-1.104214072227478,-1.6823002300658167,-2.5266295115100306,2.2799226480671386,-1.017552677785055,0.024138327687978745
1708440459.9286647,-1.1041795015335083,-1.6822644672789515,-2.5266221205340784,2.279897375697754,-1.0175603071795862,0.024154717102646828
1708440459.9306502,-1.1041884422302246,-1.6822883091368617,-2.5266717115985315,2.2799300390430908,-1.017573658620016,0.02416372299194336
1708440459.9326158,-1.1041594743728638,-1.6822434864439906,-2.5266884008990687,2.2798959451862792,-1.017536465321676,0.0241968035697937
1708440459.934636,-1.1042077541351318,-1.6822716198363246,-2.5266884008990687,2.279916687602661,-1.017545525227682,0.02418486401438713
1708440459.9366565,-1.1042168140411377,-1.682263036767477,-2.5266838709460657,2.279904766673706,-1.0174959341632288,0.02414735220372677
1708440459.9386601,-1.1042331457138062,-1.682263036767477,-2.5266884008990687,2.279900475139282,-1.0175336042987269,0.024181682616472244
1708440459.9406438,-1.1041839122772217,-1.6822883091368617,-2.5267332235919397,2.2799240785786132,-1.0175040403949183,0.0241968035697937
1708440459.9426286,-1.1042242050170898,-1.6822926006712855,-2.5266626516925257,2.279958410854004,-1.017508331929342,0.024142760783433914
1708440459.944625,-1.1042650938034058,-1.6822387180724085,-2.5267048517810267,2.2799710470386962,-1.0175045172320765,0.02414735220372677
1708440459.946633,-1.104236125946045,-1.6822473011412562,-2.5266416708575647,2.279892845744751,-1.0175541082965296,0.02412642538547516
1708440459.9486053,-1.1042344570159912,-1.6822558842101039,-2.5266507307635706,2.279892845744751,-1.0175002256976526,0.024175917729735374
1708440459.9505987,-1.1042650938034058,-1.6822601757445277,-2.5266671816455286,2.2799076276966552,-1.0175288359271448,0.024201223626732826
1708440459.9526334,-1.1042859554290771,-1.6823045216002406,-2.526695791875021,2.2799710470386962,-1.017545525227682,0.024114256724715233
1708440459.9546232,-1.1042433977127075,-1.6822840176024378,-2.5267046133624476,2.2799710470386962,-1.017524544392721,0.024189310148358345
1708440459.9566143,-1.104252576828003,-1.682263036767477,-2.526637140904562,2.2799693781086425,-1.017536465321676,0.024163687601685524
1708440459.9586282,-1.1042768955230713,-1.6822840176024378,-2.526679340993063,2.279975576991699,-1.017524544392721,0.024205651134252548
1708440459.9606187,-1.1042433977127075,-1.682263036767477,-2.5266717115985315,2.2799858289906005,-1.0175288359271448,0.024126453325152397
1708440459.962628,-1.104248046875,-1.6822558842101039,-2.5266597906695765,2.279949589366577,-1.0175407568561,0.024163704365491867
1708440459.9646175,-1.1042888164520264,-1.6822716198363246,-2.5265849272357386,2.2799405294605712,-1.0175321737872522,0.024144383147358894
1708440459.9666688,-1.1043261289596558,-1.6822673283019007,-2.5266507307635706,2.2799359995075683,-1.0175321737872522,0.02414282038807869
1708440459.9686568,-1.10431706905365,-1.6822673283019007,-2.5267003218280237,2.2799739080616455,-1.0175069014178675,0.02418486401438713
1708440459.9706678,-1.1042932271957397,-1.6823035679259242,-2.5266597906695765,2.279939575786255,-1.0175321737872522,0.024156248196959496
1708440459.9727128,-1.104251503944397,-1.6823111973204554,-2.5266643206225794,2.2799812990375976,-1.017536465321676,0.024097850546240807
1708440459.974697,-1.1042604446411133,-1.682279726068014,-2.5266733805285853,2.2799486356922607,-1.0175560156451624,0.0242057703435421
1708440459.9766622,-1.1043379306793213,-1.682263036767477,-2.5266507307635706,2.2800213533588867,-1.0175350348102015,0.024100828915834427
1708440459.978641,-1.1042753458023071,-1.682258745233053,-2.5266884008990687,2.2800051408955078,-1.0175769964801233,0.024077022448182106
1708440459.9806352,-1.1042888164520264,-1.6822840176024378,-2.5266507307635706,2.2799605566212158,-1.0175817648517054,0.024154741317033768
1708440459.982647,-1.104312539100647,-1.682295938531393,-2.5266266504870813,2.2800468641468505,-1.017536465321676,0.024156248196959496
1708440459.9846566,-1.1043200492858887,-1.6822601757445277,-2.5266476313220423,2.2800258833118896,-1.017557446156637,0.024118740111589432
1708440459.9866745,-1.1043052673339844,-1.6822883091368617,-2.5266431013690394,2.2800304132648925,-1.0175202528582972,0.02416967786848545
1708440459.9886918,-1.104328989982605,-1.682263036767477,-2.5267511049853724,2.280075712794922,-1.0175274054156702,0.02414441667497158
1708440459.990694,-1.1042888164520264,-1.6823002300658167,-2.526658360158102,2.2800258833118896,-1.017557446156637,0.02410237304866314
1708440459.992665,-1.104263424873352,-1.682258745233053,-2.5266671816455286,2.28005497037854,-1.0175407568561,0.024118740111589432
1708440459.9946492,-1.1042753458023071,-1.6822759113707484,-2.5266671816455286,2.279956026668213,-1.017486874257223,0.024139881134033203
1708440459.996635,-1.1042753458023071,-1.6822716198363246,-2.526670281087057,2.2799886900135498,-1.0175321737872522,0.024180417880415916
1708440459.9986591,-1.1043200492858887,-1.6822883091368617,-2.5266552607165735,2.28001253187146,-1.0175154844867151,0.024081557989120483
1708440460.0006757,-1.1042797565460205,-1.68225159267568,-2.5267213026629847,2.2800258833118896,-1.017486874257223,0.024127721786499023
1708440460.0026295,-1.1043126583099365,-1.6823088131346644,-2.526686731969015,2.2800773817249755,-1.0175407568561,0.024097878485918045
1708440460.0046413,-1.1043572425842285,-1.682291646996969,-2.526686731969015,2.2800051408955078,-1.0175336042987269,0.024156248196959496
1708440460.006615,-1.1043453216552734,-1.6822430096068324,-2.526686731969015,2.2799977499195556,-1.0175407568561,0.024118712171912193
1708440460.0086458,-1.1042991876602173,-1.6823402843871058,-2.526712242756979,2.2800637918659667,-1.0175169149981897,0.02414444088935852
1708440460.0106359,-1.104318380355835,-1.6823002300658167,-2.5267003218280237,2.280017061824463,-1.0175045172320765,0.02418486401438713
1708440460.0126565,-1.1043200492858887,-1.6822663746275843,-2.526649061833517,2.280033512706421,-1.01750356355776,0.02416961081326008
1708440460.014615,-1.1043773889541626,-1.682295938531393,-2.526715103779928,2.28001253187146,-1.0175169149981897,0.024081531912088394
1708440460.016629,-1.1042900085449219,-1.682295938531393,-2.526719633732931,2.2800096708485107,-1.017512623463766,0.024144427850842476
1708440460.0186348,-1.1043438911437988,-1.682263036767477,-2.526670281087057,2.279972477550171,-1.0175336042987269,0.02415330894291401
1708440460.0206153,-1.1043200492858887,-1.6822754345335902,-2.5267167727099817,2.2800215917774658,-1.017508331929342,0.024086004123091698
1708440460.022604,-1.1043609380722046,-1.6822840176024378,-2.5266626516925257,2.280008001918457,-1.0174911657916468,0.024106794968247414
1708440460.0247183,-1.1043227910995483,-1.682295938531393,-2.526712242756979,2.280050440425537,-1.017486874257223,0.024106819182634354
1708440460.026647,-1.1042900085449219,-1.6823045216002406,-2.5266626516925257,2.280041380519531,-1.017552677785055,0.024123186245560646
1708440460.0286784,-1.1043319702148438,-1.6822601757445277,-2.5266838709460657,2.28005497037854,-1.01750356355776,0.024106809869408607
1708440460.0306506,-1.1043617725372314,-1.6822716198363246,-2.526679340993063,2.280008001918457,-1.017545525227682,0.024127712473273277
1708440460.0326564,-1.1043319702148438,-1.6822716198363246,-2.5266838709460657,2.279984398479126,-1.01750356355776,0.0241231769323349
1708440460.0346508,-1.1043275594711304,-1.682279726068014,-2.526695791875021,2.280033512706421,-1.0175407568561,0.024120232090353966
1708440460.0366285,-1.1043319702148438,-1.682279726068014,-2.5267167727099817,2.279984398479126,-1.0175393263446253,0.024132167920470238
1708440460.038729,-1.104285478591919,-1.6822711429991664,-2.5266385714160364,2.2800258833118896,-1.0175231138812464,0.02409942075610161
1708440460.04067,-1.1043528318405151,-1.682230135003561,-2.5267046133624476,2.279963417644165,-1.0175440947162073,0.02412024699151516
1708440460.0426316,-1.1043111085891724,-1.6822391949095667,-2.526707712803976,2.280050440425537,-1.017524544392721,0.024115800857543945
1708440460.0446181,-1.104334831237793,-1.68225159267568,-2.5266671816455286,2.280017061824463,-1.017536465321676,0.024099424481391907
1708440460.0465987,-1.104324460029602,-1.6822473011412562,-2.526712242756979,2.280028982753418,-1.0175321737872522,0.024136651307344437
1708440460.048615,-1.1042991876602173,-1.68225159267568,-2.5266838709460657,2.2800215917774658,-1.0175483862506312,0.024136614054441452
1708440460.0506177,-1.1043438911437988,-1.682263036767477,-2.5266626516925257,2.279979868526123,-1.0175817648517054,0.024078628048300743
1708440460.0526242,-1.1043528318405151,-1.6822143993773402,-2.526628319417135,2.280024452800415,-1.017536465321676,0.02414116822183132
1708440460.0546176,-1.1043438911437988,-1.6822840176024378,-2.5266671816455286,2.279996319408081,-1.017512623463766,0.02409195899963379
1708440460.0566182,-1.104294776916504,-1.6822716198363246,-2.52665359178652,2.280028982753418,-1.01750356355776,0.024042438715696335
1708440460.058615,-1.1042736768722534,-1.6822883091368617,-2.526707712803976,2.279991551036499,-1.0174992720233362,0.02406787872314453
1708440460.0606287,-1.104365348815918,-1.6822473011412562,-2.526686731969015,2.280045910472534,-1.0175617376910608,0.024051476269960403
1708440460.062633,-1.1043484210968018,-1.682225843469137,-2.5266838709460657,2.280057831401489,-1.0174692312823694,0.02411741577088833
1708440460.0646193,-1.1043484210968018,-1.6822711429991664,-2.5266552607165735,2.279996319408081,-1.0175154844867151,0.02406786009669304
1708440460.0666506,-1.1043981313705444,-1.6823283634581507,-2.5266838709460657,2.2800370889851074,-1.0175483862506312,0.024079781025648117
1708440460.0686574,-1.104322910308838,-1.6822711429991664,-2.526707712803976,2.280050440425537,-1.017536465321676,0.024096505716443062
1708440460.070619,-1.104334831237793,-1.6823088131346644,-2.5266507307635706,2.280024452800415,-1.017545525227682,0.024039587005972862
1708440460.0726366,-1.104386329650879,-1.682307859460348,-2.526712242756979,2.280087633723877,-1.0175440947162073,0.02403634786605835
1708440460.0746615,-1.104356288909912,-1.6822883091368617,-2.526649061833517,2.280095263118408,-1.0175817648517054,0.024065006524324417
1708440460.076676,-1.1043156385421753,-1.6823045216002406,-2.526679340993063,2.280008001918457,-1.0175603071795862,0.02404860593378544
1708440460.0786426,-1.1043319702148438,-1.6823035679259242,-2.526695791875021,2.280000610942505,-1.017536465321676,0.024022823199629784
1708440460.080669,-1.104381799697876,-1.6822883091368617,-2.526691261922018,2.2800215917774658,-1.017552677785055,0.02407390996813774
1708440460.0826418,-1.1043200492858887,-1.6822840176024378,-2.5267213026629847,2.280019922847412,-1.0175407568561,0.024036381393671036
1708440460.084637,-1.1043609380722046,-1.6823045216002406,-2.526686731969015,2.28001253187146,-1.01750356355776,0.02395862340927124
1708440460.0866332,-1.104369878768921,-1.6822544536986292,-2.526679340993063,2.280028982753418,-1.0174911657916468,0.02400803565979004
1708440460.088649,-1.1043155193328857,-1.6823002300658167,-2.526686731969015,2.280090494746826,-1.017557446156637,0.024008017033338547
1708440460.0907528,-1.104318380355835,-1.682279726068014,-2.526703182850973,2.280090494746826,-1.01750356355776,0.02397831156849861
1708440460.0926356,-1.1043111085891724,-1.682307859460348,-2.5267227331744593,2.2800258833118896,-1.017545525227682,0.024036314338445663
1708440460.094602,-1.1043319702148438,-1.6822716198363246,-2.526715103779928,2.2800368505665283,-1.0175498167621058,0.02398272231221199
1708440460.0966232,-1.1043319702148438,-1.6822759113707484,-2.526736323033468,2.2800096708485107,-1.017552677785055,0.024017000570893288
1708440460.0986266,-1.1043365001678467,-1.6822926006712855,-2.526670281087057,2.279982729549072,-1.017512623463766,0.02401242032647133
1708440460.100627,-1.1042991876602173,-1.6822716198363246,-2.526682202016012,2.280083342189453,-1.0174959341632288,0.024000661447644234
1708440460.1026375,-1.1043111085891724,-1.6822434864439906,-2.5267182032214563,2.280008001918457,-1.017524544392721,0.02398277446627617
1708440460.1045966,-1.1043528318405151,-1.6823088131346644,-2.526707712803976,2.280028982753418,-1.0175660292254847,0.02401701733469963
1708440460.1066368,-1.1043363809585571,-1.6822883091368617,-2.526710573826925,2.28001253187146,-1.0175154844867151,0.024015480652451515
1708440460.1086223,-1.104356288909912,-1.6823045216002406,-2.526686731969015,2.279998942012451,-1.017557446156637,0.023991655558347702
1708440460.1105947,-1.1043528318405151,-1.682223459283346,-2.526749912892477,2.280087633723877,-1.0175154844867151,0.024012509733438492
1708440460.112659,-1.1043319702148438,-1.682263036767477,-2.526644770299093,2.2800533014484863,-1.0175617376910608,0.024000711739063263
1708440460.1145942,-1.1043064594268799,-1.6823088131346644,-2.526695791875021,2.280045910472534,-1.0175321737872522,0.023987198248505592
1708440460.1165938,-1.1043726205825806,-1.6822716198363246,-2.526707712803976,2.2800325590321044,-1.0175817648517054,0.02397494949400425
1708440460.118621,-1.1043319702148438,-1.6823002300658167,-2.526679340993063,2.280028982753418,-1.0176141897784632,0.024036362767219543
1708440460.1206012,-1.1044145822525024,-1.6822473011412562,-2.526665751134054,2.280041380519531,-1.017552677785055,0.02400803565979004
1708440460.1225991,-1.1042828559875488,-1.6822873554625453,-2.526691261922018,2.280057831401489,-1.0175483862506312,0.024021418765187263
1708440460.1246362,-1.1043483018875122,-1.6822883091368617,-2.5266626516925257,2.279998942012451,-1.0175274054156702,0.024040769785642624
1708440460.1266582,-1.104356288909912,-1.682234903375143,-2.526712242756979,2.279975100154541,-1.0175684134112757,0.024036353453993797
1708440460.1286528,-1.1043274402618408,-1.6822840176024378,-2.526695791875021,2.280019922847412,-1.0175483862506312,0.02399609610438347
1708440460.1307044,-1.1043156385421753,-1.682279726068014,-2.526715103779928,2.2800325590321044,-1.017536465321676,0.023979399353265762
1708440460.1326287,-1.1043363809585571,-1.6822926006712855,-2.526736084614889,2.2800423341938476,-1.0175483862506312,0.02400803565979004
1708440460.1346219,-1.1043742895126343,-1.6823045216002406,-2.526703182850973,2.280017061824463,-1.0175483862506312,0.024045173078775406
1708440460.1366498,-1.1042736768722534,-1.6823035679259242,-2.526712242756979,2.280057831401489,-1.017508331929342,0.024045253172516823
1708440460.1386392,-1.1043111085891724,-1.68225159267568,-2.526749912892477,2.280066891307495,-1.0175483862506312,0.023982729762792587
1708440460.1406763,-1.1043483018875122,-1.6822716198363246,-2.526703182850973,2.2800368505665283,-1.0175111929522913,0.024012524634599686
1708440460.142659,-1.104381799697876,-1.682291646996969,-2.52669865289797,2.280041380519531,-1.017536465321676,0.02396606281399727
1708440460.1446197,-1.1043275594711304,-1.6822601757445277,-2.5266807715045374,2.280024452800415,-1.0174577871905726,0.02400355599820614
1708440460.1466424,-1.1043609380722046,-1.6822673283019007,-2.526748243962423,2.28007881223645,-1.0174992720233362,0.02402152679860592
1708440460.1485922,-1.1043484210968018,-1.6822883091368617,-2.526727263127462,2.280066891307495,-1.0175321737872522,0.024028897285461426
1708440460.1506188,-1.1043319702148438,-1.682258745233053,-2.526727263127462,2.28005497037854,-1.017524544392721,0.02400803565979004
1708440460.1526082,-1.1043363809585571,-1.682279726068014,-2.526719633732931,2.2800215917774658,-1.0174825827227991,0.023991644382476807
1708440460.154595,-1.104313850402832,-1.6823164425291957,-2.526691261922018,2.2800215917774658,-1.0175440947162073,0.023987174034118652
1708440460.156608,-1.1043064594268799,-1.6822716198363246,-2.526724163685934,2.280041380519531,-1.0175231138812464,0.024003606289625168
1708440460.1585915,-1.1043064594268799,-1.6822601757445277,-2.526731793080465,2.279996319408081,-1.0175321737872522,0.0240499135106802
1708440460.1605916,-1.1043483018875122,-1.68225159267568,-2.526703182850973,2.280045910472534,-1.0175154844867151,0.02399611473083496
1708440460.1626294,-1.104301929473877,-1.6822673283019007,-2.5267766157733362,2.279949827785156,-1.0175407568561,0.02397492527961731
1708440460.1646006,-1.104322910308838,-1.682284494439596,-2.5267136732684534,2.280057831401489,-1.017536465321676,0.023987174034118652
1708440460.166668,-1.1043609380722046,-1.6823121509947718,-2.5267468134509485,2.280024452800415,-1.01750356355776,0.024024417623877525
1708440460.1686625,-1.1043572425842285,-1.6822687588133753,-2.52674371400942,2.280057831401489,-1.01756459871401,0.024024445563554764
1708440460.1706362,-1.1043438911437988,-1.6822883091368617,-2.5267978350268763,2.280062361354492,-1.017557446156637,0.023991644382476807
1708440460.172666,-1.104318380355835,-1.6823178730406703,-2.5267706553088587,2.280090494746826,-1.0175274054156702,0.02397492527961731
1708440460.1746862,-1.104294776916504,-1.682307859460348,-2.5268035570727747,2.280045910472534,-1.0175440947162073,0.023994535207748413
1708440460.176666,-1.1043363809585571,-1.6822930775084437,-2.526862446461813,2.2800816732593994,-1.0175202528582972,0.024003565311431885
1708440460.1786358,-1.1042901277542114,-1.6822926006712855,-2.526839796696798,2.28001253187146,-1.0175393263446253,0.02399611473083496
1708440460.1806788,-1.1043438911437988,-1.6822840176024378,-2.526802364979879,2.2800816732593994,-1.0175321737872522,0.024012502282857895
1708440460.1826956,-1.104318380355835,-1.682279726068014,-2.5268307367907923,2.280071421260498,-1.01750356355776,0.02399456314742565
1708440460.1846495,-1.1043483018875122,-1.6822673283019007,-2.526835266743795,2.280019922847412,-1.017458740864889,0.023970499634742737
1708440460.186667,-1.10434091091156,-1.68225159267568,-2.526835266743795,2.280050440425537,-1.0175378958331507,0.024049857631325722
1708440460.1886368,-1.104377269744873,-1.6822883091368617,-2.526876989995138,2.280066891307495,-1.0175336042987269,0.024070965126156807
1708440460.1906214,-1.104356288909912,-1.6823002300658167,-2.5268262068377894,2.2800697523304443,-1.017552677785055,0.024005144834518433
1708440460.1926243,-1.1042975187301636,-1.682284494439596,-2.5268471876727503,2.28007881223645,-1.01750356355776,0.02399909496307373
1708440460.194642,-1.104324460029602,-1.6822873554625453,-2.526856247578756,2.280045910472534,-1.0174992720233362,0.024012506008148193
1708440460.1967041,-1.1043363809585571,-1.6823536358275355,-2.5268262068377894,2.280041380519531,-1.0175440947162073,0.024015452712774277
1708440460.198637,-1.1043609380722046,-1.682295938531393,-2.5267980734454554,2.28007881223645,-1.0175483862506312,0.024005120620131493
1708440460.200606,-1.104365348815918,-1.682324071923727,-2.526820484791891,2.280008001918457,-1.0175483862506312,0.024028802290558815
1708440460.202628,-1.1043111085891724,-1.6822711429991664,-2.52682334581484,2.280024452800415,-1.0175603071795862,0.024042310193181038
1708440460.2046347,-1.1043609380722046,-1.6823002300658167,-2.52686053911318,2.280019922847412,-1.017597500477926,0.024058789014816284
1708440460.2066083,-1.1043392419815063,-1.6822754345335902,-2.5268142859088343,2.280057831401489,-1.0176098982440394,0.023987198248505592
1708440460.2086108,-1.1043483018875122,-1.682356973687643,-2.526820484791891,2.279966278667114,-1.0175560156451624,0.023949680849909782
1708440460.2106142,-1.1043773889541626,-1.682279726068014,-2.526835266743795,2.2800280290791015,-1.0176056067096155,0.02402147278189659
1708440460.212616,-1.1043483018875122,-1.6823035679259242,-2.526818815861837,2.280015392894409,-1.01756459871401,0.023999109864234924
1708440460.2146046,-1.1043742895126343,-1.6823250255980433,-2.526848856602804,2.280075712794922,-1.0175393263446253,0.02399611473083496
1708440460.2165906,-1.1043227910995483,-1.682295938531393,-2.526827875767843,2.280028982753418,-1.0175841490374964,0.024019921198487282
1708440460.218594,-1.1043528318405151,-1.682263036767477,-2.526839796696798,2.280041380519531,-1.017597500477926,0.023958614096045494
1708440460.220589,-1.1042753458023071,-1.6823088131346644,-2.526794497166769,2.280066891307495,-1.0175393263446253,0.023991718888282776
1708440460.2225912,-1.104324460029602,-1.6823207340636195,-2.526815954838888,2.2800444799610595,-1.0175603071795862,0.02400805428624153
1708440460.224607,-1.1042991876602173,-1.68225159267568,-2.526844326649801,2.2800378042408447,-1.0175321737872522,0.0239871796220541
1708440460.2266483,-1.10434091091156,-1.682279726068014,-2.526806894932882,2.280041380519531,-1.0175603071795862,0.02401253953576088
1708440460.2286422,-1.1042991876602173,-1.682258745233053,-2.526806894932882,2.280045910472534,-1.01756459871401,0.024028873071074486
1708440460.2306304,-1.1043020486831665,-1.6822673283019007,-2.5268636385547083,2.280087633723877,-1.0175111929522913,0.024036291986703873
1708440460.23267,-1.1042828559875488,-1.6822926006712855,-2.52678090730776,2.280024452800415,-1.01750356355776,0.02401251532137394
1708440460.234634,-1.1042828559875488,-1.6823297939696253,-2.526844326649801,2.28001253187146,-1.0175321737872522,0.023991700261831284
1708440460.2366176,-1.1043363809585571,-1.682234903375143,-2.526869599019186,2.279958887691162,-1.017557446156637,0.023982729762792587
1708440460.2386,-1.1043498516082764,-1.6822477779784144,-2.52686053911318,2.280050440425537,-1.0174992720233362,0.023982712998986244
1708440460.2406566,-1.104369878768921,-1.6822105846800746,-2.5268636385547083,2.279987021083496,-1.0175483862506312,0.024012502282857895
1708440460.2426622,-1.1042828559875488,-1.6823164425291957,-2.5268307367907923,2.279987021083496,-1.0175202528582972,0.023991664871573448
1708440460.2446017,-1.1043245792388916,-1.6822430096068324,-2.5267978350268763,2.280024452800415,-1.0175603071795862,0.024017006158828735
1708440460.24661,-1.104369878768921,-1.682291646996969,-2.5268307367907923,2.280066891307495,-1.0175817648517054,0.023974968120455742
1708440460.2486162,-1.1043319702148438,-1.6823493442931117,-2.5268471876727503,2.280057831401489,-1.0175440947162073,0.024017060175538063
1708440460.2505913,-1.1043081283569336,-1.6822840176024378,-2.526839796696798,2.280045910472534,-1.01756459871401,0.024040812626481056
1708440460.2526035,-1.1043617725372314,-1.682279726068014,-2.526785437260763,2.280000610942505,-1.0175603071795862,0.02400517277419567
1708440460.2546196,-1.104369878768921,-1.6822840176024378,-2.526818815861837,2.2800816732593994,-1.0175750891314905,0.02400069311261177
1708440460.2565875,-1.104334831237793,-1.6823579273619593,-2.526827875767843,2.2800213533588867,-1.0175841490374964,0.02399168349802494
1708440460.2586393,-1.1043363809585571,-1.6822840176024378,-2.526789967213766,2.280033512706421,-1.0175841490374964,0.02397494949400425
1708440460.2605908,-1.1043483018875122,-1.6822873554625453,-2.526827875767843,2.2800304132648925,-1.0175817648517054,0.023991616442799568
1708440460.2626119,-1.1042872667312622,-1.6822711429991664,-2.526832405720846,2.280045910472534,-1.0175307432757776,0.023991700261831284
1708440460.2645903,-1.1043617725372314,-1.682291646996969,-2.526835266743795,2.280024452800415,-1.0175393263446253,0.024024317041039467
1708440460.2666335,-1.1043609380722046,-1.6823164425291957,-2.526818815861837,2.280057831401489,-1.0175750891314905,0.024021562188863754
1708440460.2686212,-1.1043528318405151,-1.6823045216002406,-2.526865307484762,2.28001253187146,-1.0175593535052698,0.024008017033338547
1708440460.2706,-1.104369878768921,-1.6823002300658167,-2.526799027119772,2.2799991804310302,-1.0176056067096155,0.023991648107767105
1708440460.2726104,-1.1042991876602173,-1.6822873554625453,-2.5268307367907923,2.280008001918457,-1.0175769964801233,0.02401994727551937
1708440460.2746038,-1.104328989982605,-1.6823326549925746,-2.526761595402853,2.280045910472534,-1.0175841490374964,0.024031877517700195
1708440460.2767057,-1.1043319702148438,-1.6822840176024378,-2.526848856602804,2.28001253187146,-1.0175440947162073,0.024045253172516823
1708440460.2786598,-1.1043410301208496,-1.6823045216002406,-2.526844326649801,2.279996319408081,-1.0175560156451624,0.023967575281858444
1708440460.280656,-1.1043156385421753,-1.682291646996969,-2.526811424885885,2.2800325590321044,-1.0175769964801233,0.02400798164308071
1708440460.2826495,-1.1043528318405151,-1.6822754345335902,-2.526773516331808,2.280028982753418,-1.0175727049456995,0.023974984884262085
1708440460.2846649,-1.104328989982605,-1.682291646996969,-2.526789967213766,2.280059500331543,-1.0175560156451624,0.023987198248505592
1708440460.2866216,-1.104333519935608,-1.6823369465269984,-2.5268307367907923,2.280050440425537,-1.0175393263446253,0.023958614096045494
1708440460.2886307,-1.1043453216552734,-1.682263036767477,-2.52678090730776,2.280000610942505,-1.0175817648517054,0.023987198248505592
1708440460.2906816,-1.104328989982605,-1.6822840176024378,-2.526835266743795,2.280066891307495,-1.0175188223468226,0.023949652910232544
1708440460.2926695,-1.1043037176132202,-1.6823045216002406,-2.5268681685077112,2.28001253187146,-1.0175560156451624,0.024024415761232376
1708440460.2946367,-1.1043319702148438,-1.682291646996969,-2.526818815861837,2.280045910472534,-1.0175727049456995,0.02401549741625786
1708440460.2965863,-1.1043275594711304,-1.6822873554625453,-2.526827875767843,2.280059500331543,-1.0176308790790003,0.02398841455578804
1708440460.2985892,-1.10434091091156,-1.6822883091368617,-2.526752535496847,2.2800258833118896,-1.0175769964801233,0.024082859978079796
1708440460.3006718,-1.104333519935608,-1.682234903375143,-2.526806894932882,2.280050440425537,-1.0175769964801233,0.02397049032151699
1708440460.3025982,-1.1043363809585571,-1.6823002300658167,-2.526811424885885,2.2800368505665283,-1.017597500477926,0.02400803565979004
1708440460.3046892,-1.1042991876602173,-1.6822883091368617,-2.5267871061908167,2.2800215917774658,-1.0175483862506312,0.02400803565979004
1708440460.3065956,-1.1043392419815063,-1.6822558842101039,-2.526789967213766,2.280066891307495,-1.0176098982440394,0.02400803565979004
1708440460.3086517,-1.1043037176132202,-1.682279726068014,-2.526794497166769,2.279979868526123,-1.01756459871401,0.023970473557710648
1708440460.3106124,-1.1043484210968018,-1.6822544536986292,-2.526836935673849,2.279972477550171,-1.0175932089435022,0.024017075076699257
1708440460.3125954,-1.1043529510498047,-1.682258745233053,-2.526773516331808,2.280019922847412,-1.0176175276385706,0.024012520909309387
1708440460.3145924,-1.104294776916504,-1.6822883091368617,-2.526848856602804,2.279963417644165,-1.0176428000079554,0.023982739076018333
1708440460.3165913,-1.1043156385421753,-1.6822673283019007,-2.526781145726339,2.279954357738159,-1.0175636450396937,0.024045253172516823
1708440460.318624,-1.10431706905365,-1.682295938531393,-2.526768986378805,2.279996319408081,-1.0175560156451624,0.02401990257203579
1708440460.3206005,-1.1042828559875488,-1.6823283634581507,-2.5267980734454554,2.2799932199665527,-1.0176056067096155,0.023991655558347702
1708440460.3226252,-1.1043319702148438,-1.6822883091368617,-2.526827875767843,2.280028982753418,-1.0175727049456995,0.024040794000029564
1708440460.324599,-1.1042991876602173,-1.6822873554625453,-2.526848856602804,2.2799886900135498,-1.0174935499774378,0.024031877517700195
1708440460.3266947,-1.1043200492858887,-1.6822673283019007,-2.52682334581484,2.2800258833118896,-1.0176175276385706,0.024005120620131493
1708440460.3286436,-1.104328989982605,-1.6822883091368617,-2.526818815861837,2.280024452800415,-1.0175727049456995,0.024008017033338547
1708440460.330677,-1.1043081283569336,-1.682258745233053,-2.526844326649801,2.280041380519531,-1.0175932089435022,0.02394959330558777
1708440460.3326662,-1.104324460029602,-1.6822830639281214,-2.526856247578756,2.279991551036499,-1.0176008383380335,0.02401706576347351
1708440460.3346548,-1.1043453216552734,-1.682295938531393,-2.526811424885885,2.2800096708485107,-1.0175817648517054,0.023991655558347702
1708440460.3366656,-1.1043319702148438,-1.682258745233053,-2.526848856602804,2.2800258833118896,-1.0175684134112757,0.024012494832277298
1708440460.3386774,-1.10434091091156,-1.682258745233053,-2.526832405720846,2.2799812990375976,-1.0175393263446253,0.024045288562774658
1708440460.3407032,-1.104328989982605,-1.6822716198363246,-2.526815954838888,2.279984398479126,-1.0175469557391565,0.02402442693710327
1708440460.342644,-1.104312539100647,-1.6822473011412562,-2.526811424885885,2.280024452800415,-1.0175469557391565,0.02395850606262684
1708440460.3446417,-1.1043453216552734,-1.6822840176024378,-2.526836935673849,2.280000610942505,-1.0175393263446253,0.024003565311431885
1708440460.346636,-1.1043081283569336,-1.682197710076803,-2.526815954838888,2.279972477550171,-1.0175798575030726,0.024012506008148193
1708440460.348609,-1.1042917966842651,-1.68225159267568,-2.52675706544985,2.279975100154541,-1.0176127592669886,0.024048583582043648
1708440460.3506122,-1.1043156385421753,-1.6822883091368617,-2.526799027119772,2.279956026668213,-1.0176098982440394,0.024005144834518433
1708440460.352623,-1.104312539100647,-1.6822787723936976,-2.5267661253558558,2.2800139623829345,-1.0176008383380335,0.02394966222345829
1708440460.3546593,-1.1043363809585571,-1.6823002300658167,-2.5268080870257776,2.280008001918457,-1.0176127592669886,0.024003565311431885
1708440460.3566442,-1.1042828559875488,-1.6822873554625453,-2.526799027119772,2.2800215917774658,-1.0175593535052698,0.02399909496307373
1708440460.358585,-1.1043365001678467,-1.68225159267568,-2.5267542044269007,2.279996319408081,-1.0175965468036097,0.023987174034118652
1708440460.3605974,-1.1043156385421753,-1.6823412380614222,-2.526825014744894,2.279975100154541,-1.0176008383380335,0.024019956588745117
1708440460.3626342,-1.1043037176132202,-1.6822802029051722,-2.526827875767843,2.280033512706421,-1.0176380316363733,0.024015486240386963
1708440460.364585,-1.1042872667312622,-1.682230611840719,-2.526789967213766,2.280024452800415,-1.0175798575030726,0.024008044973015785
1708440460.3666406,-1.104263424873352,-1.682279726068014,-2.526827875767843,2.280033512706421,-1.0175841490374964,0.02401251532137394
1708440460.368689,-1.1043275594711304,-1.6823088131346644,-2.526825014744894,2.280000610942505,-1.0176261107074183,0.02404082752764225
1708440460.3706377,-1.1043200492858887,-1.682263036767477,-2.526820484791891,2.279975100154541,-1.0175769964801233,0.024031877517700195
1708440460.3726735,-1.104328989982605,-1.6822759113707484,-2.526778046284811,2.2800378042408447,-1.0175440947162073,0.024061959236860275
1708440460.374654,-1.1042797565460205,-1.6822840176024378,-2.526841465626852,2.28001253187146,-1.0175817648517054,0.024027308449149132
1708440460.3767018,-1.1042499542236328,-1.6822759113707484,-2.526853386555807,2.2799767690845947,-1.017597500477926,0.024040818214416504
1708440460.37864,-1.1043334007263184,-1.6822754345335902,-2.526773516331808,2.2800966936298828,-1.0175817648517054,0.02397814393043518
1708440460.3806393,-1.1042828559875488,-1.6823326549925746,-2.526761595402853,2.280008001918457,-1.017524544392721,0.02400357462465763
1708440460.3827114,-1.104357361793518,-1.682307859460348,-2.526740852986471,2.2800096708485107,-1.0175560156451624,0.024010926485061646
1708440460.3846693,-1.1043155193328857,-1.6823002300658167,-2.5267825762378138,2.279975100154541,-1.0175860563861292,0.023994535207748413
1708440460.38666,-1.1043156385421753,-1.682258745233053,-2.5267916361438196,2.2800378042408447,-1.0174949804889124,0.024048596620559692
1708440460.3886356,-1.104324460029602,-1.6823002300658167,-2.526745144520895,2.2800096708485107,-1.0175603071795862,0.023982712998986244
1708440460.3905988,-1.1043037176132202,-1.6823121509947718,-2.5267422834979456,2.2800096708485107,-1.017536465321676,0.024044036865234375
1708440460.3926463,-1.1043111085891724,-1.682263036767477,-2.5268052260028284,2.2800051408955078,-1.0175440947162073,0.024031931534409523
1708440460.394651,-1.10434091091156,-1.682319780389303,-2.5268216768847864,2.280008001918457,-1.0175769964801233,0.024064969271421432
1708440460.3966718,-1.1043037176132202,-1.6822673283019007,-2.5267468134509485,2.280028982753418,-1.0176351706134241,0.024019956588745117
1708440460.3986433,-1.1043081283569336,-1.6822544536986292,-2.5268126169787806,2.2799693781086425,-1.0175769964801233,0.02400357462465763
1708440460.4006054,-1.1043453216552734,-1.6822883091368617,-2.5266969839679163,2.28001253187146,-1.0175727049456995,0.02404860593378544
1708440460.4026358,-1.1042842864990234,-1.682279726068014,-2.5267677942859095,2.280028982753418,-1.0175817648517054,0.024069486185908318
1708440460.4046407,-1.1042797565460205,-1.6823002300658167,-2.5267015139209192,2.2800051408955078,-1.0175684134112757,0.024003613740205765
1708440460.406623,-1.1043319702148438,-1.6822711429991664,-2.5267255941974085,2.28001253187146,-1.0175274054156702,0.02404857613146305
1708440460.408598,-1.1043498516082764,-1.6822673283019007,-2.526677672063009,2.2800304132648925,-1.0175440947162073,0.024019965901970863
1708440460.410622,-1.104263424873352,-1.682258745233053,-2.52669865289797,2.279991551036499,-1.017557446156637,0.024048592895269394
1708440460.4126365,-1.1043453216552734,-1.6822883091368617,-2.526707712803976,2.280000610942505,-1.017486874257223,0.024102240800857544
1708440460.4146159,-1.1043081283569336,-1.682258745233053,-2.526691261922018,2.280000610942505,-1.0175202528582972,0.024093246087431908
1708440460.4166121,-1.1043037176132202,-1.6822391949095667,-2.526677672063009,2.279979868526123,-1.0174911657916468,0.024069493636488914
1708440460.4185994,-1.104263424873352,-1.6822716198363246,-2.526682202016012,2.2799932199665527,-1.017545525227682,0.02407684363424778
1708440460.420634,-1.1043424606323242,-1.6822926006712855,-2.5266626516925257,2.2800096708485107,-1.017536465321676,0.0240932647138834
1708440460.422638,-1.1042797565460205,-1.6822759113707484,-2.526703182850973,2.2800215917774658,-1.0175483862506312,0.024051429703831673
1708440460.4246092,-1.1042753458023071,-1.6823088131346644,-2.526686731969015,2.2800258833118896,-1.0175321737872522,0.02405438758432865
1708440460.426675,-1.104333519935608,-1.6822716198363246,-2.5266626516925257,2.2800020414539794,-1.017552677785055,0.0240798182785511
1708440460.4286501,-1.1042872667312622,-1.6822802029051722,-2.5267258326159876,2.279963417644165,-1.017552677785055,0.024120306596159935
1708440460.4306483,-1.1043126583099365,-1.6822873554625453,-2.52665359178652,2.2800139623829345,-1.017536465321676,0.024075230583548546
1708440460.4326217,-1.1042797565460205,-1.6822883091368617,-2.5267258326159876,2.2799767690845947,-1.017569367085592,0.024115873500704765
1708440460.4346182,-1.1043155193328857,-1.6823655567564906,-2.5266884008990687,2.279979868526123,-1.017536465321676,0.024145741015672684
1708440460.4366415,-1.1043498516082764,-1.6823045216002406,-2.5266552607165735,2.280017061824463,-1.0175321737872522,0.02413218282163143
1708440460.43865,-1.1043156385421753,-1.6823035679259242,-2.5266552607165735,2.280071421260498,-1.0175483862506312,0.024066263809800148
1708440460.4407265,-1.1043654680252075,-1.6822840176024378,-2.5266552607165735,2.279972477550171,-1.0175111929522913,0.02413225546479225
1708440460.4426198,-1.1043319702148438,-1.6822673283019007,-2.5266221205340784,2.2800215917774658,-1.0175660292254847,0.024162352085113525
1708440460.4446256,-1.1042946577072144,-1.6823088131346644,-2.5266671816455286,2.2800304132648925,-1.017508331929342,0.02417423389852047
1708440460.446604,-1.1043081283569336,-1.682279726068014,-2.5266807715045374,2.279963417644165,-1.0175288359271448,0.02410675212740898
1708440460.4486136,-1.1043035984039307,-1.6823326549925746,-2.5267046133624476,2.28005497037854,-1.0175111929522913,0.024111341685056686
1708440460.4506,-1.1042842864990234,-1.6822496853270472,-2.5266552607165735,2.279967947597168,-1.017552677785055,0.024168256670236588
1708440460.4526088,-1.1042962074279785,-1.6823002300658167,-2.5266552607165735,2.2800096708485107,-1.017508331929342,0.024160807952284813
1708440460.4546437,-1.104333519935608,-1.682307859460348,-2.5266462008105677,2.2799932199665527,-1.0175154844867151,0.024115845561027527
1708440460.4566336,-1.1042709350585938,-1.682307859460348,-2.5266056696521204,2.280017061824463,-1.017484490071432,0.024069543927907944
1708440460.4586236,-1.1043572425842285,-1.6822544536986292,-2.5266552607165735,2.2799693781086425,-1.0175002256976526,0.024168193340301514
1708440460.460625,-1.1042678356170654,-1.6823207340636195,-2.5266717115985315,2.2799977499195556,-1.0174930731402796,0.02413989044725895
1708440460.462617,-1.1043035984039307,-1.6822558842101039,-2.526679340993063,2.2799932199665527,-1.0174887816058558,0.024114176630973816
1708440460.4646087,-1.104324460029602,-1.6822673283019007,-2.526679340993063,2.2799977499195556,-1.0174630323993128,0.024135390296578407
1708440460.4666433,-1.104240894317627,-1.682324071923727,-2.5266552607165735,2.2800096708485107,-1.0175092856036585,0.02413986250758171
1708440460.4686656,-1.1043081283569336,-1.6822754345335902,-2.5266597906695765,2.279967947597168,-1.0175045172320765,0.024168184027075768
1708440460.470617,-1.1042991876602173,-1.682234903375143,-2.5266671816455286,2.2800304132648925,-1.0174887816058558,0.024189338088035583
1708440460.4726133,-1.1042872667312622,-1.682258745233053,-2.5266295115100306,2.2800215917774658,-1.0174630323993128,0.02415180206298828
1708440460.4746065,-1.1042962074279785,-1.6823326549925746,-2.526641909276144,2.2799886900135498,-1.017484490071432,0.024163732305169106
1708440460.4766798,-1.1043081283569336,-1.6822840176024378,-2.5266552607165735,2.279956026668213,-1.0174763838397425,0.024180402979254723
1708440460.4786434,-1.1043319702148438,-1.6822716198363246,-2.5267048517810267,2.2800683218189697,-1.0174687544452112,0.024171415716409683
1708440460.4806771,-1.1042709350585938,-1.6822668514647425,-2.5266552607165735,2.28001253187146,-1.0174887816058558,0.02418782189488411
1708440460.4826834,-1.1042991876602173,-1.6822558842101039,-2.5266266504870813,2.2800604540058593,-1.0175092856036585,0.024130940437316895
1708440460.4846327,-1.1043200492858887,-1.6823250255980433,-2.5267213026629847,2.279967947597168,-1.0174525419818323,0.0242250207811594
1708440460.4866612,-1.1043156385421753,-1.6823488674559535,-2.5266221205340784,2.2799812990375976,-1.0174482504474085,0.024163777008652687
1708440460.4886289,-1.1042991876602173,-1.6822883091368617,-2.5266101996051233,2.2800096708485107,-1.0174153486834925,0.024211645126342773
1708440460.4906309,-1.1043200492858887,-1.682279726068014,-2.5266552607165735,2.280041380519531,-1.0174525419818323,0.024199724197387695
1708440460.492703,-1.104328989982605,-1.6822883091368617,-2.5266552607165735,2.2800258833118896,-1.0174005667315882,0.024183332920074463
1708440460.494655,-1.10431706905365,-1.6823283634581507,-2.526695791875021,2.2800184923359375,-1.017444912587301,0.02417888678610325
1708440460.4966114,-1.1042872667312622,-1.6823283634581507,-2.5266717115985315,2.2800637918659667,-1.017444912587301,0.02423316240310669
1708440460.498605,-1.1043453216552734,-1.6823045216002406,-2.5266717115985315,2.2800304132648925,-1.017421070729391,0.024211645126342773
1708440460.5006158,-1.1043245792388916,-1.682295938531393,-2.5266507307635706,2.2800423341938476,-1.017437760029928,0.024199742823839188
1708440460.5025938,-1.1043274402618408,-1.682291646996969,-2.5266295115100306,2.2800304132648925,-1.0174005667315882,0.02416694164276123
1708440460.504696,-1.1042991876602173,-1.6823207340636195,-2.5266717115985315,2.280000610942505,-1.017404858266012,0.024211645126342773
1708440460.506591,-1.1043081283569336,-1.682307859460348,-2.5266807715045374,2.2800304132648925,-1.017388645802633,0.02419525384902954
1708440460.5086112,-1.104324460029602,-1.6823002300658167,-2.5266762415515345,2.2800051408955078,-1.0174005667315882,0.024183332920074463
1708440460.5105913,-1.1042828559875488,-1.6823612652220667,-2.5266476313220423,2.2799932199665527,-1.017371956502096,0.02419525384902954
1708440460.5126204,-1.1042544841766357,-1.6822840176024378,-2.5266431013690394,2.2800051408955078,-1.017421070729391,0.02419060468673706
1708440460.5146036,-1.104328989982605,-1.6822668514647425,-2.5266807715045374,2.2800096708485107,-1.017350975667135,0.024199724197387695
1708440460.5166163,-1.104312539100647,-1.682356973687643,-2.5266385714160364,2.2800378042408447,-1.0173686186419886,0.024211645126342773
1708440460.5185945,-1.1043200492858887,-1.6822673283019007,-2.5266552607165735,2.2800096708485107,-1.017383877431051,0.024216115474700928
1708440460.520622,-1.104324460029602,-1.682295938531393,-2.5266221205340784,2.2799574571796875,-1.017376724873678,0.024261474609375
1708440460.522592,-1.1043155193328857,-1.6822744808592738,-2.5265892187701624,2.2800184923359375,-1.0173795858966272,0.02418164536356926
1708440460.524626,-1.1043245792388916,-1.6823002300658167,-2.5266385714160364,2.2799648481556396,-1.017388645802633,0.024204209446907043
1708440460.5266507,-1.1043214797973633,-1.6823121509947718,-2.5266643206225794,2.2799767690845947,-1.0174019972430628,0.024211645126342773
1708440460.5286312,-1.1042962074279785,-1.6822873554625453,-2.5266762415515345,2.2800020414539794,-1.017421070729391,0.024211645126342773
1708440460.530652,-1.1042916774749756,-1.6823402843871058,-2.5266311804400843,2.2799767690845947,-1.017376724873678,0.024252334609627724
1708440460.532664,-1.104328989982605,-1.6823121509947718,-2.5266101996051233,2.2799886900135498,-1.0173795858966272,0.02425524592399597
1708440460.5346348,-1.1042917966842651,-1.6823412380614222,-2.5266476313220423,2.2800139623829345,-1.017404858266012,0.02419358491897583
1708440460.536639,-1.1042991876602173,-1.682295938531393,-2.5266431013690394,2.2799812990375976,-1.017388645802633,0.024210605770349503
1708440460.5386815,-1.104267954826355,-1.682263036767477,-2.5266552607165735,2.2799812990375976,-1.0173810164081019,0.024245068430900574
1708440460.5406895,-1.10431706905365,-1.682279726068014,-2.5266462008105677,2.2799977499195556,-1.0174182097064417,0.024210631847381592
1708440460.5426085,-1.1042678356170654,-1.6823088131346644,-2.5266221205340784,2.2799858289906005,-1.0173433462726038,0.024276524782180786
1708440460.5446064,-1.1042842864990234,-1.6822754345335902,-2.526652161275045,2.2799767690845947,-1.0173729101764124,0.024243425577878952
1708440460.5465932,-1.1042842864990234,-1.682319780389303,-2.5266552607165735,2.2799693781086425,-1.0173853079425257,0.0242270827293396
1708440460.5486321,-1.1042917966842651,-1.682295938531393,-2.5266340414630335,2.2799665170856933,-1.017392937337057,0.024252334609627724
1708440460.5505972,-1.1042962074279785,-1.682263036767477,-2.5266056696521204,2.2800184923359375,-1.0174062887774866,0.02420252561569214
1708440460.5526233,-1.1043306589126587,-1.6822840176024378,-2.5266507307635706,2.2799359995075683,-1.0173900763141077,0.024280935525894165
1708440460.5546546,-1.1042723655700684,-1.6822830639281214,-2.5266717115985315,2.2799181181141357,-1.0173524061786097,0.02425980567932129
1708440460.556682,-1.1042604446411133,-1.6823164425291957,-2.5266717115985315,2.2799061971851806,-1.0173853079425257,0.02424788475036621
1708440460.5585968,-1.1042559146881104,-1.6822873554625453,-2.5267003218280237,2.2798988062092285,-1.0173524061786097,0.024193603545427322
1708440460.5606215,-1.1042433977127075,-1.6822711429991664,-2.5266507307635706,2.2799529272266845,-1.0173900763141077,0.024247875437140465
1708440460.5626473,-1.1042433977127075,-1.682307859460348,-2.5266295115100306,2.279937668437622,-1.0173776785479944,0.024234384298324585
1708440460.5646207,-1.104246973991394,-1.6822711429991664,-2.5266385714160364,2.2799710470386962,-1.0173729101764124,0.024206120520830154
1708440460.566683,-1.10427987575531,-1.682319780389303,-2.5266552607165735,2.279909296626709,-1.0173595587359827,0.024243414402008057
1708440460.5686636,-1.104263424873352,-1.6823283634581507,-2.5266597906695765,2.279892845744751,-1.0173900763141077,0.02429289184510708
1708440460.570653,-1.1042181253433228,-1.6823398075499476,-2.5266626516925257,2.279897375697754,-1.0173566977130335,0.024243472144007683
1708440460.5726385,-1.1042344570159912,-1.682319780389303,-2.5266643206225794,2.2798780637928466,-1.017425839100973,0.02424788475036621
1708440460.5746944,-1.1043095588684082,-1.682324071923727,-2.5266101996051233,2.2798616129108886,-1.0173595587359827,0.024243423715233803
1708440460.5766914,-1.1042604446411133,-1.6823402843871058,-2.5266717115985315,2.2798401552387695,-1.01733905473818,0.02423885464668274
1708440460.578653,-1.1042768955230713,-1.6823121509947718,-2.5266717115985315,2.2797865110584716,-1.0174105803119105,0.02426874078810215
1708440460.5806572,-1.1042604446411133,-1.6823317013182582,-2.5266431013690394,2.2798191744038085,-1.0174301306353968,0.024243414402008057
1708440460.582672,-1.1042767763137817,-1.6823164425291957,-2.5266221205340784,2.2798191744038085,-1.0174019972430628,0.02420252561569214
1708440460.5846946,-1.1042388677597046,-1.682324071923727,-2.5266416708575647,2.2798706728168945,-1.017404858266012,0.024234429001808167
1708440460.5866709,-1.104248046875,-1.6823231182494105,-2.5266643206225794,2.2798446851917724,-1.0174148718463343,0.024227028712630272
1708440460.5887008,-1.1042650938034058,-1.6823274097838343,-2.5266762415515345,2.2798780637928466,-1.0173476378070276,0.024289896711707115
1708440460.5906715,-1.1042331457138062,-1.682385107079977,-2.5266688505755823,2.2799197870441894,-1.017404858266012,0.024243434891104698
1708440460.5926545,-1.1042569875717163,-1.6823111973204554,-2.5266431013690394,2.2798537450977783,-1.0173972288714808,0.024273216724395752
1708440460.5946584,-1.1042033433914185,-1.682324071923727,-2.5266266504870813,2.2798327642628173,-1.0173900763141077,0.02423594519495964
1708440460.5966432,-1.104231595993042,-1.6823274097838343,-2.5266416708575647,2.2799197870441894,-1.0174091498004358,0.024236034601926804
1708440460.5986872,-1.1042197942733765,-1.6823111973204554,-2.5266340414630335,2.2798661428638916,-1.017371956502096,0.024243434891104698
1708440460.6006956,-1.104236125946045,-1.682335992852682,-2.5266431013690394,2.2798797327229003,-1.0173810164081019,0.02424786612391472
1708440460.602648,-1.104198932647705,-1.6823035679259242,-2.5266838709460657,2.2798706728168945,-1.017371956502096,0.02425980567932129
1708440460.6046815,-1.1042168140411377,-1.682319780389303,-2.5266643206225794,2.279825373286865,-1.0173810164081019,0.02425980567932129
1708440460.6066432,-1.1042242050170898,-1.6823121509947718,-2.526637140904562,2.2797953325458984,-1.0173447767840784,0.02424338087439537
1708440460.6086464,-1.104204773902893,-1.682291646996969,-2.5266597906695765,2.2798372942158203,-1.0174139181720179,0.024247920140624046
1708440460.6106107,-1.1042287349700928,-1.682319780389303,-2.5266552607165735,2.2798492151447753,-1.0173810164081019,0.024280970916152
1708440460.6126797,-1.104154109954834,-1.6822787723936976,-2.5266221205340784,2.2798327642628173,-1.0173972288714808,0.024243418127298355
1708440460.6146355,-1.1042139530181885,-1.6823274097838343,-2.5267213026629847,2.2798797327229003,-1.01733905473818,0.024235999211668968
1708440460.6166291,-1.104230284690857,-1.6823598347105921,-2.5266295115100306,2.2797762590595703,-1.0174091498004358,0.02424786612391472
1708440460.6185951,-1.104181170463562,-1.6823274097838343,-2.5266249815570276,2.27985064565625,-1.0173810164081019,0.02426423691213131
1708440460.620666,-1.1041549444198608,-1.6822711429991664,-2.5266266504870813,2.2798046308704834,-1.0173595587359827,0.024292897433042526
1708440460.6226304,-1.1041929721832275,-1.6823684177794398,-2.5266597906695765,2.2797762590595703,-1.0174091498004358,0.02425524964928627
1708440460.6246288,-1.104181170463562,-1.682380815545553,-2.5266552607165735,2.2798165517994384,-1.017371956502096,0.02429283782839775
1708440460.6266809,-1.10419762134552,-1.682356973687643,-2.5266340414630335,2.279862566585205,-1.017388645802633,0.024218041449785233
1708440460.6286485,-1.1041719913482666,-1.6822787723936976,-2.5266268889056605,2.279825373286865,-1.017334286366598,0.024227047339081764
1708440460.6306741,-1.1042048931121826,-1.6823274097838343,-2.5266552607165735,2.2798165517994384,-1.0174420515643519,0.02426430955529213
1708440460.6326537,-1.1041505336761475,-1.682385107079977,-2.5266507307635706,2.279817982310913,-1.017392937337057,0.024231567978858948
1708440460.63462,-1.1041765213012695,-1.6823317013182582,-2.5266462008105677,2.279806061381958,-1.017392937337057,0.024235999211668968
1708440460.6365898,-1.1041594743728638,-1.6823598347105921,-2.5266249815570276,2.2798208433338623,-1.0173810164081019,0.024243434891104698
1708440460.6386116,-1.1041194200515747,-1.6823722324767054,-2.5266717115985315,2.279829903239868,-1.0173476378070276,0.02425079420208931
1708440460.640716,-1.1041313409805298,-1.6823398075499476,-2.5266762415515345,2.279822273845337,-1.017388645802633,0.024259770289063454
1708440460.6426368,-1.1041775941848755,-1.6823469601073207,-2.5266340414630335,2.2797927099415283,-1.0173915068255823,0.02427196502685547
1708440460.6446087,-1.1041522026062012,-1.6823960743346156,-2.526637140904562,2.27981345235791,-1.0173643271075647,0.024264255538582802
1708440460.6466405,-1.1041566133499146,-1.6823960743346156,-2.5267003218280237,2.279808922404907,-1.0173476378070276,0.02425524592399597
1708440460.648606,-1.1041357517242432,-1.6824003658690394,-2.5266884008990687,2.27982680379834,-1.017388645802633,0.024231497198343277
1708440460.6506026,-1.1041120290756226,-1.6824242077269496,-2.5266581217395228,2.279777689571045,-1.017404858266012,0.02427324466407299
1708440460.652634,-1.1040910482406616,-1.6823798618712367,-2.526691261922018,2.279834194774292,-1.017404858266012,0.024276498705148697
1708440460.6546752,-1.1041074991226196,-1.6824480495848597,-2.5266717115985315,2.279806061381958,-1.017421070729391,0.02423437498509884
1708440460.6566052,-1.1041074991226196,-1.6823789081969203,-2.5266416708575647,2.2798001009174804,-1.017404858266012,0.02424340508878231
1708440460.6586044,-1.1041074991226196,-1.6823989353575648,-2.5266462008105677,2.2798430162617187,-1.017404858266012,0.024231502786278725
1708440460.660618,-1.104123830795288,-1.682411333123678,-2.52665359178652,2.2797607618519287,-1.0173872152911585,0.024243425577878952
1708440460.6625853,-1.1041045188903809,-1.682415624658102,-2.5266431013690394,2.2797607618519287,-1.017404858266012,0.02420615591108799
1708440460.664613,-1.1041373014450073,-1.6824804745116175,-2.5266717115985315,2.2797369199940185,-1.0173633734332483,0.024243423715233803
1708440460.6665788,-1.104132890701294,-1.6823989353575648,-2.526695791875021,2.2797443109699707,-1.0174420515643519,0.024263037368655205
1708440460.6686406,-1.1041700839996338,-1.6824470959105433,-2.5266462008105677,2.2797652918049316,-1.017421070729391,0.02423149347305298
1708440460.6707156,-1.1041045188903809,-1.6824265919127406,-2.526635710393087,2.2797698217579345,-1.01746112505068,0.024267500266432762
1708440460.672605,-1.1040880680084229,-1.6824351749815882,-2.5266626516925257,2.2797295290180664,-1.0174287001239222,0.02425679937005043
1708440460.6745796,-1.1041537523269653,-1.6824842892088832,-2.5266643206225794,2.2797295290180664,-1.017383877431051,0.024301856756210327
1708440460.676681,-1.1041209697723389,-1.6824385128416957,-2.5266717115985315,2.2797295290180664,-1.017416779194967,0.02424788475036621
1708440460.678659,-1.1040762662887573,-1.6824513874449671,-2.5266717115985315,2.2797011572071533,-1.0174077192889612,0.024243414402008057
1708440460.6806428,-1.1041090488433838,-1.6824914417662562,-2.526679340993063,2.279651327724121,-1.017449680958883,0.024184519425034523
1708440460.6826766,-1.104047179222107,-1.682455678979391,-2.5266204516040247,2.279714508647583,-1.0174287001239222,0.02428993582725525
1708440460.6846633,-1.1040806770324707,-1.6824385128416957,-2.5267003218280237,2.279702826137207,-1.0174315611468714,0.02419358491897583
1708440460.6866002,-1.104059100151062,-1.6824799976744593,-2.526670281087057,2.279698296184204,-1.0174005667315882,0.024217993021011353
1708440460.6886086,-1.104059100151062,-1.6825038395323695,-2.5266762415515345,2.279648466701172,-1.017465893422262,0.02425980567932129
1708440460.6907241,-1.104063630104065,-1.6824470959105433,-2.5267048517810267,2.279722138042114,-1.0174568335162562,0.02430930733680725
1708440460.6926606,-1.104047179222107,-1.682443758050436,-2.52667481104006,2.279681845302246,-1.017449680958883,0.02420160174369812
1708440460.694607,-1.1040518283843994,-1.682516714135641,-2.526686731969015,2.279722138042114,-1.0174287001239222,0.02424788475036621
1708440460.6966045,-1.1040728092193604,-1.682488580743307,-2.52667481104006,2.279698296184204,-1.0174406210528772,0.02430623210966587
1708440460.6986055,-1.104059100151062,-1.6824799976744593,-2.526724163685934,2.279689236278198,-1.0174287001239222,0.02424788475036621
1708440460.700605,-1.10408616065979,-1.6824914417662562,-2.5267213026629847,2.279686375255249,-1.017432991658346,0.024252355098724365
1708440460.702599,-1.1040399074554443,-1.68249573330068,-2.5266507307635706,2.279751940364502,-1.01746112505068,0.024285465478897095
1708440460.7047267,-1.1040235757827759,-1.6824590168394984,-2.5266838709460657,2.279639406795166,-1.0174482504474085,0.02424788475036621
1708440460.70662,-1.1040608882904053,-1.6824428043761195,-2.526712242756979,2.279726429576538,-1.0174434820758265,0.02425682544708252
1708440460.7086012,-1.1040652990341187,-1.6824103794493617,-2.5267332235919397,2.279705687160156,-1.0174363295184534,0.02424791269004345
1708440460.7106025,-1.104035496711731,-1.6824223003783167,-2.52665359178652,2.279698296184204,-1.0174978415118616,0.02426876500248909
1708440460.7125962,-1.1040279865264893,-1.6824513874449671,-2.5267048517810267,2.279702826137207,-1.0174930731402796,0.024217993021011353
1708440460.714622,-1.1040533781051636,-1.6824599705138148,-2.526695791875021,2.279710217113159,-1.0174978415118616,0.024255285039544106
1708440460.7166114,-1.1040414571762085,-1.682455678979391,-2.526712242756979,2.279648466701172,-1.0174348990069788,0.024219581857323647
1708440460.7186034,-1.1040399074554443,-1.6824757061400355,-2.5266416708575647,2.2796529966541748,-1.0174930731402796,0.024250799790024757
1708440460.7206295,-1.10402512550354,-1.68249573330068,-2.5266581217395228,2.279689236278198,-1.0175092856036585,0.024273216724395752
1708440460.722599,-1.1040459871292114,-1.682455678979391,-2.5266507307635706,2.279695435161255,-1.0174806753741663,0.024250775575637817
1708440460.7246027,-1.1040042638778687,-1.6824385128416957,-2.5266626516925257,2.27966491758313,-1.0174434820758265,0.024268774315714836
1708440460.726661,-1.1040071249008179,-1.6824308834471644,-2.526703182850973,2.279735727901123,-1.0175092856036585,0.02429291605949402
1708440460.7286417,-1.1039907932281494,-1.6824146709837855,-2.5266838709460657,2.279660387630127,-1.0175045172320765,0.02426871284842491
1708440460.7306554,-1.1040489673614502,-1.6824513874449671,-2.5267003218280237,2.2796248632618408,-1.0175302664386194,0.024264255538582802
1708440460.7326114,-1.104020595550537,-1.6824547253050746,-2.52667481104006,2.279599352473877,-1.0174720923053187,0.024235963821411133
1708440460.7346175,-1.1040579080581665,-1.682467599908346,-2.526691261922018,2.279627485866211,-1.0174720923053187,0.024297306314110756
1708440460.7367074,-1.1039923429489136,-1.6824928722777308,-2.5267167727099817,2.279639406795166,-1.0175169149981897,0.024252424016594887
1708440460.7386582,-1.104020595550537,-1.6824513874449671,-2.5267003218280237,2.279618664378784,-1.0174930731402796,0.024255212396383286
1708440460.7406752,-1.1040488481521606,-1.6824470959105433,-2.52667481104006,2.2796410757252197,-1.0175216833697718,0.02428390458226204
1708440460.7426336,-1.1040325164794922,-1.682467599908346,-2.526686731969015,2.279695435161255,-1.0175660292254847,0.02429734170436859
1708440460.7445967,-1.1040116548538208,-1.6824308834471644,-2.5266416708575647,2.2796501356312255,-1.0175169149981897,0.024243414402008057
1708440460.7465851,-1.104020595550537,-1.682455678979391,-2.5266884008990687,2.279711886043213,-1.0175092856036585,0.024243425577878952
1708440460.7486205,-1.104008674621582,-1.6824799976744593,-2.5266671816455286,2.279686375255249,-1.0175169149981897,0.024222517386078835
1708440460.750608,-1.104020595550537,-1.682467599908346,-2.52665359178652,2.279695435161255,-1.0174959341632288,0.024264272302389145
1708440460.752609,-1.104020595550537,-1.6824103794493617,-2.5267003218280237,2.279655857677124,-1.0175288359271448,0.024259770289063454
1708440460.754637,-1.104020595550537,-1.682467599908346,-2.52667481104006,2.279693766231201,-1.0175002256976526,0.024231532588601112
1708440460.756603,-1.103996753692627,-1.6824590168394984,-2.526695791875021,2.2796410757252197,-1.017508331929342,0.02420705370604992
1708440460.7585988,-1.1040116548538208,-1.6825000248351039,-2.5267046133624476,2.279632015819214,-1.017508331929342,0.024181801825761795
1708440460.7605824,-1.1040370464324951,-1.6824385128416957,-2.526691261922018,2.279702826137207,-1.0175617376910608,0.024252355098724365
1708440460.7626133,-1.1040160655975342,-1.6824633083739222,-2.5266626516925257,2.27970735609021,-1.0175336042987269,0.02424788475036621
1708440460.764621,-1.1040623188018799,-1.6824146709837855,-2.526728693638937,2.279693766231201,-1.0174911657916468,0.02428099513053894
1708440460.7666109,-1.1040235757827759,-1.6824633083739222,-2.5266507307635706,2.2796529966541748,-1.0175169149981897,0.024250799790024757
1708440460.7686133,-1.1039663553237915,-1.682455678979391,-2.5266462008105677,2.279693766231201,-1.017545525227682,0.024219611659646034
1708440460.7706375,-1.1039878129959106,-1.6825128994383753,-2.526665751134054,2.2796684938618164,-1.0174959341632288,0.024264272302389145
1708440460.7726502,-1.1040042638778687,-1.6825043163695277,-2.5267003218280237,2.279636784190796,-1.0175336042987269,0.024285493418574333
1708440460.774666,-1.1040608882904053,-1.6824633083739222,-2.5267213026629847,2.2796575266071777,-1.017524544392721,0.024252355098724365
1708440460.776653,-1.1040042638778687,-1.6824342213072718,-2.526728693638937,2.279693766231201,-1.0175002256976526,0.024235982447862625
1708440460.7786067,-1.1039707660675049,-1.6824513874449671,-2.5266462008105677,2.279719277019165,-1.0175288359271448,0.024264276027679443
1708440460.7806566,-1.1040414571762085,-1.6824799976744593,-2.5266838709460657,2.279677315349243,-1.017453972493307,0.02425980567932129
1708440460.78268,-1.1039797067642212,-1.6824513874449671,-2.526695791875021,2.2796575266071777,-1.0175336042987269,0.024222463369369507
1708440460.784647,-1.1040160655975342,-1.682455678979391,-2.526712242756979,2.2796529966541748,-1.017512623463766,0.024264264851808548
1708440460.7866445,-1.1040414571762085,-1.6824828586974085,-2.526707712803976,2.27966491758313,-1.0175045172320765,0.02422250807285309
1708440460.7886379,-1.104020595550537,-1.6824265919127406,-2.526670281087057,2.279719277019165,-1.0175002256976526,0.02424788475036621
1708440460.790599,-1.1040160655975342,-1.682439466516012,-2.526691261922018,2.279627485866211,-1.0175259749041956,0.024243414402008057
1708440460.7926133,-1.1039997339248657,-1.682439466516012,-2.526728693638937,2.279677315349243,-1.017475430165426,0.02422705665230751
1708440460.7946486,-1.1039952039718628,-1.6824599705138148,-2.52669865289797,2.2796575266071777,-1.0174711386310022,0.02426142990589142
1708440460.7966895,-1.1039997339248657,-1.6824308834471644,-2.5266884008990687,2.279620333308838,-1.0175002256976526,0.02424786612391472
1708440460.8006315,-1.1040279865264893,-1.6824470959105433,-2.526707712803976,2.279723806972168,-1.0175288359271448,0.024268686771392822
1708440460.802658,-1.1040116548538208,-1.6824599705138148,-2.526686731969015,2.279698296184204,-1.0175216833697718,0.02427651546895504
1708440460.8046472,-1.1040399074554443,-1.682488580743307,-2.5267003218280237,2.279648466701172,-1.0175216833697718,0.024235937744379044
1708440460.8066325,-1.1039788722991943,-1.6824470959105433,-2.526665751134054,2.279655857677124,-1.0175202528582972,0.024252334609627724
1708440460.8086042,-1.1040281057357788,-1.6824070415892542,-2.5266295115100306,2.279681845302246,-1.0174825827227991,0.024277865886688232
1708440460.8106081,-1.1040161848068237,-1.682427545587057,-2.526712242756979,2.279698296184204,-1.017512623463766,0.024285437539219856
1708440460.8126435,-1.1040654182434082,-1.6824757061400355,-2.52665359178652,2.2796694475361328,-1.017508331929342,0.024273216724395752
1708440460.8145924,-1.1040652990341187,-1.6824070415892542,-2.526703182850973,2.279722138042114,-1.017512623463766,0.02421797439455986
1708440460.8166635,-1.1039834022521973,-1.6824189625182093,-2.526712242756979,2.279719277019165,-1.0175336042987269,0.02428099513053894
1708440460.8185904,-1.1040414571762085,-1.6824070415892542,-2.526686731969015,2.279627485866211,-1.0174911657916468,0.024280952289700508
1708440460.8206434,-1.1040325164794922,-1.6824718914427699,-2.5266462008105677,2.27974717199292,-1.0175288359271448,0.024247849360108376
1708440460.8226202,-1.1040399074554443,-1.682467599908346,-2.5266838709460657,2.279705687160156,-1.0175407568561,0.024276552721858025
1708440460.8246126,-1.1040160655975342,-1.682411333123678,-2.526724163685934,2.279693766231201,-1.0175336042987269,0.024228746071457863
1708440460.8266647,-1.1040698289871216,-1.6824428043761195,-2.526679340993063,2.279632015819214,-1.0175288359271448,0.024264294654130936
1708440460.8286352,-1.1040160655975342,-1.6824480495848597,-2.52667481104006,2.27966491758313,-1.017458740864889,0.024231497198343277
1708440460.8306634,-1.1040652990341187,-1.682394643823141,-2.526677672063009,2.279754801387451,-1.0174959341632288,0.024264276027679443
1708440460.832613,-1.10402512550354,-1.6824189625182093,-2.5266671816455286,2.2796684938618164,-1.0175421873675745,0.02425236999988556
1708440460.8346186,-1.1040370464324951,-1.6824351749815882,-2.5266340414630335,2.279738350505493,-1.0174720923053187,0.024202482774853706
1708440460.8366418,-1.1040071249008179,-1.682443758050436,-2.5267003218280237,2.279738350505493,-1.0175336042987269,0.024301808327436447
1708440460.8386528,-1.1040370464324951,-1.6824642620482386,-2.5267003218280237,2.2797340589710693,-1.017484490071432,0.02426876500248909
1708440460.840741,-1.10408616065979,-1.6824027500548304,-2.526691261922018,2.2796849447437744,-1.0175169149981897,0.02425234392285347
1708440460.842665,-1.1040472984313965,-1.6824070415892542,-2.526691261922018,2.2796639639088134,-1.017512623463766,0.024273235350847244
1708440460.844635,-1.1040563583374023,-1.6824480495848597,-2.526691261922018,2.279710217113159,-1.0175002256976526,0.024247849360108376
1708440460.8466525,-1.1041107177734375,-1.6824189625182093,-2.526679340993063,2.279714747066162,-1.0175002256976526,0.024231519550085068
1708440460.8486044,-1.1040898561477661,-1.682415624658102,-2.52667481104006,2.279719277019165,-1.0175045172320765,0.02424786612391472
1708440460.8506074,-1.1040682792663574,-1.6824070415892542,-2.526728693638937,2.2797204691120605,-1.0175288359271448,0.024177096784114838
1708440460.8526666,-1.1040728092193604,-1.6825133762755335,-2.5266581217395228,2.2797176080891113,-1.0174959341632288,0.024243414402008057
1708440460.8546364,-1.1041226387023926,-1.682427545587057,-2.526695791875021,2.2797087866016845,-1.01747972169985,0.024215126410126686
1708440460.8566449,-1.1040728092193604,-1.6824480495848597,-2.5266838709460657,2.2797249990650634,-1.017484490071432,0.0242523942142725
1708440460.8586001,-1.1041017770767212,-1.6824480495848597,-2.5267167727099817,2.2797340589710693,-1.017486874257223,0.024301856756210327
1708440460.8606043,-1.1041134595870972,-1.6824971638121546,-2.5266717115985315,2.2797340589710693,-1.0175092856036585,0.024252355098724365
1708440460.8626206,-1.1040836572647095,-1.6824523411192835,-2.526712242756979,2.279722138042114,-1.0174887816058558,0.024189025163650513
1708440460.8646126,-1.104116439819336,-1.6824027500548304,-2.5266581217395228,2.2797278600880126,-1.017512623463766,0.024285465478897095
1708440460.8666072,-1.1041090488433838,-1.6824480495848597,-2.526712242756979,2.2797326284595947,-1.017484490071432,0.02423885464668274
1708440460.868616,-1.1041045188903809,-1.682467599908346,-2.5266838709460657,2.2798074918934326,-1.0174511114703577,0.02424788475036621
1708440460.8706827,-1.1041045188903809,-1.682411333123678,-2.526724163685934,2.279822273845337,-1.0174554030047815,0.024243414402008057
1708440460.872635,-1.104140281677246,-1.682439466516012,-2.526695791875021,2.2797652918049316,-1.0174434820758265,0.024268722161650658
1708440460.8746219,-1.104123830795288,-1.6824189625182093,-2.526740852986471,2.279801531428955,-1.0174687544452112,0.02428543008863926
1708440460.8766594,-1.1041357517242432,-1.6824351749815882,-2.526736323033468,2.279900475139282,-1.0174482504474085,0.024268686771392822
1708440460.878649,-1.1041549444198608,-1.682443758050436,-2.5266884008990687,2.2797910410114746,-1.0174978415118616,0.024285465478897095
1708440460.8806736,-1.1041430234909058,-1.6824590168394984,-2.526679340993063,2.2798537450977783,-1.0174525419818323,0.02423149347305298
1708440460.8826861,-1.1041641235351562,-1.6824351749815882,-2.526752535496847,2.2798446851917724,-1.0174482504474085,0.02424040623009205
1708440460.8846536,-1.1042020320892334,-1.682439466516012,-2.5266838709460657,2.2798401552387695,-1.0175092856036585,0.024227047339081764
1708440460.8866544,-1.1041901111602783,-1.6824480495848597,-2.52669865289797,2.279872103328369,-1.0174601713763636,0.02424043044447899
1708440460.8886056,-1.1041730642318726,-1.6824642620482386,-2.526691261922018,2.279884024257324,-1.0174554030047815,0.02425982430577278
