Eg3-git/Classifiers/Data Collection/u7/u7abc1_ur3e_joint_states.csv
time,elbow_joint,shoulder_lift_joint,shoulder_pan_joint,wrist_1_joint,wrist_2_joint,wrist_3_joint
1708440324.148089,-1.106256365776062,-1.6813017330565394,-2.5270302931415003,2.2823049265095214,-1.0179556051837366,1.0271644592285156
1708440324.1500907,-1.1062592267990112,-1.6812449894347132,-2.5270090738879603,2.2822698789783935,-1.0179274717914026,1.027252435684204
1708440324.1520548,-1.1062546968460083,-1.6812778911986292,-2.527076784764425,2.282282515163086,-1.0179107824908655,1.027298927307129
1708440324.1540585,-1.106300950050354,-1.6812812290587367,-2.5270348230945032,2.2823285299488525,-1.0179155508624476,1.0273544788360596
1708440324.156061,-1.1063008308410645,-1.6812974415221156,-2.527039353047506,2.2822913366505126,-1.0179241339312952,1.027488112449646
1708440324.1580703,-1.1062382459640503,-1.6813107929625453,-2.5270076433764856,2.2823242384144287,-1.0179241339312952,1.0275511741638184
1708440324.1600876,-1.1062800884246826,-1.6812526188292445,-2.5270076433764856,2.2822343546101074,-1.0179031530963343,1.0276271104812622
1708440324.1620603,-1.1062666177749634,-1.6813084087767542,-2.5269702116595667,2.2823662000843505,-1.0179451147662562,1.0277347564697266
1708440324.1640594,-1.1063202619552612,-1.6813036404051722,-2.5269792715655726,2.282315178508423,-1.0178759733783167,1.0277736186981201
1708440324.166054,-1.1063157320022583,-1.6812359295287074,-2.5269551912890833,2.2823332983204345,-1.017916504536764,1.0278772115707397
1708440324.1680548,-1.106311321258545,-1.6812569103636683,-2.526922051106588,2.2823614317127685,-1.017900292073385,1.0279529094696045
1708440324.170067,-1.106311321258545,-1.6812645397581996,-2.5269716421710413,2.2823213773914794,-1.017916504536764,1.028045654296875
1708440324.1720567,-1.1063069105148315,-1.6812778911986292,-2.526943031941549,2.2823404508778076,-1.0178969542132776,1.028121829032898
1708440324.174057,-1.106306791305542,-1.6812778911986292,-2.526968781148092,2.2823497492023925,-1.0178478399859827,1.0282130241394043
1708440324.1760595,-1.1063566207885742,-1.6812616787352503,-2.5269177595721644,2.2822744089313964,-1.0178759733783167,1.0282806158065796
1708440324.17807,-1.1063188314437866,-1.6813227138915003,-2.5269551912890833,2.2822698789783935,-1.0178359190570276,1.0283595323562622
1708440324.1800423,-1.1063305139541626,-1.6813036404051722,-2.526922051106588,2.282289906139038,-1.0178402105914515,1.028427004814148
1708440324.1820507,-1.1063441038131714,-1.6813346348204554,-2.5269177595721644,2.2822868066975097,-1.0178535620318812,1.028587818145752
1708440324.1840558,-1.1063441038131714,-1.6813179455199183,-2.526931111012594,2.2822913366505126,-1.0178239981280726,1.0286586284637451
1708440324.186067,-1.106327772140503,-1.6812192402281703,-2.526938501988546,2.2823287683674316,-1.0178044478045862,1.028794527053833
1708440324.1880841,-1.1063441038131714,-1.6812283001341761,-2.526952091847555,2.2823197084614257,-1.0178077856646937,1.0288335084915161
1708440324.1900434,-1.1063140630722046,-1.681315084496969,-2.526910130177633,2.2823404508778076,-1.017761532460348,1.0289651155471802
1708440324.1921017,-1.1063611507415771,-1.6812416515746058,-2.5269013086902063,2.2823032575794677,-1.0178163687335413,1.0291106700897217
1708440324.194058,-1.1063638925552368,-1.6813107929625453,-2.5269401709186,2.2823197084614257,-1.0177925268756312,1.029213786125183
1708440324.196046,-1.1063730716705322,-1.6812950573363246,-2.526923720036642,2.282310886973999,-1.0177667776690882,1.0293049812316895
1708440324.1980562,-1.1063803434371948,-1.681291242639059,-2.5269761721240442,2.2823242384144287,-1.0177958647357386,1.029452919960022
1708440324.2000265,-1.1063475608825684,-1.6812325916686,-2.526898209248678,2.2823404508778076,-1.0177596251117151,1.0295592546463013
1708440324.2020435,-1.106375813484192,-1.6812368832030238,-2.5269163290606897,2.282273693675659,-1.0177925268756312,1.0296505689620972
1708440324.2040482,-1.106375813484192,-1.681291242639059,-2.526902739201681,2.2823285299488525,-1.0177682081805628,1.0298107862472534
1708440324.2060604,-1.1063096523284912,-1.6812616787352503,-2.526893917714254,2.2823197084614257,-1.0177729765521448,1.0299062728881836
1708440324.208028,-1.1063475608825684,-1.6812659702696742,-2.526923720036642,2.282348080272339,-1.017735783253805,1.030070185661316
1708440324.2101188,-1.106343150138855,-1.6812659702696742,-2.526919190083639,2.2823523718067626,-1.0177443663226526,1.0301973819732666
1708440324.2120478,-1.1063625812530518,-1.681296011010641,-2.526881519948141,2.2823287683674316,-1.0177190939532679,1.0303406715393066
1708440324.2140543,-1.1063803434371948,-1.6812688312926234,-2.526911799107687,2.2823569017597656,-1.0177281538592737,1.0304765701293945
1708440324.2160473,-1.1063051223754883,-1.6812778911986292,-2.526911799107687,2.28231064855542,-1.0177071730243128,1.030657172203064
1708440324.218047,-1.1063475608825684,-1.6812325916686,-2.5269163290606897,2.2823077875324707,-1.0177190939532679,1.0308078527450562
1708440324.2200527,-1.106399655342102,-1.6812359295287074,-2.5268877188311976,2.2822281557270507,-1.0177534262286585,1.0309317111968994
1708440324.2220578,-1.106404185295105,-1.6812325916686,-2.526928249989645,2.2823285299488525,-1.0177610556231897,1.0310819149017334
1708440324.2240717,-1.106387734413147,-1.6813403568663539,-2.5268576780902308,2.282277985210083,-1.0176985899554651,1.0312503576278687
1708440324.2260807,-1.1063789129257202,-1.6812902889647425,-2.526902739201681,2.282315178508423,-1.01772386232485,1.0313972234725952
1708440324.228113,-1.1063833236694336,-1.6812449894347132,-2.5269163290606897,2.282294436092041,-1.0177534262286585,1.0315361022949219
1708440324.2300625,-1.1063461303710938,-1.6812406979002894,-2.526865307484762,2.282289906139038,-1.0177281538592737,1.0317070484161377
1708440324.2320654,-1.1064085960388184,-1.6813036404051722,-2.526944700871603,2.282348080272339,-1.0177324453936976,1.0319437980651855
1708440324.2340548,-1.1063966751098633,-1.6813107929625453,-2.5269041697131556,2.282315178508423,-1.0177372137652796,1.0320663452148438
1708440324.2360413,-1.1064280271530151,-1.6813107929625453,-2.5268831888781946,2.282277985210083,-1.0176757017718714,1.0323066711425781
1708440324.2380567,-1.1063908338546753,-1.6812406979002894,-2.5268619696246546,2.282348080272339,-1.0176919142352503,1.032513976097107
1708440324.2400446,-1.106404185295105,-1.6812950573363246,-2.5268664995776575,2.282315178508423,-1.0176876227008265,1.0326688289642334
1708440324.242082,-1.1064071655273438,-1.6813084087767542,-2.52683669725527,2.282315178508423,-1.0176876227008265,1.0329049825668335
1708440324.2440746,-1.106338620185852,-1.681282182733053,-2.5268877188311976,2.2822698789783935,-1.0176962057696741,1.0330836772918701
1708440324.246068,-1.1063461303710938,-1.6812778911986292,-2.5268293062793177,2.2823197084614257,-1.0177043120013636,1.0333195924758911
1708440324.2480867,-1.1063789129257202,-1.6812368832030238,-2.5268576780902308,2.2823242384144287,-1.0176876227008265,1.033485770225525
1708440324.2500727,-1.1063789129257202,-1.68127503017568,-2.5268545786487024,2.2823659616657714,-1.0176962057696741,1.033692479133606
1708440324.2520232,-1.1063371896743774,-1.6812659702696742,-2.5268262068377894,2.2823285299488525,-1.0176962057696741,1.0339157581329346
1708440324.2540429,-1.10641610622406,-1.681315084496969,-2.5268262068377894,2.2822744089313964,-1.0176876227008265,1.034159541130066
1708440324.2560425,-1.1063624620437622,-1.681254049340719,-2.5269175211535853,2.2823523718067626,-1.0176876227008265,1.0343822240829468
1708440324.2580264,-1.1064294576644897,-1.681254049340719,-2.526818815861837,2.2823778825947265,-1.0176637808429163,1.0346059799194336
1708440324.260429,-1.1063505411148071,-1.6812659702696742,-2.5268142859088343,2.282315178508423,-1.0176709334002894,1.0348411798477173
1708440324.2620285,-1.1063215732574463,-1.681282182733053,-2.5268128553973597,2.282343550319336,-1.0176637808429163,1.0350353717803955
1708440324.2640302,-1.1063833236694336,-1.6812406979002894,-2.526856247578756,2.282310886973999,-1.0176637808429163,1.035332202911377
1708440324.2660348,-1.10635507106781,-1.681270261804098,-2.5268142859088343,2.2823659616657714,-1.0176766554461878,1.03557550907135
1708440324.2680247,-1.1063997745513916,-1.6812459431090296,-2.526827875767843,2.2822610574909667,-1.0176757017718714,1.0358459949493408
1708440324.2700398,-1.1064324378967285,-1.6812449894347132,-2.52682334581484,2.2823404508778076,-1.0176470915423792,1.0360721349716187
1708440324.2720332,-1.1063952445983887,-1.6812325916686,-2.5268636385547083,2.282331629390381,-1.017689053212301,1.0363514423370361
1708440324.2740622,-1.1063624620437622,-1.681282182733053,-2.526839796696798,2.2823168474384765,-1.0176351706134241,1.0366231203079224
1708440324.276022,-1.1063997745513916,-1.681282182733053,-2.526827875767843,2.2823378282734375,-1.01764423051943,1.0368773937225342
1708440324.2780437,-1.106399655342102,-1.6813036404051722,-2.5268591086017054,2.2823242384144287,-1.0176904837237757,1.037190318107605
1708440324.2800524,-1.106399655342102,-1.6812406979002894,-2.526835266743795,2.2823659616657714,-1.017632309590475,1.0374211072921753
1708440324.282053,-1.1063789129257202,-1.6812449894347132,-2.526818815861837,2.2823285299488525,-1.0176070372210901,1.0376427173614502
1708440324.2840455,-1.10641610622406,-1.6812497578062953,-2.526764694844381,2.2822913366505126,-1.017628018056051,1.0379501581192017
1708440324.2860599,-1.1063506603240967,-1.68127503017568,-2.526781145726339,2.2822913366505126,-1.017693344746725,1.038199782371521
1708440324.2880259,-1.1063787937164307,-1.6812283001341761,-2.526806894932882,2.2823285299488525,-1.0176203886615198,1.0384670495986938
1708440324.2900603,-1.1063416004180908,-1.6812325916686,-2.52682334581484,2.2823032575794677,-1.0176575819598597,1.0387542247772217
1708440324.292075,-1.106404185295105,-1.681270261804098,-2.526839796696798,2.2822958666035156,-1.017611328755514,1.03904128074646
1708440324.2940404,-1.1064131259918213,-1.68127503017568,-2.5268035570727747,2.2822624880024414,-1.0176532904254358,1.0393356084823608
1708440324.2960682,-1.1063952445983887,-1.681221147576803,-2.526827875767843,2.2822579580494384,-1.0176532904254358,1.0396342277526855
1708440324.298039,-1.1064115762710571,-1.681193014184469,-2.52682334581484,2.282247706050537,-1.0175789038287562,1.0399740934371948
1708440324.3000674,-1.1063759326934814,-1.6812588177123011,-2.526806894932882,2.2822269636341552,-1.0176294485675257,1.0402331352233887
1708440324.3020306,-1.106404185295105,-1.6812449894347132,-2.526778046284811,2.282268448466919,-1.0176246801959437,1.0405393838882446
1708440324.304045,-1.1063668727874756,-1.6812135181822718,-2.526815954838888,2.2822343546101074,-1.0175922552691858,1.0408347845077515
1708440324.306043,-1.1063833236694336,-1.6812569103636683,-2.526799027119772,2.2822415071674804,-1.0175665060626429,1.0411089658737183
1708440324.3080354,-1.106375813484192,-1.6812168560423792,-2.526806894932882,2.2822415071674804,-1.0175684134112757,1.0414533615112305
1708440324.3100452,-1.1063624620437622,-1.6812416515746058,-2.5267661253558558,2.28227607786145,-1.0175727049456995,1.041739583015442
1708440324.312039,-1.10639226436615,-1.6812416515746058,-2.526778046284811,2.2822388845631103,-1.0175841490374964,1.0420633554458618
1708440324.3140497,-1.10639226436615,-1.6812459431090296,-2.5267542044269007,2.282194061870239,-1.0175727049456995,1.0423574447631836
1708440324.3160229,-1.1063461303710938,-1.681230207482809,-2.526789967213766,2.2822281557270507,-1.0175603071795862,1.0426119565963745
1708440324.3180442,-1.1063505411148071,-1.681284090081686,-2.5268123785602015,2.28222839414563,-1.0175884405719202,1.042950987815857
1708440324.32004,-1.1063759326934814,-1.68127503017568,-2.526802364979879,2.282240315074585,-1.0175307432757776,1.0432294607162476
1708440324.3220563,-1.1063730716705322,-1.6812416515746058,-2.5268035570727747,2.282256765956543,-1.0175021330462855,1.0436053276062012
1708440324.3240664,-1.1063669919967651,-1.6812459431090296,-2.526820484791891,2.2822329240986328,-1.0175321737872522,1.0438990592956543
1708440324.3260646,-1.1063638925552368,-1.6812507114806117,-2.5267542044269007,2.2821830946156005,-1.0175407568561,1.0442582368850708
1708440324.3280528,-1.106375813484192,-1.6812344990172328,-2.5268004576312464,2.282207413310669,-1.0175169149981897,1.0446016788482666
1708440324.3300729,-1.1063296794891357,-1.6812135181822718,-2.526829544697897,2.2821695047565917,-1.0174911657916468,1.0448520183563232
1708440324.332134,-1.1063505411148071,-1.681263109246725,-2.5267677942859095,2.2821592527576904,-1.017512623463766,1.0452113151550293
1708440324.3340545,-1.1063594818115234,-1.68119539837026,-2.5268035570727747,2.2821456628986816,-1.017484490071432,1.045501708984375
1708440324.3360722,-1.1063505411148071,-1.6812111339964808,-2.5267961660968226,2.2821964460560302,-1.0175169149981897,1.045783519744873
1708440324.3380637,-1.106375813484192,-1.6812793217101039,-2.5267558733569544,2.2821518617817382,-1.0174887816058558,1.0461307764053345
1708440324.3400743,-1.1063215732574463,-1.681263109246725,-2.5267558733569544,2.28217260419812,-1.0174887816058558,1.0464341640472412
1708440324.3420796,-1.1063475608825684,-1.681230207482809,-2.5267422834979456,2.2821637827106933,-1.0174806753741663,1.0468101501464844
1708440324.3440359,-1.1063803434371948,-1.6812135181822718,-2.5267723242389124,2.282137079829834,-1.0175178686725062,1.0470144748687744
1708440324.3460555,-1.10635507106781,-1.6812135181822718,-2.526710573826925,2.282107039088867,-1.0174315611468714,1.047361969947815
1708440324.348058,-1.106338620185852,-1.6812368832030238,-2.5267139116870325,2.282116098994873,-1.0174406210528772,1.0476534366607666
1708440324.3500762,-1.1063475608825684,-1.681199689904684,-2.526736323033468,2.2820982176014404,-1.0174201170550745,1.0479923486709595
1708440324.3520575,-1.106338620185852,-1.6812406979002894,-2.526682202016012,2.2821342188068847,-1.017449680958883,1.04825758934021
1708440324.354043,-1.10635507106781,-1.6812597713866175,-2.526740852986471,2.282061739558838,-1.017404858266012,1.0485727787017822
1708440324.3560405,-1.1063475608825684,-1.6812416515746058,-2.5266898314105433,2.2821215826221923,-1.017404858266012,1.0488311052322388
1708440324.3580518,-1.106343150138855,-1.681230207482809,-2.526665989552633,2.2821072775074462,-1.0173595587359827,1.0490869283676147
1708440324.3600354,-1.1063096523284912,-1.6812344990172328,-2.526703182850973,2.282132549876831,-1.0173524061786097,1.049442172050476
1708440324.3620565,-1.1063261032104492,-1.681225915948385,-2.5267003218280237,2.2821125227161865,-1.0174062887774866,1.0496959686279297
1708440324.3640523,-1.1062889099121094,-1.6812616787352503,-2.526695791875021,2.2821037012287597,-1.0173853079425257,1.0499757528305054
1708440324.3660715,-1.1063475608825684,-1.681230207482809,-2.5266884008990687,2.2820963102528076,-1.0173566977130335,1.0502830743789673
1708440324.3680387,-1.106375813484192,-1.6812392673888148,-2.5266838709460657,2.2820662695118408,-1.0173371473895472,1.0505211353302002
1708440324.3700411,-1.1063305139541626,-1.681230207482809,-2.5266431013690394,2.2820843893238525,-1.0173490683185022,1.0508406162261963
1708440324.3720486,-1.1063441038131714,-1.681263109246725,-2.5266431013690394,2.2820662695118408,-1.0173166433917444,1.051054835319519
1708440324.374067,-1.106343150138855,-1.681230207482809,-2.5266717115985315,2.2821008402058105,-1.0172727743731897,1.0513100624084473
1708440324.376049,-1.106311321258545,-1.6812459431090296,-2.5266597906695765,2.2820886808582763,-1.017268482838766,1.0515685081481934
1708440324.3780956,-1.1063894033432007,-1.681188245812887,-2.526635710393087,2.2820471960255126,-1.0172236601458948,1.0518077611923218
1708440324.3800712,-1.1063305139541626,-1.6812087498106898,-2.5266431013690394,2.2820352750965576,-1.0172370115863245,1.0520025491714478
1708440324.3820596,-1.1063475608825684,-1.6812674007811488,-2.5266476313220423,2.2820753294178466,-1.0172532240497034,1.0522654056549072
1708440324.3840501,-1.1063441038131714,-1.6812135181822718,-2.526595417653219,2.2820588785358886,-1.0171921888934534,1.052533507347107
1708440324.3860593,-1.1063069105148315,-1.681204458276266,-2.5265818277942103,2.2820560175129394,-1.0171850363360804,1.0527284145355225
1708440324.3880455,-1.1062978506088257,-1.6812221012511195,-2.5265665690051478,2.2820769983479003,-1.017127815877096,1.0529401302337646
1708440324.3900464,-1.1063475608825684,-1.6812674007811488,-2.526590887700216,2.282102270717285,-1.0171201864825647,1.0531229972839355
1708440324.3920422,-1.1063188314437866,-1.6811891994872035,-2.526562039052145,2.282019777888916,-1.0171530882464808,1.0532854795455933
1708440324.394059,-1.1063023805618286,-1.681225915948385,-2.526578728352682,2.281977816218994,-1.0171039740191858,1.0534605979919434
1708440324.3960469,-1.106381893157959,-1.681230207482809,-2.5265546480761927,2.2820486265369873,-1.0171616713153284,1.0535914897918701
1708440324.3980496,-1.1062769889831543,-1.681204458276266,-2.5265427271472376,2.282012386912964,-1.0170515219317835,1.0538487434387207
1708440324.4000225,-1.106335163116455,-1.681230207482809,-2.5265923182116907,2.282007856959961,-1.0170601050006312,1.05392587184906
1708440324.4020336,-1.106294870376587,-1.6812221012511195,-2.5265801588641565,2.282045765514038,-1.0170453230487269,1.0541431903839111
1708440324.40406,-1.1063023805618286,-1.6812674007811488,-2.5265262762652796,2.2820092874714355,-1.016987148915426,1.0541964769363403
1708440324.4060245,-1.1063141822814941,-1.6812793217101039,-2.526548687611715,2.2819511133381347,-1.0169876257525843,1.054397463798523
1708440324.4080243,-1.1063611507415771,-1.681199689904684,-2.5265188852893274,2.2820047575184326,-1.0169885794269007,1.0544475317001343
1708440324.410051,-1.1063276529312134,-1.6812344990172328,-2.526520315800802,2.2819720941730957,-1.0169604460345667,1.054571270942688
1708440324.4120238,-1.1063188314437866,-1.6812793217101039,-2.526499334965841,2.2819437223621826,-1.016989533101217,1.0546538829803467
1708440324.4140449,-1.1063023805618286,-1.6812135181822718,-2.5265234152423304,2.2819318014332275,-1.0169122854815882,1.0547418594360352
1708440324.4160228,-1.106311321258545,-1.681263109246725,-2.526421372090475,2.2819482523151855,-1.0168927351581019,1.054821252822876
1708440324.4180353,-1.1062813997268677,-1.6812344990172328,-2.526458803807394,2.2819482523151855,-1.0169017950641077,1.0549020767211914
1708440324.4200509,-1.1063276529312134,-1.6812764606871546,-2.526454273854391,2.2819437223621826,-1.0168898741351526,1.0550106763839722
1708440324.4220243,-1.1063611507415771,-1.681188245812887,-2.5263941923724573,2.2820183473774414,-1.016869846974508,1.0549596548080444
1708440324.4240286,-1.1063638925552368,-1.6812459431090296,-2.5264301935779017,2.2819930750080566,-1.01685077348818,1.0550204515457153
1708440324.4260576,-1.1063024997711182,-1.681254049340719,-2.526412312184469,2.2819015222736816,-1.0168417135821741,1.0550715923309326
1708440324.428074,-1.1063141822814941,-1.6812221012511195,-2.526419703160421,2.2819556432911376,-1.0167668501483362,1.05513334274292
1708440324.4300835,-1.106335163116455,-1.6812135181822718,-2.526395861302511,2.2819015222736816,-1.0167816321002405,1.0551440715789795
1708440324.4320614,-1.1062904596328735,-1.6812449894347132,-2.526395861302511,2.2818969923206787,-1.0167654196368616,1.05504310131073
1708440324.4340618,-1.1063803434371948,-1.6812550030150355,-2.5263267199145716,2.2819675642200927,-1.0167296568499964,1.0550355911254883
1708440324.4360266,-1.1063157320022583,-1.6812459431090296,-2.5263221899615687,2.2819437223621826,-1.016738239918844,1.0549951791763306
1708440324.4380324,-1.1063395738601685,-1.6812416515746058,-2.5263267199145716,2.2819527822681884,-1.0166814962970179,1.0549355745315552
1708440324.440045,-1.1063276529312134,-1.6812459431090296,-2.5263357798205774,2.2819148737141113,-1.016670052205221,1.0549168586730957
1708440324.442066,-1.1063232421875,-1.6812344990172328,-2.5263283888446253,2.2819394308277587,-1.0166457335101526,1.0548803806304932
1708440324.4440584,-1.1063522100448608,-1.6812507114806117,-2.5263238588916224,2.2819148737141113,-1.0166261831866663,1.0547846555709839
1708440324.4460444,-1.1063232421875,-1.6812459431090296,-2.5262954870807093,2.2818984228321533,-1.0166061560260218,1.0547237396240234
1708440324.448035,-1.1062904596328735,-1.6812764606871546,-2.526233975087301,2.2819482523151855,-1.0166423956500452,1.0546562671661377
1708440324.4500344,-1.106306791305542,-1.681221147576803,-2.5262518564807337,2.281918449992798,-1.0165618101703089,1.0544911623001099
1708440324.4520042,-1.1063475608825684,-1.6812178097166957,-2.526221815739767,2.2818938928791503,-1.0165956656085413,1.054356575012207
1708440324.4540377,-1.1063097715377808,-1.6812926731505335,-2.5262473265277308,2.2819408613392334,-1.0165331999408167,1.0542486906051636
1708440324.4560294,-1.1063023805618286,-1.681193014184469,-2.5262308756457728,2.281907482738159,-1.0165212790118616,1.054081678390503
1708440324.4580412,-1.1063321828842163,-1.681221147576803,-2.5262067953692835,2.2818657594868164,-1.0165393988238733,1.0538828372955322
1708440324.4600618,-1.106335163116455,-1.681199689904684,-2.5261946360217493,2.2819689947315673,-1.0164316336261194,1.0536872148513794
1708440324.4620466,-1.1063522100448608,-1.6812459431090296,-2.526187245045797,2.281923933620117,-1.016486946736471,1.0534100532531738
1708440324.464073,-1.1063023805618286,-1.6812883816161097,-2.5261662642108362,2.2819527822681884,-1.0164373556720179,1.0532077550888062
1708440324.4660468,-1.106335163116455,-1.681230207482809,-2.526158873234884,2.2819573122211914,-1.0164387861834925,1.0529484748840332
1708440324.4680831,-1.1063485145568848,-1.681284090081686,-2.52620512643923,2.281916542644165,-1.0163562933551233,1.0527056455612183
1708440324.4700642,-1.1063259840011597,-1.6812135181822718,-2.5261226336108606,2.281966372127197,-1.0163896719561976,1.052409052848816
1708440324.472026,-1.106335163116455,-1.6812087498106898,-2.5261107126819056,2.2818984228321533,-1.0163820425616663,1.0520942211151123
1708440324.4740424,-1.1063188314437866,-1.681230207482809,-2.5261316935168665,2.2819148737141113,-1.0163386503802698,1.0518436431884766
1708440324.476027,-1.1063441038131714,-1.6812435589232386,-2.5261197725879114,2.2818776804157714,-1.0163639227496546,1.0514767169952393
1708440324.4780588,-1.106335163116455,-1.6812344990172328,-2.5261033217059534,2.2819418150135498,-1.01630145708193,1.0511778593063354
1708440324.4800727,-1.1063485145568848,-1.681230207482809,-2.5260780493365687,2.2819148737141113,-1.0163195768939417,1.0508921146392822
1708440324.482065,-1.1063259840011597,-1.681230207482809,-2.5261243025409144,2.281923933620117,-1.0162652174579065,1.0505855083465576
1708440324.4840405,-1.106339693069458,-1.681284090081686,-2.5260794798480433,2.281886501903198,-1.0162628332721155,1.050176978111267
1708440324.486058,-1.1063848733901978,-1.6811758480467738,-2.526088539754049,2.281923933620117,-1.0162537733661097,1.0497617721557617
1708440324.4880767,-1.1063441038131714,-1.681230207482809,-2.526034418736593,2.281912012691162,-1.016263786946432,1.0493876934051514
1708440324.4900625,-1.1063685417175293,-1.6812111339964808,-2.5260255972491663,2.2819408613392334,-1.0162351767169397,1.0489771366119385
1708440324.4920318,-1.1063342094421387,-1.6812178097166957,-2.5260255972491663,2.281886501903198,-1.0161903540240687,1.048567533493042
1708440324.4940574,-1.1063522100448608,-1.6812459431090296,-2.526022497807638,2.2819453912922363,-1.0161665121661585,1.0482176542282104
1708440324.4960706,-1.1063777208328247,-1.6811758480467738,-2.526046339665548,2.2819318014332275,-1.016165558491842,1.0477635860443115
1708440324.4980543,-1.1063522100448608,-1.6811849079527796,-2.526022259389059,2.281907482738159,-1.0161173979388636,1.0472145080566406
1708440324.5000336,-1.1063730716705322,-1.6811777553954066,-2.526034657155172,2.2819408613392334,-1.016167942677633,1.046682596206665
1708440324.5020413,-1.1063848733901978,-1.681202074090475,-2.526010338460104,2.281895561809204,-1.016151253377096,1.0463148355484009
1708440324.5040479,-1.1063566207885742,-1.6811939678587855,-2.5259984175311487,2.28190462171521,-1.016135040913717,1.0457878112792969
1708440324.50605,-1.1063638925552368,-1.6812087498106898,-2.5260358492480677,2.281900091762207,-1.0161035696612757,1.0451921224594116
1708440324.508022,-1.1063475608825684,-1.6811729870238246,-2.5260029474841517,2.281902952785156,-1.016083065663473,1.0447391271591187
1708440324.5100675,-1.1063430309295654,-1.6812359295287074,-2.5260074774371546,2.281916542644165,-1.016083065663473,1.04421865940094
1708440324.51202,-1.106317162513733,-1.681202074090475,-2.5260029474841517,2.281912012691162,-1.0160258452044886,1.0436352491378784
1708440324.5140374,-1.1063921451568604,-1.6812135181822718,-2.5259488264666956,2.281909151668213,-1.0160916487323206,1.043145775794983
1708440324.5160315,-1.106343150138855,-1.681263109246725,-2.5259667078601282,2.28190462171521,-1.0160511175738733,1.0425832271575928
1708440324.518046,-1.1063638925552368,-1.6812392673888148,-2.5259998480426233,2.281892700786255,-1.0159929434405726,1.0420700311660767
1708440324.5200548,-1.1063685417175293,-1.6812135181822718,-2.5260043779956263,2.281932755107544,-1.0160301367389124,1.0414224863052368
1708440324.5220554,-1.1063611507415771,-1.6812135181822718,-2.5259667078601282,2.28192846357312,-1.0159991423236292,1.040860891342163
1708440324.5240817,-1.1063522100448608,-1.6812221012511195,-2.525980297719137,2.281916304225586,-1.0160272757159632,1.040287971496582
1708440324.5260565,-1.106343150138855,-1.681202074090475,-2.525984589253561,2.281978054637573,-1.0160110632525843,1.0396459102630615
1708440324.5280538,-1.1063505411148071,-1.6812087498106898,-2.525947395955221,2.281912012691162,-1.0160110632525843,1.0390197038650513
1708440324.5300493,-1.1063475608825684,-1.6812459431090296,-2.525947395955221,2.281874819392822,-1.016036335621969,1.0383977890014648
1708440324.5320454,-1.1063669919967651,-1.6812135181822718,-2.525971237813131,2.2819463449665527,-1.0159958044635218,1.0377283096313477
1708440324.5340574,-1.1063594818115234,-1.681204458276266,-2.525963846837179,2.28190462171521,-1.016019646321432,1.0371204614639282
1708440324.5360994,-1.10639226436615,-1.6811758480467738,-2.525947395955221,2.2819453912922363,-1.0159629026996058,1.0364375114440918
1708440324.5380473,-1.106399655342102,-1.6812659702696742,-2.525963846837179,2.281895561809204,-1.0159624258624476,1.0357564687728882
1708440324.5400324,-1.1063714027404785,-1.6812344990172328,-2.525938336049215,2.281937285060547,-1.0159538427936,1.034925103187561
1708440324.5420406,-1.106420636177063,-1.6812588177123011,-2.5259175936328333,2.281902952785156,-1.0159671942340296,1.0343151092529297
1708440324.5440466,-1.1063907146453857,-1.6812178097166957,-2.5259280840503138,2.281949921245239,-1.0159791151629847,1.0335999727249146
1708440324.5460548,-1.1063952445983887,-1.681197305718893,-2.525942866002218,2.281902952785156,-1.0159834066974085,1.0328587293624878
1708440324.548042,-1.106399655342102,-1.6812640629210414,-2.525951925908224,2.281874819392822,-1.0159433523761194,1.032097339630127
1708440324.5500393,-1.1063833236694336,-1.6811849079527796,-2.525898281727926,2.281900091762207,-1.0159924666034144,1.0313565731048584
1708440324.5520468,-1.1064085960388184,-1.681230207482809,-2.5259562174426478,2.28192846357312,-1.0159271399127405,1.0305746793746948
1708440324.5540292,-1.106404185295105,-1.6812178097166957,-2.5259116331683558,2.281892700786255,-1.0159595648394983,1.0298908948898315
1708440324.5560474,-1.1063789129257202,-1.6812178097166957,-2.525947395955221,2.281916542644165,-1.0159314314471644,1.0290809869766235
1708440324.5580695,-1.1064176559448242,-1.6811686954894007,-2.52590257326235,2.281916542644165,-1.0159567038165491,1.0283019542694092
1708440324.5600164,-1.1063342094421387,-1.6812721691527308,-2.525940004979269,2.28190462171521,-1.0159342924701136,1.0275698900222778
1708440324.5620422,-1.1063475608825684,-1.6812063656248988,-2.525909964238302,2.28190462171521,-1.0160258452044886,1.0267480611801147
1708440324.5640306,-1.1063743829727173,-1.6812178097166957,-2.525893751774923,2.2819089132496337,-1.0159390608416956,1.0259120464324951
1708440324.566026,-1.1063669919967651,-1.681225915948385,-2.525951925908224,2.281892700786255,-1.0159629026996058,1.0251108407974243
1708440324.5680223,-1.1063789129257202,-1.6812178097166957,-2.5259326140033167,2.281858368510864,-1.0159643332110804,1.024226427078247
1708440324.5700297,-1.1064177751541138,-1.6812392673888148,-2.525923554097311,2.281949921245239,-1.0159390608416956,1.0234142541885376
1708440324.5720122,-1.1063833236694336,-1.6812483272948207,-2.5259161631213587,2.2818912702747802,-1.0159595648394983,1.0225905179977417
1708440324.5740492,-1.1063714027404785,-1.6811849079527796,-2.525919024144308,2.281921072597168,-1.0159271399127405,1.0216728448867798
1708440324.5760157,-1.1063669919967651,-1.6812063656248988,-2.525940004979269,2.2819089132496337,-1.0159834066974085,1.0207321643829346
1708440324.5780418,-1.1063833236694336,-1.6811686954894007,-2.5258901754962366,2.28192846357312,-1.0159552733050745,1.0197701454162598
1708440324.580045,-1.1063789129257202,-1.6812178097166957,-2.525876824055807,2.2819089132496337,-1.0159390608416956,1.0188935995101929
1708440324.5820487,-1.1063803434371948,-1.6812221012511195,-2.525914732609884,2.2818354803272705,-1.0159462133990687,1.0179405212402344
1708440324.5840342,-1.1064085960388184,-1.6812221012511195,-2.5259326140033167,2.281846447581909,-1.0159509817706507,1.017069697380066
1708440324.5860462,-1.1063714027404785,-1.6812344990172328,-2.525947395955221,2.281858368510864,-1.0159300009356897,1.016102910041809
1708440324.58805,-1.106399655342102,-1.681221147576803,-2.525942866002218,2.281892700786255,-1.0159629026996058,1.0152159929275513
1708440324.5900493,-1.1063417196273804,-1.6812674007811488,-2.525898281727926,2.2819179731556396,-1.0159581343280237,1.014250636100769
1708440324.5920424,-1.1063997745513916,-1.6812507114806117,-2.5259771982776087,2.2818643289753417,-1.0159924666034144,1.0133395195007324
1708440324.5940979,-1.10641610622406,-1.6812507114806117,-2.52590257326235,2.2819179731556396,-1.0159791151629847,1.0123872756958008
1708440324.5960333,-1.106387734413147,-1.6812435589232386,-2.525930945073263,2.2818218904682617,-1.015960995350973,1.011478304862976
1708440324.5980365,-1.1063863039016724,-1.681230207482809,-2.525914732609884,2.2818853098103027,-1.0159791151629847,1.0105348825454712
1708440324.6000257,-1.1064115762710571,-1.6812483272948207,-2.525984589253561,2.2818779188343505,-1.0159700552569788,1.0096757411956787
1708440324.6020458,-1.1064131259918213,-1.68117155651235,-2.525963846837179,2.2818478780933837,-1.0160077253924769,1.008719801902771
1708440324.6040325,-1.1063505411148071,-1.681197305718893,-2.5259562174426478,2.2818807798572998,-1.0159943739520472,1.007810115814209
1708440324.6060345,-1.1063878536224365,-1.6812674007811488,-2.525935475026266,2.281879110927246,-1.016043488179342,1.0068061351776123
1708440324.6080453,-1.1064234972000122,-1.681284090081686,-2.525984589253561,2.281867189998291,-1.016024414693014,1.0058698654174805
1708440324.6100297,-1.1063878536224365,-1.6811849079527796,-2.52592641512026,2.2818264204212646,-1.0160229841815394,1.0049155950546265
1708440324.6120145,-1.106399655342102,-1.6812111339964808,-2.525963846837179,2.2818144994923095,-1.016043488179342,1.0039066076278687
1708440324.614057,-1.1063475608825684,-1.6812135181822718,-2.525942866002218,2.2818445402332763,-1.0160754362689417,1.0028876066207886
1708440324.6160235,-1.1063624620437622,-1.681197305718893,-2.5259621779071253,2.2818571764179687,-1.0161126295672815,1.0018677711486816
1708440324.618036,-1.1063594818115234,-1.6812507114806117,-2.5259175936328333,2.2818400102802734,-1.0160754362689417,1.0009135007858276
1708440324.620053,-1.1063714027404785,-1.6812268696227015,-2.52592641512026,2.2818116384693603,-1.0161321798907679,0.9998902082443237
1708440324.6220496,-1.1063759326934814,-1.6811806164183558,-2.525980297719137,2.2818235593983154,-1.0161154905902308,0.9988927841186523
1708440324.6240425,-1.1063461303710938,-1.681230207482809,-2.5259221235858362,2.2818659979053955,-1.0161259810077112,0.9979274272918701
1708440324.62607,-1.1063714027404785,-1.681199689904684,-2.525980297719137,2.281754894847534,-1.0161426703082483,0.9969625473022461
1708440324.628119,-1.106343150138855,-1.6812268696227015,-2.525963846837179,2.281801386470459,-1.0161750952350062,0.9959389567375183
1708440324.63004,-1.1063849925994873,-1.6812497578062953,-2.525963846837179,2.28176395475354,-1.0162113348590296,0.9949361681938171
1708440324.6320562,-1.1063594818115234,-1.6812459431090296,-2.525980297719137,2.281780405635498,-1.0162189642535608,0.9938801527023315
1708440324.6340437,-1.1063475608825684,-1.6812368832030238,-2.5260208288775843,2.2817610937305908,-1.0161979834186,0.9928198456764221
1708440324.6360352,-1.106338620185852,-1.6812793217101039,-2.5260208288775843,2.2817441660114746,-1.0162504355060022,0.9918408393859863
1708440324.6380599,-1.106338620185852,-1.681263109246725,-2.5260120073901575,2.2817157942005615,-1.016254727040426,0.9908115267753601
1708440324.640079,-1.1063215732574463,-1.68127503017568,-2.5259788672076624,2.2817231851765136,-1.0162742773639124,0.9897282123565674
1708440324.6420772,-1.106387734413147,-1.6812120876707972,-2.5260029474841517,2.2817892271229248,-1.0162985960589808,0.988738477230072
1708440324.6440926,-1.1063305139541626,-1.681199689904684,-2.5260446707354944,2.281762047404907,-1.0163849035846155,0.9877366423606873
1708440324.64606,-1.1062930822372437,-1.6812325916686,-2.5260403792010706,2.2817231851765136,-1.016383473073141,0.9866509437561035
1708440324.6480334,-1.106335163116455,-1.6812459431090296,-2.5260193983661097,2.2817305761524658,-1.0163715521441858,0.9855856895446777
1708440324.6500175,-1.1063475608825684,-1.68127503017568,-2.526121203099386,2.2817656236835937,-1.0163820425616663,0.984550952911377
1708440324.6520073,-1.1063140630722046,-1.6813198528685511,-2.526034418736593,2.2817610937305908,-1.0164063612567347,0.9834890365600586
1708440324.6540341,-1.1063232421875,-1.681237360040182,-2.526067558919088,2.2817367750355224,-1.0164063612567347,0.9824574589729309
1708440324.656021,-1.106344223022461,-1.681270261804098,-2.5260794798480433,2.2817084032246093,-1.0164225737201136,0.9814716577529907
1708440324.6580431,-1.106306791305542,-1.681254049340719,-2.526145044957296,2.2817746835895996,-1.0164344946490687,0.9804724454879761
1708440324.6600132,-1.1063232421875,-1.6812368832030238,-2.5261152426349085,2.2816755014606933,-1.0164464155780237,0.9795516133308411
1708440324.66202,-1.1062620878219604,-1.6812793217101039,-2.5260825792895716,2.2817293840595703,-1.0164826552020472,0.9784997701644897
1708440324.6640353,-1.1062545776367188,-1.6813198528685511,-2.5261486212359827,2.2816831308552246,-1.0164626280414026,0.9775159358978271
1708440324.6660423,-1.1062471866607666,-1.681282182733053,-2.5261486212359827,2.2817413049885253,-1.0164783636676233,0.9765205979347229
1708440324.6680179,-1.106284499168396,-1.681270261804098,-2.526146952305929,2.281738205546997,-1.0165274778949183,0.9754974246025085
1708440324.6700385,-1.1062382459640503,-1.681282182733053,-2.526142422352926,2.2816800314136962,-1.0165675322162073,0.9745119214057922
1708440324.6720054,-1.1062393188476562,-1.6812659702696742,-2.5261812845813196,2.2816592889973144,-1.0165465513812464,0.9734957814216614
1708440324.6740365,-1.1062065362930298,-1.681282182733053,-2.526175324116842,2.2817129331776123,-1.0165870825396937,0.9724856019020081
1708440324.676018,-1.1062817573547363,-1.6811863384642542,-2.526229206715719,2.281693621272705,-1.0166319052325647,0.9714171290397644
1708440324.6780825,-1.106199026107788,-1.681270261804098,-2.526163403187887,2.2817129331776123,-1.0166099707232874,0.9704479575157166
1708440324.6800296,-1.1062079668045044,-1.6812449894347132,-2.5262067953692835,2.281684561366699,-1.0166304747210901,0.9694166779518127
1708440324.6820393,-1.106170654296875,-1.6812120876707972,-2.5262325445758265,2.281717463130615,-1.0166991392718714,0.9684137105941772
1708440324.6840236,-1.106220006942749,-1.6812778911986292,-2.5262280146228235,2.281637592906616,-1.016719166432516,0.9674124717712402
1708440324.6860292,-1.1061662435531616,-1.6812283001341761,-2.5262609163867396,2.281665011043213,-1.0167177359210413,0.9664807319641113
1708440324.6880379,-1.106175184249878,-1.681254049340719,-2.52627140680422,2.2816149431416015,-1.0167577902423304,0.9654571413993835
1708440324.6900449,-1.1061434745788574,-1.6813198528685511,-2.5262308756457728,2.2816449838825683,-1.0168111960040491,0.9644052982330322
1708440324.692058,-1.1061553955078125,-1.6812616787352503,-2.526296679173605,2.2815729814716796,-1.0167682806598108,0.9633740782737732
1708440324.6941252,-1.1060823202133179,-1.681282182733053,-2.526283327733175,2.2815987306782226,-1.0168221632586878,0.9622986912727356
1708440324.6960235,-1.1060987710952759,-1.6812902889647425,-2.5263028780566614,2.2816032606312255,-1.0168255011187952,0.9613064527511597
1708440324.6980784,-1.106095790863037,-1.6813179455199183,-2.526328150426046,2.281542940730713,-1.0169075171100062,0.9601984620094299
1708440324.7000368,-1.1060584783554077,-1.6812616787352503,-2.5263403097735804,2.281571789378784,-1.0168865362750452,0.9591509699821472
1708440324.7020528,-1.1060720682144165,-1.681315084496969,-2.5262866655932825,2.2815117078968505,-1.0169346968280237,0.9580775499343872
1708440324.7040596,-1.1060595512390137,-1.6812688312926234,-2.5263267199145716,2.2815400797077636,-1.0169256369220179,0.9569330811500549
1708440324.7060344,-1.1060402393341064,-1.681282182733053,-2.5263312498675745,2.2814923959919433,-1.0169537703143519,0.9559451341629028
1708440324.708026,-1.1060237884521484,-1.6812688312926234,-2.526358668004171,2.2815536695667724,-1.01701528230776,0.9548702836036682
1708440324.7101166,-1.105991005897522,-1.6813227138915003,-2.526346508656637,2.281517906779907,-1.0169852415667933,0.9539086818695068
1708440324.7120254,-1.105979084968567,-1.6813136539854945,-2.526383940373556,2.281475229854248,-1.0170214811908167,0.952767550945282
1708440324.7140467,-1.1060255765914917,-1.6813093624510707,-2.526379410420553,2.281430883998535,-1.0170124212848108,0.9517703056335449
1708440324.716011,-1.105938196182251,-1.6813179455199183,-2.526407782231466,2.2814487653919677,-1.0170453230487269,0.9506593346595764
1708440324.7180462,-1.1059472560882568,-1.6813179455199183,-2.5264151732074183,2.281477137202881,-1.0170858542071741,0.9496739506721497
1708440324.7200227,-1.105906367301941,-1.6813584766783656,-2.5264692942248743,2.281444235438965,-1.0171054045306605,0.9486081004142761
1708440324.7220628,-1.1059155464172363,-1.6813255749144496,-2.5264392534839075,2.2814368444630126,-1.0171573797809046,0.9476302266120911
1708440324.724025,-1.1058701276779175,-1.6813341579832972,-2.5265050570117396,2.2814532953449707,-1.0171812216388147,0.9466649889945984
1708440324.7260592,-1.1058465242385864,-1.6812769375243128,-2.526454273854391,2.2814339834400634,-1.01715594926943,0.9455893635749817
1708440324.7280498,-1.1058226823806763,-1.681401868859762,-2.52649170557131,2.2813748556324462,-1.0172622839557093,0.9445791244506836
1708440324.7300801,-1.1058361530303955,-1.681361814538473,-2.5264738241778772,2.281351252193115,-1.0172770659076136,0.943596601486206
1708440324.7320423,-1.1058151721954346,-1.6813436947264613,-2.526515785847799,2.2813541132160644,-1.017297093068258,0.9425141215324402
1708440324.7340505,-1.1057578325271606,-1.6813885174193324,-2.5265279451953333,2.2813631731220703,-1.0173299948321741,0.9414829015731812
1708440324.7360597,-1.105787992477417,-1.6814004383482875,-2.5265710989581507,2.281341000194214,-1.0173729101764124,0.9404274821281433
1708440324.7380419,-1.1057312488555908,-1.6814547977843226,-2.526512686406271,2.2812911707111816,-1.0173972288714808,0.9394412040710449
1708440324.7400591,-1.105690360069275,-1.6814166508116664,-2.5266132990466517,2.2813002306171875,-1.017421070729391,0.9383597373962402
1708440324.7420592,-1.1056830883026123,-1.6813961468138636,-2.526632610951559,2.2812809187122802,-1.017416779194967,0.9372764825820923
1708440324.7440262,-1.105663776397705,-1.6813990078368128,-2.526623789464132,2.2812108236500244,-1.0174854437457483,0.9362188577651978
1708440324.7460396,-1.1056190729141235,-1.6814857921996058,-2.526640001927511,2.2812437254139404,-1.0175302664386194,0.9352203607559204
1708440324.748021,-1.105635404586792,-1.681509634057516,-2.5265894571887415,2.2812065321156005,-1.0175321737872522,0.9340693354606628
1708440324.750062,-1.1056082248687744,-1.681497713128561,-2.5266431013690394,2.2812704282947998,-1.0175779501544397,0.9330202341079712
1708440324.7520528,-1.1055872440338135,-1.6814891300597132,-2.5266507307635706,2.2811879354664306,-1.0176008383380335,0.931986927986145
1708440324.7540545,-1.1055351495742798,-1.6815172634520472,-2.5266581217395228,2.2811433511921386,-1.0176294485675257,0.9308473467826843
1708440324.756027,-1.105544090270996,-1.681530614892477,-2.526679340993063,2.2811598020740966,-1.0176532904254358,0.929753839969635
1708440324.7580202,-1.1054868698120117,-1.6815535030760707,-2.526703182850973,2.2811402517506103,-1.0176604429828089,0.9287485480308533
1708440324.7600408,-1.1054959297180176,-1.6815577946104945,-2.52669865289797,2.281132860774658,-1.0177162329303187,0.9275937676429749
1708440324.762035,-1.1054421663284302,-1.6816116772093714,-2.52669865289797,2.281170292491577,-1.0177696386920374,0.9265207648277283
1708440324.7640631,-1.1054675579071045,-1.6815906963744105,-2.526748005543844,2.2811383444019775,-1.017735783253805,0.9254618883132935
1708440324.7660408,-1.1054311990737915,-1.681629320184225,-2.5267723242389124,2.281092091197632,-1.017763916646139,0.9243682622909546
1708440324.7680438,-1.1054188013076782,-1.68158020595693,-2.5267723242389124,2.281059427852295,-1.0177667776690882,0.9232606291770935
1708440324.770048,-1.105354905128479,-1.681596418420309,-2.5267825762378138,2.2810520368763427,-1.0178163687335413,0.9222619533538818
1708440324.7720459,-1.1053565740585327,-1.6816626987852992,-2.526836935673849,2.2809857565113525,-1.0178568998919886,0.9210969805717468
1708440324.7740524,-1.1053440570831299,-1.6816159687437953,-2.526832405720846,2.281008167857788,-1.0178521315204065,0.9200528264045715
1708440324.776048,-1.1053202152252197,-1.6816002331175746,-2.5268471876727503,2.2810303407856445,-1.017883602772848,0.9189740419387817
1708440324.7780743,-1.1052918434143066,-1.6816770039000453,-2.52686053911318,2.280963583583496,-1.0178702513324183,0.9179520010948181
1708440324.7800386,-1.105247139930725,-1.6816703281798304,-2.526839796696798,2.2809814649769287,-1.0179198423968714,0.9169178009033203
1708440324.7820768,-1.105215311050415,-1.6817146740355433,-2.52688438097109,2.2809650140949707,-1.0179975668536585,0.9158555865287781
1708440324.7840443,-1.1051795482635498,-1.6817251644530238,-2.5268381277667444,2.28093330442395,-1.0179675261126917,0.9148770570755005
1708440324.7860603,-1.1051812171936035,-1.6816636524596156,-2.5268457571612757,2.280895395869873,-1.017987076436178,0.9138666987419128
1708440324.788101,-1.1051632165908813,-1.6817509136595667,-2.5269208590136927,2.280908985728882,-1.01805287996401,0.912807822227478
1708440324.7900498,-1.1051194667816162,-1.6817676029601039,-2.526907269154684,2.2808970647999267,-1.0181215445147913,0.9116846323013306
1708440324.7920856,-1.1051030158996582,-1.681760927239889,-2.5268576780902308,2.2808522421070556,-1.0180500189410608,0.9106156229972839
1708440324.794052,-1.1050355434417725,-1.6816746197142542,-2.526898209248678,2.2808026510426025,-1.0180662314044397,0.909583330154419
1708440324.796079,-1.104998230934143,-1.6817451916136683,-2.5269551912890833,2.2807997900196533,-1.018111530934469,0.9085284471511841
1708440324.7980552,-1.1049997806549072,-1.6818062267699183,-2.5269928614245813,2.280789299602173,-1.018144432698385,0.9074612855911255
1708440324.8000236,-1.104949951171875,-1.6817757091917933,-2.5269339720355433,2.2807773786732177,-1.0181754271136683,0.906387209892273
1708440324.8020496,-1.1049708127975464,-1.6817976437010707,-2.5270121733294886,2.280756397838257,-1.0182045141803187,0.9053542613983154
1708440324.8040447,-1.1049526929855347,-1.6817757091917933,-2.5269671122180384,2.2807864385792236,-1.0182488600360315,0.9043397903442383
1708440324.8060474,-1.1049273014068604,-1.6818257770934046,-2.5270076433764856,2.2806545931049804,-1.0182445685016077,0.9033016562461853
1708440324.8080795,-1.104896068572998,-1.681868692437643,-2.52702242532839,2.28070251523938,-1.0182402769671839,0.9021916389465332
1708440324.8100824,-1.1048433780670166,-1.6819097004332484,-2.527085606251852,2.280668182963989,-1.018313233052389,0.9011207818984985
1708440324.8120399,-1.1048285961151123,-1.6819349728026332,-2.5270586649524134,2.2806319433399658,-1.0182340780841272,0.8999614119529724
1708440324.8140688,-1.1047385931015015,-1.6818725071349085,-2.527100388203756,2.2806200224110107,-1.0183270613299769,0.8988765478134155
1708440324.8160453,-1.1048086881637573,-1.6819168529906214,-2.5271156469928187,2.280670328731201,-1.0183056036578577,0.8977875709533691
1708440324.8180535,-1.1047266721725464,-1.6819411716856898,-2.5271649996386927,2.280637665385864,-1.018367115651266,0.8967092037200928
1708440324.8200662,-1.1047520637512207,-1.6819201908507289,-2.527123037968771,2.28064672529187,-1.0183942953692835,0.8955823183059692
1708440324.8220806,-1.1046992540359497,-1.681911130944723,-2.5271318594561976,2.280590220088623,-1.0184152762042444,0.8944811224937439
1708440324.8240688,-1.1046756505966187,-1.6819573841490687,-2.527151648198263,2.2805375295826416,-1.0183985869037073,0.8933189511299133
1708440324.8260632,-1.1046607494354248,-1.6819936237730921,-2.5271499792682093,2.280573292369507,-1.0184796492206019,0.8921896815299988
1708440324.8280663,-1.1045944690704346,-1.6820084057249964,-2.527175490056173,2.2804757791706542,-1.018458668385641,0.8910635113716125
1708440324.8300781,-1.1046006679534912,-1.6819664440550746,-2.5272160212146204,2.280489369029663,-1.0184949080096644,0.8899117112159729
1708440324.832067,-1.104560375213623,-1.6819993458189906,-2.5272236506091517,2.2803866106220703,-1.0184991995440882,0.8888838887214661
1708440324.8340757,-1.1044985055923462,-1.6820727787413539,-2.5272281805621546,2.2804059225269775,-1.0185721556292933,0.8877314925193787
1708440324.8360481,-1.1045457124710083,-1.6820641956725062,-2.5272401014911097,2.280404492015503,-1.0185993353473108,0.8866825103759766
1708440324.8380468,-1.1044913530349731,-1.6821133098998011,-2.5272355715381067,2.2803844648548584,-1.018557373677389,0.8855951428413391
1708440324.8400414,-1.1044480800628662,-1.682110448876852,-2.527242962514059,2.280402346248291,-1.018627945576803,0.8845614194869995
1708440324.842055,-1.104466438293457,-1.6820665798582972,-2.527280632649557,2.280369682902954,-1.0186055342303675,0.8834466934204102
1708440324.8440835,-1.1044158935546875,-1.6821252308287562,-2.5272250811206263,2.280320568675659,-1.0186412970172327,0.8823966383934021
1708440324.8460524,-1.104354739189148,-1.6821161709227503,-2.5272746721850794,2.2802960115620117,-1.0186460653888147,0.8812570571899414
1708440324.848043,-1.1043274402618408,-1.68214811901235,-2.527304712926046,2.2803501325794677,-1.0187400023089808,0.8801864385604858
1708440324.8500552,-1.1043081283569336,-1.6821986637511195,-2.5273121039019983,2.2802528577991943,-1.0187552610980433,0.8791070580482483
1708440324.852028,-1.1042827367782593,-1.6821567020811976,-2.5273240248309534,2.2802604871937255,-1.0187013784991663,0.8779999613761902
1708440324.854053,-1.1042815446853638,-1.6822134457030238,-2.5273314158069056,2.28023807584729,-1.0187996069537562,0.8769339919090271
1708440324.8560252,-1.104215145111084,-1.682237287560934,-2.5273314158069056,2.2802046972462158,-1.0187862555133265,0.8758147358894348
1708440324.8580663,-1.1042168140411377,-1.6821958027281703,-2.527384106312887,2.2801853853413085,-1.018794361745016,0.8746387958526611
1708440324.8600216,-1.1041549444198608,-1.6822411022581996,-2.52733022371401,2.2801734644123535,-1.018818203602926,0.8735634684562683
1708440324.86206,-1.1041266918182373,-1.6822320423521937,-2.527367655430929,2.2801236349293212,-1.0188582579242151,0.8723980188369751
1708440324.8640392,-1.104144811630249,-1.6822511158385218,-2.52735406557192,2.280103846187256,-1.0188582579242151,0.8712484836578369
1708440324.8660402,-1.1041074991226196,-1.6822668514647425,-2.527363125477926,2.2801009851643066,-1.0188568274127405,0.8702113628387451
1708440324.8680255,-1.1041090488433838,-1.682291646996969,-2.5273705164538782,2.280019922847412,-1.0189154783831995,0.8690335154533386
1708440324.8700376,-1.1040399074554443,-1.6823169193663539,-2.5274322668658655,2.279991551036499,-1.0188940207110804,0.8679561018943787
1708440324.872046,-1.104004144668579,-1.6823531589903773,-2.5274484793292444,2.279984398479126,-1.0189064184771937,0.8668100237846375
1708440324.8740566,-1.1039797067642212,-1.6823226414122523,-2.527458969746725,2.27995149671521,-1.0189498106585901,0.8657276630401611
1708440324.8760338,-1.1039724349975586,-1.6823812923827113,-2.527458969746725,2.279928608531616,-1.018970791493551,0.8646084666252136
1708440324.8780706,-1.103981614112854,-1.6823440990843714,-2.527426067982809,2.2799710470386962,-1.018970791493551,0.8634935021400452
1708440324.8800695,-1.103907823562622,-1.6823498211302699,-2.527463499699728,2.27993027746167,-1.018994156514303,0.8623300790786743
1708440324.8820834,-1.1038669347763062,-1.6824075184264125,-2.527479950581686,2.2799061971851806,-1.0190351645099085,0.8612866997718811
1708440324.884067,-1.1038833856582642,-1.6823588810362757,-2.527487341557638,2.279897375697754,-1.0190008322345179,0.8601669669151306
1708440324.8860564,-1.1038389205932617,-1.6824075184264125,-2.5274961630450647,2.279848261470459,-1.0190084616290491,0.859032154083252
1708440324.8880544,-1.1038522720336914,-1.682411333123678,-2.527520481740133,2.2798752027698974,-1.01902944246401,0.8578486442565918
1708440324.8900626,-1.1037949323654175,-1.682498117486471,-2.5274952093707483,2.2797626692005615,-1.019073788319723,0.8567937612533569
1708440324.8920698,-1.103789210319519,-1.6823975048460902,-2.5275355021106165,2.279822512263916,-1.0190652052508753,0.8557289242744446
1708440324.8940763,-1.103777289390564,-1.682500501672262,-2.5274484793292444,2.2797598081776123,-1.0191095511065882,0.8547267317771912
1708440324.896038,-1.1037399768829346,-1.682455678979391,-2.5275235811816614,2.279782219524048,-1.0190938154803675,0.8536432981491089
1708440324.898068,-1.1037206649780273,-1.6825128994383753,-2.5275145212756556,2.279750271434448,-1.0191176573382776,0.8525529503822327
1708440324.9000866,-1.1036306619644165,-1.6824847660460414,-2.5274983088122767,2.2796968656727294,-1.0191085974322718,0.8515616655349731
1708440324.9020472,-1.1036187410354614,-1.682493349114889,-2.5275803248034876,2.279677315349243,-1.0191295782672327,0.8504500985145569
1708440324.9040658,-1.103645920753479,-1.6825162372984828,-2.5275428930865687,2.279620333308838,-1.0191696325885218,0.8493099212646484
1708440324.906048,-1.103588581085205,-1.6824737987914027,-2.5275548140155237,2.279636784190796,-1.019137207661764,0.8483006954193115
1708440324.908033,-1.103588581085205,-1.6825233898558558,-2.5275428930865687,2.2795933920093994,-1.019165341054098,0.8472573161125183
1708440324.9100606,-1.103523850440979,-1.6825024090208949,-2.527534071599142,2.2796143728443603,-1.0191777388202112,0.8461670875549316
1708440324.912033,-1.10348379611969,-1.68253817180776,-2.527616564427511,2.279573603267334,-1.019243065510885,0.8450912833213806
1708440324.91406,-1.1034718751907349,-1.6825338802733363,-2.527583662663595,2.279479904765747,-1.0192464033709925,0.8439926505088806
1708440324.9160278,-1.103422999382019,-1.6825877628722132,-2.527637306843893,2.2795304495045166,-1.0192297140704554,0.8429784774780273
1708440324.9180524,-1.1034302711486816,-1.6825667820372523,-2.527574602757589,2.2794932562061767,-1.0192940870868128,0.8419843912124634
1708440324.9200382,-1.1034218072891235,-1.6825753651061,-2.5275700728045862,2.2795440393635253,-1.0192893187152308,0.8409044146537781
1708440324.9220653,-1.1033635139465332,-1.6826120815672816,-2.527583662663595,2.27946583806958,-1.0192926565753382,0.8397697806358337
1708440324.9240618,-1.1033436059951782,-1.6826192341246546,-2.5275278727160853,2.279437466258667,-1.0193422476397913,0.8387307524681091
1708440324.926055,-1.1033107042312622,-1.6826101742186488,-2.527623955403463,2.2793921667286376,-1.0193122068988245,0.8376072645187378
1708440324.9281433,-1.1032990217208862,-1.682648321191305,-2.5276361147509974,2.2794181543537597,-1.0193660894977015,0.8365747332572937
1708440324.930076,-1.1033079624176025,-1.6826960049071253,-2.5276103655444544,2.2793947893330078,-1.0193598906146448,0.8354506492614746
1708440324.9320755,-1.1032721996307373,-1.6826869450011195,-2.5275984446154993,2.2793277937122802,-1.0193598906146448,0.8343973755836487
1708440324.9340925,-1.1032240390777588,-1.6826921902098597,-2.5276644865619105,2.2794036108204345,-1.0194185415851038,0.8332781195640564
1708440324.9360645,-1.1032150983810425,-1.6827193699278773,-2.5276225248919886,2.2793544965931396,-1.019421402608053,0.8321583867073059
1708440324.9380739,-1.1031912565231323,-1.6827284298338832,-2.527637783681051,2.2792348104664306,-1.0194171110736292,0.8310596942901611
1708440324.9400597,-1.1031882762908936,-1.6827479801573695,-2.527682367955343,2.2792529302784423,-1.0194171110736292,0.8299657702445984
1708440324.942044,-1.1031428575515747,-1.6827179394164027,-2.527698818837301,2.2791992860981445,-1.0194619337665003,0.8288753628730774
1708440324.9440358,-1.1031638383865356,-1.6827479801573695,-2.527665917073385,2.279233379954956,-1.0194080511676233,0.8278188109397888
1708440324.946047,-1.10312819480896,-1.6827670536436976,-2.527707640324728,2.279225988979004,-1.0194290320025843,0.826785683631897
1708440324.9480379,-1.1031372547149658,-1.6828214130797328,-2.52765399614443,2.2791525560566406,-1.0194619337665003,0.8256916999816895
1708440324.9500463,-1.10303795337677,-1.682753702203268,-2.5276690165149134,2.2791732984730224,-1.019482437764303,0.824665904045105
1708440324.9520435,-1.1030652523040771,-1.682744642297262,-2.5277121702777308,2.279170437450073,-1.0194738546954554,0.8236325979232788
1708440324.954061,-1.1030353307724,-1.6827522716917933,-2.527715269719259,2.279083414668701,-1.0194528738604944,0.8226466774940491
1708440324.9560628,-1.1029995679855347,-1.6827990017332972,-2.527698818837301,2.279108687038086,-1.0194724241839808,0.8215766549110413
1708440324.95805,-1.102984070777893,-1.682836195031637,-2.5276687780963343,2.279120607967041,-1.0194929281817835,0.8206459283828735
1708440324.960048,-1.1029750108718872,-1.682805677453512,-2.5277062098132532,2.2790731626697998,-1.019463364277975,0.8196105360984802
1708440324.9620621,-1.1029722690582275,-1.682810445825094,-2.5277605692492884,2.27912346898999,-1.0194795767413538,0.8186180591583252
1708440324.9640446,-1.102967619895935,-1.6828557453551234,-2.527715269719259,2.2790536123463134,-1.0195220152484339,0.8176240921020508
1708440324.9660382,-1.102936029434204,-1.6828466854491175,-2.527710739766256,2.278979941005371,-1.0194953123675745,0.8165638446807861
1708440324.9680996,-1.1029002666473389,-1.6828586063780726,-2.5277350584613245,2.279001160258911,-1.0195263067828577,0.8155026435852051
1708440324.9700494,-1.1028759479522705,-1.6829077206053675,-2.527694288884298,2.278984709376953,-1.0195367972003382,0.8145555853843689
1708440324.9720263,-1.1028685569763184,-1.682885309258932,-2.5277634302722376,2.278965397472046,-1.0195725599872034,0.8134868741035461
1708440324.9740677,-1.1028447151184082,-1.6828786335387171,-2.5277276674853724,2.278989239329956,-1.0195768515216272,0.8124837279319763
1708440324.9760404,-1.10285222530365,-1.682840486566061,-2.5277515093432825,2.2789243894764404,-1.0195635000811976,0.8114507794380188
1708440324.9780645,-1.1028084754943848,-1.6829396686949671,-2.5277140776263636,2.2789499002644042,-1.0195725599872034,0.8104463815689087
1708440324.9800425,-1.1028038263320923,-1.682960649529928,-2.5277679602252405,2.278926058406494,-1.0195563475238245,0.8094059824943542
1708440324.9820402,-1.1027965545654297,-1.6828810177245082,-2.5277259985553187,2.278881474132202,-1.0195892492877405,0.8083577752113342
1708440324.9840572,-1.1027562618255615,-1.6829382381834925,-2.5277589003192347,2.2789229589649658,-1.0196550528155726,0.8073412179946899
1708440324.9860382,-1.1027488708496094,-1.6829234562315882,-2.5277543703662317,2.278890295619629,-1.0195725599872034,0.8063218593597412
1708440324.9880478,-1.1027861833572388,-1.6829382381834925,-2.5277708212481897,2.2789127069660644,-1.0195921103106897,0.8053595423698425
1708440324.99005,-1.1027790307998657,-1.6829201183714808,-2.527824942265646,2.2788709837147216,-1.0196250120746058,0.804273247718811
1708440324.9920554,-1.1027342081069946,-1.6829587421812953,-2.527816120778219,2.2787975507923584,-1.019620720540182,0.8032470345497131
1708440324.9940426,-1.1027007102966309,-1.6829740009703578,-2.5278025309192103,2.2788421350666503,-1.019616429005758,0.8022466897964478
1708440324.9960275,-1.1026649475097656,-1.683007379571432,-2.527811590825216,2.278810902232788,-1.019599739705221,0.8012257218360901
1708440324.9980514,-1.1027066707611084,-1.683007379571432,-2.527823511754171,2.2787701326557617,-1.019599739705221,0.8002620339393616
1708440325.000071,-1.1025986671447754,-1.682993551293844,-2.527839962636129,2.2787691789814453,-1.0196130911456507,0.7992223501205444
1708440325.0020564,-1.1026649475097656,-1.6830517254271449,-2.5278189818011683,2.278778000468872,-1.0196297804461878,0.7982616424560547
1708440325.0040793,-1.1025822162628174,-1.682993551293844,-2.5278340021716517,2.2787162500568847,-1.0195830504046839,0.7972670793533325
1708440325.0060532,-1.1026592254638672,-1.683056493798727,-2.5277846495257776,2.2787462907978515,-1.0195873419391077,0.7962813973426819
1708440325.0080864,-1.1025912761688232,-1.683030744592184,-2.5278220812426966,2.278747721309326,-1.0195921103106897,0.7952414751052856
1708440325.0100534,-1.102588415145874,-1.6830712757506312,-2.5278354326831263,2.278665228480957,-1.0196178595172327,0.7942687273025513
1708440325.0120428,-1.1025720834732056,-1.6830417118468226,-2.5278847853290003,2.2786788183399658,-1.019599739705221,0.7932841181755066
1708440325.0140448,-1.1025601625442505,-1.6830555401244105,-2.5278518835650843,2.278665228480957,-1.019616429005758,0.7923980355262756
1708440325.0160446,-1.102561593055725,-1.6830703220763148,-2.5278354326831263,2.2786292272755126,-1.019620720540182,0.7915337681770325
1708440325.018041,-1.1025482416152954,-1.6830746136107386,-2.5278354326831263,2.2786244589039306,-1.0196741263019007,0.7905731201171875
1708440325.020041,-1.1025253534317017,-1.6831075153746546,-2.5278144518481653,2.2786921697803955,-1.0196579138385218,0.789676308631897
1708440325.0220509,-1.1025044918060303,-1.6830727062621058,-2.5278099218951624,2.2786261278339843,-1.019681755696432,0.7888001203536987
1708440325.0241058,-1.1024806499481201,-1.6830769977965296,-2.5278263727771204,2.2785889345356445,-1.0196192900287073,0.7878438234329224
1708440325.02604,-1.1025179624557495,-1.6830812893309535,-2.527872864400045,2.278618736858032,-1.019681755696432,0.7868950963020325
1708440325.0280702,-1.1024925708770752,-1.683096548120016,-2.5278309027301233,2.278527184123657,-1.019660774861471,0.7859344482421875
1708440325.0300446,-1.1024925708770752,-1.6831265888609828,-2.527856175099508,2.27853171407666,-1.019672695790426,0.7850208282470703
1708440325.0320418,-1.1024925708770752,-1.683155199090475,-2.5278354326831263,2.2785541254230957,-1.0196149984942835,0.7841143012046814
1708440325.0340576,-1.1024807691574097,-1.6831380329527796,-2.5278354326831263,2.278491659755371,-1.0196402708636683,0.7831640839576721
1708440325.0360243,-1.1024773120880127,-1.6832014522948207,-2.5278473536120813,2.2785586553760986,-1.019644562398092,0.7822928428649902
1708440325.0380566,-1.1024655103683472,-1.683085104028219,-2.5278428236590784,2.2785257536121826,-1.0196531454669397,0.7814323306083679
1708440325.0400338,-1.1024773120880127,-1.683155199090475,-2.5278518835650843,2.2785183626362304,-1.019693676625387,0.7805250883102417
1708440325.0420616,-1.1024410724639893,-1.6831714115538539,-2.5278802553759974,2.2785228925892334,-1.0196474234210413,0.7795939445495605
1708440325.0440748,-1.1024365425109863,-1.6831909618773402,-2.5277891794787806,2.2785064417072753,-1.0196402708636683,0.7787380218505859
1708440325.0460536,-1.102415680885315,-1.68316712001943,-2.5278595129596155,2.27845208227124,-1.0196402708636683,0.7778341174125671
1708440325.0480368,-1.102405309677124,-1.683155199090475,-2.5278309027301233,2.2785438734241943,-1.0196684042560022,0.7768406271934509
1708440325.0500734,-1.1024127006530762,-1.6831289730467738,-2.5278685728656214,2.2784122663685302,-1.0196402708636683,0.7759564518928528
1708440325.0520453,-1.1023344993591309,-1.683122297326559,-2.5278473536120813,2.2784790235706787,-1.019644562398092,0.7750850915908813
1708440325.0540726,-1.1023435592651367,-1.683146139184469,-2.5278099218951624,2.278458281154297,-1.019681755696432,0.7741561532020569
1708440325.0560446,-1.1024025678634644,-1.6831418476500453,-2.5277965704547327,2.2785119253345947,-1.0196283499347132,0.7732767462730408
1708440325.0580618,-1.102329969406128,-1.6831861935057582,-2.5278382937060755,2.27842561780896,-1.019648853932516,0.7723643779754639
1708440325.0600474,-1.1023434400558472,-1.6831938229002894,-2.5278473536120813,2.2784344392963867,-1.0196283499347132,0.7714070081710815
1708440325.0620635,-1.1023950576782227,-1.6831537685790003,-2.5278309027301233,2.2784716325947265,-1.0195830504046839,0.770505964756012
1708440325.0640478,-1.1023696660995483,-1.6832028828062953,-2.5278144518481653,2.2783891397663574,-1.019648853932516,0.7696174383163452
1708440325.0660586,-1.1023526191711426,-1.6831656895079554,-2.527823511754171,2.2784315782734375,-1.019616429005758,0.7687532305717468
1708440325.06802,-1.1023434400558472,-1.6831938229002894,-2.5277980009662073,2.2783936697193603,-1.0196192900287073,0.7678969502449036
1708440325.0700443,-1.1023696660995483,-1.6831656895079554,-2.527823511754171,2.2784389692493896,-1.019616429005758,0.766910195350647
1708440325.0720584,-1.1023242473602295,-1.6832152805724085,-2.5278220812426966,2.2783536153980712,-1.019644562398092,0.7660351395606995
1708440325.0740407,-1.1022870540618896,-1.6831895313658656,-2.5278189818011683,2.2783981996723632,-1.0196355024920862,0.7651634216308594
1708440325.076021,-1.1023123264312744,-1.6831771335997523,-2.5278309027301233,2.278411551112793,-1.0196579138385218,0.7642837762832642
1708440325.0780559,-1.1023406982421875,-1.6832300625243128,-2.527839962636129,2.2783610063740234,-1.0196459929095667,0.7633906006813049
1708440325.0800653,-1.102295994758606,-1.6832086048521937,-2.5278518835650843,2.278329773540161,-1.019611660634176,0.7624979615211487
1708440325.0820553,-1.1023287773132324,-1.6831971607603968,-2.5278189818011683,2.278386278743408,-1.0196087996112269,0.7616628408432007
1708440325.0874171,-1.1023831367492676,-1.6832043133177699,-2.5277860800372522,2.27834598600354,-1.0196087996112269,0.7607855200767517
1708440325.0880575,-1.1023333072662354,-1.6832348308958949,-2.5278189818011683,2.2783431249805908,-1.019545857106344,0.759123682975769
1708440325.090065,-1.1023331880569458,-1.683241983453268,-2.5278847853290003,2.278329773540161,-1.0195849577533167,0.7583325505256653
1708440325.0920727,-1.102295994758606,-1.683241983453268,-2.5278189818011683,2.2783712583729248,-1.0195873419391077,0.757463276386261
1708440325.0940614,-1.1023123264312744,-1.683221002618307,-2.527839962636129,2.27838317930188,-1.0195758978473108,0.7566385269165039
1708440325.0960453,-1.1022766828536987,-1.6832510433592738,-2.5277846495257776,2.2783090311237792,-1.0195592085467737,0.7558022737503052
1708440325.0980387,-1.1023242473602295,-1.6832553348936976,-2.527823511754171,2.2783431249805908,-1.0196097532855433,0.7549508810043335
1708440325.1000543,-1.1023138761520386,-1.683253904382223,-2.5278309027301233,2.2782768446156005,-1.0195849577533167,0.7541099786758423
1708440325.1020546,-1.1023257970809937,-1.6832791767516078,-2.527827803288595,2.2782887655445556,-1.019553009663717,0.7532892823219299
1708440325.1040282,-1.102318525314331,-1.683241983453268,-2.527856175099508,2.2783188062855224,-1.0195487181292933,0.7524006366729736
1708440325.1060488,-1.1023004055023193,-1.6832553348936976,-2.527807060872213,2.2783312040516357,-1.0195663611041468,0.7516047954559326
1708440325.1080186,-1.102342128753662,-1.683270116845602,-2.527844492589132,2.2783188062855224,-1.019545857106344,0.7507721185684204
1708440325.110042,-1.1023257970809937,-1.6832925281920375,-2.5277980009662073,2.2782816129871826,-1.0195367972003382,0.7499839663505554
1708440325.1120636,-1.1022686958312988,-1.6832581959166468,-2.5278354326831263,2.278268023128174,-1.0195220152484339,0.7490895986557007
1708440325.1140506,-1.102281093597412,-1.6832672558226527,-2.5277860800372522,2.2782623010822753,-1.0195577780352991,0.7482342720031738
1708440325.1160324,-1.1022632122039795,-1.6832119427123011,-2.527785841618673,2.278299255962036,-1.019491974507467,0.7474327683448792
1708440325.1180441,-1.102281093597412,-1.683237691918844,-2.527785841618673,2.278299255962036,-1.0194886366473597,0.7465967535972595
1708440325.120026,-1.1022640466690063,-1.683225770989889,-2.5278189818011683,2.2783357340046386,-1.019501034413473,0.7457435727119446
1708440325.1220448,-1.1022640466690063,-1.6832391224303187,-2.527790371571676,2.278315706843994,-1.0194676558123987,0.7449747323989868
1708440325.1240466,-1.1022886037826538,-1.6832629642882289,-2.527811590825216,2.278254671687744,-1.0194395224200647,0.7441338300704956
1708440325.1260455,-1.1022886037826538,-1.683274885217184,-2.5277918020831507,2.2782606321522216,-1.0194199720965784,0.7433090806007385
1708440325.1280756,-1.102243185043335,-1.6832581959166468,-2.527745548878805,2.2782248693653564,-1.0194080511676233,0.7425050139427185
1708440325.1300588,-1.1022884845733643,-1.6832300625243128,-2.527720038090841,2.2783068853565673,-1.0194781462298792,0.7416055798530579
1708440325.1320868,-1.1022640466690063,-1.683232923547262,-2.5278082529651087,2.278303785915039,-1.0194318930255335,0.7408099174499512
1708440325.1340683,-1.102290153503418,-1.683241983453268,-2.527782980595724,2.278283043498657,-1.0193994680987757,0.74008709192276
1708440325.1360803,-1.1022721529006958,-1.683232923547262,-2.527728859578268,2.2782785135456542,-1.0194247404681605,0.7392666339874268
1708440325.1380844,-1.1022857427597046,-1.6831847629942835,-2.5277798811541956,2.2782577711292724,-1.0194199720965784,0.7384166717529297
1708440325.140103,-1.102294683456421,-1.6832300625243128,-2.5277543703662317,2.2782739835926513,-1.0193842093097132,0.7375672459602356
1708440325.1420424,-1.10225510597229,-1.6831995449461878,-2.5277424494372767,2.2782785135456542,-1.019376579915182,0.7368199229240417
1708440325.1440341,-1.1023138761520386,-1.6832348308958949,-2.5277305285083216,2.2782086569019775,-1.0193808714496058,0.7360260486602783
1708440325.146034,-1.1023184061050415,-1.683225770989889,-2.527787510548727,2.2782739835926513,-1.0193570295916956,0.7351407408714294
1708440325.1480584,-1.1023094654083252,-1.6832391224303187,-2.5277186075793665,2.278317375774048,-1.0193331877337855,0.7343525886535645
1708440325.1500733,-1.1023049354553223,-1.6832581959166468,-2.527715269719259,2.278303785915039,-1.0193136374102991,0.7335758805274963
1708440325.1520605,-1.1022930145263672,-1.6832462749876917,-2.527689758931295,2.2783023554035644,-1.0193002859698694,0.7327712774276733
1708440325.1540315,-1.102281093597412,-1.6832629642882289,-2.527694288884298,2.2782904344746093,-1.0192926565753382,0.7319948673248291
1708440325.1560338,-1.102318525314331,-1.683253904382223,-2.527686897908346,2.278303785915039,-1.019264046345846,0.7312621474266052
1708440325.1580634,-1.1022686958312988,-1.683253904382223,-2.5276675860034388,2.2782816129871826,-1.0193255583392542,0.7304766774177551
1708440325.1600487,-1.1022686958312988,-1.6832581959166468,-2.5277121702777308,2.278299255962036,-1.019285027180807,0.7297041416168213
1708440325.162042,-1.1022930145263672,-1.683225770989889,-2.527637783681051,2.2782785135456542,-1.0192154089557093,0.729040265083313
1708440325.164037,-1.102302074432373,-1.6832086048521937,-2.527613703404562,2.2783023554035644,-1.019256893788473,0.7282663583755493
1708440325.166048,-1.1022387742996216,-1.6832672558226527,-2.5276389757739466,2.278332157725952,-1.0192864576922815,0.7275129556655884
1708440325.1680334,-1.1023094654083252,-1.6832086048521937,-2.5276103655444544,2.2782577711292724,-1.0192282835589808,0.7268280982971191
1708440325.1700726,-1.1022857427597046,-1.6832791767516078,-2.5276315847979944,2.2782620626636962,-1.0192039648639124,0.7260276079177856
1708440325.1720223,-1.1023094654083252,-1.6832086048521937,-2.5276225248919886,2.2782651621052246,-1.0192015806781214,0.725248396396637
1708440325.1740518,-1.1023229360580444,-1.6832581959166468,-2.5276389757739466,2.2782816129871826,-1.0191801230060022,0.7245370149612427
1708440325.1760256,-1.1023168563842773,-1.683225770989889,-2.527591053639547,2.2783490854450683,-1.0191476980792444,0.723750650882721
1708440325.178054,-1.1022974252700806,-1.6832391224303187,-2.5275612513171595,2.2782413202473144,-1.0191076437579554,0.7230511903762817
1708440325.1800737,-1.102318525314331,-1.683225770989889,-2.527574602757589,2.2783023554035644,-1.0191534201251429,0.7222602963447571
1708440325.1820624,-1.102342128753662,-1.683190485040182,-2.527574602757589,2.2783023554035644,-1.0191624800311487,0.7215969562530518
1708440325.1840534,-1.1023138761520386,-1.683237691918844,-2.527612034474508,2.2782949644276123,-1.0191133658038538,0.7208062410354614
1708440325.1860719,-1.1022886037826538,-1.683241983453268,-2.527562443410055,2.2783068853565673,-1.0190680662738245,0.7200987935066223
1708440325.188046,-1.1023005247116089,-1.6832462749876917,-2.527583662663595,2.2782859045216064,-1.0191143194781702,0.7194218039512634
1708440325.190056,-1.102234125137329,-1.6832062206664027,-2.527579132710592,2.2783230978199462,-1.0190652052508753,0.7187273502349854
1708440325.192066,-1.1023094654083252,-1.6832720241942347,-2.527545754109518,2.2783188062855224,-1.0190618673907679,0.7180058360099792
1708440325.1940672,-1.1023138761520386,-1.6832105122008265,-2.52760893503298,2.278329773540161,-1.019024674092428,0.7172247171401978
1708440325.1960528,-1.1022462844848633,-1.6831518612303675,-2.527562443410055,2.2783312040516357,-1.0190098921405237,0.7165812253952026
1708440325.1980693,-1.102238655090332,-1.6832348308958949,-2.527579132710592,2.2783023554035644,-1.0190947691546839,0.7157706022262573
1708440325.2000773,-1.1023049354553223,-1.6832300625243128,-2.5275593439685267,2.2782370287128906,-1.01909047762026,0.7150740623474121
1708440325.2020671,-1.1023751497268677,-1.6832152805724085,-2.527501169835226,2.2783142763325195,-1.019045654927389,0.7143197059631348
1708440325.204051,-1.1023452281951904,-1.6831594906248988,-2.5275548140155237,2.2782904344746093,-1.019036595021383,0.7135626077651978
1708440325.2060585,-1.1023333072662354,-1.6832043133177699,-2.5275803248034876,2.2783891397663574,-1.019024674092428,0.7129030823707581
1708440325.2080426,-1.1022915840148926,-1.683225770989889,-2.5275309721576136,2.2782978254505615,-1.0190308729754847,0.712174117565155
1708440325.2100532,-1.1024038791656494,-1.683192869225973,-2.5275681654559534,2.2783068853565673,-1.0189974943744105,0.7114201784133911
1708440325.2120879,-1.1023696660995483,-1.683274885217184,-2.5274937788592737,2.278320236796997,-1.0188873449908655,0.7106950879096985
1708440325.214057,-1.1023814678192139,-1.6832462749876917,-2.5275235811816614,2.278322382564209,-1.0188897291766565,0.7099865078926086
1708440325.216037,-1.1023470163345337,-1.6832086048521937,-2.5275190512286585,2.2782932954975585,-1.0188778082477015,0.7093096971511841
1708440325.2180438,-1.1023434400558472,-1.683241983453268,-2.5275383631335657,2.278284474010132,-1.0189021269427698,0.7084793448448181
1708440325.2200315,-1.1023225784301758,-1.6832348308958949,-2.5274952093707483,2.278355045909546,-1.0188644568072718,0.7077383399009705
1708440325.222051,-1.1023106575012207,-1.6832043133177699,-2.5274952093707483,2.2784322935291748,-1.0188854376422327,0.7070490121841431
1708440325.224046,-1.10234797000885,-1.683237691918844,-2.5274575392352503,2.278395100230835,-1.0189231077777308,0.7064105272293091
1708440325.2260387,-1.102376937866211,-1.6831971607603968,-2.527449909840719,2.278346224422119,-1.0189064184771937,0.7056475281715393
1708440325.2280483,-1.1023650169372559,-1.683188100854391,-2.5274997393237513,2.278357906932495,-1.0188854376422327,0.704982340335846
1708440325.2300546,-1.102400779724121,-1.6832348308958949,-2.527536932622091,2.2783326345631103,-1.0188644568072718,0.7042739391326904
1708440325.232048,-1.1024291515350342,-1.6831685505309046,-2.527482811604635,2.278411551112793,-1.0188716093646448,0.7035632133483887
1708440325.2340493,-1.1023799180984497,-1.6832019291319789,-2.527445379887716,2.2783610063740234,-1.0188539663897913,0.7028544545173645
1708440325.2360647,-1.102388858795166,-1.6831971607603968,-2.527393166218893,2.2783610063740234,-1.0188167730914515,0.7022010087966919
1708440325.2380326,-1.1024051904678345,-1.683240076104635,-2.527430597935812,2.278441830272339,-1.0188058058368128,0.7014946341514587
1708440325.240068,-1.1024127006530762,-1.6832391224303187,-2.5274604002581995,2.27840702115979,-1.018867317830221,0.7008753418922424
1708440325.2420444,-1.1023708581924438,-1.6832019291319789,-2.527381245289938,2.2784463602253417,-1.0188420454608362,0.7001408934593201
1708440325.2440836,-1.102388858795166,-1.6832019291319789,-2.5273497740374964,2.2784299093433837,-1.018851105366842,0.6994948387145996
1708440325.2460625,-1.1024608612060547,-1.6832348308958949,-2.5273736158954065,2.278437538737915,-1.0188701788531702,0.6988373398780823
1708440325.248031,-1.1024909019470215,-1.6831714115538539,-2.5273616949664515,2.2784299093433837,-1.0188058058368128,0.6982528567314148
1708440325.2500541,-1.1024655103683472,-1.6832434139647425,-2.5273705164538782,2.2784628111072998,-1.0187609831439417,0.6976158022880554
1708440325.2520542,-1.1024229526519775,-1.6831819019713343,-2.527391497288839,2.2784434992023925,-1.0187256971942347,0.6969097852706909
1708440325.2540524,-1.1024806499481201,-1.6831475696959437,-2.5273705164538782,2.2784434992023925,-1.0186846891986292,0.6963125467300415
1708440325.2560282,-1.1024925708770752,-1.6831385097899378,-2.527379576359884,2.2784389692493896,-1.018627945576803,0.6956988573074341
1708440325.2580688,-1.1025062799453735,-1.6831938229002894,-2.527424399052755,2.27842561780896,-1.0186741987811487,0.6950446367263794
1708440325.260039,-1.1024837493896484,-1.6831847629942835,-2.527337376271383,2.278413696880005,-1.0186875502215784,0.6943858861923218
1708440325.262065,-1.102563500404358,-1.6831819019713343,-2.52735406557192,2.2784971433826904,-1.0186875502215784,0.6937652826309204
1708440325.2640648,-1.1024881601333618,-1.6831566296019496,-2.527358595524923,2.2784790235706787,-1.0186956564532679,0.6930804252624512
1708440325.266052,-1.1025328636169434,-1.6832357845702113,-2.527355496083395,2.2785073953815917,-1.0186546484576624,0.6925082802772522
1708440325.2680361,-1.1025499105453491,-1.6831685505309046,-2.527297083531515,2.278444929713867,-1.0186412970172327,0.6918616890907288
1708440325.2700484,-1.1025164127349854,-1.6832152805724085,-2.527318064366476,2.2785109716602783,-1.0186665693866175,0.6912646293640137
1708440325.2720325,-1.1025662422180176,-1.6831490002074183,-2.5273435751544397,2.278473063106201,-1.0186131636248987,0.690679669380188
1708440325.2740571,-1.1025407314300537,-1.6832481823363246,-2.5273314158069056,2.2785391050526123,-1.0186265150653284,0.6900124549865723
1708440325.276031,-1.1025407314300537,-1.6831399403014125,-2.5273149649249476,2.2785391050526123,-1.0186145941363733,0.6894049644470215
1708440325.2780354,-1.1025571823120117,-1.6832062206664027,-2.5272939840899866,2.2785629469105224,-1.0185812155352991,0.6887755990028381
1708440325.2801015,-1.1025571823120117,-1.6832310161986292,-2.5273075739489954,2.2785050111958007,-1.018550221120016,0.6881821751594543
1708440325.2820685,-1.1025810241699219,-1.6831847629942835,-2.5272613207446497,2.2785586553760986,-1.0185454527484339,0.6875591278076172
1708440325.2840843,-1.1025930643081665,-1.6831895313658656,-2.5272865931140345,2.2785467344471435,-1.0185945669757288,0.6869415044784546
1708440325.2860682,-1.102616786956787,-1.6831609211363734,-2.5272672812091272,2.2786077696033935,-1.0185635725604456,0.6863203048706055
1708440325.288081,-1.1026332378387451,-1.6832105122008265,-2.5272837320910853,2.2786032396503906,-1.0185959974872034,0.6856775879859924
1708440325.2900386,-1.1026421785354614,-1.6831728420653285,-2.527250353490011,2.2785495954700927,-1.0185397307025355,0.6850997805595398
1708440325.2920327,-1.1026257276535034,-1.6832391224303187,-2.5272539297686976,2.278536005611084,-1.0185306707965296,0.6845515370368958
1708440325.2940671,-1.1026694774627686,-1.6831566296019496,-2.527254883443014,2.2786032396503906,-1.0185187498675745,0.6838723421096802
1708440325.2960691,-1.1026151180267334,-1.6831819019713343,-2.527276341115133,2.278557224864624,-1.0185306707965296,0.6832876801490784
1708440325.2980409,-1.1026560068130493,-1.6831985912718714,-2.527242962514059,2.278602285976074,-1.0184858481036585,0.6827056407928467
1708440325.3000336,-1.1026350259780884,-1.6832176647581996,-2.527238432561056,2.278540773982666,-1.0184949080096644,0.6820786595344543
1708440325.3020332,-1.1027052402496338,-1.6832028828062953,-2.527222220097677,2.2785586553760986,-1.018470589314596,0.6815505623817444
1708440325.3040442,-1.1026813983917236,-1.6831490002074183,-2.527226511632101,2.278585358256958,-1.018449608479635,0.6809572577476501
1708440325.3060496,-1.1026604175567627,-1.6831895313658656,-2.527226511632101,2.278580828303955,-1.0184510389911097,0.6803224086761475
1708440325.3080206,-1.102730631828308,-1.6831566296019496,-2.527205769215719,2.2785987096973876,-1.018425766621725,0.6796847581863403
1708440325.3100367,-1.1026678085327148,-1.6831418476500453,-2.527198378239767,2.278540773982666,-1.0183780829059046,0.6790659427642822
1708440325.312056,-1.1027007102966309,-1.6831537685790003,-2.5271742979632776,2.278632326717041,-1.0183451811419886,0.6784735918045044
1708440325.3140676,-1.102696180343628,-1.6831447086729945,-2.5271952787982386,2.278580828303955,-1.0183747450457972,0.6778672337532043
1708440325.3160603,-1.102759599685669,-1.6831580601134242,-2.5272160212146204,2.2786142069050292,-1.0183747450457972,0.6772962808609009
1708440325.3180382,-1.102687120437622,-1.6831280193724574,-2.527154509221212,2.2786142069050292,-1.0183418432818812,0.6767313480377197
1708440325.3200362,-1.1026825904846191,-1.683162351647848,-2.5271649996386927,2.2786096769520263,-1.0183094183551233,0.6761661767959595
1708440325.322027,-1.1027461290359497,-1.6831490002074183,-2.5271876494037073,2.278646870250366,-1.018322769795553,0.6755846738815308
1708440325.324053,-1.1027079820632935,-1.683207174340719,-2.527163569127218,2.2786542612263183,-1.0183103720294397,0.6749647259712219
1708440325.3260658,-1.1027052402496338,-1.6831327877440394,-2.527113978062765,2.2786587911793212,-1.0182941595660608,0.6744410395622253
1708440325.3280437,-1.1027697324752808,-1.6831699810423792,-2.527151648198263,2.2786425787159423,-1.0182750860797327,0.6738792061805725
1708440325.3300679,-1.1027697324752808,-1.6831113300719203,-2.527114216481344,2.2786499696918945,-1.0183122793780726,0.6732470989227295
1708440325.3321016,-1.1027488708496094,-1.683162351647848,-2.5271440188037317,2.2786199289509277,-1.0182459990130823,0.6726955771446228
1708440325.3340719,-1.1027488708496094,-1.683179040948385,-2.5271111170398157,2.2786499696918945,-1.0182793776141565,0.6720269918441772
1708440325.336041,-1.1027354001998901,-1.6831418476500453,-2.527090136204855,2.2786127763935546,-1.0182884375201624,0.6714335083961487
1708440325.3380396,-1.1028389930725098,-1.6831008396544398,-2.527090136204855,2.278663321132324,-1.018231217061178,0.6709291934967041
1708440325.3400698,-1.1027681827545166,-1.6831089458861292,-2.5271530787097376,2.278679772014282,-1.0181940237628382,0.6703225374221802
1708440325.3420618,-1.1027755737304688,-1.6831265888609828,-2.527106587086813,2.2786573606678466,-1.018186394368307,0.6697371006011963
1708440325.3440344,-1.1028255224227905,-1.6831089458861292,-2.527118508015768,2.2786082464405517,-1.0182073752032679,0.6692361235618591
1708440325.3460429,-1.1028327941894531,-1.6831714115538539,-2.5270944277392786,2.2786454397388916,-1.018186394368307,0.6686250567436218
1708440325.3480587,-1.1028255224227905,-1.6831380329527796,-2.5270782152758997,2.2786292272755126,-1.0181711355792444,0.6681110858917236
1708440325.3500848,-1.1028536558151245,-1.683155199090475,-2.5271034876452845,2.2786587911793212,-1.0181339422809046,0.6675649881362915
1708440325.35207,-1.1028419733047485,-1.6831041775145472,-2.5270586649524134,2.2786587911793212,-1.0181143919574183,0.6670481562614441
1708440325.3540564,-1.102799415588379,-1.683068414727682,-2.527013365422384,2.2786707121082763,-1.0180981794940394,0.6664948463439941
1708440325.3560457,-1.1028447151184082,-1.6830812893309535,-2.5270348230945032,2.2786425787159423,-1.0180991331683558,0.6660009026527405
1708440325.3580506,-1.1028492450714111,-1.6830984554686488,-2.527013365422384,2.2786335188099365,-1.0180991331683558,0.6654378175735474
1708440325.3600333,-1.1028238534927368,-1.6831141910948695,-2.526973311101095,2.2786454397388916,-1.018083397542135,0.6649209260940552
1708440325.3620646,-1.1028164625167847,-1.6830703220763148,-2.5269866625415247,2.2786127763935546,-1.0180795828448694,0.6644423007965088
1708440325.3640225,-1.1028029918670654,-1.6830769977965296,-2.5270031134234827,2.2786380487629394,-1.0180876890765589,0.6638795137405396
1708440325.366036,-1.1028820276260376,-1.6830250225462855,-2.5269580523120325,2.2786292272755126,-1.0180676619159144,0.663357675075531
1708440325.3680308,-1.1028611660003662,-1.6830464802184046,-2.5269506613360804,2.2786618906208496,-1.0180352369891565,0.6628151535987854
1708440325.370029,-1.1028193235397339,-1.6831189594664515,-2.5270448366748255,2.2786335188099365,-1.0180724302874964,0.6622534990310669
1708440325.3720431,-1.1028850078582764,-1.6830555401244105,-2.5269418398486536,2.2786292272755126,-1.0180471579181116,0.661719799041748
1708440325.3740492,-1.1028804779052734,-1.6830641231932582,-2.5269880930529993,2.2786499696918945,-1.018019978200094,0.6611761450767517
1708440325.3760254,-1.1028730869293213,-1.6830464802184046,-2.5269747416125696,2.2786306577869873,-1.017954174672262,0.6606600880622864
1708440325.3780246,-1.102847695350647,-1.6830641231932582,-2.5269177595721644,2.2786127763935546,-1.0179169813739222,0.6601243615150452
1708440325.3800426,-1.1028894186019897,-1.6830131016173304,-2.5269177595721644,2.2786173063465576,-1.0179808775531214,0.6596308946609497
1708440325.382039,-1.10287606716156,-1.683042665521139,-2.526938501988546,2.2786335188099365,-1.0179317633258265,0.6591494679450989
1708440325.384038,-1.1029139757156372,-1.6830641231932582,-2.526980463658468,2.2785965639301757,-1.0179155508624476,0.6586275696754456
1708440325.3860376,-1.1028894186019897,-1.6830221615233363,-2.5269761721240442,2.2786788183399658,-1.0178983847247522,0.6580839157104492
1708440325.388063,-1.1029057502746582,-1.6830054722227992,-2.526910130177633,2.2786425787159423,-1.017916504536764,0.6575992107391357
1708440325.3900428,-1.1029094457626343,-1.683014532128805,-2.526926581059591,2.2786380487629394,-1.017874542866842,0.6571089625358582
1708440325.392034,-1.1029094457626343,-1.6830188236632289,-2.526931111012594,2.2786361414143066,-1.0178917090045374,0.6565459370613098
1708440325.3940547,-1.1028923988342285,-1.6830102405943812,-2.526886288319723,2.278618736858032,-1.0178878943072718,0.6560810208320618
1708440325.396028,-1.1029303073883057,-1.683035512963766,-2.5268681685077112,2.2786544996448974,-1.0178316275226038,0.6556143760681152
1708440325.3981051,-1.1028685569763184,-1.682993551293844,-2.5269325415240687,2.2786261278339843,-1.017822567616598,0.655107855796814
1708440325.400049,-1.1029375791549683,-1.682993551293844,-2.5268710295306605,2.2785963255115966,-1.0178359190570276,0.6546144485473633
1708440325.4020588,-1.102887749671936,-1.683035512963766,-2.5268877188311976,2.2786752420612792,-1.0178268591510218,0.6540708541870117
1708440325.4040544,-1.1029183864593506,-1.683007379571432,-2.5268951098071497,2.278636618251465,-1.0178239981280726,0.6536340713500977
1708440325.4060507,-1.1028668880462646,-1.683030744592184,-2.5268591086017054,2.2786096769520263,-1.0178077856646937,0.6531122326850891
1708440325.4080822,-1.102928638458252,-1.683042665521139,-2.5268293062793177,2.2786199289509277,-1.0177882353412073,0.6525688767433167
1708440325.4100366,-1.1028833389282227,-1.683047433892721,-2.5268293062793177,2.2786292272755126,-1.0177343527423304,0.6520383358001709
1708440325.4120843,-1.1029586791992188,-1.6830836735167445,-2.5268426577197474,2.2786292272755126,-1.0177596251117151,0.6515374183654785
1708440325.4140496,-1.1029751300811768,-1.6830598316588343,-2.5268264452563685,2.2786833482929687,-1.0177071730243128,0.6510536670684814
1708440325.416065,-1.102928638458252,-1.6830688915648402,-2.5268264452563685,2.2786173063465576,-1.0177119413958948,0.6506019234657288
1708440325.4180582,-1.102912187576294,-1.6830555401244105,-2.5268471876727503,2.2786053854176025,-1.0177324453936976,0.6501396298408508
1708440325.4200394,-1.102940559387207,-1.683014532128805,-2.526785437260763,2.2786425787159423,-1.0176876227008265,0.6496126651763916
1708440325.4220521,-1.1029479503631592,-1.6830173931517542,-2.526789967213766,2.278704805965088,-1.0177009741412562,0.6491104960441589
1708440325.4240453,-1.1029614210128784,-1.6830507717528285,-2.526815954838888,2.2786544996448974,-1.0176919142352503,0.6486246585845947
1708440325.4260516,-1.1029434204101562,-1.6830383739867152,-2.526761595402853,2.2786053854176025,-1.017689053212301,0.6480771899223328
1708440325.428031,-1.1029689311981201,-1.6829801998534144,-2.526794497166769,2.2785889345356445,-1.017616097127096,0.6476117968559265
1708440325.4300833,-1.1029947996139526,-1.683080335656637,-2.5267871061908167,2.2786380487629394,-1.0176575819598597,0.6471177935600281
1708440325.4320664,-1.102981448173523,-1.6830688915648402,-2.526794497166769,2.278679772014282,-1.017604176198141,0.6466521620750427
1708440325.4340606,-1.1029688119888306,-1.683047433892721,-2.5267258326159876,2.278576298350952,-1.0175922552691858,0.6461645364761353
1708440325.436081,-1.1029597520828247,-1.6830507717528285,-2.5267587343799036,2.2786380487629394,-1.0175593535052698,0.6456952095031738
1708440325.4380555,-1.102972388267517,-1.683080335656637,-2.5267139116870325,2.2785934644886474,-1.0175440947162073,0.6451802253723145
1708440325.4400506,-1.1029505729675293,-1.6829773388304652,-2.5267017523394983,2.2786142069050292,-1.0175307432757776,0.6446902751922607
1708440325.4420602,-1.1029644012451172,-1.6830383739867152,-2.5267558733569544,2.278679772014282,-1.017590347920553,0.6442691683769226
1708440325.4440525,-1.1029977798461914,-1.6829964123167933,-2.5267346541034144,2.2786008554645996,-1.017524544392721,0.6437777280807495
1708440325.4460754,-1.1029597520828247,-1.68302645305776,-2.526715103779928,2.2786082464405517,-1.017512623463766,0.6433157920837402
1708440325.4480376,-1.102993130683899,-1.6830173931517542,-2.5267227331744593,2.278679533595703,-1.0174959341632288,0.6428418755531311
1708440325.4500604,-1.1029688119888306,-1.683030744592184,-2.52667481104006,2.278663321132324,-1.0174911657916468,0.6423952579498291
1708440325.4520307,-1.1029677391052246,-1.6830517254271449,-2.526691261922018,2.2786380487629394,-1.0174525419818323,0.6418837904930115
1708440325.4540927,-1.102952480316162,-1.683030744592184,-2.5266838709460657,2.2785891729542236,-1.0174019972430628,0.6414095759391785
1708440325.4560368,-1.102957010269165,-1.6830598316588343,-2.526679340993063,2.278651400203369,-1.0174034277545374,0.6409637928009033
1708440325.4580445,-1.1029949188232422,-1.6830641231932582,-2.5266671816455286,2.2786544996448974,-1.0173795858966272,0.6404848098754883
1708440325.4600272,-1.1029269695281982,-1.6830102405943812,-2.5266385714160364,2.2786215978809814,-1.017350975667135,0.6400415301322937
1708440325.4620843,-1.102972388267517,-1.6830641231932582,-2.5266881624804896,2.278623266811035,-1.017371956502096,0.6395509839057922
1708440325.4640515,-1.1029767990112305,-1.683030744592184,-2.526652161275045,2.2786215978809814,-1.0173357168780726,0.6390756368637085
1708440325.4660518,-1.1029597520828247,-1.6830641231932582,-2.5266266504870813,2.2786173063465576,-1.0173643271075647,0.6386207342147827
1708440325.4680357,-1.1030102968215942,-1.683007379571432,-2.5266147295581263,2.278606815929077,-1.0173404852496546,0.6382025480270386
1708440325.4700665,-1.1029887199401855,-1.6829740009703578,-2.5266311804400843,2.2786306577869873,-1.0173118750201624,0.6377633810043335
1708440325.4720466,-1.102981448173523,-1.68302645305776,-2.5265730063067835,2.2786099153706054,-1.0172846953021448,0.6373406648635864
1708440325.4740496,-1.102967619895935,-1.6830173931517542,-2.5266311804400843,2.2786096769520263,-1.017301384602682,0.636906623840332
1708440325.4760342,-1.1029967069625854,-1.6830173931517542,-2.526569906865255,2.2786380487629394,-1.0173147360431116,0.636467456817627
1708440325.4780543,-1.1030550003051758,-1.6830555401244105,-2.526620690022604,2.2786380487629394,-1.0172699133502405,0.6360287666320801
1708440325.4801245,-1.103013038635254,-1.6830641231932582,-2.5265710989581507,2.2786127763935546,-1.0172370115863245,0.6355594992637634
1708440325.4820786,-1.103024959564209,-1.6830336056151332,-2.526545588170187,2.2786261278339843,-1.0172207991229456,0.6351208686828613
1708440325.4840775,-1.1030458211898804,-1.6830517254271449,-2.526604239140646,2.2786587911793212,-1.0172293821917933,0.6347483992576599
1708440325.48607,-1.1030011177062988,-1.6830464802184046,-2.526553217564718,2.278646870250366,-1.0172088781939905,0.6343541145324707
1708440325.48805,-1.1030205488204956,-1.6829773388304652,-2.5265591780291956,2.2786215978809814,-1.0171969572650355,0.6338739991188049
1708440325.4900918,-1.1029587984085083,-1.6830102405943812,-2.5264976660357874,2.278634949321411,-1.0171850363360804,0.6335237622261047
1708440325.492043,-1.1030458211898804,-1.6830102405943812,-2.5265308062182825,2.2786335188099365,-1.0171321074115198,0.6330314874649048
1708440325.4940813,-1.103057861328125,-1.6830173931517542,-2.5265188852893274,2.2785934644886474,-1.017115894948141,0.6327013373374939
1708440325.4960346,-1.1030279397964478,-1.6830398044981898,-2.5265398661242884,2.278646870250366,-1.017111603413717,0.632233738899231
1708440325.4980483,-1.1030205488204956,-1.683035512963766,-2.5265143553363245,2.2786335188099365,-1.0170558134662073,0.6318221688270569
1708440325.5000386,-1.103053331375122,-1.6830383739867152,-2.5264905134784144,2.278602285976074,-1.0171187559710901,0.6314314007759094
1708440325.5020485,-1.1030666828155518,-1.6830054722227992,-2.526494805012838,2.278580828303955,-1.0170438925372522,0.6310265064239502
1708440325.5040364,-1.1030502319335938,-1.68302645305776,-2.526466194783346,2.278639717692993,-1.0170124212848108,0.6306270956993103
1708440325.5060515,-1.1030488014221191,-1.6830054722227992,-2.526442352925436,2.278536244029663,-1.0170095602618616,0.6302570104598999
1708440325.5080435,-1.1030323505401611,-1.6830011806883753,-2.526421372090475,2.278552456493042,-1.0170214811908167,0.6298174858093262
1708440325.5100493,-1.103036880493164,-1.6829682789244593,-2.526454273854391,2.278543635005615,-1.0169695059405726,0.62943035364151
1708440325.512096,-1.103085994720459,-1.683073183099264,-2.5264723936664026,2.278632088298462,-1.0169828573810022,0.6290352940559387
1708440325.51407,-1.1030488014221191,-1.682953496972555,-2.5264304319964808,2.278623266811035,-1.0169537703143519,0.628660261631012
1708440325.5160482,-1.1030741930007935,-1.683035512963766,-2.5264647642718714,2.278618736858032,-1.0169537703143519,0.6282697916030884
1708440325.518052,-1.1030726432800293,-1.6830116711058558,-2.5264392534839075,2.278620167369507,-1.01689321199526,0.6279028058052063
1708440325.5200727,-1.1030116081237793,-1.683014532128805,-2.526419703160421,2.278653069133423,-1.0168975035296839,0.6274712085723877
1708440325.5220528,-1.103008508682251,-1.682993551293844,-2.526407782231466,2.278580828303955,-1.0168774763690394,0.6270824074745178
1708440325.524049,-1.1030532121658325,-1.6829997501769007,-2.526346508656637,2.278540773982666,-1.0168536345111292,0.626686155796051
1708440325.5260518,-1.1030652523040771,-1.6829983196654261,-2.526358668004171,2.278548164958618,-1.0168731848346155,0.6263729929924011
1708440325.5280688,-1.1030442714691162,-1.683014532128805,-2.526379410420553,2.278557224864624,-1.0167883078204554,0.6259405016899109
1708440325.5300481,-1.1030845642089844,-1.6829892597594203,-2.5263341108905237,2.278549833888672,-1.016846005116598,0.6256258487701416
1708440325.5320456,-1.1030353307724,-1.6829983196654261,-2.5263357798205774,2.2785257536121826,-1.0167892614947718,0.6252524852752686
1708440325.5340562,-1.1030980348587036,-1.6830278835692347,-2.5263312498675745,2.2785257536121826,-1.0167682806598108,0.6248608827590942
1708440325.536038,-1.1030890941619873,-1.683035512963766,-2.5263400713550013,2.2785586553760986,-1.0167501608477991,0.6244717836380005
1708440325.5380538,-1.1030726432800293,-1.6830116711058558,-2.5262983481036585,2.2785629469105224,-1.0167415777789515,0.6241792440414429
1708440325.5400443,-1.1031179428100586,-1.682981630364889,-2.5263028780566614,2.2785376745411376,-1.0167458693133753,0.6237999796867371
1708440325.5420537,-1.1031134128570557,-1.6830102405943812,-2.526283327733175,2.2785050111958007,-1.0167024771319788,0.6234936714172363
1708440325.5440538,-1.1031209230422974,-1.6830383739867152,-2.526313368474142,2.2785541254230957,-1.016632382069723,0.6230980753898621
1708440325.546052,-1.1030999422073364,-1.683047433892721,-2.526266876851217,2.2785541254230957,-1.0166500250445765,0.6227133870124817
1708440325.5480514,-1.1030924320220947,-1.68302645305776,-2.526242796574728,2.2785302835651855,-1.0166009108172815,0.6224117279052734
1708440325.550054,-1.10312819480896,-1.68302645305776,-2.5262473265277308,2.2785376745411376,-1.0165837446795862,0.6219982504844666
1708440325.552019,-1.1031162738800049,-1.6830336056151332,-2.526219193135397,2.2785259920307617,-1.0165975729571741,0.6216947436332703
1708440325.554047,-1.103149175643921,-1.6829892597594203,-2.5262354055987757,2.2785422044941406,-1.0166061560260218,0.621362030506134
1708440325.5560305,-1.1031372547149658,-1.683030744592184,-2.5261619726764124,2.2785212236591796,-1.0165289084063929,0.6209861636161804
1708440325.5580635,-1.103132724761963,-1.682964941064352,-2.5261500517474573,2.2785183626362304,-1.0165050665484827,0.6206511855125427
1708440325.5600655,-1.103132724761963,-1.68300261119985,-2.5261665026294153,2.2785257536121826,-1.0164764563189905,0.6203028559684753
1708440325.562092,-1.103156566619873,-1.68302645305776,-2.526196066533224,2.2785050111958007,-1.0164569059955042,0.6199676394462585
1708440325.5640574,-1.1031745672225952,-1.6829844913878382,-2.52616793314089,2.2785019117542724,-1.01646596590151,0.6196791529655457
1708440325.5660365,-1.1031535863876343,-1.6830054722227992,-2.5261529127704065,2.2785183626362304,-1.01646596590151,0.6193475127220154
1708440325.5680225,-1.1031535863876343,-1.6830336056151332,-2.5260945002185267,2.2785302835651855,-1.0164807478534144,0.6190115809440613
1708440325.5700245,-1.1031521558761597,-1.6830173931517542,-2.5260942617999476,2.2785138326832275,-1.0164302031146448,0.6186884641647339
1708440325.5720186,-1.1031728982925415,-1.68300261119985,-2.526145044957296,2.2785064417072753,-1.0164063612567347,0.6184214949607849
1708440325.5740442,-1.1032034158706665,-1.6829859218993128,-2.5260749498950403,2.2785257536121826,-1.0163863340960901,0.6181192398071289
1708440325.5760257,-1.1031520366668701,-1.683030744592184,-2.5260825792895716,2.2784930902668457,-1.016320530568258,0.6177752017974854
1708440325.5780442,-1.1031900644302368,-1.683047433892721,-2.5260661284076136,2.2785257536121826,-1.0163176695453089,0.6174279451370239
1708440325.5800366,-1.1031310558319092,-1.6830398044981898,-2.526034418736593,2.2785138326832275,-1.0163429419146937,0.6171450018882751
1708440325.5820608,-1.1031774282455444,-1.6829682789244593,-2.526067558919088,2.2785467344471435,-1.0163148085223597,0.616777241230011
1708440325.584053,-1.1031357049942017,-1.682964941064352,-2.5260749498950403,2.2785226541706542,-1.0163162390338343,0.6165398359298706
1708440325.5860424,-1.1031808853149414,-1.6830188236632289,-2.526043478642599,2.278560085887573,-1.0162671248065394,0.6161876320838928
1708440325.5880554,-1.1031763553619385,-1.683023592034811,-2.526076618825094,2.2785274225422363,-1.016230885182516,0.6158393621444702
1708440325.5900595,-1.1031684875488281,-1.682953496972555,-2.5260446707354944,2.2784642416187744,-1.0161364714251917,0.6155254244804382
1708440325.5920389,-1.1031944751739502,-1.6829859218993128,-2.5259862581836146,2.2785259920307617,-1.0162161032306116,0.6153039932250977
1708440325.5940666,-1.1031838655471802,-1.6829983196654261,-2.5260074774371546,2.2785019117542724,-1.0161379019366663,0.6150035858154297
1708440325.5960584,-1.1031674146652222,-1.6829601726927699,-2.525971237813131,2.2785438734241943,-1.016123119984762,0.6147105097770691
1708440325.5980687,-1.1032376289367676,-1.6829859218993128,-2.525971237813131,2.2784976202198486,-1.016106907521383,0.6144757866859436
1708440325.6000655,-1.1032121181488037,-1.6829740009703578,-2.5259385744677942,2.2785228925892334,-1.016123119984762,0.614190936088562
1708440325.6020527,-1.1031882762908936,-1.6829740009703578,-2.525909964238302,2.278548164958618,-1.0161083380328577,0.6138916015625
1708440325.6040294,-1.103237509727478,-1.6829496822752894,-2.525956455861227,2.2784804540821533,-1.0160496870623987,0.6136139631271362
1708440325.6060417,-1.1032450199127197,-1.683007379571432,-2.525942866002218,2.278548164958618,-1.0160229841815394,0.6133873462677002
1708440325.6080608,-1.1032241582870483,-1.6829444370665492,-2.5259280840503138,2.2785138326832275,-1.016003433858053,0.613115131855011
1708440325.6100502,-1.1032524108886719,-1.6830383739867152,-2.525852982197897,2.2785438734241943,-1.016036335621969,0.6128324270248413
1708440325.6120603,-1.1032859086990356,-1.68300261119985,-2.5259161631213587,2.2785555559345703,-1.0159462133990687,0.6125321984291077
1708440325.6140654,-1.1032450199127197,-1.683023592034811,-2.5258799234973353,2.278477593059204,-1.0159342924701136,0.6122599244117737
1708440325.6160364,-1.1032480001449585,-1.6830116711058558,-2.52590519586672,2.2785064417072753,-1.0159314314471644,0.6119915843009949
1708440325.618048,-1.1032196283340454,-1.6829577885069789,-2.5258589426623743,2.2785019117542724,-1.0158880392657679,0.6117420196533203
1708440325.6200442,-1.1032596826553345,-1.6830326519408167,-2.5258141199695032,2.2784761625477294,-1.0158880392657679,0.6115305423736572
1708440325.622047,-1.1032507419586182,-1.68300261119985,-2.525790039693014,2.278468533153198,-1.0158384482013147,0.6112438440322876
1708440325.6240635,-1.1032723188400269,-1.6830188236632289,-2.5258427301989954,2.2785112100788574,-1.0157817045794886,0.6110044717788696
1708440325.6260834,-1.1032930612564087,-1.682981630364889,-2.5258198420154017,2.2784761625477294,-1.015782658253805,0.6107572317123413
1708440325.6280541,-1.1032931804656982,-1.6829692325987757,-2.5258033911334437,2.278484984035156,-1.015754524861471,0.6105308532714844
