Eg3-git/Classifiers/Data Collection/u7/u7cir2_ur3e_joint_states.csv
time,elbow_joint,shoulder_lift_joint,shoulder_pan_joint,wrist_1_joint,wrist_2_joint,wrist_3_joint
1708440647.4611616,-1.105836033821106,-1.6815020046629847,-2.526458803807394,2.281484766597412,-1.017057243977682,-0.1410616079913538
1708440647.4631765,-1.1058226823806763,-1.6814943752684535,-2.5264349619494837,2.2815355497547607,-1.017036263142721,-0.14108163515199834
1708440647.4651575,-1.1058435440063477,-1.6814614735045375,-2.526487175618307,2.2815520006367187,-1.01709491411318,-0.1410744825946253
1708440647.467168,-1.1058151721954346,-1.6814857921996058,-2.526458803807394,2.281531258220337,-1.0170663038836878,-0.14111024538149053
1708440647.4691434,-1.1058242321014404,-1.6814567051329554,-2.5264185110675257,2.2815446096607666,-1.0170782248126429,-0.14106923738588506
1708440647.4711506,-1.105864405632019,-1.6814161739745082,-2.526487175618307,2.2815190988728027,-1.017069164906637,-0.1410616079913538
1708440647.4731133,-1.105803370475769,-1.6814848385252894,-2.526450220738546,2.2814878660389404,-1.0170734564410608,-0.14106589952577764
1708440647.475151,-1.1058151721954346,-1.6814857921996058,-2.52643067041506,2.2815818029591064,-1.0170319716082972,-0.1410616079913538
1708440647.4771326,-1.10578191280365,-1.681448598901266,-2.526442591344015,2.281514807338379,-1.0170157591449183,-0.14109737077821904
1708440647.479114,-1.1057944297790527,-1.6814609966673792,-2.5265124479876917,2.2815207678028564,-1.0170663038836878,-0.14110309282411748
1708440647.4811344,-1.105812430381775,-1.6814524135985316,-2.5264557043658655,2.2815369802662353,-1.0170124212848108,-0.14104968706239873
1708440647.4831285,-1.105812430381775,-1.681437154809469,-2.526409927998678,2.2815653520771484,-1.0170825163470667,-0.1411059538470667
1708440647.4850898,-1.1058331727981567,-1.6814614735045375,-2.5264676252948206,2.2815534311481933,-1.0170124212848108,-0.14106589952577764
1708440647.4871106,-1.1057863235473633,-1.6814781628050746,-2.5264914671527308,2.2815117078968505,-1.0170705954181116,-0.1410616079913538
1708440647.4891453,-1.1057953834533691,-1.681469579736227,-2.526426140462057,2.2814997869678955,-1.0170376936541956,-0.14103347459901983
1708440647.491122,-1.1057671308517456,-1.6814772091307582,-2.5264883677112024,2.2815088468739013,-1.0170543829547327,-0.14105731645692998
1708440647.4931564,-1.1058043241500854,-1.6814900837340296,-2.526475254689352,2.2815117078968505,-1.0170453230487269,-0.14104873338808233
1708440647.4951372,-1.1057506799697876,-1.681465288201803,-2.526450220738546,2.2815744119831542,-1.0170334021197718,-0.14111167589296514
1708440647.4971468,-1.1058377027511597,-1.6814238033690394,-2.526475254689352,2.2814575868793945,-1.0170376936541956,-0.14108211198915654
1708440647.4991708,-1.1057626008987427,-1.681481500665182,-2.5264645258532923,2.2814833360859375,-1.017029110585348,-0.14105731645692998
1708440647.5011392,-1.1057997941970825,-1.6815105877318324,-2.5264514128314417,2.28147999822583,-1.0170038382159632,-0.14104205766786748
1708440647.5031426,-1.1057878732681274,-1.6815020046629847,-2.526480738316671,2.2814969259449462,-1.0170496145831507,-0.14103347459901983
1708440647.5051079,-1.1057343482971191,-1.681481500665182,-2.5264514128314417,2.281447334880493,-1.017041031514303,-0.1410453955279749
1708440647.507153,-1.1058377027511597,-1.6815020046629847,-2.526458803807394,2.2814978796192626,-1.0170906225787562,-0.14104968706239873
1708440647.5091503,-1.1058043241500854,-1.6815344295897425,-2.5264435450183313,2.281460686320923,-1.017029110585348,-0.14104968706239873
1708440647.5111504,-1.105771541595459,-1.6814772091307582,-2.52643067041506,2.2813965517231445,-1.0170734564410608,-0.14109880128969365
1708440647.5131278,-1.1057626008987427,-1.6814891300597132,-2.526421848927633,2.281384153957031,-1.0170171896563929,-0.14106589952577764
1708440647.5150943,-1.1057953834533691,-1.6814528904356898,-2.5264599959002894,2.2814039426990966,-1.0170734564410608,-0.14101726213564092
1708440647.5171182,-1.1058168411254883,-1.6814857921996058,-2.526442591344015,2.2814130026051025,-1.0170334021197718,-0.14103776613344365
1708440647.519098,-1.1057759523391724,-1.681481500665182,-2.526479784642355,2.2813965517231445,-1.0170124212848108,-0.1410616079913538
1708440647.521094,-1.1057640314102173,-1.6815225086607875,-2.5264795462237757,2.2813421922871093,-1.0170376936541956,-0.141090218220846
1708440647.5231068,-1.1057387590408325,-1.6814609966673792,-2.5265045801745813,2.2814413744160156,-1.0170038382159632,-0.1410582701312464
1708440647.5250852,-1.1058257818222046,-1.6814857921996058,-2.5264514128314417,2.2814056116291503,-1.017029110585348,-0.14099198976625615
1708440647.5271401,-1.105755090713501,-1.681493421594137,-2.526470963154928,2.2813631731220703,-1.0170868078814905,-0.14102489153017217
1708440647.5291126,-1.1057908535003662,-1.681493421594137,-2.5264273325549524,2.281392975444458,-1.0170543829547327,-0.141090218220846
1708440647.5311086,-1.105787992477417,-1.6815105877318324,-2.5264676252948206,2.2814265924641113,-1.017052952443258,-0.14106589952577764
1708440647.5330992,-1.1057506799697876,-1.6814891300597132,-2.5264435450183313,2.281367703075073,-1.017024342213766,-0.14103776613344365
1708440647.5350976,-1.105776071548462,-1.6814609966673792,-2.526442591344015,2.281393213863037,-1.017008129750387,-0.1410735289203089
1708440647.537113,-1.105771541595459,-1.681497713128561,-2.5264719168292444,2.2813586431690673,-1.0170453230487269,-0.14104110399355108
1708440647.5391002,-1.105776071548462,-1.681481500665182,-2.5264676252948206,2.2814385133930664,-1.017036263142721,-0.1410616079913538
1708440647.5411139,-1.1057476997375488,-1.6814328632750453,-2.5264883677112024,2.281376762981079,-1.017029110585348,-0.14106589952577764
1708440647.5431855,-1.1057387590408325,-1.681497713128561,-2.5264959971057337,2.2813631731220703,-1.0170124212848108,-0.1410453955279749
1708440647.5450976,-1.1057103872299194,-1.6814900837340296,-2.5265169779406946,2.2814065653034667,-1.017052952443258,-0.14103347459901983
1708440647.5471199,-1.1057238578796387,-1.681497713128561,-2.5265045801745813,2.281355782146118,-1.017041031514303,-0.14106923738588506
1708440647.549094,-1.1057759523391724,-1.681469579736227,-2.5264959971057337,2.281343861217163,-1.0170705954181116,-0.14106589952577764
1708440647.5511043,-1.1057968139648438,-1.6814729175963343,-2.526442591344015,2.2813514906116943,-1.0170453230487269,-0.14106589952577764
1708440647.5531335,-1.1057878732681274,-1.6814400158324183,-2.526487175618307,2.281323118800781,-1.0170334021197718,-0.1410129706012171
1708440647.5551214,-1.1058056354522705,-1.681509634057516,-2.5265124479876917,2.281367703075073,-1.017024342213766,-0.14109450975526983
1708440647.5571666,-1.1057432889938354,-1.6814943752684535,-2.5265002886401575,2.281379385585449,-1.0170496145831507,-0.1410453955279749
1708440647.5591793,-1.1057610511779785,-1.6814161739745082,-2.5264914671527308,2.281414671535156,-1.017036263142721,-0.1410616079913538
1708440647.561125,-1.1057312488555908,-1.681509634057516,-2.5264959971057337,2.281364842052124,-1.0170496145831507,-0.1410616079913538
1708440647.5631185,-1.1057848930358887,-1.6814891300597132,-2.526442591344015,2.281388683910034,-1.0170906225787562,-0.14106589952577764
1708440647.5650935,-1.1057401895523071,-1.681509634057516,-2.5264676252948206,2.2813514906116943,-1.0170005003558558,-0.14102155367006475
1708440647.5670981,-1.105710506439209,-1.6814772091307582,-2.5265002886401575,2.2813586431690673,-1.0170663038836878,-0.1410453955279749
1708440647.5691257,-1.1057521104812622,-1.6814528904356898,-2.5264914671527308,2.2814013200947265,-1.0170782248126429,-0.14102489153017217
1708440647.571088,-1.1058101654052734,-1.6815105877318324,-2.5264883677112024,2.281397505397461,-1.017024342213766,-0.14102489153017217
1708440647.5730975,-1.1057268381118774,-1.6814772091307582,-2.526466671620504,2.281381054515503,-1.0170319716082972,-0.14102489153017217
1708440647.575165,-1.1057029962539673,-1.6814238033690394,-2.5264959971057337,2.281352921123169,-1.017057243977682,-0.14104110399355108
1708440647.5771306,-1.105710506439209,-1.681469579736227,-2.526447121297018,2.2814265924641113,-1.0170376936541956,-0.14105397859682256
1708440647.5791159,-1.105759620666504,-1.681481500665182,-2.5264676252948206,2.2813350397297363,-1.017041031514303,-0.141090218220846
1708440647.581102,-1.1057729721069336,-1.681481500665182,-2.526463333760397,2.281331940288208,-1.0170453230487269,-0.14108640352358037
1708440647.5830886,-1.1057640314102173,-1.681542535821432,-2.526426140462057,2.2813421922871093,-1.0170038382159632,-0.14102059999574834
1708440647.585104,-1.1057432889938354,-1.6814729175963343,-2.5264175573932093,2.281352921123169,-1.017036263142721,-0.1410616079913538
1708440647.587133,-1.1057387590408325,-1.681497713128561,-2.526421848927633,2.281364842052124,-1.0170496145831507,-0.14107782045473272
1708440647.5891128,-1.1057521104812622,-1.681481500665182,-2.5264959971057337,2.2814010816761474,-1.017041031514303,-0.14109450975526983
1708440647.5911312,-1.1056941747665405,-1.6814729175963343,-2.5264557043658655,2.281364842052124,-1.017057243977682,-0.1410453955279749
1708440647.5931408,-1.1057401895523071,-1.681509634057516,-2.5264349619494837,2.281327648753784,-1.0170334021197718,-0.14104110399355108
1708440647.5951214,-1.105698585510254,-1.681497713128561,-2.5264514128314417,2.281367703075073,-1.0170782248126429,-0.1410616079913538
1708440647.5971093,-1.1057848930358887,-1.6814891300597132,-2.5264840761767786,2.281352921123169,-1.017041031514303,-0.14102489153017217
1708440647.599117,-1.1057685613632202,-1.681481500665182,-2.5265124479876917,2.281369133586548,-1.017008129750387,-0.14106589952577764
1708440647.601131,-1.1057238578796387,-1.6814729175963343,-2.526450220738546,2.281376762981079,-1.0170734564410608,-0.14105731645692998
1708440647.603138,-1.1057848930358887,-1.6814528904356898,-2.5264175573932093,2.281376762981079,-1.0170615355121058,-0.1411073843585413
1708440647.605145,-1.1057432889938354,-1.681481500665182,-2.526463333760397,2.2813350397297363,-1.0170734564410608,-0.1410616079913538
1708440647.6070957,-1.1057476997375488,-1.6815053425230921,-2.526438299809591,2.2813302713581542,-1.0170453230487269,-0.1410129706012171
1708440647.609148,-1.1057552099227905,-1.6814567051329554,-2.526475254689352,2.2812811571308593,-1.0170734564410608,-0.1410453955279749
1708440647.6110902,-1.1057357788085938,-1.6814528904356898,-2.5264959971057337,2.281343861217163,-1.017069164906637,-0.14111024538149053
1708440647.613098,-1.1056941747665405,-1.681465288201803,-2.5264914671527308,2.281397505397461,-1.017048184071676,-0.14111453691591436
1708440647.6151187,-1.1057194471359253,-1.6814857921996058,-2.5264349619494837,2.2814220625111084,-1.0170663038836878,-0.141090218220846
1708440647.6170764,-1.1057432889938354,-1.681481500665182,-2.526479784642355,2.281360312099121,-1.017041031514303,-0.14103347459901983
1708440647.6190886,-1.1057238578796387,-1.681481500665182,-2.526487175618307,2.281360312099121,-1.0170376936541956,-0.14105397859682256
1708440647.6211095,-1.1057075262069702,-1.6814805469908656,-2.526463333760397,2.2813350397297363,-1.0170782248126429,-0.141090218220846
1708440647.6231506,-1.1057313680648804,-1.6815020046629847,-2.5264959971057337,2.281372233028076,-1.0170124212848108,-0.14109880128969365
1708440647.6251204,-1.1057119369506836,-1.681437154809469,-2.5264621416675013,2.281376762981079,-1.017041031514303,-0.14103347459901983
1708440647.6271384,-1.1057238578796387,-1.6815301380553187,-2.5264914671527308,2.2814101415821533,-1.017057243977682,-0.1411059538470667
1708440647.6291044,-1.1057640314102173,-1.681481500665182,-2.526470963154928,2.2814101415821533,-1.017052952443258,-0.14107782045473272
1708440647.6311293,-1.1057521104812622,-1.6815225086607875,-2.526540819798605,2.281306667918823,-1.0170453230487269,-0.14104110399355108
1708440647.633141,-1.105759620666504,-1.6815053425230921,-2.5265124479876917,2.2813796240040283,-1.0170906225787562,-0.141029183064596
1708440647.635117,-1.1057268381118774,-1.6814738712706507,-2.52645451227297,2.281372233028076,-1.017020050679342,-0.14106923738588506
1708440647.6371632,-1.1057268381118774,-1.6814857921996058,-2.526519838963644,2.281414671535156,-1.017052952443258,-0.14103252092470342
1708440647.6391366,-1.1057476997375488,-1.6814857921996058,-2.5264950434314173,2.2814101415821533,-1.0170906225787562,-0.14107782045473272
1708440647.6411283,-1.1057313680648804,-1.6815258465208949,-2.5265079180346888,2.2814101415821533,-1.0170858542071741,-0.14106589952577764
1708440647.6431315,-1.105694055557251,-1.6814571819701136,-2.526470963154928,2.2813901144215087,-1.0170734564410608,-0.1410744825946253
1708440647.6451168,-1.105698585510254,-1.681497713128561,-2.526503626500265,2.2812976080128173,-1.0170319716082972,-0.14109450975526983
1708440647.6471355,-1.1057149171829224,-1.6814729175963343,-2.526447121297018,2.281336470241211,-1.0170782248126429,-0.14106589952577764
1708440647.6491265,-1.1057432889938354,-1.6815139255919398,-2.5265079180346888,2.281343861217163,-1.0170782248126429,-0.141029183064596
1708440647.6511102,-1.1057521104812622,-1.6815301380553187,-2.5264459292041224,2.2813514906116943,-1.0170615355121058,-0.141029183064596
1708440647.6531665,-1.1057268381118774,-1.681481500665182,-2.52645451227297,2.281343861217163,-1.017069164906637,-0.14107782045473272
1708440647.6551676,-1.105710506439209,-1.6815139255919398,-2.526487175618307,2.281402035350464,-1.0170858542071741,-0.14111024538149053
1708440647.657121,-1.1057268381118774,-1.681481500665182,-2.526536528264181,2.28133933126416,-1.0171096960650843,-0.1410453955279749
1708440647.6591094,-1.1057075262069702,-1.6815301380553187,-2.5265079180346888,2.2813350397297363,-1.0170815626727503,-0.1411073843585413
1708440647.6611903,-1.1057149171829224,-1.6814242802061976,-2.5265002886401575,2.2814084726520996,-1.017048184071676,-0.14102489153017217
1708440647.663142,-1.1057313680648804,-1.6814686260619105,-2.52645451227297,2.2813350397297363,-1.0170906225787562,-0.141090218220846
1708440647.6651814,-1.1057685613632202,-1.681437154809469,-2.5265124479876917,2.2814013200947265,-1.017036263142721,-0.1410453955279749
1708440647.6671777,-1.1057610511779785,-1.6814609966673792,-2.526475254689352,2.281381054515503,-1.0170906225787562,-0.14109307924379522
1708440647.6691666,-1.105698585510254,-1.6814729175963343,-2.5265451113330286,2.281376762981079,-1.0170930067645472,-0.14107782045473272
1708440647.6711614,-1.105698585510254,-1.681509634057516,-2.526450220738546,2.2813901144215087,-1.0171187559710901,-0.14108640352358037
1708440647.6731257,-1.1057552099227905,-1.681465288201803,-2.526519838963644,2.2814175325581054,-1.017052952443258,-0.14108640352358037
1708440647.6751008,-1.105722427368164,-1.681497713128561,-2.526466671620504,2.2813350397297363,-1.0171106497394007,-0.14104873338808233
1708440647.6771321,-1.1057238578796387,-1.681493421594137,-2.526487175618307,2.28139774381604,-1.017102066670553,-0.14105731645692998
1708440647.6791024,-1.1057313680648804,-1.6814686260619105,-2.526482884083883,2.2814056116291503,-1.0170930067645472,-0.1410616079913538
1708440647.6811032,-1.105759620666504,-1.6815053425230921,-2.526499334965841,2.281381292934082,-1.017069164906637,-0.14102059999574834
1708440647.6831162,-1.1057610511779785,-1.681497713128561,-2.5265079180346888,2.2813965517231445,-1.0170682112323206,-0.14108211198915654
1708440647.6850884,-1.1057432889938354,-1.6815139255919398,-2.5264740625964563,2.28133933126416,-1.0171383062945765,-0.14109880128969365
1708440647.687098,-1.1057268381118774,-1.6815053425230921,-2.5264862219439905,2.2813631731220703,-1.0170558134662073,-0.1410616079913538
1708440647.6891289,-1.1057238578796387,-1.681465288201803,-2.526479784642355,2.2814265924641113,-1.017102066670553,-0.1410444418536585
1708440647.6911032,-1.1057401895523071,-1.6814772091307582,-2.526487175618307,2.281384153957031,-1.0171187559710901,-0.1411355177508753
1708440647.6931682,-1.1057685613632202,-1.6815139255919398,-2.526475254689352,2.281388683910034,-1.0170772711383265,-0.14106876054872686
1708440647.6951203,-1.1057521104812622,-1.6814524135985316,-2.5264785925494593,2.281372233028076,-1.0170815626727503,-0.1411226431476038
1708440647.6971354,-1.1057640314102173,-1.681493421594137,-2.526470963154928,2.2813631731220703,-1.0171306769000452,-0.14112693468202764
1708440647.6991208,-1.1057476997375488,-1.6814848385252894,-2.526499334965841,2.2813514906116943,-1.0170772711383265,-0.14108211198915654
1708440647.7011244,-1.105765700340271,-1.6815344295897425,-2.5264914671527308,2.2813631731220703,-1.0170839468585413,-0.14108592668642217
1708440647.703111,-1.105710506439209,-1.6814524135985316,-2.5264959971057337,2.2814010816761474,-1.0170772711383265,-0.1410735289203089
1708440647.7051413,-1.1057729721069336,-1.681465288201803,-2.526487175618307,2.2813965517231445,-1.0171216169940394,-0.14106494585146123
1708440647.7071369,-1.1057401895523071,-1.681509634057516,-2.526531998311178,2.2814101415821533,-1.0171187559710901,-0.14108592668642217
1708440647.7091322,-1.105698585510254,-1.6814891300597132,-2.526519838963644,2.281367703075073,-1.0171263853656214,-0.1411064306842249
1708440647.7111197,-1.1057268381118774,-1.6814891300597132,-2.5265079180346888,2.281355782146118,-1.017069164906637,-0.1411345640765589
1708440647.7131283,-1.105789303779602,-1.6815139255919398,-2.526475254689352,2.281384153957031,-1.0170839468585413,-0.14109737077821904
1708440647.71509,-1.105722427368164,-1.681509634057516,-2.526466671620504,2.2814130026051025,-1.017102066670553,-0.14113980928529912
1708440647.7171166,-1.1058012247085571,-1.6815020046629847,-2.5264785925494593,2.281372233028076,-1.0170772711383265,-0.14109737077821904
1708440647.7191389,-1.1057387590408325,-1.6814805469908656,-2.526475254689352,2.2813631731220703,-1.0170839468585413,-0.14109737077821904
1708440647.7211208,-1.105759620666504,-1.6814686260619105,-2.52645451227297,2.281360312099121,-1.0170772711383265,-0.14111072221864873
1708440647.7231078,-1.1057357788085938,-1.681521554986471,-2.5264621416675013,2.2814265924641113,-1.0171216169940394,-0.1410444418536585
1708440647.7251186,-1.105777382850647,-1.6814476452269496,-2.526499334965841,2.281372233028076,-1.0171096960650843,-0.1410606543170374
1708440647.727136,-1.1057804822921753,-1.6815053425230921,-2.526536528264181,2.281384153957031,-1.017052952443258,-0.14111882845033819
1708440647.7290862,-1.1057194471359253,-1.681493421594137,-2.526466671620504,2.2813467222401123,-1.0171383062945765,-0.14110166231264287
1708440647.73111,-1.1057313680648804,-1.681481500665182,-2.5264578501330774,2.281367703075073,-1.0170839468585413,-0.1410735289203089
1708440647.7331138,-1.1057432889938354,-1.6814195118346156,-2.526519838963644,2.281384153957031,-1.0170682112323206,-0.14112598100771123
1708440647.7351155,-1.1057610511779785,-1.6815053425230921,-2.5264785925494593,2.281355782146118,-1.0170839468585413,-0.14108831087221319
1708440647.7371635,-1.1057194471359253,-1.6815020046629847,-2.52645451227297,2.281381054515503,-1.0170839468585413,-0.14106876054872686
1708440647.7391458,-1.1057357788085938,-1.6814857921996058,-2.5264621416675013,2.2813660341450195,-1.0170839468585413,-0.14108163515199834
1708440647.7411165,-1.1057403087615967,-1.6814729175963343,-2.5264621416675013,2.2813631731220703,-1.0171335379229944,-0.14109307924379522
1708440647.7431417,-1.1056972742080688,-1.6814729175963343,-2.526519838963644,2.2813705640980224,-1.0170839468585413,-0.14110166231264287
1708440647.7451246,-1.1057476997375488,-1.681481500665182,-2.5264297167407435,2.2814220625111084,-1.0171335379229944,-0.14109927812685186
1708440647.7471101,-1.105705976486206,-1.6815301380553187,-2.5265124479876917,2.281378670329712,-1.0171383062945765,-0.14107257524599248
1708440647.749134,-1.105710506439209,-1.6814848385252894,-2.526540819798605,2.2813796240040283,-1.0171335379229944,-0.14106446901430303
1708440647.7511344,-1.1057476997375488,-1.6814567051329554,-2.526487175618307,2.2814339834400634,-1.0171130339251917,-0.14113074937929326
1708440647.7531211,-1.1057357788085938,-1.6814609966673792,-2.526503626500265,2.2814292150684814,-1.017097298298971,-0.14110166231264287
1708440647.7550914,-1.105710506439209,-1.681521554986471,-2.5264950434314173,2.2813750940510253,-1.0171082655536097,-0.14110976854433233
1708440647.7571175,-1.105759620666504,-1.6814891300597132,-2.526482884083883,2.2814294534870605,-1.0171054045306605,-0.1411350409137171
1708440647.7591193,-1.1057060956954956,-1.681509634057516,-2.5264621416675013,2.281383200282715,-1.0171082655536097,-0.14108163515199834
1708440647.761117,-1.1057194471359253,-1.681481500665182,-2.5264950434314173,2.2814294534870605,-1.0170796553241175,-0.14115602174867803
1708440647.7631447,-1.1057268381118774,-1.681493421594137,-2.526499334965841,2.2814010816761474,-1.0171096960650843,-0.14111406007875615
1708440647.7651064,-1.1057894229888916,-1.6815105877318324,-2.5264950434314173,2.2814292150684814,-1.0171263853656214,-0.14110166231264287
1708440647.767122,-1.105759620666504,-1.681465288201803,-2.526499334965841,2.2813965517231445,-1.0171173254596155,-0.1410768667804163
1708440647.7690997,-1.1057149171829224,-1.6815053425230921,-2.526487175618307,2.2813631731220703,-1.0171130339251917,-0.1410921255694788
1708440647.771084,-1.105743169784546,-1.681497713128561,-2.5265069643603724,2.2813877302357177,-1.0171411673175257,-0.14108592668642217
1708440647.7731063,-1.105759620666504,-1.6814686260619105,-2.526548449193136,2.2813705640980224,-1.0171468893634241,-0.14112598100771123
1708440647.775109,-1.1057730913162231,-1.6815062961974085,-2.526466671620504,2.281351252193115,-1.0171454588519495,-0.1410601774798792
1708440647.7770925,-1.10574471950531,-1.6815139255919398,-2.5264950434314173,2.2813920217701416,-1.0171082655536097,-0.14111072221864873
1708440647.779108,-1.1057432889938354,-1.681481500665182,-2.5264950434314173,2.2813379007526855,-1.0171502272235315,-0.14112645784486944
1708440647.781118,-1.105738878250122,-1.6815010509886683,-2.526503626500265,2.2813705640980224,-1.0171173254596155,-0.14110976854433233
1708440647.783097,-1.1057238578796387,-1.6814285717406214,-2.5264740625964563,2.2814339834400634,-1.0171173254596155,-0.14117557207216436
1708440647.7851233,-1.105789303779602,-1.6815053425230921,-2.526499334965841,2.281327410335205,-1.0171335379229944,-0.14109641710390264
1708440647.7871172,-1.1058132648468018,-1.681481500665182,-2.5264959971057337,2.281379385585449,-1.0171530882464808,-0.14110070863832647
1708440647.7891514,-1.1057804822921753,-1.6814891300597132,-2.5264862219439905,2.2813541132160644,-1.0171945730792444,-0.14111739793886358
1708440647.7911198,-1.105771541595459,-1.681509634057516,-2.52651554742922,2.2813965517231445,-1.0171530882464808,-0.14112598100771123
1708440647.7931523,-1.105771541595459,-1.6815229854979457,-2.526499334965841,2.2813796240040283,-1.0171249548541468,-0.1410749594317835
1708440647.7951555,-1.1057685613632202,-1.68143953899526,-2.526487175618307,2.2813631731220703,-1.0171502272235315,-0.14109307924379522
1708440647.7971544,-1.1058043241500854,-1.681481500665182,-2.526499334965841,2.2814220625111084,-1.0171573797809046,-0.1411050001727503
1708440647.7991023,-1.1057283878326416,-1.6814729175963343,-2.5264862219439905,2.2813965517231445,-1.0170906225787562,-0.1411216894732874
1708440647.8011618,-1.1057729721069336,-1.6814857921996058,-2.526482884083883,2.2814323145100097,-1.0171292463885706,-0.14116174379457647
1708440647.8032882,-1.1057432889938354,-1.6815139255919398,-2.5265026728259485,2.2813920217701416,-1.0171740690814417,-0.14106351533998662
1708440647.8051307,-1.1057476997375488,-1.6815010509886683,-2.526531998311178,2.281383200282715,-1.0171740690814417,-0.14115506807436162
1708440647.8071468,-1.1057759523391724,-1.6814848385252894,-2.526536528264181,2.2814203935810546,-1.0171740690814417,-0.14114171663393194
1708440647.8091373,-1.1057432889938354,-1.6814567051329554,-2.526503626500265,2.281411572093628,-1.017144028340475,-0.14114267030824834
1708440647.8111532,-1.1057640314102173,-1.681521554986471,-2.5265234152423304,2.2814084726520996,-1.017115894948141,-0.1411050001727503
1708440647.8131318,-1.105759620666504,-1.6814524135985316,-2.5264740625964563,2.281383200282715,-1.0171693007098597,-0.14108831087221319
1708440647.8151493,-1.105759620666504,-1.681497713128561,-2.526499334965841,2.2814413744160156,-1.0171368757831019,-0.14110833803285772
1708440647.8170924,-1.1057193279266357,-1.681481500665182,-2.5264950434314173,2.281444235438965,-1.017144028340475,-0.14117557207216436
1708440647.8191383,-1.1057432889938354,-1.6815020046629847,-2.5264959971057337,2.281374140376709,-1.01715594926943,-0.14117080370058233
1708440647.8210912,-1.105759620666504,-1.6815010509886683,-2.526543919240133,2.2813920217701416,-1.0171573797809046,-0.1411832014666956
1708440647.8231103,-1.1057357788085938,-1.6815053425230921,-2.526482884083883,2.2814013200947265,-1.0172026793109339,-0.1411832014666956
1708440647.8251486,-1.1057476997375488,-1.6814686260619105,-2.5265191237079065,2.2814084726520996,-1.0171335379229944,-0.14122325578798467
1708440647.8271303,-1.1056897640228271,-1.6814772091307582,-2.526503626500265,2.2814339834400634,-1.0171650091754358,-0.14117271104921514
1708440647.8290884,-1.1057149171829224,-1.681481500665182,-2.526482884083883,2.2814203935810546,-1.017148796712057,-0.14117414156068975
1708440647.831113,-1.1057178974151611,-1.6815020046629847,-2.526543919240133,2.2813874918171386,-1.0171321074115198,-0.14120990434755498
1708440647.8331156,-1.1057476997375488,-1.6814924679198207,-2.5265396277057093,2.281444235438965,-1.017127815877096,-0.14120561281313115
1708440647.8351147,-1.105776071548462,-1.6814686260619105,-2.526499334965841,2.2814575868793945,-1.0171859900103968,-0.1412566343890589
1708440647.8371208,-1.1057640314102173,-1.6815020046629847,-2.526543919240133,2.2813920217701416,-1.017148796712057,-0.14122230211366826
1708440647.8391583,-1.1057268381118774,-1.6815468273558558,-2.526531998311178,2.2814621168323974,-1.0171693007098597,-0.14120561281313115
1708440647.8411436,-1.1057552099227905,-1.6814805469908656,-2.5265148321734827,2.2813617426105957,-1.0171187559710901,-0.14116985002626592
1708440647.8431358,-1.105771541595459,-1.6814772091307582,-2.5264862219439905,2.2813541132160644,-1.017148796712057,-0.14119369188417608
1708440647.8451185,-1.105759620666504,-1.681521554986471,-2.526543919240133,2.2814203935810546,-1.017172638569967,-0.141214672719137
1708440647.8471184,-1.1057506799697876,-1.6815182171263636,-2.5264950434314173,2.2813705640980224,-1.0171411673175257,-0.14119369188417608
1708440647.8491144,-1.1057387590408325,-1.6814781628050746,-2.526560370122091,2.2814323145100097,-1.017148796712057,-0.14122230211366826
1708440647.8511481,-1.1058013439178467,-1.6815172634520472,-2.5265145937549036,2.2813920217701416,-1.0171859900103968,-0.14120084444154912
1708440647.8531435,-1.1058012247085571,-1.681521554986471,-2.5264697710620325,2.281427784557007,-1.0171411673175257,-0.14117271104921514
1708440647.8550963,-1.1058087348937988,-1.6815382442870082,-2.526511255894796,2.28139512121167,-1.0171693007098597,-0.14115649858583623
1708440647.8571076,-1.105755090713501,-1.681497713128561,-2.5264819304095667,2.2814504343220214,-1.0171740690814417,-0.14123422304262334
1708440647.8591163,-1.1057268381118774,-1.681521554986471,-2.5265396277057093,2.2813920217701416,-1.017127815877096,-0.14122230211366826
1708440647.8611934,-1.1057790517807007,-1.6814609966673792,-2.5265634695636194,2.2814411359974365,-1.0171368757831019,-0.1411965529071253
1708440647.8631232,-1.1057268381118774,-1.681481500665182,-2.5265234152423304,2.2814158636280517,-1.0171650091754358,-0.14117271104921514
1708440647.8651447,-1.1057268381118774,-1.681465288201803,-2.526548449193136,2.2814130026051025,-1.0171650091754358,-0.14120990434755498
1708440647.8671443,-1.105710506439209,-1.681521554986471,-2.526543919240133,2.2814411359974365,-1.017176930104391,-0.1412299315081995
1708440647.8691697,-1.105771541595459,-1.681509634057516,-2.5265069643603724,2.281477137202881,-1.0171693007098597,-0.14122325578798467
1708440647.8711708,-1.1057552099227905,-1.6814686260619105,-2.526564661656515,2.2814456659504394,-1.0171368757831019,-0.14120275179018194
1708440647.873128,-1.105771541595459,-1.681469579736227,-2.52657658258547,2.281427784557007,-1.0171321074115198,-0.14118940034975225
1708440647.8751175,-1.1057387590408325,-1.681509634057516,-2.5264864603625696,2.281378670329712,-1.0171650091754358,-0.14120561281313115
1708440647.8770852,-1.1057387590408325,-1.681493421594137,-2.5264950434314173,2.281411572093628,-1.0171411673175257,-0.14120275179018194
1708440647.8791208,-1.1057878732681274,-1.6814729175963343,-2.526493851338522,2.2814249235340576,-1.0171693007098597,-0.14119369188417608
1708440647.8811128,-1.1057566404342651,-1.681448598901266,-2.5264819304095667,2.2814323145100097,-1.0171902815448206,-0.14120561281313115
1708440647.8831336,-1.1057552099227905,-1.681497713128561,-2.526543919240133,2.2814158636280517,-1.0171321074115198,-0.14120990434755498
1708440647.885093,-1.1057804822921753,-1.6814857921996058,-2.5264950434314173,2.2814652162739257,-1.0171812216388147,-0.14120704332460576
1708440647.8871603,-1.105722427368164,-1.6814848385252894,-2.5265353361712855,2.2814487653919677,-1.017148796712057,-0.141181770955221
1708440647.8891442,-1.105755090713501,-1.6814772091307582,-2.5265191237079065,2.281444235438965,-1.017160717641012,-0.1412432829486292
1708440647.8911226,-1.1057521104812622,-1.681497713128561,-2.526543919240133,2.281414433116577,-1.017193619404928,-0.14121896425356084
1708440647.893165,-1.105776071548462,-1.6815010509886683,-2.5265310446368616,2.2814814287373046,-1.017167870198385,-0.14119369188417608
1708440647.8951485,-1.1057759523391724,-1.6814876995482386,-2.526499334965841,2.2814368444630126,-1.017160717641012,-0.14122230211366826
1708440647.8971548,-1.1057506799697876,-1.6814772091307582,-2.526572052632467,2.2814530569263916,-1.017176930104391,-0.14122563997377569
1708440647.8991182,-1.1057416200637817,-1.6815172634520472,-2.526531998311178,2.28145615636792,-1.01715594926943,-0.14116412798036748
1708440647.9011593,-1.105787992477417,-1.6814848385252894,-2.5265234152423304,2.28141896306958,-1.017160717641012,-0.141181770955221
1708440647.9031396,-1.1057968139648438,-1.6814524135985316,-2.526527706776754,2.28141896306958,-1.0171902815448206,-0.1411803404437464
1708440647.905102,-1.1058043241500854,-1.681497713128561,-2.5265353361712855,2.2814203935810546,-1.0171740690814417,-0.14116412798036748
1708440647.9071598,-1.1057759523391724,-1.6815453968443812,-2.526548210774557,2.281463547343872,-1.0171650091754358,-0.14122325578798467
1708440647.9091282,-1.105783462524414,-1.6814528904356898,-2.526527706776754,2.281468077296875,-1.017193619404928,-0.14117747942079717
1708440647.911116,-1.1057671308517456,-1.681481500665182,-2.526548449193136,2.28145615636792,-1.0171740690814417,-0.14121896425356084
1708440647.9131339,-1.1057878732681274,-1.681481500665182,-2.5264950434314173,2.281423254604004,-1.0171693007098597,-0.14120561281313115
1708440647.9150825,-1.1057626008987427,-1.6815139255919398,-2.5265310446368616,2.281451626414917,-1.01719838777651,-0.1412580649005335
1708440647.9171224,-1.1057997941970825,-1.681497713128561,-2.5265353361712855,2.2814768987843017,-1.017139736806051,-0.14128476778139287
1708440647.9190905,-1.1058377027511597,-1.6814857921996058,-2.526531998311178,2.281451626414917,-1.0171859900103968,-0.14119369188417608
1708440647.9211078,-1.1057579517364502,-1.6814686260619105,-2.5265191237079065,2.281510515803955,-1.0171650091754358,-0.14124757448305303
1708440647.9231253,-1.1057759523391724,-1.6814443073668421,-2.5265191237079065,2.281488819713257,-1.0171859900103968,-0.14123422304262334
1708440647.9251044,-1.1057878732681274,-1.681521554986471,-2.5265234152423304,2.28145615636792,-1.0171650091754358,-0.14117747942079717
1708440647.9271133,-1.1058043241500854,-1.6815010509886683,-2.5265191237079065,2.2815207678028564,-1.0171321074115198,-0.14126378694643194
1708440647.9291184,-1.1057671308517456,-1.6814857921996058,-2.5265396277057093,2.2815162378498535,-1.017172638569967,-0.1411803404437464
1708440647.9310904,-1.1057671308517456,-1.6815053425230921,-2.5265024344073694,2.2815772730061035,-1.017127815877096,-0.1411803404437464
1708440647.9331148,-1.1057626008987427,-1.6815258465208949,-2.5265515486346644,2.281510038966797,-1.017176930104391,-0.14117747942079717
1708440647.9351084,-1.105771541595459,-1.6815053425230921,-2.5265842119800013,2.2815355497547607,-1.0171650091754358,-0.14120990434755498
1708440647.937131,-1.1058422327041626,-1.6815139255919398,-2.5265515486346644,2.28158084928479,-1.0171311537372034,-0.14117747942079717
1708440647.9391563,-1.105771541595459,-1.6815010509886683,-2.5265148321734827,2.28153841077771,-1.0171859900103968,-0.14117271104921514
1708440647.9411147,-1.1057790517807007,-1.681509634057516,-2.52651554742922,2.281583710307739,-1.017144028340475,-0.141214672719137
1708440647.9431446,-1.1057878732681274,-1.6814891300597132,-2.526527706776754,2.28161804258313,-1.017160717641012,-0.14117747942079717
1708440647.9451115,-1.105787992477417,-1.6814891300597132,-2.52651554742922,2.2815520006367187,-1.0171859900103968,-0.14125234285463506
1708440647.9471443,-1.105771541595459,-1.681509634057516,-2.526527706776754,2.28153841077771,-1.017139736806051,-0.1412432829486292
1708440647.9491415,-1.1057626008987427,-1.6814567051329554,-2.5265148321734827,2.2815446096607666,-1.017172638569967,-0.141181770955221
1708440647.9511366,-1.1057579517364502,-1.6815139255919398,-2.5265353361712855,2.281585379237793,-1.017148796712057,-0.14117128053774053
1708440647.9531436,-1.1058378219604492,-1.6814924679198207,-2.526588503514425,2.281581087703369,-1.0171516577350062,-0.141181770955221
1708440647.9551194,-1.105812430381775,-1.6815301380553187,-2.5265472571002405,2.281563921565674,-1.0171354452716272,-0.14121896425356084
1708440647.95714,-1.1057924032211304,-1.6814848385252894,-2.5264697710620325,2.281606360072754,-1.0172103087054651,-0.14119369188417608
1708440647.9591074,-1.1057997941970825,-1.6815020046629847,-2.5265634695636194,2.281597300166748,-1.0171650091754358,-0.14120990434755498
1708440647.9612112,-1.1057997941970825,-1.6814285717406214,-2.526555840169088,2.2816046911427,-1.0171650091754358,-0.14117747942079717
1708440647.9631634,-1.1057878732681274,-1.6815301380553187,-2.5265515486346644,2.281563921565674,-1.0171812216388147,-0.141181770955221
1708440647.9651365,-1.1057552099227905,-1.681497713128561,-2.526522223149435,2.281554861659668,-1.017193619404928,-0.1411522070514124
1708440647.9671183,-1.105783462524414,-1.681481500665182,-2.5265396277057093,2.28153841077771,-1.017176930104391,-0.14120561281313115
1708440647.9691308,-1.1057790517807007,-1.6814891300597132,-2.52647310892214,2.2815608221241455,-1.017176930104391,-0.14121753374208623
1708440647.9710896,-1.1057579517364502,-1.681497713128561,-2.526543919240133,2.2815727430531005,-1.017193619404928,-0.14117747942079717
1708440647.97312,-1.1057863235473633,-1.681509634057516,-2.5265799204455774,2.281585379237793,-1.0171893278705042,-0.141181770955221
1708440647.975084,-1.1058213710784912,-1.6815053425230921,-2.526526753102438,2.2815443712421875,-1.017193619404928,-0.141214672719137
1708440647.9771004,-1.1057878732681274,-1.6815434894957484,-2.5265353361712855,2.281526489848755,-1.0171812216388147,-0.14121896425356084
1708440647.9790893,-1.1057790517807007,-1.6815139255919398,-2.5265191237079065,2.281519337291382,-1.0172103087054651,-0.14122182527651006
1708440647.9810922,-1.1058452129364014,-1.6815172634520472,-2.5265026728259485,2.281634731883667,-1.0171516577350062,-0.14123994508852178
1708440647.9831133,-1.1057863235473633,-1.681497713128561,-2.526555840169088,2.2815684515186767,-1.017148796712057,-0.14117747942079717
1708440647.9851375,-1.1057579517364502,-1.681465288201803,-2.5265560785876673,2.281585379237793,-1.01715594926943,-0.14117747942079717
1708440647.9870906,-1.1058077812194824,-1.6815301380553187,-2.5265396277057093,2.281559391612671,-1.017205540333883,-0.14117271104921514
1708440647.989178,-1.1058241128921509,-1.681497713128561,-2.5265310446368616,2.281597300166748,-1.017205540333883,-0.1412590185748499
1708440647.9911416,-1.105812430381775,-1.681481500665182,-2.526554886494772,2.281559391612671,-1.0171850363360804,-0.14118940034975225
1708440647.993156,-1.1058197021484375,-1.6815344295897425,-2.5265677610980433,2.281601830119751,-1.0171650091754358,-0.14117271104921514
1708440647.9951675,-1.105836033821106,-1.6814772091307582,-2.526538674031393,2.281618281001709,-1.0171850363360804,-0.14116412798036748
1708440647.9971392,-1.1058168411254883,-1.681493421594137,-2.5265353361712855,2.2815772730061035,-1.017127815877096,-0.14117747942079717
1708440647.9991171,-1.1057744026184082,-1.6814772091307582,-2.526583973561422,2.281514807338379,-1.0171783606158655,-0.1411979834185999
1708440648.0011246,-1.1058212518692017,-1.681542535821432,-2.5265234152423304,2.281542940730713,-1.01719838777651,-0.1411979834185999
1708440648.0031624,-1.105803370475769,-1.6814891300597132,-2.5265396277057093,2.281563921565674,-1.017176930104391,-0.14116412798036748
1708440648.0052311,-1.1057817935943604,-1.6814891300597132,-2.5265353361712855,2.2815355497547607,-1.0171650091754358,-0.1411531607257288
1708440648.007159,-1.1058077812194824,-1.6815053425230921,-2.526555840169088,2.2815591531940917,-1.0171859900103968,-0.14124757448305303
1708440648.009096,-1.105803370475769,-1.6815062961974085,-2.526531998311178,2.2815565305897216,-1.0171650091754358,-0.1411369482623499
1708440648.0111265,-1.1058406829833984,-1.6815382442870082,-2.5265353361712855,2.281621142024658,-1.017176930104391,-0.14115649858583623
1708440648.0131238,-1.105812430381775,-1.6814643345274867,-2.5265310446368616,2.2815684515186767,-1.01719838777651,-0.1411531607257288
1708440648.0151386,-1.1057907342910767,-1.681493421594137,-2.5264905134784144,2.281594439143799,-1.0171693007098597,-0.1411979834185999
1708440648.0171025,-1.1057988405227661,-1.6815258465208949,-2.5265353361712855,2.2815772730061035,-1.017172638569967,-0.1411979834185999
1708440648.0190923,-1.1058197021484375,-1.6814443073668421,-2.526510540639059,2.281514807338379,-1.017176930104391,-0.14117271104921514
1708440648.021125,-1.1058241128921509,-1.681509634057516,-2.526548210774557,2.281576319331787,-1.0171321074115198,-0.1411522070514124
1708440648.0231159,-1.1058151721954346,-1.6815792522826136,-2.5265353361712855,2.281531258220337,-1.0171650091754358,-0.14122325578798467
1708440648.0250883,-1.105803370475769,-1.6814309559264125,-2.526555840169088,2.281550331706665,-1.0171354452716272,-0.14114410081972295
1708440648.027156,-1.1058197021484375,-1.6814524135985316,-2.5264819304095667,2.281526489848755,-1.0171812216388147,-0.141214672719137
1708440648.029091,-1.105803370475769,-1.6815258465208949,-2.5265472571002405,2.281576319331787,-1.017176930104391,-0.14119369188417608
1708440648.0311096,-1.1058615446090698,-1.6815010509886683,-2.5265634695636194,2.281531258220337,-1.0171812216388147,-0.14120990434755498
1708440648.0331066,-1.1058272123336792,-1.6814857921996058,-2.5265396277057093,2.2815355497547607,-1.017172638569967,-0.14119083086122686
1708440648.0350966,-1.1058107614517212,-1.6815558872618617,-2.526511255894796,2.2815310198017578,-1.017127815877096,-0.14116079012026006
1708440648.0371041,-1.105803370475769,-1.681481500665182,-2.526473347340719,2.28150121747937,-1.01715594926943,-0.14123088518251592
1708440648.039229,-1.1058852672576904,-1.6814891300597132,-2.5265310446368616,2.281601830119751,-1.0172103087054651,-0.1411526838885706
1708440648.0411239,-1.1058077812194824,-1.681465288201803,-2.5265472571002405,2.2815684515186767,-1.01715594926943,-0.141214672719137
1708440648.0431464,-1.1058063507080078,-1.6814848385252894,-2.5265069643603724,2.2815355497547607,-1.0171902815448206,-0.14115649858583623
1708440648.0451126,-1.1058241128921509,-1.6815301380553187,-2.5265191237079065,2.281606360072754,-1.0172131697284144,-0.14118606248964483
1708440648.0471168,-1.1058107614517212,-1.6814772091307582,-2.526527706776754,2.2815474706837158,-1.0171850363360804,-0.14122373262514287
1708440648.0491292,-1.105818271636963,-1.681509634057516,-2.526511255894796,2.28161804258313,-1.017167870198385,-0.1411350409137171
1708440648.051133,-1.1058151721954346,-1.6815020046629847,-2.526592795048849,2.2815629678913574,-1.01715594926943,-0.1411979834185999
1708440648.053159,-1.1058107614517212,-1.6814891300597132,-2.52651554742922,2.281601830119751,-1.017176930104391,-0.14121896425356084
1708440648.0551152,-1.1058405637741089,-1.681530614892477,-2.5265515486346644,2.281554861659668,-1.017205540333883,-0.14115935960878545
1708440648.057095,-1.1058152914047241,-1.6814729175963343,-2.5265677610980433,2.2815674978443603,-1.017226521168844,-0.14118606248964483
1708440648.0590765,-1.1057943105697632,-1.681439062158102,-2.526543919240133,2.2815355497547607,-1.017193619404928,-0.14117414156068975
1708440648.061155,-1.105765461921692,-1.6814609966673792,-2.5265796820269983,2.281526489848755,-1.017226521168844,-0.141181770955221
1708440648.0631094,-1.10578191280365,-1.6814609966673792,-2.5265234152423304,2.281542940730713,-1.017193619404928,-0.14120561281313115
1708440648.06516,-1.1058316230773926,-1.681481500665182,-2.5265026728259485,2.2816061216541748,-1.01719838777651,-0.14120990434755498
1708440648.0671678,-1.105852484703064,-1.6814857921996058,-2.5264819304095667,2.2815520006367187,-1.0171812216388147,-0.14120704332460576
1708440648.0691485,-1.1058226823806763,-1.6815182171263636,-2.526560370122091,2.2815772730061035,-1.017148796712057,-0.14120132127870733
1708440648.0711126,-1.105803370475769,-1.6815391979613246,-2.5265191237079065,2.2815684515186767,-1.01719838777651,-0.14114839235414678
1708440648.073124,-1.1058316230773926,-1.6815139255919398,-2.5265353361712855,2.2815794187733154,-1.017214600239889,-0.14117271104921514
1708440648.0751135,-1.1058450937271118,-1.6815105877318324,-2.5265310446368616,2.281529589290283,-1.0171693007098597,-0.1411526838885706
1708440648.0771039,-1.1058688163757324,-1.6814900837340296,-2.5265396277057093,2.2815727430531005,-1.017214600239889,-0.141214672719137
1708440648.0791152,-1.1058763265609741,-1.6814609966673792,-2.5265191237079065,2.28158084928479,-1.0171354452716272,-0.1411655584918421
1708440648.0811217,-1.1058226823806763,-1.6814924679198207,-2.5265679995166224,2.281581087703369,-1.01719838777651,-0.1411979834185999
1708440648.0831215,-1.1057988405227661,-1.681509634057516,-2.52653414407839,2.2815727430531005,-1.0171850363360804,-0.141181770955221
1708440648.0851107,-1.105852484703064,-1.681481500665182,-2.5265353361712855,2.281498356456421,-1.0171650091754358,-0.14118940034975225
1708440648.0871172,-1.1058226823806763,-1.6814400158324183,-2.5265517870532435,2.2815684515186767,-1.0171354452716272,-0.14116079012026006
1708440648.089148,-1.1058152914047241,-1.681481500665182,-2.5265591780291956,2.2815684515186767,-1.0171850363360804,-0.1411979834185999
1708440648.0911434,-1.1058316230773926,-1.681465288201803,-2.526526753102438,2.281502886409424,-1.0171812216388147,-0.14114839235414678
1708440648.09314,-1.1058732271194458,-1.681521554986471,-2.5265515486346644,2.281521959895752,-1.0171740690814417,-0.14118606248964483
1708440648.0951488,-1.105847954750061,-1.681509634057516,-2.5265069643603724,2.281571789378784,-1.0172012487994593,-0.14117747942079717
1708440648.097155,-1.105777382850647,-1.6814443073668421,-2.526510540639059,2.281585379237793,-1.0171812216388147,-0.141214672719137
1708440648.0991488,-1.1058346033096313,-1.6814729175963343,-2.526527706776754,2.2815446096607666,-1.017214600239889,-0.14123994508852178
1708440648.1011314,-1.1058895587921143,-1.6815182171263636,-2.5265429655658167,2.281550331706665,-1.0171893278705042,-0.1411069075213831
1708440648.1031287,-1.105847954750061,-1.681465288201803,-2.5266006628619593,2.281514807338379,-1.017193619404928,-0.14120990434755498
1708440648.1051197,-1.105852484703064,-1.6814891300597132,-2.5265677610980433,2.281588240260742,-1.017127815877096,-0.14114410081972295
1708440648.1072428,-1.1058272123336792,-1.6814118824400843,-2.5265396277057093,2.281493826503418,-1.017167870198385,-0.14116079012026006
1708440648.1091042,-1.1058435440063477,-1.6815258465208949,-2.526572052632467,2.2815474706837158,-1.0172012487994593,-0.14120275179018194
1708440648.1111653,-1.1058272123336792,-1.6815010509886683,-2.526588503514425,2.281531258220337,-1.0172188917743128,-0.141214672719137
1708440648.1131191,-1.1058316230773926,-1.6815053425230921,-2.5265472571002405,2.281563921565674,-1.0172012487994593,-0.14114839235414678
1708440648.1150868,-1.1058287620544434,-1.681469579736227,-2.526572052632467,2.2815355497547607,-1.0171802679644983,-0.14113980928529912
1708440648.117114,-1.1058107614517212,-1.681497713128561,-2.5265191237079065,2.28158084928479,-1.0171893278705042,-0.14118940034975225
1708440648.1190987,-1.1058226823806763,-1.681497713128561,-2.526588503514425,2.2815074163624267,-1.017193619404928,-0.1411655584918421
1708440648.1210923,-1.105852484703064,-1.681481500665182,-2.5265634695636194,2.2815474706837158,-1.0171969572650355,-0.14121896425356084
1708440648.1231213,-1.1058435440063477,-1.6815139255919398,-2.5265396277057093,2.2815474706837158,-1.0172103087054651,-0.14123088518251592
1708440648.1250896,-1.1057988405227661,-1.6814857921996058,-2.5266128222094935,2.281613751048706,-1.0172293821917933,-0.14118606248964483
1708440648.127113,-1.105852484703064,-1.6814857921996058,-2.5265353361712855,2.2815474706837158,-1.017167870198385,-0.14122325578798467
1708440648.1291246,-1.1058598756790161,-1.6815043888487757,-2.526526753102438,2.281531258220337,-1.017172638569967,-0.1411655584918421
1708440648.1310925,-1.1058807373046875,-1.6814772091307582,-2.5265429655658167,2.281606360072754,-1.0171850363360804,-0.14118606248964483
1708440648.133129,-1.1058717966079712,-1.681493421594137,-2.526588503514425,2.2815520006367187,-1.017193619404928,-0.14117271104921514
1708440648.1350815,-1.1058272123336792,-1.681481500665182,-2.5265963713275355,2.281542940730713,-1.017214600239889,-0.14117461839784795
1708440648.1370783,-1.1058063507080078,-1.6815062961974085,-2.5265353361712855,2.281563921565674,-1.0171850363360804,-0.141214672719137
1708440648.1391463,-1.1058272123336792,-1.681497713128561,-2.5265353361712855,2.2815565305897216,-1.017221752797262,-0.14120275179018194
1708440648.14114,-1.1058807373046875,-1.6815511188902796,-2.526555840169088,2.281576319331787,-1.017226521168844,-0.14117271104921514
1708440648.1431437,-1.105797529220581,-1.6814772091307582,-2.52657658258547,2.2815684515186767,-1.0172012487994593,-0.14120990434755498
1708440648.1451066,-1.1058272123336792,-1.6815020046629847,-2.5265472571002405,2.2815474706837158,-1.0171850363360804,-0.14114839235414678
1708440648.1471217,-1.1058063507080078,-1.6814729175963343,-2.526538674031393,2.281554861659668,-1.0172503630267542,-0.141181770955221
1708440648.1491191,-1.1058435440063477,-1.6814567051329554,-2.5265515486346644,2.2815520006367187,-1.0172103087054651,-0.14122230211366826
1708440648.1511326,-1.1058435440063477,-1.6814686260619105,-2.5265353361712855,2.281618281001709,-1.017233673726217,-0.14120704332460576
1708440648.1531641,-1.1058272123336792,-1.681493421594137,-2.5265515486346644,2.281563921565674,-1.017214600239889,-0.14122230211366826
1708440648.1551242,-1.105864405632019,-1.6814772091307582,-2.5265472571002405,2.28158084928479,-1.0171850363360804,-0.1411369482623499
1708440648.157098,-1.1058598756790161,-1.6814609966673792,-2.5265148321734827,2.281589909190796,-1.0172293821917933,-0.14114839235414678
1708440648.1591003,-1.1057944297790527,-1.6815344295897425,-2.5265710989581507,2.2815772730061035,-1.0172308127032679,-0.14115745226015264
1708440648.1611578,-1.1058316230773926,-1.6814443073668421,-2.5265310446368616,2.2815565305897216,-1.0171850363360804,-0.14122325578798467
1708440648.1631334,-1.1058688163757324,-1.6815225086607875,-2.526529852543966,2.2815520006367187,-1.017205540333883,-0.141181770955221
1708440648.1651149,-1.1058152914047241,-1.681493421594137,-2.5265472571002405,2.2815684515186767,-1.0171969572650355,-0.1411684195147913
1708440648.1670897,-1.105852484703064,-1.6814900837340296,-2.5265591780291956,2.28158084928479,-1.0172012487994593,-0.141181770955221
1708440648.1690931,-1.1058346033096313,-1.6814967594542445,-2.526538674031393,2.281554861659668,-1.0171807448016565,-0.14119083086122686
1708440648.1711059,-1.105836033821106,-1.6814729175963343,-2.5265353361712855,2.2815400797077636,-1.0171969572650355,-0.141181770955221
1708440648.173167,-1.1058554649353027,-1.6815139255919398,-2.5265796820269983,2.2815684515186767,-1.0171850363360804,-0.14118606248964483
1708440648.1750953,-1.1058316230773926,-1.6815268001952113,-2.5265591780291956,2.2816106516071777,-1.0171802679644983,-0.1411069075213831
1708440648.1771407,-1.1058316230773926,-1.681481500665182,-2.5265353361712855,2.281576319331787,-1.0172293821917933,-0.14121896425356084
1708440648.1790888,-1.1058763265609741,-1.6814567051329554,-2.526522223149435,2.281563921565674,-1.0171516577350062,-0.14117747942079717
1708440648.1810868,-1.105797290802002,-1.6814285717406214,-2.5265515486346644,2.2815355497547607,-1.0171802679644983,-0.141181770955221
1708440648.1831267,-1.1058971881866455,-1.6814729175963343,-2.5265310446368616,2.2815474706837158,-1.017233673726217,-0.14121896425356084
1708440648.185128,-1.1058882474899292,-1.6815139255919398,-2.526554886494772,2.2815310198017578,-1.0171850363360804,-0.1411350409137171
1708440648.187117,-1.1058226823806763,-1.6815053425230921,-2.526538674031393,2.2815520006367187,-1.0171893278705042,-0.141181770955221
1708440648.189129,-1.1058151721954346,-1.6815301380553187,-2.5265429655658167,2.281588240260742,-1.0172012487994593,-0.14116079012026006
1708440648.19115,-1.10581374168396,-1.6814848385252894,-2.52651030222048,2.281585379237793,-1.0171635786639612,-0.14119083086122686
1708440648.1931317,-1.1057944297790527,-1.6814900837340296,-2.526538674031393,2.2815474706837158,-1.0172503630267542,-0.14114839235414678
1708440648.1951685,-1.1058018207550049,-1.681465288201803,-2.526572291051046,2.2815281587788085,-1.0171759764300745,-0.141214672719137
1708440648.197126,-1.1058851480484009,-1.681521554986471,-2.5265234152423304,2.281505747432373,-1.017205540333883,-0.14120704332460576
1708440648.1991081,-1.105781078338623,-1.6815105877318324,-2.5265191237079065,2.2815474706837158,-1.017205540333883,-0.14120561281313115
1708440648.2011366,-1.1058346033096313,-1.6814609966673792,-2.5265842119800013,2.281563921565674,-1.0172174612628382,-0.14119512239565069
1708440648.2031496,-1.105830192565918,-1.6814643345274867,-2.5265591780291956,2.2815591531940917,-1.0171430746661585,-0.14117747942079717
1708440648.2051923,-1.1058629751205444,-1.6814857921996058,-2.5265591780291956,2.281563921565674,-1.0172012487994593,-0.14120275179018194
1708440648.207154,-1.1058763265609741,-1.681521554986471,-2.526522223149435,2.2815236288258056,-1.0172012487994593,-0.1411655584918421
1708440648.2091036,-1.1058346033096313,-1.6815053425230921,-2.5265634695636194,2.2815520006367187,-1.017205540333883,-0.14113265672792608
1708440648.211135,-1.105879306793213,-1.681469579736227,-2.526506010686056,2.281585379237793,-1.0172174612628382,-0.1411979834185999
1708440648.2131412,-1.105818271636963,-1.6815258465208949,-2.5265591780291956,2.2815608221241455,-1.017167870198385,-0.14114839235414678
1708440648.2151282,-1.105864405632019,-1.6815053425230921,-2.5265679995166224,2.2815565305897216,-1.0172012487994593,-0.14114839235414678
1708440648.217121,-1.1058465242385864,-1.6814891300597132,-2.526526753102438,2.281531258220337,-1.0172370115863245,-0.14120990434755498
1708440648.219143,-1.1058270931243896,-1.681465288201803,-2.5265353361712855,2.2815071779438476,-1.0171807448016565,-0.14118940034975225
1708440648.2211494,-1.105897068977356,-1.6814891300597132,-2.5265472571002405,2.2815474706837158,-1.017167870198385,-0.14119369188417608
1708440648.2231576,-1.105900764465332,-1.6815268001952113,-2.526517931615011,2.2815520006367187,-1.0171716848956507,-0.14121610323061162
1708440648.2251132,-1.1058717966079712,-1.6814567051329554,-2.5265429655658167,2.281589909190796,-1.0172370115863245,-0.14118606248964483
1708440648.2271209,-1.1058316230773926,-1.681497713128561,-2.5265265146838587,2.281585379237793,-1.0171850363360804,-0.1411655584918421
1708440648.229093,-1.1058510541915894,-1.6814729175963343,-2.5265353361712855,2.281559391612671,-1.0172589460956019,-0.14118940034975225
1708440648.2310944,-1.1058255434036255,-1.6814772091307582,-2.5265796820269983,2.281563921565674,-1.0171759764300745,-0.141181770955221
1708440648.23312,-1.1058882474899292,-1.6814772091307582,-2.52653414407839,2.281514807338379,-1.017167870198385,-0.14111119905580694
1708440648.2350874,-1.1058316230773926,-1.681437154809469,-2.5265396277057093,2.281519337291382,-1.017205540333883,-0.14117271104921514
1708440648.2371478,-1.1058971881866455,-1.6814857921996058,-2.5265796820269983,2.2815520006367187,-1.0172250906573694,-0.1411979834185999
1708440648.2391102,-1.1058346033096313,-1.6814738712706507,-2.526566807423727,2.2815591531940917,-1.0172250906573694,-0.14120275179018194
1708440648.2411299,-1.105836033821106,-1.681497713128561,-2.5265429655658167,2.2815565305897216,-1.017167870198385,-0.14115649858583623
1708440648.2431633,-1.1059141159057617,-1.6815020046629847,-2.5265842119800013,2.2815565305897216,-1.0171969572650355,-0.1411655584918421
1708440648.2451372,-1.105818271636963,-1.6815344295897425,-2.5265677610980433,2.2816151815601806,-1.017167870198385,-0.14117747942079717
1708440648.2471304,-1.1058226823806763,-1.6814805469908656,-2.5265634695636194,2.2815474706837158,-1.0171592871295374,-0.1411369482623499
1708440648.2491121,-1.1059141159057617,-1.6814609966673792,-2.5266006628619593,2.281502886409424,-1.0171850363360804,-0.14119369188417608
1708440648.251098,-1.1058807373046875,-1.6814481220641078,-2.5265842119800013,2.2815355497547607,-1.0171635786639612,-0.1411979834185999
1708440648.253112,-1.1058882474899292,-1.6815301380553187,-2.5265677610980433,2.2815534311481933,-1.0172088781939905,-0.141181770955221
1708440648.2551193,-1.105864405632019,-1.6815344295897425,-2.5265677610980433,2.281563921565674,-1.017226521168844,-0.14115649858583623
1708440648.2571359,-1.1058598756790161,-1.681469579736227,-2.5265310446368616,2.2815162378498535,-1.0172103087054651,-0.141214672719137
1708440648.2591305,-1.1058063507080078,-1.6814891300597132,-2.526572291051046,2.2815684515186767,-1.0172012487994593,-0.141181770955221
1708440648.2611382,-1.1058717966079712,-1.6814772091307582,-2.5265429655658167,2.281502886409424,-1.0172207991229456,-0.14119083086122686
1708440648.2631402,-1.1058554649353027,-1.6814848385252894,-2.526572052632467,2.281597300166748,-1.0172088781939905,-0.14121896425356084
1708440648.2651281,-1.1058837175369263,-1.6814609966673792,-2.5265634695636194,2.2815400797077636,-1.0171878973590296,-0.14117747942079717
1708440648.2671149,-1.105830192565918,-1.681465288201803,-2.5265265146838587,2.2815236288258056,-1.0172012487994593,-0.14120275179018194
1708440648.2691429,-1.1058882474899292,-1.6814686260619105,-2.5265634695636194,2.2815400797077636,-1.0171926657306116,-0.14111119905580694
1708440648.2711265,-1.1058717966079712,-1.6815225086607875,-2.526526753102438,2.2816225725361328,-1.0172413031207483,-0.14119369188417608
1708440648.273206,-1.1058717966079712,-1.6815382442870082,-2.5265353361712855,2.2815653520771484,-1.0171969572650355,-0.1411979834185999
1708440648.2751305,-1.105858325958252,-1.6815053425230921,-2.5265515486346644,2.2815729814716796,-1.0172088781939905,-0.14115649858583623
1708440648.2771115,-1.1058882474899292,-1.6814848385252894,-2.5265796820269983,2.281563921565674,-1.0171921888934534,-0.14116079012026006
1708440648.2790937,-1.1058197021484375,-1.6815020046629847,-2.5265265146838587,2.2815608221241455,-1.0172131697284144,-0.14118940034975225
1708440648.2811246,-1.1058554649353027,-1.6815010509886683,-2.5265515486346644,2.2815190988728027,-1.0171969572650355,-0.14118940034975225
1708440648.2831202,-1.1058673858642578,-1.681497713128561,-2.5265515486346644,2.2815117078968505,-1.0172088781939905,-0.141214672719137
1708440648.2850893,-1.1058226823806763,-1.6815020046629847,-2.52651030222048,2.281519337291382,-1.0171926657306116,-0.14117271104921514
1708440648.2871401,-1.1058598756790161,-1.6815391979613246,-2.5265920797931116,2.2815400797077636,-1.0172341505633753,-0.141214672719137
1708440648.2891102,-1.1058598756790161,-1.6815020046629847,-2.526572052632467,2.2815818029591064,-1.0172174612628382,-0.141181770955221
1708440648.291128,-1.1057974100112915,-1.681481500665182,-2.5265515486346644,2.2815684515186767,-1.0172293821917933,-0.14120561281313115
1708440648.2931337,-1.1058316230773926,-1.6814729175963343,-2.5265353361712855,2.2815446096607666,-1.0171850363360804,-0.14119369188417608
1708440648.2951405,-1.1058391332626343,-1.6815468273558558,-2.5265429655658167,2.281585379237793,-1.0172293821917933,-0.14113980928529912
1708440648.2971306,-1.105864405632019,-1.6815053425230921,-2.5265796820269983,2.2815281587788085,-1.0171969572650355,-0.14115745226015264
1708440648.2991347,-1.1057928800582886,-1.681521554986471,-2.5265710989581507,2.2815326887318115,-1.0171759764300745,-0.141214672719137
1708440648.301134,-1.1058019399642944,-1.681481500665182,-2.5265429655658167,2.2815310198017578,-1.0172222296344202,-0.1412265936480921
1708440648.3031316,-1.1058152914047241,-1.6814524135985316,-2.5265796820269983,2.2815074163624267,-1.017221752797262,-0.1411655584918421
1708440648.3051035,-1.1058032512664795,-1.6815172634520472,-2.5265963713275355,2.2815534311481933,-1.0171807448016565,-0.141214672719137
1708440648.3071322,-1.1058717966079712,-1.681481500665182,-2.5265429655658167,2.2815653520771484,-1.0171812216388147,-0.14117890993227178
1708440648.309124,-1.1058882474899292,-1.681493421594137,-2.5265515486346644,2.2815281587788085,-1.0172384420977991,-0.1412265936480921
1708440648.3111289,-1.1058391332626343,-1.6814609966673792,-2.526566807423727,2.2815400797077636,-1.0171926657306116,-0.14116079012026006
1708440648.3131027,-1.1058391332626343,-1.6815258465208949,-2.5265353361712855,2.2815117078968505,-1.0171878973590296,-0.14117271104921514
1708440648.3151119,-1.1058391332626343,-1.6814729175963343,-2.526522223149435,2.2815298277088623,-1.0172131697284144,-0.14120275179018194
1708440648.3170917,-1.105868935585022,-1.6815129719176234,-2.5265753904925745,2.2815074163624267,-1.0172293821917933,-0.14119369188417608
1708440648.3191078,-1.1058107614517212,-1.6815511188902796,-2.5265191237079065,2.2815772730061035,-1.0172012487994593,-0.14117271104921514
1708440648.3211064,-1.1058107614517212,-1.6815053425230921,-2.5265310446368616,2.2815608221241455,-1.0171759764300745,-0.14114410081972295
1708440648.323105,-1.1058452129364014,-1.6814524135985316,-2.5265591780291956,2.2815653520771484,-1.0172088781939905,-0.14117271104921514
1708440648.3251114,-1.1058599948883057,-1.6815010509886683,-2.5265634695636194,2.2815162378498535,-1.0172341505633753,-0.14123088518251592
1708440648.3270972,-1.105847954750061,-1.6815139255919398,-2.5265963713275355,2.2815727430531005,-1.0171759764300745,-0.14118606248964483
1708440648.3290913,-1.1058272123336792,-1.6814352474608363,-2.5265796820269983,2.2815162378498535,-1.0172174612628382,-0.14116412798036748
1708440648.331099,-1.1058391332626343,-1.6814567051329554,-2.526588503514425,2.2815744119831542,-1.0171921888934534,-0.14116985002626592
1708440648.3331017,-1.1058316230773926,-1.6814609966673792,-2.5266006628619593,2.2815117078968505,-1.0172174612628382,-0.14118606248964483
1708440648.3350956,-1.1058688163757324,-1.6815053425230921,-2.5265472571002405,2.281475229854248,-1.0171592871295374,-0.14122182527651006
1708440648.3371096,-1.105803370475769,-1.681493421594137,-2.526522223149435,2.2814923959919433,-1.017221752797262,-0.14117747942079717
1708440648.339125,-1.105852484703064,-1.6815301380553187,-2.5265396277057093,2.2815071779438476,-1.0171635786639612,-0.14117747942079717
1708440648.3411458,-1.1058152914047241,-1.6814600429930628,-2.5266006628619593,2.281470938319824,-1.0172293821917933,-0.1412590185748499
1708440648.343109,-1.1058032512664795,-1.681509634057516,-2.5265026728259485,2.281454487437866,-1.0172293821917933,-0.14116412798036748
1708440648.3451383,-1.1058391332626343,-1.6815053425230921,-2.5265677610980433,2.2814971643635253,-1.0172012487994593,-0.14120561281313115
1708440648.3471134,-1.105852484703064,-1.6814729175963343,-2.5265310446368616,2.281463547343872,-1.0171926657306116,-0.14117747942079717
1708440648.3491204,-1.1058496236801147,-1.6814900837340296,-2.5265191237079065,2.281407042140625,-1.0171635786639612,-0.141181770955221
1708440648.351098,-1.1058032512664795,-1.6815129719176234,-2.5265472571002405,2.2814175325581054,-1.0172174612628382,-0.141181770955221
1708440648.3531203,-1.1057817935943604,-1.6815258465208949,-2.5265310446368616,2.2813452917286376,-1.0172088781939905,-0.14117271104921514
1708440648.3551512,-1.1057671308517456,-1.6814729175963343,-2.526526753102438,2.2813920217701416,-1.0172131697284144,-0.141214672719137
1708440648.3571358,-1.1057988405227661,-1.6815010509886683,-2.5265308062182825,2.2813421922871093,-1.0172250906573694,-0.14123994508852178
1708440648.3591094,-1.105812430381775,-1.6814567051329554,-2.5265677610980433,2.281341000194214,-1.0171850363360804,-0.14116985002626592
1708440648.3611388,-1.1058377027511597,-1.681481500665182,-2.5265591780291956,2.281327410335205,-1.0172207991229456,-0.14117890993227178
1708440648.3631525,-1.1058087348937988,-1.6815258465208949,-2.5265634695636194,2.281381054515503,-1.0172293821917933,-0.1412265936480921
1708440648.3651426,-1.1058212518692017,-1.6814848385252894,-2.526554886494772,2.2814101415821533,-1.0172293821917933,-0.1412265936480921
1708440648.367099,-1.1058043241500854,-1.6814924679198207,-2.526526753102438,2.2814101415821533,-1.0172222296344202,-0.14121896425356084
1708440648.369108,-1.1057134866714478,-1.6814848385252894,-2.5265842119800013,2.281376762981079,-1.0172503630267542,-0.14117747942079717
1708440648.3711097,-1.1057878732681274,-1.6815053425230921,-2.526555840169088,2.281367703075073,-1.0171878973590296,-0.14114410081972295
1708440648.3731484,-1.1057461500167847,-1.6815296612181605,-2.5265710989581507,2.281348391170166,-1.0172012487994593,-0.14116079012026006
1708440648.3750958,-1.1058043241500854,-1.681521554986471,-2.5265963713275355,2.281348391170166,-1.017167870198385,-0.14126807848085576
1708440648.3771503,-1.1057641506195068,-1.6815172634520472,-2.5265515486346644,2.2813901144215087,-1.0171926657306116,-0.1411655584918421
1708440648.3791063,-1.1057685613632202,-1.6815382442870082,-2.526592795048849,2.2813736635395507,-1.0172088781939905,-0.1411979834185999
1708440648.3811018,-1.1057134866714478,-1.6815301380553187,-2.526583258305685,2.281381054515503,-1.0171850363360804,-0.14114839235414678
1708440648.3831027,-1.1057552099227905,-1.6815339527525843,-2.5265796820269983,2.2813572126575927,-1.0171716848956507,-0.14118940034975225
1708440648.3851075,-1.105722427368164,-1.6815296612181605,-2.5265472571002405,2.281315727824829,-1.017221752797262,-0.14113980928529912
1708440648.3871121,-1.105759620666504,-1.6815129719176234,-2.5265796820269983,2.2813665109821777,-1.0172012487994593,-0.141214672719137
1708440648.3891096,-1.105705976486206,-1.6815172634520472,-2.5265310446368616,2.281385584468506,-1.017233673726217,-0.14116985002626592
1708440648.3911388,-1.1057476997375488,-1.6815053425230921,-2.526522223149435,2.281331940288208,-1.0171759764300745,-0.14116174379457647
1708440648.39314,-1.1057164669036865,-1.681570669213766,-2.5265677610980433,2.2813572126575927,-1.0172041098224085,-0.14123088518251592
1708440648.3951213,-1.1056896448135376,-1.6814848385252894,-2.5265472571002405,2.2813617426105957,-1.0172460714923304,-0.14114410081972295
1708440648.3971088,-1.1057357788085938,-1.6815663776793421,-2.5265753904925745,2.281331940288208,-1.0172174612628382,-0.14119369188417608
1708440648.399121,-1.1057268381118774,-1.6815577946104945,-2.526526753102438,2.2813290792652587,-1.017242733632223,-0.14122325578798467
1708440648.4011195,-1.105743169784546,-1.6815539799132289,-2.5265634695636194,2.281372233028076,-1.0172250906573694,-0.141181770955221
1708440648.4031217,-1.1057522296905518,-1.6814967594542445,-2.5265429655658167,2.281369133586548,-1.0172341505633753,-0.14112836519350225
1708440648.4051445,-1.105793833732605,-1.6815172634520472,-2.5265796820269983,2.281348391170166,-1.0171635786639612,-0.14121896425356084
1708440648.407185,-1.1057566404342651,-1.6815620861449183,-2.5265353361712855,2.281324549312256,-1.0171878973590296,-0.1411526838885706
1708440648.4091232,-1.1057194471359253,-1.6814567051329554,-2.5265191237079065,2.281311197871826,-1.0171516577350062,-0.14120990434755498
1708440648.4111073,-1.1057685613632202,-1.6815010509886683,-2.526555840169088,2.2813290792652587,-1.0172384420977991,-0.14117461839784795
1708440648.4131196,-1.105715036392212,-1.681570669213766,-2.5265842119800013,2.281277819270752,-1.017221752797262,-0.1411994139300745
1708440648.415103,-1.1057521104812622,-1.6815339527525843,-2.5264981428729456,2.2813407617756347,-1.0172131697284144,-0.14119083086122686
1708440648.4171488,-1.1057493686676025,-1.6815010509886683,-2.5265472571002405,2.2813290792652587,-1.0171850363360804,-0.14115745226015264
1708440648.419123,-1.1057193279266357,-1.6815010509886683,-2.5265429655658167,2.281308098430298,-1.0171850363360804,-0.14114839235414678
1708440648.421128,-1.10574471950531,-1.6815339527525843,-2.5265796820269983,2.2813290792652587,-1.0172012487994593,-0.14116079012026006
1708440648.4231508,-1.105716586112976,-1.6815296612181605,-2.5265634695636194,2.2813290792652587,-1.0171807448016565,-0.14119369188417608
1708440648.4251256,-1.1057194471359253,-1.6815945110716761,-2.526522223149435,2.2813452917286376,-1.0172308127032679,-0.1411655584918421
1708440648.4271457,-1.105728268623352,-1.6815053425230921,-2.5265472571002405,2.281336470241211,-1.017254654561178,-0.141214672719137
1708440648.42911,-1.1056995391845703,-1.681570669213766,-2.5265753904925745,2.281336470241211,-1.0172174612628382,-0.14116985002626592
1708440648.4311082,-1.105645775794983,-1.6815172634520472,-2.5265515486346644,2.2813572126575927,-1.0171969572650355,-0.14117461839784795
1708440648.4331744,-1.1056995391845703,-1.6815139255919398,-2.5265148321734827,2.281352921123169,-1.0172384420977991,-0.1411655584918421
1708440648.435136,-1.1056413650512695,-1.681549688378805,-2.526538674031393,2.281324549312256,-1.017233673726217,-0.14115745226015264
1708440648.437119,-1.1056920289993286,-1.6815406284727992,-2.526526753102438,2.281320019359253,-1.0171807448016565,-0.14117461839784795
1708440648.4391425,-1.1056621074676514,-1.6815010509886683,-2.526526753102438,2.2812911707111816,-1.0172293821917933,-0.14117461839784795
1708440648.4411278,-1.1057299375534058,-1.6815453968443812,-2.52651030222048,2.2812375265308837,-1.0172250906573694,-0.14117747942079717
1708440648.4431353,-1.1057084798812866,-1.6815253696837367,-2.5265191237079065,2.281299276942871,-1.0172088781939905,-0.14114839235414678
1708440648.445118,-1.1057039499282837,-1.6814881763853968,-2.526566807423727,2.2813173967548828,-1.0172012487994593,-0.14116079012026006
1708440648.447155,-1.105690360069275,-1.6815663776793421,-2.5265634695636194,2.2813290792652587,-1.017233673726217,-0.1411502997027796
1708440648.4491487,-1.1056904792785645,-1.6815210781493128,-2.5265429655658167,2.281324549312256,-1.017205540333883,-0.1411665121661585
1708440648.4511592,-1.1056832075119019,-1.681479116479391,-2.526522223149435,2.2813171583363037,-1.0172012487994593,-0.14117271104921514
1708440648.4531653,-1.1056832075119019,-1.6815124950804652,-2.526588503514425,2.281324549312256,-1.0171969572650355,-0.14116174379457647
1708440648.4551275,-1.1056712865829468,-1.681570669213766,-2.5265591780291956,2.2813262182423095,-1.0171969572650355,-0.14113980928529912
1708440648.457146,-1.105716586112976,-1.6815453968443812,-2.526588503514425,2.2813336092182617,-1.0172250906573694,-0.14123994508852178
1708440648.4591322,-1.105629324913025,-1.6815258465208949,-2.526538674031393,2.2812792497822265,-1.0172384420977991,-0.14114410081972295
1708440648.4611266,-1.1056740283966064,-1.6814881763853968,-2.5265310446368616,2.2812954622456054,-1.0172131697284144,-0.141181770955221
1708440648.4631455,-1.1056876182556152,-1.6815129719176234,-2.5265472571002405,2.2813002306171875,-1.0171998182879847,-0.14117890993227178
1708440648.4651334,-1.1057119369506836,-1.6815124950804652,-2.526522223149435,2.281273289317749,-1.0171969572650355,-0.14117747942079717
1708440648.4673948,-1.1056920289993286,-1.681528230706686,-2.526526753102438,2.281348391170166,-1.0172413031207483,-0.1412280241595667
1708440648.4691448,-1.1056965589523315,-1.6815620861449183,-2.5265591780291956,2.2812747198292236,-1.0171807448016565,-0.14114839235414678
1708440648.4711292,-1.10564124584198,-1.6815453968443812,-2.5265429655658167,2.281265898341797,-1.017205540333883,-0.14122325578798467
1708440648.473122,-1.1056965589523315,-1.6815620861449183,-2.526555840169088,2.281315727824829,-1.0171969572650355,-0.14111119905580694
1708440648.4751072,-1.1056504249572754,-1.6814967594542445,-2.5265472571002405,2.2813336092182617,-1.0172174612628382,-0.14115745226015264
1708440648.4771304,-1.105716586112976,-1.681521554986471,-2.5265677610980433,2.281324549312256,-1.0172174612628382,-0.1411526838885706
1708440648.479088,-1.1057084798812866,-1.6815296612181605,-2.5265472571002405,2.2812821108051757,-1.0171759764300745,-0.1411369482623499
1708440648.4810991,-1.105680227279663,-1.6815368137755335,-2.5265515486346644,2.2813126283833007,-1.0171635786639612,-0.14117890993227178
1708440648.4831965,-1.1056995391845703,-1.6815296612181605,-2.526522223149435,2.2813452917286376,-1.0171969572650355,-0.14119083086122686
1708440648.4850852,-1.1056548357009888,-1.6815582714476527,-2.526538674031393,2.2813665109821777,-1.0171969572650355,-0.14123231569399053
1708440648.487139,-1.105716586112976,-1.6815086803831996,-2.526526753102438,2.2813047605701904,-1.0171921888934534,-0.1411655584918421
1708440648.4890962,-1.1057084798812866,-1.6815577946104945,-2.526522223149435,2.2813126283833007,-1.017242733632223,-0.14116985002626592
1708440648.4910972,-1.105712890625,-1.6815253696837367,-2.5265069643603724,2.281324549312256,-1.0171969572650355,-0.14114171663393194
1708440648.4931164,-1.1056995391845703,-1.6816064320006312,-2.5265429655658167,2.281324549312256,-1.0172222296344202,-0.1411655584918421
1708440648.4951005,-1.1056995391845703,-1.6815124950804652,-2.526538674031393,2.2813002306171875,-1.0172250906573694,-0.14115745226015264
1708440648.4971237,-1.1056920289993286,-1.6815992794432582,-2.5265148321734827,2.2813381391712646,-1.0172012487994593,-0.1411531607257288
1708440648.499184,-1.1056948900222778,-1.6815086803831996,-2.52657658258547,2.2813290792652587,-1.0172088781939905,-0.14117890993227178
1708440648.5011568,-1.105680227279663,-1.6815172634520472,-2.5265472571002405,2.281381292934082,-1.0172012487994593,-0.14111262956728154
1708440648.503121,-1.1057039499282837,-1.681521554986471,-2.526572291051046,2.281308098430298,-1.0171921888934534,-0.1411502997027796
1708440648.505107,-1.1057119369506836,-1.6815010509886683,-2.5265310446368616,2.281324549312256,-1.0171759764300745,-0.14117414156068975
1708440648.5071568,-1.1056785583496094,-1.681570669213766,-2.5265677610980433,2.2813290792652587,-1.0172503630267542,-0.1411979834185999
1708440648.50918,-1.1056801080703735,-1.6815988026061,-2.5265634695636194,2.281320019359253,-1.017214600239889,-0.14111262956728154
1708440648.5111012,-1.1056756973266602,-1.6815620861449183,-2.5265515486346644,2.281315727824829,-1.0172503630267542,-0.14112931886781865
1708440648.513119,-1.1056548357009888,-1.6815086803831996,-2.5265634695636194,2.2813662725635986,-1.017205540333883,-0.14108592668642217
1708440648.515108,-1.1056667566299438,-1.6814595661559046,-2.526526753102438,2.281320019359253,-1.0171969572650355,-0.1411050001727503
1708440648.5171382,-1.1056921482086182,-1.6815339527525843,-2.526501719151632,2.281282349223755,-1.0172012487994593,-0.1411216894732874
1708440648.5191073,-1.1056965589523315,-1.6814924679198207,-2.5265591780291956,2.2812747198292236,-1.017139736806051,-0.14108592668642217
1708440648.521114,-1.105669617652893,-1.6815339527525843,-2.5265148321734827,2.281324549312256,-1.0172384420977991,-0.14108592668642217
1708440648.523143,-1.1056429147720337,-1.6815210781493128,-2.5265472571002405,2.2813379007526855,-1.017167870198385,-0.14113980928529912
1708440648.5251107,-1.105663776397705,-1.6815411053099574,-2.5265396277057093,2.281306667918823,-1.0171802679644983,-0.1410616079913538
1708440648.5271406,-1.1057209968566895,-1.6815663776793421,-2.5265677610980433,2.281299276942871,-1.0171969572650355,-0.14105254808534795
1708440648.5291276,-1.1056621074676514,-1.681573053399557,-2.5265148321734827,2.281315727824829,-1.0172103087054651,-0.14110356966127569
1708440648.5311239,-1.1056712865829468,-1.681549688378805,-2.5265842119800013,2.2813617426105957,-1.0171812216388147,-0.1410616079913538
1708440648.533114,-1.1056756973266602,-1.681549688378805,-2.52657658258547,2.281357451076172,-1.0172174612628382,-0.1410616079913538
1708440648.535106,-1.1056548357009888,-1.6815296612181605,-2.5265515486346644,2.28131548940625,-1.0172174612628382,-0.1410616079913538
1708440648.537108,-1.1056965589523315,-1.6815339527525843,-2.5265310446368616,2.2813781934925537,-1.0172012487994593,-0.1410906950580042
1708440648.5391047,-1.1056995391845703,-1.6815129719176234,-2.5265384356128138,2.2813216882893066,-1.0171850363360804,-0.14109498659242803
1708440648.5411782,-1.1056995391845703,-1.681549688378805,-2.5265634695636194,2.2813781934925537,-1.0172222296344202,-0.1410735289203089
1708440648.543125,-1.1057119369506836,-1.6815859280028285,-2.5265148321734827,2.281369133586548,-1.0171759764300745,-0.14109498659242803
1708440648.5451295,-1.105645775794983,-1.6815172634520472,-2.526527706776754,2.281306667918823,-1.017172638569967,-0.14106589952577764
1708440648.5472524,-1.1056785583496094,-1.6815539799132289,-2.5265148321734827,2.281315727824829,-1.017193619404928,-0.14107782045473272
1708440648.5491068,-1.1057209968566895,-1.681509634057516,-2.5265429655658167,2.281303806895874,-1.017176930104391,-0.1410735289203089
1708440648.551103,-1.1057255268096924,-1.681521554986471,-2.5265148321734827,2.281348391170166,-1.01719838777651,-0.14104062715639287
1708440648.5531144,-1.1057075262069702,-1.6815253696837367,-2.5264862219439905,2.281364842052124,-1.0171850363360804,-0.1410453955279749
1708440648.5551286,-1.1057084798812866,-1.6815577946104945,-2.526493851338522,2.281381054515503,-1.017167870198385,-0.14105254808534795
1708440648.5571895,-1.1057209968566895,-1.6815539799132289,-2.526526753102438,2.281357451076172,-1.017176930104391,-0.14105254808534795
1708440648.5591075,-1.1057343482971191,-1.6814967594542445,-2.526473347340719,2.281348391170166,-1.017242733632223,-0.14107782045473272
1708440648.5611033,-1.1057209968566895,-1.6815129719176234,-2.5265069643603724,2.2812866407581787,-1.017226521168844,-0.14107782045473272
1708440648.5631547,-1.1056756973266602,-1.681509634057516,-2.5265310446368616,2.281341000194214,-1.01715594926943,-0.1410616079913538
1708440648.5651245,-1.1057119369506836,-1.681521554986471,-2.5265310446368616,2.281402035350464,-1.0171321074115198,-0.14110356966127569
1708440648.5671244,-1.1056995391845703,-1.681542535821432,-2.526564661656515,2.281331940288208,-1.0171650091754358,-0.14107066789735967
1708440648.5691133,-1.105749249458313,-1.6815453968443812,-2.5265396277057093,2.281352921123169,-1.017176930104391,-0.14106589952577764
1708440648.571112,-1.1056832075119019,-1.6815535030760707,-2.5265234152423304,2.281369133586548,-1.0171850363360804,-0.14107066789735967
1708440648.5731156,-1.1057209968566895,-1.6815086803831996,-2.5265024344073694,2.281323118800781,-1.0171516577350062,-0.14103633562196904
1708440648.5750988,-1.1056904792785645,-1.6815296612181605,-2.5265634695636194,2.281364842052124,-1.017176930104391,-0.14108258882631475
1708440648.5771372,-1.105669617652893,-1.6815086803831996,-2.5265396277057093,2.281355782146118,-1.0172026793109339,-0.14107257524599248
1708440648.5790958,-1.1057238578796387,-1.6814924679198207,-2.526511255894796,2.281343861217163,-1.0172188917743128,-0.14107782045473272
1708440648.5811024,-1.1056830883026123,-1.6815382442870082,-2.5265148321734827,2.281355782146118,-1.017176930104391,-0.14101106325258428
1708440648.5831573,-1.1057075262069702,-1.6814891300597132,-2.5265069643603724,2.281392975444458,-1.0171859900103968,-0.14111501375307256
1708440648.5851295,-1.1057268381118774,-1.6815339527525843,-2.5264950434314173,2.281355782146118,-1.017160717641012,-0.1410906950580042
1708440648.5871267,-1.1057283878326416,-1.6815086803831996,-2.5265234152423304,2.281397505397461,-1.017193619404928,-0.1410735289203089
1708440648.58912,-1.1057194471359253,-1.6815053425230921,-2.526499334965841,2.281388683910034,-1.017139736806051,-0.14103347459901983
1708440648.5911205,-1.105710506439209,-1.6815086803831996,-2.526592795048849,2.281339569682739,-1.0171411673175257,-0.14111072221864873
1708440648.5931466,-1.1057820320129395,-1.6815086803831996,-2.526543919240133,2.281367703075073,-1.0171249548541468,-0.14109498659242803
1708440648.5951188,-1.1057566404342651,-1.6815129719176234,-2.526532236729757,2.2813796240040283,-1.0171082655536097,-0.14108258882631475
1708440648.597156,-1.1057493686676025,-1.6815582714476527,-2.5264819304095667,2.281376762981079,-1.0171249548541468,-0.14105254808534795
1708440648.5991085,-1.1057729721069336,-1.681575437585348,-2.5264950434314173,2.2813467222401123,-1.0170963446246546,-0.1410735289203089
1708440648.60115,-1.1057268381118774,-1.6815053425230921,-2.5265234152423304,2.2813796240040283,-1.0171468893634241,-0.1410287062274378
1708440648.6031394,-1.105789303779602,-1.6815620861449183,-2.5265396277057093,2.281372233028076,-1.0171130339251917,-0.14108592668642217
1708440648.605112,-1.1057313680648804,-1.6815086803831996,-2.5264864603625696,2.2813705640980224,-1.0171011129962366,-0.14103347459901983
1708440648.6071377,-1.1056896448135376,-1.6814567051329554,-2.526564661656515,2.2814413744160156,-1.0171173254596155,-0.14103204408754522
1708440648.6091309,-1.1057848930358887,-1.681493421594137,-2.5265024344073694,2.281399651164673,-1.0171263853656214,-0.14106876054872686
1708440648.6111317,-1.1057432889938354,-1.681509634057516,-2.526527706776754,2.2814368444630126,-1.0171144644366663,-0.1410453955279749
1708440648.6131508,-1.105771541595459,-1.6815339527525843,-2.5264907518969935,2.2814530569263916,-1.0170796553241175,-0.14103204408754522
1708440648.615107,-1.1057759523391724,-1.681495805779928,-2.5265234152423304,2.2814652162739257,-1.0170930067645472,-0.1411197821246546
1708440648.6171458,-1.1056807041168213,-1.6814714870848597,-2.526499334965841,2.2815021711536865,-1.0171335379229944,-0.1410601774798792
1708440648.619135,-1.1057343482971191,-1.6815210781493128,-2.526527706776754,2.2814487653919677,-1.0170796553241175,-0.14111072221864873
1708440648.621108,-1.1057759523391724,-1.681509634057516,-2.5265026728259485,2.281472607249878,-1.0171216169940394,-0.14104062715639287
1708440648.6231358,-1.1057432889938354,-1.6815129719176234,-2.526543919240133,2.2814158636280517,-1.0170887152301233,-0.14107782045473272
1708440648.6251147,-1.1058087348937988,-1.6814638576903285,-2.5265024344073694,2.2814323145100097,-1.0171292463885706,-0.14108592668642217
1708440648.6271236,-1.1057626008987427,-1.6815382442870082,-2.5264981428729456,2.2815067011066894,-1.0171473662005823,-0.14108258882631475
1708440648.6290987,-1.1057969331741333,-1.6815339527525843,-2.5264905134784144,2.2814487653919677,-1.0170839468585413,-0.14107066789735967
1708440648.6311116,-1.1057506799697876,-1.6814924679198207,-2.526544157658712,2.281411572093628,-1.0171173254596155,-0.14108688036073858
1708440648.6331365,-1.1057671308517456,-1.6815296612181605,-2.526503626500265,2.281477137202881,-1.0171187559710901,-0.14106446901430303
1708440648.6350896,-1.1057626008987427,-1.6815139255919398,-2.526522223149435,2.2814978796192626,-1.0171216169940394,-0.14105731645692998
1708440648.637117,-1.1057878732681274,-1.681521554986471,-2.5264950434314173,2.28145615636792,-1.0170601050006312,-0.1410735289203089
1708440648.6391022,-1.1057372093200684,-1.6815301380553187,-2.526519838963644,2.28141896306958,-1.0170682112323206,-0.14108592668642217
1708440648.6412275,-1.1057953834533691,-1.681549688378805,-2.5264862219439905,2.281505985850952,-1.0170887152301233,-0.1410735289203089
1708440648.643159,-1.1057878732681274,-1.6815139255919398,-2.52655274072756,2.281472607249878,-1.0170839468585413,-0.14107782045473272
1708440648.645134,-1.1057907342910767,-1.6815620861449183,-2.5264907518969935,2.281460686320923,-1.0170815626727503,-0.14101964632143194
1708440648.6471286,-1.105783462524414,-1.681619783441061,-2.5265234152423304,2.2814768987843017,-1.0170815626727503,-0.14106589952577764
1708440648.6490984,-1.1057387590408325,-1.6815368137755335,-2.5265069643603724,2.281414433116577,-1.0170438925372522,-0.14107782045473272
1708440648.6511028,-1.1058168411254883,-1.681542535821432,-2.526499334965841,2.281423254604004,-1.0170839468585413,-0.14105731645692998
1708440648.6530914,-1.1057953834533691,-1.6814967594542445,-2.5264740625964563,2.281510515803955,-1.0171187559710901,-0.14111072221864873
1708440648.655117,-1.1057988405227661,-1.6814891300597132,-2.526511255894796,2.2814933496662597,-1.0171144644366663,-0.141090218220846
1708440648.6571307,-1.1058241128921509,-1.6814729175963343,-2.526511255894796,2.281435413951538,-1.0171096960650843,-0.14104825655092412
1708440648.6591058,-1.1057862043380737,-1.6815053425230921,-2.5264950434314173,2.281484528178833,-1.017069164906637,-0.1410616079913538
1708440648.6610994,-1.1057907342910767,-1.6815053425230921,-2.526499334965841,2.281447096461914,-1.017069164906637,-0.14107782045473272
1708440648.6631093,-1.1058077812194824,-1.6815172634520472,-2.526482884083883,2.281484528178833,-1.0170815626727503,-0.1410439650165003
1708440648.665155,-1.1057988405227661,-1.6815258465208949,-2.5264785925494593,2.281435175532959,-1.0170815626727503,-0.14104968706239873
1708440648.6671233,-1.1057729721069336,-1.6815339527525843,-2.5264959971057337,2.281459017390869,-1.017036263142721,-0.141090218220846
1708440648.6692,-1.1058272123336792,-1.681549688378805,-2.52651554742922,2.281488819713257,-1.017048184071676,-0.14109498659242803
1708440648.6711345,-1.1058212518692017,-1.6814805469908656,-2.52655274072756,2.2814933496662597,-1.017036263142721,-0.1410735289203089
1708440648.6731386,-1.105847954750061,-1.6815129719176234,-2.5264251867877405,2.281505985850952,-1.0170858542071741,-0.141090218220846
1708440648.6751103,-1.1058226823806763,-1.681575437585348,-2.526487175618307,2.2814878660389404,-1.0170906225787562,-0.14110166231264287
1708440648.677112,-1.1058316230773926,-1.681549688378805,-2.526482884083883,2.281526966685913,-1.017052952443258,-0.1410601774798792
1708440648.6791031,-1.1058704853057861,-1.6815210781493128,-2.5265069643603724,2.28145615636792,-1.017052952443258,-0.141123119984762
1708440648.6810968,-1.1058405637741089,-1.6815139255919398,-2.526466671620504,2.28145615636792,-1.0170734564410608,-0.14109737077821904
1708440648.683089,-1.1057988405227661,-1.6815258465208949,-2.526482884083883,2.281454487437866,-1.017029110585348,-0.1410768667804163
1708440648.6850896,-1.1058598756790161,-1.681570669213766,-2.526482884083883,2.281447334880493,-1.0170868078814905,-0.14102727571596319
1708440648.6870902,-1.1058405637741089,-1.6814805469908656,-2.526503626500265,2.281470938319824,-1.0170615355121058,-0.14105254808534795
1708440648.6891217,-1.105852484703064,-1.6815539799132289,-2.526511255894796,2.281463547343872,-1.0170663038836878,-0.14108592668642217
1708440648.6911194,-1.105852484703064,-1.6815129719176234,-2.526482884083883,2.281463547343872,-1.0170496145831507,-0.14105731645692998
1708440648.6931345,-1.105836033821106,-1.6814595661559046,-2.5264914671527308,2.281501455897949,-1.017008129750387,-0.14109737077821904
1708440648.6951547,-1.1057988405227661,-1.6815129719176234,-2.526503626500265,2.281501455897949,-1.0170038382159632,-0.1411064306842249
1708440648.697154,-1.105852484703064,-1.681521554986471,-2.526531998311178,2.281426115626953,-1.0170496145831507,-0.14109307924379522
1708440648.699129,-1.1058197021484375,-1.681497713128561,-2.526503626500265,2.2814835745045166,-1.0170496145831507,-0.14109307924379522
1708440648.7011209,-1.1058226823806763,-1.6815253696837367,-2.5264578501330774,2.2814337450214843,-1.0170663038836878,-0.14109498659242803
1708440648.703148,-1.1058480739593506,-1.6815301380553187,-2.526499334965841,2.281463547343872,-1.0170663038836878,-0.14108163515199834
1708440648.705137,-1.1058270931243896,-1.6815453968443812,-2.526487175618307,2.2814923959919433,-1.017041031514303,-0.14104825655092412
1708440648.7071228,-1.105847954750061,-1.6814643345274867,-2.5264950434314173,2.281442566508911,-1.0170376936541956,-0.14112788835634404
1708440648.709152,-1.1058435440063477,-1.6814967594542445,-2.526475254689352,2.281470938319824,-1.017024342213766,-0.14111072221864873
1708440648.7111027,-1.1058077812194824,-1.6815172634520472,-2.5265002886401575,2.2814814287373046,-1.017069164906637,-0.14106923738588506
1708440648.7131176,-1.1058763265609741,-1.6815172634520472,-2.526548210774557,2.2814923959919433,-1.0170734564410608,-0.14110166231264287
1708440648.7151103,-1.1058272123336792,-1.681521554986471,-2.526479784642355,2.2814923959919433,-1.0170663038836878,-0.14110166231264287
1708440648.7171035,-1.1058391332626343,-1.681521554986471,-2.5264578501330774,2.2815133768269042,-1.0170543829547327,-0.1410906950580042
1708440648.7191265,-1.105836033821106,-1.6815339527525843,-2.526450220738546,2.2815415102192382,-1.017008129750387,-0.14107257524599248
1708440648.7211165,-1.1058405637741089,-1.681521554986471,-2.526531998311178,2.281484528178833,-1.0170906225787562,-0.14108592668642217
1708440648.723131,-1.1058272123336792,-1.6815053425230921,-2.526466671620504,2.281505985850952,-1.017057243977682,-0.141123119984762
1708440648.7267208,-1.105864405632019,-1.6815339527525843,-2.526487175618307,2.281442566508911,-1.0170782248126429,-0.14111072221864873
1708440648.7273257,-1.105803370475769,-1.6814729175963343,-2.5264785925494593,2.281534357661865,-1.017041031514303,-0.14106351533998662
1708440648.7291198,-1.1058807373046875,-1.6815339527525843,-2.5264950434314173,2.281442566508911,-1.0170825163470667,-0.1411064306842249
1708440648.7311237,-1.1058197021484375,-1.6815453968443812,-2.526499334965841,2.281459017390869,-1.017041031514303,-0.14110976854433233
1708440648.7331083,-1.105836033821106,-1.6814848385252894,-2.526459042225973,2.281463547343872,-1.017024342213766,-0.1410768667804163
1708440648.7350967,-1.1058107614517212,-1.6815296612181605,-2.5265045801745813,2.28147999822583,-1.0170334021197718,-0.14108163515199834
1708440648.737102,-1.1058554649353027,-1.6814900837340296,-2.5264795462237757,2.28147999822583,-1.0170124212848108,-0.14111406007875615
1708440648.7390943,-1.1058316230773926,-1.6815210781493128,-2.5265329519854944,2.2814923959919433,-1.0170615355121058,-0.1410616079913538
1708440648.741147,-1.105852484703064,-1.681542535821432,-2.52645451227297,2.2814664083668212,-1.0170748869525355,-0.1410768667804163
1708440648.7431297,-1.1058272123336792,-1.6814876995482386,-2.526482884083883,2.2814335066029052,-1.0170825163470667,-0.14111406007875615
1708440648.745144,-1.1058405637741089,-1.6815382442870082,-2.52645451227297,2.28147999822583,-1.0170214811908167,-0.14109498659242803
1708440648.7471442,-1.1058554649353027,-1.6815453968443812,-2.5264349619494837,2.2815088468739013,-1.0170496145831507,-0.14113074937929326
1708440648.7491066,-1.1058197021484375,-1.681521554986471,-2.526470963154928,2.2814923959919433,-1.0170453230487269,-0.14108592668642217
1708440648.7510934,-1.1058452129364014,-1.6815663776793421,-2.52643067041506,2.281442566508911,-1.017041031514303,-0.14109307924379522
1708440648.75312,-1.105847954750061,-1.6815296612181605,-2.5264883677112024,2.28147999822583,-1.0170496145831507,-0.1410735289203089
1708440648.7551255,-1.1058197021484375,-1.6815129719176234,-2.526470963154928,2.281475229854248,-1.017052952443258,-0.14108592668642217
1708440648.757163,-1.1058272123336792,-1.6815086803831996,-2.5264914671527308,2.2815133768269042,-1.0170214811908167,-0.1410463492022913
1708440648.7591074,-1.105818271636963,-1.6815468273558558,-2.526499334965841,2.2815250593372802,-1.017020050679342,-0.14106780687441045
1708440648.7611108,-1.1058107614517212,-1.681549688378805,-2.526463333760397,2.281463547343872,-1.0170496145831507,-0.14111882845033819
1708440648.7631276,-1.1058272123336792,-1.681479116479391,-2.5264676252948206,2.2815298277088623,-1.0170705954181116,-0.14112645784486944
1708440648.7651381,-1.105852484703064,-1.6814686260619105,-2.526470963154928,2.2814878660389404,-1.0170038382159632,-0.14110166231264287
1708440648.7671251,-1.105864405632019,-1.6816078625121058,-2.5264719168292444,2.2815252977558593,-1.016991917287008,-0.1410768667804163
1708440648.7690952,-1.1058554649353027,-1.6814848385252894,-2.5265045801745813,2.281505985850952,-1.0170453230487269,-0.14110976854433233
1708440648.7711096,-1.1058152914047241,-1.6815582714476527,-2.526450220738546,2.281475468272827,-1.017041031514303,-0.1410434881793421
1708440648.7731102,-1.1058316230773926,-1.6814967594542445,-2.5264914671527308,2.2815415102192382,-1.0170453230487269,-0.14111882845033819
1708440648.7751088,-1.1058405637741089,-1.681530614892477,-2.5264676252948206,2.2814971643635253,-1.0170782248126429,-0.14109307924379522
1708440648.7771177,-1.105852484703064,-1.681542535821432,-2.526447121297018,2.2814664083668212,-1.0170615355121058,-0.14107257524599248
1708440648.7790945,-1.1058107614517212,-1.681521554986471,-2.526475254689352,2.28147999822583,-1.0171082655536097,-0.14111739793886358
1708440648.7810903,-1.105836033821106,-1.6814848385252894,-2.5264840761767786,2.281447334880493,-1.0170453230487269,-0.14108592668642217
1708440648.783111,-1.1058272123336792,-1.6815053425230921,-2.526442591344015,2.2814337450214843,-1.017057243977682,-0.14106780687441045
1708440648.7850928,-1.105847954750061,-1.681495805779928,-2.526466433201925,2.281475468272827,-1.0170376936541956,-0.14108831087221319
1708440648.7871215,-1.1058063507080078,-1.6815620861449183,-2.5264063517199915,2.2815298277088623,-1.017008129750387,-0.1411383787738245
1708440648.7890913,-1.1058197021484375,-1.6815129719176234,-2.52645451227297,2.281426354045532,-1.016987148915426,-0.14111406007875615
1708440648.791111,-1.105836033821106,-1.6815339527525843,-2.5265045801745813,2.281501455897949,-1.0170868078814905,-0.14113074937929326
1708440648.7931616,-1.1058452129364014,-1.6815010509886683,-2.5264557043658655,2.2815298277088623,-1.0170171896563929,-0.14110166231264287
1708440648.7950854,-1.105836033821106,-1.6815172634520472,-2.52643067041506,2.281463547343872,-1.017036263142721,-0.14113361040224248
1708440648.7971349,-1.105836033821106,-1.6815620861449183,-2.5264514128314417,2.2814933496662597,-1.0170906225787562,-0.14113361040224248
1708440648.7991505,-1.1058391332626343,-1.6815301380553187,-2.5265002886401575,2.2815298277088623,-1.0170705954181116,-0.1411383787738245
1708440648.801138,-1.1058316230773926,-1.681542535821432,-2.526447121297018,2.281442566508911,-1.0170424620257776,-0.14110976854433233
1708440648.8031094,-1.1058107614517212,-1.681549688378805,-2.52643067041506,2.28147999822583,-1.0170543829547327,-0.1411379019366663
1708440648.8050904,-1.1058152914047241,-1.6814805469908656,-2.5264514128314417,2.281550570125244,-1.0170171896563929,-0.14114696184267217
1708440648.8071082,-1.1058316230773926,-1.681521554986471,-2.5264883677112024,2.281472607249878,-1.017057243977682,-0.14107257524599248
1708440648.8091109,-1.1058241128921509,-1.6814967594542445,-2.526475254689352,2.281468077296875,-1.017024342213766,-0.14107925096620733
1708440648.8111193,-1.105836033821106,-1.6815086803831996,-2.526447121297018,2.2814768987843017,-1.0170438925372522,-0.14114267030824834
1708440648.8131187,-1.105852484703064,-1.6815129719176234,-2.526426140462057,2.2815133768269042,-1.0170705954181116,-0.1411383787738245
1708440648.8150787,-1.105803370475769,-1.6814881763853968,-2.5264795462237757,2.28152243673291,-1.0170334021197718,-0.14113361040224248
1708440648.8171198,-1.1057863235473633,-1.6814848385252894,-2.526447121297018,2.28147999822583,-1.0170748869525355,-0.14112645784486944
1708440648.819133,-1.1058568954467773,-1.6815053425230921,-2.5264883677112024,2.281475229854248,-1.017052952443258,-0.14115506807436162
1708440648.821107,-1.10578191280365,-1.6815172634520472,-2.526463333760397,2.281447334880493,-1.017036263142721,-0.14112931886781865
1708440648.8231564,-1.105803370475769,-1.6815129719176234,-2.5264838377581995,2.281488819713257,-1.017057243977682,-0.1411979834185999
1708440648.825113,-1.1057988405227661,-1.681570669213766,-2.5264838377581995,2.28147999822583,-1.0170782248126429,-0.14117890993227178
1708440648.8271537,-1.1058107614517212,-1.6815172634520472,-2.5264914671527308,2.281468077296875,-1.0170376936541956,-0.14114839235414678
1708440648.8291314,-1.105812430381775,-1.681493421594137,-2.5264840761767786,2.2814933496662597,-1.0170376936541956,-0.14123565355409795
1708440648.8310971,-1.1058197021484375,-1.6814848385252894,-2.5264676252948206,2.281501455897949,-1.0170782248126429,-0.14118749300111944
1708440648.8331277,-1.1058496236801147,-1.6815453968443812,-2.52643067041506,2.28147999822583,-1.017052952443258,-0.1412265936480921
1708440648.8350973,-1.1058077812194824,-1.6815139255919398,-2.526479784642355,2.281488819713257,-1.0171039740191858,-0.14120990434755498
1708440648.8371327,-1.1058077812194824,-1.681521554986471,-2.5264883677112024,2.281447334880493,-1.017041031514303,-0.14124805132021123
1708440648.8391047,-1.105765461921692,-1.6814762554564417,-2.5264676252948206,2.2814933496662597,-1.0170496145831507,-0.14122230211366826
1708440648.8411047,-1.1058077812194824,-1.6815053425230921,-2.526442591344015,2.281447096461914,-1.01709491411318,-0.14122230211366826
1708440648.8432026,-1.1057907342910767,-1.681481500665182,-2.526463333760397,2.281505985850952,-1.0170124212848108,-0.1411979834185999
1708440648.845106,-1.1058077812194824,-1.6815296612181605,-2.526463333760397,2.281423493022583,-1.0170734564410608,-0.14121753374208623
1708440648.84714,-1.1058197021484375,-1.6815301380553187,-2.526466671620504,2.281484528178833,-1.017069164906637,-0.1411965529071253
1708440648.8491607,-1.1057744026184082,-1.6815172634520472,-2.5264926592456263,2.281477137202881,-1.017036263142721,-0.1412299315081995
1708440648.8515737,-1.1057698726654053,-1.6814805469908656,-2.5264719168292444,2.281451626414917,-1.017057243977682,-0.14118940034975225
1708440648.8531313,-1.1057907342910767,-1.6815010509886683,-2.5264883677112024,2.281407042140625,-1.0170705954181116,-0.14117747942079717
1708440648.8551176,-1.1058540344238281,-1.6814848385252894,-2.5264840761767786,2.281460686320923,-1.0170615355121058,-0.14123422304262334
1708440648.857156,-1.1058404445648193,-1.6815053425230921,-2.5265124479876917,2.28147999822583,-1.017024342213766,-0.14123899141420537
1708440648.8591237,-1.1057579517364502,-1.6815382442870082,-2.526482884083883,2.2814923959919433,-1.017069164906637,-0.14122230211366826
1708440648.861106,-1.1057907342910767,-1.6815172634520472,-2.5264914671527308,2.28141896306958,-1.017102066670553,-0.1411965529071253
1708440648.863118,-1.1057907342910767,-1.6814643345274867,-2.526519838963644,2.28147999822583,-1.0170453230487269,-0.14117271104921514
1708440648.8652081,-1.1057790517807007,-1.681603570977682,-2.5265234152423304,2.281411572093628,-1.01709491411318,-0.14123899141420537
1708440648.8671417,-1.105803370475769,-1.681509634057516,-2.526475254689352,2.281472607249878,-1.0170496145831507,-0.1412265936480921
1708440648.8691254,-1.1058168411254883,-1.681549688378805,-2.5264416376696985,2.281430883998535,-1.0170734564410608,-0.14124805132021123
1708440648.871117,-1.1058213710784912,-1.6815453968443812,-2.5265124479876917,2.281423254604004,-1.017048184071676,-0.1411965529071253
1708440648.8731694,-1.1058197021484375,-1.6815577946104945,-2.5264950434314173,2.28145615636792,-1.0170992056476038,-0.14123899141420537
1708440648.8751483,-1.1057671308517456,-1.6814967594542445,-2.526450220738546,2.281442566508911,-1.0170648733722132,-0.14125472704042608
1708440648.8771338,-1.1057744026184082,-1.6814924679198207,-2.5265124479876917,2.2814933496662597,-1.0170601050006312,-0.1411979834185999
1708440648.8791404,-1.1057698726654053,-1.6815296612181605,-2.526466671620504,2.281463547343872,-1.0170858542071741,-0.14121753374208623
1708440648.8810997,-1.1057790517807007,-1.6814924679198207,-2.526503626500265,2.281435413951538,-1.0170558134662073,-0.14115649858583623
1708440648.8831115,-1.105759620666504,-1.6815129719176234,-2.526511255894796,2.2814695078083496,-1.017069164906637,-0.14118463197817022
1708440648.8851197,-1.1058176755905151,-1.6815663776793421,-2.5264950434314173,2.281460686320923,-1.0170858542071741,-0.1411803404437464
1708440648.8871143,-1.1058213710784912,-1.6815539799132289,-2.526450220738546,2.2814203935810546,-1.017102066670553,-0.14119369188417608
1708440648.889098,-1.1057416200637817,-1.6815010509886683,-2.526459042225973,2.2814203935810546,-1.0170815626727503,-0.141214672719137
1708440648.8911004,-1.1058629751205444,-1.6815382442870082,-2.526482884083883,2.281444235438965,-1.017048184071676,-0.1411965529071253
1708440648.8931677,-1.105771541595459,-1.6815253696837367,-2.52651554742922,2.2814933496662597,-1.0170858542071741,-0.14120561281313115
1708440648.89512,-1.105759620666504,-1.6815945110716761,-2.5265069643603724,2.281460686320923,-1.0170906225787562,-0.14118463197817022
1708440648.897123,-1.1057432889938354,-1.6814600429930628,-2.526503626500265,2.281444235438965,-1.017102066670553,-0.14118940034975225
1708440648.8991547,-1.1057759523391724,-1.6814924679198207,-2.5264950434314173,2.2814323145100097,-1.0170396010028284,-0.1411655584918421
1708440648.9011638,-1.105783462524414,-1.6815749607481898,-2.526450220738546,2.281414433116577,-1.0171096960650843,-0.14120561281313115
1708440648.9031081,-1.105771541595459,-1.6814762554564417,-2.526499334965841,2.281451626414917,-1.0170930067645472,-0.14123422304262334
1708440648.9051123,-1.1057804822921753,-1.6815620861449183,-2.526470963154928,2.281423493022583,-1.0170682112323206,-0.1411965529071253
1708440648.9071085,-1.105759620666504,-1.6815339527525843,-2.5265002886401575,2.2814487653919677,-1.0170682112323206,-0.14120084444154912
1708440648.9091363,-1.1057671308517456,-1.6815253696837367,-2.526503626500265,2.281472607249878,-1.0171635786639612,-0.1411803404437464
1708440648.9111142,-1.1057432889938354,-1.6815773449339808,-2.5265069643603724,2.281427784557007,-1.0170906225787562,-0.14124805132021123
1708440648.9131553,-1.105771541595459,-1.681570669213766,-2.5264740625964563,2.281390591258667,-1.0171173254596155,-0.14117271104921514
1708440648.9151366,-1.1057804822921753,-1.6815382442870082,-2.5265570322619837,2.281397982234619,-1.0171216169940394,-0.14120561281313115
1708440648.9170964,-1.1057387590408325,-1.6815620861449183,-2.526503626500265,2.2814323145100097,-1.0171173254596155,-0.1412432829486292
1708440648.919097,-1.1057268381118774,-1.6814729175963343,-2.526519838963644,2.281402512187622,-1.0171144644366663,-0.1411965529071253
1708440648.921111,-1.1057552099227905,-1.681549688378805,-2.5264785925494593,2.281427784557007,-1.017102066670553,-0.14121753374208623
