Eg3-git/Classifiers/Data Collection/u7/u7cir1_ur3e_joint_states.csv
time,elbow_joint,shoulder_lift_joint,shoulder_pan_joint,wrist_1_joint,wrist_2_joint,wrist_3_joint
1708440625.0430837,-1.1060926914215088,-1.6813436947264613,-2.5263927618609827,2.281600161189697,-1.0167844931231897,-0.04255038896669561
1708440625.0450928,-1.1060768365859985,-1.6814214191832484,-2.526313368474142,2.2815794187733154,-1.0167725721942347,-0.042465988789693654
1708440625.0470898,-1.1060270071029663,-1.6813551388182582,-2.5263853708850306,2.2816120821186523,-1.0168059507953089,-0.042547051106588185
1708440625.0490863,-1.1060433387756348,-1.6814500294127406,-2.526383940373556,2.2816404539295654,-1.016801659260885,-0.042547051106588185
1708440625.0510807,-1.1060476303100586,-1.6813913784422816,-2.526376549397604,2.2816285330006103,-1.0168135801898401,-0.042506043110982716
1708440625.0530899,-1.1059826612472534,-1.6814466915526332,-2.5263541380511683,2.2816166120716552,-1.0168641249286097,-0.042591396962301076
1708440625.0551212,-1.1059900522232056,-1.6813842258849085,-2.5263972918139856,2.2816404539295654,-1.016846005116598,-0.04255563417543584
1708440625.0570936,-1.106022596359253,-1.6814795933165492,-2.526362959538595,2.2816404539295654,-1.016808811818258,-0.04256326356996709
1708440625.0590913,-1.1060270071029663,-1.6813932857909144,-2.5263598600970667,2.2815868097492675,-1.016846005116598,-0.04258281389345342
1708440625.0610757,-1.1060764789581299,-1.6813527546324671,-2.526358429585592,2.2816566663929443,-1.016916577016012,-0.04253846803774053
1708440625.0631042,-1.1060682535171509,-1.681364198724264,-2.5263553301440638,2.2816268640705566,-1.016869846974508,-0.04258710542787725
1708440625.0650773,-1.1060270071029663,-1.6814214191832484,-2.526379410420553,2.2816194730946044,-1.0168493429767054,-0.042567078267232716
1708440625.0670662,-1.1060150861740112,-1.6814080677428187,-2.5263386408435267,2.2815822797962646,-1.0168564955340784,-0.04258710542787725
1708440625.069099,-1.1060595512390137,-1.6814094982542933,-2.52637488046755,2.2816220956989746,-1.0168193022357386,-0.04261523882021123
1708440625.071061,-1.1060357093811035,-1.6814304790892542,-2.526337210332052,2.281672640437744,-1.0168445746051233,-0.042549912129537404
1708440625.0730655,-1.1060926914215088,-1.6813856563963832,-2.5263541380511683,2.2816566663929443,-1.0169480482684534,-0.0425952116595667
1708440625.0750654,-1.1060107946395874,-1.681401868859762,-2.526416603718893,2.281672640437744,-1.0168941656695765,-0.04260236421693975
1708440625.0770762,-1.106022596359253,-1.6813975773253382,-2.526433054600851,2.281698389644287,-1.0168941656695765,-0.04260236421693975
1708440625.0791125,-1.1060314178466797,-1.6813632450499476,-2.526383940373556,2.281672640437744,-1.0169270674334925,-0.042586628590719044
1708440625.0810921,-1.1060194969177246,-1.6813551388182582,-2.5263541380511683,2.281660242671631,-1.0169346968280237,-0.04261905351747686
1708440625.0830784,-1.1060357093811035,-1.6814166508116664,-2.526337448750631,2.281693621272705,-1.0169060865985315,-0.04259378114809209
1708440625.0850375,-1.106071949005127,-1.6814590893187464,-2.526367489491598,2.281660242671631,-1.016888443623678,-0.04260236421693975
1708440625.087043,-1.1060595512390137,-1.6813508472838343,-2.526391331349508,2.281646652812622,-1.0169346968280237,-0.04263002077211553
1708440625.0890903,-1.1060314178466797,-1.6814638576903285,-2.526379410420553,2.281733675593994,-1.016900364552633,-0.04258948961366826
1708440625.0910738,-1.1060519218444824,-1.6813913784422816,-2.526400391255514,2.281705303783081,-1.016965691243307,-0.04261809984316045
1708440625.0930948,-1.1060850620269775,-1.6814662418761195,-2.526386801396505,2.281693621272705,-1.0169451872455042,-0.042671028767721
1708440625.095084,-1.1060019731521606,-1.6814257107176722,-2.52637488046755,2.2816592889973144,-1.0169451872455042,-0.04265815416444951
1708440625.0970843,-1.1060807704925537,-1.6813732586302699,-2.5263822714435022,2.281717224712036,-1.0169451872455042,-0.042609516774312794
1708440625.0990677,-1.1061099767684937,-1.6814466915526332,-2.5263689200030726,2.2817038732716064,-1.0169943014727991,-0.042638603840963185
1708440625.1010687,-1.106018304824829,-1.6814304790892542,-2.5263825098620813,2.2816547590443115,-1.0169852415667933,-0.042655293141500294
1708440625.1031055,-1.1060550212860107,-1.6813961468138636,-2.5264061133014124,2.2817038732716064,-1.0169761816607874,-0.0426257292376917
1708440625.1051023,-1.1060519218444824,-1.6814257107176722,-2.526412312184469,2.281677408809326,-1.0170019308673304,-0.0425799528705042
1708440625.107098,-1.1060550212860107,-1.6813932857909144,-2.526407782231466,2.2816592889973144,-1.0170305410968226,-0.04263431230653936
1708440625.1091037,-1.1060725450515747,-1.6813723049559535,-2.526419703160421,2.281701012248657,-1.0170066992389124,-0.04266387621034795
1708440625.1110885,-1.1060194969177246,-1.6813932857909144,-2.5263825098620813,2.2817129331776123,-1.0169761816607874,-0.04264671007265264
1708440625.1131203,-1.1060270071029663,-1.681364198724264,-2.52645713487734,2.2817203241535644,-1.0170214811908167,-0.042675320302144826
1708440625.1150825,-1.1060476303100586,-1.6814166508116664,-2.526403252278463,2.2816950517841796,-1.0169933477984827,-0.04267484346498662
1708440625.117102,-1.1060595512390137,-1.6814257107176722,-2.5264151732074183,2.281684561366699,-1.0169933477984827,-0.04266244569887334
1708440625.11908,-1.1060519218444824,-1.6813765964903773,-2.5264650026904505,2.2816919523426513,-1.0170305410968226,-0.04260093370546514
1708440625.1210694,-1.1060270071029663,-1.6813599071898402,-2.5264061133014124,2.2817157942005615,-1.0170186201678675,-0.042666260396138966
1708440625.1231027,-1.1060519218444824,-1.6814214191832484,-2.526452604924337,2.2816876608082275,-1.0170348326312464,-0.04265815416444951
1708440625.125072,-1.106022596359253,-1.6814257107176722,-2.5264106432544153,2.2817084032246093,-1.0169933477984827,-0.042670551930562794
1708440625.1271145,-1.1060971021652222,-1.6814166508116664,-2.5264468828784388,2.2817248541065673,-1.0170257727252405,-0.04266196886171514
1708440625.1291173,-1.1060725450515747,-1.6813932857909144,-2.5264812151538294,2.281646652812622,-1.0170305410968226,-0.04265338579286748
1708440625.131066,-1.1060400009155273,-1.6813684902586878,-2.5264228026019495,2.2817203241535644,-1.0170052687274378,-0.04268199602235967
1708440625.133116,-1.1060476303100586,-1.6814137897887171,-2.5264185110675257,2.281684561366699,-1.016991917287008,-0.04267341295351201
1708440625.1350923,-1.1060681343078613,-1.681364198724264,-2.5264318625079554,2.2816757398792724,-1.0170095602618616,-0.04267770448793584
1708440625.1371331,-1.1060400009155273,-1.6814137897887171,-2.5264647642718714,2.281705303783081,-1.0170052687274378,-0.04267341295351201
1708440625.1390853,-1.1060357093811035,-1.6814304790892542,-2.5264514128314417,2.281646652812622,-1.0170095602618616,-0.04267341295351201
1708440625.141086,-1.1060487031936646,-1.6813975773253382,-2.5264437834369105,2.2816757398792724,-1.0170334021197718,-0.04269439378847295
1708440625.1431127,-1.1060936450958252,-1.681455751458639,-2.5264468828784388,2.2817129331776123,-1.0170615355121058,-0.0426252524005335
1708440625.145068,-1.1060237884521484,-1.6814257107176722,-2.5264347235309046,2.2816800314136962,-1.0170782248126429,-0.04269010225404912
1708440625.1470852,-1.1060271263122559,-1.6814214191832484,-2.5264766852008265,2.2816712099262695,-1.0170038382159632,-0.0427020231830042
1708440625.1491044,-1.1060562133789062,-1.681364198724264,-2.5264514128314417,2.2816638189503173,-1.0170543829547327,-0.04275066057314092
1708440625.1510713,-1.1060675382614136,-1.681434770623678,-2.5264256636248987,2.2817248541065673,-1.0170734564410608,-0.04271060625185186
1708440625.153109,-1.1060676574707031,-1.6813765964903773,-2.5264723936664026,2.2816964822956542,-1.0170992056476038,-0.0427473227130335
1708440625.1550612,-1.1060476303100586,-1.6813975773253382,-2.5264437834369105,2.2816964822956542,-1.0170601050006312,-0.04271060625185186
1708440625.157085,-1.1060270071029663,-1.6814004383482875,-2.526503864918844,2.281747503871582,-1.017102066670553,-0.04274303117860967
1708440625.1590953,-1.1060107946395874,-1.6813675365843714,-2.5264301935779017,2.281714602107666,-1.0170772711383265,-0.042685810719625294
1708440625.1610656,-1.1060400009155273,-1.6813885174193324,-2.526442352925436,2.2816964822956542,-1.017097298298971,-0.04269439378847295
1708440625.1630669,-1.1060595512390137,-1.6814052067198695,-2.5264931360827845,2.281668110484741,-1.0171096960650843,-0.042685810719625294
1708440625.165065,-1.106018304824829,-1.6814257107176722,-2.526458803807394,2.2816638189503173,-1.0170887152301233,-0.042730156575338185
1708440625.1670873,-1.1060314178466797,-1.6814500294127406,-2.526487175618307,2.2816964822956542,-1.0171335379229944,-0.04270536104311162
1708440625.1691277,-1.1060681343078613,-1.6813599071898402,-2.526442352925436,2.281745596522949,-1.0171411673175257,-0.042730156575338185
1708440625.1710832,-1.1060433387756348,-1.6814137897887171,-2.5264976660357874,2.2817084032246093,-1.0171573797809046,-0.04276734987367803
1708440625.1730895,-1.1060476303100586,-1.6814919910826625,-2.5264888445483606,2.2816874223896484,-1.0171502272235315,-0.042730156575338185
1708440625.1751142,-1.1059857606887817,-1.6813675365843714,-2.5264573732959192,2.2816378313251953,-1.017115894948141,-0.04276734987367803
1708440625.1770809,-1.1060194969177246,-1.6814137897887171,-2.52649170557131,2.2817084032246093,-1.0171573797809046,-0.04279977480043584
1708440625.1790822,-1.1060606241226196,-1.6814166508116664,-2.526503864918844,2.281729145640991,-1.0171573797809046,-0.04277021089662725
1708440625.181071,-1.1060314178466797,-1.6813675365843714,-2.526499334965841,2.2816919523426513,-1.017144028340475,-0.04274160066713506
1708440625.1830866,-1.1060562133789062,-1.6814304790892542,-2.526482645665304,2.2817203241535644,-1.0171693007098597,-0.04275876680483037
1708440625.185117,-1.106006383895874,-1.6814381084837855,-2.526553217564718,2.2816757398792724,-1.0171650091754358,-0.04274636903871709
1708440625.187081,-1.1060270071029663,-1.6814137897887171,-2.5265279451953333,2.281712694759033,-1.0171411673175257,-0.04278690019716436
1708440625.1890588,-1.1060194969177246,-1.6814304790892542,-2.52656060854067,2.281750126475952,-1.017176930104391,-0.042754475270406544
1708440625.1910667,-1.1060280799865723,-1.6813723049559535,-2.5265517870532435,2.281717224712036,-1.0171812216388147,-0.04276591936220342
1708440625.1930852,-1.1060237884521484,-1.6814185581602992,-2.5265889803515833,2.2816919523426513,-1.017139736806051,-0.042754475270406544
1708440625.195061,-1.1059901714324951,-1.6814257107176722,-2.5265756289111536,2.2817248541065673,-1.0172012487994593,-0.0427783171283167
1708440625.197083,-1.1060433387756348,-1.6814052067198695,-2.5265591780291956,2.2816919523426513,-1.0172103087054651,-0.042753044758931935
1708440625.199117,-1.1059988737106323,-1.6813932857909144,-2.526587788258688,2.2816459375568847,-1.017167870198385,-0.04282695451845342
1708440625.2010632,-1.1060314178466797,-1.6814123592772425,-2.526604477559225,2.281705303783081,-1.017176930104391,-0.04272491136659795
1708440625.203078,-1.1060768365859985,-1.6814500294127406,-2.5265710989581507,2.2816919523426513,-1.017148796712057,-0.04278690019716436
1708440625.205093,-1.1060237884521484,-1.6813732586302699,-2.526604477559225,2.281717224712036,-1.017172638569967,-0.04279786745180303
1708440625.2071013,-1.1059869527816772,-1.6813794575133265,-2.526637379323141,2.281750126475952,-1.017160717641012,-0.04270822206606084
1708440625.2090735,-1.1060270071029663,-1.6813975773253382,-2.526578728352682,2.2816964822956542,-1.017167870198385,-0.04276591936220342
1708440625.2110648,-1.1060357093811035,-1.6814466915526332,-2.526599947606222,2.281689091319702,-1.01719838777651,-0.04276591936220342
1708440625.2131135,-1.1060314178466797,-1.6814137897887171,-2.5265982786761683,2.2816919523426513,-1.017160717641012,-0.04276591936220342
1708440625.2151031,-1.1060606241226196,-1.6813723049559535,-2.526599947606222,2.2817038732716064,-1.0171812216388147,-0.042753044758931935
1708440625.2171402,-1.1060357093811035,-1.6814214191832484,-2.526578728352682,2.281693621272705,-1.0171650091754358,-0.04275733629335576
1708440625.219098,-1.1060280799865723,-1.6814052067198695,-2.52661639848818,2.2817129331776123,-1.0171850363360804,-0.04278690019716436
1708440625.2210853,-1.1060152053833008,-1.6814590893187464,-2.5265710989581507,2.281701012248657,-1.017176930104391,-0.04279452959169561
1708440625.223085,-1.1060118675231934,-1.681389947930807,-2.526578728352682,2.2816876608082275,-1.017214600239889,-0.04281074205507451
1708440625.2251072,-1.1060519218444824,-1.6813723049559535,-2.526569668446676,2.2816592889973144,-1.0171878973590296,-0.04282266298402959
1708440625.2270987,-1.1060031652450562,-1.6813904247679652,-2.526586357747213,2.2817746835895996,-1.0172293821917933,-0.042791191731588185
1708440625.2290833,-1.1060280799865723,-1.681422849694723,-2.526628319417135,2.2816638189503173,-1.0172341505633753,-0.04272920290102178
1708440625.2310858,-1.1060519218444824,-1.6814094982542933,-2.526611868535177,2.2817067342945556,-1.0172012487994593,-0.04279452959169561
1708440625.2330933,-1.1060237884521484,-1.6813813648619593,-2.526637379323141,2.281717224712036,-1.0171878973590296,-0.04278690019716436
1708440625.2351053,-1.1060400009155273,-1.6813794575133265,-2.526590887700216,2.281651182765625,-1.0172207991229456,-0.04276591936220342
1708440625.2370796,-1.1060237884521484,-1.6814424000182093,-2.526595417653219,2.2817129331776123,-1.0172699133502405,-0.042754475270406544
1708440625.2390625,-1.1059999465942383,-1.6814094982542933,-2.5265665690051478,2.2817367750355224,-1.0172579924212855,-0.04278594652284795
1708440625.2410717,-1.1060367822647095,-1.6814514599242152,-2.526595417653219,2.2817248541065673,-1.0172413031207483,-0.04281074205507451
1708440625.2430515,-1.1060161590576172,-1.6814052067198695,-2.526574198399679,2.2816333013721923,-1.0172532240497034,-0.04276162782777959
1708440625.2450786,-1.1059999465942383,-1.6814333401122035,-2.526595417653219,2.2816831308552246,-1.0172279516803187,-0.04273349443544561
1708440625.247064,-1.1059837341308594,-1.6814466915526332,-2.526607338582174,2.281646652812622,-1.0172770659076136,-0.04278260866274053
1708440625.2490964,-1.1060043573379517,-1.681422849694723,-2.5265710989581507,2.281733675593994,-1.0172117392169397,-0.04277402559389287
1708440625.2510633,-1.1060324907302856,-1.6814304790892542,-2.526628319417135,2.2816592889973144,-1.0172532240497034,-0.04274160066713506
1708440625.253079,-1.1059538125991821,-1.681434770623678,-2.526607338582174,2.2816919523426513,-1.0172579924212855,-0.0427783171283167
1708440625.2550724,-1.1060194969177246,-1.6814466915526332,-2.526599947606222,2.281684561366699,-1.0172699133502405,-0.04278260866274053
1708440625.2570837,-1.106004238128662,-1.681434770623678,-2.526587788258688,2.2817129331776123,-1.0172327200519007,-0.04276162782777959
1708440625.2590702,-1.105971097946167,-1.6814381084837855,-2.526599947606222,2.281717224712036,-1.017268482838766,-0.0427783171283167
1708440625.2610762,-1.1060205698013306,-1.6814304790892542,-2.526625458394186,2.2816592889973144,-1.0172770659076136,-0.04280311266054326
1708440625.2630947,-1.1059999465942383,-1.6814662418761195,-2.5265665690051478,2.281689091319702,-1.017231289540426,-0.042806450520650685
1708440625.2650735,-1.1060118675231934,-1.6814004383482875,-2.526590887700216,2.2816666799732666,-1.0172398726092737,-0.04274589220155889
1708440625.267116,-1.1059880256652832,-1.6814257107176722,-2.5265665690051478,2.2817203241535644,-1.017280403767721,-0.042769734059469044
1708440625.2690551,-1.1059925556182861,-1.681422849694723,-2.526602808629171,2.2816919523426513,-1.0173223654376429,-0.0427783171283167
1708440625.2710555,-1.106032371520996,-1.6814424000182093,-2.526583258305685,2.281642122859619,-1.017280403767721,-0.04283029237856084
1708440625.2730742,-1.106024980545044,-1.6814304790892542,-2.52661639848818,2.2816800314136962,-1.017313305531637,-0.04282266298402959
1708440625.2750664,-1.1059999465942383,-1.681422849694723,-2.5265801588641565,2.281714602107666,-1.0172928015338343,-0.0428388754474085
1708440625.2771728,-1.1060118675231934,-1.6813765964903773,-2.526619259511129,2.2816757398792724,-1.017313305531637,-0.04273730913271123
1708440625.279098,-1.106024980545044,-1.6813794575133265,-2.526569906865255,2.281668110484741,-1.017334286366598,-0.04284984270204717
1708440625.2810724,-1.1059837341308594,-1.6814638576903285,-2.526590887700216,2.2816800314136962,-1.0173299948321741,-0.04280120531191045
1708440625.2830558,-1.1060088872909546,-1.6814304790892542,-2.526611868535177,2.281721754665039,-1.0173299948321741,-0.042814079915181935
1708440625.2850652,-1.10599684715271,-1.6814424000182093,-2.526553217564718,2.281655712718628,-1.017306152974264,-0.04278928438295537
1708440625.2870767,-1.1059386730194092,-1.6813885174193324,-2.52661639848818,2.2816964822956542,-1.0173118750201624,-0.04283458391298467
1708440625.289063,-1.105971097946167,-1.681347986260885,-2.526587788258688,2.2816800314136962,-1.0172637144671839,-0.04284984270204717
1708440625.291085,-1.105958104133606,-1.6814094982542933,-2.52661639848818,2.281684561366699,-1.017325226460592,-0.042862717305318654
1708440625.2931168,-1.1060043573379517,-1.6814094982542933,-2.526628319417135,2.281668110484741,-1.017318073903219,-0.04282600084413701
1708440625.295116,-1.1059880256652832,-1.6814466915526332,-2.526653830205099,2.281701012248657,-1.01723558107485,-0.042854134236471
1708440625.2970533,-1.105972409248352,-1.6813904247679652,-2.526644531880514,2.2816340166279296,-1.0172713438617151,-0.04281741777528936
1708440625.2990677,-1.1059880256652832,-1.6814381084837855,-2.52661639848818,2.281672640437744,-1.017313305531637,-0.04285794893373662
1708440625.301086,-1.1060130596160889,-1.6813932857909144,-2.5265982786761683,2.2816638189503173,-1.017268482838766,-0.04291850725282842
1708440625.3030941,-1.105954885482788,-1.6814214191832484,-2.5265653769122522,2.2816800314136962,-1.017268482838766,-0.04290181795229131
1708440625.305048,-1.1059430837631226,-1.6814681492247523,-2.526623789464132,2.281698389644287,-1.0172889868365687,-0.04291755357851201
1708440625.3070667,-1.1059799194335938,-1.6814304790892542,-2.5265939871417444,2.2816013532825927,-1.0173104445086878,-0.04291755357851201
1708440625.3090456,-1.1059386730194092,-1.6814052067198695,-2.526602808629171,2.2816964822956542,-1.017318073903219,-0.04295856157411748
1708440625.3110623,-1.1060011386871338,-1.6814290485777796,-2.526590887700216,2.2816738325306396,-1.0172517935382288,-0.042974297200338185
1708440625.313121,-1.1059355735778809,-1.6813723049559535,-2.526583258305685,2.281668110484741,-1.017280403767721,-0.04296571413149053
1708440625.3150816,-1.1059637069702148,-1.6813885174193324,-2.526628319417135,2.281698389644287,-1.017280403767721,-0.04301768938173467
1708440625.3170924,-1.1059186458587646,-1.681364198724264,-2.526578728352682,2.28176395475354,-1.0173385779010218,-0.043041531239644826
1708440625.3190646,-1.1059637069702148,-1.6814590893187464,-2.52661639848818,2.2816693025776367,-1.017297093068258,-0.04307777086366826
1708440625.321051,-1.1059443950653076,-1.6813723049559535,-2.526632610951559,2.2816268640705566,-1.017313305531637,-0.04310208955873662
1708440625.3230665,-1.1059799194335938,-1.6814004383482875,-2.526599947606222,2.2816433149525146,-1.017313305531637,-0.04312116304506475
1708440625.3250551,-1.1059398651123047,-1.6814004383482875,-2.526599947606222,2.281689091319702,-1.0173090139972132,-0.04317027727235967
1708440625.3270755,-1.1059517860412598,-1.6814094982542933,-2.526599947606222,2.2816359239765625,-1.017275635396139,-0.043157402669088185
1708440625.3291442,-1.1059679985046387,-1.6814094982542933,-2.526562039052145,2.2816478449055175,-1.017313305531637,-0.043238464985982716
1708440625.3310494,-1.1058905124664307,-1.6814004383482875,-2.526637379323141,2.2816433149525146,-1.0173419157611292,-0.043246094380513966
1708440625.333098,-1.1058861017227173,-1.6814705334105433,-2.526590887700216,2.2815894323536376,-1.0172713438617151,-0.04330760637392217
1708440625.335099,-1.1059443950653076,-1.6814137897887171,-2.526569906865255,2.2816647726246337,-1.017318073903219,-0.043297592793599904
1708440625.337083,-1.1059443950653076,-1.6814214191832484,-2.526553217564718,2.281681938762329,-1.0173209349261683,-0.043334309254781544
1708440625.3390644,-1.1059229373931885,-1.6814638576903285,-2.52661639848818,2.2816430765339355,-1.017325226460592,-0.043361965809957326
1708440625.341046,-1.1059529781341553,-1.6813842258849085,-2.526586357747213,2.281660242671631,-1.0172999540912073,-0.0434187094317835
1708440625.3430765,-1.1059443950653076,-1.6814457378783167,-2.526637140904562,2.281655712718628,-1.017297093068258,-0.04340535799135381
1708440625.3450959,-1.1059317588806152,-1.6813885174193324,-2.526595417653219,2.281661196345947,-1.0172880331622522,-0.04347402254213506
1708440625.3470683,-1.1059155464172363,-1.6814905605711878,-2.5265665690051478,2.2816359239765625,-1.017301384602682,-0.043465439473287404
1708440625.3490689,-1.1059036254882812,-1.6813975773253382,-2.526602808629171,2.2816220956989746,-1.017325226460592,-0.043509785329000294
1708440625.3510685,-1.1059229373931885,-1.6813675365843714,-2.52661639848818,2.281684561366699,-1.017313305531637,-0.0435412565814417
1708440625.3530698,-1.1058993339538574,-1.6813794575133265,-2.526607338582174,2.2816385465809326,-1.0173209349261683,-0.043556992207662404
1708440625.3550866,-1.105928659439087,-1.6814052067198695,-2.526637140904562,2.281660242671631,-1.0173047224627894,-0.043618027363912404
1708440625.3570898,-1.105896234512329,-1.681434770623678,-2.526623789464132,2.2816693025776367,-1.0172928015338343,-0.04362041154970342
1708440625.3590868,-1.105896234512329,-1.6814137897887171,-2.526611868535177,2.2816478449055175,-1.017325226460592,-0.04372865358461553
1708440625.3610613,-1.1059373617172241,-1.6814166508116664,-2.526590887700216,2.2816523748585205,-1.017275635396139,-0.043769661580221
1708440625.3631015,-1.1059048175811768,-1.6814466915526332,-2.526557509099142,2.2816240030476074,-1.0173047224627894,-0.04380828539003545
1708440625.3650632,-1.105896234512329,-1.6814424000182093,-2.52664024034609,2.2816240030476074,-1.0172837416278284,-0.04386884370912725
1708440625.3670878,-1.1058498620986938,-1.6814257107176722,-2.526604477559225,2.281600161189697,-1.0173166433917444,-0.04392129579652959
1708440625.3690903,-1.1058467626571655,-1.6813932857909144,-2.526602808629171,2.2816449838825683,-1.017325226460592,-0.0439685026751917
1708440625.3710587,-1.10587477684021,-1.6814381084837855,-2.526587788258688,2.2815868097492675,-1.0172928015338343,-0.04399139085878545
1708440625.3730745,-1.10587477684021,-1.6813303432860316,-2.526599947606222,2.2815791803547363,-1.0173047224627894,-0.04415303865541631
1708440625.3750625,-1.105851173400879,-1.6814052067198695,-2.526602808629171,2.281563921565674,-1.0173090139972132,-0.04419309297670537
1708440625.3770645,-1.105863094329834,-1.6814004383482875,-2.526602808629171,2.2815727430531005,-1.0173090139972132,-0.04430610338319951
1708440625.3790567,-1.1058554649353027,-1.6814333401122035,-2.526607338582174,2.2815236288258056,-1.0173090139972132,-0.04429942766298467
1708440625.3810687,-1.1058305501937866,-1.6814214191832484,-2.526607338582174,2.2815281587788085,-1.0172622839557093,-0.04442006746401006
1708440625.3831022,-1.1058305501937866,-1.6814214191832484,-2.526619259511129,2.2815729814716796,-1.0173209349261683,-0.044495407735006154
1708440625.3850636,-1.1058359146118164,-1.6813794575133265,-2.526590887700216,2.2815133768269042,-1.017334286366598,-0.04460508028139287
1708440625.3870637,-1.105851173400879,-1.6813675365843714,-2.526649061833517,2.2815791803547363,-1.017280403767721,-0.044716660176412404
1708440625.3890705,-1.1058348417282104,-1.6814333401122035,-2.52661639848818,2.2815207678028564,-1.0173118750201624,-0.044808212910787404
1708440625.3910682,-1.1058109998703003,-1.6814123592772425,-2.526611868535177,2.2814664083668212,-1.0172713438617151,-0.04491264024843389
1708440625.3930848,-1.1057990789413452,-1.6814214191832484,-2.526632610951559,2.281470938319824,-1.0173090139972132,-0.04501659074892217
1708440625.395071,-1.1058478355407715,-1.6814304790892542,-2.526574198399679,2.281484528178833,-1.0172670523272913,-0.04514772096742803
1708440625.397111,-1.1058197021484375,-1.6814214191832484,-2.526586357747213,2.281459017390869,-1.0173299948321741,-0.04522306123842412
1708440625.399117,-1.1058239936828613,-1.6814876995482386,-2.526670042668478,2.281534357661865,-1.0173047224627894,-0.04533082643617803
1708440625.4011421,-1.1058447360992432,-1.6814705334105433,-2.5265939871417444,2.281501455897949,-1.01725942293276,-0.04547578493227178
1708440625.4031014,-1.1057953834533691,-1.6814333401122035,-2.526656452809469,2.2815133768269042,-1.0173419157611292,-0.04563600221742803
1708440625.405067,-1.1058077812194824,-1.6814457378783167,-2.526607338582174,2.281451626414917,-1.0172551313983362,-0.04577953020204717
1708440625.4070914,-1.1058210134506226,-1.6814457378783167,-2.526578728352682,2.281447096461914,-1.0172880331622522,-0.04594451585878545
1708440625.4090788,-1.1057791709899902,-1.6814614735045375,-2.526604477559225,2.28145615636792,-1.0172928015338343,-0.04609138170351201
1708440625.411065,-1.105771541595459,-1.681474348107809,-2.526583258305685,2.281377001399658,-1.0173385779010218,-0.04624349275697881
1708440625.4131603,-1.1057791709899902,-1.6814381084837855,-2.5265665690051478,2.281427784557007,-1.0172928015338343,-0.04640704790224248
1708440625.4151154,-1.105771541595459,-1.6814457378783167,-2.526587788258688,2.281383200282715,-1.017318073903219,-0.04655915895570928
1708440625.4171329,-1.105787754058838,-1.6814500294127406,-2.5265665690051478,2.281427784557007,-1.017275635396139,-0.04673129716982061
1708440625.4190948,-1.105771541595459,-1.6814500294127406,-2.526562039052145,2.2814714151569824,-1.0172846953021448,-0.04689914384950811
1708440625.421103,-1.105743408203125,-1.6814080677428187,-2.526587788258688,2.2813541132160644,-1.0173090139972132,-0.04703742662538701
1708440625.423076,-1.105743408203125,-1.681474348107809,-2.5265501181231897,2.281367703075073,-1.0173299948321741,-0.047241989766256154
1708440625.4250703,-1.1057238578796387,-1.681436677972311,-2.526562039052145,2.2814058500477294,-1.017297093068258,-0.0474169890033167
1708440625.4270885,-1.1057606935501099,-1.6814829311766566,-2.526604477559225,2.281355782146118,-1.017297093068258,-0.04764920869936162
1708440625.4290636,-1.1057164669036865,-1.6814333401122035,-2.526604477559225,2.281352921123169,-1.0173090139972132,-0.04784900346864873
1708440625.4311059,-1.1057195663452148,-1.6815158329405726,-2.526587788258688,2.281327410335205,-1.017301384602682,-0.048012558613912404
1708440625.4330966,-1.105650782585144,-1.6814786396422328,-2.526574198399679,2.281320019359253,-1.0172770659076136,-0.04828864732851201
1708440625.4350665,-1.105691909790039,-1.681436677972311,-2.526587788258688,2.281364842052124,-1.0172608534442347,-0.04844791093935186
1708440625.4370635,-1.105691909790039,-1.6814457378783167,-2.5265501181231897,2.2812790113636474,-1.0173195044146937,-0.04870826402773076
1708440625.439066,-1.1056474447250366,-1.6815444431700648,-2.526604477559225,2.281303806895874,-1.0172532240497034,-0.04892331758608037
1708440625.4410565,-1.1056442260742188,-1.681502481500143,-2.5265756289111536,2.2813126283833007,-1.0172770659076136,-0.04918271700014287
1708440625.4431221,-1.105590581893921,-1.6814772091307582,-2.526553217564718,2.281297131175659,-1.0172370115863245,-0.049442593251363576
1708440625.4450576,-1.1055991649627686,-1.681531091729635,-2.526599947606222,2.2812511163898925,-1.0172579924212855,-0.049657646809713185
1708440625.4470956,-1.1055829524993896,-1.681497713128561,-2.526574198399679,2.281248016948364,-1.0171878973590296,-0.04994184175600225
1708440625.4490616,-1.1055917739868164,-1.6814891300597132,-2.526590887700216,2.281245155925415,-1.017205540333883,-0.05022174516786748
1708440625.451063,-1.1056123971939087,-1.68150057415151,-2.526607338582174,2.2811998563953857,-1.0171878973590296,-0.05046111742128545
1708440625.4530613,-1.1055766344070435,-1.6815453968443812,-2.526619259511129,2.2811805444904785,-1.0172088781939905,-0.050724331532613576
1708440625.4550765,-1.1055517196655273,-1.6815997562804164,-2.526562039052145,2.2812222677418212,-1.0172341505633753,-0.05094319978822881
1708440625.4570775,-1.105560302734375,-1.6815773449339808,-2.526574198399679,2.2811476427265625,-1.0172293821917933,-0.05121499696840459
1708440625.4590435,-1.1055152416229248,-1.6815773449339808,-2.526569906865255,2.2811240392872314,-1.017205540333883,-0.051543537770406544
1708440625.4610617,-1.1055035591125488,-1.6815577946104945,-2.526609007512228,2.281099482173584,-1.0172012487994593,-0.05178672472109014
1708440625.4630694,-1.1055152416229248,-1.681601186791891,-2.526599947606222,2.2811130720325927,-1.0171592871295374,-0.052053276692525685
1708440625.4650831,-1.1055035591125488,-1.68158020595693,-2.526578728352682,2.2810563284107666,-1.0171893278705042,-0.05236179033388311
1708440625.467114,-1.1055152416229248,-1.6816250286498011,-2.5265710989581507,2.281042976970337,-1.0171850363360804,-0.05264932314027959
1708440625.4690557,-1.1054514646530151,-1.681676527062887,-2.526604477559225,2.2810281950184326,-1.017172638569967,-0.052948776875631154
1708440625.4710524,-1.1054590940475464,-1.6816374264159144,-2.5265262762652796,2.2810653883167724,-1.0171716848956507,-0.053252522145406544
1708440625.4730554,-1.1054428815841675,-1.6816326580443324,-2.526609007512228,2.28101555883374,-1.0171893278705042,-0.05362445512880498
1708440625.4750602,-1.1054644584655762,-1.6816326580443324,-2.5265923182116907,2.2810401159473876,-1.0171635786639612,-0.05390340486635381
1708440625.477061,-1.1054644584655762,-1.6816612682738246,-2.5265381971942347,2.281012697810791,-1.0171850363360804,-0.054227654133931935
1708440625.479081,-1.1054234504699707,-1.68162264446401,-2.5265219847308558,2.280984325999878,-1.0171516577350062,-0.05454618135561162
1708440625.4810624,-1.1054571866989136,-1.6816894016661585,-2.526587788258688,2.2810095983692626,-1.017193619404928,-0.05489474931825811
1708440625.4830604,-1.105432152748108,-1.6817642650999964,-2.5265517870532435,2.2810351091572265,-1.0171902815448206,-0.055196587239400685
1708440625.485061,-1.1054115295410156,-1.6817509136595667,-2.5265472571002405,2.2810305792042236,-1.0171693007098597,-0.05553275743593389
1708440625.4870446,-1.1053670644760132,-1.681741853753561,-2.5266178289996546,2.2809933859058837,-1.0171368757831019,-0.055884663258687794
1708440625.489083,-1.1053307056427002,-1.6817208729186,-2.5265756289111536,2.280899925822876,-1.0171411673175257,-0.05621558824648076
1708440625.4910398,-1.1053276062011719,-1.6817957363524378,-2.526512686406271,2.2808686929890136,-1.0171082655536097,-0.056567017232076466
1708440625.4930873,-1.105308175086975,-1.681758543054098,-2.5265353361712855,2.2808353143879394,-1.0171635786639612,-0.056914631520406544
1708440625.4950697,-1.1052788496017456,-1.681728025475973,-2.5265923182116907,2.2808777528950195,-1.0170963446246546,-0.05729037920107061
1708440625.497086,-1.1052592992782593,-1.6817237339415492,-2.5265381971942347,2.2807623583027343,-1.0171306769000452,-0.05766421953310186
1708440625.4990728,-1.1052886247634888,-1.6817318401732386,-2.5265591780291956,2.2808188635059814,-1.0171054045306605,-0.05802280107607061
1708440625.5011086,-1.1052186489105225,-1.6817523441710414,-2.5265336672412317,2.280780239696167,-1.0171096960650843,-0.05836850801576787
1708440625.5030653,-1.1052606105804443,-1.6817847690977992,-2.5265262762652796,2.2807394701191406,-1.017048184071676,-0.05886823335756475
1708440625.5050604,-1.1051753759384155,-1.6817385158934535,-2.5265427271472376,2.2807230192371826,-1.0170601050006312,-0.05914813676942998
1708440625.5070636,-1.1051721572875977,-1.6817928753294886,-2.5265472571002405,2.2807440000721435,-1.017102066670553,-0.059560600911275685
1708440625.509087,-1.1051634550094604,-1.6817556820311488,-2.5265381971942347,2.2807158666798095,-1.017057243977682,-0.05991107622255498
1708440625.5110674,-1.1051509380340576,-1.681746622125143,-2.5265188852893274,2.2806920248218994,-1.0170858542071741,-0.060351196919576466
1708440625.513108,-1.1051435470581055,-1.6818300686278285,-2.5265234152423304,2.280688925380371,-1.0170157591449183,-0.060798470173971
1708440625.5150766,-1.1051446199417114,-1.6818539104857386,-2.5264902750598353,2.280677004451416,-1.017069164906637,-0.061180893574849904
1708440625.5170753,-1.105157494544983,-1.6817294559874476,-2.5264902750598353,2.2806646066853027,-1.017020050679342,-0.0616381804095667
1708440625.5190747,-1.1050795316696167,-1.6818496189513148,-2.526473585759298,2.2806333738514404,-1.0170171896563929,-0.0620043913470667
1708440625.5210783,-1.1050639152526855,-1.681868692437643,-2.526499334965841,2.2806495863148193,-1.0170171896563929,-0.06247264543642217
1708440625.5231006,-1.1050593852996826,-1.681831499139303,-2.526466194783346,2.280597611064575,-1.0169604460345667,-0.062904183064596
1708440625.5251102,-1.1050119400024414,-1.6818272076048792,-2.5264843145953577,2.280581160182617,-1.016965691243307,-0.06332761446108037
1708440625.5271277,-1.105035662651062,-1.681899210015768,-2.5264256636248987,2.2804793554493408,-1.016928497944967,-0.06377107301820928
1708440625.5291045,-1.104979395866394,-1.6818844280638636,-2.5264347235309046,2.280512257213257,-1.0169628302203577,-0.06423932710756475
1708440625.5310786,-1.1050456762313843,-1.6819259128966273,-2.5264318625079554,2.2805418211170654,-1.0169747511493128,-0.06464893022646123
1708440625.5330796,-1.1049549579620361,-1.6818725071349085,-2.5264301935779017,2.2804793554493408,-1.016965691243307,-0.06509191194643194
1708440625.5351038,-1.104988694190979,-1.6818767986693324,-2.5264228026019495,2.2805136877247314,-1.016965691243307,-0.06553966203798467
1708440625.5370831,-1.1049275398254395,-1.6819411716856898,-2.5263779799090784,2.28048483907666,-1.0169242064105433,-0.06599361101259404
1708440625.539064,-1.1049649715423584,-1.6820117435851039,-2.526428524647848,2.280510826701782,-1.0169780890094202,-0.06646663347353154
1708440625.5410564,-1.1049405336380005,-1.682014604608053,-2.5263822714435022,2.28042380392041,-1.016965691243307,-0.06690532365907842
1708440625.5431306,-1.104849934577942,-1.682009836236471,-2.5263660589801233,2.2804834085651855,-1.016937557850973,-0.06746465364565069
1708440625.5450919,-1.104849934577942,-1.6820503673949183,-2.526407782231466,2.280453606242798,-1.0169122854815882,-0.06790429750551397
1708440625.5470986,-1.1048917770385742,-1.6819964847960414,-2.52637488046755,2.2803968626209716,-1.016916577016012,-0.06841642061342412
1708440625.5490644,-1.1048791408538818,-1.6820217571654261,-2.526367489491598,2.2803754049488525,-1.0168975035296839,-0.06886703172792608
1708440625.5510623,-1.1048836708068848,-1.6820084057249964,-2.526404682789938,2.2803515630909423,-1.016921345387594,-0.06933433214296514
1708440625.5530825,-1.104905366897583,-1.682016511956686,-2.5263598600970667,2.280320568675659,-1.0168841520892542,-0.06987029710878545
1708440625.5550644,-1.1048436164855957,-1.6820441685118617,-2.526383940373556,2.280369682902954,-1.0168941656695765,-0.07034475008119756
1708440625.5571086,-1.1048121452331543,-1.6819950542845667,-2.526372019444601,2.280329390163086,-1.0168941656695765,-0.07084399858583623
1708440625.5590901,-1.104803442955017,-1.6820231876769007,-2.526329580937521,2.2803665834614257,-1.0168731848346155,-0.0713112990008753
1708440625.5610573,-1.1047672033309937,-1.6820889912047328,-2.526358429585592,2.2802631097980957,-1.0168493429767054,-0.07182246843446904
1708440625.563107,-1.1047672033309937,-1.6820394001402796,-2.5263477007495325,2.2802812296101074,-1.0168817679034632,-0.07229739824403936
1708440625.565102,-1.104800820350647,-1.6820832691588343,-2.5263267199145716,2.2802321153828125,-1.0168417135821741,-0.07282144228090459
1708440625.567075,-1.1047682762145996,-1.682150503198141,-2.5263267199145716,2.2802321153828125,-1.0168865362750452,-0.07330447832216436
1708440625.5690596,-1.1047195196151733,-1.682101388970846,-2.526372019444601,2.280217095012329,-1.0168164412127894,-0.07378703752626592
1708440625.571077,-1.1047282218933105,-1.6821462116637171,-2.5263686815844935,2.28019563734021,-1.016817871724264,-0.07422525087465459
1708440625.5730765,-1.1046669483184814,-1.6820861301817835,-2.526329580937521,2.280200167293213,-1.016817871724264,-0.0747445265399378
1708440625.5750816,-1.104729413986206,-1.6820699177184046,-2.5263431707965296,2.2801927763172607,-1.0167883078204554,-0.07527238527406865
1708440625.5770903,-1.104691982269287,-1.6821571789183558,-2.5263176600085657,2.2801565366932373,-1.016796890889303,-0.07575017610658819
1708440625.5791025,-1.104681134223938,-1.6821190319456996,-2.5263477007495325,2.2801689344593505,-1.0167205969439905,-0.07627851167787725
1708440625.5810714,-1.1046475172042847,-1.6821252308287562,-2.5263267199145716,2.28016106664624,-1.0167787710772913,-0.07675010362734014
1708440625.5830848,-1.1046485900878906,-1.6821614704527796,-2.5263431707965296,2.280103846187256,-1.0167773405658167,-0.07724458376039678
1708440625.5850613,-1.1046693325042725,-1.6821571789183558,-2.5263808409320276,2.2800964552113037,-1.0167697111712855,-0.077735726033346
1708440625.587065,-1.1046154499053955,-1.6821571789183558,-2.5263477007495325,2.280054731959961,-1.0167830626117151,-0.07828027406801397
1708440625.5890553,-1.104575514793396,-1.6821547947325648,-2.5263477007495325,2.2800652223774414,-1.0167787710772913,-0.07876283327211553
1708440625.5910733,-1.1046037673950195,-1.68217196087026,-2.5263403097735804,2.279998942012451,-1.0167220274554651,-0.07926589647401983
1708440625.5931199,-1.1045799255371094,-1.6821629009642542,-2.5263147989856165,2.279998942012451,-1.0167549292193812,-0.07976037660707647
1708440625.5950487,-1.1045842170715332,-1.6821876964964808,-2.5263147989856165,2.280028982753418,-1.016763989125387,-0.0802848974810999
1708440625.5970695,-1.1045504808425903,-1.6821919880309046,-2.526361052189962,2.28005497037854,-1.0166967550860804,-0.08082038560976201
1708440625.5990498,-1.1045722961425781,-1.682200094262594,-2.5263147989856165,2.2799767690845947,-1.0166857878314417,-0.08133107820619756
1708440625.6010706,-1.104589819908142,-1.682167192498678,-2.5263267199145716,2.2799977499195556,-1.0166576544391077,-0.08187467256654912
1708440625.6030815,-1.1045153141021729,-1.682216306725973,-2.5263598600970667,2.2799784380146484,-1.0166767279254358,-0.08236152330507451
1708440625.6050858,-1.1045496463775635,-1.6822363338866175,-2.5263074080096644,2.2799901205250244,-1.0166457335101526,-0.08281976381410772
1708440625.6070743,-1.1045453548431396,-1.6822120151915492,-2.5263312498675745,2.2799619871326904,-1.0166662375079554,-0.08334380785097295
1708440625.6090667,-1.1045033931732178,-1.6821958027281703,-2.5262983481036585,2.279937668437622,-1.0166948477374476,-0.08383781114687139
1708440625.6110647,-1.1044634580612183,-1.6821910343565882,-2.526344601308004,2.279949589366577,-1.0166834036456507,-0.08432037035097295
1708440625.6130838,-1.1044970750808716,-1.6822239361205042,-2.5263357798205774,2.279867573375366,-1.0166834036456507,-0.08474332491029912
1708440625.6150746,-1.1044515371322632,-1.6821867428221644,-2.5263193289386194,2.279880924815796,-1.0165961424456995,-0.0852435270892542
1708440625.617093,-1.104468822479248,-1.682228227654928,-2.5263074080096644,2.279885454768799,-1.0166381041156214,-0.08574802080263311
1708440625.6191769,-1.1044483184814453,-1.6822477779784144,-2.526337448750631,2.2798570829578857,-1.0166171232806605,-0.08621341386903936
1708440625.621083,-1.1044235229492188,-1.6822363338866175,-2.526259247456686,2.279885454768799,-1.0166423956500452,-0.08670169511903936
1708440625.6231124,-1.1044071912765503,-1.6822344265379847,-2.526259247456686,2.279841824168823,-1.0165975729571741,-0.0871971289264124
1708440625.6250842,-1.1044365167617798,-1.6822806797423304,-2.526262346898214,2.2798072534748535,-1.0165861288653772,-0.08764774004091436
1708440625.6272376,-1.1044039726257324,-1.6822849712767542,-2.526233736668722,2.2797953325458984,-1.0165861288653772,-0.0881431738482874
1708440625.6291432,-1.1044082641601562,-1.6822453937926234,-2.5262637774096888,2.279829903239868,-1.016590420399801,-0.08853751817812139
1708440625.631089,-1.1043144464492798,-1.682246824304098,-2.52622634569277,2.279858275050781,-1.016594711934225,-0.08898479143251592
1708440625.6331022,-1.1043963432312012,-1.6822759113707484,-2.5262113253222864,2.2797607618519287,-1.016599480305807,-0.08950454393495733
1708440625.6351092,-1.1043682098388672,-1.682279726068014,-2.5261572043048304,2.279735251063965,-1.016540829335348,-0.09002143541444951
1708440625.6371214,-1.104335069656372,-1.682274957696432,-2.526170794163839,2.2797443109699707,-1.0165584723102015,-0.09040671983827764
1708440625.6390781,-1.10432767868042,-1.6823002300658167,-2.526163403187887,2.2797443109699707,-1.016540829335348,-0.09086591402162725
1708440625.6410754,-1.1043481826782227,-1.6823035679259242,-2.5261662642108362,2.2797207075306396,-1.016599480305807,-0.09138232866396123
1708440625.6431448,-1.1043081283569336,-1.682279726068014,-2.5261917749988,2.2797369199940185,-1.0165703932391565,-0.09185773531068975
1708440625.6450753,-1.10432767868042,-1.682291646996969,-2.526188913975851,2.2796713548847656,-1.0165212790118616,-0.09231979051698858
1708440625.6470916,-1.1042842864990234,-1.6823364696898402,-2.526163403187887,2.2797295290180664,-1.0165212790118616,-0.09275895753969365
1708440625.6490915,-1.1043200492858887,-1.6823035679259242,-2.526126209889547,2.2797340589710693,-1.0165007750140589,-0.09320670763124639
1708440625.6510851,-1.1042262315750122,-1.6823679409422816,-2.526130501423971,2.27967278539624,-1.0165513197528284,-0.09365350404848272
1708440625.6531029,-1.1043092012405396,-1.6823107204832972,-2.526146952305929,2.279735727901123,-1.0165141264544886,-0.09409648576845342
1708440625.6550748,-1.1042680740356445,-1.6823679409422816,-2.526101891194479,2.279677315349243,-1.0164855162249964,-0.09461719194521123
1708440625.6570888,-1.104230523109436,-1.6824380360045375,-2.526160542164938,2.279632015819214,-1.0164945761310022,-0.09499532381166631
1708440625.6590726,-1.1042649745941162,-1.6824256382384242,-2.526176993046896,2.2796129423328857,-1.0164735952960413,-0.09546214738954717
1708440625.6610668,-1.104219913482666,-1.6823798618712367,-2.526113573704855,2.2795933920093994,-1.01646596590151,-0.09589273134340459
1708440625.6630592,-1.1042534112930298,-1.6824075184264125,-2.52614409128298,2.2796010214039306,-1.0164373556720179,-0.09631663957704717
1708440625.6650982,-1.1042166948318481,-1.6823464832701625,-2.526156012211935,2.279627962703369,-1.0164836088763636,-0.09682113329042608
1708440625.6674037,-1.1041679382324219,-1.682387491265768,-2.526160542164938,2.279561682338379,-1.0164464155780237,-0.09715825716127569
1708440625.669144,-1.1041797399520874,-1.6824618778624476,-2.5261181036578577,2.2795378404804687,-1.0163853804217737,-0.09759790102113897
1708440625.671105,-1.1041884422302246,-1.6824408970274867,-2.5261271635638636,2.2795185285755615,-1.0163896719561976,-0.09808236757387334
1708440625.6730764,-1.1041479110717773,-1.682443758050436,-2.526160542164938,2.2794975477406005,-1.0164106527911585,-0.09842044511903936
1708440625.6750674,-1.1041927337646484,-1.6823941669859828,-2.52614409128298,2.2795213895985107,-1.0163701216327112,-0.0989006201373499
1708440625.6770706,-1.1041390895843506,-1.6824184856810511,-2.5261226336108606,2.2795230585285644,-1.0164168516742151,-0.09934360185732061
1708440625.6790853,-1.1041271686553955,-1.6824232540526332,-2.5261226336108606,2.279477758998535,-1.016395394002096,-0.09982473054994756
1708440625.6810648,-1.10416841506958,-1.6824857197203578,-2.5261181036578577,2.279482288951538,-1.016383473073141,-0.1001818815814417
1708440625.68308,-1.104156494140625,-1.682443758050436,-2.5260987917529505,2.2794079023548584,-1.0163667837726038,-0.10058480898012334
1708440625.685082,-1.1041045188903809,-1.6824633083739222,-2.526128594075338,2.279421253795288,-1.0163386503802698,-0.10102922121156865
1708440625.6870658,-1.1040838956832886,-1.682422777215475,-2.5260897318469446,2.2794181543537597,-1.0163758436786097,-0.10146886507143194
1708440625.6890538,-1.1041618585586548,-1.6824542484679164,-2.5260749498950403,2.279409332866333,-1.0163477102862757,-0.10182315507997686
1708440625.6910715,-1.104105830192566,-1.6824828586974085,-2.5261123816119593,2.2794226843067626,-1.0163357893573206,-0.10223132768739873
1708440625.6931117,-1.1040806770324707,-1.6824289760985316,-2.5260959307300013,2.279381437892578,-1.016322437916891,-0.10255414644350225
1708440625.695806,-1.10403573513031,-1.6824995479979457,-2.526067558919088,2.279393358821533,-1.0163148085223597,-0.10297853151430303
1708440625.6970813,-1.1040563583374023,-1.682507177392477,-2.5260868708239954,2.2793888288685302,-1.0163191000567835,-0.10331660905946904
1708440625.6990764,-1.1040239334106445,-1.6824904880919398,-2.526084009801046,2.279320402736328,-1.0163105169879358,-0.10370523134340459
1708440625.7010949,-1.103995680809021,-1.6825024090208949,-2.526050869618551,2.2793003755756835,-1.0162785688983362,-0.1039956251727503
1708440625.703119,-1.1040118932724,-1.682535310784811,-2.5260794798480433,2.2792958456226806,-1.0162866751300257,-0.10439998308290654
1708440625.7050614,-1.1039668321609497,-1.682526250878805,-2.526097361241476,2.279318256969116,-1.0162742773639124,-0.104743782673971
1708440625.707068,-1.1039217710494995,-1.682507177392477,-2.5260372797595423,2.279306336040161,-1.01628286043276,-0.10514861742128545
1708440625.7090604,-1.1039843559265137,-1.6825462780394496,-2.526008907948629,2.2792767721363525,-1.01628286043276,-0.1054919401751917
1708440625.7110617,-1.1039350032806396,-1.6825753651061,-2.526038948689596,2.279294415111206,-1.016263786946432,-0.1058724562274378
1708440625.713118,-1.1039855480194092,-1.6825505695738734,-2.526059929524557,2.279249830836914,-1.016230885182516,-0.10621196428407842
1708440625.7150826,-1.1039561033248901,-1.6825791798033656,-2.526068989430563,2.2792157369801025,-1.0161741415606897,-0.10653955141176397
1708440625.717077,-1.1039319038391113,-1.6825534305968226,-2.5259862581836146,2.2791880804249267,-1.016214672719137,-0.10685378709901983
1708440625.719089,-1.1039448976516724,-1.6826282940306605,-2.5260329882251185,2.2791897493549804,-1.0161789099322718,-0.10716659227480108
1708440625.7210832,-1.1039361953735352,-1.6825562916197718,-2.5260403792010706,2.2791196542927246,-1.0161855856524866,-0.10751134554018194
1708440625.7231069,-1.1038761138916016,-1.6826263866820277,-2.5259788672076624,2.2791690069385986,-1.0161741415606897,-0.10787469545473272
1708440625.725071,-1.1038917303085327,-1.6826535664000453,-2.5260074774371546,2.2791613775440673,-1.0161922613727015,-0.10810977617372686
1708440625.7270722,-1.1038585901260376,-1.6826640568175257,-2.5260165373431605,2.279174728984497,-1.0162370840655726,-0.10853273073305303
1708440625.7291477,-1.1038923263549805,-1.6826220951476039,-2.5259833971606653,2.279146595592163,-1.0161588827716272,-0.10879928270448858
1708440625.7310863,-1.1038891077041626,-1.6826969585814417,-2.5260301272021692,2.279120607967041,-1.0161545912372034,-0.10908252397646123
1708440625.7331119,-1.1038976907730103,-1.6826969585814417,-2.525954786931173,2.279080553645752,-1.0161750952350062,-0.10943919817079717
1708440625.7350817,-1.1037992238998413,-1.6826549969115199,-2.525996748601095,2.2791146475025634,-1.016156021748678,-0.10969764391054326
1708440625.7370877,-1.103865146636963,-1.682704587975973,-2.525975767766134,2.2790865141102294,-1.016163174306051,-0.10996514955629522
1708440625.7390745,-1.1037746667861938,-1.6826960049071253,-2.525980297719137,2.2790536123463134,-1.016090218220846,-0.11026937166322881
1708440625.741076,-1.103771686553955,-1.6826745472350062,-2.525971237813131,2.279078884715698,-1.0161154905902308,-0.11056262651552373
1708440625.7431254,-1.1037596464157104,-1.6826940975584925,-2.52592641512026,2.279001160258911,-1.0161274115191858,-0.11085445085634404
1708440625.7450864,-1.1037229299545288,-1.6827193699278773,-2.525992457066671,2.279021902675293,-1.0160992781268519,-0.1110766569720667
1708440625.7470982,-1.1038213968276978,-1.6827150783934535,-2.525971237813131,2.27905981122937,-1.0160587469684046,-0.11140233675111944
1708440625.7490778,-1.1037119626998901,-1.6827150783934535,-2.525951925908224,2.278951807613037,-1.0160139242755335,-0.1116860548602503
1708440625.75107,-1.1037694215774536,-1.6827436886229457,-2.525975767766134,2.278989239329956,-1.0160630385028284,-0.11192971864809209
1708440625.7531443,-1.1037037372589111,-1.6827479801573695,-2.525959316884176,2.2790071207233886,-1.0160601774798792,-0.11223775545229131
1708440625.7551093,-1.1037163734436035,-1.6827346287169398,-2.525909964238302,2.2789878088184814,-1.0160110632525843,-0.11241609254945928
1708440625.7571404,-1.103696346282959,-1.6827269993224085,-2.525963846837179,2.278954430217407,-1.0160349051104944,-0.11270028749574834
1708440625.759098,-1.1036931276321411,-1.6827479801573695,-2.52595025697817,2.278893395061157,-1.0160406271563929,-0.11298209825624639
1708440625.7611275,-1.1036443710327148,-1.6828047237791957,-2.525914494191305,2.278873844737671,-1.016036335621969,-0.11320430437196904
1708440625.7631242,-1.1036280393600464,-1.6827298603453578,-2.52596098581423,2.278890295619629,-1.0159900824176233,-0.1134560743915003
1708440625.7650957,-1.103640079498291,-1.6828042469420375,-2.52590257326235,2.2788755136677246,-1.016003433858053,-0.11367637315859014
1708440625.767101,-1.1036356687545776,-1.6827389202513636,-2.525876585637228,2.2788449960895996,-1.0159748236285608,-0.11389238039125615
1708440625.7691414,-1.1036412715911865,-1.6827837429442347,-2.525951925908224,2.2788137632557373,-1.0160215536700647,-0.11408788362611944
1708440625.7710757,-1.103666067123413,-1.6827417812743128,-2.5259116331683558,2.2788712221333007,-1.0159300009356897,-0.11431914964784795
1708440625.7730904,-1.1036198139190674,-1.6828237972655238,-2.5259206930743616,2.278789921397827,-1.0159643332110804,-0.11458808580507451
1708440625.7750542,-1.1035962104797363,-1.6827990017332972,-2.52590257326235,2.278839035625122,-1.0159180800067347,-0.11482841173280889
1708440625.7771118,-1.10357666015625,-1.682777544061178,-2.5259161631213587,2.2788256841846923,-1.0159180800067347,-0.11505347887148076
1708440625.7790613,-1.1035723686218262,-1.6828438244261683,-2.5258992354022425,2.2787810999104003,-1.0159180800067347,-0.11528093019594365
1708440625.7810786,-1.1035593748092651,-1.682869096795553,-2.525912586842672,2.278848095531128,-1.0159805456744593,-0.11542731920351201
1708440625.7830648,-1.1035441160202026,-1.682777544061178,-2.5258634726153772,2.278848095531128,-1.0159285704242151,-0.11563569704164678
1708440625.7851098,-1.103594183921814,-1.6828767261900843,-2.525900904332296,2.278824492091797,-1.0158985296832483,-0.11580402055849248
1708440625.7871828,-1.1035195589065552,-1.682810445825094,-2.5258634726153772,2.278744621867798,-1.0159357229815882,-0.11605960527528936
1708440625.789077,-1.1035528182983398,-1.6828886471190394,-2.5258589426623743,2.2787045675465087,-1.0159195105182093,-0.11624795595277959
1708440625.7910817,-1.1035165786743164,-1.6828257046141566,-2.525884453450338,2.278761072749756,-1.0159271399127405,-0.11642343202699834
1708440625.7931275,-1.103524088859558,-1.6828628979124964,-2.525872532521383,2.2787298399158935,-1.0159357229815882,-0.11657458940614873
1708440625.79506,-1.1035046577453613,-1.6828614674010218,-2.52582294145693,2.2787462907978515,-1.0159490744220179,-0.1167672316180628
1708440625.797088,-1.1035077571868896,-1.6828752956786097,-2.525888744984762,2.2787298399158935,-1.0158818403827112,-0.11694652238954717
1708440625.7990644,-1.1035046577453613,-1.6828752956786097,-2.52586800256838,2.2787136274525146,-1.0158661047564905,-0.11711484590639287
1708440625.8010406,-1.1034914255142212,-1.6829201183714808,-2.525835100804464,2.278703137035034,-1.015895191823141,-0.11728221574892217
1708440625.803053,-1.1034808158874512,-1.682890077630514,-2.525851551686422,2.278707666988037,-1.0159075895892542,-0.11746675172914678
1708440625.8050554,-1.10349702835083,-1.6828705273070277,-2.525851551686422,2.2787105280109863,-1.01591664949526,-0.11764270464052373
1708440625.8070538,-1.1034765243530273,-1.6828662357726039,-2.525818411503927,2.278665228480957,-1.0158756414996546,-0.11782294908632451
1708440625.8090575,-1.1035014390945435,-1.6829201183714808,-2.525810782109396,2.278660698527954,-1.01589280763735,-0.11797124544252569
1708440625.8110769,-1.103447675704956,-1.6828614674010218,-2.525794331227438,2.2786244589039306,-1.0158994833575647,-0.11812240282167608
1708440625.8131075,-1.1034646034240723,-1.682932039300436,-2.525773350392477,2.278728886241577,-1.015867058430807,-0.11825353304018194
1708440625.8150806,-1.1034984588623047,-1.6829077206053675,-2.525839630757467,2.2786878782459716,-1.0159128347979944,-0.1184304396258753
1708440625.817106,-1.1034519672393799,-1.682936807672018,-2.525872532521383,2.2786618906208496,-1.0158970991717737,-0.11862260500063115
1708440625.819088,-1.103468894958496,-1.682915826837057,-2.525851551686422,2.2786664205738525,-1.015867058430807,-0.11873466173280889
1708440625.821105,-1.1034233570098877,-1.6828919849791468,-2.5258286635028284,2.2786244589039306,-1.0158756414996546,-0.11891061464418584
1708440625.8231351,-1.1034528017044067,-1.6828705273070277,-2.525794331227438,2.2786454397388916,-1.0158641974078577,-0.11906749406923467
1708440625.8250833,-1.1034115552902222,-1.6828695736327113,-2.525818649922506,2.2786380487629394,-1.0158384482013147,-0.11915809312929326
1708440625.8270946,-1.1034364700317383,-1.6828986606993617,-2.525835100804464,2.2785963255115966,-1.0158312956439417,-0.11932641664613897
1708440625.8291378,-1.1033908128738403,-1.6829334698119105,-2.525769058858053,2.278585358256958,-1.0158641974078577,-0.11949092546571904
1708440625.8310704,-1.1034159660339355,-1.6828662357726039,-2.525827471409933,2.2786587911793212,-1.0159061590777796,-0.11960345903505498
1708440625.8330848,-1.1034321784973145,-1.6828919849791468,-2.525856081639425,2.2786306577869873,-1.0158756414996546,-0.11972409883608037
1708440625.8350916,-1.1034494638442993,-1.6828705273070277,-2.525848690663473,2.2786142069050292,-1.0158475081073206,-0.11990005174745733
1708440625.8370917,-1.1034364700317383,-1.682836195031637,-2.525818411503927,2.278651400203369,-1.0158565680133265,-0.11998635927309209
1708440625.839072,-1.1034040451049805,-1.6829248867430628,-2.5258141199695032,2.2786261278339843,-1.0158970991717737,-0.12013513246645147
1708440625.8410494,-1.1033834218978882,-1.6828152141966761,-2.52584416071047,2.278646870250366,-1.0158103148089808,-0.12028295198549444
1708440625.8430789,-1.1034126281738281,-1.682836195031637,-2.525860373173849,2.278623266811035,-1.0158475081073206,-0.12036115327943975
1708440625.8450632,-1.1033834218978882,-1.6828786335387171,-2.5258470217334192,2.2785934644886474,-1.0158312956439417,-0.12045699754823858
1708440625.8470502,-1.1033964157104492,-1.6828662357726039,-2.525877062474386,2.278552456493042,-1.0158641974078577,-0.12064773241151983
1708440625.8490667,-1.1034040451049805,-1.6828495464720667,-2.5258141199695032,2.2786423402973632,-1.0158599058734339,-0.12073880830873662
1708440625.85107,-1.1033834218978882,-1.6828786335387171,-2.52584416071047,2.278634949321411,-1.0158517996417444,-0.1208575407611292
1708440625.8530853,-1.103416919708252,-1.6829124889769496,-2.525876824055807,2.278639717692993,-1.01585561433901,-0.12100726762880498
1708440625.8550906,-1.1033834218978882,-1.682845254937643,-2.525860611592428,2.2785345750996093,-1.0158355871783655,-0.12105685869325811
1708440625.8570924,-1.1033844947814941,-1.6828614674010218,-2.5258589426623743,2.278602285976074,-1.0158599058734339,-0.12119466463197881
1708440625.8590686,-1.1034245491027832,-1.6828376255431117,-2.525835100804464,2.278576298350952,-1.0158713499652308,-0.12125665346254522
1708440625.8610692,-1.1034494638442993,-1.682824274102682,-2.52582294145693,2.2786380487629394,-1.0158894697772425,-0.12143069902528936
1708440625.863085,-1.1033964157104492,-1.6828943691649378,-2.525835100804464,2.278602285976074,-1.0158432165728968,-0.12145644823183233
1708440625.8650863,-1.1034159660339355,-1.682927747766012,-2.525872532521383,2.2785977560230712,-1.0158804098712366,-0.12162286440004522
1708440625.8670602,-1.1034289598464966,-1.6829248867430628,-2.525888983403341,2.278634949321411,-1.01585561433901,-0.12169009843935186
1708440625.8691125,-1.103359580039978,-1.682836195031637,-2.52584416071047,2.2786142069050292,-1.0158756414996546,-0.121803108845846
1708440625.8710852,-1.1033596992492676,-1.6828695736327113,-2.525813881550924,2.278602285976074,-1.015862290059225,-0.1218646208392542
1708440625.873077,-1.1034364700317383,-1.6828752956786097,-2.525835100804464,2.2785889345356445,-1.0158756414996546,-0.12196857133974248
1708440625.8750782,-1.1034538745880127,-1.6829515896239222,-2.525856081639425,2.278634949321411,-1.015850845967428,-0.12211972871889287
1708440625.87709,-1.1034040451049805,-1.6828705273070277,-2.525851551686422,2.2786053854176025,-1.0158994833575647,-0.12219459215273076
1708440625.8791015,-1.1034083366394043,-1.6828786335387171,-2.52588135400881,2.2786215978809814,-1.0158880392657679,-0.12226468721498662
1708440625.8810573,-1.1034115552902222,-1.6829410992064417,-2.52582294145693,2.2786544996448974,-1.015883747731344,-0.12235719362367803
1708440625.8830616,-1.1034653186798096,-1.6829077206053675,-2.525835100804464,2.2786215978809814,-1.015867058430807,-0.1224282423602503
1708440625.8850465,-1.1034821271896362,-1.6828586063780726,-2.5258305708514612,2.2786664205738525,-1.015895191823141,-0.12255317369569951
1708440625.8870378,-1.1034115552902222,-1.682873865167135,-2.525896135960714,2.2786173063465576,-1.015911881123678,-0.1226266066180628
1708440625.8890805,-1.1034570932388306,-1.6828872166075648,-2.525839630757467,2.2786544996448974,-1.015886131917135,-0.12271005312074834
1708440625.8910627,-1.1034440994262695,-1.6828423939146937,-2.525839630757467,2.2786080080219726,-1.0159686247455042,-0.1227639357196253
1708440625.8930657,-1.1034564971923828,-1.682882925073141,-2.5258172194110315,2.278725786800049,-1.0159595648394983,-0.12294227281679326
1708440625.8950613,-1.1034483909606934,-1.6828795872130335,-2.525851551686422,2.278691216106079,-1.0159271399127405,-0.12301761308778936
1708440625.8970506,-1.1034519672393799,-1.6828795872130335,-2.525909725819723,2.278674288386963,-1.0159180800067347,-0.12303239503969365
1708440625.8990762,-1.1034395694732666,-1.6828586063780726,-2.52586800256838,2.2786525922962646,-1.0159834066974085,-0.1231005827533167
1708440625.9010828,-1.1034646034240723,-1.6828214130797328,-2.5258544127093714,2.278686686153076,-1.0159581343280237,-0.12322837511171514
1708440625.90306,-1.1034941673278809,-1.6828423939146937,-2.5258963743792933,2.278698607082031,-1.0160124937640589,-0.12333327928651983
1708440625.9050734,-1.1034188270568848,-1.6828257046141566,-2.5258708635913294,2.2786525922962646,-1.0160005728351038,-0.12336427370180303
1708440625.907062,-1.1034519672393799,-1.6827880344786585,-2.5259037653552454,2.2787105280109863,-1.0160272757159632,-0.12343198457826787
1708440625.9090762,-1.1034765243530273,-1.6828347645201625,-2.5259037653552454,2.278752251262329,-1.016031567250387,-0.12355691591371709
1708440625.911102,-1.1035221815109253,-1.6828347645201625,-2.5258918444262903,2.2786897855946044,-1.0160735289203089,-0.12357217470277959
1708440625.913077,-1.103525161743164,-1.682805677453512,-2.5259161631213587,2.2787656027027587,-1.0160482565509241,-0.12367755571474248
1708440625.9150825,-1.10349702835083,-1.6828319034972132,-2.5258947054492396,2.2788213926502685,-1.0160482565509241,-0.12376863161195928
1708440625.917087,-1.1035370826721191,-1.6828276119627894,-2.5258947054492396,2.2787090974995117,-1.0160511175738733,-0.12379771867860967
1708440625.9191132,-1.1035046577453613,-1.6827355823912562,-2.5259414354907435,2.278778000468872,-1.0160601774798792,-0.12389785448183233
1708440625.921067,-1.1035165786743164,-1.6828237972655238,-2.5259116331683558,2.278871937389038,-1.0160663763629358,-0.12392837205995733
1708440625.9231088,-1.1035046577453613,-1.6827732525267542,-2.5259161631213587,2.278822823161743,-1.016083065663473,-0.1240618864642542
1708440625.9250739,-1.103536605834961,-1.682803293267721,-2.5258901754962366,2.2788540559956054,-1.0161202589618128,-0.12410575548280889
1708440625.9270883,-1.1035454273223877,-1.6827789745726527,-2.5258901754962366,2.2788213926502685,-1.0161274115191858,-0.12416106859316045
1708440625.929104,-1.103588581085205,-1.682814737359518,-2.525940004979269,2.2789203363605957,-1.016163174306051,-0.12420493761171514
1708440625.931059,-1.1035441160202026,-1.682803293267721,-2.525975767766134,2.2789529997059326,-1.0161588827716272,-0.12426454225649053
1708440625.933101,-1.1036254167556763,-1.6827465496458949,-2.525947395955221,2.278881474132202,-1.0161708037005823,-0.1243513266192835
1708440625.93507,-1.1036124229431152,-1.6827947101988734,-2.525942866002218,2.278881474132202,-1.0161946455584925,-0.1244428793536585
1708440625.9370868,-1.1035993099212646,-1.6827837429442347,-2.5260420481311243,2.2789804178425292,-1.0162399450885218,-0.12441665330995733
1708440625.9390779,-1.1036286354064941,-1.6827551327147425,-2.5259998480426233,2.2789363104053955,-1.0162070433246058,-0.12450105348695928
1708440625.941088,-1.1036036014556885,-1.682737489739889,-2.5259743372546595,2.2789906698414306,-1.0161979834186,-0.12455636659731084
1708440625.9430935,-1.1036112308502197,-1.6827298603453578,-2.5259998480426233,2.2790426450916748,-1.0162561575519007,-0.12462932268251592
1708440625.9450629,-1.10365629196167,-1.6827222309508265,-2.5260329882251185,2.279021902675293,-1.016202751790182,-0.1246565024005335
1708440625.9470718,-1.103697419166565,-1.6827508411803187,-2.526052538548605,2.2790509897419433,-1.0162337462054651,-0.12471229234804326
1708440625.9490595,-1.103721261024475,-1.6827222309508265,-2.5259771982776087,2.279078884715698,-1.016308609639303,-0.12476903596986944
1708440625.9510622,-1.103684425354004,-1.6827436886229457,-2.5260615984546106,2.2791027265736084,-1.0162385145770472,-0.12483197847475225
1708440625.9530983,-1.103708267211914,-1.6827627621092738,-2.5259984175311487,2.2791058260151367,-1.0163043181048792,-0.12495452562441045
1708440625.9550917,-1.103696346282959,-1.6827193699278773,-2.526043478642599,2.279155655498169,-1.0162909666644495,-0.12492829958070928
1708440625.9571102,-1.103712558746338,-1.6827060184874476,-2.52606445947756,2.2791451650806884,-1.0163071791278284,-0.12504130998720342
1708440625.9590936,-1.1037402153015137,-1.6826778850951136,-2.526059929524557,2.279195948238037,-1.016346279774801,-0.12504893938173467
1708440625.9610834,-1.1037726402282715,-1.6826912365355433,-2.526072088872091,2.2791613775440673,-1.0163386503802698,-0.12510425249208623
1708440625.963148,-1.103800892829895,-1.6826235256590785,-2.526088539754049,2.279225988979004,-1.0163787047015589,-0.12514907518495733
1708440625.965071,-1.1037921905517578,-1.68267883876943,-2.526055399571554,2.279263420695923,-1.016412083302633,-0.1252082029925745
1708440625.9670823,-1.10381281375885,-1.6826592884459437,-2.526046339665548,2.2792960840412597,-1.0163701216327112,-0.12523252168764287
1708440625.969202,-1.103821039199829,-1.6826921902098597,-2.526100460683004,2.279287024135254,-1.0164030233966272,-0.12532121339906865
1708440625.9710824,-1.1038284301757812,-1.682613035241598,-2.5260794798480433,2.2792975145527343,-1.0164149443255823,-0.12531549135317022
1708440625.9731104,-1.1038490533828735,-1.6826192341246546,-2.526104990636007,2.2793428140827636,-1.0164063612567347,-0.12539273897279912
1708440625.9750867,-1.1038360595703125,-1.682709356347555,-2.52610952058901,2.2793173032947998,-1.0164015928851526,-0.12542897859682256
1708440625.9770846,-1.1038848161697388,-1.6826073131956996,-2.5261033217059534,2.279313011760376,-1.0164960066424769,-0.1254800001727503
1708440625.9790747,-1.1038923263549805,-1.6826492748656214,-2.5260942617999476,2.279320402736328,-1.0164836088763636,-0.125556770955221
1708440625.981073,-1.10390043258667,-1.6825791798033656,-2.5261226336108606,2.27940218030896,-1.0165007750140589,-0.1256011168109339
1708440625.9830794,-1.1039092540740967,-1.6826149425902308,-2.5260987917529505,2.2794601160236816,-1.0164569059955042,-0.12564117113222295
1708440625.9850762,-1.103952407836914,-1.68259920696401,-2.5261152426349085,2.2794508176990966,-1.01646596590151,-0.12566882768739873
1708440625.9870753,-1.103965401649475,-1.6825925312437953,-2.5261107126819056,2.2794012266346435,-1.016449276600973,-0.12565881410707647
1708440625.9891138,-1.1039481163024902,-1.6825553379454554,-2.526139561329977,2.279474659557007,-1.0164783636676233,-0.12576514879335576
1708440625.9910483,-1.103947401046753,-1.6825710735716761,-2.526172463093893,2.2794641691395263,-1.0164855162249964,-0.12577325502504522
1708440625.9930763,-1.103975534439087,-1.6825171909727992,-2.526179854069845,2.2795020776936035,-1.0164812246905726,-0.1258299986468714
1708440625.995043,-1.1039886474609375,-1.682547231713766,-2.526187245045797,2.2795347410389404,-1.0165212790118616,-0.12581187883485967
1708440625.9970832,-1.1040292978286743,-1.68251432994985,-2.526229445134298,2.2795705038258056,-1.0165064970599573,-0.1258299986468714
1708440625.999076,-1.1040444374084473,-1.68251432994985,-2.526187245045797,2.279557152385376,-1.0164974371539515,-0.12586766878236944
1708440626.001083,-1.104020595550537,-1.682531019250387,-2.526179854069845,2.279573603267334,-1.0165393988238733,-0.12594396272768194
1708440626.0030918,-1.104076862335205,-1.682519098321432,-2.526187245045797,2.279557152385376,-1.0165422598468226,-0.1260007063495081
1708440626.005069,-1.1040982007980347,-1.6825276813902796,-2.526175324116842,2.279660626048706,-1.0165794531451624,-0.1260440985309046
1708440626.00707,-1.1040925979614258,-1.6824904880919398,-2.5261991659747522,2.2796620565601806,-1.0165703932391565,-0.1259978453265589
1708440626.0090852,-1.1040852069854736,-1.6824904880919398,-2.526208225880758,2.2796336847492675,-1.0165975729571741,-0.12609559694399053
1708440626.0110579,-1.104169487953186,-1.6824828586974085,-2.526224915181295,2.2797087866016845,-1.016590420399801,-0.12614041963686162
1708440626.013095,-1.104116439819336,-1.6825038395323695,-2.5261572043048304,2.279681845302246,-1.016651455556051,-0.12614757219423467
1708440626.0150824,-1.1041522026062012,-1.6824633083739222,-2.5262489954577845,2.279747410411499,-1.0165885130511683,-0.12623340288271123
1708440626.017135,-1.104127049446106,-1.6825128994383753,-2.5261827150927942,2.2797295290180664,-1.0166409651385706,-0.12623912492860967
1708440626.019108,-1.1041810512542725,-1.682467599908346,-2.526170794163839,2.2797621923634033,-1.0166900793658655,-0.12630969682802373
1708440626.0210779,-1.1041678190231323,-1.6824590168394984,-2.5262158552752894,2.2798077303120117,-1.0167024771319788,-0.12634116808046514
1708440626.023108,-1.104220986366272,-1.6824232540526332,-2.526203695927755,2.2797867494770507,-1.0166900793658655,-0.12634259859193975
1708440626.0251267,-1.1042165756225586,-1.682443758050436,-2.5262370745288294,2.279838724727295,-1.0167220274554651,-0.1263335386859339
1708440626.0270855,-1.1042898893356323,-1.682481428185934,-2.5262022654162806,2.2798165517994384,-1.016743008290426,-0.1264861265765589
1708440626.0290854,-1.1043180227279663,-1.6824647388853968,-2.5261901060687464,2.2798871236988525,-1.0167010466205042,-0.12642366090883428
1708440626.0310829,-1.1043373346328735,-1.682387491265768,-2.5262234846698206,2.2798616129108886,-1.0167177359210413,-0.1264885107623499
1708440626.0331078,-1.1043038368225098,-1.6824122867979945,-2.5262683073626917,2.2798780637928466,-1.0167205969439905,-0.12653762498964483
1708440626.035102,-1.1043038368225098,-1.682361742059225,-2.52622634569277,2.2799226480671386,-1.0167534987079065,-0.12660199800600225
1708440626.0370808,-1.1043568849563599,-1.6823917828001917,-2.5262354055987757,2.279901905650757,-1.0167339483844202,-0.12659198442567998
1708440626.0390768,-1.104335069656372,-1.6823588810362757,-2.5262563864337366,2.279937668437622,-1.0167458693133753,-0.12661248842348272
1708440626.0410597,-1.104377031326294,-1.6823512516417445,-2.5262637774096888,2.2799619871326904,-1.0167415777789515,-0.12669831911195928
1708440626.043107,-1.1044050455093384,-1.6823722324767054,-2.526254717503683,2.2800156313129882,-1.0167859236346644,-0.1267007032977503
1708440626.045056,-1.1044201850891113,-1.6823440990843714,-2.526241127644674,2.279956026668213,-1.0167725721942347,-0.12674504915346319
1708440626.0470595,-1.1044082641601562,-1.6823679409422816,-2.52625018755068,2.2799886900135498,-1.0167325178729456,-0.12672359148134404
1708440626.0490532,-1.1044321060180664,-1.6823274097838343,-2.526275936757223,2.279991551036499,-1.0167859236346644,-0.12675983110536748
1708440626.0510545,-1.1044306755065918,-1.6822706661620082,-2.526304546986715,2.28007881223645,-1.0167534987079065,-0.12680322328676397
1708440626.0530543,-1.1045013666152954,-1.682328840295309,-2.5263028780566614,2.2800816732593994,-1.0168102423297327,-0.12683564821352178
1708440626.0550964,-1.1045500040054321,-1.682295938531393,-2.5263238588916224,2.2800726133533935,-1.0167325178729456,-0.1268675963031214
1708440626.0571134,-1.1045013666152954,-1.682295938531393,-2.5263357798205774,2.280090494746826,-1.0167844931231897,-0.12693816820253545
1708440626.0590792,-1.1044708490371704,-1.682279726068014,-2.5263403097735804,2.2801174360462646,-1.0167978445636194,-0.12698632875551397
1708440626.061047,-1.1045196056365967,-1.6822668514647425,-2.5263477007495325,2.2801129060932617,-1.0167892614947718,-0.1269310156451624
1708440626.0630646,-1.1045808792114258,-1.6822601757445277,-2.5263312498675745,2.28009216367688,-1.0168026129352015,-0.12697059312929326
1708440626.0650675,-1.104560375213623,-1.6822411022581996,-2.5263643900500696,2.28016106664624,-1.0168340841876429,-0.12701160112489873
1708440626.0670846,-1.104588508605957,-1.6822320423521937,-2.5263553301440638,2.2801565366932373,-1.0168102423297327,-0.12703115144838506
1708440626.069072,-1.1045842170715332,-1.6822191677489222,-2.5263975302325647,2.2801474767872314,-1.0168059507953089,-0.12710458437074834
1708440626.071058,-1.1046574115753174,-1.682261129418844,-2.526301447545187,2.280230684871338,-1.0167925993548792,-0.12709552446474248
1708440626.07307,-1.104628086090088,-1.682200094262594,-2.5263643900500696,2.2802397447773437,-1.0168431440936487,-0.12712270418276006
1708440626.0750797,-1.1046605110168457,-1.6822196445860804,-2.5263267199145716,2.280249996776245,-1.0168269316302698,-0.12716800371278936
1708440626.0770843,-1.1046605110168457,-1.682216306725973,-2.526350800191061,2.280282660121582,-1.0168255011187952,-0.12719613710512334
1708440626.0790777,-1.1046843528747559,-1.682169576684469,-2.526350800191061,2.280311031932495,-1.0168417135821741,-0.12725669542421514
1708440626.0810857,-1.104696273803711,-1.682167192498678,-2.5262938181506556,2.280311031932495,-1.016808811818258,-0.12726051012148076
1708440626.0830708,-1.1047662496566772,-1.6821595631041468,-2.5263431707965296,2.2803472715565185,-1.01685077348818,-0.12728721300234014
1708440626.085072,-1.1047039031982422,-1.6821299992003382,-2.5263643900500696,2.2803594309040527,-1.0168374220477503,-0.12733632722963506
1708440626.087082,-1.1047532558441162,-1.682176252404684,-2.526329580937521,2.280317469234131,-1.0168536345111292,-0.1273444334613245
1708440626.0890806,-1.1048094034194946,-1.682143350640768,-2.526329580937521,2.280353232020996,-1.0168898741351526,-0.12738448778261358
1708440626.091068,-1.1047844886779785,-1.6821056805052699,-2.526350800191061,2.280369682902954,-1.0168445746051233,-0.12735110918153936
1708440626.0935605,-1.1047433614730835,-1.6821400127806605,-2.526350800191061,2.2804104524799804,-1.0168283621417444,-0.1274045149432581
1708440626.0950634,-1.104795217514038,-1.6821323833861292,-2.526350800191061,2.2804252344318847,-1.0169060865985315,-0.1275103727923792
1708440626.097068,-1.104754090309143,-1.6821252308287562,-2.526329580937521,2.2804698187061767,-1.0168817679034632,-0.12742644945253545
1708440626.099056,-1.1048402786254883,-1.6820742092528285,-2.526329580937521,2.280453606242798,-1.0168989340411585,-0.1274798552142542
1708440626.1010616,-1.1047905683517456,-1.6821161709227503,-2.526346270238058,2.280456467265747,-1.0168655554400843,-0.12746698061098272
1708440626.1030967,-1.1048393249511719,-1.6820875606932582,-2.5263431707965296,2.280465527171753,-1.0168684164630335,-0.1275885740863245
1708440626.1050732,-1.1049374341964722,-1.682051797906393,-2.5263312498675745,2.280452175731323,-1.0169060865985315,-0.12762433687318975
1708440626.1070771,-1.1049048900604248,-1.682096620599264,-2.5263553301440638,2.280489369029663,-1.0168975035296839,-0.12762004533876592
1708440626.1090922,-1.1049199104309082,-1.6820641956725062,-2.526350800191061,2.2804712492176513,-1.0168731848346155,-0.12760717073549444
1708440626.1110613,-1.1049199104309082,-1.6820641956725062,-2.526346270238058,2.2805628019520263,-1.0169389883624476,-0.12763530412782842
1708440626.1130903,-1.1049649715423584,-1.6820560894408167,-2.5263012091266077,2.2805375295826416,-1.0168975035296839,-0.12771350542177373
1708440626.1151063,-1.1049768924713135,-1.6820322475829066,-2.5263221899615687,2.280568762416504,-1.0168808142291468,-0.12773639360536748
1708440626.1170802,-1.1050337553024292,-1.6820084057249964,-2.526325050984518,2.280573292369507,-1.0168722311602991,-0.12774783769716436
1708440626.1190944,-1.1049880981445312,-1.6820365391173304,-2.5263643900500696,2.280597611064575,-1.016900364552633,-0.12776023546327764
1708440626.1210976,-1.1050162315368652,-1.6820365391173304,-2.526341740285055,2.280576630229614,-1.0169451872455042,-0.12777930894960576
1708440626.1230671,-1.105036735534668,-1.6820365391173304,-2.526372019444601,2.2806169229694824,-1.016916577016012,-0.12780791917909795
1708440626.1250894,-1.1050649881362915,-1.6819683514037074,-2.5263810793506067,2.2806243139454345,-1.0169256369220179,-0.1278756300555628
1708440626.1271303,-1.1050431728363037,-1.6819993458189906,-2.5263386408435267,2.2806004720875244,-1.016928497944967,-0.12788468996156865
1708440626.129112,-1.1050970554351807,-1.6819712124266566,-2.5262847582446497,2.2806004720875244,-1.0169585386859339,-0.12792474428285772
1708440626.1310968,-1.1051044464111328,-1.6819845638670863,-2.526372019444601,2.2806660371967773,-1.0169299284564417,-0.12794047990907842
1708440626.133075,-1.105128288269043,-1.681955953637594,-2.526379410420553,2.280721588725708,-1.0169332663165491,-0.12795955339540654
1708440626.1350682,-1.1051077842712402,-1.6819607220091761,-2.526393000279562,2.2806600767322998,-1.0169828573810022,-0.12801629701723272
1708440626.1370685,-1.1051316261291504,-1.681939264337057,-2.5263431707965296,2.280792399043701,-1.0169537703143519,-0.12804061571230108
1708440626.139072,-1.1051284074783325,-1.6819349728026332,-2.526412312184469,2.280721588725708,-1.0169299284564417,-0.12810212770570928
1708440626.141087,-1.1051684617996216,-1.681955953637594,-2.5263431707965296,2.2807082372852783,-1.0169509092914026,-0.12800914445985967
1708440626.1430595,-1.1051552295684814,-1.681906362573141,-2.526395861302511,2.2807201582142334,-1.016916577016012,-0.12814075151552373
1708440626.145083,-1.1051971912384033,-1.681894441644186,-2.526372019444601,2.2807275491901855,-1.016916577016012,-0.12815791765321904
1708440626.1470797,-1.1051435470581055,-1.6819740734496058,-2.5263822714435022,2.280756397838257,-1.0169256369220179,-0.128122631703512
1708440626.14908,-1.1051959991455078,-1.681936880151266,-2.526403252278463,2.280789299602173,-1.0169628302203577,-0.12818748155702764
1708440626.1510775,-1.105247974395752,-1.6818844280638636,-2.526404921208517,2.2808264929005126,-1.016970459614889,-0.1282442251788538
1708440626.1530597,-1.1052404642105103,-1.6818963489928187,-2.526358429585592,2.2808055120655517,-1.0169881025897425,-0.12826997438539678
1708440626.155078,-1.1052436828613281,-1.6819097004332484,-2.526367489491598,2.280796690578125,-1.0169137159930628,-0.1283043066607874
1708440626.1570837,-1.105231761932373,-1.6818553409972132,-2.526400391255514,2.280759497279785,-1.0169466177569788,-0.12830764452089483
1708440626.159097,-1.105247974395752,-1.6818677387633265,-2.5263987223254603,2.280754967326782,-1.0168808142291468,-0.1283324400531214
1708440626.161073,-1.1052606105804443,-1.6819259128966273,-2.526395861302511,2.280857725734375,-1.0169671217547815,-0.12834388414491826
1708440626.1630692,-1.105281114578247,-1.6818887195982875,-2.526379410420553,2.2808567720600585,-1.0169509092914026,-0.12837678590883428
1708440626.165094,-1.1052799224853516,-1.681857248345846,-2.526391331349508,2.2808686929890136,-1.016909424458639,-0.12840348878969365
1708440626.1670687,-1.105284333229065,-1.681833883325094,-2.526386801396505,2.2808117109486084,-1.0169299284564417,-0.12840634981264287
1708440626.1691294,-1.1053080558776855,-1.6817957363524378,-2.526337210332052,2.2808353143879394,-1.016867462788717,-0.1284392515765589
1708440626.171108,-1.1053037643432617,-1.6818248234190882,-2.526404921208517,2.2808567720600585,-1.016904656087057,-0.1284711996661585
1708440626.1731036,-1.105352520942688,-1.6818119488158167,-2.526367489491598,2.2808896738239746,-1.0168793837176722,-0.1285155455218714
1708440626.1750836,-1.105295181274414,-1.681749006310934,-2.526325050984518,2.280892534846924,-1.0169537703143519,-0.12857276598085576
1708440626.1771214,-1.1053307056427002,-1.681866308251852,-2.52637488046755,2.2809223371693115,-1.016937557850973,-0.12852651277651006
1708440626.1791172,-1.1053975820541382,-1.6818210087218226,-2.526379410420553,2.280871792430542,-1.0169537703143519,-0.12861329713930303
1708440626.1810594,-1.105334997177124,-1.6818090877928675,-2.526370350514547,2.280890627498291,-1.016909424458639,-0.12859088579286748
1708440626.183084,-1.1053433418273926,-1.6818448505797328,-2.526395861302511,2.280925913447998,-1.0169747511493128,-0.1286075750934046
1708440626.1851046,-1.1053638458251953,-1.6817885837950648,-2.5263598600970667,2.2809712129780273,-1.0169418493853968,-0.12861949602235967
1708440626.1871638,-1.1053953170776367,-1.681779523889059,-2.5263553301440638,2.2809621530720214,-1.0169332663165491,-0.12870914140810186
1708440626.1890702,-1.1053833961486816,-1.6817957363524378,-2.526379410420553,2.2809197145649414,-1.0169332663165491,-0.12872440019716436
1708440626.1910658,-1.1053876876831055,-1.6817757091917933,-2.526337210332052,2.2809695440479736,-1.0169451872455042,-0.12874967256654912
1708440626.193097,-1.1054202318191528,-1.6817885837950648,-2.526337210332052,2.2810112672993164,-1.016949478779928,-0.12873489061464483
1708440626.195071,-1.105435848236084,-1.6818047962584437,-2.526337210332052,2.2809604841419677,-1.0169122854815882,-0.1287768522845667
1708440626.1971154,-1.1054489612579346,-1.6818539104857386,-2.526407782231466,2.2810022073933105,-1.016937557850973,-0.1288068930255335
1708440626.199082,-1.1054158210754395,-1.6818472347655238,-2.526391331349508,2.2809323507496337,-1.0169332663165491,-0.12884027162660772
1708440626.201059,-1.1054778099060059,-1.6817714176573695,-2.526367489491598,2.2810098367878417,-1.0168841520892542,-0.12884027162660772
1708440626.2031178,-1.1054573059082031,-1.6817804775633753,-2.526419703160421,2.280984325999878,-1.016937557850973,-0.12890845934023076
1708440626.205052,-1.1054644584655762,-1.6817270718016566,-2.526403252278463,2.280951662654541,-1.016949478779928,-0.12892085710634404
1708440626.2070718,-1.1054027080535889,-1.6817976437010707,-2.5263643900500696,2.2810215192982177,-1.016904656087057,-0.12891894975771123
1708440626.209065,-1.10543954372406,-1.6817780933775843,-2.526353899632589,2.281055136317871,-1.0169451872455042,-0.12891894975771123
1708440626.2110546,-1.105468988418579,-1.6817475757994593,-2.526400391255514,2.281087799663208,-1.0169537703143519,-0.12899572054018194
1708440626.2130866,-1.1054883003234863,-1.681732793847555,-2.526379410420553,2.281012697810791,-1.0169332663165491,-0.12898713747133428
1708440626.215077,-1.1055046319961548,-1.6817566357054652,-2.5263541380511683,2.281024618739746,-1.0169537703143519,-0.12902433076967412
1708440626.2170908,-1.1054514646530151,-1.6817103825011195,-2.526400391255514,2.2810067373463134,-1.0169332663165491,-0.12906963029970342
1708440626.219148,-1.1054754257202148,-1.6817699871458949,-2.52643329301943,2.281024618739746,-1.016961399708883,-0.12905580202211553
1708440626.2210763,-1.1054720878601074,-1.6817714176573695,-2.526416842137472,2.281078739757202,-1.0169332663165491,-0.12912160554994756
1708440626.2231004,-1.1054753065109253,-1.681765695611471,-2.526379410420553,2.2810579973408203,-1.0169451872455042,-0.12913543382753545
1708440626.2250671,-1.1054471731185913,-1.6817237339415492,-2.526383940373556,2.2810727792927246,-1.016949478779928,-0.12913972536195928
1708440626.2270808,-1.1054959297180176,-1.6817075214781703,-2.526407782231466,2.2810579973408203,-1.0169585386859339,-0.12912208238710576
1708440626.2290797,-1.1055283546447754,-1.6817251644530238,-2.526416842137472,2.2810563284107666,-1.0169537703143519,-0.1292045752154749
1708440626.2310998,-1.1054633855819702,-1.6817542515196742,-2.5264106432544153,2.2810847002216796,-1.0169537703143519,-0.12920743623842412
1708440626.2331283,-1.1055327653884888,-1.681758543054098,-2.526386801396505,2.2810818391987304,-1.016916577016012,-0.1292937437640589
1708440626.2351224,-1.1054633855819702,-1.6817060909666957,-2.5263658205615442,2.2810773092457275,-1.016900364552633,-0.12925225893129522
1708440626.2370996,-1.1054959297180176,-1.681704660455221,-2.526419703160421,2.2810727792927246,-1.0169451872455042,-0.1292479673968714
1708440626.23906,-1.1055002212524414,-1.681711813012594,-2.5264151732074183,2.2809859949299316,-1.0169332663165491,-0.12930471101869756
1708440626.2410514,-1.1055197715759277,-1.681741853753561,-2.5263941923724573,2.2810892301746826,-1.016928497944967,-0.1292670408831995
1708440626.24305,-1.1055240631103516,-1.681650301019186,-2.5263612906085413,2.281031056041382,-1.0169332663165491,-0.129310433064596
1708440626.2450514,-1.105536699295044,-1.6816970310606898,-2.526461903248922,2.2810727792927246,-1.0169537703143519,-0.1293562094317835
1708440626.247058,-1.1055197715759277,-1.6817060909666957,-2.5263567606555384,2.281063957805298,-1.0169451872455042,-0.12938052812685186
1708440626.24907,-1.1055240631103516,-1.6817180118956507,-2.526424233113424,2.2811247545429687,-1.016928497944967,-0.12939626375307256
1708440626.2510746,-1.105482816696167,-1.6817132435240687,-2.526424233113424,2.2811264234730224,-1.0169828573810022,-0.12938481966127569
1708440626.2530687,-1.105536699295044,-1.6816655598082484,-2.526386801396505,2.2811338144489746,-1.0169828573810022,-0.12940675417055303
1708440626.2550743,-1.1055409908294678,-1.6817180118956507,-2.5263822714435022,2.2810892301746826,-1.0169523398028772,-0.12946826616396123
1708440626.257106,-1.1055035591125488,-1.6817208729186,-2.5264151732074183,2.2810861307331542,-1.0169852415667933,-0.12948924699892217
1708440626.259087,-1.105536699295044,-1.681692739526266,-2.5263493696795862,2.2810966211506347,-1.0169695059405726,-0.1295388380633753
1708440626.2610495,-1.1055035591125488,-1.6817089519896449,-2.526419703160421,2.2810801702686767,-1.0169852415667933,-0.12948781648744756
1708440626.263081,-1.1055240631103516,-1.681666990319723,-2.526437584553854,2.2810565668293457,-1.0169437567340296,-0.12949926057924444
1708440626.2650526,-1.1055078506469727,-1.6817499599852503,-2.526428763066427,2.2810847002216796,-1.0169695059405726,-0.12955218950380498
1708440626.2670734,-1.1055078506469727,-1.6816593609251917,-2.5263941923724573,2.2811218935200195,-1.0170186201678675,-0.12954742113222295
1708440626.269114,-1.1055240631103516,-1.6817017994322718,-2.5263987223254603,2.2810847002216796,-1.0170066992389124,-0.12954312959779912
1708440626.2710729,-1.1055197715759277,-1.6817299328246058,-2.5264273325549524,2.2810801702686767,-1.0170229117022913,-0.12954742113222295
1708440626.273108,-1.1054621934890747,-1.6817676029601039,-2.5263851324664515,2.2810727792927246,-1.0170305410968226,-0.12956744829286748
1708440626.2750452,-1.1055409908294678,-1.6816760502257289,-2.5263899008380335,2.2810727792927246,-1.0170095602618616,-0.1296151320086878
1708440626.2770743,-1.1055240631103516,-1.6817089519896449,-2.526419703160421,2.2810935217091064,-1.0170095602618616,-0.1295869986163538
1708440626.2790585,-1.1055572032928467,-1.6817060909666957,-2.5264318625079554,2.2811099725910644,-1.0170052687274378,-0.12960797945131475
1708440626.2810721,-1.1054959297180176,-1.6817265949644984,-2.5264318625079554,2.2810801702686767,-1.0170214811908167,-0.12961084047426397
1708440626.2830927,-1.105536699295044,-1.6817017994322718,-2.5264604727374476,2.2811054426380615,-1.017029110585348,-0.12961846986879522
1708440626.2850566,-1.1055152416229248,-1.6816593609251917,-2.5264814535724085,2.28107134878125,-1.0170453230487269,-0.129709545766012
1708440626.2870808,-1.1055452823638916,-1.6816703281798304,-2.5264483133899134,2.2811011511036376,-1.0170734564410608,-0.12967092195619756
1708440626.2890546,-1.1055197715759277,-1.6816922626891078,-2.5264347235309046,2.2810816007801513,-1.0170615355121058,-0.1296632925616663
1708440626.291055,-1.1055035591125488,-1.6817251644530238,-2.5264979044543665,2.281063957805298,-1.017052952443258,-0.12972957292665654
1708440626.2930663,-1.1055165529251099,-1.6817089519896449,-2.5264347235309046,2.2810847002216796,-1.0170858542071741,-0.1297362486468714
1708440626.295057,-1.1055326461791992,-1.6816431484618128,-2.5264678637133997,2.281063957805298,-1.01709491411318,-0.12970239320863897
1708440626.2970877,-1.1054710149765015,-1.681692739526266,-2.5264514128314417,2.281059427852295,-1.0170930067645472,-0.12969905534853154
1708440626.2990744,-1.1054753065109253,-1.6816760502257289,-2.526479784642355,2.281075878734253,-1.0171054045306605,-0.12971145311464483
1708440626.3010507,-1.1055327653884888,-1.681704660455221,-2.526499334965841,2.2811011511036376,-1.0170725027667444,-0.12975627580751592
1708440626.3030798,-1.1054916381835938,-1.6816803417601527,-2.526499334965841,2.2811054426380615,-1.0171707312213343,-0.12979251543153936
1708440626.3050697,-1.1055197715759277,-1.6817208729186,-2.5265324751483362,2.281087561244629,-1.0171707312213343,-0.12976390520204717
1708440626.3070815,-1.105513334274292,-1.6816970310606898,-2.5265472571002405,2.2811218935200195,-1.0171740690814417,-0.12977153459657842
1708440626.3090878,-1.1054471731185913,-1.6817370853819789,-2.5265262762652796,2.2810892301746826,-1.017115894948141,-0.12979251543153936
1708440626.3110662,-1.1054883003234863,-1.6817251644530238,-2.526587788258688,2.2810563284107666,-1.0171650091754358,-0.12981921831239873
1708440626.3130717,-1.1054439544677734,-1.6817461452879847,-2.5265968481646937,2.28104750692334,-1.0171321074115198,-0.1297667662249964
1708440626.3150725,-1.1054514646530151,-1.6817370853819789,-2.5265546480761927,2.2810608583637695,-1.0171783606158655,-0.129831616078512
1708440626.3170857,-1.1054644584655762,-1.6817208729186,-2.526574198399679,2.2810517984577636,-1.0171693007098597,-0.12982732454408819
1708440626.3191435,-1.105435848236084,-1.6817699871458949,-2.526562039052145,2.2810489374348144,-1.0171650091754358,-0.12986880937685186
1708440626.3210733,-1.1054189205169678,-1.681678911248678,-2.526590887700216,2.2810816007801513,-1.0171530882464808,-0.12982255617250615
1708440626.3230827,-1.1053919792175293,-1.6817566357054652,-2.526586357747213,2.2810489374348144,-1.017148796712057,-0.1298144499408167
1708440626.3250635,-1.1053800582885742,-1.6817780933775843,-2.52664024034609,2.2809828954884033,-1.017242733632223,-0.12983400026430303
1708440626.3270977,-1.1053519248962402,-1.6817566357054652,-2.5266311804400843,2.280984325999878,-1.0171921888934534,-0.1299045721637171
1708440626.3290973,-1.105334997177124,-1.6817733250060023,-2.5266476313220423,2.280979796046875,-1.0172131697284144,-0.12990028062929326
1708440626.331078,-1.1052907705307007,-1.6817475757994593,-2.5266147295581263,2.280963583583496,-1.0172413031207483,-0.12987929979433233
1708440626.3330817,-1.1052550077438354,-1.6818090877928675,-2.5266175905810755,2.2809859949299316,-1.0172699133502405,-0.12987023988832647
1708440626.3350751,-1.1052229404449463,-1.6818424663939417,-2.526712242756979,2.280923290843628,-1.0172608534442347,-0.12994462648500615
1708440626.337059,-1.1051950454711914,-1.681862016717428,-2.526695791875021,2.2809197145649414,-1.0172846953021448,-0.12993127504457647
1708440626.339109,-1.1051796674728394,-1.681873460809225,-2.526703182850973,2.280865355128906,-1.0173223654376429,-0.12994844118227178
1708440626.3410578,-1.1051197052001953,-1.6819306812682093,-2.526710573826925,2.280921383494995,-1.0173047224627894,-0.1299679915057581
1708440626.3431058,-1.1050752401351929,-1.6819411716856898,-2.5267391840564173,2.2808353143879394,-1.0173609892474573,-0.1299045721637171
1708440626.3450658,-1.1050682067871094,-1.6819502315916957,-2.5267227331744593,2.2807623583027343,-1.0173195044146937,-0.1300128141986292
1708440626.3470716,-1.104958176612854,-1.6819607220091761,-2.5267632643329065,2.2808219629475097,-1.0174062887774866,-0.12997800508608037
1708440626.349071,-1.1049561500549316,-1.682030817071432,-2.5267751852618616,2.280789299602173,-1.0174091498004358,-0.12998706499208623
1708440626.3510587,-1.1048742532730103,-1.6820255718626917,-2.5267632643329065,2.2807201582142334,-1.017421070729391,-0.1299994627581995
1708440626.3530698,-1.1047861576080322,-1.6820441685118617,-2.526799027119772,2.280618115062378,-1.0174701849566858,-0.12999469438661748
1708440626.3550766,-1.1047347784042358,-1.6821090183653773,-2.526799027119772,2.2805990415760498,-1.0175045172320765,-0.13000852266420537
1708440626.3570912,-1.1046863794326782,-1.6821657619872035,-2.5268142859088343,2.2805842596241455,-1.0175202528582972,-0.13003522554506475
1708440626.3591502,-1.1046605110168457,-1.6822058163084925,-2.5268262068377894,2.2804667192646484,-1.0176308790790003,-0.13001615205873662
1708440626.3610775,-1.1045241355895996,-1.6821910343565882,-2.52683669725527,2.280407353038452,-1.0176456610309046,-0.13004714647401983
1708440626.3630924,-1.1044058799743652,-1.6822692356505335,-2.5268951098071497,2.280388041133545,-1.01764423051943,-0.1300261656390589
1708440626.365121,-1.104322075843811,-1.6823450527586878,-2.526931111012594,2.2803188997456054,-1.0177176634417933,-0.1300595442401331
1708440626.367105,-1.104230523109436,-1.6823483906187953,-2.5270138422595423,2.2802631097980957,-1.0177562872516077,-0.13009912172426397
1708440626.36911,-1.1041315793991089,-1.6824451885619105,-2.5269747416125696,2.280179186458252,-1.0177519957171839,-0.13004619279970342
1708440626.3710625,-1.1039707660675049,-1.682509561578268,-2.5269957224475306,2.2801284033009033,-1.017775837575094,-0.13011199632753545
1708440626.373146,-1.1038023233413696,-1.6825324497618617,-2.527017895375387,2.279987021083496,-1.0177839438067835,-0.13011628786195928
1708440626.3750906,-1.1036453247070312,-1.6826206646361292,-2.527072254811422,2.279904766673706,-1.0178449789630335,-0.1300900618182581
1708440626.3770766,-1.1034753322601318,-1.6827346287169398,-2.527144257222311,2.2796799379536132,-1.0178521315204065,-0.13010722795595342
1708440626.379132,-1.1032614707946777,-1.6827641926207484,-2.527184549962179,2.279597683543823,-1.0178731123553675,-0.1301029364215296
1708440626.3810942,-1.103102207183838,-1.682791372338766,-2.5271876494037073,2.279500647182129,-1.0178716818438929,-0.13018352190126592
1708440626.383055,-1.102864384651184,-1.6829124889769496,-2.52717096010317,2.2793752390095214,-1.017867390309469,-0.13013917604555303
1708440626.3850799,-1.1027302742004395,-1.682953496972555,-2.5271862188922327,2.2792631822773437,-1.0178878943072718,-0.13020021120180303
1708440626.3870857,-1.102433204650879,-1.6830293140807093,-2.527250353490011,2.2791434961506347,-1.017907444630758,-0.13015824953188115
1708440626.3890722,-1.102282166481018,-1.683200021783346,-2.5273194948779505,2.278975649470947,-1.0179808775531214,-0.1301792303668421
1708440626.391059,-1.101969838142395,-1.6832825146117152,-2.527381245289938,2.278881474132202,-1.0180037657367151,-0.1301491896258753
1708440626.3930712,-1.101702094078064,-1.683432241479391,-2.527391497288839,2.27861396848645,-1.0180724302874964,-0.13020784059633428
1708440626.3950696,-1.10140061378479,-1.6835476360716761,-2.5274065176593226,2.2784671026417236,-1.018127743397848,-0.13017779985536748
1708440626.3970659,-1.101101279258728,-1.6836925945677699,-2.5274997393237513,2.278221769923828,-1.0182088057147425,-0.1302273909198206
1708440626.399068,-1.1007643938064575,-1.683775087396139,-2.5275161902057093,2.2780939775654296,-1.018301788960592,-0.130225960408346
1708440626.4010746,-1.1004761457443237,-1.6839796505370082,-2.527604643498556,2.2778913217731933,-1.0183361212359827,-0.13032943407167608
1708440626.4030614,-1.1001582145690918,-1.6840588055052699,-2.5275819937335413,2.277653856868408,-1.018383804951803,-0.13028318086733037
1708440626.4050674,-1.0998291969299316,-1.6842686138548792,-2.5276435057269495,2.277418537730835,-1.0184019247638147,-0.13029224077333623
1708440626.4070525,-1.0994971990585327,-1.6843606434264125,-2.527694288884298,2.2771949011036376,-1.0185278097735804,-0.13027650514711553
1708440626.409079,-1.0991206169128418,-1.684521814385885,-2.5277724901782435,2.2769819933125,-1.0186079184161585,-0.1303189436541956
1708440626.411086,-1.0987939834594727,-1.684695383111471,-2.527844492589132,2.2768096166798095,-1.018705193196432,-0.13033944765199834
1708440626.413144,-1.0983916521072388,-1.6848498783507289,-2.527923885975973,2.276477499599121,-1.0187071005450647,-0.1303632895099085
1708440626.41508,-1.0979644060134888,-1.685066362420553,-2.5279720465289515,2.276219292277954,-1.0188234488116663,-0.13038617769350225
1708440626.4170985,-1.0975561141967773,-1.685270448724264,-2.527998749409811,2.2759556013294677,-1.0188630262957972,-0.130411450062887
1708440626.4191241,-1.0971734523773193,-1.6854616604247035,-2.5281387011157435,2.2756845194050292,-1.0189512411700647,-0.13039809862245733
1708440626.421093,-1.0967490673065186,-1.6856934032835902,-2.5281608740436,2.2753586012073974,-1.0190261046039026,-0.1304853598224085
1708440626.4231105,-1.0963035821914673,-1.6859132252135218,-2.5282164255725306,2.275087519282959,-1.01906663576235,-0.13047629991640264
1708440626.4250512,-1.0958608388900757,-1.6861378155150355,-2.5282719771014612,2.274808331126831,-1.0191548506366175,-0.13049108186830694
1708440626.4270654,-1.0953919887542725,-1.6863447628416957,-2.528360430394308,2.274458094234131,-1.0192626158343714,-0.13050777116884404
1708440626.4290843,-1.0949156284332275,-1.6866046390929164,-2.528480354939596,2.274199886912964,-1.01933461824526,-0.13056785265077764
1708440626.431069,-1.09437894821167,-1.6868788204588832,-2.5285192171679896,2.2737583357044677,-1.0194109121905726,-0.13058454195131475
1708440626.4331193,-1.093863844871521,-1.687115331689352,-2.528632942830221,2.2734648424335937,-1.0195515791522425,-0.13058215776552373
1708440626.4351013,-1.0933029651641846,-1.6874686680235804,-2.528679672871725,2.2730764585682373,-1.0196431318866175,-0.13063031831850225
1708440626.4370751,-1.0927399396896362,-1.687692781487936,-2.52881628671755,2.2726303774067382,-1.0197628180133265,-0.13069230714906865
1708440626.4390607,-1.0921927690505981,-1.687993665734762,-2.5289092699633997,2.2723006445118408,-1.0198538939105433,-0.1306842009173792
1708440626.4410598,-1.091653823852539,-1.6882511578001917,-2.5290594736682337,2.2719122606464843,-1.020003620778219,-0.130686108266012
1708440626.4430814,-1.0910279750823975,-1.6885668239989222,-2.5290589968310755,2.2715534406849365,-1.0200946966754358,-0.1307433287249964
1708440626.4450636,-1.0903949737548828,-1.6889192066588343,-2.5291898886310022,2.271148844356201,-1.0201905409442347,-0.13076717058290654
1708440626.447077,-1.0897773504257202,-1.6892134151854457,-2.529243771229879,2.2707249361225585,-1.0202892462359827,-0.13084060350526983
1708440626.4491475,-1.0891034603118896,-1.6896020374693812,-2.529410187398092,2.270214243526123,-1.0203688780414026,-0.1308673063861292
1708440626.45104,-1.0884073972702026,-1.6899696789183558,-2.529480520878927,2.269873781795166,-1.02057391801943,-0.1309292952166956
1708440626.4530807,-1.0877118110656738,-1.6903144321837367,-2.52958852449526,2.269350214595459,-1.020705525075094,-0.13090688387026006
1708440626.4550645,-1.0869879722595215,-1.6906615696349085,-2.529705588017599,2.268965407008789,-1.0207718054400843,-0.1309874693499964
1708440626.4570692,-1.0862562656402588,-1.6909953556456507,-2.529825512562887,2.268429918880127,-1.020923916493551,-0.13106090227235967
1708440626.4590795,-1.0855445861816406,-1.691378732720846,-2.529982868825094,2.2680324751087646,-1.0210354963885706,-0.13107139268984014
1708440626.4610672,-1.0847716331481934,-1.6917506657042445,-2.5300639311419886,2.2675368028828125,-1.0211475531207483,-0.13119775453676397
1708440626.4630601,-1.0839061737060547,-1.692101617852682,-2.5301855246173304,2.2669996458240966,-1.0212910811053675,-0.13122445741762334
1708440626.4650645,-1.0831360816955566,-1.6925445995726527,-2.5303219000445765,2.266457958812378,-1.0213945547686976,-0.13124257722963506
1708440626.467081,-1.0823575258255005,-1.6929861507811488,-2.5304489771472376,2.265948458308838,-1.0215829054461878,-0.13133269945253545
1708440626.4691253,-1.0814932584762573,-1.6933299503722132,-2.530548397694723,2.2652978140064697,-1.0216992537127894,-0.1313841978656214
1708440626.4710617,-1.080605149269104,-1.6937996349730433,-2.530710522328512,2.264805479640625,-1.0218103567706507,-0.13148814836610967
1708440626.4730844,-1.0797544717788696,-1.6941892109312953,-2.530825916920797,2.264150543803833,-1.0219300428973597,-0.13155728975404912
1708440626.4750507,-1.0788626670837402,-1.6946412525572718,-2.5309532324420374,2.2636539179035644,-1.0220831076251429,-0.13162786165346319
1708440626.477072,-1.0779231786727905,-1.6950584850706996,-2.5310688654529017,2.262998028392456,-1.022233788167135,-0.13174516359438115
1708440626.4790666,-1.076987385749817,-1.695493837396139,-2.531266514454977,2.262420340175293,-1.0223048369037073,-0.1317828337298792
1708440626.481076,-1.0760645866394043,-1.695932527581686,-2.531410519276754,2.2617878156849365,-1.0224488417254847,-0.13188010851015264
1708440626.4831738,-1.0750560760498047,-1.6964169941344203,-2.5315218607531946,2.261188192958496,-1.0226171652423304,-0.13195974031557256
1708440626.4850917,-1.0741134881973267,-1.6968628368773402,-2.5316532293902796,2.260594292277954,-1.0227120558368128,-0.1320722738849085
1708440626.487101,-1.0730434656143188,-1.6973415813841761,-2.5318499247180384,2.2599119383045654,-1.0228560606585901,-0.13221723238100225
1708440626.4890707,-1.0720359086990356,-1.6978088817992152,-2.532034222279684,2.2592410284229736,-1.0230124632464808,-0.13230926195253545
1708440626.4910798,-1.0710899829864502,-1.698320051232809,-2.532128874455587,2.2586590486713867,-1.0231478849994105,-0.13244277635683233
1708440626.4930782,-1.07003653049469,-1.6988231144347132,-2.532259527836935,2.2579497533985595,-1.0232914129840296,-0.13255721727480108
1708440626.4950683,-1.0690053701400757,-1.6993218861021937,-2.53248101869692,2.2572600084492187,-1.023475472127096,-0.13261634508241826
1708440626.4970987,-1.0679494142532349,-1.6998406849303187,-2.5326085726367396,2.2565621572681884,-1.0236519018756312,-0.13278514543642217
1708440626.4990695,-1.066848635673523,-1.7003504238524378,-2.532797638569967,2.2558275896259765,-1.0238407293902796,-0.13290435472597295
1708440626.501074,-1.0658047199249268,-1.7009407482542933,-2.5329776445971888,2.255092068309448,-1.0240123907672327,-0.13308269182314092
