Eg3-git/Classifiers/Data Collection/u7/u7cir3_ur3e_joint_states.csv
time,elbow_joint,shoulder_lift_joint,shoulder_pan_joint,wrist_1_joint,wrist_2_joint,wrist_3_joint
1708440776.5634093,-1.104905128479004,-1.6820727787413539,-2.525914732609884,2.2802976804920654,-1.0161154905902308,0.06739243119955063
1708440776.5653887,-1.1048717498779297,-1.6820560894408167,-2.5258739630328577,2.2802693086811523,-1.016083065663473,0.06738805770874023
1708440776.5674121,-1.1048882007598877,-1.682047029534811,-2.5259116331683558,2.280312939281128,-1.016111199055807,0.06735099107027054
1708440776.569436,-1.1048790216445923,-1.682051797906393,-2.525869671498434,2.2802840906330566,-1.0160992781268519,0.06738359481096268
1708440776.5714557,-1.104880690574646,-1.6820889912047328,-2.5259116331683558,2.2802604871937255,-1.0161641279803675,0.06735097616910934
1708440776.573419,-1.1049015522003174,-1.682042738000387,-2.525907341633932,2.2802931505390625,-1.016151253377096,0.06735546886920929
1708440776.5753865,-1.104897141456604,-1.6820727787413539,-2.5258947054492396,2.2802857595631103,-1.0161479155169886,0.0673554316163063
1708440776.577392,-1.1048554182052612,-1.68206848720693,-2.5258830229388636,2.280285521144531,-1.0161317030536097,0.06733475625514984
1708440776.5793922,-1.104880690574646,-1.682101388970846,-2.525881592427389,2.2802812296101074,-1.016106907521383,0.06739681959152222
1708440776.5813901,-1.1048836708068848,-1.6820551357665003,-2.5258947054492396,2.2803429800220947,-1.0160906950580042,0.06734446436166763
1708440776.5833886,-1.104892611503601,-1.6820923290648402,-2.525907341633932,2.280301972026489,-1.0161188284503382,0.06738050282001495
1708440776.5853822,-1.1048836708068848,-1.682070871392721,-2.525951687489645,2.2802886205860595,-1.0161436239825647,0.06734886020421982
1708440776.5873907,-1.1048744916915894,-1.6820875606932582,-2.525923554097311,2.2803427416035156,-1.016094986592428,0.06730305403470993
1708440776.5893905,-1.1048836708068848,-1.682018896142477,-2.5259888807879847,2.2802886205860595,-1.0161555449115198,0.06733129918575287
1708440776.591448,-1.1048552989959717,-1.682018896142477,-2.525951687489645,2.2802960115620117,-1.016151253377096,0.067377470433712
1708440776.59349,-1.104897141456604,-1.682101388970846,-2.526012961064474,2.2803501325794677,-1.0161836783038538,0.06730756908655167
1708440776.5954256,-1.1048598289489746,-1.682096620599264,-2.5259791056262415,2.280270739192627,-1.0161102453814905,0.06735234707593918
1708440776.5974379,-1.1048508882522583,-1.6820889912047328,-2.5259667078601282,2.2803096014210205,-1.0161469618426722,0.06737436354160309
1708440776.5994098,-1.1048299074172974,-1.6820560894408167,-2.5259624163257044,2.280308647746704,-1.0161750952350062,0.06729093194007874
1708440776.6014059,-1.104870080947876,-1.68206848720693,-2.5260568300830286,2.280324860210083,-1.0161750952350062,0.06731189042329788
1708440776.6034029,-1.1049171686172485,-1.682018896142477,-2.5259819666491907,2.2802960115620117,-1.0161832014666956,0.06733700633049011
1708440776.6054292,-1.104896068572998,-1.682051797906393,-2.5260074774371546,2.2803050714680175,-1.0161832014666956,0.06732822954654694
1708440776.6074762,-1.1049007177352905,-1.68206848720693,-2.5260239283191126,2.2802886205860595,-1.0161426703082483,0.0672583058476448
1708440776.6094723,-1.1049079895019531,-1.6820351086058558,-2.526010576878683,2.2802812296101074,-1.0161469618426722,0.0673370286822319
1708440776.611392,-1.104874610900879,-1.682018896142477,-2.5260356108294886,2.2802797990986328,-1.0161717573748987,0.06731285899877548
1708440776.6133974,-1.1049244403839111,-1.682037969628805,-2.525977675114767,2.2802840906330566,-1.016139332448141,0.06728335469961166
1708440776.6153889,-1.1049288511276245,-1.682051797906393,-2.525994125996725,2.2802931505390625,-1.016167465840475,0.0673413798213005
1708440776.61739,-1.104905128479004,-1.6820351086058558,-2.526010576878683,2.2803472715565185,-1.0161469618426722,0.06732074171304703
1708440776.6193945,-1.1049140691757202,-1.6820889912047328,-2.5260239283191126,2.2803549009510498,-1.016151253377096,0.06729662418365479
1708440776.6214242,-1.104921579360962,-1.682047029534811,-2.5260446707354944,2.280333920116089,-1.016196076069967,0.06729225069284439
1708440776.6234107,-1.1049244403839111,-1.6820908985533656,-2.5260356108294886,2.2803005415150146,-1.0161874930011194,0.06728028506040573
1708440776.625393,-1.1049171686172485,-1.6820575199522914,-2.525994125996725,2.2803005415150146,-1.0161297957049769,0.06728783249855042
1708440776.6273916,-1.1049079895019531,-1.68206848720693,-2.5260356108294886,2.2803050714680175,-1.0161502997027796,0.06728339940309525
1708440776.6294127,-1.1049244403839111,-1.6820560894408167,-2.5260313192950647,2.2803591924854736,-1.0161917845355433,0.06727592647075653
1708440776.6313994,-1.1049407720565796,-1.6820818386473597,-2.526048008595602,2.2802914816090087,-1.016174618397848,0.06727592647075653
1708440776.633425,-1.1049363613128662,-1.68206848720693,-2.5260568300830286,2.2802840906330566,-1.0161622206317347,0.0672965794801712
1708440776.6353967,-1.1049362421035767,-1.6820279560484828,-2.5260642210589808,2.280308647746704,-1.0161874930011194,0.06731629371643066
1708440776.6374261,-1.104917049407959,-1.6820842228331507,-2.526015106831686,2.2803093630024414,-1.0161221663104456,0.06725620478391647
1708440776.6394045,-1.1049407720565796,-1.6820560894408167,-2.526043478642599,2.2803665834614257,-1.0161832014666956,0.06724739819765091
1708440776.6414745,-1.1049407720565796,-1.682077547112936,-2.526097122822897,2.280329390163086,-1.0161874930011194,0.0672028437256813
1708440776.643487,-1.1049561500549316,-1.682018896142477,-2.5260313192950647,2.280378504390381,-1.0161426703082483,0.06728159636259079
1708440776.64546,-1.1049407720565796,-1.6820484600462855,-2.526039187108175,2.2803665834614257,-1.0161502997027796,0.0672517865896225
1708440776.6474843,-1.1049391031265259,-1.682016511956686,-2.5260029474841517,2.2804111677357177,-1.016245190297262,0.0671907514333725
1708440776.6494277,-1.1049845218658447,-1.6820560894408167,-2.5260282198535364,2.280377073878906,-1.0161502997027796,0.06723237037658691
1708440776.6514087,-1.1049391031265259,-1.682042738000387,-2.526026789342062,2.280393524760864,-1.0161708037005823,0.0671907514333725
1708440776.6534512,-1.1049771308898926,-1.682051797906393,-2.526039187108175,2.2804059225269775,-1.0161989370929163,0.06727718561887741
1708440776.6554763,-1.1050015687942505,-1.6820980511107386,-2.5260356108294886,2.2804505068012695,-1.0161340872394007,0.06720384210348129
1708440776.6574492,-1.1049680709838867,-1.6820560894408167,-2.526043478642599,2.280465527171753,-1.0161917845355433,0.06720384210348129
1708440776.65943,-1.1050015687942505,-1.6820398769774378,-2.526018206273214,2.280411882991455,-1.0161874930011194,0.06721608340740204
1708440776.6614056,-1.104988932609558,-1.6820560894408167,-2.526015106831686,2.280416412944458,-1.0161588827716272,0.06716254353523254
1708440776.6634367,-1.1049607992172241,-1.682002683679098,-2.526010576878683,2.28046099721875,-1.0161545912372034,0.06723673641681671
1708440776.6653912,-1.1050087213516235,-1.6820279560484828,-2.525994125996725,2.2804698187061767,-1.0161946455584925,0.06722800433635712
1708440776.6674142,-1.105013370513916,-1.6820861301817835,-2.5260401407824915,2.280468388194702,-1.0161832014666956,0.067229263484478
1708440776.6694357,-1.1050043106079102,-1.6820394001402796,-2.5260568300830286,2.280493660564087,-1.016202751790182,0.0672248974442482
1708440776.6714575,-1.1050117015838623,-1.6820694408812464,-2.526022497807638,2.280489369029663,-1.016252342854635,0.0672336295247078
1708440776.673462,-1.104966402053833,-1.682051797906393,-2.5260193983661097,2.280468626613281,-1.0162156263934534,0.0672292411327362
1708440776.6754675,-1.105057954788208,-1.6820560894408167,-2.5260568300830286,2.280543490047119,-1.0162113348590296,0.06721608340740204
1708440776.677486,-1.1050251722335815,-1.6820351086058558,-2.5260773340808313,2.280435724849365,-1.0162156263934534,0.06718755513429642
1708440776.6794815,-1.1050490140914917,-1.6820484600462855,-2.5260523001300257,2.2805020052143554,-1.0161946455584925,0.06718321889638901
1708440776.6815107,-1.1050773859024048,-1.6820231876769007,-2.5259864966021937,2.28042380392041,-1.0162156263934534,0.06716690957546234
1708440776.6834192,-1.1050565242767334,-1.682077547112936,-2.5260193983661097,2.2804927068897705,-1.016174618397848,0.06722920387983322
1708440776.685444,-1.1050989627838135,-1.6820394001402796,-2.5260313192950647,2.2804884153553466,-1.016141716633932,0.06718318909406662
1708440776.6874223,-1.1050728559494019,-1.6820484600462855,-2.5260239283191126,2.2804927068897705,-1.0161946455584925,0.06721702218055725
1708440776.6894052,-1.1050474643707275,-1.682077547112936,-2.526010576878683,2.280538960094116,-1.016174618397848,0.0671801045536995
1708440776.6914656,-1.1050639152526855,-1.6820031605162562,-2.5260401407824915,2.280447407359741,-1.0162275473224085,0.06719636917114258
1708440776.6934528,-1.1050639152526855,-1.6820608578123988,-2.5260193983661097,2.2804757791706542,-1.0162156263934534,0.06717126816511154
1708440776.6955035,-1.1050457954406738,-1.6820560894408167,-2.5260477701770228,2.2805210787006835,-1.0161946455584925,0.06722138077020645
1708440776.6974573,-1.105071783065796,-1.682077547112936,-2.525973145161764,2.2805136877247314,-1.0161789099322718,0.0671800822019577
1708440776.6994221,-1.105112075805664,-1.6820231876769007,-2.5260642210589808,2.2805403906055908,-1.0161665121661585,0.067229263484478
1708440776.701465,-1.1051241159439087,-1.6820141277708949,-2.5260313192950647,2.2805003362843017,-1.0161946455584925,0.06721701472997665
1708440776.703408,-1.1050974130630493,-1.6820608578123988,-2.5260401407824915,2.280564232463501,-1.0161874930011194,0.06720954924821854
1708440776.705448,-1.105100154876709,-1.6820665798582972,-2.5260685125934046,2.280590220088623,-1.0161622206317347,0.06718755513429642
1708440776.7074842,-1.1051359176635742,-1.6820279560484828,-2.5260523001300257,2.280602141017578,-1.0161622206317347,0.06717128306627274
1708440776.709463,-1.1051329374313354,-1.6820322475829066,-2.526026789342062,2.280559702510498,-1.0161903540240687,0.06724986433982849
1708440776.711438,-1.105112075805664,-1.6820413074889125,-2.526006285344259,2.2806169229694824,-1.0161665121661585,0.06720509380102158
1708440776.7134252,-1.1051194667816162,-1.682018896142477,-2.526015106831686,2.2805961805531005,-1.0162113348590296,0.06720948219299316
1708440776.7154455,-1.1051313877105713,-1.6820413074889125,-2.526026789342062,2.2806903558918457,-1.016207520161764,0.0671887993812561
1708440776.7174196,-1.1051105260849,-1.6820117435851039,-2.526048008595602,2.2806779581257324,-1.0161836783038538,0.06721700727939606
1708440776.7194002,-1.1051613092422485,-1.6820665798582972,-2.5260029474841517,2.2806333738514404,-1.016207520161764,0.0671888142824173
1708440776.7214367,-1.1051478385925293,-1.6820117435851039,-2.5260477701770228,2.2806333738514404,-1.0161832014666956,0.06716818362474442
1708440776.7234414,-1.105126976966858,-1.6820365391173304,-2.5260074774371546,2.280589981670044,-1.0161708037005823,0.0671888142824173
1708440776.725423,-1.1051386594772339,-1.6820208034911097,-2.526015106831686,2.280674858684204,-1.0161874930011194,0.06717697530984879
1708440776.7274122,-1.1051461696624756,-1.6820413074889125,-2.525998655949728,2.2806214529224853,-1.0161750952350062,0.0671844631433487
1708440776.7294064,-1.1051959991455078,-1.6820036373534144,-2.5260523001300257,2.2805961805531005,-1.016125504170553,0.06718138605356216
1708440776.7314239,-1.1052333116531372,-1.6820546589293421,-2.5260685125934046,2.2806123930164794,-1.0161502997027796,0.06714721769094467
1708440776.7333958,-1.1052452325820923,-1.6820208034911097,-2.5260523001300257,2.2806245523640136,-1.0161836783038538,0.06721386313438416
1708440776.7354157,-1.1052168607711792,-1.6819874248900355,-2.525961224232809,2.2806526857563476,-1.0161665121661585,0.06715594977140427
1708440776.7374105,-1.1051616668701172,-1.6820455990233363,-2.5260239283191126,2.2806319433399658,-1.016207520161764,0.0671887919306755
1708440776.7393928,-1.105207920074463,-1.6820694408812464,-2.5260356108294886,2.2806481558033447,-1.0161860624896448,0.0672006905078888
1708440776.7414722,-1.1052815914154053,-1.6820603809752406,-2.5260313192950647,2.2806691366383056,-1.0161874930011194,0.06717252731323242
1708440776.7434163,-1.105236291885376,-1.6820651493468226,-2.5259819666491907,2.2806646066853027,-1.0161297957049769,0.06714720278978348
1708440776.745462,-1.1052861213684082,-1.6820441685118617,-2.525998655949728,2.280672474498413,-1.0161588827716272,0.06716381758451462
1708440776.7474546,-1.1052652597427368,-1.682016511956686,-2.5260489622699183,2.280651016826294,-1.0161789099322718,0.06715947389602661
1708440776.7494214,-1.105277180671692,-1.6820231876769007,-2.525965754185812,2.280668182963989,-1.016224209462301,0.06720951199531555
1708440776.7514017,-1.105277180671692,-1.68204989055776,-2.5260120073901575,2.280681534404419,-1.0161502997027796,0.06713095307350159
1708440776.753417,-1.1052390336990356,-1.6819993458189906,-2.5259907881366175,2.280668182963989,-1.0161789099322718,0.0671352818608284
1708440776.7554505,-1.105219841003418,-1.6819788418211878,-2.525949303303854,2.2806600767322998,-1.0161545912372034,0.06718448549509048
1708440776.757458,-1.105277180671692,-1.6820255718626917,-2.5259864966021937,2.280696316356323,-1.016151253377096,0.06720506399869919
1708440776.7594118,-1.1052345037460327,-1.6820208034911097,-2.5259864966021937,2.280729218120239,-1.0161545912372034,0.06716906279325485
1708440776.7614164,-1.1052680015563965,-1.6819874248900355,-2.5260239283191126,2.2807082372852783,-1.016135040913717,0.06716036051511765
1708440776.7634182,-1.1052963733673096,-1.6819921932616175,-2.525994125996725,2.2807246881672363,-1.0161469618426722,0.06715594232082367
1708440776.7653847,-1.1052873134613037,-1.6819755039610804,-2.5259745756732386,2.280745430583618,-1.0161588827716272,0.0671396553516388
1708440776.7673965,-1.1052874326705933,-1.6820084057249964,-2.5259910265551966,2.2807530599781494,-1.0161750952350062,0.06716471910476685
1708440776.7694066,-1.1052799224853516,-1.6819874248900355,-2.5259907881366175,2.2807366090961914,-1.0161750952350062,0.06717696785926819
1708440776.7714238,-1.1053082942962646,-1.6819802723326625,-2.5259996096240442,2.280772848720215,-1.016163174306051,0.06715590506792068
1708440776.7734118,-1.1052873134613037,-1.6819845638670863,-2.5259953180896204,2.2807158666798095,-1.016135040913717,0.0671844556927681
1708440776.7753954,-1.1053365468978882,-1.6820432148375453,-2.5259624163257044,2.2807158666798095,-1.016163174306051,0.06712332367897034
1708440776.7774365,-1.1053440570831299,-1.6819802723326625,-2.5260029474841517,2.280766173,-1.0161555449115198,0.0672423243522644
1708440776.7793994,-1.1053111553192139,-1.6820546589293421,-2.5259581247912806,2.2807773786732177,-1.0161383787738245,0.06717786192893982
1708440776.7814312,-1.1053231954574585,-1.681981702844137,-2.5259907881366175,2.2806903558918457,-1.0161102453814905,0.06720951199531555
1708440776.783428,-1.1053410768508911,-1.681997915307516,-2.5259996096240442,2.2807773786732177,-1.0161436239825647,0.0671812891960144
1708440776.785413,-1.1053847074508667,-1.68198885540151,-2.525971237813131,2.2807187277027587,-1.016151253377096,0.0671844333410263
1708440776.7873871,-1.105339527130127,-1.681969781915182,-2.5260193983661097,2.2807366090961914,-1.0161035696612757,0.06714717298746109
1708440776.7893877,-1.1053348779678345,-1.6819216213622035,-2.526015106831686,2.2807935911365966,-1.0161154905902308,0.06718878448009491
1708440776.791477,-1.105342984199524,-1.681864400903219,-2.525998655949728,2.2807485300251464,-1.0160992781268519,0.0671887993812561
1708440776.7934954,-1.1053303480148315,-1.6819459400572718,-2.5259667078601282,2.280772848720215,-1.0160673300372522,0.06720194220542908
1708440776.7954414,-1.105359435081482,-1.6818725071349085,-2.5259791056262415,2.2808219629475097,-1.0160992781268519,0.0671887993812561
1708440776.7974524,-1.1053847074508667,-1.6818272076048792,-2.5260162989245813,2.280761881465576,-1.0160797278033655,0.06713652610778809
1708440776.7994013,-1.1053802967071533,-1.6818396053709925,-2.526041332875387,2.280756397838257,-1.0160797278033655,0.06714721769094467
1708440776.8013997,-1.1053757667541504,-1.681803365746969,-2.5259953180896204,2.2807351785847167,-1.0160840193377894,0.06719323992729187
1708440776.8034496,-1.105330467224121,-1.6818248234190882,-2.526053253804342,2.280792160625122,-1.0160673300372522,0.06719759106636047
1708440776.8054135,-1.1053638458251953,-1.681862016717428,-2.5260239283191126,2.280833883876465,-1.0160673300372522,0.0671800822019577
1708440776.8074942,-1.1053802967071533,-1.681866308251852,-2.5260654131518763,2.280756397838257,-1.016071621571676,0.0671844482421875
1708440776.8094141,-1.1053439378738403,-1.6818119488158167,-2.5260325113879603,2.2807440000721435,-1.0160468260394495,0.06714287400245667
1708440776.8114264,-1.1053565740585327,-1.681833883325094,-2.5260117689715784,2.2807983595081787,-1.0160511175738733,0.06712660193443298
1708440776.8134015,-1.1053593158721924,-1.6818539104857386,-2.5259996096240442,2.2807187277027587,-1.0160067717181605,0.06717252731323242
1708440776.8153803,-1.1053893566131592,-1.6818257770934046,-2.5260162989245813,2.280789299602173,-1.0160391966449183,0.06711908429861069
1708440776.817385,-1.1053922176361084,-1.681770463983053,-2.5259667078601282,2.280752106303833,-1.0160272757159632,0.06717696785926819
1708440776.8193948,-1.1053475141525269,-1.6818210087218226,-2.5259953180896204,2.280768557185791,-1.0160520712481897,0.067176952958107
1708440776.8213873,-1.1053906679153442,-1.6817532978453578,-2.526004139577047,2.2807609277912597,-1.0160391966449183,0.0671844482421875
1708440776.8234146,-1.1053996086120605,-1.6817838154234828,-2.5259833971606653,2.280772848720215,-1.0160272757159632,0.06716817617416382
1708440776.8253927,-1.1054457426071167,-1.6818167171873988,-2.525959316884176,2.2807609277912597,-1.0160802046405237,0.06717252731323242
1708440776.8274202,-1.1053801774978638,-1.6817671261229457,-2.5259462038623255,2.2807819086262207,-1.0160067717181605,0.06720072031021118
1708440776.8293974,-1.1053340435028076,-1.681718488732809,-2.5259879271136683,2.280817432994507,-1.0160349051104944,0.06715592741966248
1708440776.8313859,-1.1053831577301025,-1.6817928753294886,-2.5259996096240442,2.2808381754108886,-1.0160229841815394,0.06711903214454651
1708440776.8333993,-1.1053757667541504,-1.6818047962584437,-2.5259879271136683,2.2807819086262207,-1.016047779713766,0.06717342138290405
1708440776.8353894,-1.1053742170333862,-1.6818801365294398,-2.525947395955221,2.2807935911365966,-1.0160067717181605,0.0671146810054779
1708440776.8374095,-1.1053876876831055,-1.6818539104857386,-2.525959316884176,2.280801220531128,-1.016080681477682,0.0671396255493164
1708440776.8393943,-1.1054141521453857,-1.681838174859518,-2.5259342829333704,2.28078476964917,-1.0160077253924769,0.06717252731323242
1708440776.8413892,-1.1053906679153442,-1.6818200550475062,-2.525971237813131,2.28080861150708,-1.016003433858053,0.06713217496871948
1708440776.8434565,-1.1053977012634277,-1.681840559045309,-2.525959316884176,2.280801220531128,-1.016003433858053,0.06716382503509521
1708440776.8454368,-1.1054023504257202,-1.681838174859518,-2.525951687489645,2.280817432994507,-1.0159457365619105,0.0671844482421875
1708440776.84748,-1.1054404973983765,-1.6818210087218226,-2.5258939901935022,2.280756397838257,-1.0159671942340296,0.06716382503509521
1708440776.8494194,-1.1054482460021973,-1.6818210087218226,-2.525935475026266,2.28074757635083,-1.015954319630758,0.06716036796569824
1708440776.8514085,-1.105420470237732,-1.6817838154234828,-2.5259531180011194,2.2807773786732177,-1.015958611165182,0.06717696785926819
1708440776.8534422,-1.1054664850234985,-1.6818257770934046,-2.5258665720569056,2.2808427053638916,-1.0159433523761194,0.06720507144927979
1708440776.855406,-1.1054739952087402,-1.681774755517477,-2.5258427301989954,2.2807394701191406,-1.0159466902362269,0.06716471910476685
1708440776.8574412,-1.1054528951644897,-1.6818586788573207,-2.525896135960714,2.28077141820874,-1.0159834066974085,0.0671844482421875
1708440776.8594575,-1.1054482460021973,-1.681838174859518,-2.5258753935443323,2.280775948161743,-1.0159671942340296,0.06719759106636047
1708440776.861444,-1.1054141521453857,-1.681807657281393,-2.5258503595935267,2.280817432994507,-1.0159791151629847,0.06719323992729187
1708440776.863408,-1.1054141521453857,-1.6818119488158167,-2.5258265177356165,2.2808381754108886,-1.0159714857684534,0.06718131899833679
1708440776.8654218,-1.1054267883300781,-1.681833883325094,-2.5258427301989954,2.2808427053638916,-1.0159791151629847,0.06717255711555481
1708440776.8674119,-1.1054115295410156,-1.6818047962584437,-2.5258591810809534,2.28078476964917,-1.0159629026996058,0.06721264123916626
1708440776.8694167,-1.1054528951644897,-1.6818257770934046,-2.525839630757467,2.2808055120655517,-1.0159433523761194,0.06714722514152527
1708440776.8714607,-1.1054188013076782,-1.6818496189513148,-2.5258646647082728,2.280764027232788,-1.0159381071673792,0.06718876957893372
1708440776.873453,-1.1054482460021973,-1.6818210087218226,-2.525843922291891,2.2808219629475097,-1.0159228483783167,0.06719323992729187
1708440776.8754382,-1.1054482460021973,-1.6818448505797328,-2.5258219877826136,2.280804081554077,-1.0159347693072718,0.06717252731323242
1708440776.877535,-1.1054646968841553,-1.6818005047240199,-2.5258308092700403,2.280764027232788,-1.0159433523761194,0.06717252731323242
1708440776.8794525,-1.105427861213684,-1.6818167171873988,-2.525851551686422,2.280820532436035,-1.0159271399127405,0.06717252731323242
1708440776.8814745,-1.1054311990737915,-1.6817957363524378,-2.5258265177356165,2.280813141460083,-1.0159314314471644,0.06716818362474442
1708440776.883462,-1.1054528951644897,-1.6818138561644496,-2.525851551686422,2.2807833391376953,-1.0159152189837855,0.06720828264951706
1708440776.8854165,-1.1054311990737915,-1.6818210087218226,-2.525872294102804,2.280792160625122,-1.0158904234515589,0.06720072031021118
1708440776.887437,-1.1054645776748657,-1.681786676446432,-2.5258308092700403,2.280792160625122,-1.0159314314471644,0.06722486764192581
1708440776.8894246,-1.1054438352584839,-1.6818257770934046,-2.5258353392230433,2.280792160625122,-1.0159638563739222,0.06723353266716003
1708440776.8914323,-1.1054267883300781,-1.6817957363524378,-2.5258427301989954,2.2808219629475097,-1.0158794561969202,0.06717133522033691
1708440776.89344,-1.1054482460021973,-1.6818539104857386,-2.525904957448141,2.28080861150708,-1.0158584753619593,0.06719637662172318
1708440776.89545,-1.1054528951644897,-1.681807657281393,-2.525855843220846,2.28080861150708,-1.0158665815936487,0.06721264123916626
1708440776.8974416,-1.1054234504699707,-1.6818257770934046,-2.5258470217334192,2.280768318767212,-1.0159195105182093,0.06720385700464249
1708440776.8994358,-1.1054856777191162,-1.6818119488158167,-2.525884215031759,2.280775948161743,-1.015968147908346,0.06717130541801453
1708440776.9014277,-1.1055138111114502,-1.6818472347655238,-2.525872294102804,2.2808145719715576,-1.0159075895892542,0.06720293313264847
1708440776.903432,-1.1054311990737915,-1.6818119488158167,-2.525851551686422,2.280775948161743,-1.015940014516012,0.06722044944763184
1708440776.905447,-1.1054645776748657,-1.681833883325094,-2.525818649922506,2.28078476964917,-1.0159204641925257,0.06721267104148865
1708440776.9074311,-1.1054482460021973,-1.6818090877928675,-2.5258353392230433,2.2808055120655517,-1.0159528891192835,0.06722044944763184
1708440776.9093986,-1.1054266691207886,-1.6818167171873988,-2.525876585637228,2.280817432994507,-1.01585561433901,0.0672248899936676
1708440776.9113886,-1.1054482460021973,-1.6818005047240199,-2.525900427495138,2.280764027232788,-1.0159075895892542,0.06720827519893646
1708440776.913435,-1.1054766178131104,-1.6818210087218226,-2.525851551686422,2.280817432994507,-1.0158751646624964,0.06722044944763184
1708440776.9154243,-1.1054267883300781,-1.6818005047240199,-2.525872294102804,2.280813141460083,-1.015895191823141,0.06722043454647064
1708440776.9174047,-1.1054645776748657,-1.6818257770934046,-2.525839630757467,2.280813141460083,-1.0159204641925257,0.06726931035518646
1708440776.9194133,-1.1054693460464478,-1.681833883325094,-2.525843922291891,2.2808219629475097,-1.0158470312701624,0.06726490706205368
1708440776.9214365,-1.1054675579071045,-1.6817885837950648,-2.5258811155902308,2.280789299602173,-1.0158513228045862,0.06725297123193741
1708440776.9234114,-1.1054279804229736,-1.681829114953512,-2.5258470217334192,2.28078476964917,-1.015862766896383,0.06723235547542572
1708440776.9253976,-1.1054311990737915,-1.6817671261229457,-2.5258222262011927,2.280780239696167,-1.0158432165728968,0.06727281957864761
1708440776.927437,-1.1054311990737915,-1.681791444818014,-2.5258265177356165,2.280775948161743,-1.0159009138690394,0.06723122298717499
1708440776.9293938,-1.1054482460021973,-1.681774755517477,-2.525860373173849,2.280752106303833,-1.0158355871783655,0.067231185734272
1708440776.931428,-1.1054784059524536,-1.6818167171873988,-2.525851551686422,2.28078476964917,-1.0158842245685022,0.06727595627307892
1708440776.9333913,-1.1054664850234985,-1.6818448505797328,-2.525900427495138,2.280768318767212,-1.0158355871783655,0.06729533523321152
1708440776.9354155,-1.1054234504699707,-1.6818257770934046,-2.525876585637228,2.2807819086262207,-1.0158684889422815,0.06732939928770065
1708440776.9373872,-1.105376958847046,-1.6817647419371546,-2.5258353392230433,2.2808219629475097,-1.0158684889422815,0.06729099154472351
1708440776.9393983,-1.1054069995880127,-1.6818047962584437,-2.525867764149801,2.280792160625122,-1.0158684889422815,0.06734882295131683
1708440776.941405,-1.105435848236084,-1.681838174859518,-2.525851551686422,2.280801220531128,-1.0158966223346155,0.06734881550073624
1708440776.943446,-1.1054234504699707,-1.6818090877928675,-2.525802199040548,2.2807983595081787,-1.0158641974078577,0.06732822954654694
1708440776.9454737,-1.1054482460021973,-1.6818167171873988,-2.525839630757467,2.2808262544819335,-1.0158236662494105,0.06736105680465698
1708440776.9474587,-1.1053978204727173,-1.6817885837950648,-2.5258470217334192,2.280756397838257,-1.0158517996417444,0.06732387840747833
1708440776.9494627,-1.1054575443267822,-1.6818300686278285,-2.5258308092700403,2.2807862001606445,-1.0158270041095179,0.06739354878664017
1708440776.9514556,-1.1054619550704956,-1.6818257770934046,-2.525839630757467,2.2807773786732177,-1.0158727804767054,0.06732387840747833
1708440776.9534369,-1.105435848236084,-1.681737562219137,-2.525818649922506,2.280780239696167,-1.0158727804767054,0.06733568757772446
1708440776.9554663,-1.1053931713104248,-1.6818496189513148,-2.525893036519186,2.280756397838257,-1.015822712575094,0.06736859679222107
1708440776.9575117,-1.1054664850234985,-1.6818047962584437,-2.525879685078756,2.280817432994507,-1.015810791646139,0.06739792972803116
1708440776.9594302,-1.1054575443267822,-1.681791444818014,-2.525855843220846,2.2807981210895996,-1.0158312956439417,0.06739792227745056
1708440776.9614403,-1.1054141521453857,-1.6818586788573207,-2.52582294145693,2.280789299602173,-1.015848461781637,0.06739675253629684
1708440776.96341,-1.1054646968841553,-1.681873460809225,-2.525810782109396,2.28074757635083,-1.0158517996417444,0.06736422330141068
1708440776.9654276,-1.1054482460021973,-1.6818109951415003,-2.5258353392230433,2.2807609277912597,-1.0158517996417444,0.06739673763513565
1708440776.9674127,-1.105435848236084,-1.681866308251852,-2.52586800256838,2.2807230192371826,-1.0158684889422815,0.06732705980539322
1708440776.9694088,-1.1054234504699707,-1.6818109951415003,-2.525851551686422,2.2807819086262207,-1.0158517996417444,0.067395880818367
1708440776.9714487,-1.1054024696350098,-1.681829114953512,-2.525855843220846,2.2807771402546386,-1.0158599058734339,0.06740464270114899
1708440776.9734335,-1.1054141521453857,-1.681829114953512,-2.5257814566241663,2.280780239696167,-1.0158398787127894,0.06735869497060776
1708440776.9754226,-1.1053813695907593,-1.681779523889059,-2.525855843220846,2.280721827144287,-1.0158355871783655,0.06736737489700317
1708440776.9774199,-1.1054739952087402,-1.681833883325094,-2.5258646647082728,2.28078476964917,-1.0158150831805628,0.06741650402545929
1708440776.9794426,-1.1054188013076782,-1.6818005047240199,-2.525794569646017,2.2807773786732177,-1.0158236662494105,0.067395880818367
1708440776.9814026,-1.105435848236084,-1.681833883325094,-2.525879685078756,2.2807819086262207,-1.015810791646139,0.0674164667725563
1708440776.983434,-1.1054188013076782,-1.6818210087218226,-2.525893036519186,2.280772848720215,-1.0158441702472132,0.06737929582595825
1708440776.9854338,-1.1054141521453857,-1.681840559045309,-2.5258317629443567,2.2807394701191406,-1.0158432165728968,0.06741213798522949
1708440776.9874108,-1.1054528951644897,-1.6818167171873988,-2.5258143583880823,2.2807230192371826,-1.0158312956439417,0.06739239394664764
1708440776.9894023,-1.1054141521453857,-1.681791444818014,-2.525867764149801,2.2808055120655517,-1.0158770720111292,0.067395880818367
1708440776.9914224,-1.105435848236084,-1.681840559045309,-2.5258317629443567,2.2808262544819335,-1.0158560911761683,0.06743155419826508
1708440776.9934537,-1.1053978204727173,-1.6818210087218226,-2.52586800256838,2.2807654577442626,-1.0158355871783655,0.06742839515209198
1708440776.9954486,-1.1053743362426758,-1.681866308251852,-2.525855843220846,2.2807187277027587,-1.0158441702472132,0.06746124476194382
1708440776.9974318,-1.1054115295410156,-1.681833883325094,-2.525802199040548,2.2807699876972656,-1.0158193747149866,0.06743597239255905
1708440776.9994195,-1.105435848236084,-1.6817838154234828,-2.5258353392230433,2.2807773786732177,-1.0158475081073206,0.0674089789390564
1708440777.0014067,-1.1054449081420898,-1.6818210087218226,-2.525843922291891,2.2807819086262207,-1.0158355871783655,0.06737929582595825
1708440777.0034096,-1.105427861213684,-1.6817885837950648,-2.5258427301989954,2.2808055120655517,-1.015832249318258,0.06741213798522949
1708440777.0054028,-1.1054248809814453,-1.6817556820311488,-2.5258646647082728,2.2807773786732177,-1.0158279577838343,0.06743597984313965
1708440777.0074315,-1.1054115295410156,-1.6817885837950648,-2.5258153120623987,2.2807952600666503,-1.0158117453204554,0.06738363206386566
1708440777.0094032,-1.1054115295410156,-1.6818138561644496,-2.5258098284350794,2.2807411390491943,-1.0158150831805628,0.06740021705627441
1708440777.011412,-1.105432391166687,-1.6818005047240199,-2.525802199040548,2.2807530599781494,-1.0158441702472132,0.06742838770151138
1708440777.0134206,-1.105415940284729,-1.6818047962584437,-2.5258973280536097,2.2807068067738037,-1.0158441702472132,0.06744465976953506
1708440777.0154307,-1.1053787469863892,-1.6817757091917933,-2.525832001362936,2.280789299602173,-1.0158684889422815,0.06744902580976486
1708440777.017405,-1.1054494380950928,-1.681770463983053,-2.52584416071047,2.2807394701191406,-1.0158441702472132,0.06745690107345581
1708440777.0194397,-1.1054071187973022,-1.6817671261229457,-2.525872294102804,2.2807366090961914,-1.0158727804767054,0.06743154674768448
1708440777.0214143,-1.1054115295410156,-1.681871076623434,-2.525855843220846,2.2807201582142334,-1.0158432165728968,0.06748175621032715
1708440777.0234244,-1.1054575443267822,-1.681833883325094,-2.525860373173849,2.2807158666798095,-1.0158279577838343,0.0674525797367096
1708440777.025446,-1.1054449081420898,-1.6818047962584437,-2.525843922291891,2.2807609277912597,-1.0158160368548792,0.0674164742231369
1708440777.0273995,-1.1054069995880127,-1.681833883325094,-2.525818649922506,2.2808100420185546,-1.0158641974078577,0.06742405891418457
1708440777.0293999,-1.1053787469863892,-1.681833883325094,-2.5258527437793177,2.2807349401661376,-1.0158441702472132,0.06743597984313965
1708440777.0314107,-1.1053977012634277,-1.6818210087218226,-2.525851551686422,2.2807394701191406,-1.0158160368548792,0.06743597984313965
1708440777.0334182,-1.1054141521453857,-1.6817580662169398,-2.525818649922506,2.2807440000721435,-1.0158517996417444,0.06746124476194382
1708440777.0353897,-1.1054097414016724,-1.6818210087218226,-2.5258353392230433,2.2807440000721435,-1.0158355871783655,0.06747739762067795
1708440777.037401,-1.1053906679153442,-1.6818167171873988,-2.5258646647082728,2.2807983595081787,-1.0158270041095179,0.06738720089197159
1708440777.0394087,-1.105427861213684,-1.6818210087218226,-2.525893036519186,2.2807528215595703,-1.0157869497882288,0.067395880818367
1708440777.0414145,-1.1054368019104004,-1.6817757091917933,-2.525827471409933,2.2807907301136474,-1.0158475081073206,0.06744463741779327
1708440777.043437,-1.1054368019104004,-1.6818300686278285,-2.5258353392230433,2.2808191019245605,-1.0158031622516077,0.06741529703140259
1708440777.0454497,-1.1054449081420898,-1.6817928753294886,-2.525823179875509,2.2807230192371826,-1.0158355871783655,0.06744463741779327
1708440777.0474985,-1.1054404973983765,-1.6817757091917933,-2.525827471409933,2.2807394701191406,-1.0158355871783655,0.0673946961760521
1708440777.0494337,-1.1054482460021973,-1.6818300686278285,-2.525811020527975,2.2807699876972656,-1.0158517996417444,0.06745686382055283
1708440777.0514581,-1.1054450273513794,-1.6818210087218226,-2.525843922291891,2.2807320791431884,-1.0158312956439417,0.0673990324139595
1708440777.0534241,-1.1054071187973022,-1.6818138561644496,-2.525855843220846,2.280764027232788,-1.0158355871783655,0.06743597984313965
1708440777.0554419,-1.1054024696350098,-1.6817532978453578,-2.525855843220846,2.2807609277912597,-1.0158727804767054,0.067391537129879
1708440777.0574777,-1.1054494380950928,-1.6818257770934046,-2.5258196035968226,2.280789299602173,-1.015822712575094,0.06739150732755661
1708440777.059434,-1.105432391166687,-1.6817690334715785,-2.5258317629443567,2.2808219629475097,-1.0158684889422815,0.06744463741779327
1708440777.0613842,-1.1054234504699707,-1.6817757091917933,-2.525818649922506,2.2807656961628417,-1.0158355871783655,0.06745690107345581
1708440777.063404,-1.1053906679153442,-1.6817976437010707,-2.525851551686422,2.2807773786732177,-1.0158599058734339,0.0673959031701088
1708440777.0653894,-1.1054160594940186,-1.6817976437010707,-2.525855843220846,2.2807609277912597,-1.0158641974078577,0.06745259463787079
1708440777.067463,-1.1054279804229736,-1.6817838154234828,-2.525818649922506,2.280801220531128,-1.0158270041095179,0.06742838770151138
1708440777.0693796,-1.1054024696350098,-1.6817599735655726,-2.5258472601519983,2.280752106303833,-1.015822712575094,0.06746124476194382
1708440777.0714436,-1.1054449081420898,-1.6817895374693812,-2.525855843220846,2.2807022768208007,-1.0158517996417444,0.0673990324139595
1708440777.0734212,-1.1053951978683472,-1.6817780933775843,-2.5258527437793177,2.2807230192371826,-1.0158270041095179,0.06744031608104706
1708440777.0754204,-1.1054071187973022,-1.6817409000792445,-2.525797669087545,2.2808100420185546,-1.0158432165728968,0.06741650402545929
1708440777.0774317,-1.1054528951644897,-1.6817647419371546,-2.525876585637228,2.2808100420185546,-1.015838925038473,0.0674251839518547
1708440777.0794368,-1.1054404973983765,-1.6817780933775843,-2.525818649922506,2.2807349401661376,-1.0158756414996546,0.06739150732755661
1708440777.0814514,-1.1054234504699707,-1.6817475757994593,-2.5258470217334192,2.280789299602173,-1.0158312956439417,0.06741972267627716
1708440777.0834336,-1.1054325103759766,-1.6817847690977992,-2.5258472601519983,2.280764027232788,-1.015867058430807,0.06738719344139099
1708440777.0854032,-1.1054575443267822,-1.6817733250060023,-2.5258916060077112,2.2807981210895996,-1.0158684889422815,0.06738723814487457
1708440777.0874238,-1.1054857969284058,-1.6817780933775843,-2.5258265177356165,2.2807654577442626,-1.0159209410296839,0.0673467218875885
1708440777.0894027,-1.1054234504699707,-1.681728025475973,-2.525827471409933,2.280743046397827,-1.0158923308001917,0.06742953509092331
1708440777.091394,-1.10551118850708,-1.6817523441710414,-2.5258472601519983,2.2808262544819335,-1.0158880392657679,0.06737613677978516
1708440777.0934246,-1.1054575443267822,-1.6817895374693812,-2.525904957448141,2.2808055120655517,-1.0159247557269495,0.06738805770874023
1708440777.0954273,-1.1054675579071045,-1.681760927239889,-2.525855843220846,2.280764027232788,-1.0159075895892542,0.0673522874712944
1708440777.0974708,-1.1055094003677368,-1.6817523441710414,-2.525848452244894,2.2808665472218017,-1.0158866087542933,0.06736856698989868
1708440777.0994112,-1.1054437160491943,-1.6817409000792445,-2.5258427301989954,2.280792160625122,-1.0159323851214808,0.06731194257736206
1708440777.1014278,-1.1054631471633911,-1.6817499599852503,-2.5258634726153772,2.280804081554077,-1.0159314314471644,0.06734447181224823
1708440777.1034353,-1.1054257154464722,-1.681774755517477,-2.525851551686422,2.280775948161743,-1.0159714857684534,0.06722689419984818
1708440777.1054118,-1.1054468154907227,-1.6817237339415492,-2.525851551686422,2.2807952600666503,-1.0159724394427698,0.06726837158203125
1708440777.1073966,-1.1054840087890625,-1.6817075214781703,-2.525851551686422,2.280833883876465,-1.0160000959979456,0.06726405024528503
1708440777.1094358,-1.105472207069397,-1.6817699871458949,-2.525867764149801,2.280836983317993,-1.0159872213946741,0.0672074407339096
1708440777.1114461,-1.1054795980453491,-1.6817451916136683,-2.525867764149801,2.2808443742939453,-1.0159829298602503,0.06721609085798264
1708440777.1134017,-1.1054750680923462,-1.6817180118956507,-2.525867764149801,2.2808233934589843,-1.015991512929098,0.06716383248567581
1708440777.1153882,-1.1055376529693604,-1.681704660455221,-2.5258591810809534,2.2808069425770263,-1.0160639921771448,0.06718988716602325
1708440777.1173832,-1.1054840087890625,-1.681687971154684,-2.525872294102804,2.2808279234119873,-1.016043488179342,0.06712460517883301
1708440777.119413,-1.1054959297180176,-1.681692739526266,-2.5258708635913294,2.2808641630360107,-1.0160554091082972,0.06709172576665878
1708440777.121415,-1.105516791343689,-1.681687971154684,-2.5258918444262903,2.280859871501587,-1.0160186926471155,0.06708976626396179
1708440777.123447,-1.1055034399032593,-1.68162264446401,-2.525916878377096,2.280908985728882,-1.0160673300372522,0.06701066344976425
1708440777.125398,-1.105528712272644,-1.6817251644530238,-2.5258904139148157,2.280930443401001,-1.0161164442645472,0.06701217591762543
1708440777.127446,-1.105512261390686,-1.6817389927306117,-2.5259249846087855,2.280921383494995,-1.0161240736590784,0.06697142869234085
1708440777.129416,-1.1054779291152954,-1.6817971668639125,-2.5259411970721644,2.2809783655354003,-1.0161078611956995,0.06692350655794144
1708440777.1314309,-1.1055457592010498,-1.6816851101317347,-2.5258784929858606,2.280899925822876,-1.0161154905902308,0.06693685054779053
1708440777.133449,-1.1055078506469727,-1.6816760502257289,-2.5259442965136927,2.280921383494995,-1.016135040913717,0.0669175311923027
1708440777.1354077,-1.1055078506469727,-1.6816727123656214,-2.5259550253497522,2.280928774470947,-1.01617938676943,0.06683958321809769
1708440777.1373823,-1.1054823398590088,-1.6816817722716273,-2.525942866002218,2.2809485632130126,-1.0161917845355433,0.06679607182741165
1708440777.1393926,-1.1055004596710205,-1.6816984615721644,-2.526004139577047,2.2810157972523193,-1.0162232557879847,0.06673632562160492
1708440777.1414278,-1.1055034399032593,-1.681692739526266,-2.5260444323169153,2.280972405070923,-1.01628286043276,0.06663905084133148
1708440777.1434445,-1.1055078506469727,-1.6816760502257289,-2.5259953180896204,2.2809695440479736,-1.0162628332721155,0.06664933264255524
1708440777.1454282,-1.1055232286453247,-1.6816612682738246,-2.5260193983661097,2.280975504512451,-1.0162909666644495,0.0665639191865921
1708440777.147484,-1.1054942607879639,-1.6817151508727015,-2.5260806719409388,2.280984325999878,-1.0163148085223597,0.06648745387792587
1708440777.149431,-1.1055197715759277,-1.6817017994322718,-2.526109043751852,2.281083269710205,-1.0163958708392542,0.0664515420794487
1708440777.1514301,-1.1055107116699219,-1.6817017994322718,-2.526092592869894,2.2810370165058593,-1.016346279774801,0.06638728082180023
1708440777.1534164,-1.1055241823196411,-1.6817017994322718,-2.526128594075338,2.2810534673878173,-1.0163582007037562,0.0663527101278305
1708440777.155431,-1.1055368185043335,-1.6816593609251917,-2.5261359850512903,2.2810489374348144,-1.0164311567889612,0.06622692942619324
1708440777.1575222,-1.1055197715759277,-1.681704660455221,-2.5261929670916956,2.2810444074818115,-1.0164387861834925,0.06619227677583694
1708440777.1594238,-1.105532169342041,-1.6816803417601527,-2.526151482258932,2.2810579973408203,-1.0164745489703577,0.06610392779111862
1708440777.1614187,-1.1055078506469727,-1.681704660455221,-2.526203457509176,2.2810415464588623,-1.0164745489703577,0.06603966653347015
1708440777.1634183,-1.1055412292480469,-1.681741853753561,-2.5261858145343226,2.281078739757202,-1.0165594259845179,0.06595107913017273
1708440777.1654227,-1.1054987907409668,-1.6817461452879847,-2.5262561480151575,2.2810067373463134,-1.0165184179889124,0.06587158143520355
1708440777.16742,-1.1055151224136353,-1.681692739526266,-2.526275936757223,2.281078739757202,-1.0165379683123987,0.06584586203098297
1708440777.1693952,-1.1055502891540527,-1.6817017994322718,-2.5263150374041956,2.2810324865528564,-1.0165866057025355,0.06572486460208893
1708440777.1713958,-1.105516791343689,-1.6816894016661585,-2.5263400713550013,2.2810444074818115,-1.0166142622577112,0.06558703631162643
1708440777.1734145,-1.1055004596710205,-1.6817461452879847,-2.5263970533954065,2.2810727792927246,-1.0167315641986292,0.06551613658666611
1708440777.1754193,-1.105516791343689,-1.6817251644530238,-2.52638823190798,2.2810684877583007,-1.0167468229876917,0.06545008718967438
1708440777.1774359,-1.105532169342041,-1.6816970310606898,-2.5264230410205286,2.2811099725910644,-1.0168231169330042,0.06533204019069672
1708440777.1793892,-1.1054794788360596,-1.6817132435240687,-2.5264273325549524,2.2810653883167724,-1.0168793837176722,0.06519568711519241
1708440777.1814623,-1.1055243015289307,-1.681704660455221,-2.5264435450183313,2.2811054426380615,-1.0169103781329554,0.06507466733455658
1708440777.1833913,-1.1054705381393433,-1.6817370853819789,-2.526499334965841,2.2810727792927246,-1.0169909636126917,0.06499924510717392
1708440777.1854343,-1.1054959297180176,-1.681692739526266,-2.5265024344073694,2.2811307150074462,-1.0170658270465296,0.06488842517137527
1708440777.1874077,-1.1054915189743042,-1.681699892083639,-2.5265191237079065,2.2810370165058593,-1.0171259085284632,0.06475642323493958
1708440777.1893892,-1.1054646968841553,-1.6816970310606898,-2.5265710989581507,2.2810563284107666,-1.017209831868307,0.06466849148273468
1708440777.1914206,-1.1054177284240723,-1.6817089519896449,-2.526545826588766,2.2810847002216796,-1.0172413031207483,0.0645318254828453
1708440777.193455,-1.105435848236084,-1.681732793847555,-2.526619259511129,2.2810727792927246,-1.0173338095294397,0.06442521512508392
1708440777.1954694,-1.105435848236084,-1.681687971154684,-2.526635710393087,2.2810401159473876,-1.0174339453326624,0.0642366111278534
1708440777.197455,-1.1054450273513794,-1.6817370853819789,-2.5267043749438685,2.2810892301746826,-1.0174978415118616,0.06410787999629974
1708440777.1994233,-1.1054188013076782,-1.6817542515196742,-2.5267162958728235,2.2810401159473876,-1.0175450483905237,0.0639968290925026
1708440777.2014084,-1.1053996086120605,-1.681741853753561,-2.526727263127462,2.2810651498981933,-1.0176056067096155,0.063867948949337
1708440777.2034166,-1.105366826057434,-1.681791444818014,-2.5267675558673304,2.2810744482227783,-1.0176613966571253,0.06372428685426712
1708440777.205423,-1.105350375175476,-1.6817017994322718,-2.5268166700946253,2.2810892301746826,-1.0177128950702112,0.06359678506851196
1708440777.2075272,-1.105342984199524,-1.6817165813841761,-2.526750151311056,2.2810816007801513,-1.0177486578570765,0.0633947104215622
1708440777.2094128,-1.1053484678268433,-1.6817451916136683,-2.526835266743795,2.2810444074818115,-1.0178487936602991,0.06322682648897171
1708440777.211395,-1.1053484678268433,-1.6817542515196742,-2.526878897343771,2.2810401159473876,-1.0178683439837855,0.06315448135137558
1708440777.2134483,-1.1053276062011719,-1.6817165813841761,-2.526907269154684,2.2810401159473876,-1.0179522673236292,0.06299719214439392
1708440777.2153816,-1.1053082942962646,-1.681728025475973,-2.52692681947817,2.2810892301746826,-1.0180166403399866,0.06280086934566498
1708440777.2174456,-1.1052560806274414,-1.681728025475973,-2.5270000139819544,2.2810980516621093,-1.0181005636798304,0.06263775378465652
1708440777.2194364,-1.1052607297897339,-1.6817499599852503,-2.5270357767688196,2.2810579973408203,-1.0181482473956507,0.062465135008096695
1708440777.22138,-1.1052225828170776,-1.6817409000792445,-2.527043883000509,2.2810324865528564,-1.018240753804342,0.06229418143630028
1708440777.2234128,-1.10520339012146,-1.6817523441710414,-2.5270677248584192,2.281062527293823,-1.018247429524557,0.062096476554870605
1708440777.22542,-1.1051342487335205,-1.6817523441710414,-2.527106825505392,2.281000776881836,-1.0183232466327112,0.06187964230775833
1708440777.227444,-1.1050968170166016,-1.6818062267699183,-2.5271547476397913,2.2810579973408203,-1.018395725880758,0.06174885481595993
1708440777.2293944,-1.1051031351089478,-1.6817928753294886,-2.5271998087512415,2.280987425441406,-1.0184758345233362,0.061528708785772324
1708440777.231396,-1.1051374673843384,-1.6818424663939417,-2.527234141026632,2.280959292049072,-1.0185273329364222,0.06136229634284973
1708440777.233407,-1.105128526687622,-1.6818210087218226,-2.527254883443014,2.2809814649769287,-1.018574062977926,0.061103228479623795
1708440777.235391,-1.105026364326477,-1.6818119488158167,-2.5272584597217005,2.2809814649769287,-1.0186503569232386,0.06093797832727432
1708440777.237406,-1.1050474643707275,-1.6818529568114222,-2.527371946965353,2.2809151846119384,-1.0187352339373987,0.06070925295352936
1708440777.2393918,-1.105008840560913,-1.6819068394102992,-2.5273543039904993,2.2809151846119384,-1.0188072363482874,0.06048111245036125
1708440777.2414014,-1.1049708127975464,-1.681831499139303,-2.527424160634176,2.2809530931660156,-1.0189197699176233,0.06027430668473244
1708440777.2434545,-1.104934573173523,-1.681890150109762,-2.5274766127215784,2.280925913447998,-1.0189626852618616,0.06009862199425697
1708440777.2454355,-1.1049318313598633,-1.6819097004332484,-2.5274952093707483,2.28086702405896,-1.0190098921405237,0.05984559282660484
1708440777.2474513,-1.1049154996871948,-1.6819020710387171,-2.527548615132467,2.2809013563343505,-1.0191095511065882,0.059629496186971664
1708440777.2494102,-1.1049171686172485,-1.6818510494627894,-2.5275846163379114,2.280857725734375,-1.0192230383502405,0.05939893051981926
1708440777.251427,-1.1048359870910645,-1.6819201908507289,-2.527599875126974,2.2808233934589843,-1.019254509602682,0.059138223528862
1708440777.2534454,-1.1048285961151123,-1.6819292507567347,-2.5276687780963343,2.2808658319660644,-1.0193536917315882,0.05887747183442116
1708440777.255443,-1.1047475337982178,-1.681981702844137,-2.5276926199542444,2.280804081554077,-1.0194180647479456,0.058576662093400955
1708440777.2575057,-1.10471773147583,-1.6819483242430628,-2.52769118944277,2.280775948161743,-1.0194852987872522,0.05837250500917435
1708440777.2594228,-1.1047028303146362,-1.682014604608053,-2.527792755757467,2.28080861150708,-1.0195420424090784,0.058057751506567
1708440777.261409,-1.1047344207763672,-1.6819845638670863,-2.527836624776022,2.280730648631714,-1.019630257283346,0.05785232037305832
1708440777.263411,-1.1046607494354248,-1.6819874248900355,-2.5278189818011683,2.2807275491901855,-1.0197179953204554,0.057621147483587265
1708440777.2654178,-1.104594349861145,-1.6820341549315394,-2.5278354326831263,2.280700846309326,-1.0197380224811,0.05731118097901344
1708440777.2673974,-1.104543924331665,-1.6820322475829066,-2.527923647557394,2.2806636530109863,-1.019752327595846,0.05702364444732666
1708440777.2694063,-1.1045411825180054,-1.6820980511107386,-2.52796441713442,2.2806691366383056,-1.019881550465719,0.05669839307665825
1708440777.2714055,-1.1044764518737793,-1.6821133098998011,-2.5279510656939905,2.2806436258503417,-1.019872013722555,0.056415461003780365
1708440777.2734601,-1.1044929027557373,-1.6820889912047328,-2.528019730244772,2.280593081111572,-1.0199645201312464,0.05611095577478409
1708440777.2754471,-1.1044442653656006,-1.6820842228331507,-2.528018299733297,2.280576630229614,-1.0200689474688929,0.05583679676055908
1708440777.277437,-1.1044323444366455,-1.6821161709227503,-2.5280750433551233,2.280552311534546,-1.0201285521136683,0.05550846830010414
1708440777.2794566,-1.1043682098388672,-1.6821252308287562,-2.528098169957296,2.280559702510498,-1.0202205816852015,0.05518762022256851
1708440777.2814693,-1.1043319702148438,-1.6821524105467738,-2.5282042662249964,2.2805537420460205,-1.0202391783343714,0.05483540892601013
1708440777.2834244,-1.104246973991394,-1.6821309528746546,-2.528214756642477,2.2805210787006835,-1.020327393208639,0.05451629310846329
1708440777.2853982,-1.1042450666427612,-1.682139059106344,-2.5282354990588587,2.2805062967487792,-1.0204599539386194,0.05423102155327797
1708440777.2874014,-1.1042077541351318,-1.6822091541686,-2.5282684008227747,2.2804593282886962,-1.0205357710467737,0.053861264139413834
1708440777.2893975,-1.1041641235351562,-1.682178636590475,-2.5282986799823206,2.280489369029663,-1.0206001440631312,0.05352102592587471
1708440777.291378,-1.1040701866149902,-1.6821958027281703,-2.5283926169024866,2.280428333873413,-1.0206721464740198,0.05321511998772621
1708440777.2935095,-1.1040518283843994,-1.682261129418844,-2.528367582951681,2.2804133135029296,-1.0206831137286585,0.052858684211969376
1708440777.2954135,-1.1039906740188599,-1.6822229824461878,-2.5283950010882776,2.2804252344318847,-1.0207746664630335,0.05244819074869156
1708440777.2974942,-1.1039797067642212,-1.6823302708067835,-2.528458897267477,2.2803844648548584,-1.0208552519427698,0.05215880647301674
1708440777.2994223,-1.103988766670227,-1.6822511158385218,-2.528458897267477,2.280373974437378,-1.0208705107318323,0.051770444959402084
1708440777.3013973,-1.1038988828659058,-1.6822930775084437,-2.5285397211657923,2.280278368587158,-1.020970646535055,0.051443908363580704
1708440777.303416,-1.1038388013839722,-1.6822706661620082,-2.5285308996783655,2.280345841045044,-1.0210793654071253,0.05101064592599869
1708440777.3054073,-1.1038284301757812,-1.682307859460348,-2.528583590184347,2.280312939281128,-1.0211222807513636,0.050610583275556564
1708440777.3074582,-1.1038086414337158,-1.6823622188963832,-2.5286274592029017,2.2802812296101074,-1.0211742560016077,0.050251998007297516
1708440777.3094497,-1.1037355661392212,-1.6823226414122523,-2.528662983571188,2.280249996776245,-1.0212467352496546,0.04985654726624489
1708440777.3113892,-1.1037298440933228,-1.6823812923827113,-2.5286956469165247,2.280249758357666,-1.0212863127337855,0.04943219572305679
1708440777.3133993,-1.103618860244751,-1.6823770008482875,-2.5287275950061243,2.2801973062702636,-1.0212934652911585,0.049069736152887344
1708440777.3153932,-1.1035405397415161,-1.6824099026122035,-2.5287261644946497,2.2801102834888916,-1.0213983694659632,0.048591889441013336
1708440777.3173864,-1.1035304069519043,-1.6824380360045375,-2.5287590662585657,2.2801284033009033,-1.0214093367206019,0.048179782927036285
1708440777.319382,-1.1035120487213135,-1.6824122867979945,-2.52885610262026,2.2801129060932617,-1.0214574972735804,0.047764793038368225
1708440777.3213801,-1.103450894355774,-1.6823574505248011,-2.5288670698748987,2.2800816732593994,-1.0214932600604456,0.04738973453640938
1708440777.323402,-1.103468894958496,-1.682420393029684,-2.528907362614767,2.280074043864868,-1.0215414206134241,0.046978916972875595
1708440777.3253784,-1.1033902168273926,-1.682420393029684,-2.528919283543722,2.280050440425537,-1.0215771834002894,0.04651786386966705
1708440777.32738,-1.1033501625061035,-1.682415624658102,-2.5289555231677454,2.2799886900135498,-1.0216129461871546,0.04609048366546631
1708440777.329376,-1.1033272743225098,-1.682502885858053,-2.5289586226092737,2.280000610942505,-1.021665398274557,0.045659035444259644
1708440777.3313878,-1.1032706499099731,-1.6824528179564417,-2.528978411351339,2.279939575786255,-1.0217207113849085,0.04520205408334732
1708440777.3333898,-1.103267788887024,-1.682455678979391,-2.529032055531637,2.279945059413574,-1.021768871937887,0.04475826770067215
1708440777.33542,-1.103226900100708,-1.682472368279928,-2.5290141741382044,2.279884024257324,-1.0218046347247522,0.04422961175441742
1708440777.3373961,-1.1032285690307617,-1.6824890575804652,-2.5290501753436487,2.279885454768799,-1.021904770527975,0.04382852464914322
1708440777.33939,-1.1031808853149414,-1.6824757061400355,-2.529102627431051,2.27982680379834,-1.0219367186175745,0.04326576739549637
1708440777.3413773,-1.1031310558319092,-1.6824666462340296,-2.529119078313009,2.2798661428638916,-1.0220006147967737,0.042889147996902466
1708440777.3434408,-1.1030834913253784,-1.6824914417662562,-2.5291548410998743,2.2798401552387695,-1.0220769087420862,0.042416758835315704
1708440777.3454306,-1.1030681133270264,-1.6825443706908167,-2.529158417378561,2.2798327642628173,-1.0221169630633753,0.04199529066681862
1708440777.347441,-1.1030234098434448,-1.6825443706908167,-2.5291910807238978,2.27981345235791,-1.0221651236163538,0.04151443392038345
1708440777.349423,-1.103008508682251,-1.6825396023192347,-2.529231373463766,2.279747410411499,-1.022200886403219,0.04110396280884743
1708440777.3514514,-1.1029597520828247,-1.6825562916197718,-2.5291808287249964,2.2797607618519287,-1.0221999327289026,0.04059460759162903
1708440777.3533998,-1.1029342412948608,-1.6825834713377894,-2.529222551976339,2.2797488409229736,-1.0221946875201624,0.04011023789644241
1708440777.355405,-1.102924108505249,-1.68259920696401,-2.5292792955981653,2.2797369199940185,-1.0223000685321253,0.0396229512989521
1708440777.3574133,-1.102912187576294,-1.6826039753355921,-2.5292869249926966,2.2796639639088134,-1.0222871939288538,0.03918401151895523
1708440777.3594208,-1.102859616279602,-1.6826774082579554,-2.5292823950396937,2.2796730238148193,-1.0223363081561487,0.03864626586437225
1708440777.3614438,-1.1028729677200317,-1.6825939617552699,-2.529318634663717,2.2796684938618164,-1.0223849455462855,0.038187772035598755
1708440777.363385,-1.102837324142456,-1.6826354465880335,-2.5292943159686487,2.279599352473877,-1.0224035421954554,0.03770056739449501
1708440777.3653903,-1.102820873260498,-1.6826030216612757,-2.529334847127096,2.2795919614979248,-1.0223992506610315,0.03721604496240616
1708440777.367408,-1.1027801036834717,-1.682648321191305,-2.5293994585620325,2.2795814710804443,-1.0224235693561,0.0367322638630867
1708440777.3694036,-1.102728009223938,-1.6826640568175257,-2.5293827692614954,2.2796024519154052,-1.0224559942828577,0.03621647506952286
1708440777.371422,-1.102716088294983,-1.682645937005514,-2.5293784777270716,2.27954809247937,-1.0224788824664515,0.03577776625752449
1708440777.373427,-1.102687120437622,-1.6826869450011195,-2.5293753782855433,2.2796143728443603,-1.022536579762594,0.035215508192777634
1708440777.375415,-1.1027342081069946,-1.6826869450011195,-2.529396120701925,2.279540939921997,-1.0225308577166956,0.03471183404326439
1708440777.3773952,-1.1026933193206787,-1.6826654873290003,-2.5293739477740687,2.279557152385376,-1.0225518385516565,0.03420231491327286
1708440777.3794036,-1.1026440858840942,-1.6827436886229457,-2.5293906370746058,2.279549761409424,-1.0226276556598108,0.03366166353225708
1708440777.3814065,-1.102645754814148,-1.6827298603453578,-2.5293906370746058,2.2795423704334716,-1.022616211568014,0.03318757563829422
1708440777.3834112,-1.1026592254638672,-1.6827465496458949,-2.529381815587179,2.279494209880493,-1.022623364125387,0.032669149339199066
1708440777.3854828,-1.1026122570037842,-1.6827746830382289,-2.529365364705221,2.2795094686695556,-1.0226553122149866,0.03211159259080887
1708440777.3874037,-1.1025437116622925,-1.682753702203268,-2.529386345540182,2.2795185285755615,-1.022646729146139,0.031542710959911346
1708440777.3893988,-1.1025571823120117,-1.6827837429442347,-2.5294068495379847,2.2794760900684814,-1.0226543585406702,0.030966855585575104
1708440777.391429,-1.1025645732879639,-1.682836195031637,-2.5293741861926478,2.27950303136792,-1.0226629416095179,0.030485806986689568
1708440777.3934662,-1.1025617122650146,-1.6827947101988734,-2.529386345540182,2.279400272960327,-1.022719685231344,0.029839985072612762
1708440777.3954499,-1.102523684501648,-1.6828195057311,-2.5294233004199427,2.279473229045532,-1.0226739088641565,0.029333146288990974
1708440777.3974164,-1.1025254726409912,-1.6828195057311,-2.5294068495379847,2.2794124323078613,-1.022702995930807,0.028744203969836235
1708440777.3994105,-1.1025209426879883,-1.6828481159605921,-2.5294440428363245,2.2794627386280517,-1.022726837788717,0.028285617008805275
1708440777.4014328,-1.1025254726409912,-1.6828528843321742,-2.5294068495379847,2.2794672685810546,-1.0226858297931116,0.027719799429178238
1708440777.4033985,-1.1024636030197144,-1.6828438244261683,-2.5293741861926478,2.279376907939575,-1.022698704396383,0.027108095586299896
1708440777.405408,-1.1024727821350098,-1.6828628979124964,-2.5294275919543665,2.279385967845581,-1.022731129323141,0.026535311713814735
1708440777.4074256,-1.1024516820907593,-1.682878156701559,-2.5294395128833216,2.279385967845581,-1.022726837788717,0.02591896988451481
1708440777.4094074,-1.102501630783081,-1.6828557453551234,-2.5294233004199427,2.279348774547241,-1.0226944128619593,0.025372279807925224
1708440777.4114273,-1.1024564504623413,-1.6828137836852015,-2.529419008885519,2.279348774547241,-1.0227153936969202,0.024736981838941574
1708440777.413404,-1.1024346351623535,-1.6828509769835414,-2.529402558003561,2.2794036108204345,-1.0227282683001917,0.02414962463080883
1708440777.415399,-1.1024771928787231,-1.6828919849791468,-2.5293577353106897,2.279357596034668,-1.022686783467428,0.02356172911822796
1708440777.4174142,-1.102427363395691,-1.6828304729857386,-2.529381815587179,2.2792929845997314,-1.0226705710040491,0.02298273704946041
1708440777.419426,-1.1024655103683472,-1.6828376255431117,-2.5293729940997522,2.2793544965931396,-1.0226500670062464,0.022345324978232384
1708440777.4214299,-1.1023917198181152,-1.6828795872130335,-2.5293951670276087,2.2793094354816894,-1.0226629416095179,0.021808279678225517
1708440777.4234128,-1.1024082899093628,-1.682882925073141,-2.5294278303729456,2.2792855936237792,-1.0226834456073206,0.021216385066509247
1708440777.425418,-1.1024528741836548,-1.6828991375365199,-2.529365126286642,2.2792529302784423,-1.022646729146139,0.020603451877832413
1708440777.4274254,-1.1024202108383179,-1.6829034290709437,-2.5293739477740687,2.279318256969116,-1.0226424376117151,0.020029589533805847
1708440777.429404,-1.1024202108383179,-1.6828166447081507,-2.529386345540182,2.279298945064209,-1.0226672331439417,0.019390109926462173
1708440777.4314492,-1.1024082899093628,-1.6829034290709437,-2.5293951670276087,2.2793242174335937,-1.0226424376117151,0.01877395063638687
1708440777.4334033,-1.102378249168396,-1.6828538380064906,-2.5293906370746058,2.2792586523243408,-1.0226553122149866,0.018188219517469406
1708440777.4354315,-1.1024216413497925,-1.6829124889769496,-2.5293951670276087,2.2792364793964843,-1.0226672331439417,0.017563825473189354
1708440777.4373875,-1.1024833917617798,-1.6829077206053675,-2.5293622652636927,2.279254360789917,-1.0226104895221155,0.016971975564956665
1708440777.4393826,-1.1024082899093628,-1.6829034290709437,-2.529308621083395,2.279291554088257,-1.0226019064532679,0.016369417309761047
1708440777.4414077,-1.1024290323257446,-1.682840486566061,-2.5293009916888636,2.279249830836914,-1.022590462361471,0.01577376015484333
1708440777.4434912,-1.1024246215820312,-1.6829077206053675,-2.5293622652636927,2.279282494182251,-1.0225990454303187,0.01520389225333929
1708440777.4454632,-1.1024410724639893,-1.6828705273070277,-2.5293994585620325,2.2792796331593017,-1.0225909391986292,0.014550728723406792
1708440777.4474638,-1.1023993492126465,-1.6828705273070277,-2.5293665567981165,2.279242439860962,-1.0225704352008265,0.013972382992506027
1708440777.449516,-1.1024365425109863,-1.6828376255431117,-2.5293381849872034,2.279221459026001,-1.0225628058062952,0.01333292294293642
1708440777.4514244,-1.1023709774017334,-1.6828795872130335,-2.5293543974505823,2.2792090612598876,-1.022538963948385,0.012677387334406376
1708440777.453436,-1.1023962497711182,-1.682845254937643,-2.5293098131762903,2.2792135912128906,-1.0225518385516565,0.012030143290758133
1708440777.4554217,-1.102415680885315,-1.6828705273070277,-2.529302183781759,2.279263420695923,-1.0225179831134241,0.011533476412296295
1708440777.4574566,-1.1024500131607056,-1.6829077206053675,-2.529334847127096,2.2792090612598876,-1.0224912802325647,0.010798743925988674
1708440777.4594507,-1.102432131767273,-1.6829077206053675,-2.529285494481222,2.2792090612598876,-1.0224702993976038,0.010265098884701729
1708440777.4614336,-1.1024320125579834,-1.6829034290709437,-2.529306713734762,2.2792224127003173,-1.0224788824664515,0.009649354964494705
1708440777.4634175,-1.102432131767273,-1.6828586063780726,-2.5293405691729944,2.2792135912128906,-1.0224345366107386,0.009091543033719063
1708440777.46543,-1.1023635864257812,-1.6828376255431117,-2.529261652623312,2.2791778284260253,-1.0224149862872522,0.008441036567091942
1708440777.467405,-1.1024655103683472,-1.6828657589354457,-2.5292704741107386,2.279230518932007,-1.0223539511310022,0.00783335231244564
1708440777.4693983,-1.1024410724639893,-1.682882925073141,-2.5292747656451624,2.279242439860962,-1.022374455128805,0.007262044586241245
1708440777.4714148,-1.1024246215820312,-1.6828614674010218,-2.5292215983020228,2.2792016702839355,-1.0223191420184534,0.006634839344769716
1708440777.4734426,-1.1024365425109863,-1.6828214130797328,-2.5292509237872522,2.2792350488850097,-1.0223024527179163,0.00608006352558732
1708440777.4754362,-1.1024290323257446,-1.6828962765135707,-2.5292137304889124,2.2791852194019775,-1.0222905317889612,0.005431681405752897
1708440777.477456,-1.1024528741836548,-1.682845254937643,-2.5292137304889124,2.279246969813965,-1.0222304503070276,0.004907197784632444
1708440777.479515,-1.102422833442688,-1.6828872166075648,-2.529186550770895,2.279230518932007,-1.0222395102130335,0.004318885039538145
1708440777.481435,-1.10247004032135,-1.6828705273070277,-2.5292027632342737,2.2792181211658935,-1.02220327058901,0.003682615701109171
1708440777.4834778,-1.1024365425109863,-1.682882925073141,-2.529149595891134,2.2792514997669677,-1.0222199598895472,0.003136674640700221
1708440777.4854987,-1.1024771928787231,-1.6829248867430628,-2.5291627089129847,2.279225988979004,-1.0221274534808558,0.0025416892021894455
1708440777.4874709,-1.1024773120880127,-1.6828872166075648,-2.529153887425558,2.2792677122303466,-1.022095028554098,0.0019633497577160597
1708440777.4894462,-1.1024608612060547,-1.6828538380064906,-2.5291429201709192,2.2791809278675537,-1.0221121946917933,0.001348018180578947
1708440777.4914064,-1.1024898290634155,-1.6829034290709437,-2.529098097478048,2.279246969813965,-1.0220673719989222,0.0007140373345464468
1708440777.4934568,-1.102485179901123,-1.6828919849791468,-2.529123369847433,2.2792514997669677,-1.0220444838153284,0.00011041320976801217
1708440777.4954948,-1.102485179901123,-1.6828285656371058,-2.5290818850146692,2.279230518932007,-1.0220325628863733,-0.0004633108722131851
1708440777.4974377,-1.102485179901123,-1.6828662357726039,-2.529078785573141,2.2792045313068847,-1.0220087210284632,-0.0010250250445764664
1708440777.4994423,-1.1024806499481201,-1.6828538380064906,-2.5290706793414515,2.279231234187744,-1.0219281355487269,-0.0016816298114221695
1708440777.5014548,-1.1025090217590332,-1.6828333340086878,-2.528968397771017,2.2792062002369384,-1.021879021321432,-0.0022605101214807632
1708440777.5034122,-1.1024789810180664,-1.6828662357726039,-2.5289815107928675,2.279246969813965,-1.0218594709979456,-0.002896134053365529
1708440777.5054026,-1.1025328636169434,-1.6828705273070277,-2.5289858023272913,2.2792395788380126,-1.0218279997455042,-0.003430191670553029
1708440777.507451,-1.1025663614273071,-1.6828705273070277,-2.528945509587423,2.2791971403309326,-1.0218003431903284,-0.004072014485494435
1708440777.5094318,-1.1025317907333374,-1.6828423939146937,-2.529003445302145,2.2792088228413085,-1.0217927137957972,-0.004604164754049123
1708440777.5114846,-1.1025617122650146,-1.6828538380064906,-2.528942410145895,2.2791926103779296,-1.0217164198504847,-0.00522023836244756
1708440777.513452,-1.102592945098877,-1.6828662357726039,-2.5289598147021692,2.2792586523243408,-1.0217207113849085,-0.005873028432027638
1708440777.515403,-1.1025437116622925,-1.6829077206053675,-2.528910462056295,2.279263420695923,-1.0216448942767542,-0.006472412739888966
1708440777.5174115,-1.1026092767715454,-1.6828299961485804,-2.528902832661764,2.279221459026001,-1.0216086546527308,-0.007035080586568654
1708440777.519408,-1.102600336074829,-1.6828586063780726,-2.528842035924093,2.279229088420532,-1.0215686003314417,-0.0076783339129846695
1708440777.521401,-1.102645754814148,-1.6828795872130335,-2.528862778340475,2.279217167491577,-1.0215285460101526,-0.008261982594625294
1708440777.5234299,-1.1026575565338135,-1.6828586063780726,-2.52882963815798,2.279278202647827,-1.0214803854571741,-0.00886565843691045
1708440777.5254095,-1.1026768684387207,-1.6828838787474574,-2.52885085741152,2.279290123576782,-1.021440331135885,-0.009485546742574513
1708440777.52744,-1.10271418094635,-1.6828137836852015,-2.5287819544421595,2.279273672694824,-1.0214207808123987,-0.010023419057027638
1708440777.5294034,-1.1026962995529175,-1.6828557453551234,-2.5287535826312464,2.279273672694824,-1.0213530699359339,-0.010664288197652638
1708440777.5314062,-1.1027342081069946,-1.6828543148436488,-2.528724972401754,2.279273672694824,-1.0213173071490687,-0.011222187672750294
1708440777.533419,-1.1027461290359497,-1.6828767261900843,-2.528766695653097,2.279306336040161,-1.021280590687887,-0.011806313191549123
1708440777.5353956,-1.1027981042861938,-1.6828795872130335,-2.5287471453296106,2.2793094354816894,-1.0212205092059534,-0.012380901967183888
1708440777.5374002,-1.102817416191101,-1.6828137836852015,-2.5286904017077845,2.2792929845997314,-1.0211809317218226,-0.012975041066304982
1708440777.539394,-1.1027755737304688,-1.6828228435912074,-2.528719727193014,2.2793502050587158,-1.0211170355426233,-0.013521973286763966
1708440777.5414014,-1.1028536558151245,-1.6828838787474574,-2.5286839644061487,2.2793783384510498,-1.021064583455221,-0.014090363179342091
1708440777.5434165,-1.102794885635376,-1.6828628979124964,-2.528642479573385,2.279345675105713,-1.0210612455951136,-0.01465160051454717
1708440777.5454805,-1.1028685569763184,-1.6828509769835414,-2.5286274592029017,2.27940218030896,-1.021034065877096,-0.015318218861715138
1708440777.5474322,-1.1028969287872314,-1.6828347645201625,-2.528618637715475,2.279381437892578,-1.0209491888629358,-0.0158770720111292
1708440777.5494928,-1.1029258966445923,-1.6828304729857386,-2.5285821596728724,2.279393358821533,-1.0209177176104944,-0.01644927660097295
1708440777.5514243,-1.1029614210128784,-1.6827565632262171,-2.528583590184347,2.2793678480335693,-1.020893398915426,-0.016982857381002248
1708440777.5534358,-1.102940559387207,-1.6827947101988734,-2.528538767491476,2.279409332866333,-1.0208261648761194,-0.017561260853902638
1708440777.5554137,-1.102940559387207,-1.68278231243276,-2.5285266081439417,2.27940480291333,-1.0207660833941858,-0.0181658903705042
1708440777.557474,-1.1030222177505493,-1.6828528843321742,-2.5284820238696497,2.279453917140625,-1.020721737538473,-0.01875001588930303
1708440777.559479,-1.1030222177505493,-1.6827699146666468,-2.5284457842456263,2.2794627386280517,-1.020682160054342,-0.019398037587301076
1708440777.561455,-1.1030532121658325,-1.6827699146666468,-2.528405729924337,2.279498501414917,-1.020658318196432,-0.019919697438375294
1708440777.5634317,-1.1030189990997314,-1.682803293267721,-2.528442684804098,2.279473229045532,-1.0206106344806116,-0.020484272633687794
1708440777.5653949,-1.1031241416931152,-1.6827956638731898,-2.528364960347311,2.2795347410389404,-1.0205615202533167,-0.021018807088033498
1708440777.567436,-1.1031180620193481,-1.6827880344786585,-2.5283218065844935,2.279512568111084,-1.0205548445331019,-0.021512333546773732
1708440777.569425,-1.1031372547149658,-1.6827670536436976,-2.5283542315112513,2.279484196300171,-1.0205157438861292,-0.022047344838277638
1708440777.5714161,-1.1031655073165894,-1.6827789745726527,-2.528351370488302,2.279557152385376,-1.020447079335348,-0.022550408040181935
1708440777.5734444,-1.1031973361968994,-1.6827241382994593,-2.528289858494894,2.2795392709919433,-1.0204151312457483,-0.023091618214742482
1708440777.575472,-1.1031763553619385,-1.6827060184874476,-2.5282779375659388,2.2795979219624023,-1.0203631559955042,-0.02360231081117803
1708440777.5774136,-1.1032285690307617,-1.6827269993224085,-2.528249804173605,2.2796143728443603,-1.0203188101397913,-0.024110142384664357
1708440777.5794225,-1.1032569408416748,-1.6827107868590296,-2.5282345453845423,2.2796129423328857,-1.0202425161944788,-0.02458078065981084
1708440777.5814304,-1.1033023595809937,-1.682737489739889,-2.5281971136676233,2.2796248632618408,-1.0202229658709925,-0.025055710469381154
1708440777.5834014,-1.1032978296279907,-1.682645937005514,-2.528186623250143,2.279695435161255,-1.0202034155475062,-0.025518242512838185
1708440777.5854135,-1.1033408641815186,-1.6826211414732875,-2.5281670729266565,2.279719277019165,-1.0201833883868616,-0.026071850453512013
1708440777.587398,-1.1033318042755127,-1.6826592884459437,-2.5281997362719935,2.279660387630127,-1.0201070944415491,-0.026504341756002248
1708440777.5894327,-1.103398084640503,-1.6826192341246546,-2.5281384626971644,2.279763622874878,-1.020055119191305,-0.026964966450826466
1708440777.5914214,-1.1033799648284912,-1.6826101742186488,-2.5281603972064417,2.279742880458496,-1.0200517813311976,-0.02744466463197881
1708440777.5934353,-1.1033964157104492,-1.6826683483519496,-2.528111521397726,2.2797621923634033,-1.0199835936175745,-0.028005425130025685
1708440777.5954523,-1.103394865989685,-1.6825791798033656,-2.5280545393573206,2.279771252269409,-1.0199678579913538,-0.028463188801900685
1708440777.597449,-1.103485345840454,-1.6825744114317835,-2.5280633608447474,2.279740019435547,-1.0199158827411097,-0.0289843718158167
1708440777.5994482,-1.103485345840454,-1.6825415096678675,-2.528006617222921,2.2797607618519287,-1.0198677221881312,-0.029445473347799123
1708440777.6014628,-1.1035284996032715,-1.6825744114317835,-2.528006617222921,2.279810352916382,-1.0197833220111292,-0.029929463063375294
1708440777.6034153,-1.103495717048645,-1.6825710735716761,-2.527970616017477,2.2797836500355224,-1.019813362752096,-0.030376259480611623
1708440777.6054285,-1.1035901308059692,-1.6825834713377894,-2.527958695088522,2.279829903239868,-1.0196993986712855,-0.03085214296449834
1708440777.6074138,-1.1036393642425537,-1.682572980920309,-2.5279386679278772,2.2798780637928466,-1.0196555296527308,-0.03131324449648076
1708440777.6094635,-1.1036169528961182,-1.6825643978514613,-2.5278897921191614,2.2798616129108886,-1.019644562398092,-0.031779114400045216
1708440777.6114733,-1.1036741733551025,-1.6825710735716761,-2.52788216272463,2.2799481588551025,-1.0196121374713343,-0.03225452104677373
1708440777.6134195,-1.1036397218704224,-1.6824599705138148,-2.527858082448141,2.279984398479126,-1.0195725599872034,-0.03274280229677373
1708440777.6154022,-1.1037098169326782,-1.682498117486471,-2.5278757254229944,2.279900475139282,-1.0195162932025355,-0.03311378160585576
1708440777.6173894,-1.103712797164917,-1.6825233898558558,-2.5277894178973597,2.279916687602661,-1.0194595495807093,-0.0336225668536585
1708440777.6193895,-1.1037490367889404,-1.6825114689269007,-2.527807060872213,2.2799288469501953,-1.0194852987872522,-0.03397971788515264
1708440777.6214044,-1.103789210319519,-1.6825534305968226,-2.527733866368429,2.2799693781086425,-1.0194528738604944,-0.034415547047750294
1708440777.6233993,-1.1038329601287842,-1.6825038395323695,-2.527782980595724,2.2799901205250244,-1.019393269215719,-0.034803215657369435
1708440777.6254184,-1.1038568019866943,-1.6824213467040003,-2.5277424494372767,2.280043764705322,-1.0193775335894983,-0.03516513506044561
1708440777.6273968,-1.1038895845413208,-1.6825038395323695,-2.5277231375323694,2.2799977499195556,-1.0192964712726038,-0.03563052812685186
1708440777.629399,-1.1038925647735596,-1.6824847660460414,-2.5276945273028772,2.280059261912964,-1.0193212668048304,-0.036028687153951466
1708440777.6313913,-1.1039096117019653,-1.6824633083739222,-2.5276499430285853,2.280083103770874,-1.0192244688617151,-0.03644019762148076
1708440777.6334217,-1.1039153337478638,-1.6824680767455042,-2.527663056050436,2.280099554652832,-1.019266430531637,-0.03689462343324834
1708440777.6354315,-1.1039061546325684,-1.6824590168394984,-2.5276017824756067,2.280102415675781,-1.0191929976092737,-0.03720266023744756
1708440777.6374094,-1.1039632558822632,-1.6824022732176722,-2.52756911913027,2.280139608974121,-1.019165341054098,-0.037619892750875294
1708440777.6393914,-1.103992223739624,-1.682427545587057,-2.5275536219226282,2.2801336485096435,-1.0191176573382776,-0.03804380098451787
1708440777.6414146,-1.103996753692627,-1.6824032268919886,-2.5275166670428675,2.2801293569752197,-1.0191095511065882,-0.03839475313295537
1708440777.6434066,-1.1040772199630737,-1.6824032268919886,-2.527566973363058,2.280165596599243,-1.0190208593951624,-0.0386889616595667
1708440777.645469,-1.104059100151062,-1.6824032268919886,-2.527522150670187,2.2801284033009033,-1.0190098921405237,-0.03910237947572881
1708440777.6474571,-1.1041253805160522,-1.6823722324767054,-2.5275102297412317,2.2802108961292724,-1.0189250151263636,-0.03935844102968389
1708440777.649439,-1.104128360748291,-1.6823679409422816,-2.5275114218341272,2.2802137571522216,-1.0189455191241663,-0.03973561922182256
1708440777.6514435,-1.1041522026062012,-1.6823512516417445,-2.527478281651632,2.2802092271992187,-1.018897835408346,-0.04009563127626592
1708440777.6534483,-1.1041549444198608,-1.6823421917357386,-2.527454678212301,2.2802514272877197,-1.0188129583941858,-0.04035073915590459
1708440777.6554189,-1.10419762134552,-1.6823107204832972,-2.5274997393237513,2.280249996776245,-1.0188096205340784,-0.04064542451967412
1708440777.6574373,-1.1042450666427612,-1.6823440990843714,-2.5274515787707728,2.280306501979492,-1.0187972227679651,-0.04095822969545537
1708440777.6594622,-1.104219675064087,-1.6823646030821742,-2.5274022261248987,2.2802485662647705,-1.0187862555133265,-0.041209046040670216
1708440777.6614711,-1.1042932271957397,-1.682324071923727,-2.5274320284472864,2.280318422908447,-1.01874286333193,-0.0414961020099085
1708440777.663425,-1.1042344570159912,-1.682295938531393,-2.5273903051959437,2.28032295286145,-1.0187352339373987,-0.04178077379335576
1708440777.6654098,-1.104328989982605,-1.6823002300658167,-2.5273869673358362,2.2802886205860595,-1.018637482319967,-0.042023483906881154
1708440777.667405,-1.1043037176132202,-1.6823169193663539,-2.5273259321795862,2.2802960115620117,-1.0186222235309046,-0.04228240648378545
1708440777.669395,-1.1043392419815063,-1.6822849712767542,-2.527334753667013,2.2803050714680175,-1.0186222235309046,-0.04249412218202764
1708440777.6714213,-1.104393720626831,-1.682279726068014,-2.527339045201437,2.280341311092041,-1.0185664335833948,-0.042765442525045216
1708440777.6734407,-1.1044158935546875,-1.6822535000243128,-2.527261559163229,2.280381603831909,-1.0185630957232874,-0.042915169392721
1708440777.6754441,-1.1044323444366455,-1.6822434864439906,-2.527306143437521,2.280397816295288,-1.0184734503375452,-0.04317695299257451
1708440777.677415,-1.1043950319290161,-1.6822434864439906,-2.5273192564593714,2.280435724849365,-1.018458668385641,-0.04331523576845342
1708440777.679458,-1.1044929027557373,-1.6822411022581996,-2.5272868315326136,2.2803754049488525,-1.018442455922262,-0.04353219667543584
1708440777.6814406,-1.1045002937316895,-1.6822191677489222,-2.5272417704211634,2.2804087835499267,-1.0184348265277308,-0.04368335405458623
1708440777.683464,-1.1045241355895996,-1.6822453937926234,-2.527250353490011,2.28043715536084,-1.0184152762042444,-0.043846909199849904
1708440777.6854255,-1.10453200340271,-1.6822029552855433,-2.527206007634298,2.2804907995411376,-1.018367115651266,-0.04401857057680303
1708440777.6874118,-1.104543924331665,-1.6822363338866175,-2.527193848286764,2.280452175731323,-1.018338982258932,-0.04411012331117803
1708440777.6894214,-1.1045887470245361,-1.6822239361205042,-2.5272114912616175,2.28048483907666,-1.018294636403219,-0.04427081743349248
1708440777.691393,-1.104637861251831,-1.6821958027281703,-2.527182165776388,2.2805062967487792,-1.0182793776141565,-0.04438954988588506
1708440777.6934419,-1.1046199798583984,-1.6821829281248988,-2.5271578470813196,2.280489369029663,-1.0182865301715296,-0.04447299638857061
1708440777.6953988,-1.1046442985534668,-1.6821958027281703,-2.52717096010317,2.2805182176777343,-1.018219296132223,-0.04461843172182256
1708440777.6974154,-1.1046770811080933,-1.6821743450560511,-2.5271175543414515,2.2805492120930175,-1.0182235876666468,-0.04464847246278936
1708440777.6994274,-1.104651689529419,-1.6821743450560511,-2.527109686528341,2.2805909353443603,-1.0181711355792444,-0.04477245012392217
1708440777.7014048,-1.104684591293335,-1.6821638546385707,-2.5271440188037317,2.2805329996296386,-1.0181472937213343,-0.044750515614644826
1708440777.7033997,-1.1046992540359497,-1.6821147404112757,-2.527118508015768,2.28054325162854,-1.0181310812579554,-0.04484731355776006
1708440777.7053978,-1.1047327518463135,-1.6821266613402308,-2.5271156469928187,2.280559702510498,-1.018111530934469,-0.04491597810854131
1708440777.7073932,-1.1047446727752686,-1.6821681461729945,-2.5271645228015345,2.280568762416504,-1.0180991331683558,-0.04492837587465459
1708440777.709456,-1.1047401428222656,-1.6821238003172816,-2.5270708242999476,2.2805842596241455,-1.0180991331683558,-0.04488498369325811
1708440777.7114553,-1.1047848463058472,-1.6821862659850062,-2.527079407368795,2.2806495863148193,-1.0180676619159144,-0.04490262666811162
1708440777.7134187,-1.1047967672348022,-1.6821323833861292,-2.5270512739764612,2.280642195338867,-1.0180352369891565,-0.04488498369325811
1708440777.7154055,-1.1047669649124146,-1.6820880375304164,-2.527100149785177,2.2806004720875244,-1.0180037657367151,-0.04485494295229131
1708440777.717406,-1.1048332452774048,-1.682070871392721,-2.5270732084857386,2.2806495863148193,-1.0179999510394495,-0.04471761385072881
1708440777.7194223,-1.1048568487167358,-1.682042738000387,-2.5270689169513147,2.2806615072437744,-1.0179384390460413,-0.04463702837099248
1708440777.7214136,-1.1048717498779297,-1.682051797906393,-2.5269628206836146,2.2806526857563476,-1.0179718176471155,-0.04455310503114873
1708440777.7234066,-1.1048762798309326,-1.682030817071432,-2.5269747416125696,2.280688925380371,-1.0178988615619105,-0.044464890156881154
1708440777.7254045,-1.1049052476882935,-1.6820651493468226,-2.5269463698016565,2.280688925380371,-1.017928425465719,-0.04445201555360967
1708440777.727392,-1.1049052476882935,-1.6820742092528285,-2.5269835630999964,2.2806691366383056,-1.0178588072406214,-0.04435950914491826
1708440777.7293863,-1.104933500289917,-1.6820651493468226,-2.526938501988546,2.28066794454541,-1.0178263823138636,-0.04426271120180303
1708440777.7314131,-1.1049034595489502,-1.6820785007872523,-2.526980225239889,2.2807411390491943,-1.017811123524801,-0.044141594563619435
1708440777.733407,-1.1049680709838867,-1.6819993458189906,-2.526980225239889,2.280729218120239,-1.017815415059225,-0.044045273457662404
1708440777.7354145,-1.1049516201019287,-1.6820413074889125,-2.526968542729513,2.2807485300251464,-1.0178325811969202,-0.043967549000875294
1708440777.7374034,-1.1049935817718506,-1.6820126972594203,-2.526907269154684,2.280752106303833,-1.01780873933901,-0.043744866047994435
1708440777.7394211,-1.104992389678955,-1.6819683514037074,-2.526935402547018,2.280796690578125,-1.01774770418276,-0.04357272783388311
1708440777.741394,-1.105029821395874,-1.6819635830321253,-2.526878897343771,2.280796690578125,-1.0177562872516077,-0.04334098497499639
1708440777.74342,-1.1050251722335815,-1.6819349728026332,-2.5269368330584925,2.280836983317993,-1.0177519957171839,-0.043162171040670216
1708440777.7454634,-1.105007290840149,-1.6819235287108363,-2.526890579854147,2.280841274852417,-1.0177119413958948,-0.042918030415670216
1708440777.7474124,-1.1050355434417725,-1.6819616756834925,-2.5268664995776575,2.280907555217407,-1.0177119413958948,-0.04260093370546514
1708440777.7494516,-1.105059266090393,-1.68192782024526,-2.5268874804126185,2.280853195781372,-1.0176790396319788,-0.04229289690126592
1708440777.7514174,-1.1050809621810913,-1.6819168529906214,-2.5268428961383265,2.2808658319660644,-1.0176432768451136,-0.042023483906881154
1708440777.7534297,-1.1050547361373901,-1.6819244823851527,-2.526872221623556,2.2808851438709716,-1.0176637808429163,-0.041691128407613576
1708440777.7554188,-1.105095624923706,-1.6819259128966273,-2.526844088231222,2.280848904246948,-1.017656151448385,-0.04136401811708623
1708440777.7575088,-1.105112075805664,-1.6818767986693324,-2.5267894903766077,2.2809013563343505,-1.0176203886615198,-0.04106456438173467
1708440777.759471,-1.1050912141799927,-1.6818725071349085,-2.526844088231222,2.2809132772633056,-1.017632309590475,-0.040626351033346
1708440777.761475,-1.1051359176635742,-1.6818305454649867,-2.526799027119772,2.2809223371693115,-1.0176127592669886,-0.04032451311220342
1708440777.7634091,-1.1051932573318481,-1.681831499139303,-2.526794497166769,2.2809197145649414,-1.0176656881915491,-0.039948288594381154
1708440777.7654057,-1.105181336402893,-1.6818825207152308,-2.5268033186541956,2.2809242445179443,-1.0175798575030726,-0.03954822221864873
1708440777.767406,-1.1051932573318481,-1.681868692437643,-2.52677828470339,2.2809576231190185,-1.0175884405719202,-0.039127651845113576
1708440777.7694213,-1.105207920074463,-1.6818539104857386,-2.5268290678607386,2.280928774470947,-1.0175321737872522,-0.038737122212545216
1708440777.7713914,-1.105219841003418,-1.6818496189513148,-2.5267260710345667,2.2809488016315917,-1.0175569693194788,-0.03828889528383428
1708440777.7734191,-1.1052652597427368,-1.681857248345846,-2.5267470518695276,2.281017227763794,-1.017484490071432,-0.03782540956606084
1708440777.7754574,-1.1052154302597046,-1.6818272076048792,-2.5267303625689905,2.280972643489502,-1.0174430052386683,-0.03737813631166631
1708440777.777463,-1.105247139930725,-1.6818005047240199,-2.52675444284548,2.2809814649769287,-1.0174601713763636,-0.036869351063863576
1708440777.779412,-1.105247139930725,-1.6818529568114222,-2.5267558733569544,2.281000776881836,-1.0174687544452112,-0.03649264970888311
1708440777.7813993,-1.1052888631820679,-1.681807657281393,-2.5267120043383997,2.280975504512451,-1.0173876921283167,-0.03595954576601201
1708440777.783411,-1.1053037643432617,-1.681838174859518,-2.5267229715930384,2.281078739757202,-1.0173962751971644,-0.03541881242860967
1708440777.7854252,-1.1053202152252197,-1.6818047962584437,-2.526748005543844,2.2810696798511962,-1.017376724873678,-0.034912888203756154
1708440777.787416,-1.1053611040115356,-1.6818300686278285,-2.526670519505636,2.2810401159473876,-1.0173800627337855,-0.034327332173482716
1708440777.7893977,-1.1053440570831299,-1.6817976437010707,-2.526719395314352,2.2810892301746826,-1.0173481146441858,-0.033832852040426076
1708440777.7913945,-1.1053184270858765,-1.6817671261229457,-2.5266955534564417,2.2811507421680908,-1.0173686186419886,-0.03324920335878545
1708440777.79346,-1.1053922176361084,-1.6817599735655726,-2.526670519505636,2.2811173635670166,-1.0173524061786097,-0.032660786305562794
1708440777.795461,-1.1053638458251953,-1.6817556820311488,-2.5266714731799524,2.2811292844959716,-1.0173981825457972,-0.03207713762392217
1708440777.7974708,-1.1053786277770996,-1.6817056141295375,-2.5266595522509974,2.281099482173584,-1.017369572316305,-0.031539265309469044
1708440777.7994406,-1.1054205894470215,-1.6817690334715785,-2.526672903691427,2.2811130720325927,-1.0172885099994105,-0.030943218861715138
1708440777.8014314,-1.1053906679153442,-1.681760927239889,-2.5266311804400843,2.2811283308216552,-1.0173047224627894,-0.030327622090474904
1708440777.8034325,-1.1054539680480957,-1.6817285023131312,-2.526668373738424,2.281115933055542,-1.0173209349261683,-0.02972442308534795
1708440777.8054154,-1.1054646968841553,-1.681678911248678,-2.526619259511129,2.2811476427265625,-1.017280403767721,-0.029047314320699513
1708440777.807534,-1.1054482460021973,-1.681699892083639,-2.526628080998556,2.2811521726795654,-1.0172846953021448,-0.028417889271871388
1708440777.8094368,-1.1054675579071045,-1.6817165813841761,-2.526599947606222,2.2811760145374755,-1.0172575155841272,-0.027779404317037404
1708440777.81146,-1.1055048704147339,-1.6816545925536097,-2.526599709187643,2.2812346655079345,-1.0172737280475062,-0.027094666157857716
1708440777.8134484,-1.1054929494857788,-1.6817180118956507,-2.5265491644488733,2.2812089163013916,-1.0172045866595667,-0.026507202778951466
1708440777.8154035,-1.1054823398590088,-1.6816479168333949,-2.526545826588766,2.2811669546314697,-1.0172293821917933,-0.025765720997945607
1708440777.8173985,-1.1055078506469727,-1.6817509136595667,-2.526595417653219,2.281221314067505,-1.017172638569967,-0.025144402180806935
1708440777.8193924,-1.105532169342041,-1.6817146740355433,-2.5265591780291956,2.2812043863483886,-1.0171812216388147,-0.024509731923238576
1708440777.8214483,-1.1055078506469727,-1.6816479168333949,-2.52653414407839,2.28123323499646,-1.017160717641012,-0.023773018513814748
1708440777.8234022,-1.105548620223999,-1.681638856927389,-2.5265145937549036,2.2812089163013916,-1.0171411673175257,-0.023071114216939748
1708440777.8253963,-1.1055560111999512,-1.6816402874388636,-2.5265591780291956,2.281170054072998,-1.017132584248678,-0.02233010927309209
1708440777.8274133,-1.1055814027786255,-1.6816283665099085,-2.5265024344073694,2.281254215831421,-1.0171259085284632,-0.021573845540181935
1708440777.8294287,-1.1055560111999512,-1.6816283665099085,-2.526489321385519,2.281236096019409,-1.0170758406268519,-0.020852390919820607
1708440777.831459,-1.1055560111999512,-1.6816207371153773,-2.5265234152423304,2.281228705043457,-1.0170519987689417,-0.020130459462301076
1708440777.8333995,-1.1056082248687744,-1.6816464863219203,-2.52651554742922,2.281240625972412,-1.0171015898333948,-0.0193102995501917
1708440777.835446,-1.1055798530578613,-1.681584974328512,-2.5264950434314173,2.281240625972412,-1.017057243977682,-0.018558804188863576
1708440777.8373997,-1.1056126356124878,-1.681650777856344,-2.5264695326434534,2.281264467830322,-1.0170615355121058,-0.01779205003847295
1708440777.839406,-1.1056252717971802,-1.6816207371153773,-2.526499334965841,2.2812883096882324,-1.017000977193014,-0.016979519520894826
1708440777.8413997,-1.1056252717971802,-1.6816159687437953,-2.5264959971057337,2.2812747198292236,-1.017000977193014,-0.016157452260152638
1708440777.8434017,-1.1056160926818848,-1.681650777856344,-2.526479784642355,2.2813336092182617,-1.0169933477984827,-0.015409771596090138
1708440777.8454852,-1.1056280136108398,-1.6816092930235804,-2.526470963154928,2.2813092905231933,-1.0170052687274378,-0.014561001454488576
1708440777.8474252,-1.1056488752365112,-1.681601186791891,-2.5264559427844446,2.2813424307056884,-1.0169852415667933,-0.013710800801412404
1708440777.8494713,-1.105639934539795,-1.6815172634520472,-2.5265124479876917,2.2813617426105957,-1.0169571081744593,-0.012940231953756154
1708440777.8514667,-1.1056772470474243,-1.6816092930235804,-2.526463333760397,2.2813736635395507,-1.0169084707843226,-0.012055699025289357
1708440777.853427,-1.1056548357009888,-1.68158020595693,-2.52645451227297,2.281299276942871,-1.016965691243307,-0.011261765156881154
1708440777.8554337,-1.1056681871414185,-1.6816183529295863,-2.5264559427844446,2.281331940288208,-1.0169332663165491,-0.01048452058901006
1708440777.8573992,-1.1056830883026123,-1.681589265862936,-2.5263975302325647,2.281311197871826,-1.0168803373919886,-0.009603802357808888
1708440777.8594303,-1.105733036994934,-1.6815759144225062,-2.5264974276172083,2.281311197871826,-1.0168889204608362,-0.008750263844625294
1708440777.8615553,-1.105690360069275,-1.6816674671568812,-2.5264185110675257,2.2813185888477783,-1.0168898741351526,-0.007939163838521779
1708440777.8634026,-1.1057238578796387,-1.681596418420309,-2.5263989607440394,2.2814385133930664,-1.0168526808368128,-0.00705892244447881
1708440777.86543,-1.1057566404342651,-1.6815935573973597,-2.5264151732074183,2.2813452917286376,-1.016886059437887,-0.006187264119283498
1708440777.867395,-1.105743169784546,-1.68158020595693,-2.526440445576803,2.281372233028076,-1.0168374220477503,-0.0053284803973596695
1708440777.869395,-1.105776071548462,-1.6816102466978968,-2.5263541380511683,2.2814101415821533,-1.0168708006488245,-0.004478756581441701
1708440777.8714273,-1.1057969331741333,-1.6816054783263148,-2.5263376871692103,2.2814017969318847,-1.016801659260885,-0.00357228914369756
1708440777.873392,-1.105759620666504,-1.6815773449339808,-2.5263825098620813,2.281376762981079,-1.016801659260885,-0.002759758626119435
1708440777.8754485,-1.1058259010314941,-1.6816054783263148,-2.5263705889331263,2.281384153957031,-1.0167892614947718,-0.0018518606769006851
1708440777.8774362,-1.1057953834533691,-1.6816183529295863,-2.526395622883932,2.2813750940510253,-1.0167697111712855,-0.0009196440326135757
1708440777.8794355,-1.1057789325714111,-1.6816102466978968,-2.5263312498675745,2.281397505397461,-1.0167902151690882,-6.944337953740387e-05
1708440777.881457,-1.1057342290878296,-1.681573053399557,-2.5263970533954065,2.281367703075073,-1.0167458693133753,0.0008277416345663369
1708440777.883474,-1.1058043241500854,-1.6815935573973597,-2.5263269583331507,2.2814084726520996,-1.0167177359210413,0.0017153802327811718
1708440777.885499,-1.1058452129364014,-1.68158020595693,-2.5263105074511927,2.2814292150684814,-1.0167587439166468,0.0025532252620905638
1708440777.887462,-1.1058542728424072,-1.681596418420309,-2.5263150374041956,2.281383200282715,-1.0167706648456019,0.0035172447096556425
1708440777.8894517,-1.1058316230773926,-1.681573053399557,-2.526348892842428,2.2814158636280517,-1.0167143980609339,0.004384857602417469
1708440777.891446,-1.1058361530303955,-1.681589265862936,-2.5262823740588587,2.281378670329712,-1.016637150441305,0.005272943060845137
1708440777.8933997,-1.1057817935943604,-1.6816026173033656,-2.5262745062457483,2.2813920217701416,-1.0166786352740687,0.0061721354722976685
1708440777.8954377,-1.1058242321014404,-1.6815229854979457,-2.5262911955462855,2.281384153957031,-1.0166576544391077,0.007049770560115576
1708440777.8974407,-1.1057698726654053,-1.681559225121969,-2.5262745062457483,2.2814084726520996,-1.0166586081134241,0.007965086959302425
1708440777.8994162,-1.105836033821106,-1.681596418420309,-2.526259247456686,2.2813877302357177,-1.0165846983539026,0.008893687278032303
1708440777.9014623,-1.1058151721954346,-1.6816102466978968,-2.5262790361987513,2.281399651164673,-1.0165694395648401,0.009850312024354935
1708440777.9034498,-1.1058226823806763,-1.6816431484618128,-2.526292149220602,2.2814411359974365,-1.0166099707232874,0.010670103132724762
1708440777.9054167,-1.1058554649353027,-1.681589265862936,-2.526299778615133,2.2814859586903076,-1.0165780226336878,0.01160628441721201
1708440777.9074109,-1.1058435440063477,-1.6816431484618128,-2.526275936757223,2.28139512121167,-1.016594711934225,0.012619140557944775
1708440777.909439,-1.1058226823806763,-1.6815935573973597,-2.5262473265277308,2.2814411359974365,-1.0166075865374964,0.013518381863832474
1708440777.9114249,-1.1058599948883057,-1.681601186791891,-2.526243034993307,2.2814323145100097,-1.0165541807757776,0.01444501057267189
1708440777.9134429,-1.1059017181396484,-1.6815935573973597,-2.526280228291647,2.2814323145100097,-1.0164969603167933,0.01543899904936552
1708440777.915395,-1.1058719158172607,-1.681568285027975,-2.5262518564807337,2.2814203935810546,-1.0165184179889124,0.016305625438690186
1708440777.9173977,-1.1058391332626343,-1.6816779575743617,-2.5262234846698206,2.2813920217701416,-1.0165064970599573,0.017155833542346954
1708440777.9193857,-1.1058673858642578,-1.6815535030760707,-2.5262308756457728,2.2814158636280517,-1.0165260473834437,0.01813981495797634
1708440777.9214113,-1.105825424194336,-1.6815535030760707,-2.526198212300436,2.2814249235340576,-1.0165193716632288,0.019034795463085175
1708440777.923422,-1.1058435440063477,-1.6815935573973597,-2.5261860529529017,2.2814575868793945,-1.016454044972555,0.020018521696329117
1708440777.9253845,-1.1058346033096313,-1.6815906963744105,-2.5262067953692835,2.2813994127460937,-1.0164702574359339,0.020848091691732407
1708440777.9273853,-1.1058300733566284,-1.681568285027975,-2.526193682347433,2.2814203935810546,-1.0164583365069788,0.021836165338754654
1708440777.9293876,-1.1058510541915894,-1.6814948521056117,-2.5261698404895228,2.2813920217701416,-1.0164182821856897,0.022743050009012222
1708440777.9313865,-1.105938196182251,-1.681601186791891,-2.5261829535113733,2.2814456659504394,-1.0164268652545374,0.023682551458477974
1708440777.933396,-1.1059261560440063,-1.6816193066039027,-2.5261576811419886,2.2813586431690673,-1.0164225737201136,0.024605417624115944
1708440777.935411,-1.1058675050735474,-1.6816235981383265,-2.5261741320239466,2.2814249235340576,-1.0164311567889612,0.025566251948475838
1708440777.9373865,-1.1059054136276245,-1.681584974328512,-2.526163403187887,2.2814814287373046,-1.016435448323385,0.026469172909855843
1708440777.9393868,-1.1058746576309204,-1.68162264446401,-2.526142660771505,2.281439705485962,-1.0163987318622034,0.02735128439962864
1708440777.941375,-1.1058838367462158,-1.6815954647459925,-2.5261383692370813,2.2813705640980224,-1.0164030233966272,0.028241939842700958
1708440777.9433835,-1.1058917045593262,-1.6815935573973597,-2.5261383692370813,2.281374140376709,-1.016346279774801,0.0291195847094059
1708440777.945431,-1.1058838367462158,-1.6816054783263148,-2.526139561329977,2.281411572093628,-1.01636249223818,0.02996908687055111
1708440777.9474108,-1.1058465242385864,-1.681540151635641,-2.526146952305929,2.28141896306958,-1.0163386503802698,0.03092202916741371
1708440777.949455,-1.10581374168396,-1.6815444431700648,-2.5261603037463587,2.281435413951538,-1.0163386503802698,0.03181689232587814
1708440777.9514196,-1.1058509349822998,-1.6816073856749476,-2.5261438528644007,2.2814456659504394,-1.0163386503802698,0.03266266733407974
1708440777.9534276,-1.1058465242385864,-1.6816135845580042,-2.5261226336108606,2.2814246851154785,-1.016294304524557,0.033562544733285904
1708440777.9554007,-1.1058838367462158,-1.681596418420309,-2.526118342076437,2.2814575868793945,-1.016294304524557,0.03444134071469307
1708440777.9574275,-1.105870246887207,-1.6815577946104945,-2.526102129613058,2.2814621168323974,-1.0162699858294886,0.03528795391321182
1708440777.959452,-1.1058838367462158,-1.6816026173033656,-2.5261884371386927,2.2814292150684814,-1.0162985960589808,0.03616049885749817
1708440777.9614725,-1.1058719158172607,-1.681589265862936,-2.5260825792895716,2.281411572093628,-1.0163276831256312,0.03697899729013443
1708440777.963413,-1.1059081554412842,-1.681573053399557,-2.5260945002185267,2.281411572093628,-1.0162785688983362,0.037879329174757004
1708440777.965407,-1.1058628559112549,-1.6815906963744105,-2.5260706583606165,2.2814323145100097,-1.0162871519671839,0.038693372160196304
1708440777.9674141,-1.1058838367462158,-1.6816359959044398,-2.5261195341693323,2.2814292150684814,-1.0162223021136683,0.03963003680109978
1708440777.969393,-1.105879306793213,-1.6815773449339808,-2.5261076132403772,2.2814249235340576,-1.0162714163409632,0.040439777076244354
1708440777.9713955,-1.1058838367462158,-1.681535383264059,-2.5260914007769983,2.2814621168323974,-1.0162799994098108,0.04129398614168167
1708440777.9734304,-1.1058719158172607,-1.6816383800902308,-2.5260632673846644,2.2813874918171386,-1.0162394682513636,0.04221881181001663
1708440777.97543,-1.105905294418335,-1.6815411053099574,-2.5260706583606165,2.2814130026051025,-1.0161941687213343,0.04315442591905594
1708440777.9774513,-1.105879306793213,-1.6815935573973597,-2.52605110803713,2.2813705640980224,-1.0161898771869105,0.043949369341135025
1708440777.9794135,-1.105879306793213,-1.6815935573973597,-2.5261088053332728,2.2813877302357177,-1.0162103811847132,0.044878095388412476
1708440777.9814038,-1.1058465242385864,-1.681584974328512,-2.526083771382467,2.281383200282715,-1.0161402861224573,0.04575637727975845
1708440777.9834082,-1.105905294418335,-1.6816431484618128,-2.526043478642599,2.2813662725635986,-1.0162113348590296,0.046575937420129776
1708440777.985423,-1.1059292554855347,-1.681596418420309,-2.526055399571554,2.2814039426990966,-1.0162113348590296,0.04743707925081253
1708440777.9874058,-1.1058391332626343,-1.6816555462279261,-2.5260706583606165,2.2814084726520996,-1.0161502997027796,0.04827703535556793
1708440777.989395,-1.1058701276779175,-1.6816102466978968,-2.5260794798480433,2.2814339834400634,-1.0161340872394007,0.04917727783322334
1708440777.9913888,-1.1058629751205444,-1.681589265862936,-2.52605110803713,2.2814411359974365,-1.0161917845355433,0.0500357486307621
1708440777.993415,-1.1058629751205444,-1.6815935573973597,-2.5260422865497034,2.2813920217701416,-1.0161469618426722,0.0508754625916481
1708440777.995471,-1.105837345123291,-1.6816555462279261,-2.526034657155172,2.2814175325581054,-1.0161340872394007,0.051702506840229034
1708440777.9974465,-1.1058717966079712,-1.681601186791891,-2.526076380406515,2.281355782146118,-1.0161340872394007,0.05249400809407234
1708440777.9994822,-1.1058917045593262,-1.6816183529295863,-2.52605110803713,2.281426354045532,-1.016151253377096,0.05340239033102989
1708440778.0014107,-1.1058963537216187,-1.681559225121969,-2.526071850453512,2.2813965517231445,-1.016123119984762,0.05421441048383713
1708440778.0034184,-1.1058838367462158,-1.681589265862936,-2.526043478642599,2.281384153957031,-1.016106907521383,0.05501558259129524
1708440778.0054104,-1.1058883666992188,-1.6816054783263148,-2.5260303656207483,2.281376762981079,-1.0161359945880335,0.05584695562720299
1708440778.0074468,-1.1058465242385864,-1.6816359959044398,-2.526059691105978,2.2813424307056884,-1.0161035696612757,0.05663260817527771
1708440778.0095046,-1.1058673858642578,-1.681584974328512,-2.5260422865497034,2.281364842052124,-1.016106907521383,0.05750654265284538
1708440778.011443,-1.1058599948883057,-1.681584974328512,-2.526039187108175,2.281343861217163,-1.0161479155169886,0.05832086503505707
1708440778.013428,-1.105879306793213,-1.6815639934935511,-2.5260093847857874,2.281376762981079,-1.0161359945880335,0.05913189798593521
1708440778.0153966,-1.1059143543243408,-1.6815864048399867,-2.526039187108175,2.281381054515503,-1.0161479155169886,0.05989900231361389
1708440778.0174077,-1.105837345123291,-1.6816193066039027,-2.5260019938098353,2.281369133586548,-1.0161240736590784,0.060718756169080734
1708440778.0194397,-1.1058882474899292,-1.681589265862936,-2.526043478642599,2.2813047605701904,-1.0160992781268519,0.06154357269406319
1708440778.021394,-1.105864405632019,-1.681481500665182,-2.526043478642599,2.281385584468506,-1.0161078611956995,0.062309425324201584
1708440778.0234082,-1.1058509349822998,-1.681573053399557,-2.5260477701770228,2.281308098430298,-1.016083065663473,0.06321723759174347
1708440778.025414,-1.1058763265609741,-1.681568285027975,-2.526022497807638,2.2812747198292236,-1.0160544554339808,0.06394381821155548
