Eg3-git/Classifiers/Data Collection/u7/u7cir4_ur3e_joint_states.csv
time,elbow_joint,shoulder_lift_joint,shoulder_pan_joint,wrist_1_joint,wrist_2_joint,wrist_3_joint
1708440804.1755881,-1.1137759685516357,-1.677035471002096,-2.5275235811816614,2.2901391226002197,-1.0188267866717737,0.45997166633605957
1708440804.1775105,-1.1136183738708496,-1.677075525323385,-2.527487341557638,2.2900401788898925,-1.018757168446676,0.4600553512573242
1708440804.1795006,-1.1135388612747192,-1.677110334435934,-2.527442518864767,2.2899607855030517,-1.0187419096576136,0.4601552188396454
1708440804.181484,-1.1134312152862549,-1.6772438488402308,-2.527397696171896,2.2898360925861816,-1.0187342802630823,0.4601944088935852
1708440804.183472,-1.1133228540420532,-1.677225729028219,-2.527414147053854,2.2897397714802246,-1.0187180677997034,0.4603119492530823
1708440804.1854904,-1.113239049911499,-1.6773020229735316,-2.5274351278888147,2.2896570402332763,-1.0186851660357874,0.46030193567276
1708440804.1874804,-1.113069772720337,-1.6773940525450648,-2.5274065176593226,2.289539023036621,-1.0186980406390589,0.46044233441352844
1708440804.1894996,-1.1130445003509521,-1.6773973904051722,-2.5274036566363733,2.2894982534595947,-1.0186827818499964,0.46047401428222656
1708440804.1915452,-1.1129108667373657,-1.677478929559225,-2.527445618306295,2.2893079954334716,-1.0186579863177698,0.46054235100746155
1708440804.193502,-1.11281418800354,-1.677554269830221,-2.5273869673358362,2.2892166811176757,-1.0186222235309046,0.46059370040893555
1708440804.1955051,-1.1127482652664185,-1.6775995693602503,-2.527384106312887,2.289076014156006,-1.0186060110675257,0.46065643429756165
1708440804.1974912,-1.112676978111267,-1.6776253185667933,-2.527350966130392,2.289029045695923,-1.0185816923724573,0.4607619345188141
1708440804.1995068,-1.1125596761703491,-1.6776682339110316,-2.5273223559008997,2.288912220592163,-1.0185945669757288,0.460804283618927
1708440804.2015176,-1.1124145984649658,-1.6777826748290003,-2.5273526350604456,2.288808985347412,-1.0185664335833948,0.46081945300102234
1708440804.2034981,-1.1123063564300537,-1.677781721154684,-2.5273149649249476,2.2887133794971923,-1.0185664335833948,0.46091964840888977
1708440804.2055056,-1.1122760772705078,-1.6778127155699671,-2.5273359457599085,2.288623257274292,-1.0185588041888636,0.46093910932540894
1708440804.2075114,-1.1121670007705688,-1.6778274975218714,-2.5273104349719446,2.288505955333374,-1.0184906164752405,0.46098703145980835
1708440804.209557,-1.112146019935608,-1.6779381237425746,-2.5273075739489954,2.2883967596241455,-1.0184906164752405,0.46105122566223145
1708440804.2114775,-1.1120034456253052,-1.6780058346190394,-2.5272658506976526,2.2882959085651855,-1.018486801777975,0.4611567258834839
1708440804.2134907,-1.111923336982727,-1.6780129871764125,-2.5272792021380823,2.2881764608570556,-1.018470589314596,0.4611663222312927
1708440804.2154994,-1.1118690967559814,-1.6781050167479457,-2.5272627512561243,2.2881459432789306,-1.0184553305255335,0.4612424373626709
1708440804.2175019,-1.111751914024353,-1.6781531773009242,-2.527254883443014,2.288083477611206,-1.0184553305255335,0.46129438281059265
1708440804.2195146,-1.1117126941680908,-1.6781770191588343,-2.527288262044088,2.2879366117664794,-1.0184100309955042,0.4613458812236786
1708440804.2214885,-1.111612319946289,-1.678220888177389,-2.527238432561056,2.2878450590321044,-1.0184314886676233,0.4614677429199219
1708440804.2235053,-1.111564040184021,-1.678267618218893,-2.527247492467062,2.2878123956867675,-1.018423859273092,0.461503803730011
1708440804.22548,-1.1114718914031982,-1.6782733402647914,-2.52722937265505,2.287727041835449,-1.018362824116842,0.4615382254123688
1708440804.2274725,-1.111417531967163,-1.6784259281554164,-2.5272355715381067,2.2876476484486084,-1.0183876196490687,0.46154895424842834
1708440804.22949,-1.1113433837890625,-1.6784521541991175,-2.527181927357809,2.2875303465076904,-1.0183833281146448,0.46166640520095825
1708440804.2314758,-1.1112284660339355,-1.6784879169859828,-2.527165238057272,2.287493868465088,-1.018306080495016,0.4616968631744385
1708440804.2334812,-1.1112174987792969,-1.6784965000548304,-2.527214590703146,2.287395401591919,-1.0182707945453089,0.46169596910476685
1708440804.2354872,-1.1111698150634766,-1.6785437069334925,-2.5271998087512415,2.2873052793690185,-1.0182707945453089,0.46177300810813904
1708440804.2374787,-1.1110531091690063,-1.6785756550230921,-2.5271576086627405,2.2872094351002197,-1.0182750860797327,0.46182969212532043
1708440804.2394893,-1.110979676246643,-1.6786471805968226,-2.5272088686572474,2.28719608365979,-1.0182302633868616,0.46186137199401855
1708440804.2414794,-1.1109284162521362,-1.6786962948241175,-2.5271454493152063,2.2871286112019042,-1.0182464758502405,0.46194157004356384
1708440804.243483,-1.1108564138412476,-1.6786953411498011,-2.5271831194507044,2.287054939860962,-1.0182507673846644,0.46192750334739685
1708440804.2454681,-1.1107845306396484,-1.6787315807738246,-2.527163569127218,2.286980076427124,-1.0182150045977991,0.4619807004928589
1708440804.2474751,-1.1107243299484253,-1.678784032861227,-2.527100388203756,2.2868997293659667,-1.0182107130633753,0.4620862305164337
1708440804.2494886,-1.1106477975845337,-1.6788107357420863,-2.527118508015768,2.2868479925343017,-1.018203083668844,0.46206438541412354
1708440804.2514842,-1.1105676889419556,-1.6788517437376917,-2.527126137410299,2.286766930217407,-1.018191162739889,0.46209606528282166
1708440804.2534857,-1.1105655431747437,-1.6788631878294886,-2.527159039174215,2.2867538171955566,-1.0181506315814417,0.46213939785957336
1708440804.2554839,-1.1104806661605835,-1.6788903675475062,-2.527156178151266,2.286644383067749,-1.0181954542743128,0.46221667528152466
1708440804.2574668,-1.1104369163513184,-1.6789142094054164,-2.527135197316305,2.2865308958240966,-1.0181754271136683,0.46227332949638367
1708440804.2594829,-1.1103508472442627,-1.6789590320982875,-2.5270944277392786,2.286475105876587,-1.0181430021869105,0.4622601866722107
1708440804.2614815,-1.1103211641311646,-1.6790367565550746,-2.5270989576922815,2.2864484029957275,-1.0181635061847132,0.46225905418395996
1708440804.2634976,-1.1102938652038574,-1.6790114841856898,-2.5270870367633265,2.286407395000122,-1.0181353727923792,0.46232759952545166
1708440804.2655363,-1.1101964712142944,-1.6790758572020472,-2.5271034876452845,2.2863525587269287,-1.0181234518634241,0.4623633623123169
1708440804.26749,-1.110169768333435,-1.6790830097594203,-2.5271034876452845,2.286271496410034,-1.018094841633932,0.4624157249927521
1708440804.2695036,-1.1100932359695435,-1.679061075250143,-2.5270631949054163,2.2862276273914794,-1.0180991331683558,0.462434321641922
1708440804.2714891,-1.1100456714630127,-1.6791116199889125,-2.5270841757403772,2.286198063487671,-1.0181077162372034,0.4624994099140167
1708440804.2735043,-1.1099884510040283,-1.6791182957091273,-2.5270677248584192,2.286066694850586,-1.0180991331683558,0.46253541111946106
1708440804.2755141,-1.109945297241211,-1.6791702709593714,-2.527039353047506,2.2860311704822998,-1.0180962721454065,0.4625917971134186
1708440804.2774816,-1.1099506616592407,-1.6791984043517054,-2.527052942906515,2.2860163885303955,-1.0180709997760218,0.4625830352306366
1708440804.2794938,-1.109857201576233,-1.6792270145811976,-2.526994053517477,2.285958929652832,-1.0180547873126429,0.4625972509384155
1708440804.2814722,-1.1097934246063232,-1.6792718372740687,-2.527043883000509,2.2859501081654052,-1.0180190245257776,0.4625972509384155
1708440804.283485,-1.1097650527954102,-1.679241796533102,-2.5269866625415247,2.2858900266834716,-1.018076244984762,0.462628573179245
1708440804.285489,-1.1096723079681396,-1.6792975864806117,-2.526994291936056,2.2858499723621826,-1.0179951826678675,0.46270912885665894
1708440804.287474,-1.1096900701522827,-1.6792851887144984,-2.526994291936056,2.285809202785156,-1.0179951826678675,0.4627789258956909
1708440804.289471,-1.109588384628296,-1.6793462238707484,-2.5269580523120325,2.285686417216919,-1.018008057271139,0.46270790696144104
1708440804.2914717,-1.1095699071884155,-1.6794311008849085,-2.526977841054098,2.2857059675404052,-1.0179546515094202,0.46273642778396606
1708440804.2934682,-1.1095504760742188,-1.6793772182860316,-2.5269792715655726,2.2856382566639404,-1.0179756323443812,0.46280473470687866
1708440804.295469,-1.1094813346862793,-1.6794592342772425,-2.5269747416125696,2.2855638700672607,-1.0179675261126917,0.4628463387489319
1708440804.2974668,-1.1094367504119873,-1.6794458828368128,-2.5269551912890833,2.285515709514282,-1.0179427305804651,0.46288108825683594
1708440804.2995384,-1.1094263792037964,-1.6794330082335414,-2.5269883314715784,2.285468025798462,-1.0179885069476526,0.46288108825683594
1708440804.3014634,-1.1093432903289795,-1.679497858087057,-2.5269461313830774,2.285440607661865,-1.0179231802569788,0.46295809745788574
1708440804.3034756,-1.109370231628418,-1.6795069179930628,-2.526980463658468,2.2853686052509765,-1.0179436842547815,0.46295374631881714
1708440804.305471,-1.10928475856781,-1.6795908413329066,-2.5269294420825403,2.285323305720947,-1.017956558858053,0.46298113465309143
1708440804.3074799,-1.1092863082885742,-1.6796146831908167,-2.526997152959005,2.2852772909351806,-1.0178988615619105,0.46297669410705566
1708440804.3095033,-1.1092371940612793,-1.679612775842184,-2.5269177595721644,2.2852558332630615,-1.0179198423968714,0.46298426389694214
1708440804.3115385,-1.1092143058776855,-1.6796170673766078,-2.5269671122180384,2.285233660335205,-1.0179317633258265,0.4630647897720337
1708440804.3134842,-1.1091578006744385,-1.679612775842184,-2.526922051106588,2.285205288524292,-1.0179327170001429,0.4630734324455261
1708440804.3155124,-1.1091591119766235,-1.6796699963011683,-2.5269551912890833,2.2851170736500244,-1.017900292073385,0.4630723297595978
1708440804.3175232,-1.109076738357544,-1.6796609363951625,-2.5269551912890833,2.285093231792114,-1.0178716818438929,0.46309611201286316
1708440804.3195093,-1.1090047359466553,-1.6796814403929652,-2.526926581059591,2.2850820261188964,-1.0178878943072718,0.4630952477455139
1708440804.3215077,-1.1089764833450317,-1.6796518764891566,-2.526935640965597,2.2850093084522705,-1.0178878943072718,0.4631234407424927
1708440804.3234978,-1.1090314388275146,-1.6797009907164515,-2.526935640965597,2.285001679057739,-1.017839256917135,0.46320074796676636
1708440804.3255193,-1.1089415550231934,-1.6796924076476039,-2.5269013086902063,2.284977360362671,-1.0178640524493616,0.4632333219051361
1708440804.3274975,-1.1089060306549072,-1.67974915126943,-2.526919190083639,2.284888907069824,-1.0178478399859827,0.4632408022880554
1708440804.3294895,-1.1088995933532715,-1.6797028980650843,-2.526881519948141,2.284888907069824,-1.01782733598818,0.46328839659690857
1708440804.331525,-1.1088615655899048,-1.6797849140562953,-2.526886288319723,2.2848338323780517,-1.017839256917135,0.46323129534721375
1708440804.3334923,-1.1088007688522339,-1.6797648868956507,-2.526886288319723,2.2847603994556884,-1.0178077856646937,0.4632677733898163
1708440804.335482,-1.1087493896484375,-1.6798211536803187,-2.526886049901144,2.2847603994556884,-1.017782990132467,0.46330711245536804
1708440804.3374999,-1.1087747812271118,-1.67987122158193,-2.526911799107687,2.284757538432739,-1.0178077856646937,0.4633408486843109
1708440804.3394895,-1.108771800994873,-1.6798140011229457,-2.526928249989645,2.2846974569508056,-1.0178077856646937,0.4633224904537201
1708440804.3415034,-1.1086610555648804,-1.6798111400999964,-2.526902739201681,2.2846452432819824,-1.0178034941302698,0.46338000893592834
1708440804.343473,-1.1086997985839844,-1.679800649682516,-2.5269163290606897,2.2846333223530273,-1.0177958647357386,0.46335503458976746
1708440804.3454764,-1.1086299419403076,-1.6798578701415003,-2.5268831888781946,2.2846173483082275,-1.017796818410055,0.46337559819221497
1708440804.3475056,-1.1086076498031616,-1.679840704003805,-2.5268951098071497,2.2845443922230224,-1.0177796522723597,0.46343669295310974
1708440804.3494842,-1.1086328029632568,-1.679885049859518,-2.5268338362323206,2.284575863475464,-1.0177467505084437,0.4634442627429962
1708440804.351493,-1.1085504293441772,-1.6798354587950648,-2.5268381277667444,2.2845498758503417,-1.0178001562701624,0.46343669295310974
1708440804.3535018,-1.1085102558135986,-1.6798674068846644,-2.5268545786487024,2.2845021921345214,-1.0177796522723597,0.46341484785079956
1708440804.3554904,-1.1084575653076172,-1.6799546680846156,-2.5269296805011194,2.2844618993946533,-1.017763916646139,0.46345171332359314
1708440804.3574798,-1.10843825340271,-1.6799336872496546,-2.5268545786487024,2.2844018179127197,-1.0177801291095179,0.463459312915802
1708440804.3594851,-1.1084753274917603,-1.6799246273436488,-2.526867930089132,2.2844108778187255,-1.0177596251117151,0.4634627401828766
1708440804.3615363,-1.108397364616394,-1.6799694500365199,-2.5268219153033655,2.2843870359608154,-1.0177887121783655,0.46348336338996887
1708440804.3635292,-1.1083928346633911,-1.6799527607359828,-2.52688438097109,2.284358187312744,-1.017763916646139,0.46343308687210083
1708440804.3655224,-1.1083821058273315,-1.6799804172911585,-2.5268247763263147,2.2843000131794433,-1.0177844206439417,0.4635026454925537
1708440804.3674939,-1.108353853225708,-1.679967542687887,-2.526893440877096,2.2842718797871093,-1.0177434126483362,0.4635266959667206
1708440804.3695087,-1.1083687543869019,-1.6800505123534144,-2.5268142859088343,2.2842957216450195,-1.0177400747882288,0.46351364254951477
1708440804.3715024,-1.1082935333251953,-1.6800414524474085,-2.52686053911318,2.2842206197926025,-1.0177529493915003,0.46354612708091736
1708440804.3734827,-1.1082950830459595,-1.6800533733763636,-2.5268681685077112,2.284198208446167,-1.0177033583270472,0.46354612708091736
1708440804.375552,-1.1082950830459595,-1.6800443134703578,-2.526818815861837,2.2841948705860595,-1.0177033583270472,0.4635583758354187
1708440804.377484,-1.1082385778427124,-1.6800652943053187,-2.5268262068377894,2.2841412264057617,-1.0177119413958948,0.46359437704086304
1708440804.3794737,-1.1081860065460205,-1.680059095422262,-2.5268307367907923,2.284130735988281,-1.0177443663226526,0.46364718675613403
1708440804.3814774,-1.1081860065460205,-1.6800881824889125,-2.5268142859088343,2.2840890127369384,-1.0177162329303187,0.46359872817993164
1708440804.3834975,-1.1082111597061157,-1.680112978021139,-2.526872460042135,2.284118815059326,-1.0177119413958948,0.4636637568473816
1708440804.3854904,-1.108116865158081,-1.6801535091795863,-2.52683669725527,2.284061833018921,-1.0177000204669397,0.4636472165584564
1708440804.3874679,-1.1081300973892212,-1.6801253757872523,-2.526839796696798,2.2840170103260498,-1.017700497304098,0.4636877775192261
1708440804.3894825,-1.108127236366272,-1.6801253757872523,-2.5268681685077112,2.2840275007435302,-1.0176637808429163,0.4636659026145935
1708440804.391502,-1.1080870628356934,-1.6801029644408167,-2.526839796696798,2.2840184408375244,-1.0176594893084925,0.4636833667755127
1708440804.3934603,-1.1080751419067383,-1.6801239452757777,-2.5268142859088343,2.283986731166504,-1.0176604429828089,0.4636789560317993
1708440804.3955033,-1.1080269813537598,-1.680154939691061,-2.5268026033984583,2.283904953593872,-1.01764423051943,0.46364206075668335
1708440804.3974931,-1.108007550239563,-1.6801921329894007,-2.5268636385547083,2.2839481073566894,-1.0176604429828089,0.46368563175201416
1708440804.3995223,-1.1079673767089844,-1.680138727227682,-2.5268097559558313,2.283873959178589,-1.0176647345172327,0.4636777341365814
1708440804.4015563,-1.1079251766204834,-1.6801721058287562,-2.5268142859088343,2.283848686809204,-1.0176885763751429,0.46370187401771545
1708440804.4035544,-1.1079593896865845,-1.680225511590475,-2.526839796696798,2.283829374904297,-1.0176604429828089,0.46370625495910645
1708440804.4055645,-1.1078858375549316,-1.6802197895445765,-2.52682334581484,2.2837976652332763,-1.017628018056051,0.46376273036003113
1708440804.4075513,-1.107848048210144,-1.6802121601500453,-2.526839796696798,2.283790035838745,-1.0176485220538538,0.46376141905784607
1708440804.409553,-1.1078705787658691,-1.6802121601500453,-2.526785437260763,2.283761902446411,-1.0176203886615198,0.4637824594974518
1708440804.411559,-1.1078273057937622,-1.680277486840719,-2.526778046284811,2.2837559419819335,-1.017616097127096,0.4638062119483948
1708440804.4135187,-1.1077946424484253,-1.6802221737303675,-2.526811424885885,2.2836763101765136,-1.0176118055926722,0.4638312757015228
1708440804.4155302,-1.1078228950500488,-1.6802064381041468,-2.526794497166769,2.2836569982716064,-1.017628018056051,0.46381378173828125
1708440804.4175322,-1.1077537536621094,-1.6803089580931605,-2.526789967213766,2.2836779791065673,-1.0176366011248987,0.46381813287734985
1708440804.4195604,-1.1077420711517334,-1.6802627048888148,-2.526773516331808,2.283674879665039,-1.0176604429828089,0.4638510048389435
1708440804.421547,-1.10772705078125,-1.6802956066527308,-2.526848856602804,2.283646507854126,-1.017599884663717,0.4638669490814209
1708440804.4235258,-1.107686161994934,-1.6803890667357386,-2.5268026033984583,2.283679409618042,-1.017604176198141,0.46385815739631653
1708440804.4255364,-1.1076610088348389,-1.680357118646139,-2.526827637349264,2.283580465907715,-1.0175965468036097,0.4639236330986023
1708440804.427498,-1.1076669692993164,-1.6803528271117152,-2.526799027119772,2.2836074072071533,-1.0176032225238245,0.46389102935791016
1708440804.4295194,-1.1076788902282715,-1.68040194133901,-2.526827875767843,2.283550186748169,-1.0176289717303675,0.4638495445251465
1708440804.4315042,-1.1076387166976929,-1.6803647480406703,-2.526853148137228,2.283604546184204,-1.017599884663717,0.4638855457305908
1708440804.4335384,-1.1076148748397827,-1.6803885898985804,-2.5267677942859095,2.283545656795166,-1.017628018056051,0.4639018177986145
1708440804.4355726,-1.107628345489502,-1.6803513966002406,-2.526789967213766,2.2835635381885986,-1.0176246801959437,0.4639628827571869
1708440804.4374912,-1.1075739860534668,-1.6804405651488246,-2.5268293062793177,2.2835070329853515,-1.0176332632647913,0.46388867497444153
1708440804.439533,-1.1076037883758545,-1.680415769616598,-2.5267916361438196,2.283492251033447,-1.0176289717303675,0.4639509618282318
1708440804.4415073,-1.1075636148452759,-1.680460592309469,-2.5267797152148646,2.283467932338379,-1.0175798575030726,0.46399107575416565
1708440804.4434614,-1.1075220108032227,-1.680448671380514,-2.526832405720846,2.2834676939197998,-1.0176366011248987,0.46397069096565247
1708440804.4454942,-1.1074931621551514,-1.6804114780821742,-2.526749912892477,2.283390446300171,-1.0175965468036097,0.46396198868751526
1708440804.44747,-1.1075280904769897,-1.6804353199400843,-2.526766363774435,2.2833704191395263,-1.0175965468036097,0.46400177478790283
1708440804.4495044,-1.107499122619629,-1.6804758510985316,-2.5267587343799036,2.2833451467701416,-1.0176084677325647,0.46399742364883423
1708440804.451522,-1.1074827909469604,-1.6805054150023402,-2.526778046284811,2.2833584982105712,-1.017571274434225,0.46402594447135925
1708440804.4534733,-1.1074872016906738,-1.6804758510985316,-2.526820484791891,2.2833303648182373,-1.0176127592669886,0.46404969692230225
1708440804.4554949,-1.1074752807617188,-1.6805335483946742,-2.526749912892477,2.283298893565796,-1.017559830342428,0.4640128016471863
1708440804.4575148,-1.1074470281600952,-1.6804739437498988,-2.5268035570727747,2.283380909557007,-1.0175798575030726,0.46404969692230225
1708440804.4595215,-1.107467770576477,-1.6805416546263636,-2.5268123785602015,2.2833525377460937,-1.0175841490374964,0.4640662968158722
1708440804.4615426,-1.1074187755584717,-1.680551668206686,-2.526766363774435,2.2833332258411865,-1.017538849507467,0.46404534578323364
1708440804.46355,-1.107409954071045,-1.680556436578268,-2.5267871061908167,2.283259792918823,-1.0175684134112757,0.46407824754714966
1708440804.465525,-1.1074116230010986,-1.6805263958373011,-2.5267871061908167,2.2831973272510986,-1.0175474325763147,0.46405646204948425
1708440804.4675105,-1.1074235439300537,-1.680563589135641,-2.5267961660968226,2.283259792918823,-1.0175355116473597,0.46412694454193115
1708440804.46952,-1.1073745489120483,-1.680554529229635,-2.5267601648913782,2.2832388120838623,-1.0175970236407679,0.46407240629196167
1708440804.4714975,-1.1073025465011597,-1.6805969677367152,-2.5268502871142786,2.283224030131958,-1.0175769964801233,0.4640679657459259
1708440804.4735477,-1.107359528541565,-1.68060364345693,-2.5268035570727747,2.283148928279541,-1.0176332632647913,0.464066743850708
1708440804.475504,-1.1073188781738281,-1.6806489429869593,-2.5267468134509485,2.2831625181385498,-1.0175688902484339,0.4641333818435669
1708440804.4774938,-1.107295036315918,-1.6805860004820765,-2.5267885367022913,2.2831966119953613,-1.0175398031817835,0.46414095163345337
1708440804.4794693,-1.1072787046432495,-1.6806189022459925,-2.5267840067492884,2.2832211691090087,-1.0175278822528284,0.4641246795654297
1708440804.4815025,-1.1072875261306763,-1.6806189022459925,-2.5267751852618616,2.2830843168446044,-1.0175970236407679,0.4641532003879547
1708440804.4834747,-1.107262372970581,-1.680655141870016,-2.526737991963522,2.283161087627075,-1.0175278822528284,0.46414440870285034
1708440804.4854722,-1.107238531112671,-1.6806313000121058,-2.5267632643329065,2.28313057004895,-1.0175321737872522,0.4641650319099426
1708440804.4874933,-1.1072230339050293,-1.6806942425169886,-2.5267468134509485,2.283127709026001,-1.0175483862506312,0.46414440870285034
1708440804.489465,-1.1072036027908325,-1.680655141870016,-2.5267677942859095,2.28310672819104,-1.0175321737872522,0.4641978442668915
1708440804.491482,-1.1071739196777344,-1.6806055508055628,-2.5267587343799036,2.2831410604664306,-1.0175560156451624,0.4641813039779663
1708440804.493501,-1.107219934463501,-1.68064608196401,-2.5267766157733362,2.2830824094959716,-1.0175235907184046,0.4642127454280853
1708440804.495474,-1.1071784496307373,-1.680716177026266,-2.5267558733569544,2.2830957609364013,-1.0175321737872522,0.46421271562576294
1708440804.4974687,-1.1071590185165405,-1.6806370220580042,-2.5267513434039515,2.2830704885670166,-1.0174911657916468,0.46420836448669434
1708440804.4994838,-1.1072007417678833,-1.6807242832579554,-2.5267885367022913,2.2830096918293457,-1.01756459871401,0.464147686958313
1708440804.501523,-1.1072007417678833,-1.6806656322874964,-2.5267513434039515,2.28304831563916,-1.0175440947162073,0.46419209241867065
1708440804.5035088,-1.1071643829345703,-1.6807853184142054,-2.5267422834979456,2.283043785686157,-1.017536465321676,0.4642083942890167
1708440804.5054805,-1.107122778892517,-1.6807433567442835,-2.5267303625689905,2.282993956203125,-1.0175192991839808,0.46420714259147644
1708440804.507479,-1.107143521308899,-1.6807433567442835,-2.5267301241504114,2.28294484197583,-1.0175202528582972,0.46421146392822266
1708440804.5095074,-1.1070899963378906,-1.6807552776732386,-2.5267468134509485,2.282925530070923,-1.0175569693194788,0.46424439549446106
1708440804.5115337,-1.1071033477783203,-1.6807481251158656,-2.5267227331744593,2.2829508024403076,-1.0175483862506312,0.4642072021961212
1708440804.5135233,-1.10706627368927,-1.6807791195311488,-2.5267558733569544,2.282925768489502,-1.0175202528582972,0.4642281234264374
1708440804.5155363,-1.1070899963378906,-1.6807223759093226,-2.5267632643329065,2.2829689222523193,-1.0175812880145472,0.46427255868911743
1708440804.5175056,-1.1070542335510254,-1.6807910404601039,-2.5267797152148646,2.2829345899769287,-1.0175159613238733,0.4642848074436188
1708440804.51952,-1.1070388555526733,-1.6807495556273402,-2.5267139116870325,2.2829314905354003,-1.01756459871401,0.46426820755004883
1708440804.5214949,-1.1070269346237183,-1.680753847161764,-2.5267558733569544,2.2829627233692626,-1.017512623463766,0.46428918838500977
1708440804.523503,-1.107001543045044,-1.6807705364623011,-2.5267346541034144,2.28289978086438,-1.0175040403949183,0.4642508625984192
1708440804.525551,-1.1070194244384766,-1.680781980554098,-2.5267301241504114,2.2829086023518066,-1.017536465321676,0.4642966389656067
1708440804.527506,-1.107003092765808,-1.6808315716185511,-2.5267677942859095,2.282834215755127,-1.017524544392721,0.4643288254737854
1708440804.5294511,-1.1070314645767212,-1.6807824573912562,-2.5267797152148646,2.2828759390064697,-1.017491642628805,0.46428370475769043
1708440804.531465,-1.1069955825805664,-1.6808229885497035,-2.5267227331744593,2.2828232485004882,-1.0175169149981897,0.4642999470233917
1708440804.533574,-1.106979250907898,-1.680835863152975,-2.5267184416400355,2.282794876689575,-1.0175169149981897,0.4643324911594391
1708440804.5354536,-1.106950283050537,-1.6808692417540492,-2.5267930666552942,2.282811327571533,-1.0175655523883265,0.4643280506134033
1708440804.5374675,-1.1069673299789429,-1.6808678112425746,-2.5267723242389124,2.2827340799519042,-1.0174506346331995,0.4642983376979828
1708440804.5395164,-1.106938362121582,-1.6808558903136195,-2.5267391840564173,2.282787485713623,-1.017512623463766,0.4643891155719757
1708440804.5414498,-1.1068857908248901,-1.6808630428709925,-2.5267632643329065,2.282780094737671,-1.0175288359271448,0.46438032388687134
1708440804.543463,-1.1069562435150146,-1.6808387241759242,-2.526715103779928,2.2827228742786865,-1.017480198537008,0.46437597274780273
1708440804.545466,-1.1069726943969727,-1.6808673344054164,-2.526748005543844,2.2827347952076416,-1.0175493399249476,0.4643890857696533
1708440804.5474896,-1.1068902015686035,-1.680936952630514,-2.5267425219165247,2.2826856809803466,-1.017480198537008,0.46437162160873413
1708440804.5494757,-1.1068495512008667,-1.6808716259398402,-2.5267468134509485,2.2827393251606445,-1.0175331274615687,0.46437597274780273
1708440804.5514717,-1.1068873405456543,-1.680892129937643,-2.526727263127462,2.2827154833027343,-1.0175612608539026,0.46437162160873413
1708440804.5534778,-1.1068332195281982,-1.6809450588622035,-2.5267601648913782,2.282646341914795,-1.0174873510943812,0.4643922746181488
1708440804.5554686,-1.10685396194458,-1.6808377705016078,-2.526727263127462,2.282684250468872,-1.017524544392721,0.46437597274780273
1708440804.5574815,-1.1068964004516602,-1.6808749637999476,-2.5267513434039515,2.2827109533497314,-1.0174959341632288,0.46442505717277527
1708440804.559512,-1.106842279434204,-1.680911203423971,-2.5267227331744593,2.282700462932251,-1.0174959341632288,0.4643543064594269
1708440804.561509,-1.1068555116653442,-1.6808320484557093,-2.5267391840564173,2.282613678569458,-1.0175040403949183,0.46443700790405273
1708440804.5635035,-1.1068228483200073,-1.680948396722311,-2.526710573826925,2.28263442098584,-1.0174716154681605,0.46438679099082947
1708440804.5655384,-1.1068644523620605,-1.680944105187887,-2.5267391840564173,2.2826554018208007,-1.017484490071432,0.46442389488220215
1708440804.5675044,-1.1068153381347656,-1.6809398136534632,-2.5267346541034144,2.2826196390339355,-1.0174997488604944,0.46442824602127075
1708440804.5694942,-1.106801986694336,-1.6809026203551234,-2.5267885367022913,2.2825988966175537,-1.0175159613238733,0.46443983912467957
1708440804.5714872,-1.1068034172058105,-1.6809517345824183,-2.5267182032214563,2.2826031881519775,-1.0174830595599573,0.46445608139038086
1708440804.5735161,-1.1067790985107422,-1.6809050045409144,-2.526727263127462,2.2825943666645507,-1.017524544392721,0.46442246437072754
1708440804.5756125,-1.1067464351654053,-1.6809264622130335,-2.526731793080465,2.2825824457355957,-1.0175088087665003,0.46448037028312683
1708440804.5775027,-1.1067759990692139,-1.6808916531004847,-2.5267227331744593,2.2825750547596435,-1.017524544392721,0.46442681550979614
1708440804.5795026,-1.106767177581787,-1.6809517345824183,-2.5267062822925013,2.282625599498413,-1.0174959341632288,0.46447157859802246
1708440804.5814881,-1.1067345142364502,-1.6809383831419886,-2.526715103779928,2.282571955318115,-1.017508331929342,0.46446290612220764
1708440804.5834908,-1.1068049669265747,-1.6809965572752894,-2.5267601648913782,2.282550497645996,-1.0175212065326136,0.46447038650512695
1708440804.5854666,-1.1067224740982056,-1.6810022793211878,-2.5267558733569544,2.282564087505005,-1.0175202528582972,0.46450409293174744
1708440804.5874856,-1.1067180633544922,-1.6809545956053675,-2.5267468134509485,2.282543106670044,-1.0174887816058558,0.4645206928253174
1708440804.589471,-1.1067150831222534,-1.6809412441649378,-2.5266898314105433,2.282503052348755,-1.0175288359271448,0.4645075798034668
1708440804.5914807,-1.1067239046096802,-1.68096985439443,-2.526727263127462,2.2825073438831787,-1.017480198537008,0.4645163416862488
1708440804.5934768,-1.1067150831222534,-1.680941721002096,-2.5268049875842493,2.282498522395752,-1.017512623463766,0.46451202034950256
1708440804.595497,-1.106690526008606,-1.6809994182982386,-2.5267258326159876,2.2824577528187255,-1.0175002256976526,0.46453142166137695
1708440804.5974984,-1.1066995859146118,-1.681009908715719,-2.52674371400942,2.2825237947651367,-1.0175212065326136,0.46451514959335327
1708440804.5995057,-1.1066741943359375,-1.6810065708556117,-2.5267301241504114,2.2824835020252685,-1.0175569693194788,0.4645400941371918
1708440804.6015496,-1.106690526008606,-1.6809574566283167,-2.5267184416400355,2.282475634212158,-1.0175002256976526,0.4645770490169525
1708440804.6035497,-1.1066757440567017,-1.681009908715719,-2.526710573826925,2.282475634212158,-1.0174873510943812,0.46455636620521545
1708440804.605548,-1.1066920757293701,-1.68096985439443,-2.5267558733569544,2.2825135427662353,-1.0175202528582972,0.46453577280044556
1708440804.6075704,-1.1066594123840332,-1.6809946499266566,-2.5267601648913782,2.282475634212158,-1.017484490071432,0.46451514959335327
1708440804.6095653,-1.1066920757293701,-1.680997987786764,-2.52674371400942,2.282463713283203,-1.0175655523883265,0.4645845592021942
1708440804.611554,-1.1066713333129883,-1.6810022793211878,-2.52674371400942,2.282505913371704,-1.0175088087665003,0.46452587842941284
1708440804.613514,-1.1066594123840332,-1.68103088955068,-2.526752535496847,2.282431049937866,-1.0175002256976526,0.46456828713417053
1708440804.6155217,-1.1066757440567017,-1.681009908715719,-2.526710573826925,2.282419129008911,-1.017512623463766,0.46456286311149597
1708440804.6175828,-1.1066102981567383,-1.681009908715719,-2.52674371400942,2.2823781210133056,-1.0175655523883265,0.4645715057849884
1708440804.6195893,-1.106611728668213,-1.6810914478697718,-2.526731793080465,2.2823657232471923,-1.017491642628805,0.4646044373512268
1708440804.6215763,-1.1066399812698364,-1.6810013256468714,-2.5266898314105433,2.282427950496338,-1.0175045172320765,0.4645715355873108
1708440804.6235623,-1.1066073179244995,-1.6810513935484828,-2.52674371400942,2.2823611932941894,-1.0175002256976526,0.4645715355873108
1708440804.6255183,-1.1066608428955078,-1.6810513935484828,-2.526748005543844,2.2824086385914306,-1.0175045172320765,0.4645497798919678
1708440804.6275346,-1.1066163778305054,-1.6810347042479457,-2.526740852986471,2.2824460703083496,-1.0174759070025843,0.4645715057849884
1708440804.6295078,-1.1066327095031738,-1.68103088955068,-2.5267227331744593,2.282370014781616,-1.017480198537008,0.46454665064811707
1708440804.6315494,-1.106554627418518,-1.6810342274107875,-2.5267346541034144,2.2823566633411865,-1.0175002256976526,0.46460434794425964
1708440804.6335046,-1.106603741645813,-1.681087156335348,-2.5267017523394983,2.2823826509663085,-1.0174678007708948,0.4645627737045288
1708440804.635546,-1.1065993309020996,-1.681042810479635,-2.526710573826925,2.2823962408253173,-1.0175088087665003,0.4646075367927551
1708440804.6375425,-1.1065635681152344,-1.6810666523375453,-2.526715103779928,2.282388134593628,-1.0174549261676233,0.46458345651626587
1708440804.639496,-1.1065666675567627,-1.6810585461058558,-2.526715103779928,2.282330198878906,-1.0174959341632288,0.464578241109848
1708440804.6414998,-1.1065993309020996,-1.6810623608031214,-2.5267391840564173,2.282339020366333,-1.0175169149981897,0.4645988345146179
1708440804.6434922,-1.1065382957458496,-1.681054254571432,-2.5267391840564173,2.282346649760864,-1.0174959341632288,0.4646685719490051
1708440804.6454985,-1.106560468673706,-1.6810623608031214,-2.526752535496847,2.2823895651051025,-1.0175169149981897,0.4645945131778717
1708440804.6474867,-1.1065309047698975,-1.6810251675047816,-2.526719633732931,2.2823361593433837,-1.0175493399249476,0.46458694338798523
1708440804.6494713,-1.1065278053283691,-1.681103368798727,-2.526715103779928,2.2823569017597656,-1.0174759070025843,0.4646642208099365
1708440804.6514947,-1.1065189838409424,-1.6810656986632289,-2.526761595402853,2.282315178508423,-1.0175374189959925,0.4645945429801941
1708440804.6535249,-1.1065034866333008,-1.6810580692686976,-2.5267766157733362,2.282289906139038,-1.0175374189959925,0.4646151065826416
1708440804.6555066,-1.1064900159835815,-1.681103368798727,-2.5266807715045374,2.2822460371204834,-1.017484490071432,0.46463140845298767
1708440804.6575127,-1.1064573526382446,-1.6810528240599574,-2.5266853014575403,2.2823213773914794,-1.0174396673785608,0.4646424949169159
1708440804.659482,-1.1065198183059692,-1.6810623608031214,-2.526736084614889,2.2822326856800537,-1.0175045172320765,0.46461400389671326
1708440804.6615665,-1.1064677238464355,-1.6811024151244105,-2.5267346541034144,2.2822879987904052,-1.0175212065326136,0.4646380543708801
1708440804.6635282,-1.106484055519104,-1.681127210656637,-2.526682202016012,2.2823049265095214,-1.0174678007708948,0.4646790027618408
1708440804.665568,-1.106484055519104,-1.6810366115965785,-2.526727263127462,2.2822744089313964,-1.0175002256976526,0.4646627604961395
1708440804.6674962,-1.106466293334961,-1.6810819111266078,-2.526710573826925,2.282259626979492,-1.0174959341632288,0.4646337926387787
1708440804.6695156,-1.1064677238464355,-1.6811100445189417,-2.526727263127462,2.2822834688374023,-1.017484490071432,0.4646713435649872
1708440804.6715224,-1.106451392173767,-1.6810852489867152,-2.5267227331744593,2.2822508054920654,-1.0174887816058558,0.4646790325641632
1708440804.6735165,-1.1064646244049072,-1.6811109981932582,-2.5267601648913782,2.2822252947041015,-1.0174959341632288,0.46466708183288574
1708440804.67561,-1.1064677238464355,-1.6810561619200648,-2.526752535496847,2.2822508054920654,-1.0174678007708948,0.4647041857242584
1708440804.677497,-1.1064231395721436,-1.681131502191061,-2.5266898314105433,2.2822388845631103,-1.0175088087665003,0.46465402841567993
1708440804.679477,-1.1064677238464355,-1.6811024151244105,-2.526703182850973,2.2822508054920654,-1.017484490071432,0.46470311284065247
1708440804.681522,-1.1064319610595703,-1.6811143360533656,-2.526707712803976,2.2822508054920654,-1.0175002256976526,0.46469447016716003
1708440804.6834748,-1.1064482927322388,-1.6810933552184046,-2.526769224797384,2.28225223600354,-1.0174763838397425,0.46469447016716003
1708440804.6855059,-1.1064010858535767,-1.6810852489867152,-2.526727263127462,2.282263918513916,-1.0175088087665003,0.4647478759288788
1708440804.6874888,-1.1064143180847168,-1.6811424694456996,-2.52675706544985,2.2822150427052,-1.0175002256976526,0.46471503376960754
1708440804.6894717,-1.1063979864120483,-1.681133886376852,-2.526694361363546,2.282247706050537,-1.017517391835348,0.464718222618103
1708440804.6914787,-1.1063979864120483,-1.6810981235899867,-2.5266853014575403,2.2822610574909667,-1.0174930731402796,0.46468132734298706
1708440804.6934743,-1.1064456701278687,-1.681166788140768,-2.526694122944967,2.2822150427052,-1.0174644629107874,0.46470192074775696
1708440804.6954749,-1.106386423110962,-1.6810971699156703,-2.526748005543844,2.2822329240986328,-1.0175297896014612,0.464734822511673
1708440804.697487,-1.1063952445983887,-1.681105752984518,-2.52669865289797,2.282223864192627,-1.0174720923053187,0.46474671363830566
1708440804.6994867,-1.106369972229004,-1.6811596355833949,-2.526719633732931,2.2821859556385498,-1.0174558798419397,0.4647347927093506
1708440804.7015648,-1.106399655342102,-1.6811090908446253,-2.526761595402853,2.2821249204822998,-1.0174930731402796,0.46475550532341003
1708440804.7035303,-1.106337308883667,-1.681124826470846,-2.526727263127462,2.282240315074585,-1.0174525419818323,0.4647752046585083
1708440804.7054994,-1.1064085960388184,-1.681206842462057,-2.526707712803976,2.2822128969379882,-1.0174973646747034,0.46479979157447815
1708440804.7074826,-1.106369972229004,-1.681129594842428,-2.526710573826925,2.2821339803883056,-1.0174720923053187,0.46474671363830566
1708440804.7094855,-1.1064085960388184,-1.6811253033080042,-2.526695791875021,2.2821711736866455,-1.0174973646747034,0.4647707939147949
1708440804.711598,-1.106399655342102,-1.6811701260008753,-2.526724163685934,2.2821921545216064,-1.0174525419818323,0.4647499918937683
1708440804.713536,-1.10635507106781,-1.6811629734435023,-2.526731793080465,2.2821711736866455,-1.0174930731402796,0.46479547023773193
1708440804.7155879,-1.1064040660858154,-1.6811334095396937,-2.526703182850973,2.2821311193653564,-1.017444912587301,0.4647795259952545
1708440804.717509,-1.1063506603240967,-1.6811052761473597,-2.526665751134054,2.28217260419812,-1.0174568335162562,0.4647987186908722
1708440804.71948,-1.1063966751098633,-1.681194921533102,-2.5267496744738978,2.282132549876831,-1.0174363295184534,0.464807391166687
1708440804.721497,-1.1063387393951416,-1.6811701260008753,-2.526719633732931,2.2821518617817382,-1.0174406210528772,0.46476224064826965
1708440804.7235,-1.1063638925552368,-1.6811539135374964,-2.526740852986471,2.282139940852783,-1.0174601713763636,0.46478670835494995
1708440804.725618,-1.10635507106781,-1.6811744175352992,-2.5267227331744593,2.282156391734741,-1.0174406210528772,0.4647781550884247
1708440804.7275004,-1.1063685417175293,-1.6812001667418421,-2.526694361363546,2.2821354108997802,-1.01746112505068,0.4647987186908722
1708440804.7294729,-1.1063475608825684,-1.6811415157713832,-2.526724163685934,2.282165213222168,-1.017473045979635,0.4647781550884247
1708440804.7315009,-1.1062978506088257,-1.6811911068358363,-2.526670281087057,2.2821027475544433,-1.01746112505068,0.4647693932056427
1708440804.7334695,-1.1064101457595825,-1.6811658344664515,-2.526727263127462,2.282156391734741,-1.0174525419818323,0.46476224064826965
1708440804.7354681,-1.1063729524612427,-1.6811863384642542,-2.526727263127462,2.28211156904187,-1.0174081961261194,0.46479758620262146
1708440804.737488,-1.1063069105148315,-1.6811167202391566,-2.526703182850973,2.282073898906372,-1.017432991658346,0.4647813141345978
1708440804.7394881,-1.1063685417175293,-1.6811820469298304,-2.526712242756979,2.2821578222462158,-1.017449204121725,0.46479323506355286
1708440804.7414718,-1.106274127960205,-1.6811863384642542,-2.526695791875021,2.282137079829834,-1.017444912587301,0.46474483609199524
1708440804.7434878,-1.1063069105148315,-1.6812392673888148,-2.5267284552203577,2.2820707994648437,-1.0174287001239222,0.46481412649154663
1708440804.7454634,-1.1063485145568848,-1.6811820469298304,-2.52667481104006,2.2820753294178466,-1.0174406210528772,0.4648509621620178
1708440804.747491,-1.1063320636749268,-1.6812149486937464,-2.526703182850973,2.2820872503468017,-1.017449204121725,0.46477699279785156
1708440804.7494895,-1.1063276529312134,-1.6811686954894007,-2.526724163685934,2.2820426660725097,-1.017404858266012,0.46483471989631653
1708440804.751504,-1.1063069105148315,-1.6812402210631312,-2.526679340993063,2.2820963102528076,-1.0174244085894983,0.4648217558860779
1708440804.7534883,-1.1063024997711182,-1.6812178097166957,-2.5266626516925257,2.2820591169544677,-1.017432991658346,0.4648141860961914
1708440804.7555048,-1.106278657913208,-1.6811863384642542,-2.526712242756979,2.2821051317402343,-1.017432991658346,0.4648260772228241
1708440804.7574744,-1.1063082218170166,-1.6811701260008753,-2.52666145959963,2.2820634084888916,-1.0173919836627405,0.4648509621620178
1708440804.7594712,-1.1063439846038818,-1.6812030277647914,-2.526641909276144,2.2820767599293212,-1.0174372831927698,0.46487948298454285
1708440804.7615197,-1.1062843799591064,-1.6811658344664515,-2.526641909276144,2.2820471960255126,-1.017416779194967,0.4648629128932953
1708440804.7635288,-1.1062711477279663,-1.6812063656248988,-2.5267046133624476,2.2820917802998046,-1.0174244085894983,0.4648054838180542
1708440804.7655299,-1.1063157320022583,-1.6811939678587855,-2.526670281087057,2.2820767599293212,-1.0174287001239222,0.46487513184547424
1708440804.7674935,-1.1062963008880615,-1.681197305718893,-2.526649300252096,2.2820262151905517,-1.0174372831927698,0.4648498296737671
1708440804.769475,-1.1062755584716797,-1.6811853847899378,-2.5266838709460657,2.28200547277417,-1.0174005667315882,0.4648454785346985
1708440804.7714872,-1.1062874794006348,-1.6811896763243617,-2.526679340993063,2.2820591169544677,-1.0174534956561487,0.46485424041748047
1708440804.773542,-1.1062726974487305,-1.6811939678587855,-2.5266717115985315,2.2820395666309814,-1.0173843542682093,0.46490293741226196
1708440804.775531,-1.1062843799591064,-1.6811911068358363,-2.526707712803976,2.2820188242145996,-1.017421070729391,0.4649313986301422
1708440804.7775161,-1.1062183380126953,-1.6811768017210902,-2.526649300252096,2.2820886808582763,-1.0174697081195276,0.4648783206939697
1708440804.779488,-1.1062517166137695,-1.6812111339964808,-2.526710573826925,2.2820018964954834,-1.0174039045916956,0.46484553813934326
1708440804.7814713,-1.1062005758285522,-1.681197305718893,-2.526686731969015,2.2820188242145996,-1.0173962751971644,0.46489855647087097
1708440804.7834792,-1.1063053607940674,-1.6812063656248988,-2.5266671816455286,2.281987114543579,-1.017388645802633,0.4649105668067932
1708440804.7854853,-1.106225848197937,-1.681284090081686,-2.5267329851733606,2.2820605474659423,-1.017404858266012,0.46490731835365295
1708440804.7874928,-1.106213927268982,-1.6812344990172328,-2.526695791875021,2.282003327006958,-1.0173638502704065,0.4649433493614197
1708440804.789487,-1.106289029121399,-1.6812459431090296,-2.5266838709460657,2.282069607371948,-1.017449204121725,0.46486207842826843
1708440804.7914865,-1.106268048286438,-1.681258340875143,-2.526679340993063,2.282024307841919,-1.0173962751971644,0.4648870825767517
1708440804.7935011,-1.1062302589416504,-1.681225915948385,-2.5266671816455286,2.282036705608032,-1.0174253622638147,0.4648652970790863
1708440804.7954874,-1.1062229871749878,-1.681197305718893,-2.5266297499286097,2.281987114543579,-1.0174015204059046,0.4648857116699219
1708440804.7974956,-1.1062726974487305,-1.681169172326559,-2.5267375151263636,2.2820440965839843,-1.017392937337057,0.46486103534698486
1708440804.7994833,-1.1062302589416504,-1.6812221012511195,-2.5266838709460657,2.28201071798291,-1.0174015204059046,0.4648900032043457
1708440804.8015134,-1.1062066555023193,-1.681202074090475,-2.526646439229147,2.281994267100952,-1.0174177328692835,0.46488264203071594
1708440804.803526,-1.1062229871749878,-1.6812507114806117,-2.5266838709460657,2.282012386912964,-1.0174415747271937,0.4649544954299927
1708440804.805524,-1.1062393188476562,-1.6812993488707484,-2.5266626516925257,2.281975193614624,-1.0173514525042933,0.46493470668792725
1708440804.8075533,-1.1062020063400269,-1.6812416515746058,-2.5266597906695765,2.281970663661621,-1.0173724333392542,0.46484124660491943
1708440804.8095562,-1.1062437295913696,-1.6812907658019007,-2.5266552607165735,2.2820212084003906,-1.0174091498004358,0.4649260342121124
1708440804.8115458,-1.106256365776062,-1.6812659702696742,-2.5266717115985315,2.281982346171997,-1.0174134413348597,0.46490544080734253
1708440804.813531,-1.1061782836914062,-1.681263109246725,-2.5266297499286097,2.281963272685669,-1.0174134413348597,0.4649216830730438
1708440804.8154964,-1.1062229871749878,-1.6812087498106898,-2.5267000834094446,2.281979485149048,-1.0174015204059046,0.46490976214408875
1708440804.8174992,-1.1062066555023193,-1.6812745533385218,-2.5266717115985315,2.281963272685669,-1.0173853079425257,0.46490105986595154
1708440804.8195531,-1.1062198877334595,-1.6812049351134242,-2.5266552607165735,2.2820092874714355,-1.0174177328692835,0.46495890617370605
1708440804.821555,-1.106215476989746,-1.681263109246725,-2.5266342798816126,2.281982346171997,-1.0174220244037073,0.4649457633495331
1708440804.8235626,-1.1061738729476929,-1.6812459431090296,-2.5267003218280237,2.281987114543579,-1.0173853079425257,0.46490544080734253
1708440804.8255513,-1.1061782836914062,-1.681291242639059,-2.526679340993063,2.2819556432911376,-1.0173853079425257,0.4649217128753662
1708440804.8275504,-1.1062273979187012,-1.681296011010641,-2.5266507307635706,2.281921549434326,-1.0174620787249964,0.4649379551410675
1708440804.829519,-1.1061242818832397,-1.681286951104635,-2.5266552607165735,2.2819015222736816,-1.017392937337057,0.4649457335472107
1708440804.8315039,-1.1062051057815552,-1.681254049340719,-2.5266881624804896,2.281975193614624,-1.0174015204059046,0.46497073769569397
1708440804.833557,-1.106215476989746,-1.681223531762594,-2.5266671816455286,2.2819103437611084,-1.0173853079425257,0.4649544954299927
1708440804.8355813,-1.106215476989746,-1.6812497578062953,-2.5266671816455286,2.2819973665424804,-1.0173810164081019,0.4649620056152344
1708440804.8375008,-1.1062123775482178,-1.6812325916686,-2.5266760031329554,2.2819437223621826,-1.0173895994769495,0.4649587869644165
1708440804.83948,-1.1061797142028809,-1.681270261804098,-2.5266507307635706,2.2819809156605224,-1.0174015204059046,0.4649457633495331
1708440804.8414721,-1.1061753034591675,-1.6812416515746058,-2.5266805330859583,2.2820018964954834,-1.017376724873678,0.46501535177230835
1708440804.8434832,-1.1061872243881226,-1.6812135181822718,-2.5266552607165735,2.281918449992798,-1.017343823109762,0.46498700976371765
1708440804.8454816,-1.1061463356018066,-1.68127503017568,-2.5266266504870813,2.2819809156605224,-1.0174015204059046,0.46496516466140747
1708440804.8475091,-1.1061463356018066,-1.6812406979002894,-2.5266717115985315,2.2819148737141113,-1.0173404852496546,0.46503016352653503
1708440804.8494744,-1.1062004566192627,-1.6812645397581996,-2.5266926924334925,2.2819148737141113,-1.017360035573141,0.4649987816810608
1708440804.8514671,-1.1061841249465942,-1.6812993488707484,-2.5266385714160364,2.2819482523151855,-1.017388645802633,0.4650183320045471
1708440804.853558,-1.1061753034591675,-1.681286951104635,-2.5266552607165735,2.2819618421741943,-1.0173810164081019,0.46496516466140747
1708440804.8554814,-1.1061375141143799,-1.6812859974303187,-2.5266059080706995,2.2819618421741943,-1.0173772017108362,0.46498143672943115
1708440804.8574998,-1.1061255931854248,-1.6812149486937464,-2.5266626516925257,2.2819363313862304,-1.0173643271075647,0.4650183320045471
1708440804.8595006,-1.1061598062515259,-1.6812778911986292,-2.5266223589526575,2.2819148737141113,-1.017404858266012,0.4650024175643921
1708440804.8615038,-1.1061887741088867,-1.6812325916686,-2.526691261922018,2.2819689947315673,-1.0173481146441858,0.4650097191333771
1708440804.8635175,-1.1061797142028809,-1.6812659702696742,-2.526646439229147,2.2819737631031494,-1.0173404852496546,0.4650154411792755
1708440804.8655176,-1.1061723232269287,-1.6812659702696742,-2.5266597906695765,2.2819318014332275,-1.017392937337057,0.4649772047996521
1708440804.8675327,-1.10615074634552,-1.6812497578062953,-2.526646439229147,2.2819453912922363,-1.0173686186419886,0.46498945355415344
1708440804.8694932,-1.106139063835144,-1.6812812290587367,-2.5266671816455286,2.281982584590576,-1.0173609892474573,0.4649851322174072
1708440804.8714998,-1.106139063835144,-1.681270261804098,-2.5266552607165735,2.281895561809204,-1.0173404852496546,0.46499377489089966
1708440804.8735173,-1.106127142906189,-1.6812526188292445,-2.5266838709460657,2.281895561809204,-1.0173895994769495,0.46500101685523987
1708440804.8755436,-1.1061598062515259,-1.6812616787352503,-2.5266223589526575,2.281874819392822,-1.0173361937152308,0.46498075127601624
1708440804.877512,-1.1061227321624756,-1.6812454662718714,-2.5266597906695765,2.281916542644165,-1.0173729101764124,0.46501290798187256
1708440804.8794825,-1.1061227321624756,-1.6812945804991664,-2.5266686121570032,2.281902952785156,-1.0173566977130335,0.46499234437942505
1708440804.8814914,-1.1061687469482422,-1.6812483272948207,-2.5266132990466517,2.281886501903198,-1.0173810164081019,0.46503350138664246
1708440804.8834813,-1.106140375137329,-1.6812526188292445,-2.5266059080706995,2.281907482738159,-1.0173199812518519,0.46501731872558594
1708440804.8854716,-1.106140375137329,-1.6813060245909632,-2.5266385714160364,2.2818702894398193,-1.0173810164081019,0.46503353118896484
1708440804.8874981,-1.1061856746673584,-1.68133606533193,-2.5266552607165735,2.281879110927246,-1.0173772017108362,0.4650532901287079
1708440804.8894997,-1.1060690879821777,-1.681254049340719,-2.5266385714160364,2.281920834178589,-1.0173566977130335,0.4650117754936218
1708440804.8915105,-1.1061642169952393,-1.6812731228270472,-2.5266597906695765,2.281923933620117,-1.0173404852496546,0.4650413691997528
1708440804.893476,-1.1061686277389526,-1.6813403568663539,-2.5266385714160364,2.281879349345825,-1.0173566977130335,0.46504026651382446
1708440804.8954694,-1.1061196327209473,-1.6813107929625453,-2.526651922856466,2.281888170833252,-1.01738149324526,0.46509885787963867
1708440804.8974686,-1.1061108112335205,-1.6812526188292445,-2.5266972223864954,2.2819573122211914,-1.0174058119403284,0.46512719988822937
1708440804.8994606,-1.1061478853225708,-1.6812859974303187,-2.5266597906695765,2.2819077211567382,-1.0173643271075647,0.46509361267089844
1708440804.9015226,-1.1060781478881836,-1.6812659702696742,-2.5266597906695765,2.281937285060547,-1.0173524061786097,0.4650943875312805
1708440804.9035256,-1.1061315536499023,-1.6812731228270472,-2.5266223589526575,2.281900091762207,-1.0173566977130335,0.4651391804218292
1708440804.9055247,-1.1061315536499023,-1.6812688312926234,-2.5266552607165735,2.281912012691162,-1.0173729101764124,0.4650980234146118
1708440804.9074717,-1.1061315536499023,-1.6813084087767542,-2.5266760031329554,2.281921072597168,-1.0173524061786097,0.46513479948043823
1708440804.9094706,-1.1060988903045654,-1.6813107929625453,-2.5266462008105677,2.281892700786255,-1.0173080603228968,0.4651055335998535
1708440804.91155,-1.1061434745788574,-1.6812950573363246,-2.5266476313220423,2.28190462171521,-1.0173285643206995,0.4651217758655548
1708440804.913553,-1.1061359643936157,-1.6812435589232386,-2.5266297499286097,2.281900091762207,-1.0173328558551233,0.4651217758655548
1708440804.9155126,-1.1061359643936157,-1.6812859974303187,-2.5266342798816126,2.281920834178589,-1.0173981825457972,0.465154230594635
1708440804.917505,-1.1061240434646606,-1.6812526188292445,-2.5266059080706995,2.28190462171521,-1.0173566977130335,0.4651012122631073
1708440804.9194953,-1.1061478853225708,-1.6813179455199183,-2.5266597906695765,2.281829996699951,-1.0173166433917444,0.46513697504997253
1708440804.921501,-1.1061522960662842,-1.6812902889647425,-2.5266431013690394,2.28186742841687,-1.0173447767840784,0.46515321731567383
1708440804.9234757,-1.1061196327209473,-1.6812817058958949,-2.5266385714160364,2.281912012691162,-1.017353359852926,0.46520334482192993
1708440804.9255068,-1.1061478853225708,-1.6812974415221156,-2.5267046133624476,2.28186742841687,-1.0173242727862757,0.46511203050613403
1708440804.9275303,-1.1060618162155151,-1.6812645397581996,-2.526602808629171,2.2819253641315917,-1.0173285643206995,0.46517378091812134
1708440804.9294994,-1.1061152219772339,-1.6813389263548792,-2.5266311804400843,2.28190462171521,-1.017353359852926,0.4651903212070465
1708440804.9314897,-1.106082558631897,-1.6812778911986292,-2.5266597906695765,2.281834526652954,-1.0173652807818812,0.46513697504997253
1708440804.9334643,-1.106140375137329,-1.6813017330565394,-2.5266147295581263,2.281876249904297,-1.0173285643206995,0.46520984172821045
1708440804.935473,-1.1061077117919922,-1.6813270054259242,-2.5266311804400843,2.2818807798572998,-1.0173080603228968,0.4651521146297455
1708440804.9374712,-1.1060869693756104,-1.6813060245909632,-2.526656452809469,2.281883640880249,-1.0173080603228968,0.46516433358192444
1708440804.9394622,-1.1061240434646606,-1.6812688312926234,-2.5266311804400843,2.2818688589283447,-1.0173209349261683,0.46521422266960144
1708440804.9414759,-1.1061819791793823,-1.6812974415221156,-2.5266266504870813,2.2818898397633056,-1.0173123518573206,0.46520230174064636
1708440804.9434667,-1.106140375137329,-1.681315084496969,-2.5266717115985315,2.2819179731556396,-1.0173447767840784,0.46520113945007324
1708440804.945566,-1.106156826019287,-1.6812950573363246,-2.526602808629171,2.281871719951294,-1.0172928015338343,0.46518492698669434
1708440804.9474733,-1.1061108112335205,-1.6812688312926234,-2.5266552607165735,2.2818807798572998,-1.0173910299884241,0.4652130603790283
1708440804.949466,-1.1061315536499023,-1.6812569103636683,-2.5266266504870813,2.281862898463867,-1.01735765138735,0.4652043282985687
1708440804.951486,-1.1061077117919922,-1.681315084496969,-2.5266223589526575,2.2818807798572998,-1.017341438923971,0.46517300605773926
1708440804.9534588,-1.1061315536499023,-1.6812645397581996,-2.5265820662127894,2.281871719951294,-1.0173538366900843,0.4652251899242401
1708440804.955481,-1.106116533279419,-1.6812483272948207,-2.526619259511129,2.2818688589283447,-1.0173090139972132,0.4652339518070221
1708440804.9574566,-1.106082558631897,-1.6812902889647425,-2.5266311804400843,2.281883640880249,-1.0173004309283655,0.46520864963531494
1708440804.9594772,-1.1061774492263794,-1.6812778911986292,-2.5266476313220423,2.281839056605957,-1.0173209349261683,0.4652208983898163
1708440804.9615552,-1.1061240434646606,-1.6813136539854945,-2.5266147295581263,2.281843348140381,-1.0173371473895472,0.46520864963531494
1708440804.963503,-1.1061315536499023,-1.6813346348204554,-2.5265894571887415,2.281888170833252,-1.017313305531637,0.4652043581008911
1708440804.9655392,-1.1061447858810425,-1.6812778911986292,-2.526635710393087,2.2818688589283447,-1.017301384602682,0.46519139409065247
1708440804.9674852,-1.1061196327209473,-1.6812569103636683,-2.526628080998556,2.281871719951294,-1.0172675291644495,0.46524882316589355
1708440804.9694798,-1.1061359643936157,-1.6812993488707484,-2.526635710393087,2.2818969923206787,-1.017297093068258,0.4652154743671417
1708440804.9714763,-1.1060869693756104,-1.6812812290587367,-2.5265985170947474,2.281883640880249,-1.0172718206988733,0.4652780592441559
1708440804.9735086,-1.1061359643936157,-1.6812950573363246,-2.5265653769122522,2.281892700786255,-1.0173209349261683,0.46524009108543396
1708440804.9755251,-1.1061002016067505,-1.6812859974303187,-2.5266104380237024,2.2818733888813476,-1.0172713438617151,0.46526074409484863
1708440804.9774895,-1.1061359643936157,-1.6812902889647425,-2.5266476313220423,2.2819089132496337,-1.017325226460592,0.465260773897171
1708440804.9794798,-1.1061567068099976,-1.6813060245909632,-2.526590887700216,2.281883640880249,-1.0173423925982874,0.4652773439884186
1708440804.9814732,-1.106128454208374,-1.6812731228270472,-2.526578728352682,2.281871719951294,-1.0172761122332972,0.46523573994636536
1708440804.9834692,-1.106140375137329,-1.6812812290587367,-2.5265820662127894,2.281871719951294,-1.017280403767721,0.4652848243713379
1708440804.9854777,-1.1061328649520874,-1.6813107929625453,-2.526632610951559,2.28186742841687,-1.017264191304342,0.4652242064476013
1708440804.9874914,-1.1061359643936157,-1.6812569103636683,-2.526623789464132,2.281859799022339,-1.017329517995016,0.4652477502822876
1708440804.9894657,-1.1061033010482788,-1.681315084496969,-2.526607338582174,2.281900091762207,-1.017301384602682,0.46530887484550476
1708440804.991457,-1.1060869693756104,-1.6813179455199183,-2.526619259511129,2.281859799022339,-1.01725942293276,0.4653339087963104
1708440804.9934673,-1.106094479560852,-1.6813060245909632,-2.5266431013690394,2.281876249904297,-1.017280403767721,0.4652923345565796
1708440804.9954786,-1.1061359643936157,-1.6812392673888148,-2.5266147295581263,2.281892700786255,-1.0172761122332972,0.46531763672828674
1708440804.9974713,-1.1061227321624756,-1.6813270054259242,-2.526635710393087,2.281892700786255,-1.0173261801349085,0.4653295576572418
1708440804.999463,-1.106095790863037,-1.6812616787352503,-2.526578728352682,2.281871719951294,-1.0173056761371058,0.4653121829032898
1708440805.0014887,-1.106082558631897,-1.681315084496969,-2.526611868535177,2.281892700786255,-1.0173056761371058,0.4653053879737854
1708440805.0035102,-1.1061240434646606,-1.6812688312926234,-2.526607338582174,2.281858368510864,-1.0173175970660608,0.46532517671585083
1708440805.0055287,-1.1061315536499023,-1.681282182733053,-2.5265939871417444,2.281850977534912,-1.017268482838766,0.4653858244419098
1708440805.0075076,-1.106161117553711,-1.6812645397581996,-2.526604477559225,2.281843348140381,-1.0172598997699183,0.4653501510620117
1708440805.0095124,-1.1060736179351807,-1.681315084496969,-2.526590887700216,2.281888170833252,-1.0172727743731897,0.46530354022979736
1708440805.0115335,-1.1061447858810425,-1.6813227138915003,-2.526637140904562,2.281883640880249,-1.0173099676715296,0.4653533101081848
1708440805.0135045,-1.106082558631897,-1.6812688312926234,-2.5265865961657923,2.2818264204212646,-1.0172932783709925,0.4652794599533081
1708440805.015463,-1.1061002016067505,-1.6812688312926234,-2.526602808629171,2.2818264204212646,-1.0172317663775843,0.4653121531009674
1708440805.017506,-1.1061328649520874,-1.6812526188292445,-2.526590887700216,2.281871719951294,-1.0172975699054163,0.46526750922203064
1708440805.0195355,-1.1060869693756104,-1.6812526188292445,-2.526604477559225,2.28190462171521,-1.0172284285174769,0.4653370678424835
1708440805.0215194,-1.1061240434646606,-1.681282182733053,-2.5265501181231897,2.2818807798572998,-1.0172446409808558,0.4653295576572418
1708440805.0235338,-1.1061196327209473,-1.681223531762594,-2.526578728352682,2.2819296556660156,-1.0172889868365687,0.4653327763080597
1708440805.0254805,-1.1061522960662842,-1.6812688312926234,-2.526545588170187,2.2819134432026367,-1.0172284285174769,0.46537384390830994
1708440805.027483,-1.1061642169952393,-1.6813107929625453,-2.526562039052145,2.2818643289753417,-1.0172651449786585,0.4653446674346924
1708440805.029528,-1.1061478853225708,-1.6812731228270472,-2.526557509099142,2.281871719951294,-1.0172370115863245,0.46530458331108093
1708440805.0315194,-1.106173038482666,-1.681272645989889,-2.526637140904562,2.281855269069336,-1.0172575155841272,0.4653446674346924
1708440805.0335317,-1.1061447858810425,-1.6813017330565394,-2.526599947606222,2.281909151668213,-1.0172575155841272,0.46531975269317627
1708440805.0354886,-1.1061315536499023,-1.6812659702696742,-2.526595417653219,2.281888170833252,-1.0172446409808558,0.4653695821762085
1708440805.0374894,-1.1060988903045654,-1.6813017330565394,-2.526620928441183,2.2818807798572998,-1.0172532240497034,0.4653122127056122
1708440805.039463,-1.106095790863037,-1.6813179455199183,-2.526574198399679,2.281879349345825,-1.01727801958193,0.46533602476119995
1708440805.0414672,-1.1061359643936157,-1.6813179455199183,-2.526595417653219,2.2818643289753417,-1.0172532240497034,0.4653565585613251
1708440805.0434582,-1.106177568435669,-1.6812731228270472,-2.5265710989581507,2.281876249904297,-1.0172413031207483,0.46534463763237
1708440805.0454614,-1.1061686277389526,-1.6812993488707484,-2.526583258305685,2.2818850713917236,-1.0172489325152796,0.46531981229782104
1708440805.0474606,-1.1061478853225708,-1.6812645397581996,-2.5265756289111536,2.2818807798572998,-1.0172455946551722,0.46534469723701477
1708440805.0494761,-1.106140375137329,-1.6812902889647425,-2.5266132990466517,2.281892700786255,-1.0172575155841272,0.4653208553791046
1708440805.0514498,-1.1061359643936157,-1.681315084496969,-2.5265799204455774,2.2818969923206787,-1.0172207991229456,0.46530792117118835
1708440805.0535161,-1.1061108112335205,-1.6813270054259242,-2.5265546480761927,2.281902952785156,-1.0172284285174769,0.4653814435005188
1708440805.0554748,-1.1061522960662842,-1.681282182733053,-2.5265546480761927,2.2819089132496337,-1.0172455946551722,0.46536850929260254
1708440805.0575066,-1.1061434745788574,-1.6812616787352503,-2.5265546480761927,2.28190462171521,-1.0172575155841272,0.4653652310371399
1708440805.0594857,-1.1061522960662842,-1.6812435589232386,-2.526562039052145,2.2819134432026367,-1.0172207991229456,0.4653771221637726
1708440805.0614944,-1.1061598062515259,-1.6813270054259242,-2.5265756289111536,2.281916542644165,-1.0172045866595667,0.46535226702690125
1708440805.0635095,-1.1061686277389526,-1.6813017330565394,-2.5265591780291956,2.28186742841687,-1.0172737280475062,0.46539339423179626
1708440805.065509,-1.1061434745788574,-1.6813107929625453,-2.5265143553363245,2.281859799022339,-1.0172293821917933,0.4653609097003937
1708440805.0675275,-1.1061196327209473,-1.6812812290587367,-2.5265725294696253,2.2818264204212646,-1.017221752797262,0.46536850929260254
1708440805.069521,-1.1061478853225708,-1.6813017330565394,-2.5264933745013636,2.281855507487915,-1.017184082661764,0.46533605456352234
1708440805.0714762,-1.1061598062515259,-1.6812950573363246,-2.5265145937549036,2.28186742841687,-1.0171883741961878,0.4654175639152527
1708440805.0735161,-1.1061315536499023,-1.6813060245909632,-2.5265710989581507,2.281876249904297,-1.0172002951251429,0.4653609097003937
1708440805.0755568,-1.1061064004898071,-1.681272645989889,-2.5265145937549036,2.2819344240375976,-1.0172088781939905,0.4653392434120178
1708440805.0775247,-1.1061033010482788,-1.6813346348204554,-2.5265679995166224,2.281883640880249,-1.0172575155841272,0.4653598666191101
1708440805.0794733,-1.1061315536499023,-1.6813107929625453,-2.5265710989581507,2.2819253641315917,-1.017167870198385,0.4653598666191101
1708440805.0814648,-1.1061642169952393,-1.6813298664488734,-2.5265756289111536,2.2818807798572998,-1.0171878973590296,0.46538475155830383
1708440805.0834959,-1.1061315536499023,-1.6812602482237757,-2.5265353361712855,2.281937285060547,-1.0171926657306116,0.4654337763786316
1708440805.085487,-1.1061553955078125,-1.6813060245909632,-2.5265756289111536,2.2819298940845947,-1.0171926657306116,0.4653966724872589
1708440805.0875125,-1.1061522960662842,-1.6813107929625453,-2.5265308062182825,2.281855507487915,-1.0172012487994593,0.46542513370513916
1708440805.0894883,-1.106181263923645,-1.6812526188292445,-2.5265100638019007,2.2819298940845947,-1.0171926657306116,0.4654337763786316
1708440805.0914829,-1.106139063835144,-1.6812569103636683,-2.5265143553363245,2.28186742841687,-1.0172141234027308,0.46536850929260254
1708440805.0934799,-1.1061152219772339,-1.6812778911986292,-2.5265472571002405,2.281843348140381,-1.017205540333883,0.4654139280319214
1708440805.0954676,-1.1061359643936157,-1.6812616787352503,-2.5265145937549036,2.2819179731556396,-1.0172012487994593,0.4654009938240051
1708440805.097518,-1.1061768531799316,-1.681286951104635,-2.5265055338488978,2.2818524080463867,-1.017249886189596,0.4653554856777191
1708440805.099462,-1.1061553955078125,-1.6813179455199183,-2.5264890829669397,2.281909151668213,-1.0171683470355433,0.4653598666191101
1708440805.10149,-1.1061315536499023,-1.6813270054259242,-2.5264859835254114,2.28190462171521,-1.0172207991229456,0.4653511643409729
1708440805.103507,-1.1061598062515259,-1.681315084496969,-2.5265725294696253,2.2819253641315917,-1.0172174612628382,0.4653793275356293
1708440805.1055186,-1.1061463356018066,-1.6812778911986292,-2.5265145937549036,2.281871719951294,-1.0171893278705042,0.4653966724872589
1708440805.1074874,-1.1061553955078125,-1.6812812290587367,-2.526548687611715,2.28190462171521,-1.017160717641012,0.4653761088848114
1708440805.109472,-1.1062020063400269,-1.6812616787352503,-2.5264905134784144,2.2818686205097656,-1.0172174612628382,0.4653717279434204
1708440805.1115346,-1.106127142906189,-1.6813270054259242,-2.5265591780291956,2.281892700786255,-1.0171850363360804,0.4653436541557312
1708440805.1135383,-1.1061092615127563,-1.6812645397581996,-2.5265679995166224,2.281900091762207,-1.017205540333883,0.4653717279434204
1708440805.1155,-1.1061315536499023,-1.6812645397581996,-2.5265560785876673,2.281909151668213,-1.017221752797262,0.4653761088848114
1708440805.1175215,-1.1061227321624756,-1.6812974415221156,-2.5265279451953333,2.281859799022339,-1.0171850363360804,0.46540960669517517
1708440805.1195376,-1.1061768531799316,-1.6813060245909632,-2.5265234152423304,2.281850977534912,-1.017233673726217,0.4653642177581787
1708440805.121534,-1.1061797142028809,-1.6812406979002894,-2.526511255894796,2.281920834178589,-1.0171683470355433,0.4653804302215576
1708440805.123504,-1.106191635131836,-1.6812778911986292,-2.5265770594226282,2.281888170833252,-1.0171521345721644,0.4653761088848114
1708440805.125522,-1.1061434745788574,-1.6812993488707484,-2.5265427271472376,2.281892700786255,-1.017193619404928,0.46540018916130066
1708440805.1274943,-1.1061344146728516,-1.6812902889647425,-2.5265234152423304,2.281916542644165,-1.0171979109393519,0.46534794569015503
1708440805.129554,-1.1061211824417114,-1.6813222370543421,-2.5265472571002405,2.281900091762207,-1.0171683470355433,0.4654009938240051
1708440805.1315658,-1.1061841249465942,-1.6813341579832972,-2.5265398661242884,2.2819089132496337,-1.017176930104391,0.4653923213481903
1708440805.133487,-1.1061434745788574,-1.6812645397581996,-2.526515785847799,2.281932755107544,-1.017237965260641,0.4653804302215576
1708440805.1355097,-1.1061677932739258,-1.6813060245909632,-2.5265308062182825,2.281850977534912,-1.017160717641012,0.4653392434120178
1708440805.137539,-1.1061797142028809,-1.6812321148314417,-2.5265846888171595,2.2819461065479736,-1.017144505177633,0.4653598666191101
1708440805.1394722,-1.106176733970642,-1.681343217889303,-2.5265308062182825,2.281888170833252,-1.0171282927142542,0.4653836488723755
1708440805.1414816,-1.1061931848526,-1.681326528588766,-2.526598040257589,2.281855269069336,-1.017193619404928,0.4653554856777191
1708440805.1434913,-1.1061344146728516,-1.6813179455199183,-2.5265770594226282,2.281966133708618,-1.0172012487994593,0.46537500619888306
1708440805.1454835,-1.1061707735061646,-1.6812616787352503,-2.5265100638019007,2.281892700786255,-1.0172141234027308,0.4653923511505127
1708440805.147479,-1.1061664819717407,-1.6813227138915003,-2.5265472571002405,2.2819134432026367,-1.017209831868307,0.4653554856777191
1708440805.1494694,-1.1061931848526,-1.6812688312926234,-2.5265591780291956,2.2818264204212646,-1.0171979109393519,0.4653642177581787
1708440805.1514707,-1.106158971786499,-1.6812902889647425,-2.5265308062182825,2.281920834178589,-1.017148796712057,0.4653804302215576
1708440805.1534686,-1.1061633825302124,-1.6812688312926234,-2.5265398661242884,2.281883640880249,-1.017176930104391,0.46535226702690125
1708440805.1554937,-1.10615074634552,-1.6813227138915003,-2.5265398661242884,2.281883640880249,-1.0171893278705042,0.4653792679309845
1708440805.1574733,-1.1061797142028809,-1.681286951104635,-2.5265353361712855,2.281888170833252,-1.0171564261065882,0.46532735228538513
1708440805.1594753,-1.1061841249465942,-1.6813107929625453,-2.5265398661242884,2.281932755107544,-1.0171979109393519,0.4654009938240051
1708440805.1615129,-1.1061960458755493,-1.6812993488707484,-2.5265234152423304,2.281958742732666,-1.0171979109393519,0.46531543135643005
1708440805.163536,-1.1061872243881226,-1.6813179455199183,-2.526511255894796,2.2818912702747802,-1.0172064940081995,0.4654132127761841
1708440805.1655478,-1.1061991453170776,-1.6812974415221156,-2.5265234152423304,2.28190462171521,-1.0172103087054651,0.465334951877594
1708440805.1675332,-1.1061663627624512,-1.6812950573363246,-2.526544157658712,2.2819089132496337,-1.0171693007098597,0.465371698141098
1708440805.169485,-1.106215476989746,-1.6813060245909632,-2.526544157658712,2.281921072597168,-1.0172022024737757,0.4653966724872589
1708440805.1715236,-1.1062198877334595,-1.6812778911986292,-2.526532236729757,2.281879349345825,-1.017160717641012,0.4654175639152527
1708440805.1734798,-1.1062407493591309,-1.6813227138915003,-2.5265279451953333,2.281858368510864,-1.0171693007098597,0.4653923213481903
1708440805.1755672,-1.1061620712280273,-1.6812950573363246,-2.526494805012838,2.281907482738159,-1.0171564261065882,0.4653673470020294
1708440805.1775663,-1.106215476989746,-1.6813341579832972,-2.5265188852893274,2.281879349345825,-1.0171650091754358,0.4653598666191101
1708440805.1794987,-1.1062695980072021,-1.6813603840269984,-2.5265353361712855,2.281874819392822,-1.0171402136432093,0.46533915400505066
1708440805.181466,-1.1062607765197754,-1.6813270054259242,-2.5265234152423304,2.281841917628906,-1.01715594926943,0.46535542607307434
1708440805.1834767,-1.1061991453170776,-1.6813341579832972,-2.5265398661242884,2.2819253641315917,-1.0171359221087855,0.46544143557548523
1708440805.1854777,-1.106154441833496,-1.6812859974303187,-2.5265563170062464,2.281919403667114,-1.0171693007098597,0.4653879404067993
1708440805.187515,-1.1062332391738892,-1.6812688312926234,-2.5265067259417933,2.2819318014332275,-1.017148796712057,0.46538910269737244
1708440805.1895006,-1.1062570810317993,-1.6813179455199183,-2.5265308062182825,2.281879349345825,-1.0171735922442835,0.46533599495887756
1708440805.1915233,-1.1061619520187378,-1.6812778911986292,-2.5265398661242884,2.281999035472534,-1.017144505177633,0.4653673470020294
1708440805.1934679,-1.1062318086624146,-1.6812688312926234,-2.526532236729757,2.2819134432026367,-1.017193619404928,0.4653923809528351
1708440805.195504,-1.1062110662460327,-1.6812688312926234,-2.526548687611715,2.281912012691162,-1.0171521345721644,0.4653598666191101
1708440805.1974795,-1.1061753034591675,-1.681343217889303,-2.5265770594226282,2.281949921245239,-1.017193619404928,0.4653511643409729
1708440805.1994703,-1.106236219406128,-1.6812902889647425,-2.5265637079821985,2.281912012691162,-1.0171530882464808,0.465334951877594
1708440805.2015004,-1.1062198877334595,-1.681284090081686,-2.5265188852893274,2.281912012691162,-1.017160717641012,0.4653879702091217
1708440805.2035046,-1.106203556060791,-1.6812974415221156,-2.5265725294696253,2.281949921245239,-1.017172638569967,0.46531859040260315
1708440805.2054935,-1.1061991453170776,-1.6812616787352503,-2.5265472571002405,2.2818819719501953,-1.0171859900103968,0.4653923511505127
1708440805.2075086,-1.1062695980072021,-1.6812993488707484,-2.5265770594226282,2.281900091762207,-1.017132584248678,0.4653761088848114
1708440805.2095113,-1.106170892715454,-1.6812483272948207,-2.526548687611715,2.281928225154541,-1.0171979109393519,0.46536850929260254
1708440805.2115207,-1.1061947345733643,-1.6813389263548792,-2.5265234152423304,2.2819077211567382,-1.0171530882464808,0.4654174745082855
1708440805.2135494,-1.1062437295913696,-1.6813346348204554,-2.5265024344073694,2.2819453912922363,-1.0171850363360804,0.46540528535842896
1708440805.2154913,-1.1062066555023193,-1.6813298664488734,-2.526511255894796,2.2818776804157714,-1.0171650091754358,0.46535542607307434
1708440805.2174866,-1.1061872243881226,-1.6812859974303187,-2.5265188852893274,2.281916542644165,-1.0172022024737757,0.46535226702690125
1708440805.219492,-1.106236219406128,-1.6812859974303187,-2.52656060854067,2.281862898463867,-1.017144505177633,0.4653967022895813
1708440805.221511,-1.1062110662460327,-1.6812645397581996,-2.5265637079821985,2.2819618421741943,-1.0171650091754358,0.46530675888061523
1708440805.2235024,-1.1062288284301758,-1.6813060245909632,-2.5265682379352015,2.281966372127197,-1.0171945730792444,0.46533602476119995
1708440805.2254992,-1.1062183380126953,-1.6812688312926234,-2.5265145937549036,2.2819148737141113,-1.017209831868307,0.4654009938240051
1708440805.2274795,-1.1062273979187012,-1.6812731228270472,-2.5265517870532435,2.281994505519531,-1.0171693007098597,0.46537715196609497
1708440805.2295206,-1.106170892715454,-1.6812778911986292,-2.5265398661242884,2.2819318014332275,-1.0171650091754358,0.4653641879558563
1708440805.231479,-1.1061947345733643,-1.6812616787352503,-2.5265591780291956,2.2819453912922363,-1.017115894948141,0.46540960669517517
1708440805.233481,-1.1062242984771729,-1.6813017330565394,-2.5265324751483362,2.281891031856201,-1.0171650091754358,0.46536850929260254
1708440805.2354832,-1.106236219406128,-1.6813017330565394,-2.5265188852893274,2.281919403667114,-1.0171693007098597,0.46538907289505005
1708440805.2375386,-1.106203556060791,-1.6812688312926234,-2.5265308062182825,2.2819148737141113,-1.017176930104391,0.4653111696243286
1708440805.239475,-1.1062695980072021,-1.6812616787352503,-2.5265353361712855,2.2819527822681884,-1.0171530882464808,0.46533602476119995
1708440805.241464,-1.106215476989746,-1.6812731228270472,-2.5265219847308558,2.2819618421741943,-1.017160717641012,0.4653815031051636
1708440805.24348,-1.1062273979187012,-1.6812659702696742,-2.526544157658712,2.2819618421741943,-1.017144505177633,0.46534034609794617
1708440805.245477,-1.1062406301498413,-1.6812778911986292,-2.5265145937549036,2.2819482523151855,-1.017139736806051,0.4653760492801666
1708440805.2474635,-1.1061828136444092,-1.681315084496969,-2.52651554742922,2.281874819392822,-1.017144028340475,0.46531549096107483
1708440805.2494717,-1.1062613725662231,-1.6812688312926234,-2.5264905134784144,2.281923933620117,-1.0171564261065882,0.4652949273586273
1708440805.2514563,-1.1062318086624146,-1.681223531762594,-2.5265560785876673,2.281916542644165,-1.017148796712057,0.46534034609794617
1708440805.2534676,-1.1062525510787964,-1.68127503017568,-2.5265725294696253,2.281891031856201,-1.017144028340475,0.4653565585613251
1708440805.2554939,-1.1062273979187012,-1.6812483272948207,-2.5264814535724085,2.2819103437611084,-1.017144505177633,0.4652959704399109
1708440805.2575,-1.1062525510787964,-1.6813179455199183,-2.5265308062182825,2.281919403667114,-1.0171855131732386,0.46533602476119995
1708440805.25947,-1.1062066555023193,-1.681352277795309,-2.5265265146838587,2.28190462171521,-1.0171120802508753,0.46534469723701477
1708440805.2614782,-1.1062242984771729,-1.6812449894347132,-2.5265145937549036,2.2819229799458007,-1.0171235243426722,0.4653489887714386
1708440805.2635376,-1.106248140335083,-1.6811987362303675,-2.5265517870532435,2.2819902139851074,-1.017144028340475,0.46536850929260254
1708440805.2654836,-1.1062525510787964,-1.681282182733053,-2.5265384356128138,2.281923933620117,-1.0171650091754358,0.46538907289505005
1708440805.267492,-1.1061828136444092,-1.6813298664488734,-2.5265398661242884,2.281902952785156,-1.0171812216388147,0.4653532803058624
1708440805.2694793,-1.1062242984771729,-1.6812778911986292,-2.5265396277057093,2.28190462171521,-1.0171650091754358,0.4653327465057373
1708440805.2714982,-1.1062242984771729,-1.6812993488707484,-2.5265756289111536,2.2819410997578125,-1.017144028340475,0.4653327465057373
1708440805.2734845,-1.1062273979187012,-1.6812812290587367,-2.5265308062182825,2.2819318014332275,-1.017160717641012,0.4653576612472534
1708440805.2754815,-1.1062651872634888,-1.6812406979002894,-2.5264814535724085,2.281907482738159,-1.0171573797809046,0.4653327465057373
1708440805.277506,-1.106191635131836,-1.6812974415221156,-2.5265472571002405,2.2819647031971435,-1.017148796712057,0.46532079577445984
1708440805.2795107,-1.1062273979187012,-1.6812902889647425,-2.5265308062182825,2.281912012691162,-1.017148796712057,0.46524691581726074
1708440805.281498,-1.1061828136444092,-1.6812325916686,-2.5265560785876673,2.281920834178589,-1.0171650091754358,0.4653165340423584
1708440805.2835114,-1.1061619520187378,-1.6813060245909632,-2.5265637079821985,2.2819318014332275,-1.0171812216388147,0.4653739035129547
1708440805.2854767,-1.1062406301498413,-1.6813270054259242,-2.5265308062182825,2.2819527822681884,-1.017160717641012,0.46530890464782715
1708440805.2875352,-1.106249451637268,-1.681315084496969,-2.5265546480761927,2.2819618421741943,-1.0171893278705042,0.4652805030345917
1708440805.2894764,-1.106236219406128,-1.6812645397581996,-2.5265560785876673,2.2818984228321533,-1.0171354452716272,0.46528804302215576
1708440805.2914674,-1.1062066555023193,-1.6813136539854945,-2.5265353361712855,2.281916542644165,-1.017193619404928,0.4652685821056366
1708440805.293499,-1.1061739921569824,-1.6812526188292445,-2.5265353361712855,2.2819689947315673,-1.0171893278705042,0.46521127223968506
1708440805.2954879,-1.1062346696853638,-1.6812817058958949,-2.5265770594226282,2.2819453912922363,-1.0171635786639612,0.4652848243713379
1708440805.2974768,-1.1061664819717407,-1.6812769375243128,-2.5265679995166224,2.2819453912922363,-1.017160717641012,0.465292364358902
1708440805.2994773,-1.1062079668045044,-1.6812812290587367,-2.5265546480761927,2.2819902139851074,-1.0172188917743128,0.46528586745262146
1708440805.3014872,-1.1062242984771729,-1.6812859974303187,-2.5265265146838587,2.2819363313862304,-1.0171650091754358,0.4652242064476013
1708440805.303515,-1.1061872243881226,-1.6813017330565394,-2.5265591780291956,2.281923933620117,-1.017172638569967,0.4652773141860962
1708440805.3054898,-1.1061991453170776,-1.6812812290587367,-2.5265546480761927,2.2819148737141113,-1.0171850363360804,0.4653063714504242
1708440805.3074706,-1.1062437295913696,-1.6812645397581996,-2.5265799204455774,2.281966372127197,-1.01719838777651,0.46524012088775635
1708440805.3094835,-1.1062613725662231,-1.6812778911986292,-2.5265546480761927,2.281907482738159,-1.0171893278705042,0.4652978181838989
1708440805.3115182,-1.106215476989746,-1.681324144402975,-2.5265560785876673,2.281902952785156,-1.017172638569967,0.4652371406555176
1708440805.3135128,-1.1061784029006958,-1.681331296960348,-2.5265262762652796,2.2819453912922363,-1.017226521168844,0.46524885296821594
1708440805.315501,-1.1062244176864624,-1.6812483272948207,-2.5265679995166224,2.2819737631031494,-1.017193619404928,0.4652425944805145
1708440805.3175051,-1.106157660484314,-1.6812688312926234,-2.5265799204455774,2.281902952785156,-1.017176930104391,0.46517959237098694
1708440805.3194947,-1.1062079668045044,-1.6812659702696742,-2.5265427271472376,2.2819573122211914,-1.017242733632223,0.4652371108531952
1708440805.321481,-1.1062273979187012,-1.6813179455199183,-2.5265591780291956,2.2819618421741943,-1.017221752797262,0.46524590253829956
1708440805.3235037,-1.106252670288086,-1.6813060245909632,-2.5265265146838587,2.281883640880249,-1.0171850363360804,0.4652208983898163
1708440805.3255427,-1.106248140335083,-1.6813136539854945,-2.5265472571002405,2.2819148737141113,-1.017214600239889,0.46519240736961365
1708440805.3275516,-1.1062570810317993,-1.6812778911986292,-2.5265682379352015,2.281907482738159,-1.0172012487994593,0.4652296304702759
1708440805.3295238,-1.1062273979187012,-1.6813179455199183,-2.5265219847308558,2.2818984228321533,-1.017172638569967,0.46519243717193604
1708440805.331482,-1.106203556060791,-1.6813107929625453,-2.5265398661242884,2.2818941312977294,-1.0172012487994593,0.4652545154094696
1708440805.3334908,-1.106203556060791,-1.6812817058958949,-2.5265262762652796,2.281895561809204,-1.0172503630267542,0.4652382731437683
1708440805.335484,-1.1061960458755493,-1.681315084496969,-2.5266178289996546,2.2819408613392334,-1.0171592871295374,0.4651881158351898
1708440805.3375692,-1.106170892715454,-1.6813136539854945,-2.5265710989581507,2.2819453912922363,-1.017205540333883,0.46523046493530273
1708440805.339485,-1.106191635131836,-1.6813389263548792,-2.5265710989581507,2.2819482523151855,-1.0171850363360804,0.46519795060157776
1708440805.341495,-1.1062407493591309,-1.6812974415221156,-2.526604477559225,2.2818984228321533,-1.0171926657306116,0.4652632176876068
1708440805.3434777,-1.1061784029006958,-1.6813017330565394,-2.5265353361712855,2.2819363313862304,-1.0172293821917933,0.46520113945007324
1708440805.3454812,-1.1062451601028442,-1.6812364063658656,-2.5266132990466517,2.28192846357312,-1.0172131697284144,0.46518924832344055
1708440805.3474743,-1.1061663627624512,-1.681331296960348,-2.5265710989581507,2.281923933620117,-1.017242733632223,0.4651891887187958
1708440805.349483,-1.1061419248580933,-1.6813060245909632,-2.5265384356128138,2.2819453912922363,-1.0172341505633753,0.46518054604530334
1708440805.3514853,-1.1062079668045044,-1.6812974415221156,-2.5265546480761927,2.2819408613392334,-1.0172088781939905,0.46519044041633606
1708440805.35348,-1.1062287092208862,-1.681331296960348,-2.5266252199756067,2.2818850713917236,-1.0172131697284144,0.46516862511634827
1708440805.3554764,-1.1062123775482178,-1.6813403568663539,-2.5265710989581507,2.281937285060547,-1.0172413031207483,0.46516862511634827
1708440805.3574886,-1.106203556060791,-1.6813222370543421,-2.526545826588766,2.281923933620117,-1.0172088781939905,0.46516942977905273
1708440805.359473,-1.1062437295913696,-1.6813222370543421,-2.5265501181231897,2.2818984228321533,-1.0172131697284144,0.46520543098449707
1708440805.3615239,-1.1061828136444092,-1.6812645397581996,-2.5266056696521204,2.281912012691162,-1.0172327200519007,0.46517297625541687
1708440805.36356,-1.1061753034591675,-1.681343217889303,-2.5265384356128138,2.281954212779663,-1.0171926657306116,0.4651564061641693
1708440805.3654842,-1.106203556060791,-1.6812483272948207,-2.5265665690051478,2.2818912702747802,-1.0172413031207483,0.46521416306495667
1708440805.3674989,-1.1061872243881226,-1.6813017330565394,-2.5265756289111536,2.281919403667114,-1.0172088781939905,0.46514448523521423
1708440805.3694906,-1.1061828136444092,-1.6812817058958949,-2.526587788258688,2.281886501903198,-1.0172131697284144,0.4651326537132263
1708440805.3715074,-1.1062079668045044,-1.6813017330565394,-2.526533905659811,2.2819103437611084,-1.0171998182879847,0.46518492698669434
1708440805.3735132,-1.1062123775482178,-1.6812526188292445,-2.5265384356128138,2.281923933620117,-1.0172250906573694,0.46518489718437195
1708440805.3755069,-1.1061724424362183,-1.681343217889303,-2.526574198399679,2.2819363313862304,-1.017191235219137,0.46515214443206787
1708440805.3775287,-1.1062167882919312,-1.6813107929625453,-2.526574198399679,2.2818702894398193,-1.0172699133502405,0.46520110964775085
1708440805.3795004,-1.1062095165252686,-1.6812273464598597,-2.526587788258688,2.28192846357312,-1.0172398726092737,0.4651891887187958
1708440805.381529,-1.1062004566192627,-1.6813470325865687,-2.5265665690051478,2.281920834178589,-1.0172579924212855,0.46520546078681946
1708440805.383529,-1.1061255931854248,-1.6813208065428675,-2.526619259511129,2.2818912702747802,-1.0172517935382288,0.4651935398578644
1708440805.3854961,-1.1061960458755493,-1.6813107929625453,-2.526620690022604,2.281920834178589,-1.0172727743731897,0.4651607275009155
1708440805.3875341,-1.1061633825302124,-1.6812645397581996,-2.52661639848818,2.28192846357312,-1.0172770659076136,0.4651564061641693
1708440805.3894877,-1.1061419248580933,-1.6812569103636683,-2.526574198399679,2.281895561809204,-1.017313305531637,0.4651935398578644
1708440805.3915014,-1.10615074634552,-1.6813179455199183,-2.526583258305685,2.281912012691162,-1.01725942293276,0.46518921852111816
1708440805.3934798,-1.1061960458755493,-1.681331296960348,-2.5265710989581507,2.28190462171521,-1.017334286366598,0.465144544839859
1708440805.395514,-1.1061633825302124,-1.6812817058958949,-2.526604477559225,2.281907482738159,-1.017334286366598,0.4651607275009155
1708440805.3974967,-1.1061255931854248,-1.6812950573363246,-2.526607338582174,2.281895800227783,-1.017346207295553,0.4651564359664917
1708440805.3995168,-1.1061315536499023,-1.681282182733053,-2.526611868535177,2.281916542644165,-1.0173371473895472,0.4651651382446289
1708440805.401515,-1.1061300039291382,-1.6812950573363246,-2.526599947606222,2.28190462171521,-1.0173700491534632,0.4651564061641693
1708440805.4035416,-1.1061136722564697,-1.6812950573363246,-2.526595417653219,2.2819298940845947,-1.0173700491534632,0.46514779329299927
1708440805.4055398,-1.1061092615127563,-1.6812688312926234,-2.526587788258688,2.2819408613392334,-1.0173490683185022,0.46518489718437195
1708440805.407476,-1.106176733970642,-1.6813136539854945,-2.526602808629171,2.2819735246845703,-1.0173447767840784,0.4651520550251007
1708440805.4095242,-1.106176733970642,-1.6812645397581996,-2.526590887700216,2.281871958369873,-1.0173075834857386,0.4651433229446411
1708440805.4115262,-1.1061419248580933,-1.6813060245909632,-2.526590887700216,2.2818896013447265,-1.0173075834857386,0.46520867943763733
1708440805.41349,-1.106139063835144,-1.6813389263548792,-2.526620690022604,2.281883879298828,-1.0173538366900843,0.4652339518070221
1708440805.4155126,-1.1061841249465942,-1.6813556156554164,-2.526623789464132,2.281874819392822,-1.0173237959491175,0.4652588665485382
1708440805.4175007,-1.1060899496078491,-1.6812511883177699,-2.526651922856466,2.281888170833252,-1.0173776785479944,0.4652414619922638
1708440805.4195285,-1.106139063835144,-1.6812778911986292,-2.526628080998556,2.281895561809204,-1.0173819700824183,0.4652252197265625
1708440805.4215086,-1.106139063835144,-1.6813136539854945,-2.526623789464132,2.281900091762207,-1.0173490683185022,0.46521979570388794
1708440805.4234881,-1.1061522960662842,-1.6812778911986292,-2.526623789464132,2.281879349345825,-1.0173643271075647,0.46526074409484863
1708440805.425553,-1.1061598062515259,-1.6813060245909632,-2.5266101996051233,2.28186742841687,-1.0173481146441858,0.4653089642524719
1708440805.4274879,-1.106118083000183,-1.6812688312926234,-2.5266266504870813,2.281862898463867,-1.0173357168780726,0.4652848243713379
1708440805.429503,-1.1061108112335205,-1.6813017330565394,-2.526640001927511,2.281900091762207,-1.0173853079425257,0.4653458297252655
1708440805.431522,-1.1061017513275146,-1.6813799343504847,-2.5266385714160364,2.281912012691162,-1.0173566977130335,0.4653771221637726
1708440805.4335222,-1.1061478853225708,-1.6813222370543421,-2.5266147295581263,2.281912012691162,-1.0173853079425257,0.46533167362213135
1708440805.4356146,-1.1061598062515259,-1.6813093624510707,-2.5266762415515345,2.2818493086048584,-1.0173314253436487,0.4653923213481903
1708440805.4375453,-1.1061478853225708,-1.6812812290587367,-2.5266717115985315,2.281920834178589,-1.0173686186419886,0.4654500186443329
1708440805.4394836,-1.106139063835144,-1.6812645397581996,-2.5266221205340784,2.281932755107544,-1.0173552672015589,0.4654077887535095
1708440805.4414604,-1.1061152219772339,-1.6812817058958949,-2.526641909276144,2.281886501903198,-1.017371956502096,0.4654890298843384
1708440805.443481,-1.1061434745788574,-1.6812950573363246,-2.5266597906695765,2.28187005102124,-1.0173972288714808,0.46553704142570496
1708440805.445476,-1.1061522960662842,-1.6812902889647425,-2.526679340993063,2.281862898463867,-1.0174182097064417,0.46556544303894043
1708440805.4474795,-1.1061567068099976,-1.6812974415221156,-2.5267375151263636,2.281912012691162,-1.01733905473818,0.46555566787719727
1708440805.4494781,-1.1061108112335205,-1.6812945804991664,-2.52667481104006,2.281883640880249,-1.017376724873678,0.4656130373477936
1708440805.4514892,-1.1061196327209473,-1.6813093624510707,-2.52667481104006,2.281954212779663,-1.0173676649676722,0.4657013714313507
1708440805.453485,-1.106095790863037,-1.6812769375243128,-2.52666145959963,2.281871719951294,-1.0173552672015589,0.46567532420158386
1708440805.4555004,-1.1061359643936157,-1.6812931499876917,-2.526682202016012,2.281862898463867,-1.017432991658346,0.4657359719276428
1708440805.4574752,-1.1061064004898071,-1.681347986260885,-2.526679340993063,2.281888170833252,-1.0173729101764124,0.4657590091228485
1708440805.4594944,-1.1061240434646606,-1.6813298664488734,-2.5267284552203577,2.28186742841687,-1.0174005667315882,0.46586835384368896
1708440805.4614806,-1.1060750484466553,-1.6812859974303187,-2.5267000834094446,2.2818524080463867,-1.0173853079425257,0.4659242033958435
1708440805.4634726,-1.1061491966247559,-1.6813060245909632,-2.526679340993063,2.281888170833252,-1.017437760029928,0.46592310070991516
1708440805.4655142,-1.1061493158340454,-1.6813136539854945,-2.5266688505755823,2.28186742841687,-1.017371956502096,0.4659794569015503
1708440805.4675283,-1.1060749292373657,-1.6812859974303187,-2.526710573826925,2.281892700786255,-1.0174091498004358,0.4660067856311798
1708440805.4695513,-1.1060749292373657,-1.6813270054259242,-2.526707712803976,2.2818807798572998,-1.017449204121725,0.4660991132259369
1708440805.4714675,-1.1061002016067505,-1.6813179455199183,-2.5267227331744593,2.281859799022339,-1.0173915068255823,0.46620771288871765
1708440805.473516,-1.106070637702942,-1.6812859974303187,-2.52667481104006,2.2819298940845947,-1.017465893422262,0.4662719666957855
1708440805.4754748,-1.1061002016067505,-1.6812817058958949,-2.5267062822925013,2.281862898463867,-1.0174363295184534,0.46625351905822754
1708440805.4774973,-1.1061002016067505,-1.6813093624510707,-2.526695791875021,2.281937285060547,-1.0174854437457483,0.4662761986255646
1708440805.479588,-1.106116533279419,-1.6812817058958949,-2.5266569296466272,2.2818643289753417,-1.017444912587301,0.4664381444454193
1708440805.481478,-1.1060705184936523,-1.6812974415221156,-2.526719633732931,2.281871719951294,-1.0174201170550745,0.4664493501186371
1708440805.4834633,-1.1060504913330078,-1.681282182733053,-2.526727263127462,2.281895561809204,-1.0174897352801722,0.4665296673774719
1708440805.4854507,-1.1061209440231323,-1.6813060245909632,-2.526731793080465,2.28186742841687,-1.0174687544452112,0.46665483713150024
1708440805.4875193,-1.106071949005127,-1.6812769375243128,-2.5266733805285853,2.281883640880249,-1.0174391905414026,0.46670567989349365
1708440805.489472,-1.1060460805892944,-1.6813136539854945,-2.526724163685934,2.2818354803272705,-1.0174644629107874,0.4667450487613678
1708440805.4914622,-1.1060882806777954,-1.6812645397581996,-2.526736084614889,2.2819179731556396,-1.0174978415118616,0.4668525457382202
1708440805.4934912,-1.1060460805892944,-1.6813298664488734,-2.526727263127462,2.281855507487915,-1.017484490071432,0.4669199287891388
1708440805.4954693,-1.1060972213745117,-1.6813136539854945,-2.526694361363546,2.281859799022339,-1.0174511114703577,0.46702855825424194
1708440805.4974859,-1.1060386896133423,-1.6813093624510707,-2.526724163685934,2.281888170833252,-1.0174763838397425,0.46714386343955994
1708440805.4995062,-1.1060794591903687,-1.681234975854391,-2.5267062822925013,2.281888170833252,-1.0174630323993128,0.46723660826683044
1708440805.5014513,-1.1060810089111328,-1.6813227138915003,-2.526752535496847,2.281784935588501,-1.0175045172320765,0.46731922030448914
1708440805.5034764,-1.106040120124817,-1.6812974415221156,-2.52674371400942,2.2818688589283447,-1.017524544392721,0.46742767095565796
1708440805.505514,-1.1060222387313843,-1.6813513241209925,-2.5267346541034144,2.2818569379993896,-1.0174992720233362,0.4675233066082001
1708440805.5074987,-1.1060773134231567,-1.6812859974303187,-2.5267062822925013,2.2818688589283447,-1.017557446156637,0.4676102101802826
1708440805.509475,-1.106052041053772,-1.681272645989889,-2.5267677942859095,2.2818688589283447,-1.017590347920553,0.4677029550075531
1708440805.5114548,-1.1060595512390137,-1.6812974415221156,-2.5267677942859095,2.2818488317677,-1.0175769964801233,0.4677867293357849
1708440805.5134668,-1.1059778928756714,-1.6813255749144496,-2.5267720858203333,2.2818850713917236,-1.0175860563861292,0.46785616874694824
1708440805.515544,-1.1060326099395752,-1.6812778911986292,-2.5268004576312464,2.2818235593983154,-1.0175512472735804,0.46799319982528687
1708440805.5175216,-1.106040120124817,-1.681345125237936,-2.5267425219165247,2.2818280893513183,-1.0175841490374964,0.4681248068809509
1708440805.5195086,-1.1060326099395752,-1.6813794575133265,-2.5267887751208704,2.2818235593983154,-1.017604176198141,0.4681876301765442
1708440805.5214882,-1.1060162782669067,-1.6813298664488734,-2.5267468134509485,2.281853361720703,-1.0176203886615198,0.46829551458358765
1708440805.5234745,-1.1059999465942383,-1.6813341579832972,-2.5267871061908167,2.2817997175404052,-1.0176532904254358,0.4684596061706543
1708440805.525478,-1.105997085571289,-1.6813427410521449,-2.5267632643329065,2.2818354803272705,-1.0176814238177698,0.4685671329498291
1708440805.527493,-1.1060384511947632,-1.6813823185362757,-2.5267797152148646,2.2818614679523925,-1.017672363911764,0.4686987102031708
1708440805.5295055,-1.1060090065002441,-1.6813208065428675,-2.5267751852618616,2.2818025785633544,-1.017656151448385,0.4688108563423157
1708440805.5314858,-1.105995535850525,-1.6813513241209925,-2.526806894932882,2.281841440791748,-1.017684284840719,0.4689543545246124
1708440805.5334811,-1.1059926748275757,-1.6813751659789027,-2.526844088231222,2.2818614679523925,-1.0177009741412562,0.4691018760204315
1708440805.5354707,-1.1059473752975464,-1.6813165150084437,-2.52682334581484,2.2818235593983154,-1.0177252928363245,0.4692346155643463
1708440805.5374944,-1.1059266328811646,-1.6813045940794886,-2.52686053911318,2.281829519862793,-1.0177000204669397,0.46934452652931213
1708440805.539494,-1.10598886013031,-1.6813403568663539,-2.5268517176257532,2.2817908960529785,-1.0177653471576136,0.46945199370384216
1708440805.541473,-1.1059473752975464,-1.6813794575133265,-2.5268471876727503,2.281808777446411,-1.01772386232485,0.46968504786491394
1708440805.5434706,-1.1058857440948486,-1.6813484630980433,-2.526879851018087,2.281759663219116,-1.0177596251117151,0.4698120057582855
1708440805.5454745,-1.1059561967849731,-1.6813584766783656,-2.5269413630114954,2.28178779661145,-1.017754856740133,0.46991944313049316
1708440805.5474641,-1.1058813333511353,-1.6813661060728968,-2.5268576780902308,2.2817298608967285,-1.0178092161761683,0.47007840871810913
1708440805.5495048,-1.1059354543685913,-1.6813394031920375,-2.5268786589251917,2.2817231851765136,-1.0178001562701624,0.47024261951446533
1708440805.5514874,-1.1059155464172363,-1.6813775501646937,-2.5268951098071497,2.2817441660114746,-1.0178492704974573,0.4704055190086365
1708440805.5534663,-1.105879306793213,-1.6813990078368128,-2.526919190083639,2.2818056780048828,-1.0178864637957972,0.4705328047275543
1708440805.5555007,-1.1058746576309204,-1.6813527546324671,-2.52690297762026,2.28176395475354,-1.0178402105914515,0.47069692611694336
1708440805.5575073,-1.1058746576309204,-1.6813403568663539,-2.5269177595721644,2.28180114805188,-1.017905060444967,0.47085243463516235
1708440805.5594754,-1.105846643447876,-1.6814137897887171,-2.5269625822650355,2.2817441660114746,-1.0178702513324183,0.47100794315338135
1708440805.5615122,-1.1058963537216187,-1.6813575230040492,-2.5269418398486536,2.2817744451710205,-1.0179689566241663,0.4711635112762451
1708440805.563487,-1.1058881282806396,-1.681364198724264,-2.5270031134234827,2.2817351061054687,-1.0180347601519983,0.47127872705459595
1708440805.5655134,-1.1058762073516846,-1.681394716302389,-2.5269792715655726,2.2817863660999755,-1.018012825642721,0.47142258286476135
1708440805.5674856,-1.105846643447876,-1.6814466915526332,-2.5269957224475306,2.2817701536365966,-1.0180452505694788,0.47159817814826965
1708440805.5694935,-1.1058554649353027,-1.6814466915526332,-2.5270403067218226,2.2817656236835937,-1.0180648008929651,0.4718223214149475
1708440805.5714824,-1.1058228015899658,-1.6813932857909144,-2.52702242532839,2.281777544612549,-1.0180767218219202,0.47196143865585327
1708440805.573487,-1.105836033821106,-1.6814094982542933,-2.5270031134234827,2.281745596522949,-1.0180919806109827,0.47213345766067505
1708440805.5754995,-1.1057953834533691,-1.6814514599242152,-2.5270424524890345,2.2817610937305908,-1.018120590840475,0.4722270965576172
1708440805.5774958,-1.105836033821106,-1.6814214191832484,-2.527060095463888,2.2816950517841796,-1.018151585255758,0.47238656878471375
1708440805.5795162,-1.105812430381775,-1.6813913784422816,-2.527104918156759,2.2817367750355224,-1.0181263128863733,0.4725509583950043
1708440805.5815413,-1.1057997941970825,-1.6814457378783167,-2.5270825068103235,2.2817820745655517,-1.0181873480426233,0.47268152236938477
1708440805.5834904,-1.105771541595459,-1.6814242802061976,-2.5271156469928187,2.2816950517841796,-1.0181620756732386,0.47287705540657043
1708440805.5854886,-1.105726957321167,-1.6814457378783167,-2.527106587086813,2.2817908960529785,-1.0182283560382288,0.4731064736843109
1708440805.5875251,-1.1057640314102173,-1.6814481220641078,-2.5271649996386927,2.2816876608082275,-1.0182355085956019,0.4732291102409363
1708440805.5894911,-1.1057684421539307,-1.681502481500143,-2.527151648198263,2.2817322450825195,-1.0182388464557093,0.47342804074287415
1708440805.591478,-1.1057313680648804,-1.681460519830221,-2.527180020009176,2.2817322450825195,-1.0182459990130823,0.4735957682132721
1708440805.5934985,-1.1057119369506836,-1.681432386437887,-2.5271876494037073,2.2816712099262695,-1.018332306538717,0.47373390197753906
1708440805.5954778,-1.1056904792785645,-1.681514402429098,-2.5272086302386683,2.2816638189503173,-1.0183146635638636,0.473946750164032
1708440805.5975208,-1.1056251525878906,-1.681530614892477,-2.5272236506091517,2.281750126475952,-1.018329922352926,0.4741184413433075
1708440805.5994759,-1.1056668758392334,-1.6815053425230921,-2.527247492467062,2.2816757398792724,-1.018362824116842,0.47420769929885864
1708440805.6014774,-1.105663776397705,-1.6815053425230921,-2.5272637049304407,2.281689091319702,-1.0184286276446741,0.4744003415107727
1708440805.6034641,-1.105639934539795,-1.681469579736227,-2.527250353490011,2.2816547590443115,-1.0184229055987757,0.47451546788215637
1708440805.6054826,-1.105607271194458,-1.6815501652159632,-2.527316395436422,2.281592531795166,-1.0185125509845179,0.4746668338775635
1708440805.6075075,-1.105587363243103,-1.6815129719176234,-2.5273357073413294,2.2816385465809326,-1.018486801777975,0.47490817308425903
1708440805.6094732,-1.105575442314148,-1.6815220318236292,-2.5274136702166956,2.2815894323536376,-1.0185602347003382,0.4749939739704132
1708440805.611496,-1.1055798530578613,-1.6815039120116175,-2.527355496083395,2.281689091319702,-1.0185754934894007,0.47518190741539
1708440805.6135018,-1.1055516004562378,-1.6815296612181605,-2.527371946965353,2.281649275416992,-1.0185983816729944,0.4753135144710541
1708440805.6154795,-1.1055560111999512,-1.6815296612181605,-2.52735406557192,2.2816404539295654,-1.018705193196432,0.4754932224750519
1708440805.6174831,-1.1055811643600464,-1.6815625629820765,-2.5274155775653284,2.2815660673328857,-1.0187071005450647,0.47555509209632874
1708440805.6194959,-1.105532169342041,-1.681617876092428,-2.5274558703051966,2.281554861659668,-1.0187519232379358,0.47576043009757996
1708440805.6215348,-1.1055078506469727,-1.6815535030760707,-2.527438227330343,2.281534119243286,-1.0187862555133265,0.4758789837360382
1708440805.6235006,-1.1054632663726807,-1.681531091729635,-2.527466360722677,2.281589909190796,-1.01878530183901,0.47604742646217346
1708440805.6254995,-1.1054720878601074,-1.681589265862936,-2.52755314508547,2.281576319331787,-1.0188630262957972,0.4761379659175873
1708440805.6274827,-1.1054482460021973,-1.6816326580443324,-2.5275190512286585,2.2815942007252197,-1.0189231077777308,0.47629764676094055
1708440805.6294973,-1.1054574251174927,-1.6816383800902308,-2.5275443235980433,2.2815565305897216,-1.01892596880068,0.47638019919395447
1708440805.6314976,-1.1053788661956787,-1.681629320184225,-2.5276177565204065,2.2814664083668212,-1.0189645926104944,0.4765486717224121
1708440805.633519,-1.105371356010437,-1.6816374264159144,-2.5275474230395716,2.2814909654804687,-1.0189898649798792,0.4766359031200409
1708440805.635535,-1.1053757667541504,-1.6816002331175746,-2.527604405079977,2.281470938319824,-1.0190056006061,0.4768083989620209
1708440805.6374836,-1.1053348779678345,-1.6815759144225062,-2.527656857167379,2.281463547343872,-1.0191319624530237,0.476895272731781
1708440805.639471,-1.1052695512771606,-1.6816746197142542,-2.527628246937887,2.281484528178833,-1.0191143194781702,0.47701495885849
1708440805.641496,-1.1052695512771606,-1.6817194424071253,-2.5276435057269495,2.2814933496662597,-1.0191095511065882,0.47703689336776733
1708440805.6434782,-1.1052427291870117,-1.6816612682738246,-2.527682367955343,2.28145615636792,-1.0191863218890589,0.4771946370601654
1708440805.6455648,-1.1052680015563965,-1.6816569767394007,-2.527670447026388,2.2814978796192626,-1.0192015806781214,0.4772772192955017
1708440805.6474817,-1.1052407026290894,-1.6816984615721644,-2.5276616255389612,2.2814768987843017,-1.0192039648639124,0.477365106344223
