Eg3-git/Classifiers/Data Collection/u7/u7cir5_ur3e_joint_states.csv
time,elbow_joint,shoulder_lift_joint,shoulder_pan_joint,wrist_1_joint,wrist_2_joint,wrist_3_joint
1708440825.899625,-1.104664921760559,-1.6820413074889125,-2.5268664995776575,2.280393524760864,-1.0177844206439417,0.3999151587486267
1708440825.9017372,-1.1046456098556519,-1.6819964847960414,-2.5269039312945765,2.2803968626209716,-1.0177801291095179,0.39992251992225647
1708440825.903551,-1.1046199798583984,-1.682012220422262,-2.5268426577197474,2.2803398805805664,-1.0177391211139124,0.3998889625072479
1708440825.905556,-1.1046411991119385,-1.6820603809752406,-2.5268710295306605,2.280385895366333,-1.0178130308734339,0.3999180793762207
1708440825.907533,-1.104575514793396,-1.6820365391173304,-2.5268922487842005,2.280377073878906,-1.017824951802389,0.399885356426239
1708440825.9095469,-1.1045961380004883,-1.6820279560484828,-2.5268545786487024,2.280385895366333,-1.017775837575094,0.39995110034942627
1708440825.9117026,-1.104600429534912,-1.6819874248900355,-2.5268574396716517,2.280332489604614,-1.0177882353412073,0.39988088607788086
1708440825.913617,-1.1046167612075806,-1.6820575199522914,-2.526872460042135,2.2803827959248046,-1.0177672545062464,0.39985722303390503
1708440825.9156058,-1.104547381401062,-1.6820279560484828,-2.5268591086017054,2.280360622996948,-1.0177596251117151,0.39990171790122986
1708440825.917606,-1.104563593864441,-1.6820694408812464,-2.5268755594836634,2.280345841045044,-1.0177958647357386,0.39995554089546204
1708440825.9196165,-1.1045397520065308,-1.6820441685118617,-2.5268457571612757,2.280341311092041,-1.0177672545062464,0.39989274740219116
1708440825.9216614,-1.104588508605957,-1.6820484600462855,-2.5268710295306605,2.280357761973999,-1.0178001562701624,0.39991044998168945
1708440825.9235494,-1.1045397520065308,-1.6820441685118617,-2.5268710295306605,2.280385895366333,-1.0178001562701624,0.3999508023262024
1708440825.9255288,-1.1045441627502441,-1.6819988689818324,-2.5268786589251917,2.280341311092041,-1.0178692976581019,0.3999091386795044
1708440825.927557,-1.104576587677002,-1.6820484600462855,-2.5269084612475794,2.2803830343433837,-1.0178239981280726,0.3999061584472656
1708440825.9295354,-1.1045809984207153,-1.68206848720693,-2.5268381277667444,2.280332489604614,-1.0178239981280726,0.3998972773551941
1708440825.931527,-1.1045722961425781,-1.682030817071432,-2.5268877188311976,2.2803875642963867,-1.017815415059225,0.39992696046829224
1708440825.9335341,-1.1045722961425781,-1.6820279560484828,-2.526898209248678,2.280402346248291,-1.0178359190570276,0.3998897969722748
1708440825.9355297,-1.1045278310775757,-1.68206848720693,-2.5268741289721888,2.280304117793701,-1.0178239981280726,0.39993444085121155
1708440825.9375396,-1.1045560836791992,-1.6820603809752406,-2.526928249989645,2.2802914816090087,-1.0178759733783167,0.39989277720451355
1708440825.9395304,-1.104577898979187,-1.6820398769774378,-2.5268996397601526,2.280333920116089,-1.0178726355182093,0.3999061584472656
1708440825.9415808,-1.104560375213623,-1.682079931298727,-2.526907269154684,2.280348940486572,-1.017855469380514,0.39997634291648865
1708440825.9435458,-1.1045279502868652,-1.6821218929686488,-2.526886049901144,2.280341311092041,-1.0178759733783167,0.3998897969722748
1708440825.9455729,-1.1045852899551392,-1.6821099720396937,-2.5269416014300745,2.2802914816090087,-1.0178521315204065,0.39988207817077637
1708440825.9475727,-1.104561686515808,-1.6821009121336878,-2.5269163290606897,2.2803050714680175,-1.0178564230548304,0.3999105989933014
1708440825.949607,-1.1044784784317017,-1.682079931298727,-2.526890579854147,2.2803591924854736,-1.0178759733783167,0.3998972773551941
1708440825.951562,-1.1045527458190918,-1.68206848720693,-2.526952091847555,2.280341311092041,-1.0178845564471644,0.39989423751831055
1708440825.9535491,-1.1045453548431396,-1.6821056805052699,-2.526898209248678,2.2802724081226806,-1.0178921858416956,0.39995554089546204
1708440825.9555686,-1.1044871807098389,-1.6820727787413539,-2.526952091847555,2.280316038722656,-1.0178921858416956,0.3999300003051758
1708440825.9575343,-1.1045496463775635,-1.6820551357665003,-2.5269013086902063,2.280333920116089,-1.0178960005389612,0.399885356426239
1708440825.9595344,-1.1044753789901733,-1.68212952236318,-2.526931111012594,2.2803138929554443,-1.0178802649127405,0.39991363883018494
1708440825.9616055,-1.1044870615005493,-1.6820923290648402,-2.526935640965597,2.2803138929554443,-1.0179160276996058,0.39990171790122986
1708440825.9635835,-1.1045002937316895,-1.682075639764303,-2.526931111012594,2.2803384500690917,-1.017900292073385,0.3998897969722748
1708440825.9655352,-1.1045328378677368,-1.6820951900877894,-2.526922051106588,2.2802931505390625,-1.0178960005389612,0.3998972773551941
1708440825.9675267,-1.1044796705245972,-1.6821204624571742,-2.526997152959005,2.2802886205860595,-1.0178917090045374,0.39993444085121155
1708440825.9695723,-1.1045002937316895,-1.6821071110167445,-2.5269883314715784,2.2803005415150146,-1.0178921858416956,0.3999478220939636
1708440825.9715471,-1.1044796705245972,-1.6820999584593714,-2.526938501988546,2.2802840906330566,-1.017907444630758,0.3999556005001068
1708440825.9735327,-1.1044926643371582,-1.6821400127806605,-2.5269716421710413,2.2802974420734863,-1.017911736165182,0.3999061584472656
1708440825.9755425,-1.1044926643371582,-1.6821533642210902,-2.5269716421710413,2.2803138929554443,-1.0179203192340296,0.3999151289463043
1708440825.9775527,-1.1044721603393555,-1.6821118793883265,-2.5269671122180384,2.280278130168579,-1.0179403463946741,0.3999300003051758
1708440825.9795272,-1.104439616203308,-1.6821190319456996,-2.5269792715655726,2.2802528577991943,-1.017907444630758,0.3998897969722748
1708440825.9815214,-1.1044721603393555,-1.6821309528746546,-2.5269911924945276,2.280306501979492,-1.017911736165182,0.39985671639442444
1708440825.9835389,-1.104414463043213,-1.6821238003172816,-2.5269957224475306,2.280273600215576,-1.0179403463946741,0.39995113015174866
1708440825.9855235,-1.1045223474502563,-1.6821567020811976,-2.5269747416125696,2.280278130168579,-1.0179317633258265,0.3998882472515106
1708440825.987522,-1.10447359085083,-1.6821638546385707,-2.5270209948169153,2.2802738386341552,-1.0179718176471155,0.3999388813972473
1708440825.989528,-1.1044483184814453,-1.6821967564024867,-2.5270076433764856,2.2802857595631103,-1.0179675261126917,0.399885356426239
1708440825.9915376,-1.1044350862503052,-1.68214811901235,-2.5269838015185755,2.280310793513916,-1.0179913679706019,0.399885356426239
1708440825.9935217,-1.1044058799743652,-1.6821896038451136,-2.5270076433764856,2.280294581050537,-1.0179913679706019,0.39994215965270996
1708440825.99553,-1.1044645309448242,-1.6821681461729945,-2.5270403067218226,2.2802247244068603,-1.0180276075946253,0.39992251992225647
1708440825.997565,-1.1044235229492188,-1.682167192498678,-2.5270076433764856,2.280273600215576,-1.0180838743792933,0.3998897969722748
1708440825.9995978,-1.1044572591781616,-1.68217196087026,-2.526994053517477,2.2802082735249023,-1.018050495778219,0.39991363883018494
1708440826.0015676,-1.104461669921875,-1.682228227654928,-2.5269957224475306,2.2802128034779052,-1.0180795828448694,0.39996010065078735
1708440826.0035632,-1.1044278144836426,-1.6821958027281703,-2.5270076433764856,2.280245466823242,-1.0181286970721644,0.3999556005001068
1708440826.0055358,-1.1044235229492188,-1.682204385797018,-2.5270360151873987,2.280249996776245,-1.0180991331683558,0.39995551109313965
1708440826.0075345,-1.1044039726257324,-1.6821824512877406,-2.52702242532839,2.280229015941284,-1.0181439558612269,0.3999466896057129
1708440826.0095465,-1.1044126749038696,-1.682216306725973,-2.527055803929464,2.280233545894287,-1.018151585255758,0.39990171790122986
1708440826.0115962,-1.1044126749038696,-1.6821586094298304,-2.526984993611471,2.2801341253468017,-1.0181310812579554,0.3998927175998688
1708440826.013565,-1.1044082641601562,-1.6821967564024867,-2.52702242532839,2.2802468973347167,-1.0181635061847132,0.399885356426239
1708440826.0155218,-1.1043801307678223,-1.6821824512877406,-2.527088467274801,2.2801973062702636,-1.0181754271136683,0.39995551109313965
1708440826.0175247,-1.104347586631775,-1.6822453937926234,-2.5270169417010706,2.2802061277576904,-1.018212620412008,0.3999061584472656
1708440826.0195515,-1.104335069656372,-1.68227018932485,-2.5270825068103235,2.2801400858112792,-1.0181506315814417,0.3998897969722748
1708440826.0215204,-1.104323148727417,-1.6821867428221644,-2.5271363894092005,2.2801689344593505,-1.0181668440448206,0.3999181091785431
1708440826.023523,-1.104340672492981,-1.6821958027281703,-2.5270989576922815,2.2801646429249267,-1.0181997458087366,0.3998478055000305
1708440826.0255141,-1.1042832136154175,-1.682228227654928,-2.5271201769458216,2.2801944452473144,-1.0182364622699183,0.39988982677459717
1708440826.0275168,-1.1043287515640259,-1.6822363338866175,-2.5271111170398157,2.2801944452473144,-1.0182269255267542,0.39987310767173767
1708440826.0295482,-1.1042649745941162,-1.6821958027281703,-2.5271604696856897,2.2801355558582763,-1.0182517210589808,0.399861216545105
1708440826.0315285,-1.1042392253875732,-1.682265420953268,-2.527138058339254,2.280144615764282,-1.0182507673846644,0.3999314606189728
1708440826.0335333,-1.104243516921997,-1.6822239361205042,-2.527159039174215,2.280115767116211,-1.018271271382467,0.39985379576683044
1708440826.0355248,-1.104248046875,-1.6822644672789515,-2.5271454493152063,2.280115767116211,-1.0182908217059534,0.39985084533691406
1708440826.0375352,-1.1041916608810425,-1.6822601757445277,-2.5271876494037073,2.2801083761402587,-1.0183075110064905,0.39982518553733826
1708440826.0395095,-1.1041841506958008,-1.6822644672789515,-2.5271499792682093,2.2800683218189697,-1.0183518568622034,0.39988207817077637
1708440826.0415125,-1.1041841506958008,-1.6822601757445277,-2.5272162596331995,2.2800564008900146,-1.0183799902545374,0.39985817670822144
1708440826.043518,-1.1041553020477295,-1.6823212109007777,-2.5272162596331995,2.2801055151173095,-1.0183833281146448,0.3998088538646698
1708440826.0455098,-1.104127049446106,-1.682253976861471,-2.527165238057272,2.2800325590321044,-1.0183871428119105,0.39984187483787537
1708440826.0475917,-1.1041609048843384,-1.6823135815062464,-2.5272236506091517,2.280041380519531,-1.0184229055987757,0.3998385965824127
1708440826.049561,-1.104116439819336,-1.6823574505248011,-2.527247492467062,2.279991551036499,-1.018430534993307,0.3998265862464905
1708440826.0515816,-1.1041370630264282,-1.682328840295309,-2.527254883443014,2.2800184923359375,-1.018458668385641,0.3998105525970459
1708440826.0535464,-1.1040475368499756,-1.682286878625387,-2.527254883443014,2.279972477550171,-1.0185120741473597,0.3997986316680908
1708440826.0555644,-1.1040358543395996,-1.6823035679259242,-2.5272956530200403,2.2800096708485107,-1.018531624470846,0.3998105525970459
1708440826.0575397,-1.1040325164794922,-1.682340761224264,-2.5273075739489954,2.279928608531616,-1.0185392538653772,0.39972516894340515
1708440826.059559,-1.1040239334106445,-1.682368894616598,-2.5273075739489954,2.279987259502075,-1.0185349623309534,0.39977455139160156
1708440826.061578,-1.1039880514144897,-1.6824051342406214,-2.5272939840899866,2.2798959451862792,-1.0185588041888636,0.39972957968711853
1708440826.0635493,-1.1039711236953735,-1.6823512516417445,-2.5273223559008997,2.279904766673706,-1.0185988585101526,0.3997429609298706
1708440826.0655363,-1.1039636135101318,-1.6824165783324183,-2.527339045201437,2.279909296626709,-1.0186155478106897,0.39968618750572205
1708440826.0675597,-1.1039767265319824,-1.6824289760985316,-2.5273435751544397,2.2799317079731445,-1.0186556021319788,0.39974740147590637
1708440826.0695832,-1.103899359703064,-1.6823941669859828,-2.527400557194845,2.2798282343098144,-1.0186145941363733,0.39971923828125
1708440826.0715256,-1.103894829750061,-1.6824232540526332,-2.527341906224386,2.2798001009174804,-1.0186708609210413,0.39968618750572205
1708440826.0735428,-1.10390043258667,-1.6824199161925257,-2.527375046406881,2.279841824168823,-1.0187152067767542,0.3996906280517578
1708440826.0755475,-1.1038761138916016,-1.6824232540526332,-2.527375046406881,2.279825373286865,-1.018714729939596,0.3996546268463135
1708440826.0775645,-1.1038599014282227,-1.6825128994383753,-2.5273824373828333,2.279817982310913,-1.018726650868551,0.3996713161468506
1708440826.0795703,-1.103786587715149,-1.6824962101378382,-2.5273945967303675,2.279777689571045,-1.018782917653219,0.3996801972389221
1708440826.0815425,-1.1038241386413574,-1.6824962101378382,-2.5274019877063196,2.2798032003590087,-1.0187624136554163,0.39961886405944824
1708440826.0835412,-1.1037790775299072,-1.682467599908346,-2.5274232069598597,2.2797621923634033,-1.0187857786761683,0.399663507938385
1708440826.085549,-1.1037065982818604,-1.6824828586974085,-2.527430597935812,2.2796999651142578,-1.0188387076007288,0.39962783455848694
1708440826.0875444,-1.1037358045578003,-1.6824914417662562,-2.527487341557638,2.2797621923634033,-1.018862549458639,0.39960217475891113
1708440826.0895715,-1.1036994457244873,-1.6825443706908167,-2.527426067982809,2.2797011572071533,-1.0188983122455042,0.39957430958747864
1708440826.0915687,-1.1036711931228638,-1.682563921014303,-2.527463499699728,2.2796642023273925,-1.0189021269427698,0.399583101272583
1708440826.093526,-1.1036595106124878,-1.6825844250121058,-2.5274952093707483,2.279635115260742,-1.0189021269427698,0.39955005049705505
1708440826.0955503,-1.1036518812179565,-1.682563921014303,-2.527473751698629,2.2796730238148193,-1.0189173857318323,0.39958423376083374
1708440826.0976217,-1.103653073310852,-1.682592054406637,-2.5274997393237513,2.2796827989765625,-1.0189693609820765,0.39954710006713867
1708440826.0995936,-1.1036237478256226,-1.6825515232481898,-2.527482811604635,2.2796174722858886,-1.0189736525165003,0.39955902099609375
1708440826.1015947,-1.1036081314086914,-1.682608266870016,-2.5274980703936976,2.2796262937733154,-1.019010368977682,0.39952629804611206
1708440826.1035588,-1.1036124229431152,-1.6826235256590785,-2.5275893847094935,2.2796217638203125,-1.0190098921405237,0.39950963854789734
1708440826.1055624,-1.1035066843032837,-1.6825834713377894,-2.5275400320636194,2.279569073314331,-1.0190380255328577,0.3995649814605713
1708440826.1075528,-1.1035284996032715,-1.6826354465880335,-2.5275681654559534,2.279552622432373,-1.0190098921405237,0.39955905079841614
1708440826.1095676,-1.103484034538269,-1.6825610599913539,-2.5275638739215296,2.27959053098645,-1.0191028753863733,0.39951109886169434
1708440826.1116037,-1.1034914255142212,-1.6827012501158656,-2.527571503316061,2.2795585828968505,-1.0190618673907679,0.3995397090911865
1708440826.113594,-1.1034765243530273,-1.6826955280699671,-2.527562443410055,2.2795466619678955,-1.0190900007831019,0.39953190088272095
1708440826.1155558,-1.1034101247787476,-1.6827031574644984,-2.527550284062521,2.2795094686695556,-1.019085709248678,0.39952000975608826
1708440826.1175528,-1.1034440994262695,-1.6826912365355433,-2.527545754109518,2.2795066076466064,-1.0191052595721644,0.3995274603366852
1708440826.1195416,-1.1034159660339355,-1.682669302026266,-2.527591053639547,2.2794760900684814,-1.0190852324115198,0.3994660973548889
1708440826.1216,-1.1034040451049805,-1.6827479801573695,-2.5276029745685022,2.2794791895100097,-1.0191176573382776,0.399482786655426
1708440826.123536,-1.1033670902252197,-1.6826821766295375,-2.527623955403463,2.279449387187622,-1.0191176573382776,0.39953625202178955
1708440826.125556,-1.1033638715744019,-1.6827360592284144,-2.5275865236865442,2.279449387187622,-1.0191052595721644,0.39951997995376587
1708440826.127541,-1.10331130027771,-1.6827746830382289,-2.527628485356466,2.279421253795288,-1.0191662947284144,0.39951255917549133
1708440826.1295354,-1.1033201217651367,-1.682730337182516,-2.5276103655444544,2.279446526164673,-1.019088093434469,0.3994828164577484
1708440826.1315498,-1.1033244132995605,-1.6827746830382289,-2.5276029745685022,2.2794181543537597,-1.019137207661764,0.3994572162628174
1708440826.133566,-1.1032918691635132,-1.6827465496458949,-2.5276225248919886,2.2793513971516113,-1.0191782156573694,0.3994917869567871
1708440826.135571,-1.1033005714416504,-1.6827999554076136,-2.5275939146624964,2.27936498701062,-1.0191286245929163,0.39943045377731323
1708440826.137536,-1.103268027305603,-1.682730337182516,-2.5276270548449915,2.2793280321308593,-1.019137207661764,0.39947509765625
1708440826.1395307,-1.1032555103302002,-1.682812353173727,-2.527591053639547,2.27940218030896,-1.019165341054098,0.399503618478775
1708440826.1415875,-1.1032524108886719,-1.6827947101988734,-2.5276013056384485,2.279357596034668,-1.0192058722125452,0.3995169997215271
1708440826.143535,-1.1032036542892456,-1.6828195057311,-2.5276480356799524,2.279332323665283,-1.0191977659808558,0.39945125579833984
1708440826.1455448,-1.1031755208969116,-1.6827947101988734,-2.5276225248919886,2.2792839246937255,-1.0191691557513636,0.39947953820228577
1708440826.1476307,-1.1031678915023804,-1.6828319034972132,-2.5276148954974573,2.2793049055286865,-1.019193474446432,0.3994468152523041
1708440826.1495607,-1.1031765937805176,-1.6828347645201625,-2.5276511351214808,2.279318256969116,-1.0192340056048792,0.39947837591171265
1708440826.1515765,-1.1031639575958252,-1.6827813587584437,-2.5276435057269495,2.2792855936237792,-1.0192058722125452,0.39947953820228577
1708440826.1535416,-1.1031771898269653,-1.6828719578185023,-2.5276270548449915,2.2792767721363525,-1.0191648642169397,0.3994962275028229
1708440826.1555722,-1.1031652688980103,-1.6828347645201625,-2.5276389757739466,2.279306336040161,-1.0191567579852503,0.399503618478775
1708440826.157551,-1.1031403541564941,-1.6828094921507777,-2.5275655428515833,2.279261751765869,-1.0192130247699183,0.39944979548454285
1708440826.1595385,-1.103104591369629,-1.6828628979124964,-2.5276690165149134,2.279257221812866,-1.0192015806781214,0.399433434009552
1708440826.1616156,-1.103116512298584,-1.6828466854491175,-2.5276148954974573,2.279261751765869,-1.019217316304342,0.3994918167591095
1708440826.1635997,-1.1030839681625366,-1.6828557453551234,-2.5276270548449915,2.2792135912128906,-1.0191763083087366,0.3994917571544647
1708440826.1655962,-1.1031208038330078,-1.6827856502928675,-2.5275970141040247,2.2792135912128906,-1.0192416349994105,0.3994828164577484
1708440826.167562,-1.1031014919281006,-1.6828142605223597,-2.5275805632220667,2.279221459026001,-1.0191972891436976,0.3994423747062683
1708440826.1695652,-1.1030521392822266,-1.6828013859190882,-2.5275939146624964,2.2792090612598876,-1.019238297139303,0.39953190088272095
1708440826.1715617,-1.1030800342559814,-1.6828390560545863,-2.5276103655444544,2.279225988979004,-1.0192087332354944,0.39953628182411194
1708440826.1735353,-1.103093147277832,-1.6828466854491175,-2.5275774637805384,2.2791897493549804,-1.01918870607485,0.3995364010334015
1708440826.175563,-1.1030888557434082,-1.6828509769835414,-2.5276358763324183,2.2791482645222167,-1.019238297139303,0.39947056770324707
1708440826.1775265,-1.1031101942062378,-1.6828185520567835,-2.5275612513171595,2.2791809278675537,-1.0192015806781214,0.3994947373867035
1708440826.1795254,-1.1030325889587402,-1.6828094921507777,-2.5276148954974573,2.279235764140747,-1.0191777388202112,0.3994705379009247
1708440826.1815457,-1.1030237674713135,-1.6828762493529261,-2.527623955403463,2.2791659074970703,-1.0192015806781214,0.39954859018325806
1708440826.1835446,-1.1030737161636353,-1.6828185520567835,-2.5276194254504603,2.2791525560566406,-1.0191805998431605,0.3995036482810974
1708440826.1855648,-1.1030281782150269,-1.6828271351256312,-2.5276406447040003,2.2792269426533203,-1.0192258993731897,0.3995441496372223
1708440826.187541,-1.1031062602996826,-1.6828438244261683,-2.5276194254504603,2.279244824046753,-1.019189182912008,0.3995274603366852
1708440826.1895344,-1.1030726432800293,-1.6828333340086878,-2.527591053639547,2.2791363435932617,-1.0191734472857874,0.3995337188243866
1708440826.191577,-1.1030281782150269,-1.6828376255431117,-2.5275612513171595,2.2791616159626464,-1.0191848913775843,0.3995184898376465
1708440826.1935444,-1.1031062602996826,-1.6828748188414515,-2.5275939146624964,2.2791659074970703,-1.0191906134234827,0.3995426595211029
1708440826.1955538,-1.1030282974243164,-1.6828376255431117,-2.5276451746570032,2.2791525560566406,-1.019137207661764,0.39957094192504883
1708440826.1976025,-1.1031018495559692,-1.6828543148436488,-2.527579132710592,2.2791823583790283,-1.0191906134234827,0.3995842933654785
1708440826.199609,-1.1030195951461792,-1.6828304729857386,-2.5275865236865442,2.2791613775440673,-1.0191534201251429,0.3995921015739441
1708440826.2016459,-1.1030564308166504,-1.6827899418272914,-2.527574602757589,2.279153986568115,-1.0191295782672327,0.3996036648750305
1708440826.2035565,-1.1030607223510742,-1.6828347645201625,-2.527612034474508,2.2791778284260253,-1.01910907426943,0.3995964825153351
1708440826.2055771,-1.103065013885498,-1.6828185520567835,-2.527557913457052,2.279186649913452,-1.01910907426943,0.39957430958747864
1708440826.2075539,-1.1030445098876953,-1.6827990017332972,-2.527536694203512,2.279171867961548,-1.0190895239459437,0.399663507938385
1708440826.2095459,-1.103036880493164,-1.68288054088735,-2.527604405079977,2.2791852194019775,-1.0191181341754358,0.39962339401245117
1708440826.2116263,-1.103065013885498,-1.6827970943846644,-2.527637306843893,2.2791287141987304,-1.0191023985492151,0.39959773421287537
1708440826.2136097,-1.1030563116073608,-1.6828347645201625,-2.527571503316061,2.2791494566151123,-1.0190771261798304,0.399663507938385
1708440826.2155952,-1.1030488014221191,-1.6828228435912074,-2.5275548140155237,2.2791778284260253,-1.0190208593951624,0.39967575669288635
1708440826.2175276,-1.1030445098876953,-1.6828438244261683,-2.527562443410055,2.2791494566151123,-1.019017521535055,0.39967870712280273
1708440826.2195463,-1.1031018495559692,-1.6828304729857386,-2.5275474230395716,2.279116316432617,-1.0189927260028284,0.3996456563472748
1708440826.2215676,-1.1030845642089844,-1.6827360592284144,-2.5274604002581995,2.279153986568115,-1.0189974943744105,0.39968618750572205
1708440826.2235353,-1.1030476093292236,-1.6827599010863246,-2.527504269276754,2.279179497356079,-1.0189736525165003,0.39967724680900574
1708440826.2255867,-1.1030564308166504,-1.6828228435912074,-2.527449909840719,2.2791451650806884,-1.0189130941974085,0.39972662925720215
1708440826.227541,-1.103093147277832,-1.682869096795553,-2.527442518864767,2.2791332441517334,-1.0189703146563929,0.3997790217399597
1708440826.2295308,-1.1031014919281006,-1.6828466854491175,-2.52740985551943,2.2791570860096435,-1.018954102193014,0.3998076021671295
1708440826.2315187,-1.1030845642089844,-1.6827451191344203,-2.5274723211871546,2.279198570842407,-1.0188811461078089,0.3998062312602997
1708440826.2335348,-1.103129506111145,-1.6828013859190882,-2.5273945967303675,2.2791613775440673,-1.0188854376422327,0.3998132646083832
1708440826.2355692,-1.1031414270401,-1.6827990017332972,-2.5274155775653284,2.2791823583790283,-1.018874470387594,0.39984041452407837
1708440826.2375429,-1.103104591369629,-1.6827813587584437,-2.5273571650134485,2.279170437450073,-1.01884633699526,0.3998987674713135
1708440826.239522,-1.1030915975570679,-1.6827908955016078,-2.527396027241842,2.2792104917713623,-1.0187857786761683,0.39996305108070374
1708440826.24154,-1.103172779083252,-1.6827689609923304,-2.527339045201437,2.2792104917713623,-1.0187614599811,0.3999451994895935
1708440826.2435274,-1.103156566619873,-1.682749410668844,-2.5273149649249476,2.279215021724365,-1.0187137762652796,0.3999675214290619
1708440826.2455266,-1.1031970977783203,-1.6827689609923304,-2.5272701422320765,2.2792016702839355,-1.0187061468707483,0.4000064730644226
1708440826.247578,-1.1031728982925415,-1.6827780208983363,-2.5272792021380823,2.2791644769855957,-1.0186288992511194,0.400071918964386
1708440826.2495496,-1.1032209396362305,-1.6827908955016078,-2.52733284631838,2.2791852194019775,-1.0186460653888147,0.4001079201698303
1708440826.2515726,-1.1032285690307617,-1.6827761135497035,-2.5273001829730433,2.2791852194019775,-1.0186026732074183,0.40004968643188477
1708440826.2535539,-1.1032942533493042,-1.682803293267721,-2.527221981679098,2.2791852194019775,-1.018574062977926,0.40013957023620605
1708440826.2555535,-1.103264331817627,-1.6828209362425746,-2.527214590703146,2.2791761594959716,-1.0185306707965296,0.4000886380672455
1708440826.2575507,-1.1032898426055908,-1.6827999554076136,-2.5272236506091517,2.279230518932007,-1.0184906164752405,0.40011724829673767
1708440826.2595532,-1.1033048629760742,-1.6827331982054652,-2.5271862188922327,2.2792586523243408,-1.0184500853167933,0.40019944310188293
1708440826.2616305,-1.1033655405044556,-1.6827107868590296,-2.527130667363302,2.279246969813965,-1.0184229055987757,0.4001905024051666
1708440826.2635958,-1.1033813953399658,-1.6827389202513636,-2.527163569127218,2.279212637538574,-1.018402401600973,0.4002472758293152
1708440826.265549,-1.1033813953399658,-1.6827403507628382,-2.527118508015768,2.279282494182251,-1.0183337370501917,0.4002413749694824
1708440826.267544,-1.103388786315918,-1.6827227077879847,-2.527123037968771,2.279237909907959,-1.0182707945453089,0.4002740979194641
1708440826.269552,-1.1033964157104492,-1.6827150783934535,-2.5271034876452845,2.2792529302784423,-1.0182421843158167,0.40032947063446045
1708440826.2715158,-1.1034364700317383,-1.6826988659300746,-2.5270631949054163,2.279294415111206,-1.0182064215289515,0.4003429412841797
1708440826.273534,-1.1034696102142334,-1.682645937005514,-2.5270302931415003,2.2792929845997314,-1.018142048512594,0.4003952443599701
1708440826.2755327,-1.103485107421875,-1.6826392612852992,-2.527076784764425,2.2793263632008056,-1.0181592146502894,0.4003806710243225
1708440826.277532,-1.1034765243530273,-1.6826549969115199,-2.526944700871603,2.279329224223755,-1.0180862585650843,0.4004672169685364
1708440826.2795267,-1.1035046577453613,-1.6826526127257289,-2.5269702116595667,2.279406710261963,-1.018083397542135,0.4004286229610443
1708440826.2815278,-1.1036028861999512,-1.6826101742186488,-2.5269506613360804,2.279393358821533,-1.0180028120623987,0.40048518776893616
1708440826.2835302,-1.10356605052948,-1.6826120815672816,-2.5269597212420862,2.279406710261963,-1.0179784933673304,0.4004687964916229
1708440826.2855198,-1.103536605834961,-1.6826192341246546,-2.52690297762026,2.2794346052357177,-1.0179351011859339,0.4005286991596222
1708440826.2875326,-1.1036080121994019,-1.6825858555235804,-2.526923720036642,2.2794627386280517,-1.017857853566305,0.4005316197872162
1708440826.2895157,-1.1036198139190674,-1.6826282940306605,-2.5268710295306605,2.2795111375996093,-1.0178630987750452,0.4005391299724579
1708440826.2915506,-1.1036529541015625,-1.6825624905028285,-2.5268173853503626,2.2795438009449462,-1.0178197065936487,0.40062156319618225
1708440826.2935154,-1.103668212890625,-1.68253817180776,-2.5268831888781946,2.2795111375996093,-1.0177715460406702,0.40064528584480286
1708440826.2955244,-1.103729486465454,-1.6825338802733363,-2.5268026033984583,2.2795423704334716,-1.01772386232485,0.40063199400901794
1708440826.2975748,-1.1037369966506958,-1.682547231713766,-2.526773754750387,2.2795423704334716,-1.0176389853106897,0.40065914392471313
1708440826.2995965,-1.10378897190094,-1.682507177392477,-2.526761595402853,2.279615803355835,-1.0176485220538538,0.40069183707237244
1708440826.3016038,-1.1038165092468262,-1.6824780903258265,-2.5267258326159876,2.279651327724121,-1.0175555388080042,0.40071263909339905
1708440826.3035526,-1.1038241386413574,-1.6824871502318324,-2.5267632643329065,2.2796143728443603,-1.0175398031817835,0.40079331398010254
1708440826.3055289,-1.1038728952407837,-1.6824871502318324,-2.5266926924334925,2.2796663480946044,-1.0174759070025843,0.4008174240589142
1708440826.3075366,-1.1039080619812012,-1.6824351749815882,-2.5267391840564173,2.279691620463989,-1.0174482504474085,0.40084904432296753
1708440826.3095343,-1.1039611101150513,-1.6824008427061976,-2.526707712803976,2.27970735609021,-1.0174372831927698,0.4008564054965973
1708440826.3115666,-1.1039319038391113,-1.682439466516012,-2.526707712803976,2.279677315349243,-1.0173853079425257,0.400908887386322
1708440826.3135726,-1.1039518117904663,-1.6824304066100062,-2.5266717115985315,2.279742880458496,-1.017313305531637,0.4009207487106323
1708440826.3155982,-1.1040292978286743,-1.6823488674559535,-2.5266385714160364,2.279766722316406,-1.0172608534442347,0.4009192883968353
1708440826.3175712,-1.1040968894958496,-1.682382722894186,-2.5265939871417444,2.2797621923634033,-1.017196003590719,0.40095341205596924
1708440826.3196025,-1.1040676832199097,-1.6823846302428187,-2.526583258305685,2.279785080546997,-1.017160717641012,0.4009939134120941
1708440826.3215623,-1.1041771173477173,-1.682371278802389,-2.5265801588641565,2.279798670406006,-1.0171411673175257,0.4010013937950134
1708440826.3235404,-1.1041810512542725,-1.6823932133116664,-2.5265710989581507,2.279862566585205,-1.0170930067645472,0.40097618103027344
1708440826.3255448,-1.1041797399520874,-1.682364126245016,-2.5265353361712855,2.2798570829578857,-1.0170443693744105,0.4010118544101715
1708440826.3275614,-1.104236125946045,-1.6823064289488734,-2.5264933745013636,2.279897375697754,-1.017012898121969,0.40106427669525146
1708440826.3295481,-1.104248046875,-1.6823574505248011,-2.52653676668276,2.279949589366577,-1.016956631337301,0.4010434150695801
1708440826.3315299,-1.1042875051498413,-1.6823374233641566,-2.526437822972433,2.2799574571796875,-1.0169737974749964,0.4010883867740631
1708440826.3335347,-1.1043695211410522,-1.6822840176024378,-2.5264843145953577,2.2799901205250244,-1.016909424458639,0.40112438797950745
1708440826.3355203,-1.10441255569458,-1.682249208489889,-2.5264514128314417,2.2800051408955078,-1.0169256369220179,0.4011287987232208
1708440826.337552,-1.1044365167617798,-1.682213922540182,-2.5264106432544153,2.280074043864868,-1.0168569723712366,0.40111541748046875
1708440826.3395305,-1.1045013666152954,-1.6822320423521937,-2.5263569990741175,2.280102415675781,-1.0167601744281214,0.4011690020561218
1708440826.341533,-1.1045540571212769,-1.6822735271849574,-2.5263493696795862,2.2801262575336914,-1.016784969960348,0.4011869430541992
1708440826.343552,-1.1045033931732178,-1.6822062931456507,-2.526367489491598,2.280132694835327,-1.0167492071734827,0.4011467397212982
1708440826.345526,-1.1045441627502441,-1.6822363338866175,-2.5263553301440638,2.280178948039673,-1.0166972319232386,0.4012288451194763
1708440826.347605,-1.1046323776245117,-1.682178636590475,-2.5263221899615687,2.2802530962177734,-1.0166900793658655,0.4011991024017334
1708440826.3495536,-1.104681134223938,-1.6821829281248988,-2.5263238588916224,2.280286951656006,-1.0166900793658655,0.4012199938297272
1708440826.3515434,-1.104680061340332,-1.6821743450560511,-2.5262864271747034,2.280310793513916,-1.0166176001178187,0.40120363235473633
1708440826.3535538,-1.1047457456588745,-1.6822091541686,-2.5262909571277063,2.2803096014210205,-1.016618553792135,0.40119466185569763
1708440826.355557,-1.1047931909561157,-1.6822177372374476,-2.526278797780172,2.280324860210083,-1.0165413061725062,0.40124374628067017
1708440826.357538,-1.1047759056091309,-1.6821443043150843,-2.526266876851217,2.280304117793701,-1.0165098349200647,0.40128424763679504
1708440826.359545,-1.1048283576965332,-1.6821681461729945,-2.526201073323385,2.280353232020996,-1.0164654890643519,0.40126341581344604
1708440826.3615925,-1.1048879623413086,-1.682108541528219,-2.5262637774096888,2.2804104524799804,-1.0164411703692835,0.40125155448913574
1708440826.3635514,-1.1048873662948608,-1.682075639764303,-2.5262354055987757,2.2804297643848876,-1.0163686911212366,0.40128424763679504
1708440826.3655403,-1.1049649715423584,-1.6820265255370082,-2.5261858145343226,2.280465527171753,-1.0163901487933558,0.40131276845932007
1708440826.367594,-1.1050012111663818,-1.682051797906393,-2.5261901060687464,2.280477448100708,-1.0163787047015589,0.4012797474861145
1708440826.369565,-1.105008602142334,-1.6820322475829066,-2.5261662642108362,2.280583544368408,-1.016374413167135,0.40125447511672974
1708440826.371574,-1.1050605773925781,-1.6820441685118617,-2.526212517415182,2.280573292369507,-1.0163386503802698,0.4012545049190521
1708440826.3735328,-1.1050676107406616,-1.6820455990233363,-2.526142422352926,2.280627413386963,-1.0163191000567835,0.40122145414352417
1708440826.3755393,-1.105116367340088,-1.6820208034911097,-2.526179854069845,2.280581160182617,-1.0162909666644495,0.40126338601112366
1708440826.3775442,-1.1051435470581055,-1.6819306812682093,-2.526184384022848,2.2806214529224853,-1.0162785688983362,0.4012664258480072
1708440826.3795426,-1.105209231376648,-1.6820007763304652,-2.526179854069845,2.2806905943104248,-1.0162871519671839,0.4012872278690338
1708440826.3815606,-1.1052610874176025,-1.6819802723326625,-2.526113573704855,2.280709667796753,-1.0162232557879847,0.4012872874736786
1708440826.3835642,-1.1052693128585815,-1.6819936237730921,-2.526085440312521,2.280717297191284,-1.0162189642535608,0.4012170433998108
1708440826.3855653,-1.105329990386963,-1.6819349728026332,-2.5261316935168665,2.2807907301136474,-1.0162318388568323,0.40127530694007874
1708440826.3875465,-1.1052669286727905,-1.681936880151266,-2.5260987917529505,2.2808026510426025,-1.0161460081683558,0.4012916684150696
1708440826.3895185,-1.105323314666748,-1.6819235287108363,-2.5260823408709925,2.280833883876465,-1.0161383787738245,0.4012949466705322
1708440826.3915443,-1.1053638458251953,-1.6819125614561976,-2.5261078516589563,2.28084580480542,-1.0161426703082483,0.4013039469718933
1708440826.393522,-1.1053833961486816,-1.6819616756834925,-2.526100460683004,2.2808658319660644,-1.016123119984762,0.4012949466705322
1708440826.3955529,-1.1054158210754395,-1.6819168529906214,-2.5260630289660853,2.2808760839649658,-1.0161274115191858,0.4012797474861145
1708440826.3975613,-1.1054720878601074,-1.6818977795042933,-2.526100460683004,2.2809220987507324,-1.0161555449115198,0.4013039171695709
1708440826.399597,-1.1054807901382446,-1.681894441644186,-2.526046339665548,2.2809547620960693,-1.0161240736590784,0.4012816548347473
1708440826.4016452,-1.1055735349655151,-1.6818615398802699,-2.526041809712545,2.2809738355823974,-1.016111199055807,0.401341050863266
1708440826.403614,-1.105536699295044,-1.681836267510885,-2.526093069707052,2.2810184198566894,-1.016111199055807,0.4013276994228363
1708440826.4055855,-1.1055809259414673,-1.6818496189513148,-2.526017967854635,2.281033440227173,-1.0161274115191858,0.4012574851512909
1708440826.4075332,-1.1055928468704224,-1.6818248234190882,-2.526067558919088,2.281000776881836,-1.016045872365133,0.4012664258480072
1708440826.4095383,-1.105531096458435,-1.6818796596922816,-2.5260301272021692,2.281003637904785,-1.016083065663473,0.40127381682395935
1708440826.4116406,-1.1056455373764038,-1.6818253002562464,-2.526055399571554,2.281062527293823,-1.016111199055807,0.40129947662353516
1708440826.4135692,-1.105623722076416,-1.681784292260641,-2.526026789342062,2.2810727792927246,-1.016083065663473,0.40129607915878296
1708440826.4155595,-1.105635643005371,-1.6817804775633753,-2.526038948689596,2.2810892301746826,-1.0160544554339808,0.4013039171695709
1708440826.4175425,-1.105663776397705,-1.6817690334715785,-2.5260358492480677,2.281063957805298,-1.0160554091082972,0.4012618958950043
1708440826.4195328,-1.1056756973266602,-1.6817714176573695,-2.526048008595602,2.2811130720325927,-1.0160873571978968,0.40127086639404297
1708440826.4215555,-1.105691909790039,-1.6817599735655726,-2.5260148684131067,2.2810966211506347,-1.0160754362689417,0.40125006437301636
1708440826.4235787,-1.1057119369506836,-1.6817690334715785,-2.5259984175311487,2.281050367946289,-1.0160711447345179,0.40122148394584656
1708440826.4255602,-1.105744481086731,-1.6817733250060023,-2.526026789342062,2.281099482173584,-1.0160754362689417,0.4012843072414398
1708440826.427534,-1.1057164669036865,-1.6817366085448207,-2.5260148684131067,2.281078739757202,-1.0160916487323206,0.40125155448913574
1708440826.4295294,-1.1057932376861572,-1.6817542515196742,-2.526068989430563,2.281087799663208,-1.0161283651935022,0.4012393057346344
1708440826.4315596,-1.1057683229446411,-1.6817647419371546,-2.5260029474841517,2.2811359602161865,-1.0161283651935022,0.4012559950351715
1708440826.4335382,-1.1057921648025513,-1.6817237339415492,-2.5260120073901575,2.281165524119995,-1.0160797278033655,0.4012095034122467
1708440826.4355636,-1.105799674987793,-1.6817494831480921,-2.5260284582721155,2.28117744504895,-1.0161164442645472,0.40125155448913574
1708440826.437529,-1.105783462524414,-1.6817132435240687,-2.5259862581836146,2.2811359602161865,-1.0160468260394495,0.4011779725551605
1708440826.4395173,-1.1057791709899902,-1.6817165813841761,-2.5259817282306116,2.2811404901691894,-1.0160544554339808,0.4011288583278656
1708440826.4415462,-1.1057791709899902,-1.6817409000792445,-2.525993887578146,2.2811686235615234,-1.0161121527301233,0.40115559101104736
1708440826.443516,-1.1057746410369873,-1.681732793847555,-2.5259953180896204,2.2811314302631835,-1.0160711447345179,0.4011542797088623
1708440826.4455612,-1.1057953834533691,-1.681711813012594,-2.5259907881366175,2.2811314302631835,-1.016083065663473,0.4011184573173523
1708440826.447591,-1.1057422161102295,-1.681711813012594,-2.5260074774371546,2.2811478811451416,-1.0161317030536097,0.4010942876338959
1708440826.4495687,-1.105771541595459,-1.681760927239889,-2.5259743372546595,2.2811567026325683,-1.016066853200094,0.4011199474334717
1708440826.4515915,-1.1058121919631958,-1.681758543054098,-2.5260329882251185,2.281193895930908,-1.0160787741290491,0.4010884165763855
1708440826.4535656,-1.105799674987793,-1.6816956005492152,-2.526048008595602,2.2811359602161865,-1.0160992781268519,0.40109285712242126
1708440826.4555655,-1.1057908535003662,-1.6817285023131312,-2.5259531180011194,2.2811314302631835,-1.0160711447345179,0.40104788541793823
1708440826.457539,-1.1057746410369873,-1.6816884479918421,-2.5259907881366175,2.281132860774658,-1.016083065663473,0.4010404050350189
1708440826.4595363,-1.1058239936828613,-1.6817003689207972,-2.5260074774371546,2.28117744504895,-1.0160754362689417,0.4010029137134552
1708440826.4615786,-1.1058077812194824,-1.6817494831480921,-2.5260193983661097,2.2811686235615234,-1.0161317030536097,0.400962769985199
1708440826.4636,-1.105799674987793,-1.6817165813841761,-2.5260148684131067,2.2811567026325683,-1.0161035696612757,0.40094757080078125
1708440826.465584,-1.105799674987793,-1.6817003689207972,-2.5260449091540735,2.2812012869068603,-1.0161522070514124,0.4009312093257904
1708440826.467522,-1.1058040857315063,-1.6816956005492152,-2.526034657155172,2.281149311656616,-1.0160992781268519,0.40090736746788025
1708440826.4695237,-1.1057703495025635,-1.6817494831480921,-2.526017967854635,2.281153841609619,-1.016111199055807,0.4008702337741852
1708440826.4715543,-1.1057953834533691,-1.6817566357054652,-2.5260148684131067,2.2811893659779052,-1.016111199055807,0.4008505344390869
1708440826.4735217,-1.1058123111724854,-1.6818024120726527,-2.526059929524557,2.2811314302631835,-1.0161188284503382,0.4008070230484009
1708440826.4755385,-1.1058166027069092,-1.6817523441710414,-2.5260193983661097,2.2811447817036132,-1.0161717573748987,0.4007951021194458
1708440826.4775229,-1.1057466268539429,-1.681704660455221,-2.5260704199420374,2.281149311656616,-1.016135040913717,0.40077704191207886
1708440826.4795234,-1.105783462524414,-1.6817480526366175,-2.5259984175311487,2.2811612325855712,-1.016196076069967,0.40069493651390076
1708440826.4815567,-1.105787754058838,-1.6817647419371546,-2.526026789342062,2.2811447817036132,-1.016167465840475,0.4005977511405945
1708440826.4835453,-1.1058295965194702,-1.6817780933775843,-2.526043478642599,2.2810801702686767,-1.016196076069967,0.40061256289482117
1708440826.4855704,-1.10575532913208,-1.681786676446432,-2.5260029474841517,2.281120463008545,-1.0161989370929163,0.40056321024894714
1708440826.487541,-1.1057391166687012,-1.6817566357054652,-2.526043478642599,2.281115933055542,-1.01617938676943,0.40051978826522827
1708440826.4895508,-1.105772614479065,-1.6817566357054652,-2.526052538548605,2.2811967569538574,-1.0162199179278772,0.40047186613082886
1708440826.491523,-1.105743408203125,-1.6817237339415492,-2.526097361241476,2.28110854207959,-1.016198460255758,0.4004209041595459
1708440826.4935272,-1.1057400703430176,-1.6817523441710414,-2.526068989430563,2.281120463008545,-1.0161688963519495,0.40031906962394714
1708440826.4955406,-1.1057281494140625,-1.681793829003805,-2.526038948689596,2.281104012126587,-1.0162470976458948,0.4002548158168793
1708440826.4975848,-1.10566246509552,-1.6817566357054652,-2.526048008595602,2.2810444074818115,-1.016226593648092,0.4002458453178406
1708440826.4996126,-1.1057006120681763,-1.6817776165404261,-2.526022259389059,2.2810816007801513,-1.0162671248065394,0.40018153190612793
1708440826.5016444,-1.1056550741195679,-1.6817194424071253,-2.526022259389059,2.2810935217091064,-1.0162699858294886,0.4000842273235321
1708440826.5036552,-1.1056312322616577,-1.6818181476988734,-2.5260914007769983,2.281003637904785,-1.0162671248065394,0.39997974038124084
1708440826.5056086,-1.105639934539795,-1.6817189655699671,-2.5260794798480433,2.280987187022827,-1.0163148085223597,0.3999660015106201
1708440826.5075693,-1.105623722076416,-1.6817432842650355,-2.526125733052389,2.281024618739746,-1.0163105169879358,0.39987313747406006
1708440826.5095632,-1.1055948734283447,-1.6818253002562464,-2.5260630289660853,2.280975504512451,-1.0163472334491175,0.39976879954338074
1708440826.5116196,-1.1056292057037354,-1.6817928753294886,-2.5260630289660853,2.280972405070923,-1.0163582007037562,0.3997700810432434
1708440826.513741,-1.1055517196655273,-1.6817885837950648,-2.5260615984546106,2.2809814649769287,-1.0163539091693323,0.3996489644050598
1708440826.5156033,-1.1055560111999512,-1.681779523889059,-2.5260959307300013,2.280928774470947,-1.0164278189288538,0.3995411992073059
1708440826.5176225,-1.105510950088501,-1.681784292260641,-2.5260914007769983,2.2809242445179443,-1.016407314931051,0.3994438648223877
1708440826.519633,-1.105536699295044,-1.6818539104857386,-2.5261197725879114,2.280899925822876,-1.0164592901812952,0.39943936467170715
1708440826.521591,-1.1054916381835938,-1.6818257770934046,-2.5261016527758997,2.2808398443409423,-1.0164669195758265,0.3993673324584961
1708440826.523606,-1.1055089235305786,-1.6818200550475062,-2.526135031376974,2.2808760839649658,-1.0164669195758265,0.3992553949356079
1708440826.5255363,-1.1054234504699707,-1.681873460809225,-2.5261648336993616,2.2807997900196533,-1.0165074507342737,0.39915478229522705
1708440826.5275528,-1.105398178100586,-1.681906362573141,-2.5261381308185022,2.280825062389038,-1.016498867665426,0.39904123544692993
1708440826.5295706,-1.1054245233535767,-1.6818438969054164,-2.526184384022848,2.2807997900196533,-1.0165107885943812,0.3989740312099457
1708440826.531538,-1.1053833961486816,-1.6819545231261195,-2.526163403187887,2.2807609277912597,-1.0165637175189417,0.39889639616012573
1708440826.5335631,-1.1053844690322876,-1.6818634472289027,-2.526187245045797,2.2807394701191406,-1.0165303389178675,0.39881980419158936
1708440826.5355425,-1.1053025722503662,-1.6818915806212367,-2.526217047368185,2.2807320791431884,-1.0165541807757776,0.3987180292606354
1708440826.5375435,-1.1052550077438354,-1.6818872890868128,-2.526229206715719,2.280729218120239,-1.0165823141681116,0.3986644148826599
1708440826.539541,-1.1052218675613403,-1.6819335422911585,-2.5261946360217493,2.2806259828754882,-1.0165780226336878,0.39856377243995667
1708440826.5415237,-1.1052436828613281,-1.6819035015501917,-2.5262413660632532,2.280688925380371,-1.0166314283954065,0.3984801769256592
1708440826.543531,-1.1052566766738892,-1.681976934472555,-2.5262234846698206,2.2806362348743896,-1.0166271368609827,0.39835602045059204
1708440826.545528,-1.1051547527313232,-1.6819740734496058,-2.526210133229391,2.2805723386951904,-1.016646687184469,0.39829614758491516
1708440826.5476162,-1.1051678657531738,-1.681976934472555,-2.5262637774096888,2.2806095319935302,-1.0166176001178187,0.39821696281433105
1708440826.5495613,-1.1051597595214844,-1.682005067864889,-2.526287857686178,2.280547781581543,-1.01671010652651,0.39810147881507874
1708440826.5515416,-1.1051490306854248,-1.6819802723326625,-2.526275936757223,2.280573292369507,-1.0167153517352503,0.3979880213737488
1708440826.553556,-1.1050925254821777,-1.682016988793844,-2.526304546986715,2.2805091577717285,-1.0167511145221155,0.39789655804634094
1708440826.5555348,-1.1050151586532593,-1.682016988793844,-2.52635366121401,2.280463858241699,-1.0167058149920862,0.3977929353713989
1708440826.5575435,-1.1049913167953491,-1.682066103021139,-2.5263283888446253,2.280477448100708,-1.0166853109942835,0.39769285917282104
1708440826.5595345,-1.1049836874008179,-1.682012220422262,-2.5263357798205774,2.2804087835499267,-1.0167620817767542,0.39757171273231506
1708440826.5615382,-1.104963779449463,-1.6820603809752406,-2.5263028780566614,2.2803754049488525,-1.0167501608477991,0.3974895775318146
1708440826.5635772,-1.104924201965332,-1.6820398769774378,-2.5263312498675745,2.280402346248291,-1.016801659260885,0.39743098616600037
1708440826.5655625,-1.104874849319458,-1.682051797906393,-2.5263312498675745,2.280316038722656,-1.0168708006488245,0.39733096957206726
1708440826.567542,-1.1048791408538818,-1.6821133098998011,-2.5263522307025355,2.280324860210083,-1.0168417135821741,0.3972109854221344
1708440826.5695467,-1.1048272848129272,-1.6820880375304164,-2.5263147989856165,2.2803138929554443,-1.0168941656695765,0.39712435007095337
1708440826.5715244,-1.1048492193222046,-1.682141443292135,-2.5263927618609827,2.2802676397510986,-1.0169428030597132,0.3969655930995941
1708440826.5735576,-1.1047390699386597,-1.6820832691588343,-2.526388470326559,2.280221624965332,-1.0169180075274866,0.39688798785209656
1708440826.575529,-1.1047683954238892,-1.6821042499937953,-2.526362959538595,2.2801927763172607,-1.0169332663165491,0.39679497480392456
1708440826.5775554,-1.1047208309173584,-1.6821118793883265,-2.52640945116152,2.2800933557697753,-1.0169866720782679,0.3966872990131378
1708440826.5795457,-1.1046876907348633,-1.6821853123106898,-2.526391331349508,2.2801474767872314,-1.0169780890094202,0.39659616351127625
1708440826.5815432,-1.1046149730682373,-1.6821567020811976,-2.526407782231466,2.280115767116211,-1.016939942036764,0.3964913785457611
1708440826.5835516,-1.1046067476272583,-1.6821848354735316,-2.5263660589801233,2.2800726133533935,-1.0169890562640589,0.3963434100151062
1708440826.58552,-1.1046123504638672,-1.6821547947325648,-2.52637488046755,2.2800444799610595,-1.0170019308673304,0.3962967097759247
1708440826.5875466,-1.1045560836791992,-1.6822253666319789,-2.526370350514547,2.280019922847412,-1.0170744101153772,0.3961367905139923
1708440826.5895278,-1.1045278310775757,-1.682183404962057,-2.526419703160421,2.27997533857312,-1.0170539061175745,0.3960617780685425
1708440826.5915332,-1.1044840812683105,-1.6821915111937464,-2.5264318625079554,2.2799693781086425,-1.0170944372760218,0.3959287106990814
1708440826.5935273,-1.104443907737732,-1.682237287560934,-2.5263987223254603,2.2799812990375976,-1.0170944372760218,0.3958209455013275
1708440826.5955443,-1.104468822479248,-1.682265420953268,-2.526452604924337,2.2798797327229003,-1.0171225706683558,0.3957090675830841
1708440826.5975778,-1.1044321060180664,-1.6822806797423304,-2.5264483133899134,2.2799152570911865,-1.0171216169940394,0.39563846588134766
1708440826.599579,-1.1043801307678223,-1.682293554345602,-2.5264015833484095,2.279901905650757,-1.017092529927389,0.3955276608467102
1708440826.6016378,-1.1043319702148438,-1.6822687588133753,-2.5264468828784388,2.2799197870441894,-1.0171497503863733,0.39534512162208557
1708440826.6036396,-1.104323148727417,-1.6823312244811,-2.526470724736349,2.2798492151447753,-1.0171335379229944,0.39523443579673767
1708440826.60557,-1.1043243408203125,-1.6822062931456507,-2.526421372090475,2.2797464567371826,-1.0171940962420862,0.39513111114501953
1708440826.6075852,-1.1042875051498413,-1.6822716198363246,-2.5264468828784388,2.279846115703247,-1.0171650091754358,0.3950519561767578
1708440826.609551,-1.104251742362976,-1.6822377643980921,-2.5265217463122767,2.2798430162617187,-1.0171979109393519,0.3949078321456909
1708440826.6115708,-1.1041830778121948,-1.6823135815062464,-2.526458803807394,2.279780789012573,-1.017221752797262,0.39478692412376404
1708440826.6136465,-1.1041710376739502,-1.6822582683958949,-2.526487175618307,2.279742880458496,-1.0171764532672327,0.39463454484939575
1708440826.6156259,-1.1041710376739502,-1.6822625599303187,-2.526478115712301,2.2797562318989257,-1.0172293821917933,0.39455655217170715
1708440826.6175563,-1.1041927337646484,-1.6822716198363246,-2.5265324751483362,2.2797459799000244,-1.0172532240497034,0.39452776312828064
1708440826.6195276,-1.1041841506958008,-1.6823002300658167,-2.5265234152423304,2.279787464732788,-1.0172694365130823,0.3942960202693939
1708440826.6215832,-1.1041227579116821,-1.6823331318297328,-2.526478115712301,2.2797295290180664,-1.0172489325152796,0.39417675137519836
1708440826.6235552,-1.104140281677246,-1.682295938531393,-2.5265234152423304,2.279689236278198,-1.0172284285174769,0.39405959844589233
1708440826.625545,-1.104071021080017,-1.6822582683958949,-2.526499334965841,2.279714508647583,-1.0172651449786585,0.3939490020275116
1708440826.627559,-1.104140281677246,-1.682319780389303,-2.5265143553363245,2.2797249990650634,-1.0172727743731897,0.39381736516952515
1708440826.6295326,-1.104116439819336,-1.6822987995543421,-2.5265443960772913,2.279710217113159,-1.0172479788409632,0.39374715089797974
1708440826.6315498,-1.1041045188903809,-1.6823450527586878,-2.5264859835254114,2.279735489482544,-1.017264191304342,0.39357760548591614
1708440826.6335433,-1.1040894985198975,-1.682279726068014,-2.5265021959887903,2.279677315349243,-1.01735765138735,0.3934747278690338
1708440826.635572,-1.1040606498718262,-1.6823164425291957,-2.5265427271472376,2.279689236278198,-1.017313305531637,0.39334577322006226
1708440826.6375463,-1.1040637493133545,-1.6823121509947718,-2.5265381971942347,2.279655857677124,-1.0173285643206995,0.39325597882270813
1708440826.6395428,-1.1040563583374023,-1.682319780389303,-2.5265143553363245,2.279714508647583,-1.0173328558551233,0.3931451141834259
1708440826.641559,-1.1040726900100708,-1.6822511158385218,-2.5265381971942347,2.2796739774891357,-1.017369572316305,0.39299100637435913
1708440826.6435432,-1.104023814201355,-1.6822754345335902,-2.5265219847308558,2.279710217113159,-1.0173652807818812,0.392826646566391
1708440826.6455894,-1.1039958000183105,-1.682324071923727,-2.5265637079821985,2.279681845302246,-1.0173729101764124,0.39273521304130554
1708440826.6475909,-1.104020595550537,-1.682319780389303,-2.5265381971942347,2.279643936748169,-1.0173242727862757,0.39265307784080505
1708440826.6495616,-1.1040325164794922,-1.6823154888548792,-2.5265665690051478,2.2796456056782226,-1.0173361937152308,0.39253759384155273
1708440826.6515973,-1.1040726900100708,-1.682295938531393,-2.5265637079821985,2.2796739774891357,-1.0173404852496546,0.39240163564682007
1708440826.6535985,-1.1040120124816895,-1.6822873554625453,-2.526587788258688,2.279702826137207,-1.0173566977130335,0.392293781042099
1708440826.6555674,-1.1040000915527344,-1.6822425327696742,-2.526562039052145,2.279690905208252,-1.0173686186419886,0.3921365737915039
1708440826.6575382,-1.104036808013916,-1.6823374233641566,-2.526517454777853,2.27962772428479,-1.017369572316305,0.3920961320400238
1708440826.6595426,-1.1040444374084473,-1.682295938531393,-2.526562039052145,2.279719277019165,-1.017343823109762,0.3919343948364258
1708440826.6615508,-1.104048728942871,-1.6822902164854945,-2.5265501181231897,2.279660387630127,-1.0173810164081019,0.39181026816368103
1708440826.6635957,-1.1040769815444946,-1.6823002300658167,-2.526557509099142,2.2796172338673095,-1.017404858266012,0.3917204737663269
1708440826.6655462,-1.104048728942871,-1.6822425327696742,-2.5265427271472376,2.279656096095703,-1.0173643271075647,0.39157986640930176
1708440826.6675377,-1.1040282249450684,-1.6823121509947718,-2.526533905659811,2.279636784190796,-1.017343823109762,0.39146289229393005
1708440826.6695228,-1.1040118932724,-1.6822716198363246,-2.5265501181231897,2.2796620565601806,-1.0174296537982386,0.39141350984573364
1708440826.6715586,-1.1040444374084473,-1.6822625599303187,-2.526517454777853,2.279604120845459,-1.017404858266012,0.3912533223628998
1708440826.6735306,-1.1039869785308838,-1.6823002300658167,-2.526583258305685,2.2796739774891357,-1.0174406210528772,0.3911410868167877
1708440826.6755352,-1.1040693521499634,-1.682324071923727,-2.526637140904562,2.279648466701172,-1.0174287001239222,0.3909931182861328
1708440826.6775117,-1.1040650606155396,-1.6823035679259242,-2.5265591780291956,2.279648466701172,-1.017416779194967,0.390897274017334
1708440826.6795158,-1.1040163040161133,-1.6823374233641566,-2.526557509099142,2.279686375255249,-1.017416779194967,0.3907761871814728
1708440826.6815457,-1.1040563583374023,-1.6823283634581507,-2.5265665690051478,2.2796684938618164,-1.0173962751971644,0.39066949486732483
1708440826.6835322,-1.1040852069854736,-1.682279726068014,-2.526595417653219,2.279710217113159,-1.0174201170550745,0.39057818055152893
1708440826.6855357,-1.1040149927139282,-1.682291646996969,-2.5265710989581507,2.279689236278198,-1.0174253622638147,0.3904542922973633
1708440826.6875145,-1.1040725708007812,-1.6823002300658167,-2.526604477559225,2.2796730238148193,-1.0174287001239222,0.3903253972530365
1708440826.6895068,-1.1040682792663574,-1.6823493442931117,-2.5265756289111536,2.279681845302246,-1.0174201170550745,0.3902551233768463
1708440826.6915271,-1.1041057109832764,-1.6822625599303187,-2.526583258305685,2.279655857677124,-1.0174372831927698,0.39012327790260315
1708440826.6935468,-1.1040925979614258,-1.682361742059225,-2.5265710989581507,2.279681845302246,-1.0174253622638147,0.389973908662796
1708440826.6955516,-1.1040606498718262,-1.6822716198363246,-2.526604477559225,2.2797295290180664,-1.0173514525042933,0.38992446660995483
1708440826.6975105,-1.1041057109832764,-1.6822883091368617,-2.526578728352682,2.2797295290180664,-1.017388645802633,0.38975095748901367
1708440826.699565,-1.1040388345718384,-1.6823002300658167,-2.526578728352682,2.2796923357197265,-1.0174134413348597,0.38967132568359375
1708440826.7016358,-1.1041088104248047,-1.682291646996969,-2.526574198399679,2.2796880441853027,-1.0174782911883753,0.38959670066833496
1708440826.7036605,-1.1040633916854858,-1.6822673283019007,-2.5265710989581507,2.2797621923634033,-1.0174005667315882,0.38946813344955444
1708440826.7056158,-1.1041251420974731,-1.6823049984373988,-2.526599947606222,2.2798074918934326,-1.017404858266012,0.38940492272377014
1708440826.707529,-1.1041522026062012,-1.6822840176024378,-2.5265501181231897,2.279768868083618,-1.0173681418048304,0.3892763555049896
1708440826.709544,-1.104100227355957,-1.6823169193663539,-2.526578728352682,2.279806061381958,-1.017388645802633,0.38915666937828064
1708440826.7115715,-1.1041078567504883,-1.6822883091368617,-2.526583258305685,2.279817982310913,-1.0173638502704065,0.38910579681396484
1708440826.7136452,-1.1041609048843384,-1.6822930775084437,-2.5265710989581507,2.2797719675251464,-1.017404858266012,0.38902178406715393
1708440826.7156293,-1.104180932044983,-1.6822520695128382,-2.526599947606222,2.2798208433338623,-1.0173843542682093,0.3889184892177582
1708440826.7175763,-1.1042414903640747,-1.6822840176024378,-2.526637140904562,2.279862566585205,-1.0173724333392542,0.3888018727302551
1708440826.719599,-1.1042135953903198,-1.6822601757445277,-2.5265665690051478,2.2798871236988525,-1.017360035573141,0.3887104094028473
1708440826.721618,-1.104176640510559,-1.6822363338866175,-2.526620928441183,2.2798990446278076,-1.017360035573141,0.3886178135871887
1708440826.7237647,-1.1042567491531372,-1.6822015247740687,-2.5265546480761927,2.2798690038868408,-1.0173853079425257,0.3884829580783844
1708440826.7255895,-1.1042286157608032,-1.6823092899718226,-2.52661639848818,2.279925747508667,-1.0173233191119593,0.38843244314193726
1708440826.7275615,-1.1042723655700684,-1.6822272739806117,-2.526529375706808,2.279884024257324,-1.017315689717428,0.3883272707462311
1708440826.7295432,-1.1043124198913574,-1.6822520695128382,-2.526553217564718,2.28003637372937,-1.0173566977130335,0.38823142647743225
1708440826.7315304,-1.1043049097061157,-1.6822477779784144,-2.526574198399679,2.2799574571796875,-1.0173080603228968,0.3881196081638336
1708440826.7335312,-1.1043492555618286,-1.6822105846800746,-2.5265966097461146,2.2799812990375976,-1.0173242727862757,0.38802364468574524
1708440826.735525,-1.1043319702148438,-1.6822778187193812,-2.5265710989581507,2.2800304132648925,-1.0173328558551233,0.387967973947525
1708440826.7375352,-1.1043801307678223,-1.6822320423521937,-2.5265756289111536,2.280008001918457,-1.0173490683185022,0.3878769278526306
1708440826.7395234,-1.104371428489685,-1.6822477779784144,-2.526587788258688,2.280041380519531,-1.0173090139972132,0.3877272307872772
1708440826.7415388,-1.1043963432312012,-1.6822363338866175,-2.5265501181231897,2.280041380519531,-1.0172846953021448,0.3876718282699585
1708440826.7435222,-1.1043758392333984,-1.6822239361205042,-2.5265546480761927,2.280123158092163,-1.0173304716693323,0.38757625222206116
1708440826.745529,-1.1044363975524902,-1.6821867428221644,-2.5265923182116907,2.2800816732593994,-1.0172928015338343,0.38750869035720825
1708440826.7475533,-1.1044942140579224,-1.6821700535216273,-2.5265756289111536,2.2801336485096435,-1.017301384602682,0.38740718364715576
1708440826.7495813,-1.1044807434082031,-1.6821876964964808,-2.5265472571002405,2.280106707210205,-1.017252270375387,0.38734135031700134
1708440826.7515779,-1.1044645309448242,-1.682204385797018,-2.5265923182116907,2.280212326640747,-1.017252270375387,0.3872617483139038
1708440826.753578,-1.1045132875442505,-1.682221075097555,-2.5265308062182825,2.2801899152943115,-1.0172155539142054,0.38719606399536133
1708440826.7555938,-1.1045209169387817,-1.6821848354735316,-2.5265591780291956,2.2802440363117675,-1.017289940510885,0.38713446259498596
1708440826.757547,-1.1044915914535522,-1.6821681461729945,-2.5265546480761927,2.2802514272877197,-1.0172532240497034,0.3870091736316681
1708440826.759547,-1.1045929193496704,-1.6821357212462367,-2.5265756289111536,2.2802633482166748,-1.017196003590719,0.38695335388183594
1708440826.76154,-1.104589819908142,-1.6821614704527796,-2.5265682379352015,2.2802647787281494,-1.0172250906573694,0.3868740200996399
1708440826.763572,-1.104600429534912,-1.6821071110167445,-2.5265546480761927,2.2802738386341552,-1.0171521345721644,0.3868234157562256
1708440826.765555,-1.1046124696731567,-1.682108541528219,-2.5265472571002405,2.2802886205860595,-1.0171530882464808,0.3867468535900116
1708440826.7675638,-1.1045992374420166,-1.6820880375304164,-2.5265756289111536,2.2803591924854736,-1.0171812216388147,0.3867078125476837
1708440826.769557,-1.1046531200408936,-1.682070871392721,-2.5265472571002405,2.280390425319336,-1.0171735922442835,0.38660311698913574
1708440826.77155,-1.104693055152893,-1.6821218929686488,-2.5265935103045862,2.280365152949951,-1.0171454588519495,0.3865182101726532
1708440826.7735567,-1.104691982269287,-1.6820727787413539,-2.5265443960772913,2.2804311948963623,-1.0170968214618128,0.3865000605583191
1708440826.7755265,-1.1047251224517822,-1.6820398769774378,-2.5265517870532435,2.2803889948078613,-1.0170772711383265,0.38637855648994446
1708440826.7775817,-1.104691982269287,-1.682016511956686,-2.5264859835254114,2.280392571086548,-1.0170605818377894,0.38633665442466736
1708440826.7795458,-1.1047433614730835,-1.6820279560484828,-2.5265308062182825,2.280420704478882,-1.0171015898333948,0.38630056381225586
1708440826.7815652,-1.1048052310943604,-1.6820527515807093,-2.5264859835254114,2.280515118236206,-1.0170324484454554,0.38621243834495544
1708440826.7835712,-1.104800820350647,-1.6819831333556117,-2.5264976660357874,2.2805227476307373,-1.0170615355121058,0.3861362636089325
1708440826.7855232,-1.1048252582550049,-1.6820455990233363,-2.5264905134784144,2.280531569118164,-1.0169966856585901,0.38603895902633667
1708440826.7875288,-1.1048741340637207,-1.6820365391173304,-2.526524607335226,2.2805210787006835,-1.0169723669635218,0.38601672649383545
1708440826.7895257,-1.1048641204833984,-1.6820217571654261,-2.526499334965841,2.28050343572583,-1.0169976393329065,0.3860224187374115
1708440826.791517,-1.104880452156067,-1.6820455990233363,-2.526494805012838,2.280531330699585,-1.017010513936178,0.3859415054321289
1708440826.79352,-1.1048465967178345,-1.6820007763304652,-2.52651292482485,2.280606670970581,-1.0169571081744593,0.38587725162506104
1708440826.7955174,-1.104874849319458,-1.681997915307516,-2.52649170557131,2.2805723386951904,-1.016961399708883,0.3857933580875397
1708440826.7975276,-1.1049524545669556,-1.6819964847960414,-2.526458803807394,2.2806095319935302,-1.016982380543844,0.38570868968963623
1708440826.79963,-1.104996919631958,-1.6819921932616175,-2.52649170557131,2.2806081014820556,-1.0169299284564417,0.385661780834198
1708440826.8015735,-1.105008602142334,-1.6819936237730921,-2.5264468828784388,2.280686779613159,-1.0168727079974573,0.3856138586997986
1708440826.8036253,-1.104992389678955,-1.6819712124266566,-2.5263972918139856,2.280709667796753,-1.016909424458639,0.38557782769203186
1708440826.8055687,-1.1050151586532593,-1.6820126972594203,-2.5264151732074183,2.2807082372852783,-1.0168688933001917,0.38549280166625977
1708440826.807557,-1.1050639152526855,-1.681939264337057,-2.5264437834369105,2.280721588725708,-1.0168450514422815,0.38545408844947815
1708440826.8095326,-1.1051207780838013,-1.6820055447020472,-2.526386801396505,2.280761881465576,-1.0169265905963343,0.3854881525039673
1708440826.8115478,-1.105128288269043,-1.6819726429381312,-2.526391331349508,2.2807654577442626,-1.0168493429767054,0.3853744864463806
1708440826.8136437,-1.1051684617996216,-1.681976934472555,-2.526419703160421,2.2807773786732177,-1.0168331305133265,0.3853517472743988
1708440826.8156028,-1.1051852703094482,-1.6819325886168421,-2.526370350514547,2.280789299602173,-1.0168092886554163,0.3852248787879944
1708440826.817584,-1.1052621603012085,-1.6819783649840296,-2.526403252278463,2.280772848720215,-1.0167973677264612,0.38519516587257385
1708440826.81957,-1.1051678657531738,-1.6819325886168421,-2.526391331349508,2.280775948161743,-1.016801659260885,0.3851086497306824
1708440826.8215754,-1.1052241325378418,-1.6819569073119105,-2.526358429585592,2.280804081554077,-1.0168135801898401,0.3851395845413208
1708440826.8235507,-1.1052722930908203,-1.681985994378561,-2.526362959538595,2.2808443742939453,-1.0167372862445276,0.3850586712360382
1708440826.825569,-1.1052430868148804,-1.6819201908507289,-2.526350800191061,2.2809058862873535,-1.0167253653155726,0.385052353143692
1708440826.8275414,-1.105299472808838,-1.6818963489928187,-2.526379410420553,2.280892534846924,-1.0167177359210413,0.38495394587516785
1708440826.8295507,-1.1053167581558228,-1.6819006405272425,-2.5263341108905237,2.28086702405896,-1.0167296568499964,0.3849063217639923
1708440826.831539,-1.1053564548492432,-1.6818963489928187,-2.5263856093036097,2.2809547620960693,-1.016738239918844,0.3849165439605713
1708440826.833524,-1.105339527130127,-1.6818887195982875,-2.5263643900500696,2.2809032636829834,-1.0166896025287073,0.3848268389701843
1708440826.8355582,-1.1053638458251953,-1.6818767986693324,-2.5263193289386194,2.2809576231190185,-1.0166447798358362,0.3848371207714081
1708440826.8375576,-1.1053963899612427,-1.681934495965475,-2.5263028780566614,2.2810184198566894,-1.016670052205221,0.3847592771053314
1708440826.8395529,-1.1053919792175293,-1.6818486652769984,-2.5263057390796106,2.281000776881836,-1.0166619459735315,0.38472357392311096
1708440826.8415234,-1.105391025543213,-1.6818248234190882,-2.5263238588916224,2.280972405070923,-1.0166791121112269,0.3846755921840668
1708440826.8435328,-1.1054083108901978,-1.681857248345846,-2.5262821356402796,2.281005306834839,-1.0166133085833948,0.3846592903137207
1708440826.8455315,-1.105431318283081,-1.6818777523436488,-2.526287857686178,2.2810637193867187,-1.016592804585592,0.38461124897003174
1708440826.8475833,-1.1054482460021973,-1.6818047962584437,-2.5263074080096644,2.2809621530720214,-1.016592804585592,0.3845633268356323
1708440826.849627,-1.1054439544677734,-1.6817599735655726,-2.5262697378741663,2.2810401159473876,-1.016552750264303,0.38453182578086853
1708440826.8515613,-1.105513334274292,-1.6818090877928675,-2.526344601308004,2.2810892301746826,-1.016590420399801,0.3845154047012329
1708440826.8535814,-1.1055197715759277,-1.6817523441710414,-2.5262742678271692,2.2810816007801513,-1.0165331999408167,0.38445666432380676
1708440826.855572,-1.1055529117584229,-1.6817714176573695,-2.526217285786764,2.2810847002216796,-1.0165050665484827,0.38445666432380676
1708440826.8575542,-1.1055940389633179,-1.681760927239889,-2.526275936757223,2.281137390727661,-1.0165141264544886,0.38443735241889954
1708440826.8595433,-1.105532169342041,-1.6817733250060023,-2.526275936757223,2.281158371562622,-1.0164931456195276,0.3843733072280884
1708440826.8615956,-1.1055841445922852,-1.6817451916136683,-2.526254717503683,2.2811359602161865,-1.0164902845965784,0.3843655586242676
1708440826.863547,-1.1055991649627686,-1.6817699871458949,-2.526259247456686,2.281198187465332,-1.0164974371539515,0.38428357243537903
1708440826.865593,-1.1056486368179321,-1.6816793880858363,-2.5262563864337366,2.2811567026325683,-1.0165227095233362,0.3842771351337433
1708440826.8676164,-1.105639934539795,-1.6817294559874476,-2.526254717503683,2.2811924654194335,-1.0164783636676233,0.3842771649360657
1708440826.8695428,-1.1056561470031738,-1.6817370853819789,-2.5262473265277308,2.2812043863483886,-1.0164464155780237,0.3842337131500244
1708440826.8715885,-1.10565185546875,-1.6816956005492152,-2.5262354055987757,2.2811879354664306,-1.0164507071124476,0.38422179222106934
1708440826.8735428,-1.1056625843048096,-1.681680818597311,-2.5262683073626917,2.281236096019409,-1.0164344946490687,0.3841935396194458
1708440826.875532,-1.1056876182556152,-1.6817461452879847,-2.5262113253222864,2.281212254161499,-1.0164063612567347,0.38416627049446106
1708440826.8775518,-1.1057164669036865,-1.6816684208311976,-2.5262280146228235,2.2812043863483886,-1.0164225737201136,0.3840724527835846
1708440826.8795395,-1.1057195663452148,-1.6816479168333949,-2.5261946360217493,2.281277819270752,-1.0163772741900843,0.38409659266471863
1708440826.8815906,-1.1058170795440674,-1.6816770039000453,-2.5262067953692835,2.2811989027210693,-1.0164197126971644,0.38405418395996094
1708440826.8835294,-1.1057357788085938,-1.6816283665099085,-2.526187245045797,2.281273289317749,-1.0163582007037562,0.38407525420188904
1708440826.8855705,-1.105783462524414,-1.6816283665099085,-2.526158873234884,2.2812763887592773,-1.0163372198687952,0.3840184509754181
1708440826.8875473,-1.1058039665222168,-1.6816283665099085,-2.5262113253222864,2.2812747198292236,-1.0163372198687952,0.3839361071586609
1708440826.8895566,-1.105832815170288,-1.6816207371153773,-2.5261991659747522,2.2813617426105957,-1.016383473073141,0.3839690089225769
1708440826.891569,-1.1058522462844849,-1.6816135845580042,-2.526151482258932,2.2813452917286376,-1.0163596312152308,0.3839331269264221
1708440826.8935208,-1.105851173400879,-1.6816464863219203,-2.5261381308185022,2.281376762981079,-1.016322437916891,0.38391339778900146
1708440826.895557,-1.105851173400879,-1.6816135845580042,-2.526139561329977,2.281367703075073,-1.016289536152975,0.38386476039886475
1708440826.8975224,-1.105925440788269,-1.6815864048399867,-2.526146952305929,2.2813920217701416,-1.0163105169879358,0.38387805223464966
1708440826.8996005,-1.1058917045593262,-1.68162264446401,-2.526176993046896,2.2814501959034423,-1.0163071791278284,0.38387903571128845
1708440826.901598,-1.1058992147445679,-1.6816188297667445,-2.5261152426349085,2.2814649778553466,-1.0162742773639124,0.38383448123931885
1708440826.9036489,-1.1059573888778687,-1.681584974328512,-2.5261107126819056,2.2814249235340576,-1.0162537733661097,0.3838552236557007
1708440826.9056423,-1.1059274673461914,-1.6815277538695277,-2.5261197725879114,2.2814368444630126,-1.0163000265704554,0.3838104009628296
1708440826.9075925,-1.105988621711731,-1.6815210781493128,-2.5260987917529505,2.2814768987843017,-1.0162628332721155,0.3838399648666382
1708440826.909547,-1.105947494506836,-1.6815387211241664,-2.526067558919088,2.281442566508911,-1.016254727040426,0.3837743103504181
1708440826.9115908,-1.1059880256652832,-1.6815577946104945,-2.526084009801046,2.2814969259449462,-1.0162385145770472,0.38371455669403076
1708440826.9136124,-1.105979323387146,-1.6815296612181605,-2.526043478642599,2.2815298277088623,-1.0162847677813929,0.3837921619415283
1708440826.9156835,-1.1060075759887695,-1.681530614892477,-2.526038948689596,2.2815207678028564,-1.0162385145770472,0.3837101459503174
1708440826.9176648,-1.1060107946395874,-1.6814891300597132,-2.526043478642599,2.281470938319824,-1.01622182527651,0.38369038701057434
1708440826.919605,-1.1060682535171509,-1.681497713128561,-2.526055399571554,2.2815860944935302,-1.016202751790182,0.38372787833213806
1708440826.9216146,-1.1060432195663452,-1.6814681492247523,-2.526055399571554,2.2815772730061035,-1.0161855856524866,0.3836696147918701
1708440826.9236197,-1.1060638427734375,-1.6815186939635218,-2.526048008595602,2.2815355497547607,-1.016202751790182,0.3836740255355835
1708440826.9256153,-1.106100082397461,-1.6814891300597132,-2.526022259389059,2.2815520006367187,-1.0161874930011194,0.3836829662322998
1708440826.9275675,-1.106058955192566,-1.6815020046629847,-2.5260029474841517,2.281554861659668,-1.0161832014666956,0.38366222381591797
1708440826.9295452,-1.1061272621154785,-1.6813708744444789,-2.526043478642599,2.281554861659668,-1.0161336104022425,0.383630633354187
1708440826.9315515,-1.1061596870422363,-1.6814004383482875,-2.5259743372546595,2.2816120821186523,-1.0161798636065882,0.3836546838283539
1708440826.9335558,-1.1061228513717651,-1.6813870869078578,-2.5260148684131067,2.281637354488037,-1.0161259810077112,0.3836469352245331
1708440826.9355469,-1.1061723232269287,-1.6814547977843226,-2.526043478642599,2.2816285330006103,-1.0161188284503382,0.38370075821876526
1708440826.937554,-1.1062078475952148,-1.6814214191832484,-2.5260329882251185,2.2816194730946044,-1.0161364714251917,0.38359373807907104
1708440826.939529,-1.106203556060791,-1.6814424000182093,-2.5259655157672327,2.2816738325306396,-1.016106907521383,0.38357415795326233
1708440826.9415634,-1.106215476989746,-1.6813842258849085,-2.5259788672076624,2.281677170390747,-1.016062084828512,0.3836114704608917
1708440826.9435818,-1.1061992645263672,-1.681418081323141,-2.5260284582721155,2.281681938762329,-1.0161321798907679,0.38361144065856934
1708440826.9455454,-1.1062930822372437,-1.6813527546324671,-2.5259578863727015,2.281684561366699,-1.0160754362689417,0.38357409834861755
1708440826.9475515,-1.1062593460083008,-1.6813975773253382,-2.52600866953005,2.2816757398792724,-1.0160511175738733,0.3835873305797577
1708440826.949573,-1.1062679290771484,-1.681368967095846,-2.5259879271136683,2.281729145640991,-1.0160468260394495,0.3835710287094116
1708440826.951555,-1.1062625646591187,-1.6813293896117152,-2.5259879271136683,2.2817203241535644,-1.0160182158099573,0.3835710287094116
1708440826.9535594,-1.1063481569290161,-1.681333681146139,-2.5259743372546595,2.2817322450825195,-1.0160601774798792,0.38360369205474854
1708440826.9555547,-1.1063481569290161,-1.6813212833800257,-2.525975767766134,2.2817656236835937,-1.0160229841815394,0.38357099890708923
1708440826.957537,-1.1063144207000732,-1.6813212833800257,-2.5259667078601282,2.2817322450825195,-1.0160077253924769,0.38359174132347107
1708440826.9595354,-1.1063889265060425,-1.6812902889647425,-2.525968376790182,2.2817892271229248,-1.016024414693014,0.3836125433444977
1708440826.9615846,-1.1063176393508911,-1.6812883816161097,-2.5259175936328333,2.28176395475354,-1.0159834066974085,0.38359180092811584
1708440826.9635584,-1.1063756942749023,-1.6813136539854945,-2.525942866002218,2.281752033824585,-1.0159538427936,0.383526086807251
1708440826.9655654,-1.1063464879989624,-1.6812859974303187,-2.5259280840503138,2.2818116384693603,-1.015991512929098,0.38352179527282715
1708440826.9675617,-1.1064320802688599,-1.6812526188292445,-2.525907103215353,2.2818776804157714,-1.0159629026996058,0.38353803753852844
1708440826.9695675,-1.1063865423202515,-1.6812616787352503,-2.525968376790182,2.2818400102802734,-1.0159700552569788,0.3835274577140808
1708440826.9715667,-1.1064438819885254,-1.6812240085997523,-2.52590257326235,2.28184358655896,-1.0159509817706507,0.38353368639945984
1708440826.9735463,-1.1064319610595703,-1.6812616787352503,-2.525923554097311,2.2818400102802734,-1.0159881750689905,0.3835380971431732
1708440826.975551,-1.1064645051956177,-1.681254049340719,-2.5258947054492396,2.281883640880249,-1.0159762541400355,0.38355910778045654
1708440826.9775403,-1.1064883470535278,-1.6812325916686,-2.525898281727926,2.281937285060547,-1.0159924666034144,0.38357245922088623
1708440826.9795625,-1.1064385175704956,-1.68127503017568,-2.5259116331683558,2.281871719951294,-1.0159314314471644,0.38352170586586
1708440826.981561,-1.1065702438354492,-1.681221147576803,-2.5258739630328577,2.281886501903198,-1.0159476439105433,0.38355135917663574
1708440826.9835656,-1.1065164804458618,-1.681204458276266,-2.525912586842672,2.28192846357312,-1.0159595648394983,0.3835424482822418
1708440826.9855602,-1.1064385175704956,-1.6812550030150355,-2.5258424917804163,2.2819148737141113,-1.0159104506122034,0.38359618186950684
1708440826.9875367,-1.1065354347229004,-1.6811849079527796,-2.5258589426623743,2.2819689947315673,-1.0159686247455042,0.3835798501968384
1708440826.9895341,-1.1065311431884766,-1.6811672649779261,-2.525851551686422,2.2819689947315673,-1.0159404913531702,0.38361701369285583
1708440826.9915445,-1.1065765619277954,-1.6811686954894007,-2.525888744984762,2.2819601732441406,-1.0159643332110804,0.38356801867485046
1708440826.993534,-1.1065884828567505,-1.6812025509276332,-2.5258262793170374,2.281979485149048,-1.0159195105182093,0.3835635185241699
1708440826.9955485,-1.1065592765808105,-1.6812025509276332,-2.525851551686422,2.2819556432911376,-1.0159032980548304,0.3835768401622772
1708440826.99754,-1.1065874099731445,-1.6811729870238246,-2.525856081639425,2.2820047575184326,-1.0159686247455042,0.38352176547050476
1708440826.999609,-1.1065505743026733,-1.6811863384642542,-2.52584416071047,2.282019777888916,-1.0159075895892542,0.3835424482822418
1708440827.0015776,-1.1065711975097656,-1.6812330685057582,-2.5258305708514612,2.2820724683948974,-1.015886131917135,0.38359177112579346
1708440827.003684,-1.1066205501556396,-1.6811777553954066,-2.5258262793170374,2.2820605474659423,-1.0159075895892542,0.38352611660957336
1708440827.0056064,-1.1066162586212158,-1.6811286411681117,-2.52590519586672,2.2820352750965576,-1.015862766896383,0.3835887312889099
1708440827.0075624,-1.1066724061965942,-1.68117155651235,-2.52582294145693,2.2821215826221923,-1.0159371534930628,0.3836451768875122
1708440827.0095732,-1.1066594123840332,-1.6811419926085414,-2.525835100804464,2.2820843893238525,-1.0158794561969202,0.3835888206958771
1708440827.011586,-1.1066594123840332,-1.6811138592162074,-2.5258308092700403,2.2821006017872314,-1.0158746878253382,0.38355907797813416
1708440827.0136478,-1.1066312789916992,-1.6811791859068812,-2.525884453450338,2.2821082311817626,-1.0158756414996546,0.38359177112579346
1708440827.015582,-1.1066832542419434,-1.6811267338194789,-2.52586800256838,2.282129688853882,-1.0158880392657679,0.38359183073043823
1708440827.0175533,-1.1066670417785645,-1.681133886376852,-2.525851551686422,2.2821082311817626,-1.0159209410296839,0.3835873603820801
1708440827.0195377,-1.1066495180130005,-1.6811424694456996,-2.525832001362936,2.282082720393799,-1.015850845967428,0.3835829496383667
1708440827.021576,-1.1067121028900146,-1.681131502191061,-2.5258427301989954,2.282120867366455,-1.01585561433901,0.3836081326007843
1708440827.0235443,-1.1066951751708984,-1.6810819111266078,-2.5258427301989954,2.282094641322754,-1.0158713499652308,0.38357850909233093
1708440827.0255437,-1.1066819429397583,-1.6810981235899867,-2.525856081639425,2.2820982176014404,-1.0158384482013147,0.3836231231689453
1708440827.0275364,-1.1066733598709106,-1.6810699901976527,-2.5258217493640345,2.2821430402943115,-1.0158775488482874,0.38363638520240784
1708440827.029532,-1.1067150831222534,-1.6810938320555628,-2.525884453450338,2.282123489970825,-1.0158265272723597,0.3836071193218231
1708440827.0315259,-1.106743335723877,-1.6810699901976527,-2.52582294145693,2.2821518617817382,-1.0158599058734339,0.38365137577056885
1708440827.0335376,-1.1067639589309692,-1.6810771427550257,-2.52586800256838,2.282197876567505,-1.0158193747149866,0.383586049079895
1708440827.0355406,-1.106784462928772,-1.6810862026610316,-2.5258799234973353,2.282200976009033,-1.0158689657794397,0.38367247581481934
1708440827.0375476,-1.106755256652832,-1.6811191044249476,-2.525818411503927,2.2821637827106933,-1.0158312956439417,0.383715957403183
1708440827.039552,-1.106755256652832,-1.6810833416380824,-2.525835100804464,2.2821220594593505,-1.015796963368551,0.38369178771972656
1708440827.0415292,-1.106771469116211,-1.6810699901976527,-2.525794569646017,2.2821830946156005,-1.0158265272723597,0.38372039794921875
1708440827.0435278,-1.106771469116211,-1.6810580692686976,-2.525797430668966,2.2822164732166748,-1.0158312956439417,0.3837560713291168
1708440827.0455315,-1.106783390045166,-1.6810409031310023,-2.52584416071047,2.2822083669849853,-1.0158756414996546,0.3837308883666992
1708440827.047557,-1.1067959070205688,-1.6810666523375453,-2.525865141545431,2.2821950155445556,-1.0158146063434046,0.3838009536266327
1708440827.0495856,-1.1067302227020264,-1.6810633144774378,-2.52584416071047,2.2822128969379882,-1.0158641974078577,0.3838043212890625
1708440827.051572,-1.1067914962768555,-1.6810342274107875,-2.525876824055807,2.2821711736866455,-1.0158193747149866,0.3837876617908478
1708440827.053542,-1.1067960262298584,-1.6810385189452113,-2.525835100804464,2.2822164732166748,-1.0158804098712366,0.3837909698486328
1708440827.055561,-1.1068034172058105,-1.6810342274107875,-2.525851551686422,2.28222839414563,-1.0158355871783655,0.38378211855888367
1708440827.0575762,-1.1068077087402344,-1.681026121179098,-2.525835100804464,2.2821950155445556,-1.0158565680133265,0.38383999466896057
1708440827.0595696,-1.1067872047424316,-1.6810175381102503,-2.525827471409933,2.2821711736866455,-1.0158641974078577,0.3839046061038971
1708440827.061556,-1.1068196296691895,-1.6810218296446742,-2.52582294145693,2.2821950155445556,-1.0158146063434046,0.3838627338409424
1708440827.063558,-1.1067914962768555,-1.6810218296446742,-2.5258141199695032,2.282179995174072,-1.0158475081073206,0.3839148283004761
1708440827.0655572,-1.1067827939987183,-1.681100984612936,-2.5258141199695032,2.2821995454975585,-1.0158222357379358,0.38392674922943115
1708440827.0675478,-1.1068034172058105,-1.6810456715025843,-2.525881592427389,2.28222839414563,-1.0157983938800257,0.383897066116333
1708440827.0695221,-1.106889009475708,-1.6810633144774378,-2.525810782109396,2.2821950155445556,-1.0158475081073206,0.38391339778900146
1708440827.071536,-1.1068434715270996,-1.6810785732665003,-2.52584416071047,2.282169743175171,-1.0157983938800257,0.3840031921863556
1708440827.0735414,-1.1067947149276733,-1.6810456715025843,-2.525810782109396,2.2821995454975585,-1.0158222357379358,0.38399434089660645
1708440827.0755172,-1.1067959070205688,-1.6810499630370082,-2.525835100804464,2.2822164732166748,-1.0158770720111292,0.3840630352497101
1708440827.0775266,-1.1068239212036133,-1.6810456715025843,-2.525832001362936,2.2822164732166748,-1.0158074537860315,0.38410353660583496
1708440827.0795243,-1.106757402420044,-1.6810175381102503,-2.5258153120623987,2.2821995454975585,-1.0158103148089808,0.3840782642364502
1708440827.0815217,-1.1067947149276733,-1.6810623608031214,-2.525839630757467,2.2822374540516357,-1.0158517996417444,0.3841261863708496
1708440827.0835214,-1.1068239212036133,-1.6810742817320765,-2.525835100804464,2.282223864192627,-1.0158599058734339,0.38412484526634216
1708440827.0855405,-1.1068315505981445,-1.6810537777342738,-2.525839630757467,2.2822374540516357,-1.015838925038473,0.38421130180358887
1708440827.0875401,-1.1068521738052368,-1.681059022943014,-2.52584416071047,2.2821830946156005,-1.0158641974078577,0.38422322273254395
1708440827.0895312,-1.106819748878479,-1.6810084782042445,-2.52586800256838,2.282211943263672,-1.0159042517291468,0.38426217436790466
1708440827.0915475,-1.106806755065918,-1.6810304127135218,-2.525893274937765,2.2822329240986328,-1.0158599058734339,0.3843190670013428
1708440827.0935228,-1.1068358421325684,-1.6810623608031214,-2.525872532521383,2.2822298246571044,-1.0159300009356897,0.3843146562576294
1708440827.0955272,-1.106864094734192,-1.6810490093626917,-2.525818649922506,2.282223864192627,-1.0158599058734339,0.38431763648986816
1708440827.0975342,-1.1068272590637207,-1.6811067066588343,-2.525835100804464,2.2822210031696777,-1.0158713499652308,0.3843446969985962
1708440827.099575,-1.1067991256713867,-1.6810499630370082,-2.525851551686422,2.2821740347095947,-1.0158847014056605,0.3844029903411865
1708440827.1015525,-1.1068402528762817,-1.6810294590392054,-2.52588135400881,2.282186194057129,-1.0158599058734339,0.38444483280181885
1708440827.1035793,-1.1068196296691895,-1.6810041866698207,-2.5258589426623743,2.2821995454975585,-1.0158756414996546,0.38446250557899475
1708440827.1055875,-1.106794834136963,-1.6810218296446742,-2.52586800256838,2.282203121776245,-1.015867058430807,0.38453903794288635
1708440827.1076012,-1.1068153381347656,-1.6810585461058558,-2.525872532521383,2.2822040754505615,-1.0158756414996546,0.3845617473125458
1708440827.1095486,-1.1068196296691895,-1.6810833416380824,-2.52586800256838,2.2822040754505615,-1.0158756414996546,0.38458251953125
1708440827.1115305,-1.1067914962768555,-1.6810499630370082,-2.525888744984762,2.2821904855915527,-1.0158794561969202,0.3846304416656494
1708440827.1135936,-1.1067421436309814,-1.681120058099264,-2.5258799234973353,2.2822040754505615,-1.015883747731344,0.3846246004104614
1708440827.1155844,-1.1067496538162231,-1.6811114750304164,-2.525884453450338,2.2821921545216064,-1.0159342924701136,0.38470518589019775
1708440827.1175811,-1.1067702770233154,-1.6810409031310023,-2.525888744984762,2.2821785646625976,-1.0158880392657679,0.3847290277481079
1708440827.1195762,-1.1067583560943604,-1.6810876331725062,-2.5258470217334192,2.2822372156330566,-1.01591664949526,0.38476061820983887
1708440827.1215715,-1.106783390045166,-1.6810757122435511,-2.5258799234973353,2.2821950155445556,-1.0159490744220179,0.3848371207714081
1708440827.1235502,-1.1067583560943604,-1.6810981235899867,-2.5258544127093714,2.2821964460560302,-1.0159357229815882,0.3848772346973419
1708440827.1255577,-1.1067960262298584,-1.6810409031310023,-2.5258634726153772,2.2821518617817382,-1.015890900288717,0.3848968744277954
1708440827.12755,-1.1067914962768555,-1.6810819111266078,-2.5258753935443323,2.2821830946156005,-1.0158942381488245,0.38493287563323975
1708440827.1295528,-1.1067878007888794,-1.6810862026610316,-2.5258618036853235,2.2821430402943115,-1.0159152189837855,0.3849523067474365
1708440827.1315272,-1.106771469116211,-1.6810947857298792,-2.5258799234973353,2.282205505962036,-1.0159390608416956,0.38506999611854553
1708440827.1335595,-1.1067802906036377,-1.6810904941954554,-2.5258470217334192,2.2821637827106933,-1.0159643332110804,0.3851180374622345
1708440827.1355963,-1.1067628860473633,-1.6811400852599085,-2.5259206930743616,2.28217260419812,-1.0159834066974085,0.385166198015213
1708440827.1375678,-1.1067845821380615,-1.6811114750304164,-2.5258963743792933,2.28220979749646,-1.0160077253924769,0.38516780734062195
1708440827.1395464,-1.1067314147949219,-1.6811267338194789,-2.5258382002459925,2.2821518617817382,-1.016019646321432,0.3851874768733978
1708440827.141561,-1.1067413091659546,-1.6810785732665003,-2.5258589426623743,2.2821473318287353,-1.0159900824176233,0.3852604329586029
1708440827.14356,-1.106662631034851,-1.6811400852599085,-2.5258708635913294,2.282156391734741,-1.016036335621969,0.3853053152561188
1708440827.1455412,-1.1066657304763794,-1.6810785732665003,-2.525917116795675,2.2821037012287597,-1.0160439650165003,0.38533544540405273
1708440827.1475413,-1.1066951751708984,-1.6811515293517054,-2.5259206930743616,2.282078190440796,-1.0160601774798792,0.3853592872619629
1708440827.1495478,-1.106634497642517,-1.6810819111266078,-2.5258963743792933,2.2820872503468017,-1.0160391966449183,0.38543272018432617
1708440827.151588,-1.1066474914550781,-1.6810938320555628,-2.525940004979269,2.2820843893238525,-1.0160673300372522,0.3854806423187256
1708440827.1535685,-1.1066398620605469,-1.6811472378172816,-2.5259161631213587,2.2820426660725097,-1.0160630385028284,0.38551637530326843
1708440827.155567,-1.1066062450408936,-1.681183477441305,-2.5259116331683558,2.2820591169544677,-1.0160964171039026,0.38554009795188904
1708440827.1575713,-1.1065905094146729,-1.6811181507506312,-2.5259371439563196,2.2820395666309814,-1.0160630385028284,0.38556140661239624
1708440827.1595721,-1.1066162586212158,-1.681100984612936,-2.5259280840503138,2.2820560175129394,-1.016090218220846,0.3856271505355835
1708440827.1615887,-1.1065505743026733,-1.6811515293517054,-2.525956455861227,2.2820276457020263,-1.0161526838885706,0.3857036530971527
1708440827.163565,-1.1065797805786133,-1.6811424694456996,-2.525951925908224,2.282012386912964,-1.0161884466754358,0.38573184609413147
1708440827.1655734,-1.1065560579299927,-1.6811181507506312,-2.5259280840503138,2.282045527095459,-1.016167942677633,0.3857872486114502
1708440827.167557,-1.1065473556518555,-1.681133886376852,-2.5259280840503138,2.281963272685669,-1.016151253377096,0.385806679725647
1708440827.1695395,-1.1065516471862793,-1.681150575677389,-2.525942866002218,2.281987114543579,-1.0161750952350062,0.38587427139282227
1708440827.1716323,-1.106441617012024,-1.6811462841429652,-2.525971237813131,2.2820047575184326,-1.0162037054644983,0.38592666387557983
1708440827.173533,-1.1065324544906616,-1.6811582050719203,-2.5260043779956263,2.2819556432911376,-1.0161874930011194,0.38595372438430786
1708440827.1755414,-1.1064308881759644,-1.6811729870238246,-2.5260120073901575,2.2818912702747802,-1.0161855856524866,0.38600286841392517
1708440827.1775424,-1.1064438819885254,-1.6812197170653285,-2.5260043779956263,2.2819408613392334,-1.0162113348590296,0.38604164123535156
1708440827.1795516,-1.1064645051956177,-1.6811849079527796,-2.5260239283191126,2.281874819392822,-1.0161855856524866,0.3860776424407959
1708440827.1815526,-1.1064735651016235,-1.6812392673888148,-2.526080910359518,2.2818969923206787,-1.0162232557879847,0.3861839473247528
1708440827.1835394,-1.106386661529541,-1.6812344990172328,-2.5260735193835657,2.2818569379993896,-1.0162351767169397,0.38620656728744507
1708440827.1855516,-1.1063671112060547,-1.6812344990172328,-2.526010338460104,2.2818779188343505,-1.016209904347555,0.38624703884124756
1708440827.1875346,-1.1063594818115234,-1.6812674007811488,-2.526001516972677,2.2818445402332763,-1.016242806111471,0.386294960975647
1708440827.1895492,-1.1063507795333862,-1.6812497578062953,-2.526010338460104,2.2817954260059814,-1.0162723700152796,0.3863336443901062
1708440827.191545,-1.1063683032989502,-1.681258340875143,-2.526034418736593,2.281808777446411,-1.0162504355060022,0.3863247036933899
1708440827.1935332,-1.1063232421875,-1.681282182733053,-2.526034418736593,2.281768484706543,-1.0162261168109339,0.38638901710510254
1708440827.1955454,-1.106295108795166,-1.6812659702696742,-2.526034418736593,2.2817396360584716,-1.0162785688983362,0.3864443004131317
1708440827.1975632,-1.1063200235366821,-1.6812497578062953,-2.526050869618551,2.2817322450825195,-1.0163191000567835,0.38653141260147095
1708440827.1995924,-1.1063286066055298,-1.6812945804991664,-2.526067558919088,2.2817157942005615,-1.0163477102862757,0.38657188415527344
1708440827.2015927,-1.106296181678772,-1.6812602482237757,-2.5260255972491663,2.281701012248657,-1.0163386503802698,0.38660162687301636
1708440827.2036543,-1.1062430143356323,-1.6812902889647425,-2.5260704199420374,2.2816876608082275,-1.0163582007037562,0.38664954900741577
1708440827.2056203,-1.1062517166137695,-1.6813179455199183,-2.5260823408709925,2.2816831308552246,-1.016383473073141,0.3867109417915344
1708440827.2075703,-1.1062273979187012,-1.6813341579832972,-2.5260329882251185,2.281701012248657,-1.0163896719561976,0.38672903180122375
1708440827.2095566,-1.1062403917312622,-1.6813017330565394,-2.526084009801046,2.281672640437744,-1.0164406935321253,0.38678425550460815
1708440827.2115743,-1.106191635131836,-1.6813470325865687,-2.5261243025409144,2.2816385465809326,-1.0164435545550745,0.38681262731552124
1708440827.2136567,-1.106175422668457,-1.6813661060728968,-2.5261452833758753,2.2815822797962646,-1.0164836088763636,0.3868483006954193
1708440827.2156174,-1.1061346530914307,-1.6813627682127894,-2.5261226336108606,2.2816166120716552,-1.016475025807516,0.38689184188842773
1708440827.2175488,-1.1061272621154785,-1.6813379726805628,-2.5261152426349085,2.281620903606079,-1.0164702574359339,0.3869638442993164
1708440827.2195668,-1.1061564683914185,-1.681361814538473,-2.5261362234698694,2.2816075521656494,-1.0164702574359339,0.3869921565055847
1708440827.2216568,-1.106099009513855,-1.6814152203001917,-2.526176993046896,2.281637354488037,-1.0165193716632288,0.3870730996131897
1708440827.2235363,-1.1060595512390137,-1.681364198724264,-2.5261917749988,2.281613751048706,-1.0165389219867151,0.3871612548828125
1708440827.2255561,-1.106034517288208,-1.681345125237936,-2.526188675557272,2.28153841077771,-1.0165670553790491,0.3871568441390991
1708440827.2275617,-1.1060194969177246,-1.681406637231344,-2.526135031376974,2.2815608221241455,-1.0165789763080042,0.3872166574001312
1708440827.2295413,-1.1060150861740112,-1.681406637231344,-2.526196304951803,2.28153841077771,-1.0166032950030726,0.387264609336853
1708440827.2315545,-1.1060000658035278,-1.681364198724264,-2.526175324116842,2.2815684515186767,-1.0166075865374964,0.3873337507247925
1708440827.2335448,-1.1059837341308594,-1.6813732586302699,-2.5261662642108362,2.2815608221241455,-1.0165250937091272,0.38734397292137146
1708440827.2355523,-1.1059668064117432,-1.681401868859762,-2.526220146809713,2.2814909654804687,-1.016573731099264,0.38742026686668396
1708440827.2375484,-1.10599684715271,-1.6814052067198695,-2.5261991659747522,2.2815162378498535,-1.0166147390948694,0.3874395787715912
1708440827.2395413,-1.1059143543243408,-1.6813975773253382,-2.5261827150927942,2.2815043169208984,-1.016594711934225,0.3875161111354828
1708440827.241576,-1.1059443950653076,-1.6813961468138636,-2.5261901060687464,2.2814969259449462,-1.016634766255514,0.38755959272384644
1708440827.2435632,-1.1058950424194336,-1.6814094982542933,-2.5261991659747522,2.2814382749744873,-1.0166218916522425,0.3875744342803955
1708440827.2455642,-1.1059781312942505,-1.6813932857909144,-2.5262354055987757,2.281447334880493,-1.0166381041156214,0.38762715458869934
1708440827.2475548,-1.105894923210144,-1.6814424000182093,-2.5262771288501185,2.281444235438965,-1.0166218916522425,0.38772088289260864
1708440827.249618,-1.105907917022705,-1.6814962826170863,-2.5262895266162317,2.2814411359974365,-1.0166619459735315,0.3877345621585846
1708440827.2515478,-1.1058660745620728,-1.6814657650389613,-2.526259247456686,2.2814323145100097,-1.0166743437396448,0.3877616822719574
1708440827.253558,-1.105879306793213,-1.6814004383482875,-2.526280466710226,2.2813877302357177,-1.0167067686664026,0.38780635595321655
1708440827.2555575,-1.1058478355407715,-1.68141569713735,-2.526275936757223,2.2813662725635986,-1.0166857878314417,0.3878125250339508
1708440827.2575476,-1.1058435440063477,-1.6814738712706507,-2.5262308756457728,2.2814039426990966,-1.0166938940631312,0.38793349266052246
1708440827.2595665,-1.1058392524719238,-1.681436677972311,-2.526313368474142,2.2813498216816406,-1.0167058149920862,0.38798588514328003
1708440827.2615662,-1.1058565378189087,-1.681406637231344,-2.526283327733175,2.2814220625111084,-1.0166729132281702,0.38804757595062256
1708440827.26359,-1.105803370475769,-1.6814786396422328,-2.526287857686178,2.2814010816761474,-1.0167134443866175,0.3880578875541687
1708440827.2655523,-1.1058359146118164,-1.681465288201803,-2.5263074080096644,2.2814175325581054,-1.0167501608477991,0.38810133934020996
1708440827.267567,-1.1057953834533691,-1.6814476452269496,-2.526266876851217,2.281372233028076,-1.016782585774557,0.38815373182296753
1708440827.2695603,-1.1058040857315063,-1.6814609966673792,-2.5263357798205774,2.281348391170166,-1.0167816321002405,0.3882553279399872
1708440827.2716157,-1.1057953834533691,-1.681530614892477,-2.5263028780566614,2.281376762981079,-1.0168021360980433,0.3882448673248291
1708440827.2735353,-1.1057790517807007,-1.6814772091307582,-2.5262821356402796,2.281306667918823,-1.0167730490313929,0.388327419757843
1708440827.2755463,-1.105730414390564,-1.6815139255919398,-2.5263357798205774,2.281315727824829,-1.0168059507953089,0.38839462399482727
1708440827.2775726,-1.105759620666504,-1.6815339527525843,-2.5263477007495325,2.281303806895874,-1.0168145338641565,0.3883528709411621
1708440827.279566,-1.1057639122009277,-1.681526323358053,-2.5263357798205774,2.281249685878418,-1.0168059507953089,0.3884662985801697
1708440827.2815382,-1.1057475805282593,-1.68143953899526,-2.5263431707965296,2.2813336092182617,-1.0168221632586878,0.3884633183479309
1708440827.2835364,-1.1057238578796387,-1.6814681492247523,-2.5263856093036097,2.281308098430298,-1.0168417135821741,0.38853245973587036
1708440827.2855377,-1.1057326793670654,-1.6815387211241664,-2.526350800191061,2.2813126283833007,-1.016846005116598,0.38857707381248474
1708440827.2875357,-1.1057119369506836,-1.681526323358053,-2.5263341108905237,2.2812627989002685,-1.016869846974508,0.38867777585983276
1708440827.2895496,-1.1057164669036865,-1.6814919910826625,-2.526350800191061,2.281324549312256,-1.0168450514422815,0.3886880874633789
1708440827.291546,-1.1056756973266602,-1.6814843616881312,-2.526393000279562,2.2812883096882324,-1.0168903509723108,0.3887491524219513
1708440827.2935364,-1.105691909790039,-1.6814962826170863,-2.526393000279562,2.281236096019409,-1.0168941656695765,0.38872969150543213
1708440827.295531,-1.105691909790039,-1.6815430126585902,-2.526400391255514,2.281248016948364,-1.016930882130758,0.38879138231277466
1708440827.2975488,-1.1056756973266602,-1.6814729175963343,-2.5264092127429407,2.281268759364746,-1.0168975035296839,0.3888360857963562
1708440827.299562,-1.1056594848632812,-1.681547304193014,-2.526395861302511,2.281252546901367,-1.0169299284564417,0.3889126777648926
1708440827.3015454,-1.1056312322616577,-1.681521554986471,-2.526308838521139,2.2812391954609375,-1.0169418493853968,0.38896945118904114
1708440827.303609,-1.105635643005371,-1.6814843616881312,-2.526395861302511,2.2812928396412353,-1.0169571081744593,0.38905471563339233
1708440827.3056414,-1.1056594848632812,-1.6814876995482386,-2.5263822714435022,2.281309052104614,-1.0169780890094202,0.38900211453437805
1708440827.3076034,-1.10565185546875,-1.681509634057516,-2.5263450781451624,2.2812675672718505,-1.016989533101217,0.38909661769866943
1708440827.3095534,-1.1057006120681763,-1.6815010509886683,-2.5263987223254603,2.2812809187122802,-1.0170052687274378,0.3891102373600006
1708440827.3115842,-1.105635643005371,-1.6814905605711878,-2.5263899008380335,2.2812718588062744,-1.0169976393329065,0.3891519010066986
1708440827.3135629,-1.105635643005371,-1.6815620861449183,-2.5264106432544153,2.281268997783325,-1.0170095602618616,0.3891909122467041
1708440827.3156803,-1.105669379234314,-1.6815453968443812,-2.526419703160421,2.2813469606586914,-1.0170419851886194,0.38925522565841675
1708440827.3176394,-1.10565185546875,-1.681509634057516,-2.526407782231466,2.281273289317749,-1.0170581976519983,0.38932114839553833
1708440827.319666,-1.105639934539795,-1.6815620861449183,-2.5264106432544153,2.2812556463428955,-1.0170701185809534,0.38936012983322144
1708440827.321648,-1.1056193113327026,-1.6815577946104945,-2.5264392534839075,2.2812272745319824,-1.0170453230487269,0.3894170820713043
1708440827.3236275,-1.105623722076416,-1.6815253696837367,-2.5264061133014124,2.281297131175659,-1.0171015898333948,0.38946327567100525
1708440827.3255763,-1.105623722076416,-1.6815577946104945,-2.5264347235309046,2.281301661128662,-1.0170043150531214,0.38948744535446167
1708440827.3275588,-1.105607509613037,-1.6815411053099574,-2.526463333760397,2.2812391954609375,-1.0170615355121058,0.38954252004623413
1708440827.329559,-1.1056561470031738,-1.6815668545165003,-2.5264347235309046,2.281301661128662,-1.0170605818377894,0.38954997062683105
1708440827.3315253,-1.1056605577468872,-1.6815253696837367,-2.526438061391012,2.2812763887592773,-1.017057243977682,0.38959789276123047
1708440827.3335605,-1.1056475639343262,-1.681512018243307,-2.526479784642355,2.281289740199707,-1.0170367399798792,0.3896458148956299
1708440827.3355277,-1.1056236028671265,-1.6815234623351039,-2.52651292482485,2.281264467830322,-1.017069164906637,0.3896788954734802
1708440827.337541,-1.1056280136108398,-1.6816026173033656,-2.526482645665304,2.281248016948364,-1.0170400778399866,0.3897762894630432
1708440827.3395355,-1.1056561470031738,-1.6815339527525843,-2.526470724736349,2.281289740199707,-1.017097298298971,0.38977766036987305
1708440827.3415248,-1.1056475639343262,-1.6815253696837367,-2.526475254689352,2.2812110620686035,-1.0170844236956995,0.3898598849773407
1708440827.3435326,-1.105639934539795,-1.6815453968443812,-2.526466194783346,2.281248016948364,-1.0171259085284632,0.3899272382259369
1708440827.345529,-1.1056561470031738,-1.6815039120116175,-2.526482645665304,2.2812391954609375,-1.017142120991842,0.38992565870285034
1708440827.3475552,-1.1056767702102661,-1.6815577946104945,-2.526548687611715,2.28125707685437,-1.0171216169940394,0.3899947702884674
1708440827.3495402,-1.1056485176086426,-1.6815053425230921,-2.526499334965841,2.281292601222656,-1.0171530882464808,0.39003822207450867
1708440827.3515477,-1.1057018041610718,-1.6815086803831996,-2.5264902750598353,2.2812437254139404,-1.0171940962420862,0.390085905790329
1708440827.3535464,-1.1055666208267212,-1.6814800701537074,-2.5265353361712855,2.281285210246704,-1.0171735922442835,0.3901623785495758
1708440827.3555396,-1.105574369430542,-1.6814919910826625,-2.5265682379352015,2.281273289317749,-1.017148796712057,0.39018166065216064
1708440827.357538,-1.105607509613037,-1.6815387211241664,-2.5265517870532435,2.28125707685437,-1.017172638569967,0.3902042508125305
1708440827.3595328,-1.1056561470031738,-1.6814919910826625,-2.5265336672412317,2.281240625972412,-1.017221752797262,0.39022353291511536
1708440827.361538,-1.1056530475616455,-1.6815129719176234,-2.526562039052145,2.2812556463428955,-1.017193619404928,0.3903299868106842
1708440827.3635304,-1.1055700778961182,-1.6815387211241664,-2.526562039052145,2.281273289317749,-1.017205540333883,0.39037013053894043
1708440827.3655515,-1.1056368350982666,-1.6815010509886683,-2.526501003895895,2.281261368388794,-1.0171969572650355,0.3903808891773224
1708440827.3675582,-1.1056530475616455,-1.6815172634520472,-2.5265756289111536,2.281264467830322,-1.017233673726217,0.3904525637626648
1708440827.3695767,-1.105664849281311,-1.6815668545165003,-2.5265968481646937,2.281297131175659,-1.0172575155841272,0.3904796242713928
1708440827.3716,-1.105611801147461,-1.6815368137755335,-2.5265846888171595,2.2812718588062744,-1.017249886189596,0.39052754640579224
