Eg3-git/Classifiers/Data Collection/u7/u7star4_ur3e_joint_states.csv
time,elbow_joint,shoulder_lift_joint,shoulder_pan_joint,wrist_1_joint,wrist_2_joint,wrist_3_joint
1708440575.2990432,-1.1060221195220947,-1.681493421594137,-2.525768582020895,2.28123323499646,-1.0156930128680628,-0.26503259340395147
1708440575.3010163,-1.10606849193573,-1.6814609966673792,-2.5257194677936,2.281248016948364,-1.0156424681292933,-0.2650983969317835
1708440575.3029985,-1.106056571006775,-1.6814528904356898,-2.525768820439474,2.281273289317749,-1.015606705342428,-0.26504499117006475
1708440575.3050623,-1.106040120124817,-1.6814943752684535,-2.525698725377218,2.2812809187122802,-1.015655819569723,-0.2650697867022913
1708440575.306988,-1.1060595512390137,-1.6814328632750453,-2.5257609526263636,2.2812718588062744,-1.0156648794757288,-0.26507312456239873
1708440575.3090155,-1.10606849193573,-1.6815225086607875,-2.5257194677936,2.281268997783325,-1.0156601111041468,-0.26509076753725225
1708440575.3109975,-1.1060476303100586,-1.681509634057516,-2.5257163683520716,2.2812272745319824,-1.0156634489642542,-0.26502830186952764
1708440575.3129833,-1.1060221195220947,-1.6815225086607875,-2.525691334401266,2.281264467830322,-1.015639607106344,-0.26502830186952764
1708440575.3150012,-1.1060312986373901,-1.6815020046629847,-2.525752131138937,2.281289740199707,-1.015646759663717,-0.26507741609682256
1708440575.317024,-1.1060774326324463,-1.681481500665182,-2.5257225672351282,2.2812318044849853,-1.0156882444964808,-0.2650492827044886
1708440575.3189926,-1.1060267686843872,-1.681469579736227,-2.525686804448263,2.281306191081665,-1.0156481901751917,-0.26508933702577764
1708440575.3210082,-1.10606849193573,-1.6814400158324183,-2.5257402102099817,2.281264467830322,-1.015634838734762,-0.26503259340395147
1708440575.3230157,-1.1059985160827637,-1.6814900837340296,-2.5256579558001917,2.281268997783325,-1.015688721333639,-0.26507312456239873
1708440575.3249803,-1.106002926826477,-1.6815020046629847,-2.5257063547717493,2.281252546901367,-1.015655819569723,-0.26512319246401006
1708440575.326971,-1.10606849193573,-1.681469579736227,-2.5257564226733606,2.281301661128662,-1.0156515280352991,-0.26498204866518194
1708440575.3289938,-1.1060521602630615,-1.681509634057516,-2.525764290486471,2.281301661128662,-1.0156586805926722,-0.26505786577333623
1708440575.3309639,-1.10606849193573,-1.6815062961974085,-2.525714937840597,2.2812391954609375,-1.0156768004046839,-0.2650688330279749
1708440575.332998,-1.1059908866882324,-1.6814686260619105,-2.5257194677936,2.281285210246704,-1.0156515280352991,-0.26506072679628545
1708440575.3349617,-1.106019377708435,-1.6815020046629847,-2.5257237593280237,2.2812809187122802,-1.015667740498678,-0.26507312456239873
1708440575.3369582,-1.1060192584991455,-1.6815391979613246,-2.5257063547717493,2.281264467830322,-1.0156424681292933,-0.2650693098651331
1708440575.3389935,-1.1060446500778198,-1.6814567051329554,-2.525747601185934,2.281268997783325,-1.015655819569723,-0.2650192419635218
1708440575.340975,-1.1060476303100586,-1.6814772091307582,-2.525735680256979,2.2812437254139404,-1.0156438986407679,-0.2650402227984827
1708440575.343023,-1.106002926826477,-1.681448598901266,-2.525698725377218,2.2812675672718505,-1.0156720320331019,-0.2651146093951624
1708440575.3449554,-1.1059985160827637,-1.6814567051329554,-2.5257731119738978,2.281301661128662,-1.0156262556659144,-0.26507741609682256
1708440575.3469894,-1.1060385704040527,-1.681493421594137,-2.5257237593280237,2.2812391954609375,-1.015714470540182,-0.2651131788836878
1708440575.3490212,-1.1060221195220947,-1.6814772091307582,-2.525747601185934,2.281285210246704,-1.015639607106344,-0.2650688330279749
1708440575.35097,-1.1060655117034912,-1.6815301380553187,-2.5256944338427942,2.281252546901367,-1.0156720320331019,-0.26512223878969365
1708440575.352988,-1.1060267686843872,-1.681481500665182,-2.5257282892810267,2.2812272745319824,-1.015639607106344,-0.2650850454913538
1708440575.3549814,-1.106002926826477,-1.6814609966673792,-2.525747601185934,2.2812809187122802,-1.0157011190997522,-0.2650850454913538
1708440575.3569655,-1.1060281991958618,-1.6814900837340296,-2.525731388722555,2.2813514906116943,-1.0156601111041468,-0.26510554948915654
1708440575.358992,-1.106040120124817,-1.681469579736227,-2.525764290486471,2.281285210246704,-1.0156424681292933,-0.2650983969317835
1708440575.3609574,-1.1060357093811035,-1.6814729175963343,-2.525714937840597,2.281301661128662,-1.0156438986407679,-0.26503163972963506
1708440575.3630166,-1.1060446500778198,-1.6815258465208949,-2.5257194677936,2.2812511163898925,-1.015667740498678,-0.26507741609682256
1708440575.365015,-1.10606849193573,-1.6814571819701136,-2.525731388722555,2.2812718588062744,-1.0156438986407679,-0.2650688330279749
1708440575.366982,-1.1060476303100586,-1.681481500665182,-2.5257774035083216,2.2813047605701904,-1.0156634489642542,-0.26513845125307256
1708440575.3689983,-1.106056571006775,-1.681469579736227,-2.525727097188131,2.2812718588062744,-1.015667740498678,-0.2651103178607386
1708440575.370954,-1.1060432195663452,-1.6815344295897425,-2.525747839604513,2.2812675672718505,-1.0156963507281702,-0.26515514055360967
1708440575.3729627,-1.106063961982727,-1.6814285717406214,-2.5257194677936,2.281289740199707,-1.015679661427633,-0.26510888734926397
1708440575.3749728,-1.1060221195220947,-1.6814609966673792,-2.525735680256979,2.2812763887592773,-1.0156720320331019,-0.2651436964618128
1708440575.3769865,-1.1060856580734253,-1.681465288201803,-2.5257194677936,2.2812511163898925,-1.0156720320331019,-0.26518518129457647
1708440575.3790178,-1.1060237884521484,-1.681493421594137,-2.5257225672351282,2.2812792497822265,-1.0156720320331019,-0.26518088976015264
1708440575.3809721,-1.10606849193573,-1.681465288201803,-2.5257390181170862,2.2812511163898925,-1.015688721333639,-0.2652090231524866
1708440575.382956,-1.10606849193573,-1.6814285717406214,-2.525703255330221,2.2813002306171875,-1.0156305472003382,-0.2651556173907679
1708440575.3849645,-1.1060729026794434,-1.681481500665182,-2.525735918675558,2.281289740199707,-1.0156586805926722,-0.26522857347597295
1708440575.386959,-1.1060490608215332,-1.6814443073668421,-2.525752131138937,2.2812675672718505,-1.01573354402651,-0.2652166525470179
1708440575.3889742,-1.1060357093811035,-1.681481500665182,-2.525714937840597,2.2812763887592773,-1.0156706015216272,-0.2651885191546839
1708440575.3909597,-1.106040120124817,-1.681469579736227,-2.525764290486471,2.281277819270752,-1.0156706015216272,-0.2652090231524866
1708440575.3929667,-1.1060611009597778,-1.6815020046629847,-2.525686804448263,2.2812837797352294,-1.0156963507281702,-0.26520044008363897
1708440575.3949695,-1.105995535850525,-1.6814571819701136,-2.525703255330221,2.28131811201062,-1.0156963507281702,-0.2652080694781702
1708440575.39697,-1.1060357093811035,-1.6814986668028773,-2.525731388722555,2.2812957006641845,-1.0156753698932093,-0.26516753831972295
1708440575.3990207,-1.106073021888733,-1.6814781628050746,-2.525714937840597,2.2812837797352294,-1.0156920591937464,-0.2651928106891077
1708440575.4009786,-1.106040120124817,-1.6814772091307582,-2.5257883707629603,2.2812928396412353,-1.0156930128680628,-0.26520044008363897
1708440575.4029658,-1.1060357093811035,-1.681437154809469,-2.5257402102099817,2.2812346655079345,-1.0156963507281702,-0.2652166525470179
1708440575.4049714,-1.1060431003570557,-1.6814900837340296,-2.5257194677936,2.2812346655079345,-1.015679661427633,-0.2652209440814417
1708440575.4069762,-1.1060267686843872,-1.6814857921996058,-2.525703255330221,2.2812837797352294,-1.015679661427633,-0.26519614854921514
1708440575.4090266,-1.106019377708435,-1.681493421594137,-2.52578050294985,2.2813262182423095,-1.0156877676593226,-0.2652033011065882
1708440575.4110162,-1.1060311794281006,-1.681465288201803,-2.525738779698507,2.2812718588062744,-1.0156787077533167,-0.2652242819415491
1708440575.4129899,-1.1060521602630615,-1.6814772091307582,-2.5256779829608362,2.2812627989002685,-1.015683952962057,-0.26519614854921514
1708440575.4149804,-1.106052041053772,-1.6815020046629847,-2.5257194677936,2.2812718588062744,-1.0157249609576624,-0.2651708761798304
1708440575.416985,-1.1060609817504883,-1.6815020046629847,-2.5257063547717493,2.2812837797352294,-1.0156706015216272,-0.26522857347597295
1708440575.4190426,-1.1060311794281006,-1.6815105877318324,-2.525764290486471,2.2812809187122802,-1.0157459417926233,-0.26522523561586553
1708440575.4209971,-1.1060595512390137,-1.6814729175963343,-2.525764290486471,2.2813002306171875,-1.0157249609576624,-0.2652166525470179
1708440575.4230418,-1.1060312986373901,-1.681448598901266,-2.52578050294985,2.2813262182423095,-1.0157039801227015,-0.2651870886432093
1708440575.4249861,-1.1060765981674194,-1.681493421594137,-2.52574330965151,2.2812256056019287,-1.015738312398092,-0.26521236101259404
1708440575.426999,-1.1060281991958618,-1.6814457378783167,-2.525776211415426,2.281309052104614,-1.0157201925860804,-0.2652328650103968
1708440575.4290211,-1.1060118675231934,-1.681469579736227,-2.5257344881640833,2.2812840181538085,-1.0157411734210413,-0.2652371565448206
1708440575.4309766,-1.1060283184051514,-1.6815148792662562,-2.5257137457477015,2.281264467830322,-1.0157039801227015,-0.2652328650103968
1708440575.4330065,-1.106056571006775,-1.681497713128561,-2.5257237593280237,2.2812911707111816,-1.0157201925860804,-0.26524192491640264
1708440575.4349723,-1.1060312986373901,-1.6814772091307582,-2.525731388722555,2.2812747198292236,-1.0157201925860804,-0.26525813737978154
1708440575.4369705,-1.1059939861297607,-1.6814857921996058,-2.525727097188131,2.2813126283833007,-1.0157278219806116,-0.26521236101259404
1708440575.439009,-1.1060357093811035,-1.681469579736227,-2.5257554689990442,2.2812747198292236,-1.0157726446734827,-0.2652319113360804
1708440575.440975,-1.1060357093811035,-1.6814686260619105,-2.5257731119738978,2.2812928396412353,-1.015686337147848,-0.26522857347597295
1708440575.4429862,-1.1060312986373901,-1.681465288201803,-2.5256899038897913,2.2812911707111816,-1.0157635847674769,-0.2652362028705042
1708440575.4449606,-1.1060476303100586,-1.681552072564596,-2.525735680256979,2.2813002306171875,-1.015759293233053,-0.26526147523988897
1708440575.446968,-1.1060640811920166,-1.6814772091307582,-2.5257018248187464,2.2813173967548828,-1.0157635847674769,-0.2652362028705042
1708440575.4489985,-1.1060385704040527,-1.681465288201803,-2.525735680256979,2.281341000194214,-1.0158088842975062,-0.26521522203554326
1708440575.4510112,-1.1060476303100586,-1.681497713128561,-2.525764290486471,2.2812701898762207,-1.0157964865313929,-0.2652781645404261
1708440575.45301,-1.106040120124817,-1.6814567051329554,-2.525710646306173,2.2813290792652587,-1.0157759825335901,-0.26521093050111944
1708440575.4549987,-1.106002926826477,-1.681481500665182,-2.525764290486471,2.2813290792652587,-1.015825096760885,-0.2652691046344202
1708440575.4569867,-1.1060402393341064,-1.681497713128561,-2.5257390181170862,2.2812821108051757,-1.0157831350909632,-0.2652781645404261
1708440575.4590328,-1.1059939861297607,-1.6814528904356898,-2.525735680256979,2.2813781934925537,-1.0158160368548792,-0.26521093050111944
1708440575.460973,-1.1059865951538086,-1.6814328632750453,-2.525710646306173,2.281324549312256,-1.0157964865313929,-0.2652972380267542
1708440575.4630082,-1.1060549020767212,-1.6815062961974085,-2.525738779698507,2.2813350397297363,-1.0157955328570765,-0.2652781645404261
1708440575.4650228,-1.106056571006775,-1.681465288201803,-2.525759760533468,2.281376762981079,-1.0157583395587366,-0.26527387300600225
1708440575.4669914,-1.1060549020767212,-1.6814443073668421,-2.5257847944842737,2.281381054515503,-1.0157783667193812,-0.2652648130999964
1708440575.4689794,-1.1060057878494263,-1.6815139255919398,-2.525776211415426,2.2814294534870605,-1.0158327261554163,-0.2652066389666956
1708440575.470974,-1.1060357093811035,-1.6814943752684535,-2.525738779698507,2.2813877302357177,-1.0158088842975062,-0.2652228514300745
1708440575.4729881,-1.1060431003570557,-1.681493421594137,-2.525727097188131,2.2814323145100097,-1.015787426625387,-0.26528865495790654
1708440575.474979,-1.1060221195220947,-1.681469579736227,-2.525731388722555,2.2814695078083496,-1.0157955328570765,-0.26524383226503545
1708440575.4769697,-1.1060640811920166,-1.6815020046629847,-2.525731388722555,2.2814740377613525,-1.0157583395587366,-0.26525623003114873
1708440575.4789653,-1.10606849193573,-1.6814614735045375,-2.525764290486471,2.2814158636280517,-1.0158236662494105,-0.2652648130999964
1708440575.4809575,-1.1060774326324463,-1.6815062961974085,-2.525747601185934,2.2814814287373046,-1.0157831350909632,-0.2652972380267542
1708440575.4830034,-1.1060175895690918,-1.6815268001952113,-2.5257554689990442,2.2814487653919677,-1.015841309224264,-0.2653005758868616
1708440575.485005,-1.106083869934082,-1.681481500665182,-2.5257511774646204,2.2814158636280517,-1.0158160368548792,-0.2653139273272913
1708440575.4869812,-1.1060521602630615,-1.6814242802061976,-2.525714937840597,2.2814368444630126,-1.0158398787127894,-0.2652629057513636
1708440575.4889812,-1.1060431003570557,-1.681420465508932,-2.525759998952047,2.2814039426990966,-1.0157583395587366,-0.26528865495790654
1708440575.4909723,-1.1060221195220947,-1.6814781628050746,-2.5257554689990442,2.2814530569263916,-1.0158327261554163,-0.2652671972857874
1708440575.4929962,-1.1060595512390137,-1.681448598901266,-2.52574330965151,2.2814740377613525,-1.0158327261554163,-0.2652843634234827
1708440575.4949794,-1.1060357093811035,-1.681448598901266,-2.525764290486471,2.281444235438965,-1.0158517996417444,-0.2653005758868616
1708440575.4969807,-1.106092929840088,-1.681420465508932,-2.52574330965151,2.2814530569263916,-1.0157864729510706,-0.26533300081361944
1708440575.4989967,-1.1060267686843872,-1.681437154809469,-2.5257838408099573,2.2814487653919677,-1.0158398787127894,-0.26530486742128545
1708440575.5010123,-1.1060595512390137,-1.6815182171263636,-2.5257137457477015,2.281399651164673,-1.0157941023456019,-0.2653096357928675
1708440575.5030494,-1.1060357093811035,-1.681493421594137,-2.525738779698507,2.281423254604004,-1.0157864729510706,-0.2653096357928675
1708440575.505008,-1.1060432195663452,-1.6814900837340296,-2.5257344881640833,2.2814978796192626,-1.0157983938800257,-0.26527530351747686
1708440575.5070043,-1.1061018705368042,-1.681509634057516,-2.525771681462423,2.2814084726520996,-1.0158146063434046,-0.26529199281801397
1708440575.5090067,-1.106063961982727,-1.6815182171263636,-2.5257630983935755,2.2814368444630126,-1.0158355871783655,-0.2653258482562464
1708440575.5109897,-1.1060057878494263,-1.681465288201803,-2.525727097188131,2.2814411359974365,-1.0158026854144495,-0.2653582731830042
1708440575.5130215,-1.1060384511947632,-1.6814738712706507,-2.5257840792285364,2.2814814287373046,-1.0158355871783655,-0.2652843634234827
1708440575.515007,-1.1060177087783813,-1.6814943752684535,-2.525759760533468,2.2814411359974365,-1.0158517996417444,-0.2653244177447718
1708440575.5170448,-1.1060729026794434,-1.6814609966673792,-2.525792662297384,2.2814649778553466,-1.01585561433901,-0.26532155672182256
1708440575.5190074,-1.1059893369674683,-1.6815139255919398,-2.525738779698507,2.281423493022583,-1.0158265272723597,-0.26534969011415654
1708440575.521035,-1.106052041053772,-1.6815148792662562,-2.5257344881640833,2.2814904886433105,-1.0158804098712366,-0.2652829329120081
1708440575.5230346,-1.1060432195663452,-1.681465288201803,-2.5257301966296595,2.281439705485962,-1.0158446470843714,-0.26534969011415654
1708440575.5250187,-1.1059849262237549,-1.6814571819701136,-2.5257466475116175,2.2814084726520996,-1.0158432165728968,-0.26532012621034795
1708440575.5270212,-1.106040120124817,-1.6814161739745082,-2.5258167425738733,2.281442566508911,-1.0158475081073206,-0.2653082052813929
1708440575.5290425,-1.1060357093811035,-1.681448598901266,-2.5257883707629603,2.281444235438965,-1.0158689657794397,-0.26527101198305303
1708440575.5309722,-1.10606849193573,-1.6814567051329554,-2.525792900715963,2.2814368444630126,-1.0158599058734339,-0.2653449217425745
1708440575.533002,-1.1060774326324463,-1.681420465508932,-2.5257673899279993,2.281447096461914,-1.0158432165728968,-0.2653244177447718
1708440575.5349994,-1.1060765981674194,-1.6814772091307582,-2.525747601185934,2.281439705485962,-1.0158713499652308,-0.2653124968158167
1708440575.5369825,-1.1060476303100586,-1.6814729175963343,-2.52578050294985,2.2814532953449707,-1.0158970991717737,-0.2653539816485804
1708440575.5389907,-1.1060296297073364,-1.6814571819701136,-2.5257795492755335,2.2814487653919677,-1.0158384482013147,-0.2652795950519007
1708440575.5409672,-1.1060221195220947,-1.6814891300597132,-2.5257554689990442,2.2813874918171386,-1.0159371534930628,-0.26530391374696904
1708440575.5430157,-1.1060357093811035,-1.6814567051329554,-2.525797192250387,2.2814487653919677,-1.01585561433901,-0.265357796345846
1708440575.544959,-1.1060521602630615,-1.6814443073668421,-2.5257630983935755,2.2814158636280517,-1.015883747731344,-0.26532012621034795
1708440575.546989,-1.1060476303100586,-1.681441446343893,-2.5257960001574915,2.281439705485962,-1.015911881123678,-0.26535302797426397
1708440575.5489848,-1.106071949005127,-1.6814285717406214,-2.5257466475116175,2.281423493022583,-1.0158422628985804,-0.265299145375387
1708440575.5509748,-1.1060340404510498,-1.681481500665182,-2.525759760533468,2.281411333675049,-1.0159209410296839,-0.2653110663043421
1708440575.5530074,-1.1060312986373901,-1.6814738712706507,-2.525771681462423,2.281435175532959,-1.015895191823141,-0.2652948538409632
1708440575.5549722,-1.1060267686843872,-1.6815139255919398,-2.5258284250842493,2.281411572093628,-1.015890900288717,-0.2654059568988245
1708440575.557,-1.1060899496078491,-1.6815105877318324,-2.525759760533468,2.281386299724243,-1.015886131917135,-0.26533204713930303
1708440575.5589957,-1.1060340404510498,-1.6814199886717738,-2.525792662297384,2.281430883998535,-1.015886131917135,-0.2653768698321741
1708440575.5609963,-1.1060221195220947,-1.681497713128561,-2.5257795492755335,2.281402512187622,-1.0159032980548304,-0.26536876360048467
1708440575.5630085,-1.1060432195663452,-1.6814457378783167,-2.5257628599749964,2.2814487653919677,-1.0158775488482874,-0.2653558889972132
1708440575.5649874,-1.1060357093811035,-1.6814900837340296,-2.5258122126208704,2.2814695078083496,-1.015890900288717,-0.26534873643984014
1708440575.566995,-1.1060192584991455,-1.6814943752684535,-2.5257960001574915,2.2814487653919677,-1.0159567038165491,-0.26532298723329717
1708440575.5689778,-1.1060357093811035,-1.6815105877318324,-2.5257225672351282,2.2814859586903076,-1.015923802052633,-0.2653768698321741
1708440575.5709698,-1.1060192584991455,-1.681465288201803,-2.5258002916919153,2.281427784557007,-1.0159896055804651,-0.2653558889972132
1708440575.572991,-1.1060882806777954,-1.681481500665182,-2.5257750193225306,2.2814487653919677,-1.015886131917135,-0.26535159746278936
1708440575.5750418,-1.1060267686843872,-1.6814900837340296,-2.5258002916919153,2.2814203935810546,-1.0159314314471644,-0.265327278767721
1708440575.576996,-1.1060476303100586,-1.6815148792662562,-2.5258079210864466,2.2814158636280517,-1.015972916279928,-0.265327278767721
1708440575.579005,-1.1060104370117188,-1.681465288201803,-2.5257707277881067,2.2814487653919677,-1.015923802052633,-0.2653926054583948
1708440575.5809712,-1.106052041053772,-1.6814943752684535,-2.5258122126208704,2.281439705485962,-1.0159390608416956,-0.2654183546649378
1708440575.5829945,-1.1060385704040527,-1.6814824543394984,-2.5258122126208704,2.2814323145100097,-1.0159524122821253,-0.2653558889972132
1708440575.5849733,-1.1060385704040527,-1.6814528904356898,-2.5257869402514856,2.281407042140625,-1.0159314314471644,-0.26533538499941045
1708440575.5870173,-1.1060504913330078,-1.6815062961974085,-2.5258737246142786,2.281402512187622,-1.0159595648394983,-0.2653558889972132
1708440575.5890062,-1.1060221195220947,-1.681469579736227,-2.5258353392230433,2.281414433116577,-1.0159433523761194,-0.26539737382997686
1708440575.5909755,-1.1060521602630615,-1.681448598901266,-2.525855843220846,2.2814323145100097,-1.0159714857684534,-0.26536399522890264
1708440575.592987,-1.1060765981674194,-1.681481500665182,-2.525884215031759,2.2814158636280517,-1.0159300009356897,-0.26541215578188115
1708440575.5949733,-1.1060729026794434,-1.6814781628050746,-2.5258830229388636,2.281386299724243,-1.0159671942340296,-0.26540977159609014
1708440575.5970094,-1.1060503721237183,-1.6814729175963343,-2.5259161631213587,2.2814695078083496,-1.0159538427936,-0.26539642015566045
1708440575.5990038,-1.1060765981674194,-1.6814891300597132,-2.5258947054492396,2.28145615636792,-1.0159629026996058,-0.26541215578188115
1708440575.6009924,-1.1060521602630615,-1.6814900837340296,-2.5259278456317347,2.28145615636792,-1.0159342924701136,-0.26539642015566045
1708440575.602993,-1.106067419052124,-1.681437154809469,-2.5259278456317347,2.281383200282715,-1.0159714857684534,-0.2654455343829554
1708440575.605015,-1.1060675382614136,-1.681420465508932,-2.5259411970721644,2.281383200282715,-1.0159762541400355,-0.2654646078692835
1708440575.6070168,-1.1060221195220947,-1.681420465508932,-2.525907341633932,2.281427784557007,-1.0159791151629847,-0.2654307524310511
1708440575.609011,-1.1060855388641357,-1.6814567051329554,-2.525907341633932,2.281444235438965,-1.0159671942340296,-0.26544696489443
1708440575.6109917,-1.106052041053772,-1.6814614735045375,-2.5259104410754603,2.2814649778553466,-1.0159595648394983,-0.2654355208026331
1708440575.6130223,-1.1060595512390137,-1.6814528904356898,-2.5259278456317347,2.281444235438965,-1.0159748236285608,-0.2654760519610804
1708440575.6150322,-1.1060340404510498,-1.6814657650389613,-2.525935475026266,2.2814649778553466,-1.0159581343280237,-0.26549989381899053
1708440575.617017,-1.1060312986373901,-1.6814857921996058,-2.525947395955221,2.2814203935810546,-1.0159958044635218,-0.265512768422262
1708440575.61899,-1.1060267686843872,-1.6814528904356898,-2.525947395955221,2.28141896306958,-1.0160377661334437,-0.26551992097963506
1708440575.6209683,-1.106056571006775,-1.6814567051329554,-2.5259843508349817,2.281460686320923,-1.0160167852984827,-0.2654803434955042
1708440575.6229985,-1.1060012578964233,-1.6814943752684535,-2.525980059300558,2.281435413951538,-1.0159791151629847,-0.265512768422262
1708440575.6249847,-1.106071949005127,-1.6814528904356898,-2.5258896986590784,2.2814530569263916,-1.0160406271563929,-0.2654784361468714
1708440575.6269891,-1.1060385704040527,-1.6814247570433558,-2.525980059300558,2.2815021711536865,-1.0160124937640589,-0.2654960791217249
1708440575.6289911,-1.1060974597930908,-1.681420465508932,-2.5259385744677942,2.2814530569263916,-1.0160406271563929,-0.2655695120440882
1708440575.6309586,-1.1060595512390137,-1.6814614735045375,-2.5259061495410364,2.281423493022583,-1.016043488179342,-0.26551753679384404
1708440575.6329803,-1.1060432195663452,-1.6814400158324183,-2.525971237813131,2.2814814287373046,-1.0160272757159632,-0.2655413786517542
1708440575.6349688,-1.1060810089111328,-1.681420465508932,-2.5259562174426478,2.2814368444630126,-1.0160720984088343,-0.2654832045184534
1708440575.6369581,-1.1060810089111328,-1.681437154809469,-2.525947395955221,2.281439705485962,-1.0160916487323206,-0.2655370871173304
1708440575.638975,-1.1060765981674194,-1.6815029583373011,-2.5259636084186,2.281435413951538,-1.0160496870623987,-0.2655532995807093
1708440575.6409855,-1.1060504913330078,-1.681441446343893,-2.5258896986590784,2.281423493022583,-1.0161364714251917,-0.2655575911151331
1708440575.642973,-1.1060640811920166,-1.6814500294127406,-2.5259888807879847,2.2814323145100097,-1.0160496870623987,-0.2654951254474085
1708440575.6449642,-1.1059820652008057,-1.6814443073668421,-2.5259550253497522,2.281472607249878,-1.0160916487323206,-0.2655280272113245
1708440575.6469657,-1.10606849193573,-1.6814657650389613,-2.525992218648092,2.281460686320923,-1.0161083380328577,-0.2655237356769007
1708440575.6489923,-1.1060675382614136,-1.6815029583373011,-2.525971237813131,2.281472607249878,-1.016094986592428,-0.2655442396747034
1708440575.6509876,-1.106109380722046,-1.6814900837340296,-2.525947395955221,2.281444235438965,-1.0160377661334437,-0.26553565660585576
1708440575.6530004,-1.1060810089111328,-1.6814772091307582,-2.5259297529803675,2.281423254604004,-1.0161035696612757,-0.26554757753481084
1708440575.6549947,-1.1060221195220947,-1.6814290485777796,-2.5259385744677942,2.281414433116577,-1.0160711447345179,-0.2655561606036585
1708440575.6569874,-1.10610032081604,-1.6814171276488246,-2.525971237813131,2.2814249235340576,-1.0160797278033655,-0.2655561606036585
1708440575.6589742,-1.1060630083084106,-1.681481500665182,-2.5259879271136683,2.28141896306958,-1.0160711447345179,-0.265510384236471
1708440575.6609716,-1.1060974597930908,-1.6814609966673792,-2.525959316884176,2.281423254604004,-1.0160992781268519,-0.26555186906923467
1708440575.6629817,-1.1060595512390137,-1.681420465508932,-2.5259996096240442,2.28145615636792,-1.0161202589618128,-0.2656205336200159
1708440575.664986,-1.1060431003570557,-1.6814457378783167,-2.5259385744677942,2.2814933496662597,-1.016083065663473,-0.2655757109271448
1708440575.6670122,-1.1060385704040527,-1.6814457378783167,-2.526025120412008,2.281477137202881,-1.0161483923541468,-0.2655733267413538
1708440575.668978,-1.1060357093811035,-1.681404253045553,-2.525975529347555,2.281472607249878,-1.0161140600787562,-0.2656038443194788
1708440575.6709616,-1.1060221195220947,-1.681481500665182,-2.525980059300558,2.281451626414917,-1.0161007086383265,-0.2656162420855921
1708440575.6729991,-1.1060549020767212,-1.6814738712706507,-2.5259385744677942,2.2815236288258056,-1.016167942677633,-0.2655876318560999
1708440575.6749618,-1.1060765981674194,-1.6814657650389613,-2.525947395955221,2.281411333675049,-1.0161469618426722,-0.2656777540790003
1708440575.6769638,-1.1060855388641357,-1.6815344295897425,-2.5259667078601282,2.28145615636792,-1.0161884466754358,-0.265599552785055
1708440575.678986,-1.1060357093811035,-1.6814781628050746,-2.5259581247912806,2.2814368444630126,-1.0161469618426722,-0.2655876318560999
1708440575.6809478,-1.1060385704040527,-1.6814528904356898,-2.5259998480426233,2.281423493022583,-1.016172234212057,-0.2655876318560999
1708440575.6830235,-1.1060296297073364,-1.6814614735045375,-2.525971237813131,2.28141896306958,-1.0161798636065882,-0.26562768617738897
1708440575.6850004,-1.1060503721237183,-1.6814528904356898,-2.526020590459005,2.28145615636792,-1.0161798636065882,-0.26565581956972295
1708440575.6870291,-1.1060974597930908,-1.6814781628050746,-2.526029411946432,2.28145615636792,-1.0161498228656214,-0.26561195055116826
1708440575.689001,-1.1061137914657593,-1.681437154809469,-2.5259702841388147,2.2814323145100097,-1.0161665121661585,-0.2656443754779261
1708440575.6909792,-1.1060402393341064,-1.6814824543394984,-2.5259910265551966,2.2814783292957763,-1.0161903540240687,-0.2656191031085413
1708440575.6929905,-1.10606849193573,-1.6814247570433558,-2.526004139577047,2.281460686320923,-1.0161832014666956,-0.26570111909975225
1708440575.6949751,-1.1060811281204224,-1.6815139255919398,-2.5260282198535364,2.281407042140625,-1.0161874930011194,-0.2656772772418421
1708440575.69698,-1.106071949005127,-1.681481500665182,-2.526043478642599,2.2814904886433105,-1.0161741415606897,-0.26565581956972295
1708440575.6990194,-1.1060476303100586,-1.681408544579977,-2.5259745756732386,2.281468077296875,-1.0161855856524866,-0.2656672636615198
1708440575.7010157,-1.106056571006775,-1.681441446343893,-2.525994364415304,2.2814814287373046,-1.0161789099322718,-0.26564294496645147
1708440575.7030091,-1.1060028076171875,-1.6813951931395472,-2.525994364415304,2.281430883998535,-1.0161832014666956,-0.2656639258014124
1708440575.7049837,-1.1060432195663452,-1.6814614735045375,-2.52598220506777,2.2814203935810546,-1.0162161032306116,-0.26570398012270147
1708440575.7069821,-1.106052041053772,-1.6814528904356898,-2.5260477701770228,2.2814368444630126,-1.0161293188678187,-0.26569110551943
1708440575.7090194,-1.1060765981674194,-1.6813966236510218,-2.526059691105978,2.281475468272827,-1.0161741415606897,-0.2657116095172327
1708440575.7109833,-1.1060267686843872,-1.6814333401122035,-2.526059691105978,2.2814664083668212,-1.0162113348590296,-0.2656672636615198
1708440575.7129915,-1.1060974597930908,-1.6814772091307582,-2.5260465780841272,2.2814695078083496,-1.0161898771869105,-0.2657354513751429
1708440575.7150018,-1.1060057878494263,-1.681469579736227,-2.526067558919088,2.281510515803955,-1.0162113348590296,-0.26574451128114873
1708440575.7170272,-1.1060810089111328,-1.6814781628050746,-2.526076380406515,2.281451626414917,-1.0161903540240687,-0.2657225767718714
1708440575.719056,-1.1060311794281006,-1.6814543209471644,-2.526076380406515,2.281407042140625,-1.0161903540240687,-0.2657392660724085
1708440575.7210157,-1.1060177087783813,-1.6814290485777796,-2.5260303656207483,2.281439705485962,-1.0162351767169397,-0.2657225767718714
1708440575.7230566,-1.1060765981674194,-1.6814247570433558,-2.5260632673846644,2.2814487653919677,-1.0162518660174769,-0.2657583395587366
1708440575.725029,-1.1060765981674194,-1.6814657650389613,-2.526104513798849,2.2814768987843017,-1.0162628332721155,-0.26573497453798467
1708440575.7270408,-1.106052041053772,-1.6814328632750453,-2.526055399571554,2.2814575868793945,-1.016308609639303,-0.2657831350909632
1708440575.7290194,-1.1060385704040527,-1.6814328632750453,-2.526092592869894,2.281439705485962,-1.01628286043276,-0.2658327261554163
1708440575.7309985,-1.1060402393341064,-1.6814571819701136,-2.526067558919088,2.2814978796192626,-1.0163400808917444,-0.2657869497882288
1708440575.7330406,-1.1060402393341064,-1.6814528904356898,-2.5260914007769983,2.281444235438965,-1.0163357893573206,-0.2658475081073206
1708440575.7349718,-1.10606849193573,-1.6814857921996058,-2.526109043751852,2.2815024095722656,-1.0163357893573206,-0.26581079164613897
1708440575.7369583,-1.1060521602630615,-1.6814457378783167,-2.526095692311422,2.281427784557007,-1.0163429419146937,-0.2658312956439417
1708440575.7389882,-1.1060549020767212,-1.681465288201803,-2.5261076132403772,2.2814487653919677,-1.01630145708193,-0.26585561433901006
1708440575.7409863,-1.1060765981674194,-1.6814528904356898,-2.5260871092425745,2.281472607249878,-1.0163310209857386,-0.26585132280458623
1708440575.7429688,-1.1060267686843872,-1.6814857921996058,-2.5260914007769983,2.2814695078083496,-1.016322437916891,-0.2658751646624964
1708440575.7449574,-1.1060192584991455,-1.681469579736227,-2.526104513798849,2.281430883998535,-1.016329590474264,-0.26586610475649053
1708440575.74697,-1.1060855388641357,-1.6814571819701136,-2.526100222264425,2.281411572093628,-1.0163787047015589,-0.2659643332110804
1708440575.7490125,-1.1060175895690918,-1.6814857921996058,-2.5261195341693323,2.2815021711536865,-1.0163176695453089,-0.2659509817706507
1708440575.7510593,-1.1060595512390137,-1.6815668545165003,-2.5261195341693323,2.2814768987843017,-1.0163877646075647,-0.26595861116518194
1708440575.7530305,-1.106056571006775,-1.6815601787962855,-2.5260782877551478,2.281427784557007,-1.016412083302633,-0.2660449186908167
1708440575.7550337,-1.105986475944519,-1.6814900837340296,-2.52611214319338,2.281460686320923,-1.0163701216327112,-0.26601869264711553
1708440575.7570693,-1.1060611009597778,-1.6814614735045375,-2.5260990301715296,2.281407042140625,-1.0163701216327112,-0.2660587469684046
1708440575.7589793,-1.1060357093811035,-1.6815029583373011,-2.5261197725879114,2.281460686320923,-1.016341511403219,-0.2660587469684046
1708440575.7610614,-1.1060118675231934,-1.681469579736227,-2.5261359850512903,2.281472607249878,-1.016374413167135,-0.2660906950580042
1708440575.7629988,-1.1059664487838745,-1.6814781628050746,-2.5261314550982874,2.281427784557007,-1.0164197126971644,-0.2661355177508753
1708440575.7649934,-1.1060163974761963,-1.6814614735045375,-2.5261064211474817,2.281447334880493,-1.0163701216327112,-0.26614600816835576
1708440575.7670088,-1.1060118675231934,-1.6814738712706507,-2.5260945002185267,2.281460686320923,-1.0164359251605433,-0.2662399450885218
1708440575.7690852,-1.1060044765472412,-1.6814900837340296,-2.52614409128298,2.2814368444630126,-1.0164063612567347,-0.26623565355409795
1708440575.7710028,-1.1059801578521729,-1.6814247570433558,-2.526139561329977,2.2814530569263916,-1.0164554754840296,-0.26623803773988897
1708440575.7729814,-1.1059999465942383,-1.681481500665182,-2.5261314550982874,2.28139512121167,-1.0163853804217737,-0.2662742773639124
1708440575.7749624,-1.1060118675231934,-1.681448598901266,-2.5261152426349085,2.2815021711536865,-1.0164182821856897,-0.2663028875934046
1708440575.7769814,-1.105959177017212,-1.6814524135985316,-2.5261109511004847,2.281407042140625,-1.0164344946490687,-0.26635915437807256
1708440575.7789915,-1.10597562789917,-1.681493421594137,-2.5261557737933558,2.2814532953449707,-1.016454044972555,-0.2663539091693323
1708440575.7809658,-1.1060017347335815,-1.681509634057516,-2.5261152426349085,2.281374140376709,-1.0164287726031702,-0.2663610617267054
1708440575.7830434,-1.1059263944625854,-1.6814524135985316,-2.5261767546283167,2.2813877302357177,-1.0164583365069788,-0.26643401781191045
1708440575.7849622,-1.1059308052062988,-1.6814857921996058,-2.5262015501605433,2.2814039426990966,-1.016461197529928,-0.2664702574359339
1708440575.7869787,-1.1059398651123047,-1.6814848385252894,-2.5261314550982874,2.2814323145100097,-1.016503636037008,-0.26649409929384404
1708440575.788977,-1.1059445142745972,-1.6815258465208949,-2.5261603037463587,2.2813874918171386,-1.016486946736471,-0.26658708253969365
1708440575.790971,-1.1059446334838867,-1.6814729175963343,-2.526147190724508,2.2814456659504394,-1.016498867665426,-0.2665613333331507
1708440575.7929792,-1.1059534549713135,-1.6814400158324183,-2.526139561329977,2.2813965517231445,-1.0164931456195276,-0.26657182375063115
1708440575.7949548,-1.1059064865112305,-1.6814528904356898,-2.5261381308185022,2.2813796240040283,-1.0165508429156702,-0.26669055620302373
1708440575.7969856,-1.105933666229248,-1.6814772091307582,-2.5261545817004603,2.2813705640980224,-1.0165260473834437,-0.2666857878314417
1708440575.7989807,-1.1059246063232422,-1.681509634057516,-2.526151482258932,2.2813920217701416,-1.0165227095233362,-0.26675731340517217
1708440575.801045,-1.105865716934204,-1.6815511188902796,-2.526187245045797,2.2814010816761474,-1.0165422598468226,-0.26685887971986944
1708440575.8029852,-1.1058837175369263,-1.6814805469908656,-2.5261665026294153,2.281372233028076,-1.0164931456195276,-0.26686078706850225
1708440575.805013,-1.1058628559112549,-1.6814729175963343,-2.526175324116842,2.281388683910034,-1.0165675322162073,-0.2669623533831995
1708440575.8070202,-1.1058763265609741,-1.6814848385252894,-2.526220146809713,2.281372233028076,-1.0165465513812464,-0.26698381105531865
1708440575.808982,-1.1057898998260498,-1.6815468273558558,-2.5261946360217493,2.281331940288208,-1.0165746847735804,-0.2670357863055628
1708440575.8109918,-1.1057862043380737,-1.6814152203001917,-2.5262368361102503,2.2813665109821777,-1.016594711934225,-0.2671282927142542
1708440575.8129897,-1.1057533025741577,-1.6814967594542445,-2.5262070337878626,2.2812957006641845,-1.0166152159320276,-0.2671883741961878
1708440575.8149738,-1.105771541595459,-1.6815296612181605,-2.5261784235583704,2.281324549312256,-1.016552750264303,-0.2672355810748499
1708440575.8170187,-1.105759620666504,-1.6815749607481898,-2.5261903444873255,2.2812957006641845,-1.0166109243976038,-0.2673724333392542
1708440575.8190043,-1.1057193279266357,-1.6815010509886683,-2.5261903444873255,2.2812599378773193,-1.016651455556051,-0.26748878160585576
1708440575.8209913,-1.105759620666504,-1.6815210781493128,-2.526203457509176,2.281252546901367,-1.0166423956500452,-0.26753122011293584
1708440575.8229852,-1.105690360069275,-1.6815773449339808,-2.5261903444873255,2.281224175090454,-1.0166543165790003,-0.2676594893084925
1708440575.824961,-1.1056830883026123,-1.6815577946104945,-2.5262396971331995,2.281216784114502,-1.0166543165790003,-0.26776010194887334
1708440575.8270004,-1.1056830883026123,-1.6815577946104945,-2.5262635389911097,2.2812043863483886,-1.0166834036456507,-0.26780778566469365
1708440575.828972,-1.1056429147720337,-1.681650301019186,-2.5262354055987757,2.2812303739735107,-1.0166900793658655,-0.2679231802569788
1708440575.8309586,-1.1056699752807617,-1.681584974328512,-2.5262680689441126,2.281111403102539,-1.0167024771319788,-0.2680872122394007
1708440575.8330328,-1.105582594871521,-1.6816264591612757,-2.5262354055987757,2.281132860774658,-1.0166743437396448,-0.2681506315814417
1708440575.834952,-1.1055724620819092,-1.6816054783263148,-2.5262308756457728,2.281137390727661,-1.0166743437396448,-0.26829559007753545
1708440575.836991,-1.1055707931518555,-1.6816250286498011,-2.526238505040304,2.281043215388916,-1.016698185597555,-0.26843434969057256
1708440575.8389673,-1.1055470705032349,-1.6816450558104457,-2.5262561480151575,2.2810773092457275,-1.0166938940631312,-0.26858216920961553
1708440575.84098,-1.1055532693862915,-1.6816050014891566,-2.526205841694967,2.28101555883374,-1.0166891256915491,-0.26870710054506475
1708440575.842977,-1.1054658889770508,-1.6816770039000453,-2.526280228291647,2.2810324865528564,-1.016719166432516,-0.26885778108705694
1708440575.8449442,-1.1054658889770508,-1.681674142877096,-2.526250425969259,2.280988855952881,-1.016726318989889,-0.2689579168902796
1708440575.846977,-1.1054705381393433,-1.6816612682738246,-2.526250425969259,2.2809695440479736,-1.0167220274554651,-0.26910478273500615
1708440575.848977,-1.1054974794387817,-1.681704660455221,-2.526275698338644,2.280944271678589,-1.0167458693133753,-0.26924020448793584
1708440575.850994,-1.105451226234436,-1.68165983776235,-2.5262954870807093,2.2809032636829834,-1.0167220274554651,-0.2694051901446741
1708440575.8530147,-1.1054069995880127,-1.681680818597311,-2.526283327733175,2.280924006099365,-1.0166924635516565,-0.26954728761781865
1708440575.8549862,-1.105440616607666,-1.6817218265929164,-2.526336971913473,2.280878944987915,-1.016738239918844,-0.26967078844179326
1708440575.8570144,-1.1053876876831055,-1.6817370853819789,-2.5262866655932825,2.280892534846924,-1.0167697111712855,-0.2698586622821253
1708440575.8589928,-1.1053593158721924,-1.6817003689207972,-2.526278797780172,2.2809013563343505,-1.0167620817767542,-0.27006370226015264
1708440575.860995,-1.1053638458251953,-1.6817370853819789,-2.526316229497091,2.2808443742939453,-1.0167296568499964,-0.27021485963930303
1708440575.863004,-1.105302095413208,-1.6818014583983363,-2.5262823740588587,2.280857725734375,-1.0167534987079065,-0.2703746000873011
1708440575.8649912,-1.105339527130127,-1.6817366085448207,-2.526283327733175,2.280787869090698,-1.0167606512652796,-0.2705467383014124
1708440575.8670785,-1.105247139930725,-1.6817647419371546,-2.5263400713550013,2.2807394701191406,-1.0167978445636194,-0.27070504823793584
1708440575.8689976,-1.1052390336990356,-1.6817800007262171,-2.526344362889425,2.2807819086262207,-1.0168059507953089,-0.2708981672870081
1708440575.870966,-1.105247139930725,-1.6818014583983363,-2.5263312498675745,2.2807530599781494,-1.0168312231646937,-0.27105981508363897
1708440575.8729742,-1.105231761932373,-1.6818376980223597,-2.5262823740588587,2.280712767238281,-1.0168340841876429,-0.27128869691957647
1708440575.8749716,-1.1051632165908813,-1.6818376980223597,-2.5263236204730433,2.2807246881672363,-1.016838852559225,-0.2714350859271448
1708440575.8769765,-1.1051795482635498,-1.6818615398802699,-2.5263400713550013,2.280705376262329,-1.0168135801898401,-0.2716477552997034
1708440575.8789985,-1.1051461696624756,-1.681857248345846,-2.5263474623309534,2.280693455333374,-1.0168135801898401,-0.2719000021563929
1708440575.8809633,-1.1051075458526611,-1.6819058857359828,-2.5263031164752405,2.2806779581257324,-1.0168045202838343,-0.272069279347555
1708440575.8830545,-1.1050866842269897,-1.6819340191283167,-2.5263193289386194,2.2806123930164794,-1.0168612639056605,-0.27229386964906865
1708440575.884947,-1.1050792932510376,-1.6818725071349085,-2.5263355414019983,2.2805678087421875,-1.0168612639056605,-0.2724974791156214
1708440575.8869643,-1.1050474643707275,-1.6819340191283167,-2.5263105074511927,2.280618591899536,-1.0168612639056605,-0.27276927629579717
1708440575.888989,-1.1050281524658203,-1.6819168529906214,-2.5262942949878138,2.2805775839039306,-1.016890827809469,-0.272956673298971
1708440575.8909419,-1.1050899028778076,-1.6819483242430628,-2.5263312498675745,2.2805494505115966,-1.0168078581439417,-0.27319175401796514
1708440575.8929687,-1.1050162315368652,-1.6819483242430628,-2.5263105074511927,2.2805284696766357,-1.0168374220477503,-0.27342349687685186
1708440575.8949468,-1.1049789190292358,-1.6819569073119105,-2.5263598600970667,2.280512257213257,-1.0168731848346155,-0.27363282838930303
1708440575.8969724,-1.1049708127975464,-1.6819325886168421,-2.5263312498675745,2.280571861858032,-1.0168941656695765,-0.27393895784486944
1708440575.8989806,-1.1050180196762085,-1.6819435558714808,-2.5263431707965296,2.280468388194702,-1.0169356505023401,-0.27420121828188115
1708440575.900961,-1.1049273014068604,-1.6819683514037074,-2.5263925234424036,2.280430956477783,-1.0168941656695765,-0.2744939962970179
1708440575.9030128,-1.1049034595489502,-1.6820537052550257,-2.5263553301440638,2.280465527171753,-1.0168941656695765,-0.27476197877992803
1708440575.904994,-1.104896068572998,-1.6820336780943812,-2.5263224283801478,2.280411882991455,-1.016904656087057,-0.2750323454486292
1708440575.9070098,-1.1048672199249268,-1.6820322475829066,-2.5263312498675745,2.2804087835499267,-1.016916577016012,-0.27528268495668584
1708440575.9089978,-1.1048552989959717,-1.6820408306517542,-2.526383701954977,2.2803968626209716,-1.0169137159930628,-0.2755501906024378
1708440575.9110544,-1.1048507690429688,-1.6820813618102015,-2.5263431707965296,2.2803351122089843,-1.0169017950641077,-0.2758587042437952
1708440575.9129932,-1.1047905683517456,-1.6820570431151332,-2.5263596216784876,2.2804013925739746,-1.0169346968280237,-0.2761324087726038
1708440575.9149973,-1.1048376560211182,-1.6820150814452113,-2.5263553301440638,2.280308647746704,-1.0168855826007288,-0.27645713487734014
1708440575.9170308,-1.1048213243484497,-1.6821137867369593,-2.526358668004171,2.280299587840698,-1.0169432798968714,-0.27671891847719365
1708440575.9190357,-1.1047950983047485,-1.6820885143675746,-2.5263641516314905,2.2803050714680175,-1.0169346968280237,-0.2770598570453089
1708440575.9210038,-1.1048086881637573,-1.68206848720693,-2.52635103860964,2.2803138929554443,-1.0168927351581019,-0.2773507277118128
1708440575.923068,-1.1047401428222656,-1.6820513210692347,-2.52638823190798,2.2802349764057617,-1.0169466177569788,-0.2776692549334925
1708440575.9249873,-1.10476553440094,-1.6820923290648402,-2.526371781026022,2.280249996776245,-1.0168841520892542,-0.27800208726991826
1708440575.9269829,-1.1047117710113525,-1.6820556126036585,-2.5264208952533167,2.28023807584729,-1.016949478779928,-0.27827626863588506
1708440575.929009,-1.1047084331512451,-1.6821323833861292,-2.52635103860964,2.280233545894287,-1.016916577016012,-0.2786038557635706
1708440575.9309614,-1.1047163009643555,-1.6820837459959925,-2.526383701954977,2.2801689344593505,-1.0169404188739222,-0.2789190451251429
1708440575.9329891,-1.1046278476715088,-1.68214811901235,-2.526395622883932,2.2801734644123535,-1.0169418493853968,-0.27918798128236944
1708440575.9349546,-1.104610800743103,-1.6821238003172816,-2.526342217122213,2.280153675670288,-1.0169346968280237,-0.2795808951007288
1708440575.9369824,-1.104598879814148,-1.6821524105467738,-2.5263474623309534,2.280099316234253,-1.0169418493853968,-0.27992517152895147
1708440575.9389808,-1.1045916080474854,-1.6821524105467738,-2.526383701954977,2.2801174360462646,-1.0169671217547815,-0.2802675406085413
1708440575.9409535,-1.1045796871185303,-1.6821681461729945,-2.526346508656637,2.2801217275806884,-1.0168927351581019,-0.2806132475482386
1708440575.9430046,-1.104539394378662,-1.6821891270079554,-2.5264132658587855,2.2801174360462646,-1.0168975035296839,-0.2809975782977503
1708440575.94501,-1.104576826095581,-1.6821609936156214,-2.5263553301440638,2.2800935941883544,-1.0169780890094202,-0.2813776175128382
1708440575.9469988,-1.104543924331665,-1.6821876964964808,-2.526363197957174,2.2800533014484863,-1.016921345387594,-0.28170806566347295
1708440575.9489925,-1.1044912338256836,-1.682176252404684,-2.526379410420553,2.2800399500080566,-1.016970459614889,-0.282111946736471
1708440575.9509542,-1.1045149564743042,-1.6821919880309046,-2.5263553301440638,2.280041380519531,-1.0169537703143519,-0.2824013868915003
1708440575.953022,-1.1045211553573608,-1.6821595631041468,-2.526367489491598,2.2800368505665283,-1.0169418493853968,-0.28277379671205694
1708440575.9549932,-1.1045002937316895,-1.6821876964964808,-2.526346508656637,2.28001253187146,-1.0169332663165491,-0.28320390382875615
1708440575.9570436,-1.1044256687164307,-1.6822205982603968,-2.5263641516314905,2.280028982753418,-1.0169256369220179,-0.28358346620668584
1708440575.9589942,-1.1044883728027344,-1.6822120151915492,-2.52638823190798,2.2799977499195556,-1.0169451872455042,-0.2839744726764124
1708440575.9609733,-1.1044574975967407,-1.6822239361205042,-2.5263596216784876,2.2800096708485107,-1.0169332663165491,-0.28430396715273076
1708440575.9629962,-1.104461908340454,-1.6821915111937464,-2.526371781026022,2.2799977499195556,-1.016965691243307,-0.28469545045961553
1708440575.9650028,-1.1044020652770996,-1.6822120151915492,-2.52635103860964,2.2799359995075683,-1.016904656087057,-0.28510743776430303
1708440575.9670925,-1.104418396949768,-1.6822363338866175,-2.526367489491598,2.2799405294605712,-1.016916577016012,-0.28550655046571904
1708440575.9689877,-1.1044442653656006,-1.6822520695128382,-2.5263553301440638,2.279928608531616,-1.0168798605548304,-0.2858813444720667
1708440575.9709654,-1.1044323444366455,-1.6822434864439906,-2.5263553301440638,2.279909296626709,-1.016916577016012,-0.2862766424762171
1708440575.972958,-1.104453206062317,-1.68225159267568,-2.5263763109790247,2.2799061971851806,-1.0169137159930628,-0.28674203554262334
1708440575.9749634,-1.1043965816497803,-1.6822644672789515,-2.526400152836935,2.279962940807007,-1.0169017950641077,-0.2870700995074671
1708440575.9769604,-1.1044039726257324,-1.6822363338866175,-2.526318136845724,2.279901905650757,-1.0169628302203577,-0.2875173727618616
1708440575.9790065,-1.1043920516967773,-1.6822759113707484,-2.5263388792621058,2.279892845744751,-1.016916577016012,-0.28796607652773076
1708440575.9809613,-1.1043592691421509,-1.682295938531393,-2.526325527821676,2.279880924815796,-1.0169299284564417,-0.28834754625429326
1708440575.983035,-1.1044009923934937,-1.6822430096068324,-2.526400152836935,2.2798780637928466,-1.0169585386859339,-0.28872615495790654
1708440575.9849758,-1.104365348815918,-1.6822883091368617,-2.5263705889331263,2.27982680379834,-1.016916577016012,-0.28913766542543584
1708440575.98697,-1.104318380355835,-1.6822711429991664,-2.526367489491598,2.2798401552387695,-1.016928497944967,-0.2895715872394007
1708440575.9890056,-1.1043891906738281,-1.682295938531393,-2.52635103860964,2.2798690038868408,-1.0169299284564417,-0.2899993101703089
1708440575.9909625,-1.1043227910995483,-1.6822263203062953,-2.5263641516314905,2.2797927099415283,-1.0168684164630335,-0.29037267366518194
1708440575.9929633,-1.1043438911437988,-1.6823283634581507,-2.526371781026022,2.279841824168823,-1.016876522694723,-0.2907932440387171
1708440575.9949684,-1.1043064594268799,-1.682307859460348,-2.5263763109790247,2.279806061381958,-1.0168855826007288,-0.29125863710512334
1708440575.9969826,-1.1043609380722046,-1.6822673283019007,-2.5263474623309534,2.279742880458496,-1.0168989340411585,-0.29170304933656865
1708440575.9989836,-1.1043227910995483,-1.6823574505248011,-2.526367489491598,2.279806061381958,-1.0168655554400843,-0.2921856085406702
1708440576.0009723,-1.1043319702148438,-1.682307859460348,-2.526363197957174,2.279742880458496,-1.0169108549701136,-0.2924864927874964
1708440576.003139,-1.10434091091156,-1.682295938531393,-2.5263312498675745,2.279798670406006,-1.016890827809469,-0.2928980032550257
1708440576.0050013,-1.1043744087219238,-1.6822883091368617,-2.5263519922839563,2.279794140453003,-1.0168374220477503,-0.29336673418153936
1708440576.0070066,-1.1042991876602173,-1.6823154888548792,-2.5263431707965296,2.279751701945923,-1.0168536345111292,-0.2937830130206507
1708440576.0090024,-1.10434091091156,-1.6822754345335902,-2.5263925234424036,2.2798196512409667,-1.016890827809469,-0.29426509538759404
1708440576.011003,-1.1043156385421753,-1.6823283634581507,-2.5263598600970667,2.279768868083618,-1.0168255011187952,-0.2947009245501917
1708440576.0130444,-1.104324460029602,-1.682324071923727,-2.5263312498675745,2.2797326284595947,-1.0168269316302698,-0.29510432878603154
1708440576.0149915,-1.104324460029602,-1.6822668514647425,-2.5263193289386194,2.2797369199940185,-1.016796890889303,-0.29553205171693975
1708440576.01699,-1.1043365001678467,-1.682279726068014,-2.5262985865222376,2.2797533708759765,-1.0168221632586878,-0.2959817091571253
1708440576.019068,-1.1043319702148438,-1.6822873554625453,-2.5263477007495325,2.2797443109699707,-1.0168102423297327,-0.2964089552508753
1708440576.021008,-1.1043200492858887,-1.6823283634581507,-2.526318136845724,2.2797912794300537,-1.0168069044696253,-0.2967479864703577
1708440576.0230207,-1.1043363809585571,-1.6823164425291957,-2.5263150374041956,2.2798032003590087,-1.0167697111712855,-0.2972005049334925
1708440576.024976,-1.1042991876602173,-1.682324071923727,-2.5263312498675745,2.2797369199940185,-1.0167534987079065,-0.2976153532611292
1708440576.0269728,-1.1043126583099365,-1.6823035679259242,-2.526328150426046,2.2798001009174804,-1.0167248884784144,-0.2979820410357874
1708440576.0290132,-1.1043111085891724,-1.6822582683958949,-2.5262866655932825,2.2797533708759765,-1.0167000929461878,-0.29850846925844365
1708440576.0309741,-1.1043200492858887,-1.6823035679259242,-2.526304308568136,2.279722138042114,-1.0166967550860804,-0.29887181917299444
1708440576.0330875,-1.1043126583099365,-1.682295938531393,-2.5262373129474085,2.2797443109699707,-1.0166891256915491,-0.29928428331484014
1708440576.0349715,-1.1043438911437988,-1.6823369465269984,-2.52630860010256,2.2797579008289794,-1.0167234579669397,-0.29968387285341436
1708440576.036993,-1.1043363809585571,-1.682291646996969,-2.526275698338644,2.2796758848377685,-1.0166423956500452,-0.30012494722475225
1708440576.0389853,-1.1043363809585571,-1.6823531589903773,-2.526238505040304,2.279750271434448,-1.0165770689593714,-0.30050403276552373
1708440576.0409565,-1.1042855978012085,-1.6823035679259242,-2.5262933413134974,2.279766722316406,-1.016601864491598,-0.3009699026690882
1708440576.0429907,-1.10434091091156,-1.682324071923727,-2.5262396971331995,2.2797414499470214,-1.0165661017047327,-0.3013971487628382
1708440576.0449638,-1.1043227910995483,-1.6823002300658167,-2.5262323061572474,2.2797459799000244,-1.0165227095233362,-0.30182105699648076
1708440576.046983,-1.1043200492858887,-1.6822926006712855,-2.5262485186206263,2.2796878057667236,-1.0165022055255335,-0.3021920363055628
1708440576.0489886,-1.1043617725372314,-1.6823002300658167,-2.5261903444873255,2.2797278600880126,-1.016503636037008,-0.30265742937196904
1708440576.050956,-1.10434091091156,-1.6823207340636195,-2.526207987462179,2.2797249990650634,-1.0164745489703577,-0.30299598375429326
1708440576.053051,-1.1043319702148438,-1.6822830639281214,-2.526159111653463,2.2797414499470214,-1.016393009816305,-0.30348092714418584
1708440576.0549924,-1.1043156385421753,-1.6823207340636195,-2.526196066533224,2.279738350505493,-1.0164673964129847,-0.303901497517721
1708440576.0569963,-1.1043483018875122,-1.682291646996969,-2.5261557737933558,2.2797087866016845,-1.0163820425616663,-0.30427724519838506
1708440576.0590112,-1.1043483018875122,-1.6822906933226527,-2.5261219183551233,2.2797130781361084,-1.01636249223818,-0.3046773115741175
1708440576.0610185,-1.1043064594268799,-1.6823035679259242,-2.52614409128298,2.2797459799000244,-1.016346279774801,-0.3050573507892054
1708440576.0630078,-1.1043319702148438,-1.6822926006712855,-2.5261152426349085,2.2797295290180664,-1.016322437916891,-0.3055227438556116
1708440576.065008,-1.104309320449829,-1.682295938531393,-2.5261152426349085,2.2797176080891113,-1.0163028875934046,-0.3058865706073206
1708440576.067054,-1.1043319702148438,-1.6823402843871058,-2.5260751883136194,2.2797207075306396,-1.0162785688983362,-0.3062351385699671
1708440576.0690038,-1.1043801307678223,-1.6823002300658167,-2.5261033217059534,2.2797414499470214,-1.0162537733661097,-0.30661040941347295
1708440576.070985,-1.104356288909912,-1.6822840176024378,-2.5260499159442347,2.2797249990650634,-1.0161803404437464,-0.30699474016298467
1708440576.072978,-1.1043727397918701,-1.6822625599303187,-2.526095692311422,2.2797621923634033,-1.0162351767169397,-0.307382885609762
1708440576.0749662,-1.1043609380722046,-1.682258745233053,-2.52605110803713,2.2797369199940185,-1.016214672719137,-0.3077910582171839
1708440576.076975,-1.1043473482131958,-1.6822840176024378,-2.526027027760641,2.2797459799000244,-1.0161832014666956,-0.30818397203554326
1708440576.078993,-1.104405403137207,-1.6823369465269984,-2.526018206273214,2.2797087866016845,-1.0161259810077112,-0.30859548250307256
1708440576.0809724,-1.1044219732284546,-1.6822673283019007,-2.526059691105978,2.2797249990650634,-1.016135040913717,-0.3089101950274866
1708440576.083022,-1.1043965816497803,-1.682279726068014,-2.5260193983661097,2.2797295290180664,-1.016111199055807,-0.3092697302447718
1708440576.084977,-1.1044039726257324,-1.6822716198363246,-2.5260282198535364,2.2796997266956787,-1.0160539785968226,-0.30964738527406865
1708440576.087023,-1.1044158935546875,-1.6823250255980433,-2.5259342829333704,2.2797533708759765,-1.0160587469684046,-0.30999499956239873
1708440576.0890071,-1.1044039726257324,-1.6822716198363246,-2.525992218648092,2.2797579008289794,-1.0160301367389124,-0.31031877199281865
1708440576.0909796,-1.1044412851333618,-1.6822840176024378,-2.5259550253497522,2.2797087866016845,-1.0159691015826624,-0.31072742143739873
1708440576.0929968,-1.1044853925704956,-1.6822716198363246,-2.525898520146505,2.2797326284595947,-1.015982453023092,-0.31106692949403936
1708440576.0949697,-1.1044526100158691,-1.6822926006712855,-2.525943104420797,2.2797912794300537,-1.0159581343280237,-0.3113911787616175
1708440576.096984,-1.1044480800628662,-1.6822926006712855,-2.5259442965136927,2.2797443109699707,-1.0159314314471644,-0.3118537108050745
1708440576.0990164,-1.1044809818267822,-1.6823164425291957,-2.525907341633932,2.279801531428955,-1.0159476439105433,-0.3121398130999964
1708440576.1009698,-1.1044973134994507,-1.6823088131346644,-2.525907341633932,2.279768868083618,-1.0159075895892542,-0.31248313585390264
1708440576.10306,-1.1045256853103638,-1.6822601757445277,-2.5259080568896692,2.2797397810169677,-1.015886131917135,-0.3127949873553675
1708440576.1050057,-1.104479432106018,-1.682223459283346,-2.5259035269366663,2.2798520761677246,-1.0158432165728968,-0.3131678740130823
1708440576.107048,-1.1045376062393188,-1.6823131046690882,-2.525851551686422,2.279822273845337,-1.0157983938800257,-0.3135030905352991
1708440576.1090062,-1.1045076847076416,-1.6822759113707484,-2.5258427301989954,2.279810352916382,-1.0157740751849573,-0.3138363997088831
1708440576.1110091,-1.1045546531677246,-1.68225159267568,-2.525811020527975,2.279817982310913,-1.015787426625387,-0.3141434828387659
1708440576.1130536,-1.10453200340271,-1.68225159267568,-2.5258646647082728,2.2798752027698974,-1.0157678763019007,-0.31451303163637334
1708440576.1150076,-1.10453200340271,-1.6822434864439906,-2.525827471409933,2.2797762590595703,-1.0157068411456507,-0.3148134390460413
1708440576.117039,-1.1045633554458618,-1.6822320423521937,-2.5257752577411097,2.279862566585205,-1.0157573858844202,-0.31514007249941045
1708440576.119102,-1.1045722961425781,-1.6822391949095667,-2.525745455418722,2.279825373286865,-1.0156586805926722,-0.3154795805560511
1708440576.1210113,-1.1046289205551147,-1.6822673283019007,-2.5257182757007044,2.2798492151447753,-1.0156143347369593,-0.3157756964312952
1708440576.1230152,-1.10464608669281,-1.6822730503477992,-2.5257301966296595,2.2799154955097656,-1.0156157652484339,-0.3160765806781214
1708440576.1250212,-1.1046442985534668,-1.682232519189352,-2.5257063547717493,2.2798237043568115,-1.0155628363238733,-0.3163841406451624
1708440576.127065,-1.1046442985534668,-1.6822406254210414,-2.5257225672351282,2.2798237043568115,-1.0155299345599573,-0.3167160193072718
1708440576.1289935,-1.1046651601791382,-1.6822120151915492,-2.5256956259356897,2.2799226480671386,-1.0155389944659632,-0.31703263918031865
1708440576.1309764,-1.104651689529419,-1.682261129418844,-2.525686804448263,2.279918356532715,-1.015487019215719,-0.3173411528216761
1708440576.1330009,-1.1047009229660034,-1.6822196445860804,-2.525666062031881,2.279921217555664,-1.0154746214496058,-0.31761199632753545
1708440576.135011,-1.1047507524490356,-1.6821915111937464,-2.5256882349597376,2.279941959972046,-1.0154722372638147,-0.3179052511798304
1708440576.1370153,-1.1047128438949585,-1.682253976861471,-2.5256505648242396,2.279925747508667,-1.0154598394977015,-0.31818849245180303
1708440576.1389775,-1.1047327518463135,-1.6821876964964808,-2.525651756917135,2.2799619871326904,-1.01542836824526,-0.3185003439532679
1708440576.1409683,-1.104761004447937,-1.6821791134276332,-2.5256062189685267,2.2799693781086425,-1.0154193083392542,-0.3187645117389124
1708440576.142993,-1.1047804355621338,-1.682204385797018,-2.525668207799093,2.2799977499195556,-1.01540452638735,-0.3191135565387171
1708440576.1449685,-1.1047520637512207,-1.682200094262594,-2.525623623524801,2.2799977499195556,-1.0153382460223597,-0.3193443457232874
1708440576.1469853,-1.1047639846801758,-1.6821638546385707,-2.525566641484396,2.2800065714069824,-1.0153778235064905,-0.3196213881122034
1708440576.1490095,-1.1047905683517456,-1.6821633778014125,-2.5256202856646937,2.280003471965454,-1.0153353849994105,-0.3199251333819788
1708440576.1509633,-1.1047923564910889,-1.6821676693358363,-2.5255962053882044,2.280017061824463,-1.0153892675982874,-0.32012874284853154
1708440576.153023,-1.1047950983047485,-1.682183404962057,-2.5256004969226282,2.280041380519531,-1.0153535048114222,-0.3203952948199671
1708440576.1549833,-1.1047942638397217,-1.6822177372374476,-2.5256083647357386,2.280090494746826,-1.0152714888202112,-0.32069665590395147
1708440576.1570396,-1.1048240661621094,-1.682176252404684,-2.5255516211139124,2.2800697523304443,-1.015336815510885,-0.3209651152240198
1708440576.1589856,-1.1048507690429688,-1.6821962795653285,-2.5255516211139124,2.2800683218189697,-1.015296761189596,-0.3211477438556116
1708440576.1609685,-1.10493803024292,-1.68214811901235,-2.525531832371847,2.2801129060932617,-1.0152815024005335,-0.3214529196368616
1708440576.1630018,-1.1049482822418213,-1.68211092571401,-2.525543753300802,2.2801174360462646,-1.0152276198016565,-0.32177859941591436
1708440576.1649802,-1.1049226522445679,-1.682099004785055,-2.525511089955465,2.2801293569752197,-1.0152114073382776,-0.3220098654376429
1708440576.167018,-1.1049437522888184,-1.6821485958495082,-2.5255559126483362,2.28013722478833,-1.0151994864093226,-0.3222287336932581
1708440576.1690116,-1.104934573173523,-1.6820956669249476,-2.525511089955465,2.2801129060932617,-1.0152156988727015,-0.3224886099444788
1708440576.170972,-1.1050251722335815,-1.6820999584593714,-2.525527540837423,2.2801565366932373,-1.0151966253863733,-0.32267934480776006
1708440576.1729784,-1.105008840560913,-1.682136674920553,-2.5255571047412317,2.2802044588276367,-1.0151918570147913,-0.32299834886659795
1708440576.1749725,-1.1050043106079102,-1.6820956669249476,-2.52553636232485,2.280221624965332,-1.015205208455221,-0.3231852690326136
1708440576.1770127,-1.1050236225128174,-1.6821204624571742,-2.52549916902651,2.2801717954822998,-1.0151680151568812,-0.32342511812318975
1708440576.1790159,-1.1050400733947754,-1.6821238003172816,-2.525458876286642,2.280249996776245,-1.0151317755328577,-0.32362109819521123
1708440576.1809726,-1.105042815208435,-1.6820713482298792,-2.525487248097555,2.2802039819904785,-1.0151646772967737,-0.3238332907306116
1708440576.183033,-1.1050854921340942,-1.68206848720693,-2.525487248097555,2.2802604871937255,-1.0151904265033167,-0.32410175005068
1708440576.1849754,-1.105100154876709,-1.682023664514059,-2.525463406239645,2.2802795606800537,-1.0151646772967737,-0.3242839018451136
1708440576.1869829,-1.105100154876709,-1.6820885143675746,-2.525463406239645,2.2803138929554443,-1.0151451269732874,-0.32452518144716436
1708440576.1891034,-1.1051404476165771,-1.6820484600462855,-2.525442663823263,2.2802795606800537,-1.0151289145099085,-0.32472020784486944
1708440576.1909907,-1.1051687002182007,-1.6820484600462855,-2.525491539631979,2.2803501325794677,-1.0151365439044397,-0.324961010609762
1708440576.1930096,-1.1051433086395264,-1.6820322475829066,-2.5254884401904505,2.280316038722656,-1.0151780287372034,-0.32514936128725225
1708440576.1949701,-1.1051768064498901,-1.6820885143675746,-2.5254557768451136,2.28042380392041,-1.0151484648333948,-0.325357739125387
1708440576.1970148,-1.1051795482635498,-1.6820322475829066,-2.525507990513937,2.2804269033619384,-1.0151212851153772,-0.3255208174334925
1708440576.1990042,-1.105236291885376,-1.682012220422262,-2.5254557768451136,2.2804059225269775,-1.0151408354388636,-0.32571298280824834
1708440576.2009883,-1.105231761932373,-1.6819921932616175,-2.5254884401904505,2.280404492015503,-1.0151007811175745,-0.32593042055238897
1708440576.2030997,-1.1053025722503662,-1.6819597683348597,-2.5254884401904505,2.2803999620625,-1.0150960127459925,-0.3261063734637659
1708440576.204987,-1.1052935123443604,-1.6820126972594203,-2.525485340748922,2.280465527171753,-1.0151169935809534,-0.3262890020953577
1708440576.2070262,-1.1053454875946045,-1.6819607220091761,-2.5254183451281946,2.2804786401936035,-1.0151050726519983,-0.3264816443072718
1708440576.2090101,-1.1052664518356323,-1.6820007763304652,-2.525442663823263,2.280456467265747,-1.0150840918170374,-0.3266537825213831
1708440576.2109768,-1.1053037643432617,-1.6819607220091761,-2.5254719893084925,2.280510826701782,-1.0151212851153772,-0.32675487199892217
1708440576.213034,-1.105398416519165,-1.681993146935934,-2.5254808107959192,2.2805165487476806,-1.0151365439044397,-0.3269408384906214
1708440576.2149823,-1.1053529977798462,-1.6819478474059046,-2.5254557768451136,2.2805210787006835,-1.0151212851153772,-0.32711774507631475
1708440576.2169783,-1.105342984199524,-1.6819483242430628,-2.5255046526538294,2.2806081014820556,-1.0150931517230433,-0.32725602785219365
1708440576.2189944,-1.1053801774978638,-1.6819411716856898,-2.5254557768451136,2.2805701929279785,-1.0150798002826136,-0.327367130910055
1708440576.2209961,-1.1053712368011475,-1.6819082699217738,-2.525491539631979,2.280514879817627,-1.0151079336749476,-0.3275235334979456
1708440576.2229795,-1.1053950786590576,-1.6818672619261683,-2.5254808107959192,2.280613823527954,-1.0151498953448694,-0.3277671972857874
1708440576.2250006,-1.1054584980010986,-1.6819502315916957,-2.5255046526538294,2.2805842596241455,-1.0151379744159144,-0.3279178778277796
1708440576.227022,-1.1054856777191162,-1.6818725071349085,-2.5254839102374476,2.2806333738514404,-1.0151379744159144,-0.32797176042665654
1708440576.2289793,-1.1054575443267822,-1.6819049320616664,-2.5254302660571497,2.280639095897339,-1.0151498953448694,-0.3281648794757288
1708440576.2309856,-1.1055049896240234,-1.6818844280638636,-2.5254676977740687,2.280686064357422,-1.0151079336749476,-0.3282359282123011
1708440576.232991,-1.1054750680923462,-1.6818887195982875,-2.525463406239645,2.2807516294666748,-1.0151498953448694,-0.32841331163515264
1708440576.2349741,-1.1054913997650146,-1.6818725071349085,-2.5254514853106897,2.280749960536621,-1.0151007811175745,-0.32853728929628545
1708440576.2370143,-1.1055649518966675,-1.681864400903219,-2.5254557768451136,2.2807909685322265,-1.0151661078082483,-0.3286679426776331
1708440576.2389858,-1.105586051940918,-1.6818858585753382,-2.5254557768451136,2.2807530599781494,-1.0150917212115687,-0.32878333726991826
1708440576.2409914,-1.105607032775879,-1.681829114953512,-2.5255208651172083,2.2807983595081787,-1.0151079336749476,-0.32896548906435186
1708440576.2429597,-1.1055724620819092,-1.6818448505797328,-2.5254433790790003,2.280756397838257,-1.0151246229754847,-0.32905608812441045
1708440576.244972,-1.1055798530578613,-1.6818772755064906,-2.5254719893084925,2.280841274852417,-1.0151484648333948,-0.3292177359210413
1708440576.2469747,-1.1055798530578613,-1.681784292260641,-2.5254958311664026,2.280879183406494,-1.0151408354388636,-0.32928496996034795
1708440576.2490034,-1.1056371927261353,-1.6818295917906703,-2.525463406239645,2.280836983317993,-1.0151408354388636,-0.3293841520892542
1708440576.2509842,-1.1056371927261353,-1.6818253002562464,-2.5254719893084925,2.280843420619629,-1.0151541868792933,-0.32943994203676397
1708440576.2529948,-1.1055899858474731,-1.681756158868307,-2.5254631678210657,2.2808760839649658,-1.0151408354388636,-0.3295519987689417
1708440576.255002,-1.105663776397705,-1.6817647419371546,-2.5255046526538294,2.280904455775879,-1.0151646772967737,-0.3296697775470179
1708440576.2569926,-1.10565185546875,-1.6817480526366175,-2.5254719893084925,2.280968351955078,-1.0151556173907679,-0.32969600359071904
1708440576.259054,-1.1057255268096924,-1.6817156277098597,-2.5255253950702112,2.2809197145649414,-1.0151646772967737,-0.32983714738954717
1708440576.2609763,-1.1057419776916504,-1.6817146740355433,-2.525519911442892,2.2809831339069824,-1.01516038576235,-0.3299325148211878
1708440576.2630033,-1.1057538986206055,-1.6817776165404261,-2.525470797215597,2.280984325999878,-1.015209976826803,-0.32998496690859014
1708440576.2649987,-1.10574471950531,-1.6817242107787074,-2.5254958311664026,2.2809769350239257,-1.0152009169207972,-0.33006364503969365
1708440576.2670088,-1.1057223081588745,-1.6817251644530238,-2.5255122820483606,2.2810141283222656,-1.0152409712420862,-0.33018619218935186
1708440576.269054,-1.105743169784546,-1.6817175350584925,-2.5254719893084925,2.2810305792042236,-1.0152128378497522,-0.33020002046693975
1708440576.270984,-1.105787992477417,-1.6816851101317347,-2.5255003611194056,2.281083269710205,-1.0152619520770472,-0.33028871217836553
1708440576.272977,-1.1057953834533691,-1.6816636524596156,-2.5255046526538294,2.2810444074818115,-1.0152576605426233,-0.3303487936602991
1708440576.2750223,-1.105783462524414,-1.6816970310606898,-2.5255077520953577,2.281135244960449,-1.015317742024557,-0.33044225374330694
1708440576.2769806,-1.105803370475769,-1.681681295434469,-2.5255242029773157,2.2811218935200195,-1.0152724424945276,-0.3304818312274378
1708440576.2789905,-1.1058661937713623,-1.681676527062887,-2.525466505681173,2.281099482173584,-1.015280548726217,-0.33049136797060186
1708440576.280975,-1.1058435440063477,-1.6816407642760218,-2.52549916902651,2.2811130720325927,-1.015329662953512,-0.33056813875307256
1708440576.2829995,-1.1058582067489624,-1.681624551812643,-2.525527540837423,2.281111403102539,-1.015308682118551,-0.33062917390932256
1708440576.2850149,-1.1058388948440552,-1.681662221948141,-2.52553636232485,2.281132860774658,-1.015341583882467,-0.3306773344623011
1708440576.2869656,-1.1058719158172607,-1.6816078625121058,-2.5255232493029993,2.2811283308216552,-1.0153444449054163,-0.3307088057147425
1708440576.2890174,-1.1058746576309204,-1.6816450558104457,-2.525543753300802,2.2812177377888183,-1.0154221693622034,-0.33071643510927373
1708440576.2909832,-1.105965495109558,-1.6816417179503382,-2.5255394617663782,2.2811998563953857,-1.0153387228595179,-0.3307154814349573
1708440576.292982,-1.105894684791565,-1.6816655598082484,-2.5255559126483362,2.2811834055134277,-1.0154088179217737,-0.33078128496278936
1708440576.2950034,-1.1059445142745972,-1.681650301019186,-2.525585476552145,2.2812198835560302,-1.0153792540179651,-0.3308199087726038
1708440576.2969542,-1.1059890985488892,-1.6816092930235804,-2.525552574788229,2.281268997783325,-1.015477482472555,-0.33085614839662725
1708440576.299012,-1.1059972047805786,-1.6816092930235804,-2.5255351702319544,2.281248016948364,-1.0154655615436,-0.33090192476381475
1708440576.3009763,-1.1060372591018677,-1.6815406284727992,-2.5255306402789515,2.281285448665283,-1.0154731909381312,-0.33093387285341436
1708440576.3030214,-1.105991005897522,-1.6816383800902308,-2.5255916754352015,2.2813047605701904,-1.0154550711261194,-0.33082610765566045
1708440576.3050246,-1.105991005897522,-1.6816092930235804,-2.5255678335772913,2.2813171583363037,-1.0155046621905726,-0.33088475862611944
1708440576.3069859,-1.1060686111450195,-1.6815687618651332,-2.5255916754352015,2.2813617426105957,-1.0155404249774378,-0.3308799902545374
1708440576.3090315,-1.1060357093811035,-1.6815859280028285,-2.525611464177267,2.281327648753784,-1.0155122915851038,-0.33088809648622686
1708440576.3109996,-1.1060357093811035,-1.6815773449339808,-2.525611464177267,2.281348391170166,-1.0155599753009241,-0.33084279695619756
1708440576.31301,-1.1060549020767212,-1.6815368137755335,-2.5256157557116907,2.2814065653034667,-1.0155556837665003,-0.33088905016054326
1708440576.314989,-1.106083869934082,-1.6815902195372523,-2.5256312529193323,2.281351252193115,-1.0156095663653772,-0.33084279695619756
1708440576.316961,-1.1060584783554077,-1.681493421594137,-2.52563983598818,2.281351252193115,-1.0156124273883265,-0.3308604399310511
1708440576.3190298,-1.1061166524887085,-1.6815430126585902,-2.5256550947772425,2.2813920217701416,-1.0156319777118128,-0.33077890077699834
1708440576.321046,-1.1061450242996216,-1.681549688378805,-2.5255895296679896,2.281444235438965,-1.0155709425555628,-0.330759350453512
1708440576.323042,-1.106182336807251,-1.6814567051329554,-2.5256267229663294,2.2814323145100097,-1.015566651021139,-0.330787483845846
1708440576.3250227,-1.1061569452285767,-1.6814891300597132,-2.5256713072406214,2.28145615636792,-1.0156109968768519,-0.3307111899005335
1708440576.327035,-1.1061360836029053,-1.6815468273558558,-2.5256956259356897,2.28145615636792,-1.0156481901751917,-0.3306835333453577
1708440576.32903,-1.1061524152755737,-1.681469579736227,-2.5257044474231165,2.281409903163574,-1.015634838734762,-0.3306310812579554
1708440576.331003,-1.1061480045318604,-1.6814614735045375,-2.525691334401266,2.28147999822583,-1.0156586805926722,-0.33061534563173467
1708440576.3330164,-1.10615074634552,-1.681437154809469,-2.5257194677936,2.281484528178833,-1.015683952962057,-0.33059579530824834
1708440576.3350644,-1.1061842441558838,-1.6814290485777796,-2.5257120768176478,2.2814501959034423,-1.0157082716571253,-0.3305595556842249
1708440576.3369994,-1.1061677932739258,-1.6814457378783167,-2.525707546864645,2.2815071779438476,-1.0157440344439905,-0.3305395285235804
1708440576.3389943,-1.1061842441558838,-1.6814257107176722,-2.525731388722555,2.2815372186848144,-1.0157278219806116,-0.3304861227618616
1708440576.3409781,-1.1061826944351196,-1.6814376316466273,-2.525731388722555,2.281470938319824,-1.0157726446734827,-0.33048850694765264
1708440576.3429813,-1.1061946153640747,-1.681470056573385,-2.525747601185934,2.281498356456421,-1.0157678763019007,-0.33044273058046514
1708440576.3449676,-1.106203556060791,-1.6813889942564906,-2.525752131138937,2.281510038966797,-1.0157635847674769,-0.3304231802569788
1708440576.3469858,-1.106215476989746,-1.6814137897887171,-2.5256767908679407,2.281554861659668,-1.0158041159259241,-0.33038646379579717
1708440576.3489957,-1.1061826944351196,-1.6813942394652308,-2.5257225672351282,2.281542940730713,-1.0158565680133265,-0.33035117784609014
1708440576.3509798,-1.106187105178833,-1.6813985309996546,-2.525813404713766,2.281588240260742,-1.0158193747149866,-0.33026153246034795
1708440576.3530626,-1.1062273979187012,-1.6813703976073207,-2.525792662297384,2.281620903606079,-1.0158732573138636,-0.3302996794330042
1708440576.3550045,-1.1061973571777344,-1.6813985309996546,-2.5257673899279993,2.2815956312366943,-1.0158689657794397,-0.3302267233477991
1708440576.3569996,-1.1062482595443726,-1.681389947930807,-2.5257511774646204,2.28158084928479,-1.01589280763735,-0.3302114645587366
1708440576.358992,-1.1062891483306885,-1.681340833703512,-2.5258405844317835,2.2815956312366943,-1.0158970991717737,-0.3300975004779261
1708440576.3610046,-1.1062438488006592,-1.6813465557494105,-2.5258122126208704,2.2815703588673095,-1.015890900288717,-0.33009416261781865
1708440576.3630152,-1.1062471866607666,-1.6813575230040492,-2.5257871786700647,2.2816285330006103,-1.0159152189837855,-0.33005077043642217
1708440576.364993,-1.1062891483306885,-1.6812921963133753,-2.525848452244894,2.2816566663929443,-1.0159357229815882,-0.32995349565614873
1708440576.3670118,-1.10627281665802,-1.6813661060728968,-2.5258317629443567,2.2816104131885986,-1.0159314314471644,-0.32991010347475225
1708440576.3690236,-1.1062994003295898,-1.6813532314696253,-2.525810782109396,2.2816647726246337,-1.0159152189837855,-0.32988292375673467
1708440576.3709877,-1.1062711477279663,-1.6813422642149867,-2.5258711020099085,2.281677170390747,-1.0159643332110804,-0.3298271338092249
1708440576.3730035,-1.1063292026519775,-1.6813422642149867,-2.525876585637228,2.2816340166279296,-1.0159509817706507,-0.3297389189349573
1708440576.374969,-1.1063083410263062,-1.6813255749144496,-2.525839630757467,2.281660242671631,-1.015949551259176,-0.32968312898744756
1708440576.377003,-1.1062920093536377,-1.6813422642149867,-2.5258339087115687,2.2816592889973144,-1.0160124937640589,-0.32956201234926397
1708440576.378991,-1.1063157320022583,-1.6813579998412074,-2.5259035269366663,2.2816333013721923,-1.0160482565509241,-0.3294408957110804
1708440576.380974,-1.106311321258545,-1.681333681146139,-2.5258753935443323,2.2816635805317382,-1.0160482565509241,-0.32938939729799444
1708440576.38298,-1.106339693069458,-1.6813255749144496,-2.5259204546557825,2.2817038732716064,-1.0160754362689417,-0.32933074632753545
1708440576.3849678,-1.1063522100448608,-1.681345125237936,-2.5259116331683558,2.2817393976398925,-1.0160873571978968,-0.32922631898988897
1708440576.3870342,-1.106327772140503,-1.6813212833800257,-2.5259116331683558,2.2817413049885253,-1.0161321798907679,-0.329170052205221
1708440576.3889766,-1.106335163116455,-1.6813904247679652,-2.5259161631213587,2.2817529874989013,-1.016111199055807,-0.3290446440326136
1708440576.3909853,-1.1063441038131714,-1.6813250980772914,-2.525919024144308,2.281752033824585,-1.0161321798907679,-0.32897836366762334
1708440576.3929973,-1.1063430309295654,-1.6813255749144496,-2.525902811680929,2.2817656236835937,-1.016156021748678,-0.3288939634906214
1708440576.3949633,-1.1063522100448608,-1.681333681146139,-2.5259116331683558,2.281793995494507,-1.0161188284503382,-0.32879382768739873
1708440576.3969874,-1.106339693069458,-1.6812974415221156,-2.525923554097311,2.281773014659546,-1.0161259810077112,-0.3286860624896448
1708440576.3989866,-1.1063776016235352,-1.6813746891417445,-2.525923554097311,2.28176395475354,-1.0161965529071253,-0.3286212126361292
1708440576.4009693,-1.1063685417175293,-1.6813255749144496,-2.525919262562887,2.281829519862793,-1.0161741415606897,-0.32853824297060186
1708440576.4030206,-1.1063522100448608,-1.6813093624510707,-2.5259397665606897,2.281777544612549,-1.0162280241595667,-0.3283608595477503
1708440576.4050298,-1.106343150138855,-1.6813508472838343,-2.525963846837179,2.281780405635498,-1.0162280241595667,-0.328285042439596
1708440576.407006,-1.106343150138855,-1.681333681146139,-2.5260172525988978,2.281777544612549,-1.0162189642535608,-0.3282220999347132
1708440576.4090035,-1.1063305139541626,-1.6812974415221156,-2.5259385744677942,2.281808777446411,-1.016230885182516,-0.3281052748309534
1708440576.4109838,-1.1063522100448608,-1.681300779382223,-2.526048723851339,2.281747503871582,-1.0162056128131312,-0.3279808203326624
1708440576.4130065,-1.10631263256073,-1.6812817058958949,-2.526004139577047,2.2818221288868408,-1.016214672719137,-0.3278759161578577
1708440576.4150562,-1.106335163116455,-1.6812859974303187,-2.5260074774371546,2.28178779661145,-1.01625901857485,-0.3278124968158167
1708440576.4170485,-1.10635507106781,-1.6813093624510707,-2.5259833971606653,2.2817744451710205,-1.0162504355060022,-0.32772618929018194
1708440576.4190452,-1.1063261032104492,-1.681316991845602,-2.5260074774371546,2.281792326564453,-1.01625901857485,-0.3276131788836878
1708440576.4209938,-1.1064013242721558,-1.681300779382223,-2.525965754185812,2.281834049815796,-1.0162580649005335,-0.32755834261049444
1708440576.4230106,-1.1063096523284912,-1.681359430352682,-2.5260611216174524,2.2817997175404052,-1.0162742773639124,-0.327461067830221
1708440576.4249754,-1.1063566207885742,-1.6813751659789027,-2.5259996096240442,2.2818659979053955,-1.0162695089923304,-0.327341381703512
1708440576.4270215,-1.1063475608825684,-1.6813212833800257,-2.5260523001300257,2.2818161684223632,-1.0162909666644495,-0.3272159735309046
1708440576.4290195,-1.1063188314437866,-1.6813222370543421,-2.5260029474841517,2.2817835050770263,-1.0163148085223597,-0.3271372953998011
1708440576.4309707,-1.1063759326934814,-1.681316991845602,-2.5260313192950647,2.2818326193043212,-1.016273323689596,-0.327033821736471
1708440576.4329941,-1.1063730716705322,-1.6813308201231898,-2.526026789342062,2.281829519862793,-1.0163310209857386,-0.32689172426332647
1708440576.4349725,-1.1063522100448608,-1.6813422642149867,-2.526034657155172,2.281841440791748,-1.0163548628436487,-0.32681256929506475
1708440576.4369986,-1.1063505411148071,-1.6813422642149867,-2.52605110803713,2.2818280893513183,-1.0163715521441858,-0.3266800085650843
1708440576.4390016,-1.1063141822814941,-1.6812731228270472,-2.526076380406515,2.2817954260059814,-1.0163667837726038,-0.326608959828512
1708440576.4409719,-1.1063305139541626,-1.6813093624510707,-2.52608830133547,2.2818659979053955,-1.01636249223818,-0.32650882402528936
1708440576.4430013,-1.1063803434371948,-1.681316991845602,-2.52605110803713,2.2817954260059814,-1.0163787047015589,-0.3264663855182093
1708440576.4449513,-1.1062933206558228,-1.6812650165953578,-2.526083771382467,2.2818352419086914,-1.0163987318622034,-0.32633763948549444
1708440576.4469926,-1.1063522100448608,-1.6813746891417445,-2.5260751883136194,2.2818488317677,-1.0163610617267054,-0.32623321214784795
1708440576.4489882,-1.1063594818115234,-1.6813622913756312,-2.526120726262228,2.2817253309437255,-1.0164106527911585,-0.32605201402773076
1708440576.4509633,-1.1063475608825684,-1.6812926731505335,-2.526050869618551,2.2817908960529785,-1.0164387861834925,-0.32594377199281865
1708440576.4529822,-1.1063803434371948,-1.681345125237936,-2.5260782877551478,2.2818702894398193,-1.0164344946490687,-0.32586938539613897
1708440576.4549797,-1.106343150138855,-1.6813293896117152,-2.52608830133547,2.2818400102802734,-1.0164716879474085,-0.32574493089784795
1708440576.4569833,-1.1063894033432007,-1.6813622913756312,-2.5260663668261927,2.281841440791748,-1.0164421240436,-0.32566529909242803
1708440576.459041,-1.1063685417175293,-1.6813093624510707,-2.526140276585714,2.2817980486103515,-1.0164507071124476,-0.325536076222555
1708440576.4609613,-1.1063640117645264,-1.6813179455199183,-2.5261152426349085,2.2818280893513183,-1.016486946736471,-0.3254287878619593
1708440576.462969,-1.106318712234497,-1.6813298664488734,-2.5260501543628138,2.2818161684223632,-1.0164783636676233,-0.3253124395953577
1708440576.4649885,-1.1063305139541626,-1.6813422642149867,-2.526128355656759,2.2818280893513183,-1.0164783636676233,-0.3251879850970667
1708440576.4670208,-1.1063611507415771,-1.6813179455199183,-2.5261109511004847,2.2818235593983154,-1.0164826552020472,-0.3250520865069788
1708440576.4690306,-1.1063475608825684,-1.6813622913756312,-2.5261195341693323,2.2818488317677,-1.016515080128805,-0.3249276320086878
1708440576.471014,-1.1063023805618286,-1.681366582910055,-2.5261064211474817,2.2817908960529785,-1.0165064970599573,-0.32483131090273076
1708440576.4730067,-1.1063475608825684,-1.6813551388182582,-2.5260871092425745,2.2817835050770263,-1.0164693037616175,-0.32473928133119756
1708440576.4749837,-1.106311321258545,-1.6813298664488734,-2.5261645952807825,2.281853361720703,-1.0165022055255335,-0.32460338274110967
1708440576.4769948,-1.1062949895858765,-1.68125643352651,-2.5261271635638636,2.2818524080463867,-1.0165513197528284,-0.32455760637392217
1708440576.4789708,-1.1063023805618286,-1.68125643352651,-2.5261271635638636,2.2818400102802734,-1.0165718237506312,-0.3244212309466761
1708440576.4809732,-1.106306791305542,-1.6813212833800257,-2.5261064211474817,2.2818488317677,-1.0165050665484827,-0.32426721254457647
1708440576.483003,-1.1063441038131714,-1.681288858453268,-2.526114050542013,2.281837149257324,-1.0165093580829065,-0.32418758073915654
1708440576.4849665,-1.1063246726989746,-1.681366582910055,-2.5261226336108606,2.2817908960529785,-1.0165346304522913,-0.3240469137774866
1708440576.487004,-1.106306791305542,-1.6813222370543421,-2.526142660771505,2.281837149257324,-1.0165751616107386,-0.32393104234804326
1708440576.4889898,-1.1062829494476318,-1.681316991845602,-2.5261884371386927,2.28178779661145,-1.0165913740741175,-0.32381898561586553
1708440576.4909778,-1.1062994003295898,-1.6813422642149867,-2.5261722246753138,2.281775875682495,-1.016540829335348,-0.32374459901918584
1708440576.4930124,-1.1063411235809326,-1.6813212833800257,-2.5261383692370813,2.2818488317677,-1.0165703932391565,-0.32359153429140264
1708440576.4949942,-1.106294870376587,-1.6813298664488734,-2.526163403187887,2.281829519862793,-1.0165780226336878,-0.3234470526324671
1708440576.496999,-1.1063039302825928,-1.6813341579832972,-2.5261545817004603,2.281796856517456,-1.0165823141681116,-0.3233225981341761
1708440576.4989738,-1.1062710285186768,-1.6813341579832972,-2.5261665026294153,2.281771345729492,-1.0166061560260218,-0.3232358137713831
1708440576.5009758,-1.1062800884246826,-1.6813136539854945,-2.526212278996603,2.281792326564453,-1.0166109243976038,-0.3231151739703577
1708440576.5030105,-1.106245756149292,-1.6813703976073207,-2.5261502901660364,2.281810446376465,-1.016568962727682,-0.32301122346986944
1708440576.5050044,-1.1062874794006348,-1.6813093624510707,-2.5261829535113733,2.281789465541504,-1.0165861288653772,-0.3229411284076136
1708440576.5069869,-1.1062681674957275,-1.6813465557494105,-2.5261829535113733,2.281747742290161,-1.0165618101703089,-0.3227751890765589
1708440576.5090096,-1.1062920093536377,-1.681316991845602,-2.5261784235583704,2.28176395475354,-1.016573731099264,-0.32260162035097295
1708440576.5110083,-1.1062772274017334,-1.6813255749144496,-2.5262280146228235,2.281759424800537,-1.0166061560260218,-0.3225024382220667
1708440576.5130305,-1.1062257289886475,-1.6813703976073207,-2.5262156168567103,2.281756563777588,-1.016601864491598,-0.3224247137652796
1708440576.5150263,-1.1063309907913208,-1.681361814538473,-2.5262442270862024,2.2817396360584716,-1.016623322163717,-0.32226735750307256
1708440576.5169947,-1.1062393188476562,-1.6813212833800257,-2.5262234846698206,2.2817656236835937,-1.016601864491598,-0.3221629301654261
1708440576.5190356,-1.1062363386154175,-1.6813904247679652,-2.5262604395495813,2.2816755014606933,-1.0165885130511683,-0.3220713774310511
1708440576.5210211,-1.1061961650848389,-1.6813661060728968,-2.5262277762042444,2.281717224712036,-1.016601864491598,-0.3219516913043421
1708440576.5230172,-1.1061961650848389,-1.681345125237936,-2.526219193135397,2.281684561366699,-1.0166142622577112,-0.3217867056476038
1708440576.525012,-1.1061781644821167,-1.681316991845602,-2.5262113253222864,2.2816013532825927,-1.0165813604937952,-0.3216803709613245
1708440576.5270035,-1.1061632633209229,-1.6813293896117152,-2.5262354055987757,2.2816220956989746,-1.0166142622577112,-0.3215587774859827
1708440576.5290475,-1.1061677932739258,-1.681316991845602,-2.5261698404895228,2.2816313940235595,-1.0166261831866663,-0.3214028517352503
1708440576.530988,-1.1061724424362183,-1.6813208065428675,-2.526214663182394,2.2816430765339355,-1.0166218916522425,-0.32133609453310186
1708440576.533018,-1.1061599254608154,-1.6813484630980433,-2.5262604395495813,2.281644745463989,-1.0166338125811976,-0.32118302980531865
1708440576.5351036,-1.1061389446258545,-1.6813575230040492,-2.5262277762042444,2.2816569048115234,-1.0166662375079554,-0.32104760805238897
1708440576.5369883,-1.1061151027679443,-1.6813494167723597,-2.526214663182394,2.2816166120716552,-1.0166338125811976,-0.3209269682513636
1708440576.5389872,-1.1061122417449951,-1.681394716302389,-2.526280228291647,2.281600161189697,-1.0166619459735315,-0.3207786718951624
1708440576.540986,-1.1061211824417114,-1.6814223728575648,-2.5262396971331995,2.281545801753662,-1.0166619459735315,-0.32060224214662725
1708440576.5429566,-1.106071949005127,-1.6813746891417445,-2.526280228291647,2.2816046911427,-1.0166743437396448,-0.3205769697772425
1708440576.5449603,-1.1060595512390137,-1.68141569713735,-2.5262473265277308,2.281521959895752,-1.0166857878314417,-0.3203619162188929
1708440576.5469594,-1.1060267686843872,-1.6813646755614222,-2.5262604395495813,2.281514807338379,-1.0166900793658655,-0.320258919392721
1708440576.5489652,-1.1060765981674194,-1.6813732586302699,-2.5262680689441126,2.2815117078968505,-1.0167072455035608,-0.32008248964418584
1708440576.550983,-1.1060073375701904,-1.6813823185362757,-2.5262680689441126,2.2815489011951904,-1.016672436391012,-0.3199709097491663
1708440576.5530167,-1.1060327291488647,-1.68133606533193,-2.5262473265277308,2.2814997869678955,-1.016719166432516,-0.3198016325580042
1708440576.5550015,-1.1059999465942383,-1.6813436947264613,-2.526250425969259,2.2814969259449462,-1.0166857878314417,-0.3196662108050745
1708440576.5569866,-1.105979084968567,-1.681430002252096,-2.526222292576925,2.2815043169208984,-1.0167143980609339,-0.319493595753805
1708440576.558989,-1.1059309244155884,-1.681401868859762,-2.526275698338644,2.281489058131836,-1.0166767279254358,-0.31935006776918584
1708440576.560967,-1.1059637069702148,-1.681427618066305,-2.526238505040304,2.281472607249878,-1.0166891256915491,-0.31927568117250615
1708440576.562972,-1.1059274673461914,-1.6813813648619593,-2.5263009707080286,2.281399651164673,-1.0167010466205042,-0.31906205812563115
1708440576.5649874,-1.1059110164642334,-1.6814424000182093,-2.526280228291647,2.2813705640980224,-1.0167010466205042,-0.3189628759967249
1708440576.566955,-1.105853796005249,-1.6813932857909144,-2.52627140680422,2.2814084726520996,-1.0167339483844202,-0.31881839433778936
1708440576.568974,-1.1058701276779175,-1.6814919910826625,-2.526259247456686,2.281388683910034,-1.0167577902423304,-0.31864959398378545
1708440576.5709782,-1.105865716934204,-1.6813765964903773,-2.526243034993307,2.2814013200947265,-1.0167296568499964,-0.31846410432924444
1708440576.572976,-1.1058554649353027,-1.6814032993712367,-2.526304308568136,2.281392975444458,-1.0167129675494593,-0.3183987776385706
1708440576.5750046,-1.105900764465332,-1.6814290485777796,-2.5262702147113245,2.281327648753784,-1.0168235937701624,-0.3182590643512171
1708440576.5769653,-1.1058509349822998,-1.6814571819701136,-2.526316229497091,2.281360312099121,-1.0167949835406702,-0.3180459181415003
1708440576.5790007,-1.1058197021484375,-1.6815444431700648,-2.5262659231769007,2.2813002306171875,-1.0167415777789515,-0.31793386140932256
1708440576.5809731,-1.1058151721954346,-1.6814614735045375,-2.5263193289386194,2.2812837797352294,-1.016799275075094,-0.3177526632892054
1708440576.5829718,-1.1058169603347778,-1.6815229854979457,-2.5262702147113245,2.281297131175659,-1.0167458693133753,-0.3176468054400843
1708440576.585028,-1.1057789325714111,-1.681526323358053,-2.5263312498675745,2.281285210246704,-1.0167740027057093,-0.31744462648500615
1708440576.5869946,-1.105767011642456,-1.6815053425230921,-2.5263193289386194,2.2812599378773193,-1.0167902151690882,-0.31732160249818975
1708440576.5890214,-1.105771541595459,-1.681497713128561,-2.5263806025134485,2.281245155925415,-1.0167606512652796,-0.31714135805238897
1708440576.591003,-1.1057641506195068,-1.6814891300597132,-2.5263312498675745,2.281236096019409,-1.0167606512652796,-0.31697351137270147
1708440576.5930183,-1.1057924032211304,-1.6815501652159632,-2.5263474623309534,2.2811953264423828,-1.0167773405658167,-0.31683856645693
1708440576.5949867,-1.1056984663009644,-1.6815368137755335,-2.5263596216784876,2.2812089163013916,-1.0167606512652796,-0.31669885316957647
1708440576.5969808,-1.1057119369506836,-1.6815129719176234,-2.5263474623309534,2.2812043863483886,-1.0167844931231897,-0.31650096574892217
1708440576.5989826,-1.1056711673736572,-1.6815086803831996,-2.5263269583331507,2.2811598020740966,-1.0168102423297327,-0.3162763754474085
1708440576.6009507,-1.1057040691375732,-1.6815535030760707,-2.5263400713550013,2.2811760145374755,-1.0167935530291956,-0.31614524522890264
1708440576.603021,-1.1056339740753174,-1.6815864048399867,-2.5263386408435267,2.2811433511921386,-1.0167892614947718,-0.31599361101259404
1708440576.6050484,-1.1056921482086182,-1.681481500665182,-2.5263431707965296,2.2811893659779052,-1.0168417135821741,-0.3158014456378382
1708440576.607037,-1.1056190729141235,-1.681540151635641,-2.5263431707965296,2.281149311656616,-1.0168502966510218,-0.31556398073305303
1708440576.6090252,-1.1056444644927979,-1.681650777856344,-2.5263808409320276,2.281158371562622,-1.01685077348818,-0.31541759172548467
1708440576.6110013,-1.1056488752365112,-1.6816183529295863,-2.5263925234424036,2.28115098058667,-1.01685077348818,-0.31526500383485967
1708440576.6130106,-1.1055872440338135,-1.6816326580443324,-2.5263763109790247,2.281078501338623,-1.0168374220477503,-0.3150976339923304
1708440576.6150486,-1.1056416034698486,-1.6816092930235804,-2.5263970533954065,2.28110854207959,-1.0168417135821741,-0.31488067308534795
1708440576.6170332,-1.10555899143219,-1.6816045246519984,-2.5263763109790247,2.2810847002216796,-1.0168207327472132,-0.31468421617616826
1708440576.619035,-1.1055963039398193,-1.6816092930235804,-2.5263763109790247,2.2810401159473876,-1.016869846974508,-0.3144801298724573
1708440576.6210036,-1.1055634021759033,-1.6816626987852992,-2.526367489491598,2.2810608583637695,-1.016857926045553,-0.3143046537982386
1708440576.622999,-1.1056171655654907,-1.6816207371153773,-2.526318136845724,2.2810727792927246,-1.0168941656695765,-0.31410056749452764
1708440576.6250086,-1.1055842638015747,-1.6816703281798304,-2.5263598600970667,2.2810744482227783,-1.0168493429767054,-0.3139246145831507
1708440576.626984,-1.105614185333252,-1.6816703281798304,-2.5263431707965296,2.281020088786743,-1.0168817679034632,-0.31370431581606084
1708440576.628982,-1.105528712272644,-1.6816612682738246,-2.526367489491598,2.2810324865528564,-1.0168684164630335,-0.31350785890688115
1708440576.6309917,-1.1054942607879639,-1.6817265949644984,-2.526318136845724,2.281024618739746,-1.0169060865985315,-0.3132994810687464
1708440576.6329632,-1.1055078506469727,-1.6816450558104457,-2.526334349309103,2.281019850368164,-1.0169418493853968,-0.3130715529071253
1708440576.6349938,-1.1055004596710205,-1.681714197198385,-2.5263169447528284,2.2810379701801757,-1.016904656087057,-0.31289989153017217
1708440576.636976,-1.1054885387420654,-1.68170227626943,-2.526379410420553,2.281059427852295,-1.0169137159930628,-0.31263477007021123
1708440576.6389964,-1.1054631471633911,-1.6816727123656214,-2.526363197957174,2.280963583583496,-1.016928497944967,-0.3124354521380823
1708440576.6409926,-1.1055138111114502,-1.6817218265929164,-2.5264044443713587,2.2809650140949707,-1.0169585386859339,-0.3121860663043421
1708440576.6430075,-1.1054810285568237,-1.6817013225951136,-2.5263705889331263,2.28093068181958,-1.0169628302203577,-0.31204063097109014
1708440576.6449654,-1.1054311990737915,-1.6817218265929164,-2.526363197957174,2.2809740740009765,-1.0169537703143519,-0.3117621580706995
1708440576.6469903,-1.1054437160491943,-1.6816851101317347,-2.526346508656637,2.280968113536499,-1.0169418493853968,-0.31156713167299444
1708440576.6489885,-1.1054404973983765,-1.68165983776235,-2.526358668004171,2.2810348707386474,-1.0169332663165491,-0.3113139311419886
1708440576.6509702,-1.1054188013076782,-1.681620260278219,-2.52638823190798,2.2809321123310546,-1.016900364552633,-0.31111175218691045
1708440576.6529963,-1.1054160594940186,-1.6816979847350062,-2.526407782231466,2.2809459406086425,-1.0169828573810022,-0.3108909765826624
1708440576.6549733,-1.1054234504699707,-1.6816770039000453,-2.526358668004171,2.2809411722370605,-1.0169509092914026,-0.3106501738177698
1708440576.6570168,-1.1054279804229736,-1.6817218265929164,-2.526452366505758,2.280937834376953,-1.0169828573810022,-0.3103898207293909
1708440576.6589906,-1.1054234504699707,-1.6817056141295375,-2.526391331349508,2.280927820796631,-1.0169737974749964,-0.3101261297809046
1708440576.6610115,-1.1053757667541504,-1.6817175350584925,-2.52641207376589,2.280890627498291,-1.0169828573810022,-0.3099430243121546
1708440576.6630044,-1.1053831577301025,-1.6816722355284632,-2.5263989607440394,2.280908985728882,-1.0169828573810022,-0.30969077745546514
1708440576.6649692,-1.1053622961044312,-1.6817056141295375,-2.526395622883932,2.280904455775879,-1.0169780890094202,-0.3094423452960413
1708440576.6670167,-1.1053966283798218,-1.6816970310606898,-2.526423994694845,2.280904455775879,-1.0169943014727991,-0.3092301527606409
1708440576.6690102,-1.1054011583328247,-1.6816851101317347,-2.5264185110675257,2.2809178072163085,-1.0169571081744593,-0.3089483420001429
1708440576.6709702,-1.1053519248962402,-1.6816970310606898,-2.5264273325549524,2.2808353143879394,-1.0169809500323694,-0.3087504545794886
1708440576.6729941,-1.1053638458251953,-1.681676527062887,-2.5263870398150843,2.2809013563343505,-1.0169604460345667,-0.3084939161883753
1708440576.6749668,-1.1053519248962402,-1.6816894016661585,-2.526456896458761,2.280812903041504,-1.0170019308673304,-0.30822974840273076
1708440576.6770086,-1.1053847074508667,-1.6817099056639613,-2.5264392534839075,2.2809013563343505,-1.016989533101217,-0.30798513094057256
1708440576.6789815,-1.1053440570831299,-1.6816970310606898,-2.526419464741842,2.2808851438709716,-1.0169737974749964,-0.3077343145953577
1708440576.6809685,-1.1053593158721924,-1.6816970310606898,-2.5264557043658655,2.2809013563343505,-1.0169718901263636,-0.30742007890810186
1708440576.6830046,-1.1053473949432373,-1.6817056141295375,-2.526442591344015,2.2808806139179687,-1.0170062224017542,-0.30722028413881475
1708440576.6849823,-1.105323076248169,-1.681680818597311,-2.5264557043658655,2.2808970647999267,-1.0169885794269007,-0.3069575468646448
1708440576.6870136,-1.1053611040115356,-1.6816641292967738,-2.5264020601855677,2.2808970647999267,-1.0170095602618616,-0.30665284792055303
1708440576.6890235,-1.1053321361541748,-1.6817089519896449,-2.5264435450183313,2.2808851438709716,-1.0170214811908167,-0.3064158598529261
1708440576.6909907,-1.1053111553192139,-1.6816894016661585,-2.5264349619494837,2.2809013563343505,-1.0169885794269007,-0.30615741411318
1708440576.6929789,-1.1052665710449219,-1.681680818597311,-2.526393238698141,2.2808567720600585,-1.0170376936541956,-0.30592137971986944
1708440576.6949677,-1.1053348779678345,-1.6817132435240687,-2.526421610509054,2.280892534846924,-1.0170705954181116,-0.30560094514955694
1708440576.696998,-1.105245590209961,-1.6817132435240687,-2.526442591344015,2.280921383494995,-1.017008129750387,-0.3053816000567835
1708440576.6990042,-1.1053037643432617,-1.681680818597311,-2.526503864918844,2.2809104162403564,-1.0170124212848108,-0.3050645033465784
1708440576.701021,-1.1053082942962646,-1.6817132435240687,-2.5264185110675257,2.280838890666626,-1.0170782248126429,-0.30480844179262334
1708440576.7030215,-1.1052709817886353,-1.6816555462279261,-2.526475254689352,2.280871792430542,-1.0170825163470667,-0.30450421968568975
1708440576.7050333,-1.1053528785705566,-1.6817132435240687,-2.5264840761767786,2.280843420619629,-1.0170334021197718,-0.3042524496661585
1708440576.70697,-1.1053037643432617,-1.6817251644530238,-2.5264959971057337,2.280892534846924,-1.017052952443258,-0.3039963881122034
1708440576.7090242,-1.1053320169448853,-1.68165983776235,-2.526479784642355,2.2808686929890136,-1.0170648733722132,-0.303748909627096
1708440576.7109952,-1.1053528785705566,-1.6816970310606898,-2.5264304319964808,2.2809058862873535,-1.0170858542071741,-0.3034604231463831
1708440576.7130084,-1.1053067445755005,-1.6817294559874476,-2.526499334965841,2.2808970647999267,-1.0170648733722132,-0.3031113783465784
1708440576.7150042,-1.1053037643432617,-1.6817132435240687,-2.5264676252948206,2.280843420619629,-1.0170734564410608,-0.3028476873980921
1708440576.717024,-1.1053231954574585,-1.6817294559874476,-2.5264840761767786,2.2809013563343505,-1.0170601050006312,-0.30256396928896123
1708440576.7190208,-1.1053200960159302,-1.6817165813841761,-2.526482884083883,2.280930443401001,-1.0170906225787562,-0.30229026476015264
1708440576.7210395,-1.1052873134613037,-1.6817337475218714,-2.5264621416675013,2.280921383494995,-1.0170725027667444,-0.3021205107318323
1708440576.7230024,-1.1053037643432617,-1.6817413769164027,-2.526512686406271,2.2808806139179687,-1.0170930067645472,-0.3017995993243616
1708440576.724978,-1.1053365468978882,-1.681680818597311,-2.526541058217184,2.2808882433125,-1.0171054045306605,-0.3015363852130335
1708440576.7270086,-1.1052993535995483,-1.681676527062887,-2.526479784642355,2.2809178072163085,-1.0171173254596155,-0.3012355009662073
1708440576.7290287,-1.1053202152252197,-1.6817456684508265,-2.526532236729757,2.28094665586438,-1.0170839468585413,-0.3009756247149866
1708440576.7309954,-1.1053365468978882,-1.6817089519896449,-2.5264371077166956,2.280855341548584,-1.0171054045306605,-0.3006632963763636
1708440576.7329993,-1.1053156852722168,-1.6816851101317347,-2.5264914671527308,2.280847950572632,-1.0171173254596155,-0.3003304640399378
1708440576.734988,-1.105370044708252,-1.6816970310606898,-2.52647835413088,2.280859871501587,-1.017148796712057,-0.30006724992860967
1708440576.7370124,-1.1052874326705933,-1.6817337475218714,-2.526503626500265,2.2809223371693115,-1.0171292463885706,-0.2997377554522913
1708440576.738984,-1.105318546295166,-1.6817218265929164,-2.526466433201925,2.280850573177002,-1.0171783606158655,-0.2994588057147425
1708440576.7410023,-1.1053200960159302,-1.6816841564574183,-2.526482884083883,2.280878944987915,-1.0171573797809046,-0.29921085039247686
1708440576.7429864,-1.1053862571716309,-1.6816722355284632,-2.526532236729757,2.2808970647999267,-1.0171693007098597,-0.2989557425128382
1708440576.7449892,-1.105257511138916,-1.6817180118956507,-2.526503626500265,2.280925913447998,-1.0171740690814417,-0.29873973528017217
1708440576.7469838,-1.1052993535995483,-1.6817294559874476,-2.526466433201925,2.2808970647999267,-1.0171826521502894,-0.2984502951251429
1708440576.7489862,-1.1053320169448853,-1.68165983776235,-2.5265396277057093,2.2808970647999267,-1.0171650091754358,-0.2981622854815882
1708440576.7509847,-1.1052948236465454,-1.6817099056639613,-2.52647835413088,2.280904455775879,-1.0171783606158655,-0.2978733221637171
1708440576.753033,-1.105308175086975,-1.681687971154684,-2.526536528264181,2.2809132772633056,-1.0171826521502894,-0.29762202898134404
1708440576.7549891,-1.105290412902832,-1.6817132435240687,-2.5264981428729456,2.280942364329956,-1.0171130339251917,-0.29733068147768194
1708440576.7569945,-1.1053082942962646,-1.6817132435240687,-2.5265069643603724,2.280904455775879,-1.0171650091754358,-0.29702979723085576
1708440576.7590058,-1.10528564453125,-1.681730409661764,-2.5265560785876673,2.280942364329956,-1.0171573797809046,-0.2967618147479456
1708440576.7610087,-1.105290412902832,-1.6816970310606898,-2.5265191237079065,2.280904455775879,-1.017144028340475,-0.296518627797262
