Eg3-git/Classifiers/Data Collection/u7/u7star3_ur3e_joint_states.csv
time,elbow_joint,shoulder_lift_joint,shoulder_pan_joint,wrist_1_joint,wrist_2_joint,wrist_3_joint
1708440544.1649709,-1.14457106590271,-1.6603943310179652,-2.5239723364459437,2.3215572076984863,-1.012430493031637,0.11147961020469666
1708440544.166955,-1.14458429813385,-1.660391469995016,-2.5239439646350306,2.321545286769531,-1.0123980681048792,0.11140495538711548
1708440544.1689866,-1.1445679664611816,-1.6603409252562464,-2.5239439646350306,2.321516676540039,-1.0123980681048792,0.11142134666442871
1708440544.1709566,-1.144620656967163,-1.6603542766966761,-2.5239689985858362,2.3215152460285644,-1.012418572102682,0.11140942573547363
1708440544.172933,-1.1445635557174683,-1.6604286632933558,-2.5239275137530726,2.321537895793579,-1.0123894850360315,0.11144943535327911
1708440544.1749415,-1.144599199295044,-1.660452505151266,-2.52396804491152,2.321504755611084,-1.0123699347125452,0.11141695082187653
1708440544.176969,-1.1445308923721313,-1.660424371758932,-2.5239930788623255,2.32151381551709,-1.012414280568258,0.11146289110183716
1708440544.1789856,-1.144616961479187,-1.6603943310179652,-2.5239318052874964,2.32151381551709,-1.0123489538775843,0.11142129451036453
1708440544.1809428,-1.1445798873901367,-1.66041960338735,-2.5239723364459437,2.321504755611084,-1.012402359639303,0.1114184781908989
1708440544.1829622,-1.1445651054382324,-1.6603852711119593,-2.5239766279803675,2.321471615428589,-1.012353245412008,0.1114005520939827
1708440544.1849415,-1.1445635557174683,-1.660403390923971,-2.5239439646350306,2.3215347963520507,-1.0124056974994105,0.11141079664230347
1708440544.1869233,-1.14456045627594,-1.6604567966856898,-2.5239275137530726,2.3214568334766845,-1.012402359639303,0.11137180775403976
1708440544.1889515,-1.14456045627594,-1.660424371758932,-2.5239644686328333,2.3214942651936035,-1.0123980681048792,0.11138984560966492
1708440544.1909423,-1.1445472240447998,-1.660403390923971,-2.5239439646350306,2.3214568334766845,-1.0123980681048792,0.11143739521503448
1708440544.1929529,-1.1445767879486084,-1.6604110203185023,-2.5239482561694544,2.3214823442646484,-1.0123980681048792,0.1114049181342125
1708440544.194923,-1.1445679664611816,-1.6604482136168421,-2.5239439646350306,2.321441813106201,-1.0123861471759241,0.11142854392528534
1708440544.1969204,-1.144518256187439,-1.6604062519469203,-2.5239439646350306,2.321404381389282,-1.0123656431781214,0.11138381063938141
1708440544.1989243,-1.1445472240447998,-1.660431524316305,-2.5239439646350306,2.321441813106201,-1.0124099890338343,0.1114184707403183
1708440544.2009282,-1.1445635557174683,-1.6604062519469203,-2.5239930788623255,2.32142083227124,-1.0123861471759241,0.11137178540229797
1708440544.2029374,-1.1445651054382324,-1.6604515514769496,-2.5239689985858362,2.3213998514362792,-1.0123980681048792,0.11142580956220627
1708440544.2049165,-1.144522786140442,-1.6604334316649378,-2.5239482561694544,2.321446343059204,-1.012357536946432,0.11144647747278214
1708440544.2069814,-1.1445651054382324,-1.6604272327818812,-2.523951594029562,2.321437283153198,-1.0124390761004847,0.11141695827245712
1708440544.2089305,-1.144539713859558,-1.6604138813414515,-2.5238948504077356,2.3214239317127685,-1.0124228636371058,0.11141247302293777
1708440544.210924,-1.1445226669311523,-1.6604062519469203,-2.5239318052874964,2.3214449125477294,-1.012414280568258,0.11139270663261414
1708440544.2129185,-1.1445547342300415,-1.6604229412474574,-2.5239396731006067,2.3214539724537353,-1.0123861471759241,0.11142583191394806
1708440544.214925,-1.144518256187439,-1.660431524316305,-2.52393609682192,2.3214823442646484,-1.0124066511737269,0.11140494048595428
1708440544.2169185,-1.1445317268371582,-1.6604138813414515,-2.5239155928241175,2.3214658933826904,-1.0123613516436976,0.11144647747278214
1708440544.218926,-1.1445146799087524,-1.6604391537108363,-2.5239439646350306,2.321437283153198,-1.012390438710348,0.11143489181995392
1708440544.22092,-1.1445270776748657,-1.6604482136168421,-2.5239558855639856,2.3214327532001953,-1.012390438710348,0.11137938499450684
1708440544.2229304,-1.1445101499557495,-1.6604272327818812,-2.52393085161318,2.321392222041748,-1.0123656431781214,0.11142134666442871
1708440544.2249372,-1.144553303718567,-1.6604272327818812,-2.5239811579333704,2.321371479625366,-1.0123613516436976,0.11141401529312134
1708440544.2269306,-1.144498348236084,-1.660403390923971,-2.5239842573748987,2.3214313226887207,-1.0123785177813929,0.11143741011619568
1708440544.2289639,-1.1444892883300781,-1.66041960338735,-2.52393609682192,2.3213981825062255,-1.0124390761004847,0.11140493303537369
1708440544.2309327,-1.1445029973983765,-1.6604649029173792,-2.5239275137530726,2.321404381389282,-1.0123336950885218,0.11138827353715897
1708440544.2329297,-1.1444791555404663,-1.6604153118529261,-2.5239558855639856,2.321408911342285,-1.0123775641070765,0.11147633194923401
1708440544.2349503,-1.1444954872131348,-1.6603900394835414,-2.523914400731222,2.321417971248291,-1.0123785177813929,0.11143741011619568
1708440544.2369435,-1.1444954872131348,-1.660431524316305,-2.5239766279803675,2.321417971248291,-1.0123828093158167,0.11146283149719238
1708440544.2389631,-1.14452064037323,-1.660440584222311,-2.5239232222186487,2.321413441295288,-1.0123947302447718,0.11142133176326752
1708440544.2409234,-1.1444672346115112,-1.660436292687887,-2.5239887873279017,2.3214315611072998,-1.0123699347125452,0.11143742501735687
1708440544.2429254,-1.1444628238677979,-1.6603900394835414,-2.523902479802267,2.3214194017597656,-1.0123489538775843,0.11144495010375977
1708440544.244918,-1.1444954872131348,-1.6604110203185023,-2.5239439646350306,2.321405811900757,-1.0123861471759241,0.11142397671937943
1708440544.2469099,-1.14452064037323,-1.660431524316305,-2.523935381566183,2.321396751994751,-1.0124066511737269,0.11144188046455383
1708440544.248923,-1.1444910764694214,-1.6604391537108363,-2.523935381566183,2.321405811900757,-1.0123861471759241,0.11139602214097977
1708440544.2509534,-1.1444672346115112,-1.6604391537108363,-2.5239601770984095,2.321417971248291,-1.0123861471759241,0.11143937706947327
1708440544.2529383,-1.1444628238677979,-1.6604806385436,-2.5239439646350306,2.321389361018799,-1.0123980681048792,0.11141698062419891
1708440544.2549322,-1.1444716453552246,-1.6604229412474574,-2.5239110628711146,2.321392222041748,-1.0123980681048792,0.11137938499450684
1708440544.2569242,-1.1445132493972778,-1.6604229412474574,-2.5239558855639856,2.3213984209248046,-1.0123656431781214,0.11146730184555054
1708440544.2589152,-1.1444389820098877,-1.6604763470091761,-2.5239275137530726,2.321408911342285,-1.0123861471759241,0.11141844093799591
1708440544.260948,-1.1444553136825562,-1.6604019604124964,-2.5239275137530726,2.3214103418537597,-1.0123947302447718,0.11141398549079895
1708440544.26296,-1.1444345712661743,-1.660469194451803,-2.5239439646350306,2.3213655191608886,-1.0123489538775843,0.11140942573547363
1708440544.2649367,-1.1444628238677979,-1.6604472599425257,-2.5239644686328333,2.321429892177246,-1.0123661200152796,0.11144644021987915
1708440544.2669225,-1.144431471824646,-1.6604672871031703,-2.5239527861224573,2.321368380183838,-1.0123446623431605,0.11142583936452866
1708440544.268929,-1.1445043087005615,-1.6604472599425257,-2.5239887873279017,2.3213938909718017,-1.0123699347125452,0.1114538237452507
1708440544.270906,-1.144476056098938,-1.6603929005064906,-2.523951594029562,2.321364088649414,-1.0124314467059534,0.11144495010375977
1708440544.2730217,-1.144476056098938,-1.6604792080321253,-2.5239396731006067,2.3213609892078857,-1.0123699347125452,0.11143037676811218
1708440544.274963,-1.1445132493972778,-1.6604391537108363,-2.5239482561694544,2.321422501201294,-1.012418572102682,0.11149892210960388
1708440544.277021,-1.1445250511169434,-1.6604472599425257,-2.523918692265646,2.321389361018799,-1.0123251120196741,0.11144186556339264
1708440544.2789679,-1.1444597244262695,-1.6604587040343226,-2.523914400731222,2.321335478419922,-1.0123699347125452,0.11143741011619568
1708440544.2809424,-1.1444716453552246,-1.6604911289610804,-2.523951594029562,2.3213729101368408,-1.012418572102682,0.11141696572303772
1708440544.2829819,-1.1444522142410278,-1.660506387750143,-2.5239930788623255,2.3213400083729248,-1.0123785177813929,0.11149593442678452
1708440544.2849348,-1.1444270610809326,-1.660555978814596,-2.52396804491152,2.3213655191608886,-1.0123785177813929,0.11142134666442871
1708440544.2869463,-1.1444923877716064,-1.6605588398375453,-2.523935143147604,2.3213774400898437,-1.0124066511737269,0.11144942045211792
1708440544.2889998,-1.144476056098938,-1.6606036625304164,-2.523951594029562,2.3213578897663574,-1.0123990217791956,0.11145827919244766
1708440544.290936,-1.1444613933563232,-1.6605903110899867,-2.52393085161318,2.321405811900757,-1.0124433676349085,0.11142134666442871
1708440544.2929473,-1.144431471824646,-1.6605922184386195,-2.5239973703967493,2.321401281947754,-1.0123861471759241,0.11138385534286499
1708440544.2949085,-1.144409418106079,-1.6606246433653773,-2.5239439646350306,2.3213235574909667,-1.0123785177813929,0.11144942045211792
1708440544.2969205,-1.1444685459136963,-1.6606093845763148,-2.5239275137530726,2.3213700491138916,-1.0123947302447718,0.11140494048595428
1708440544.2989235,-1.1444509029388428,-1.6605903110899867,-2.52396804491152,2.3213533598133544,-1.0123699347125452,0.11144500225782394
1708440544.30097,-1.1444777250289917,-1.6606723270811976,-2.5239482561694544,2.3213037687489013,-1.0124314467059534,0.11143741011619568
1708440544.3029482,-1.1444896459579468,-1.660654684106344,-2.52393609682192,2.321355028743408,-1.012390438710348,0.11139726638793945
1708440544.3049262,-1.1445131301879883,-1.6606503925719203,-2.5239644686328333,2.3213159280964355,-1.012374226246969,0.1114184558391571
1708440544.3069346,-1.1444716453552246,-1.6606184444823207,-2.5239318052874964,2.321309967631958,-1.0124262014972132,0.11138823628425598
1708440544.308931,-1.1444597244262695,-1.660642763177389,-2.5239558855639856,2.32123510419812,-1.0123656431781214,0.11145102232694626
1708440544.3109126,-1.1444716453552246,-1.660675664941305,-2.5239558855639856,2.321359558696411,-1.012357536946432,0.11143302917480469
1708440544.3129327,-1.1444050073623657,-1.660600324670309,-2.5239439646350306,2.321227713222168,-1.012390438710348,0.11141696572303772
1708440544.3149183,-1.1444848775863647,-1.660691877404684,-2.5239766279803675,2.321276827449463,-1.012374226246969,0.11147353053092957
1708440544.3169532,-1.144464135169983,-1.6606008015074671,-2.5239601770984095,2.32129351675,-1.012390438710348,0.11143037676811218
1708440544.3189309,-1.1444628238677979,-1.6606503925719203,-2.5239558855639856,2.3212904173084716,-1.012346092854635,0.11142134666442871
1708440544.320929,-1.1444848775863647,-1.6607042751707972,-2.5239275137530726,2.321255846614502,-1.0123861471759241,0.11143302917480469
1708440544.3230355,-1.1444967985153198,-1.6606503925719203,-2.5239558855639856,2.321260376567505,-1.012390438710348,0.11140942573547363
1708440544.3249478,-1.1444345712661743,-1.66068758587026,-2.52393085161318,2.3212694364735107,-1.0124271551715296,0.11144495010375977
1708440544.3269966,-1.1444182395935059,-1.6606680355467738,-2.5239558855639856,2.321298046703003,-1.012374226246969,0.11143742501735687
1708440544.3289404,-1.1444138288497925,-1.6606842480101527,-2.523935381566183,2.32133857786145,-1.0123403708087366,0.11144942045211792
1708440544.33092,-1.1444777250289917,-1.6606184444823207,-2.5239396731006067,2.32127229749646,-1.012402359639303,0.11144942045211792
1708440544.3329573,-1.1444804668426514,-1.660605093041891,-2.523935381566183,2.32127229749646,-1.012390438710348,0.11137483268976212
1708440544.3349211,-1.1444138288497925,-1.6606227360167445,-2.5239067713366907,2.3212858873554687,-1.012390438710348,0.11146287620067596
1708440544.3370059,-1.1444716453552246,-1.6606070003905238,-2.5239601770984095,2.321298046703003,-1.012374226246969,0.11143302917480469
1708440544.3389432,-1.144423007965088,-1.6605855427184046,-2.5239275137530726,2.3213187891193847,-1.012374226246969,0.11141249537467957
1708440544.340927,-1.1444522142410278,-1.660572191277975,-2.5239723364459437,2.3212320047565917,-1.0123375097857874,0.1114509105682373
1708440544.3429391,-1.144397497177124,-1.6605855427184046,-2.5239482561694544,2.3212813574024658,-1.012353245412008,0.11141249537467957
1708440544.344924,-1.144423007965088,-1.6606933079161585,-2.523935381566183,2.32129351675,-1.0123375097857874,0.11144495010375977
1708440544.3469427,-1.1444569826126099,-1.660539289514059,-2.523951594029562,2.321305437678955,-1.0123446623431605,0.11143741011619568
1708440544.3489351,-1.144436240196228,-1.6606813869872035,-2.5239930788623255,2.3212694364735107,-1.0123818556415003,0.11147499084472656
1708440544.350964,-1.1444182395935059,-1.6605574093260707,-2.5239525477038782,2.321314497584961,-1.0124066511737269,0.11136746406555176
1708440544.3529603,-1.1444182395935059,-1.6605855427184046,-2.52393085161318,2.321276827449463,-1.0124109427081507,0.11140793561935425
1708440544.354927,-1.1443811655044556,-1.6605617008604945,-2.523914400731222,2.3212649065205078,-1.0123613516436976,0.11142854392528534
1708440544.356961,-1.1444182395935059,-1.6607052288451136,-2.5239723364459437,2.321302576656006,-1.0123613516436976,0.11140058189630508
1708440544.3589246,-1.1444613933563232,-1.6605564556517542,-2.5239439646350306,2.321284456843994,-1.0123656431781214,0.11144037544727325
1708440544.3609166,-1.144482135772705,-1.6606227360167445,-2.523947064076559,2.32127229749646,-1.012374226246969,0.11144495010375977
1708440544.362939,-1.1444066762924194,-1.6606227360167445,-2.523951594029562,2.321298046703003,-1.0123785177813929,0.11139610409736633
1708440544.3649566,-1.1444358825683594,-1.6605764828123988,-2.5239275137530726,2.321298046703003,-1.0123871008502405,0.11146166920661926
1708440544.3669362,-1.1444318294525146,-1.6606027088561,-2.5239887873279017,2.321276827449463,-1.0123990217791956,0.1114538237452507
1708440544.3689387,-1.1444848775863647,-1.6606027088561,-2.523963753377096,2.3212529855915527,-1.0124109427081507,0.11142130941152573
1708440544.3709369,-1.1444066762924194,-1.6606160602965296,-2.5240049997912806,2.3212813574024658,-1.012390438710348,0.11139154434204102
1708440544.3729508,-1.1444358825683594,-1.660658975640768,-2.5239558855639856,2.321276827449463,-1.0123947302447718,0.11140943318605423
1708440544.3749342,-1.1444358825683594,-1.6606112919249476,-2.523926560078756,2.3212813574024658,-1.0123699347125452,0.11146168410778046
1708440544.37694,-1.1444138288497925,-1.6605903110899867,-2.5239558855639856,2.321298046703003,-1.0123947302447718,0.1113702803850174
1708440544.3789265,-1.1444569826126099,-1.660605093041891,-2.5239723364459437,2.3212858873554687,-1.0124195257769983,0.11148402094841003
1708440544.38094,-1.1444138288497925,-1.6606093845763148,-2.523914400731222,2.3212813574024658,-1.0123699347125452,0.11142583191394806
1708440544.3829653,-1.1444389820098877,-1.6606728039183558,-2.5239232222186487,2.321321888560913,-1.012374226246969,0.1114213615655899
1708440544.3849251,-1.1444804668426514,-1.660600324670309,-2.5239275137530726,2.3212901788898925,-1.0123861471759241,0.11144495010375977
1708440544.386965,-1.144423007965088,-1.6606384716429652,-2.5239689985858362,2.321298046703003,-1.0123947302447718,0.11141247302293777
1708440544.388946,-1.1444274187088013,-1.6606093845763148,-2.523914400731222,2.3212784963795166,-1.0123775641070765,0.11140057444572449
1708440544.3909378,-1.1444777250289917,-1.6605740986266078,-2.5239067713366907,2.321256085033081,-1.012353245412008,0.11142293363809586
1708440544.392957,-1.1444181203842163,-1.6605802975096644,-2.523979965840475,2.321321888560913,-1.012374226246969,0.11142854392528534
1708440544.3949535,-1.1444226503372192,-1.6606027088561,-2.5239558855639856,2.321284456843994,-1.0123818556415003,0.11139609664678574
1708440544.396966,-1.1444406509399414,-1.6606112919249476,-2.5239601770984095,2.3212484556385498,-1.012402359639303,0.11145380139350891
1708440544.3989556,-1.1444138288497925,-1.6605802975096644,-2.52396804491152,2.321298046703003,-1.012418572102682,0.11139722913503647
1708440544.400971,-1.144431471824646,-1.660560747186178,-2.5239396731006067,2.32133071004834,-1.0124109427081507,0.1114661693572998
1708440544.402949,-1.1444358825683594,-1.6606518230833949,-2.5239723364459437,2.321321888560913,-1.012418572102682,0.11145830899477005
1708440544.4049156,-1.1444270610809326,-1.660654684106344,-2.5239811579333704,2.32129351675,-1.0123775641070765,0.1114213615655899
1708440544.4069443,-1.1444406509399414,-1.6606112919249476,-2.523935381566183,2.3213609892078857,-1.0124066511737269,0.11141245067119598
1708440544.4089248,-1.1444569826126099,-1.660593648950094,-2.5239766279803675,2.3212813574024658,-1.0123699347125452,0.111383818089962
1708440544.4109251,-1.144423007965088,-1.6605917416014613,-2.523935381566183,2.3212529855915527,-1.012390438710348,0.11144495010375977
1708440544.4129388,-1.1444450616836548,-1.6606093845763148,-2.5239232222186487,2.32133071004834,-1.0123861471759241,0.11142581701278687
1708440544.4149222,-1.1444358825683594,-1.6606728039183558,-2.5239558855639856,2.321251555080078,-1.0123861471759241,0.11145099997520447
1708440544.416954,-1.1444138288497925,-1.6606112919249476,-2.523951594029562,2.3212813574024658,-1.0123122374164026,0.11138381063938141
1708440544.4189491,-1.1444154977798462,-1.6606842480101527,-2.5239887873279017,2.321321888560913,-1.012418572102682,0.11142133176326752
1708440544.420954,-1.1443811655044556,-1.6607052288451136,-2.523910109196798,2.3212813574024658,-1.012418572102682,0.11142134666442871
1708440544.422945,-1.144423007965088,-1.6606561146178187,-2.523947064076559,2.321314497584961,-1.012402359639303,0.11136750131845474
1708440544.424933,-1.1444182395935059,-1.6606770954527796,-2.5239558855639856,2.3212947088428955,-1.0124099890338343,0.11145830154418945
1708440544.4270225,-1.1443947553634644,-1.6606184444823207,-2.52399188676943,2.321305437678955,-1.0124262014972132,0.11137938499450684
1708440544.42894,-1.1444478034973145,-1.6605855427184046,-2.523951594029562,2.3212694364735107,-1.0124099890338343,0.11143304407596588
1708440544.430935,-1.144390344619751,-1.6607052288451136,-2.523959223424093,2.3212529855915527,-1.0123818556415003,0.11141251027584076
1708440544.4329133,-1.1444822549819946,-1.6606518230833949,-2.523975674306051,2.3212320047565917,-1.0123937765704554,0.11143303662538528
1708440544.4349275,-1.1444569826126099,-1.6606384716429652,-2.523975674306051,2.32129351675,-1.012402359639303,0.11140492558479309
1708440544.4369044,-1.144423007965088,-1.6606723270811976,-2.5239830652820032,2.321239395732544,-1.0124219099627894,0.11143302172422409
1708440544.438947,-1.1444138288497925,-1.6606008015074671,-2.5239787737475794,2.3212694364735107,-1.012430493031637,0.11144188046455383
1708440544.440967,-1.1444478034973145,-1.660670896569723,-2.5239995161639612,2.321314497584961,-1.0124176184283655,0.1114213615655899
1708440544.4429667,-1.1444569826126099,-1.6606070003905238,-2.5240846315967005,2.321314497584961,-1.0124014059649866,0.11141695827245712
1708440544.4449453,-1.1444478034973145,-1.6607052288451136,-2.5240920225726526,2.321314497584961,-1.012430493031637,0.11140942573547363
1708440544.4469252,-1.144464135169983,-1.6606337032713832,-2.5240638891803187,2.321354790324829,-1.012446705495016,0.11141695827245712
1708440544.4489417,-1.1443973779678345,-1.6606503925719203,-2.52407151857485,2.321288986796997,-1.012343708668844,0.11140794306993484
1708440544.4509754,-1.1444494724273682,-1.6606680355467738,-2.524120871220724,2.3212484556385498,-1.0123570601092737,0.11141850799322128
1708440544.4529321,-1.1444110870361328,-1.660642763177389,-2.5240958372699183,2.3212529855915527,-1.0123851935016077,0.11140947788953781
1708440544.4549391,-1.1444138288497925,-1.6606227360167445,-2.52407151857485,2.321239634151123,-1.012458626423971,0.11139271408319473
1708440544.4569445,-1.1444066762924194,-1.6606027088561,-2.5241077581988733,2.3213278490253906,-1.0124099890338343,0.11146283149719238
1708440544.458939,-1.1443692445755005,-1.6606093845763148,-2.524128262196676,2.3212694364735107,-1.0124262014972132,0.11140945553779602
1708440544.460918,-1.144423007965088,-1.6605903110899867,-2.524066988621847,2.321255846614502,-1.0124381224261683,0.11140793561935425
1708440544.4629562,-1.1443872451782227,-1.6605922184386195,-2.5241077581988733,2.321298046703003,-1.0123937765704554,0.11144188046455383
1708440544.4650047,-1.1444035768508911,-1.6606518230833949,-2.5241239706622522,2.3212858873554687,-1.0124710241900843,0.11138385534286499
1708440544.466935,-1.1444154977798462,-1.6606813869872035,-2.524128262196676,2.3212739664265136,-1.0124219099627894,0.11140495538711548
1708440544.4689481,-1.144391655921936,-1.6606317959227503,-2.5241077581988733,2.3212813574024658,-1.0123894850360315,0.1114538237452507
1708440544.4709089,-1.1443991661071777,-1.6606227360167445,-2.524078432713644,2.321276827449463,-1.0124099890338343,0.11140495538711548
1708440544.4729037,-1.1443991661071777,-1.6606160602965296,-2.524112049733297,2.3212198454090576,-1.0123980681048792,0.11141249537467957
1708440544.4749827,-1.1443634033203125,-1.6605946026244105,-2.5240958372699183,2.321284456843994,-1.0124219099627894,0.11141699552536011
1708440544.4769638,-1.1443740129470825,-1.6606070003905238,-2.5240958372699183,2.3212813574024658,-1.0123851935016077,0.11145547032356262
1708440544.4789631,-1.144357681274414,-1.6605574093260707,-2.524120871220724,2.3212694364735107,-1.0124176184283655,0.11137934029102325
1708440544.4809556,-1.1443501710891724,-1.6605903110899867,-2.5240958372699183,2.321305437678955,-1.012458626423971,0.11138087511062622
1708440544.4829533,-1.144436240196228,-1.6605946026244105,-2.524104658757345,2.321288986796997,-1.0124133268939417,0.11141400039196014
1708440544.484983,-1.1444110870361328,-1.660654684106344,-2.5240913073169153,2.321326418513916,-1.0124824682818812,0.1114184707403183
1708440544.4869277,-1.144436240196228,-1.6606518230833949,-2.524100128804342,2.3213352400013427,-1.0124905745135706,0.11139271408319473
1708440544.4889421,-1.1443947553634644,-1.660682817498678,-2.5240920225726526,2.321321888560913,-1.012461010609762,0.11145537346601486
1708440544.4909425,-1.1443991661071777,-1.6606184444823207,-2.524132792149679,2.321260376567505,-1.0124948660479944,0.11142581701278687
1708440544.4929373,-1.144357681274414,-1.660593648950094,-2.5241077581988733,2.321314497584961,-1.012453858052389,0.11139723658561707
1708440544.4949362,-1.144390344619751,-1.6605893574156703,-2.524100128804342,2.321302576656006,-1.0124695936786097,0.11141696572303772
1708440544.4969435,-1.144378423690796,-1.6606770954527796,-2.524100128804342,2.3212858873554687,-1.012453858052389,0.11142134666442871
1708440544.4989223,-1.1444035768508911,-1.6606384716429652,-2.5241695086108606,2.321288986796997,-1.0124653021441858,0.11139270663261414
1708440544.500971,-1.144378423690796,-1.6606027088561,-2.5241358915912073,2.321330948466919,-1.012453858052389,0.11140942573547363
1708440544.5029259,-1.144390344619751,-1.660605093041891,-2.5240703264819544,2.321309967631958,-1.0124581495868128,0.11141398549079895
1708440544.5049505,-1.1444110870361328,-1.6606518230833949,-2.524128262196676,2.3212649065205078,-1.0124905745135706,0.11143931746482849
1708440544.5069134,-1.1443991661071777,-1.6606723270811976,-2.5241325537311,2.3212694364735107,-1.0124567190753382,0.11137187480926514
1708440544.5089254,-1.144378423690796,-1.660593648950094,-2.5241239706622522,2.321302576656006,-1.0124862829791468,0.11140494793653488
1708440544.5109203,-1.1444318294525146,-1.6606184444823207,-2.5241413752185267,2.321309967631958,-1.0125144163714808,0.1114184558391571
1708440544.5129082,-1.1443740129470825,-1.6606093845763148,-2.5241239706622522,2.3212649065205078,-1.0124896208392542,0.11142583191394806
1708440544.5149171,-1.144378423690796,-1.6605903110899867,-2.5240913073169153,2.321330948466919,-1.0125015417682093,0.11139272153377533
1708440544.5169418,-1.1444079875946045,-1.660576959649557,-2.524112049733297,2.3212484556385498,-1.0125015417682093,0.11135227233171463
1708440544.518925,-1.144436240196228,-1.660605093041891,-2.5241077581988733,2.321326418513916,-1.0125468412982386,0.11140942573547363
1708440544.520905,-1.1444035768508911,-1.660658975640768,-2.524112049733297,2.3212320047565917,-1.0125144163714808,0.11142297089099884
1708440544.522917,-1.1444199085235596,-1.660642763177389,-2.5241087118731897,2.3212484556385498,-1.0125015417682093,0.11138981580734253
1708440544.5250106,-1.1443872451782227,-1.6606093845763148,-2.5240963141070765,2.321355028743408,-1.0125373045550745,0.11138535290956497
1708440544.5269537,-1.1444288492202759,-1.660593648950094,-2.5241413752185267,2.321335478419922,-1.0125787893878382,0.11140942573547363
1708440544.528952,-1.1444287300109863,-1.6606184444823207,-2.5241413752185267,2.321314497584961,-1.0125415960894983,0.11139269173145294
1708440544.530919,-1.1444035768508911,-1.6606093845763148,-2.524087731038229,2.321314497584961,-1.012550179158346,0.1114017516374588
1708440544.5329247,-1.1444244384765625,-1.660654684106344,-2.524059597645895,2.3213295179554443,-1.0125458876239222,0.11137636750936508
1708440544.5349243,-1.144379734992981,-1.6605845890440882,-2.5240958372699183,2.3212813574024658,-1.0125373045550745,0.1114017516374588
1708440544.5369272,-1.1443947553634644,-1.660605093041891,-2.524062697087423,2.321326418513916,-1.0125702063189905,0.11139726638793945
1708440544.5389762,-1.1444451808929443,-1.6605855427184046,-2.5240746180163782,2.3212813574024658,-1.0125492254840296,0.11143039911985397
1708440544.5409608,-1.1443960666656494,-1.6605946026244105,-2.5240958372699183,2.3212904173084716,-1.012562100087301,0.11139270663261414
1708440544.5429509,-1.144378423690796,-1.6605903110899867,-2.5240703264819544,2.3213187891193847,-1.0125253836261194,0.11139269173145294
1708440544.5449376,-1.1444125175476074,-1.6606561146178187,-2.5240913073169153,2.321330948466919,-1.0125210920916956,0.11138531565666199
1708440544.546948,-1.1443872451782227,-1.6606408558287562,-2.5241358915912073,2.321305437678955,-1.0125210920916956,0.11139726638793945
1708440544.5489392,-1.144378423690796,-1.6606027088561,-2.5240872542010706,2.321343107814453,-1.0125449339496058,0.11141400039196014
1708440544.550989,-1.1443589925765991,-1.6605946026244105,-2.524128262196676,2.321263237590454,-1.0125330130206507,0.1114184781908989
1708440544.5529463,-1.1443665027618408,-1.6606933079161585,-2.52415639558901,2.321309967631958,-1.0125578085528772,0.11138534545898438
1708440544.5549405,-1.1443872451782227,-1.6605855427184046,-2.524112049733297,2.321239634151123,-1.0125659147845667,0.11140942573547363
1708440544.5569572,-1.144378423690796,-1.6605831585326136,-2.5241077581988733,2.32133857786145,-1.0125835577594202,0.1113477274775505
1708440544.5589483,-1.1443872451782227,-1.660684724847311,-2.52407151857485,2.321343107814453,-1.0125210920916956,0.11137187480926514
1708440544.5609162,-1.1443501710891724,-1.6605855427184046,-2.5241077581988733,2.321288986796997,-1.012562100087301,0.11144197732210159
1708440544.5629432,-1.1444079875946045,-1.6606813869872035,-2.524108950291769,2.3213187891193847,-1.0125997702227991,0.11138086020946503
1708440544.5649645,-1.144378423690796,-1.6606227360167445,-2.5241456667529505,2.32123510419812,-1.0125134626971644,0.11140941083431244
1708440544.5669646,-1.1443740129470825,-1.6606027088561,-2.524144713078634,2.321267767543457,-1.0125287214862269,0.11138087511062622
1708440544.568988,-1.1444318294525146,-1.660654684106344,-2.524100128804342,2.32129351675,-1.0125616232501429,0.11140942573547363
1708440544.5710073,-1.1444110870361328,-1.6606604061522425,-2.524104658757345,2.321305437678955,-1.0125778357135218,0.11136895418167114
1708440544.573004,-1.1443828344345093,-1.6606561146178187,-2.524100128804342,2.321334047908447,-1.0125492254840296,0.11142753064632416
1708440544.5749602,-1.1444318294525146,-1.6605903110899867,-2.524104658757345,2.321312828654907,-1.012573544179098,0.11138822883367538
1708440544.5769334,-1.1443947553634644,-1.6606160602965296,-2.524104420338766,2.3212813574024658,-1.0125821272479456,0.1113644614815712
1708440544.5789406,-1.144378423690796,-1.6606317959227503,-2.524116341267721,2.321309967631958,-1.0126102606402796,0.11137799918651581
1708440544.58092,-1.1443872451782227,-1.6606770954527796,-2.524108950291769,2.32133071004834,-1.012531582509176,0.11140625178813934
1708440544.5830283,-1.1444079875946045,-1.6605564556517542,-2.524116341267721,2.321321888560913,-1.012573544179098,0.11142133921384811
1708440544.584948,-1.1443620920181274,-1.6606227360167445,-2.524100128804342,2.321355028743408,-1.0125778357135218,0.1114184781908989
1708440544.5869255,-1.1444154977798462,-1.660560747186178,-2.5240915457354944,2.3212994772144775,-1.0126221815692347,0.11143488436937332
1708440544.5889308,-1.1443947553634644,-1.6605946026244105,-2.524083201085226,2.32127229749646,-1.0125940481769007,0.11136573553085327
1708440544.5909295,-1.1443991661071777,-1.6606203518309535,-2.5241251627551478,2.3212756353565673,-1.0125606695758265,0.11143488436937332
1708440544.5929282,-1.1443872451782227,-1.660654684106344,-2.524112049733297,2.3212920862385253,-1.0126221815692347,0.11138086020946503
1708440544.5949452,-1.1443589925765991,-1.6605903110899867,-2.5241325537311,2.3213295179554443,-1.0126178900348108,0.11138086020946503
1708440544.596955,-1.1443872451782227,-1.6605903110899867,-2.524112049733297,2.321300907725952,-1.0125563780414026,0.11139272153377533
1708440544.5989814,-1.1444287300109863,-1.6605659923949183,-2.524078909550802,2.321300907725952,-1.0126221815692347,0.11140627413988113
1708440544.6010153,-1.1444125175476074,-1.6605946026244105,-2.524112049733297,2.321326418513916,-1.0125692526446741,0.11138534545898438
1708440544.6029785,-1.1443991661071777,-1.6605764828123988,-2.5240920225726526,2.321279926890991,-1.0126264731036585,0.11138981580734253
1708440544.6048949,-1.1443828344345093,-1.6606027088561,-2.5240958372699183,2.3212756353565673,-1.0125606695758265,0.11141400039196014
1708440544.606929,-1.1444318294525146,-1.6606275043883265,-2.5241251627551478,2.321296377772949,-1.0126102606402796,0.11143936216831207
1708440544.60891,-1.1443740129470825,-1.660605093041891,-2.524100128804342,2.321334047908447,-1.0126588980304163,0.1113898903131485
1708440544.6108978,-1.1444123983383179,-1.6606070003905238,-2.5241325537311,2.3212875562855224,-1.012601677571432,0.11138980835676193
1708440544.6129267,-1.1443947553634644,-1.6606933079161585,-2.5241077581988733,2.321300907725952,-1.0126341024981897,0.1114184632897377
1708440544.614923,-1.144378423690796,-1.6606070003905238,-2.524100128804342,2.321305437678955,-1.012629810963766,0.11135993152856827
1708440544.6169286,-1.1444066762924194,-1.6606160602965296,-2.524083201085226,2.3212875562855224,-1.012585465108053,0.11141983419656754
1708440544.618919,-1.1444450616836548,-1.6605845890440882,-2.524137083684103,2.321312828654907,-1.0126579443561,0.11133576184511185
1708440544.620943,-1.1444450616836548,-1.6606184444823207,-2.5240920225726526,2.321326418513916,-1.012629810963766,0.11137022078037262
1708440544.6229386,-1.1444450616836548,-1.6606770954527796,-2.524078909550802,2.321359320277832,-1.0126050154315394,0.11138245463371277
1708440544.624918,-1.1444274187088013,-1.6606070003905238,-2.524050776158468,2.3213414388843994,-1.0126622358905237,0.11141080409288406
1708440544.6269681,-1.144436240196228,-1.6606842480101527,-2.5240758101092737,2.3213082987019042,-1.0126665274249476,0.11138247698545456
1708440544.6289358,-1.1443991661071777,-1.6606227360167445,-2.5241740385638636,2.321279926890991,-1.0126178900348108,0.11133741587400436
1708440544.630918,-1.1443740129470825,-1.6606070003905238,-2.5241325537311,2.321355028743408,-1.0126751104937952,0.11134485900402069
1708440544.6329386,-1.144436240196228,-1.660605093041891,-2.5241325537311,2.3213323789783935,-1.0126493612872522,0.11138252913951874
1708440544.634924,-1.144390344619751,-1.6606027088561,-2.5240915457354944,2.3213533598133544,-1.0126178900348108,0.1113734319806099
1708440544.6369526,-1.1444406509399414,-1.6605903110899867,-2.5241413752185267,2.3213624197193603,-1.0126288572894495,0.11133581399917603
1708440544.6389525,-1.144378423690796,-1.6606184444823207,-2.5241456667529505,2.3213369089313964,-1.012613598500387,0.11139888316392899
1708440544.6409464,-1.1443854570388794,-1.660612245599264,-2.524108950291769,2.3213159280964355,-1.012625519429342,0.11133292317390442
1708440544.6429415,-1.144357681274414,-1.6605903110899867,-2.524066988621847,2.3213655191608886,-1.0126999060260218,0.11133739352226257
1708440544.644903,-1.1444318294525146,-1.6605903110899867,-2.5241358915912073,2.3213700491138916,-1.0125797430621546,0.11132103204727173
1708440544.646937,-1.1443947553634644,-1.6606317959227503,-2.5240746180163782,2.3213984209248046,-1.012641731892721,0.1112997904419899
1708440544.648953,-1.1444154977798462,-1.6605903110899867,-2.5241521040545862,2.3213938909718017,-1.012629810963766,0.1113329529762268
1708440544.650931,-1.144436240196228,-1.6606160602965296,-2.5240920225726526,2.321450873012207,-1.012613598500387,0.11133447289466858
1708440544.6529577,-1.1444154977798462,-1.6605903110899867,-2.5241153875934046,2.3214327532001953,-1.0125520865069788,0.11132101714611053
1708440544.6549013,-1.1444182395935059,-1.6605855427184046,-2.524083439503805,2.3215030866810302,-1.0126622358905237,0.11133444309234619
1708440544.6569362,-1.1443872451782227,-1.6605988941588343,-2.5241034666644495,2.3214236932941894,-1.012669865285055,0.11133445054292679
1708440544.6589346,-1.144423007965088,-1.6605545483031214,-2.5241251627551478,2.3214236932941894,-1.0126221815692347,0.11133743822574615
1708440544.6609097,-1.1444494724273682,-1.6605574093260707,-2.524104658757345,2.3214987951466064,-1.0126221815692347,0.11134345829486847
1708440544.6629112,-1.144390344619751,-1.6605545483031214,-2.5241077581988733,2.3214523035236816,-1.0126579443561,0.11126108467578888
1708440544.6649492,-1.1444358825683594,-1.6605740986266078,-2.5240746180163782,2.3214687544056396,-1.0126169363604944,0.11126450449228287
1708440544.666939,-1.1444154977798462,-1.660593648950094,-2.5240464846240442,2.3215018945881347,-1.012690846120016,0.11132225394248962
1708440544.6689453,-1.1444110870361328,-1.6605946026244105,-2.5240920225726526,2.3214613634296875,-1.0126984755145472,0.11131776869297028
1708440544.6709206,-1.1444569826126099,-1.6606027088561,-2.5241325537311,2.321492834682129,-1.012653652821676,0.11125660687685013
1708440544.6729243,-1.1444613933563232,-1.6605574093260707,-2.5241413752185267,2.3214687544056396,-1.0126655737506312,0.11128239333629608
1708440544.6749506,-1.144443392753601,-1.6605903110899867,-2.524087731038229,2.321427031154297,-1.012690846120016,0.11128973960876465
1708440544.6769252,-1.1444274187088013,-1.6605831585326136,-2.524116341267721,2.3215271669575195,-1.012641731892721,0.11125210672616959
1708440544.678947,-1.1444138288497925,-1.6606112919249476,-2.5240746180163782,2.3214449125477294,-1.012690846120016,0.1112746000289917
1708440544.6809368,-1.144443392753601,-1.6605335674681605,-2.52407151857485,2.3215347963520507,-1.0126460234271448,0.11128684878349304
1708440544.6829362,-1.1444138288497925,-1.6606360874571742,-2.524112049733297,2.3214897352406005,-1.012669865285055,0.11127462238073349
1708440544.6849334,-1.1444092988967896,-1.6606317959227503,-2.5240746180163782,2.321471615428589,-1.012641731892721,0.1112656518816948
1708440544.6869268,-1.1445059776306152,-1.6605988941588343,-2.5241077581988733,2.321488304729126,-1.0126374403582972,0.11123285442590714
1708440544.6889596,-1.144476056098938,-1.6605903110899867,-2.5240803400622767,2.3215512472340087,-1.0126493612872522,0.11124928295612335
1708440544.6909378,-1.1444226503372192,-1.6605588398375453,-2.5241077581988733,2.321495695705078,-1.0126212278949183,0.11125373840332031
1708440544.692922,-1.144487977027893,-1.660612245599264,-2.5241034666644495,2.321509285564087,-1.0126579443561,0.11122831702232361
1708440544.6949146,-1.1444553136825562,-1.6605497799315394,-2.524120871220724,2.3214806753345947,-1.0126460234271448,0.11124929785728455
1708440544.69691,-1.144508719444275,-1.6605707607665003,-2.5240703264819544,2.3214806753345947,-1.0126612822162073,0.11122989654541016
1708440544.6989534,-1.1445043087005615,-1.6606360874571742,-2.5241325537311,2.321492834682129,-1.0126331488238733,0.111225426197052
1708440544.7009425,-1.144487977027893,-1.6605988941588343,-2.5241325537311,2.3215228754230957,-1.0126622358905237,0.11127012968063354
1708440544.7029178,-1.1444716453552246,-1.6606317959227503,-2.5240958372699183,2.321516676540039,-1.012669865285055,0.11125373840332031
1708440544.7049377,-1.1444835662841797,-1.6605988941588343,-2.524120871220724,2.3214596944996337,-1.0126450697528284,0.11127014458179474
1708440544.7069101,-1.1445295810699463,-1.6605617008604945,-2.5241413752185267,2.321533365840576,-1.0126083532916468,0.11125374585390091
1708440544.70891,-1.1444896459579468,-1.6606027088561,-2.5241575876819056,2.321554346675537,-1.0127061049090784,0.1112508699297905
1708440544.7109046,-1.144476056098938,-1.6605202160277308,-2.5241077581988733,2.32155887662854,-1.0126941839801233,0.11126270145177841
1708440544.7129145,-1.14452064037323,-1.6606360874571742,-2.5240870157824915,2.3215154844471435,-1.0126526991473597,0.11120868474245071
1708440544.7149088,-1.1444464921951294,-1.6605707607665003,-2.524144474660055,2.3215738969990234,-1.0126856009112757,0.11118942499160767
1708440544.716902,-1.1444835662841797,-1.6605497799315394,-2.524128262196676,2.3215347963520507,-1.0126941839801233,0.11121773719787598
1708440544.7189183,-1.1445074081420898,-1.6605922184386195,-2.5240958372699183,2.3215767580219726,-1.0126898924456995,0.11114925891160965
1708440544.7209077,-1.1445162296295166,-1.6605788669981898,-2.524083439503805,2.3215886789509277,-1.0126484076129358,0.11116565763950348
1708440544.7229204,-1.1445317268371582,-1.6605831585326136,-2.524078909550802,2.3216308790394287,-1.0126693884478968,0.11114468425512314
1708440544.7249138,-1.1444910764694214,-1.6606160602965296,-2.5240541140185755,2.3215767580219726,-1.0126693884478968,0.11117901653051376
1708440544.7269552,-1.1444954872131348,-1.6605426273741664,-2.5241239706622522,2.3215841489979248,-1.0126856009112757,0.11116718500852585
1708440544.7289515,-1.1444910764694214,-1.6605879269041957,-2.5241077581988733,2.321612759227417,-1.0127018133746546,0.11115078628063202
1708440544.7309597,-1.1445281505584717,-1.6605788669981898,-2.524100128804342,2.3215722280689697,-1.0126569906817835,0.11108484119176865
1708440544.7329342,-1.1445281505584717,-1.660563131371969,-2.524079147969381,2.3215886789509277,-1.0126975218402308,0.11111021041870117
1708440544.734922,-1.1445577144622803,-1.6605335674681605,-2.524112049733297,2.3215886789509277,-1.0127266089068812,0.1110982894897461
1708440544.7369118,-1.144540786743164,-1.6605707607665003,-2.524062697087423,2.3215886789509277,-1.0126856009112757,0.11109060049057007
1708440544.738964,-1.1445057392120361,-1.6605545483031214,-2.524100128804342,2.3216005998798828,-1.0126898924456995,0.11111469566822052
1708440544.7410529,-1.1445317268371582,-1.6606203518309535,-2.524116341267721,2.3215560156055908,-1.012677017842428,0.1110982894897461
1708440544.7429361,-1.144519329071045,-1.6605707607665003,-2.524140183125631,2.32159606992688,-1.0126975218402308,0.11109380424022675
1708440544.7449038,-1.1445561647415161,-1.6606160602965296,-2.524100128804342,2.321633740062378,-1.0126608053790491,0.11107707768678665
1708440544.746917,-1.1445887088775635,-1.6605426273741664,-2.524104658757345,2.321633740062378,-1.0126856009112757,0.11110574007034302
1708440544.748916,-1.1445679664611816,-1.6605545483031214,-2.52407151857485,2.3216005998798828,-1.0127223173724573,0.11109378933906555
1708440544.7509053,-1.1445560455322266,-1.660563131371969,-2.524087731038229,2.321650190944336,-1.012693230305807,0.11108934134244919
1708440544.7529263,-1.1445317268371582,-1.6605245075621546,-2.524100128804342,2.321638270015381,-1.0127256552325647,0.11111469566822052
1708440544.7549376,-1.144572377204895,-1.6605164013304652,-2.5241077581988733,2.321632071132324,-1.012733284627096,0.11108934134244919
1708440544.7569172,-1.1446259021759033,-1.6606112919249476,-2.52415639558901,2.32161728918042,-1.0127580801593226,0.11102786660194397
1708440544.7589097,-1.14458429813385,-1.6606036625304164,-2.5240541140185755,2.321645660991333,-1.0127375761615198,0.11108161509037018
1708440544.7609124,-1.1446037292480469,-1.6605831585326136,-2.524116341267721,2.321645660991333,-1.012766186391012,0.11110727488994598
1708440544.7629144,-1.1446207761764526,-1.6605965099730433,-2.5240958372699183,2.3216652113148193,-1.012782398854391,0.111078642308712
1708440544.7649217,-1.1445547342300415,-1.6605140171446742,-2.524100128804342,2.321632071132324,-1.0127084890948694,0.11104879528284073
1708440544.7669518,-1.1446125507354736,-1.6605378590025843,-2.5241077581988733,2.321615620250366,-1.012745205556051,0.11104588210582733
1708440544.7689738,-1.1446170806884766,-1.6605497799315394,-2.524112049733297,2.321650190944336,-1.0127289930926722,0.11108614504337311
1708440544.770968,-1.14458429813385,-1.6605054340758265,-2.524078909550802,2.321674271220825,-1.0127289930926722,0.1110578179359436
1708440544.7730017,-1.1445547342300415,-1.6605097256102503,-2.524083201085226,2.321650190944336,-1.012749497090475,0.11108315736055374
1708440544.7749786,-1.144616961479187,-1.660534521142477,-2.5241087118731897,2.321624680156372,-1.012733284627096,0.11104588955640793
1708440544.7769637,-1.1445472240447998,-1.6605426273741664,-2.524160925542013,2.321638270015381,-1.0127289930926722,0.1110667735338211
1708440544.778935,-1.1445679664611816,-1.6605187855162562,-2.5241239706622522,2.321671410197876,-1.0127375761615198,0.11104140430688858
1708440544.780957,-1.1446213722229004,-1.6605469189085902,-2.5241153875934046,2.321674271220825,-1.012749497090475,0.11106385290622711
1708440544.7829576,-1.1446115970611572,-1.6605297527708949,-2.5241325537311,2.321632071132324,-1.0127576033221644,0.11105036735534668
1708440544.784937,-1.1445472240447998,-1.660501619378561,-2.5241034666644495,2.321657820338867,-1.0127127806292933,0.11108317226171494
1708440544.786932,-1.144637107849121,-1.6604858837523402,-2.5241034666644495,2.321629210109375,-1.0127247015582483,0.11101317405700684
1708440544.7889774,-1.1446037292480469,-1.6605297527708949,-2.5240989367114466,2.321678801173828,-1.0127375761615198,0.11107869446277618
1708440544.7909405,-1.1446037292480469,-1.6605149708189906,-2.5240915457354944,2.321650190944336,-1.0127618948565882,0.11101757735013962
1708440544.7929215,-1.1446460485458374,-1.6605149708189906,-2.524140183125631,2.321669741267822,-1.012778107319967,0.11104588210582733
1708440544.7949371,-1.1445857286453247,-1.660497327844137,-2.524144713078634,2.3216680723377685,-1.012749497090475,0.11105483025312424
1708440544.7969296,-1.1446037292480469,-1.6604820690550746,-2.524116341267721,2.321653290385864,-1.0127652327166956,0.1110011413693428
1708440544.7990117,-1.1446523666381836,-1.6604539356627406,-2.5241196791278284,2.321657820338867,-1.0127695242511194,0.11099372804164886
1708440544.8009617,-1.1446820497512817,-1.6604515514769496,-2.524116341267721,2.321674271220825,-1.0128019491778772,0.11098473519086838
1708440544.8029401,-1.1446443796157837,-1.6604272327818812,-2.5241239706622522,2.321636601085327,-1.0127976576434534,0.11106829345226288
1708440544.8049061,-1.1446614265441895,-1.6604720554747523,-2.524128262196676,2.321674271220825,-1.0127609411822718,0.11101459711790085
1708440544.806922,-1.144637107849121,-1.6604272327818812,-2.524100128804342,2.3216983514973144,-1.0127771536456507,0.11098596453666687
1708440544.808925,-1.144648790359497,-1.6604348621764125,-2.524140183125631,2.321603699321411,-1.0128019491778772,0.11103098094463348
1708440544.8108938,-1.1446236371994019,-1.66044344524526,-2.5240989367114466,2.3216487604328613,-1.012784783040182,0.11104455590248108
1708440544.8129263,-1.1446117162704468,-1.6603990993895472,-2.5241358915912073,2.3216354089924316,-1.0128172079669397,0.1110384538769722
1708440544.814905,-1.144677758216858,-1.660440584222311,-2.5241273085223597,2.3216652113148193,-1.0128377119647425,0.11099052429199219
1708440544.8169353,-1.1446399688720703,-1.6603900394835414,-2.524144474660055,2.321690483684204,-1.0127890745746058,0.11094415187835693
1708440544.8189318,-1.1446236371994019,-1.660424371758932,-2.5241640249835413,2.321657820338867,-1.0127771536456507,0.11101014912128448
1708440544.820925,-1.1446280479431152,-1.660408159295553,-2.5241435209857386,2.3216652113148193,-1.0127814451800745,0.1109650731086731
1708440544.8229272,-1.1445902585983276,-1.660386701623434,-2.5241521040545862,2.3216816621967773,-1.0127857367144983,0.1110236793756485
1708440544.824912,-1.1446614265441895,-1.6604286632933558,-2.5241640249835413,2.3216487604328613,-1.0127609411822718,0.11104002594947815
1708440544.826943,-1.1446236371994019,-1.66041960338735,-2.5241597334491175,2.321615620250366,-1.0127695242511194,0.11102071404457092
1708440544.8289573,-1.1445575952529907,-1.6603790722289027,-2.5241804758654993,2.321620150203369,-1.0127890745746058,0.11101170629262924
1708440544.8309278,-1.1446161270141602,-1.6604286632933558,-2.524142328892843,2.3216354089924316,-1.0128420034991663,0.11100266873836517
1708440544.8329442,-1.1446189880371094,-1.6604300938048304,-2.524191681538717,2.321645660991333,-1.0128334204303187,0.11097411811351776
1708440544.8349347,-1.1446399688720703,-1.6604215107359828,-2.524228636418478,2.3216938215443115,-1.0128539244281214,0.1109994649887085
1708440544.8369272,-1.1446353197097778,-1.6604091129698695,-2.5242448488818567,2.3216606813618164,-1.0128453413592737,0.11096668243408203
1708440544.838963,-1.1446399688720703,-1.6603700123228968,-2.52427322069277,2.3217100340076904,-1.0128615538226526,0.11099052429199219
1708440544.8409576,-1.144619107246399,-1.6603957615294398,-2.5241828600512903,2.321669741267822,-1.01284104982485,0.11099501699209213
1708440544.842947,-1.1446399688720703,-1.6603990993895472,-2.524240318928854,2.3216983514973144,-1.012808624898092,0.11098308861255646
1708440544.8449116,-1.1446236371994019,-1.6604153118529261,-2.5242112318622034,2.3216487604328613,-1.0128615538226526,0.11097125709056854
1708440544.8469296,-1.1446733474731445,-1.6603676281371058,-2.5241904894458216,2.3216606813618164,-1.01284104982485,0.11102521419525146
1708440544.848935,-1.144668698310852,-1.660403390923971,-2.524240318928854,2.321690722102783,-1.0128701368915003,0.11098307371139526
1708440544.85091,-1.1446479558944702,-1.6604110203185023,-2.524257008229391,2.3216561514088134,-1.0128496328936976,0.11096668243408203
1708440544.8529406,-1.1446523666381836,-1.660408159295553,-2.5242274443255823,2.3216861921497802,-1.012796703969137,0.11096219718456268
1708440544.8549051,-1.1446189880371094,-1.6603747806944789,-2.5242155233966272,2.3216110902973632,-1.012824837361471,0.11097860336303711
1708440544.8569348,-1.1446280479431152,-1.660363336602682,-2.524219814931051,2.321669741267822,-1.012812916432516,0.11095774173736572
1708440544.8589318,-1.1446236371994019,-1.660391469995016,-2.524248186741964,2.3216487604328613,-1.012824837361471,0.11099500954151154
1708440544.8609493,-1.1446523666381836,-1.660386701623434,-2.5242155233966272,2.3216158586689453,-1.012808624898092,0.11096221208572388
1708440544.862945,-1.1446733474731445,-1.6603781185545863,-2.524219814931051,2.321756525630615,-1.012836758290426,0.11099499464035034
1708440544.86494,-1.1446762084960938,-1.66044344524526,-2.524219814931051,2.3216518598743896,-1.0128615538226526,0.11094994097948074
1708440544.8669567,-1.1445767879486084,-1.660440584222311,-2.52423602739443,2.3217145639606933,-1.012852970753805,0.11096960306167603
1708440544.8689399,-1.1446806192398071,-1.6603747806944789,-2.5242229143725794,2.321674271220825,-1.0128324667560022,0.11093060672283173
1708440544.8709428,-1.144668698310852,-1.6603990993895472,-2.524231735860006,2.3217355447956542,-1.012852970753805,0.11098307371139526
1708440544.8729074,-1.1446443796157837,-1.660386701623434,-2.524240557347433,2.3216518598743896,-1.01284104982485,0.11098018288612366
1708440544.8749237,-1.1446443796157837,-1.6603990993895472,-2.5242231527911585,2.3216847616383056,-1.0128615538226526,0.11095774173736572
1708440544.876959,-1.144648790359497,-1.6603957615294398,-2.5242438952075403,2.3216399389454345,-1.0128572622882288,0.11092908680438995
1708440544.878937,-1.1446614265441895,-1.6603747806944789,-2.5242186228381556,2.321695013637207,-1.012836758290426,0.1110040619969368
1708440544.880948,-1.144657015800476,-1.66038241008901,-2.5242274443255823,2.3216652113148193,-1.012852970753805,0.11101614683866501
1708440544.8829417,-1.144631028175354,-1.6603738270201625,-2.524231735860006,2.3216442304798584,-1.012852970753805,0.11097413301467896
1708440544.8849268,-1.144655466079712,-1.6603747806944789,-2.5242109934436243,2.3217148023792724,-1.0128162542926233,0.11097127199172974
1708440544.8869724,-1.1446479558944702,-1.6604048214354457,-2.5242155233966272,2.3217145639606933,-1.01284104982485,0.11098310351371765
1708440544.888947,-1.1446443796157837,-1.6603957615294398,-2.524248186741964,2.3216816621967773,-1.0128853956805628,0.1109786182641983
1708440544.8909667,-1.1446523666381836,-1.6603700123228968,-2.5242274443255823,2.321653290385864,-1.0129063765155237,0.11097574979066849
1708440544.8929403,-1.1446733474731445,-1.6603900394835414,-2.5242438952075403,2.3216771322437744,-1.0128572622882288,0.11094996333122253
1708440544.894916,-1.1446658372879028,-1.660440584222311,-2.524248186741964,2.3216816621967773,-1.012836758290426,0.11095322668552399
1708440544.8969383,-1.144668698310852,-1.660325666467184,-2.5241993109332483,2.3216816621967773,-1.0128572622882288,0.11092910170555115
1708440544.89895,-1.1446236371994019,-1.6603957615294398,-2.5242396036731165,2.321707172984741,-1.0128572622882288,0.11099052429199219
1708440544.9009612,-1.144602656364441,-1.660440584222311,-2.524203602467672,2.3216983514973144,-1.012881104146139,0.11099052429199219
1708440544.9029117,-1.1446534395217896,-1.660412450829977,-2.5241990725146692,2.3217102724262695,-1.0128853956805628,0.11094098538160324
1708440544.9049413,-1.144614577293396,-1.660408159295553,-2.524219814931051,2.32169954359021,-1.0128281752215784,0.11094098538160324
1708440544.906935,-1.1446354389190674,-1.6603790722289027,-2.52428108850588,2.3216232496448974,-1.012881104146139,0.11097125709056854
1708440544.9089289,-1.1446117162704468,-1.660391469995016,-2.524224106465475,2.3217145639606933,-1.0129225889789026,0.11098308861255646
1708440544.9109275,-1.144668698310852,-1.6603990993895472,-2.5242438952075403,2.3216563898273925,-1.012852970753805,0.11097124218940735
1708440544.9129066,-1.1446642875671387,-1.660412450829977,-2.5242155233966272,2.3216983514973144,-1.01284104982485,0.11096668243408203
1708440544.9149168,-1.1446733474731445,-1.6604153118529261,-2.5242558161364954,2.3217057424732666,-1.0128400961505335,0.11095457524061203
1708440544.9169335,-1.144614577293396,-1.660424371758932,-2.5242155233966272,2.3217190939136962,-1.0128782431231897,0.11097413301467896
1708440544.9189403,-1.1446614265441895,-1.660386701623434,-2.5242274443255823,2.3216983514973144,-1.0128653685199183,0.11098307371139526
1708440544.920945,-1.1446435451507568,-1.660386701623434,-2.5242438952075403,2.3216983514973144,-1.012852970753805,0.11097125709056854
1708440544.9229121,-1.1447060108184814,-1.66041960338735,-2.524252478276388,2.3217519956776123,-1.012869660054342,0.11093811690807343
1708440544.9249496,-1.1446642875671387,-1.6603700123228968,-2.52428108850588,2.3216726022907714,-1.012873951588766,0.1109994649887085
1708440544.9269211,-1.1446806192398071,-1.6604076824583949,-2.524219814931051,2.3217148023792724,-1.0128653685199183,0.11097860336303711
1708440544.9289334,-1.1447060108184814,-1.6603943310179652,-2.52428108850588,2.3216983514973144,-1.012869660054342,0.11093646287918091
1708440544.930939,-1.1446642875671387,-1.6604272327818812,-2.5242229143725794,2.3216606813618164,-1.0128162542926233,0.11094547063112259
1708440544.9329267,-1.1446435451507568,-1.6604329548277796,-2.524268690739767,2.3216938215443115,-1.0128486792193812,0.11095897853374481
1708440544.9349396,-1.1446266174316406,-1.6603957615294398,-2.5242067019092005,2.3216518598743896,-1.012869660054342,0.11093813180923462
1708440544.9369197,-1.1446479558944702,-1.6603943310179652,-2.524203602467672,2.3216938215443115,-1.0128486792193812,0.11099052429199219
1708440544.9389648,-1.144668698310852,-1.6603990993895472,-2.52427322069277,2.3216938215443115,-1.0128653685199183,0.11094866693019867
1708440544.940968,-1.144668698310852,-1.6603747806944789,-2.524248186741964,2.3216354089924316,-1.0128853956805628,0.1109590083360672
1708440544.9429262,-1.1445902585983276,-1.660365720788473,-2.5242274443255823,2.321690483684204,-1.0128162542926233,0.11094996333122253
1708440544.944925,-1.1445982456207275,-1.6603747806944789,-2.52423602739443,2.3216983514973144,-1.012852970753805,0.11093809455633163
1708440544.9469187,-1.1446534395217896,-1.6603700123228968,-2.524285380040304,2.3217086034962158,-1.012897793446676,0.11094547063112259
1708440544.94894,-1.144668698310852,-1.6603676281371058,-2.52423602739443,2.3216892915913085,-1.01284104982485,0.11100724339485168
1708440544.950911,-1.1446479558944702,-1.66041960338735,-2.524257008229391,2.3216427999683837,-1.012869660054342,0.11095452308654785
1708440544.9529672,-1.1446733474731445,-1.66041960338735,-2.5242396036731165,2.3216816621967773,-1.0128768126117151,0.11099214106798172
1708440544.9549382,-1.1446354389190674,-1.660424371758932,-2.524231735860006,2.3217550951191406,-1.0128281752215784,0.11094547063112259
1708440544.9569407,-1.1446353197097778,-1.6604153118529261,-2.52423602739443,2.3217057424732666,-1.0128853956805628,0.11092906445264816
1708440544.9589245,-1.1446523666381836,-1.6604005299010218,-2.5242109934436243,2.3216983514973144,-1.0128572622882288,0.11098308861255646
1708440544.9609246,-1.1446866989135742,-1.6603790722289027,-2.5242930094348353,2.3217267233082275,-1.0128825346576136,0.11096667498350143
1708440544.962953,-1.1446523666381836,-1.6603833637633265,-2.5242155233966272,2.3216680723377685,-1.0128653685199183,0.11097575724124908
1708440544.9649174,-1.1446479558944702,-1.6603957615294398,-2.52423602739443,2.3216473299213867,-1.0128653685199183,0.11095452308654785
1708440544.96692,-1.1446479558944702,-1.6603957615294398,-2.524252716694967,2.3216606813618164,-1.012873951588766,0.11097127944231033
1708440544.9689767,-1.1446479558944702,-1.6603990993895472,-2.524264399205343,2.3217148023792724,-1.012869660054342,0.11097856611013412
1708440544.9709787,-1.144631028175354,-1.660349508325094,-2.524240318928854,2.3217102724262695,-1.0128653685199183,0.11100401729345322
1708440544.9729712,-1.1446189880371094,-1.6604286632933558,-2.5242515246020716,2.3216938215443115,-1.012897793446676,0.11096668243408203
1708440544.9749703,-1.1446399688720703,-1.660424371758932,-2.5241947809802454,2.3216516214558105,-1.0128524939166468,0.11098307371139526
1708440544.976956,-1.1446895599365234,-1.66038241008901,-2.524203602467672,2.3216141897388916,-1.0128358046161097,0.11097414046525955
1708440544.9789279,-1.1446642875671387,-1.6604567966856898,-2.52428108850588,2.3216726022907714,-1.012881104146139,0.11100854724645615
1708440544.980935,-1.1446733474731445,-1.660424371758932,-2.524219814931051,2.3216442304798584,-1.01284104982485,0.11095905303955078
1708440544.982989,-1.1446309089660645,-1.660403390923971,-2.524285380040304,2.3217102724262695,-1.0128443876849573,0.11094553023576736
1708440544.9849386,-1.1446642875671387,-1.660473962823385,-2.5242067019092005,2.3216652113148193,-1.0129054228412073,0.11096221208572388
1708440544.986955,-1.1446479558944702,-1.66041960338735,-2.5242274443255823,2.3216652113148193,-1.0128076712237757,0.11098763346672058
1708440544.9889152,-1.1446309089660645,-1.6604062519469203,-2.524252478276388,2.3216938215443115,-1.012881104146139,0.11097860336303711
1708440544.9909298,-1.144701361656189,-1.660386701623434,-2.524252716694967,2.3216966825672607,-1.0128281752215784,0.11096668243408203
1708440544.9929125,-1.1446806192398071,-1.6603738270201625,-2.5242438952075403,2.3216892915913085,-1.012873951588766,0.11094256490468979
1708440544.994904,-1.14468514919281,-1.6603990993895472,-2.524289671574728,2.3216680723377685,-1.0129225889789026,0.11095452308654785
1708440544.9969597,-1.1446642875671387,-1.6603700123228968,-2.524252478276388,2.3216892915913085,-1.0128610769854944,0.11096221953630447
1708440544.99898,-1.144668698310852,-1.6603542766966761,-2.524248186741964,2.3217145639606933,-1.012836758290426,0.11096218228340149
1708440545.0009227,-1.1446642875671387,-1.6603790722289027,-2.524252478276388,2.3216397005268554,-1.012836758290426,0.11087546497583389
1708440545.00293,-1.144677758216858,-1.66038241008901,-2.524207894002096,2.3217624860950927,-1.012852970753805,0.11100398749113083
1708440545.0049102,-1.1446479558944702,-1.660452505151266,-2.524231735860006,2.3216652113148193,-1.0128610769854944,0.11092174053192139
1708440545.006929,-1.144668698310852,-1.6603943310179652,-2.5242274443255823,2.3216983514973144,-1.0128291288958948,0.11098308861255646
1708440545.0089562,-1.1446435451507568,-1.660440584222311,-2.524219814931051,2.3216473299213867,-1.0128539244281214,0.11096218973398209
1708440545.0109046,-1.1446657180786133,-1.6604076824583949,-2.5242274443255823,2.3217190939136962,-1.0128496328936976,0.11100849509239197
1708440545.0129714,-1.1446309089660645,-1.6604076824583949,-2.5242274443255823,2.3216983514973144,-1.012812916432516,0.11100850999355316
1708440545.0149028,-1.1446189880371094,-1.660391469995016,-2.5242274443255823,2.3216892915913085,-1.0128043333636683,0.11100399494171143
1708440545.0169468,-1.1446101665496826,-1.660412450829977,-2.5242274443255823,2.3216442304798584,-1.0128496328936976,0.11097860336303711
1708440545.0189247,-1.144668698310852,-1.660403390923971,-2.524252478276388,2.3216847616383056,-1.012796703969137,0.11096668243408203
1708440545.0209546,-1.144602656364441,-1.6604658565916957,-2.524231735860006,2.3216516214558105,-1.012852970753805,0.11098018288612366
1708440545.0229266,-1.144668698310852,-1.6603900394835414,-2.524252478276388,2.3216635423847656,-1.0128853956805628,0.11099950224161148
1708440545.0249581,-1.1446353197097778,-1.66041960338735,-2.524224106465475,2.3216187196918945,-1.0128162542926233,0.11099499464035034
1708440545.0269349,-1.1446717977523804,-1.6604272327818812,-2.5241785685168665,2.3216637808033447,-1.012836758290426,0.11098764091730118
1708440545.0289247,-1.1446614265441895,-1.66041960338735,-2.524170700703756,2.3216652113148193,-1.0128782431231897,0.11095771938562393
1708440545.0309484,-1.1446309089660645,-1.6603700123228968,-2.5241993109332483,2.3216892915913085,-1.0128205458270472,0.11101170629262924
1708440545.032937,-1.1446479558944702,-1.6603900394835414,-2.524191681538717,2.3217264848896484,-1.012852970753805,0.1110071986913681
1708440545.0349445,-1.1446236371994019,-1.6604048214354457,-2.524231735860006,2.3216861921497802,-1.0128572622882288,0.11096961051225662
1708440545.0369546,-1.1446717977523804,-1.660431524316305,-2.524252478276388,2.3216680723377685,-1.012852970753805,0.11098594218492508
1708440545.0389388,-1.1446762084960938,-1.660412450829977,-2.524191681538717,2.3217190939136962,-1.012869660054342,0.11099503934383392
1708440545.0409834,-1.1446479558944702,-1.66041960338735,-2.5241947809802454,2.3216938215443115,-1.0128615538226526,0.11099499464035034
1708440545.0429602,-1.1446806192398071,-1.6603990993895472,-2.5242612997638147,2.3216232496448974,-1.01284104982485,0.11098307371139526
1708440545.0449376,-1.1446510553359985,-1.660365720788473,-2.524187151585714,2.3216771322437744,-1.0128205458270472,0.11097410321235657
1708440545.0469196,-1.144668698310852,-1.6603590450682582,-2.5241828600512903,2.3216680723377685,-1.01284104982485,0.11103257536888123
1708440545.0489593,-1.1446925401687622,-1.660386701623434,-2.5242155233966272,2.3217057424732666,-1.012812916432516,0.11099052429199219
1708440545.0508938,-1.1446435451507568,-1.660403390923971,-2.5241947809802454,2.3217310148426513,-1.012873951588766,0.11098148673772812
1708440545.0529418,-1.1446523666381836,-1.6603990993895472,-2.5241828600512903,2.3216683107563476,-1.012812916432516,0.11102652549743652
1708440545.0548956,-1.1446806192398071,-1.6604567966856898,-2.524252716694967,2.321669741267822,-1.0128291288958948,0.11103098839521408
1708440545.0569563,-1.1446391344070435,-1.6604286632933558,-2.524248186741964,2.3216399389454345,-1.0128496328936976,0.11101460456848145
1708440545.0589669,-1.1446266174316406,-1.66041960338735,-2.5242329279529017,2.3217012125202636,-1.012824837361471,0.11100724339485168
1708440545.0609374,-1.1446479558944702,-1.6604153118529261,-2.524207894002096,2.3216892915913085,-1.0128334204303187,0.11099819839000702
1708440545.0629363,-1.1446642875671387,-1.660391469995016,-2.524187151585714,2.3216187196918945,-1.0128291288958948,0.11100269854068756
1708440545.0649269,-1.1446806192398071,-1.6603790722289027,-2.524207894002096,2.321746273631714,-1.0128539244281214,0.1110101193189621
1708440545.0669603,-1.1446222066879272,-1.6603781185545863,-2.524187151585714,2.3216652113148193,-1.012862507496969,0.11101460456848145
1708440545.0689335,-1.1446435451507568,-1.6603957615294398,-2.524187151585714,2.3217193323322753,-1.0128539244281214,0.11098148673772812
1708440545.070906,-1.1446309089660645,-1.6603509388365687,-2.524191681538717,2.3217145639606933,-1.0128052870379847,0.1110190898180008
1708440545.0729692,-1.1446479558944702,-1.6603781185545863,-2.5242002646075647,2.3216892915913085,-1.0128095785724085,0.11103548854589462
1708440545.0749512,-1.144677758216858,-1.6603790722289027,-2.524240318928854,2.3216771322437744,-1.0127728621112269,0.11105936765670776
1708440545.076953,-1.1446642875671387,-1.6603881321349085,-2.52417499223818,2.321653290385864,-1.0128052870379847,0.11106382310390472
1708440545.0789835,-1.1446479558944702,-1.6603614292540492,-2.52421218553652,2.3217012125202636,-1.0127738157855433,0.11101756244897842
1708440545.0809472,-1.1446435451507568,-1.6604329548277796,-2.524240318928854,2.3216680723377685,-1.0127609411822718,0.11105780303478241
1708440545.0829508,-1.1446479558944702,-1.66041960338735,-2.5242329279529017,2.3216606813618164,-1.0127738157855433,0.11108613014221191
1708440545.0849411,-1.1446762084960938,-1.6603833637633265,-2.5242155233966272,2.3216983514973144,-1.0126999060260218,0.1111028790473938
1708440545.0869408,-1.144667387008667,-1.660424371758932,-2.5241828600512903,2.321669741267822,-1.012733284627096,0.11106973886489868
1708440545.0889928,-1.1446881294250488,-1.6603614292540492,-2.5242491404162806,2.3216726022907714,-1.0127618948565882,0.1111266165971756
1708440545.0909913,-1.144667387008667,-1.6604482136168421,-2.5242775122271937,2.3216442304798584,-1.0127409140216272,0.11102056503295898
1708440545.0929306,-1.1446642875671387,-1.660436292687887,-2.524187151585714,2.3216427999683837,-1.012705151234762,0.1110815703868866
1708440545.0949152,-1.144668698310852,-1.6603781185545863,-2.5242112318622034,2.3216892915913085,-1.0127580801593226,0.11112211644649506
1708440545.0969179,-1.144695520401001,-1.6604153118529261,-2.524207894002096,2.3216966825672607,-1.012721363698141,0.1111176535487175
1708440545.0989454,-1.1446837186813354,-1.6603990993895472,-2.5242002646075647,2.321680470103882,-1.0127375761615198,0.1110982894897461
1708440545.1009095,-1.144721508026123,-1.660363336602682,-2.524179522191183,2.3216726022907714,-1.0127041975604456,0.11108613014221191
1708440545.1029222,-1.1447088718414307,-1.6604391537108363,-2.524219814931051,2.3217431741901855,-1.012721363698141,0.11108934879302979
1708440545.1049092,-1.1446969509124756,-1.660365720788473,-2.5241947809802454,2.3216966825672607,-1.0127256552325647,0.11110572516918182
1708440545.1069221,-1.1447169780731201,-1.6604229412474574,-2.524195973073141,2.3217267233082275,-1.0127866903888147,0.1111028715968132
1708440545.1089258,-1.1446837186813354,-1.66041960338735,-2.524170700703756,2.3216921526142578,-1.012717072163717,0.11111019551753998
1708440545.1108985,-1.1446791887283325,-1.6603943310179652,-2.524146620427267,2.3217505651661376,-1.012693230305807,0.1111266165971756
1708440545.1129165,-1.1447080373764038,-1.660386701623434,-2.5242002646075647,2.3217012125202636,-1.0126846472369593,0.1111266016960144
1708440545.1149294,-1.1447170972824097,-1.660436292687887,-2.524195973073141,2.3217553335377197,-1.012705151234762,0.11110572516918182
1708440545.1169248,-1.1447170972824097,-1.660452505151266,-2.5241838137256067,2.3216921526142578,-1.0127995649920862,0.11110572516918182
1708440545.1189356,-1.1447257995605469,-1.66041960338735,-2.5241881052600306,2.3217341142841796,-1.0127461592303675,0.11113405227661133
1708440545.1209128,-1.1447124481201172,-1.660431524316305,-2.524228636418478,2.3217553335377197,-1.0127418676959437,0.11112947762012482
1708440545.122935,-1.144700050354004,-1.6604062519469203,-2.5241718927966517,2.321746273631714,-1.0127094427691858,0.1111176460981369
1708440545.1249502,-1.1446717977523804,-1.6603499851622523,-2.5241881052600306,2.3217672544666748,-1.0126608053790491,0.11115078628063202
1708440545.1269748,-1.1447169780731201,-1.6604286632933558,-2.524158779774801,2.321758194560669,-1.012705151234762,0.1111130565404892
1708440545.128999,-1.1446837186813354,-1.66041960338735,-2.5241881052600306,2.321711702937744,-1.012677017842428,0.11116718500852585
1708440545.13097,-1.144690990447998,-1.6604167423644007,-2.524126116429464,2.3217941957661132,-1.0127180258380335,0.11111307889223099
1708440545.1329455,-1.144721508026123,-1.660386701623434,-2.52415115038027,2.321756525630615,-1.012721363698141,0.11115078628063202
1708440545.134927,-1.1446837186813354,-1.66041960338735,-2.5242045561419886,2.321814938182495,-1.0126846472369593,0.11118611693382263
1708440545.1369293,-1.1447044610977173,-1.6603747806944789,-2.5241923967944544,2.3218347269245605,-1.012688938771383,0.11115078628063202
1708440545.13903,-1.1446881294250488,-1.660412450829977,-2.5241761843310755,2.3217760759541015,-1.012705151234762,0.11117006838321686
1708440545.140961,-1.1447257995605469,-1.660403390923971,-2.5241761843310755,2.3217508035847167,-1.0127375761615198,0.11117901653051376
1708440545.1429398,-1.1446717977523804,-1.6603990993895472,-2.5242045561419886,2.3217641550251464,-1.0126975218402308,0.11115814745426178
1708440545.1449325,-1.144700050354004,-1.6603461704649867,-2.52421218553652,2.321765585536621,-1.0127008597003382,0.11114925146102905
1708440545.1469028,-1.144700050354004,-1.6603418789305628,-2.524163071309225,2.3217686849781494,-1.0126565138446253,0.11121177673339844
1708440545.1489239,-1.1447378396987915,-1.6604377231993617,-2.524163309727804,2.3217148023792724,-1.0126856009112757,0.11112376302480698
1708440545.150904,-1.1446925401687622,-1.6603790722289027,-2.524163309727804,2.32180301725354,-1.0126727263080042,0.11118613183498383
1708440545.1529155,-1.144679069519043,-1.660436292687887,-2.52415115038027,2.3218511778065185,-1.012688938771383,0.11119845509529114
1708440545.1549268,-1.144667387008667,-1.660445352593893,-2.5241761843310755,2.321786566371582,-1.012693230305807,0.11122369766235352
1708440545.1569018,-1.144695520401001,-1.66038241008901,-2.5241923967944544,2.3217312532612304,-1.0126608053790491,0.11121925711631775
1708440545.1589208,-1.1446717977523804,-1.6604377231993617,-2.5241640249835413,2.3217267233082275,-1.0126813093768519,0.1112508699297905
1708440545.1609128,-1.1447170972824097,-1.6603990993895472,-2.5241881052600306,2.3217851358601074,-1.0127018133746546,0.11123894900083542
1708440545.1629,-1.1446837186813354,-1.660424371758932,-2.5241392294513147,2.3218092161365966,-1.012677017842428,0.11123892664909363
1708440545.1648996,-1.144662857055664,-1.660360952416891,-2.5241227785693567,2.321782036418579,-1.0127061049090784,0.11127910763025284
1708440545.1669323,-1.1447243690490723,-1.6603676281371058,-2.5241273085223597,2.3217896658131103,-1.0127061049090784,0.11127781122922897
1708440545.168952,-1.1447124481201172,-1.660391469995016,-2.5241521040545862,2.3218225675770263,-1.0126975218402308,0.1112537533044815
1708440545.1709266,-1.1447287797927856,-1.6603871784605921,-2.524144713078634,2.321836157436035,-1.0127270857440394,0.11127012968063354
1708440545.1729484,-1.1447080373764038,-1.6604153118529261,-2.524116341267721,2.3217732149311523,-1.0126569906817835,0.11124180257320404
1708440545.1749492,-1.1447243690490723,-1.660365720788473,-2.524078909550802,2.321765585536621,-1.0126975218402308,0.1112254336476326
1708440545.176926,-1.1447044610977173,-1.6603957615294398,-2.5240758101092737,2.3217851358601074,-1.0126608053790491,0.11122541129589081
1708440545.1789417,-1.144695520401001,-1.6603747806944789,-2.5241175333606165,2.3217896658131103,-1.0127137343036097,0.11121323704719543
1708440545.1809196,-1.1447199583053589,-1.6603957615294398,-2.524108950291769,2.3217806059071044,-1.0126736799823206,0.11126269400119781
1708440545.1829715,-1.1447287797927856,-1.6603871784605921,-2.524083201085226,2.3217238622852783,-1.0127094427691858,0.11123733967542648
1708440545.184955,-1.1447155475616455,-1.6603990993895472,-2.524050776158468,2.3218046861835937,-1.0126975218402308,0.11121644079685211
1708440545.1869242,-1.1447243690490723,-1.660412450829977,-2.5240302721606653,2.3218137460895996,-1.0126975218402308,0.11125820130109787
1708440545.188994,-1.1446954011917114,-1.660386701623434,-2.5240724722491663,2.321798487300537,-1.0126856009112757,0.11124925315380096
1708440545.190942,-1.1447570323944092,-1.6604286632933558,-2.5240758101092737,2.3217267233082275,-1.0127061049090784,0.11129578948020935
1708440545.192929,-1.1447213888168335,-1.6603957615294398,-2.5240681807147425,2.3218273359486084,-1.0127018133746546,0.11123285442590714
1708440545.194953,-1.1447407007217407,-1.66038241008901,-2.5240638891803187,2.3217553335377197,-1.0127061049090784,0.11124924570322037
1708440545.1969588,-1.1447036266326904,-1.6604286632933558,-2.524100128804342,2.321782274837158,-1.0126779715167444,0.11124470829963684
1708440545.1989343,-1.1447422504425049,-1.66041960338735,-2.5240920225726526,2.3217431741901855,-1.0126693884478968,0.11125373840332031
1708440545.2009315,-1.144721508026123,-1.660391469995016,-2.5240889231311243,2.32174460470166,-1.0126813093768519,0.11128237843513489
1708440545.2029674,-1.144721508026123,-1.660408159295553,-2.524137083684103,2.3217732149311523,-1.012677017842428,0.11124628782272339
1708440545.2049403,-1.144700050354004,-1.660412450829977,-2.5240302721606653,2.3218137460895996,-1.012693230305807,0.11124475300312042
1708440545.2069066,-1.144690990447998,-1.6603990993895472,-2.5240758101092737,2.32174460470166,-1.0126569906817835,0.11127783358097076
1708440545.2089272,-1.1447080373764038,-1.6603990993895472,-2.524083201085226,2.3217641550251464,-1.012665096913473,0.11124467104673386
1708440545.2109213,-1.1447287797927856,-1.660431524316305,-2.5240801016436976,2.3217925268360595,-1.0126526991473597,0.11121317744255066
1708440545.2129266,-1.1446746587753296,-1.66038241008901,-2.524050776158468,2.3217686849781494,-1.0127061049090784,0.1112164855003357
1708440545.2149258,-1.1447334289550781,-1.6604110203185023,-2.5240758101092737,2.3217431741901855,-1.0126813093768519,0.11125373840332031
1708440545.2169528,-1.1447124481201172,-1.66041960338735,-2.524100128804342,2.3217686849781494,-1.0126898924456995,0.1112746000289917
1708440545.2189183,-1.1447080373764038,-1.6604110203185023,-2.5240758101092737,2.3217641550251464,-1.0126693884478968,0.11127016693353653
1708440545.2209184,-1.1446747779846191,-1.6604153118529261,-2.524066988621847,2.3217686849781494,-1.0126693884478968,0.11131516098976135
1708440545.2229292,-1.1447243690490723,-1.66041960338735,-2.5240758101092737,2.3217598634907226,-1.012688938771383,0.11122095584869385
1708440545.2249582,-1.1447378396987915,-1.660431524316305,-2.5240638891803187,2.3217429357716064,-1.0126608053790491,0.11126723885536194
1708440545.2269695,-1.144745111465454,-1.660452505151266,-2.52407151857485,2.321728153819702,-1.0126975218402308,0.11121192574501038
1708440545.228922,-1.1447287797927856,-1.660391469995016,-2.524083201085226,2.3217777448841552,-1.0127018133746546,0.11122095584869385
1708440545.230939,-1.144679069519043,-1.6603990993895472,-2.524100128804342,2.321740074748657,-1.0126975218402308,0.1112087070941925
1708440545.2329764,-1.1447287797927856,-1.66041960338735,-2.524108950291769,2.3217970567890625,-1.0126779715167444,0.11124628037214279
1708440545.2349143,-1.1447155475616455,-1.66038241008901,-2.5240593592273157,2.3217896658131103,-1.0126822630511683,0.11128687113523483
1708440545.2369058,-1.1447124481201172,-1.6604153118529261,-2.524059597645895,2.3217896658131103,-1.0126975218402308,0.1112746000289917
1708440545.2389219,-1.144700050354004,-1.6603781185545863,-2.524108950291769,2.3218061166950683,-1.0126693884478968,0.1112746000289917
1708440545.240927,-1.1446911096572876,-1.6604153118529261,-2.52407151857485,2.3217686849781494,-1.0126693884478968,0.11127907037734985
1708440545.2429738,-1.1447526216506958,-1.6603790722289027,-2.5240758101092737,2.321819468135498,-1.0126526991473597,0.11123285442590714
1708440545.244924,-1.1447614431381226,-1.66038241008901,-2.52407151857485,2.321756525630615,-1.0126736799823206,0.11125823110342026
1708440545.2469397,-1.1446821689605713,-1.6604153118529261,-2.5240963141070765,2.3217777448841552,-1.0126736799823206,0.11126109957695007
1708440545.2489524,-1.144690990447998,-1.6603371105589808,-2.524100128804342,2.32174460470166,-1.0127103964435022,0.11124181747436523
1708440545.2509046,-1.1447526216506958,-1.6603285274901332,-2.5240758101092737,2.3218273359486084,-1.0126813093768519,0.11124926805496216
1708440545.2529356,-1.1447407007217407,-1.6603738270201625,-2.524087731038229,2.321782274837158,-1.0126693884478968,0.11126109957695007
1708440545.2549245,-1.1447333097457886,-1.660365720788473,-2.524055306111471,2.3217732149311523,-1.0126612822162073,0.11127462238073349
1708440545.2569149,-1.1447272300720215,-1.66041960338735,-2.524087731038229,2.321749134654663,-1.0126984755145472,0.11126108467578888
1708440545.2589219,-1.1446865797042847,-1.6603900394835414,-2.524031464253561,2.321732683772705,-1.0126612822162073,0.11126109957695007
1708440545.2609057,-1.1447378396987915,-1.66038241008901,-2.5241175333606165,2.3217777448841552,-1.012665096913473,0.11124926805496216
1708440545.2629247,-1.1446911096572876,-1.6603614292540492,-2.524055306111471,2.321840687389038,-1.0126856009112757,0.11125820875167847
1708440545.264927,-1.1447334289550781,-1.660440584222311,-2.5241132418261927,2.321723623866699,-1.012665096913473,0.11130324006080627
1708440545.2669477,-1.1447287797927856,-1.6604062519469203,-2.5240758101092737,2.32180301725354,-1.0126736799823206,0.11125820875167847
1708440545.2689447,-1.1446747779846191,-1.66041960338735,-2.5240965525256556,2.321819468135498,-1.0127094427691858,0.11121316254138947
1708440545.2709095,-1.1447287797927856,-1.6604825458922328,-2.5240638891803187,2.321786566371582,-1.0126736799823206,0.11125820875167847
1708440545.2729306,-1.144700050354004,-1.6603781185545863,-2.5241008440600794,2.3218015867420654,-1.012665096913473,0.1112852692604065
1708440545.2749426,-1.144695520401001,-1.66041960338735,-2.524034563695089,2.32180301725354,-1.0126736799823206,0.11124023795127869
1708440545.2769656,-1.1446911096572876,-1.66041960338735,-2.5240758101092737,2.3217777448841552,-1.0126693884478968,0.11123287677764893
1708440545.2789466,-1.1447124481201172,-1.660431524316305,-2.5240758101092737,2.32174460470166,-1.0126526991473597,0.11129135638475418
1708440545.2809348,-1.1447333097457886,-1.6604229412474574,-2.524066988621847,2.3217026430317382,-1.0126612822162073,0.11124181747436523
1708440545.2829504,-1.144710898399353,-1.6603871784605921,-2.5240681807147425,2.3217777448841552,-1.0126612822162073,0.11126565933227539
1708440545.284947,-1.1447044610977173,-1.66041960338735,-2.5241008440600794,2.321761055583618,-1.0126941839801233,0.1112942099571228
1708440545.286947,-1.144700050354004,-1.660424371758932,-2.524043146763937,2.32180301725354,-1.0126493612872522,0.11131519824266434
1708440545.2889214,-1.1447169780731201,-1.6603943310179652,-2.524120871220724,2.3217519956776123,-1.0126898924456995,0.11127012968063354
1708440545.2909305,-1.1447570323944092,-1.660452505151266,-2.5240963141070765,2.321704073543213,-1.0126407782184046,0.11127012968063354
1708440545.2929354,-1.144700050354004,-1.6604110203185023,-2.5240421930896204,2.321761055583618,-1.0126612822162073,0.11127334833145142
1708440545.2949042,-1.1447333097457886,-1.6604391537108363,-2.524116341267721,2.3217777448841552,-1.0126736799823206,0.11128973960876465
1708440545.296925,-1.1447408199310303,-1.6604062519469203,-2.5240758101092737,2.3217686849781494,-1.0126612822162073,0.11131060123443604
1708440545.2989283,-1.1447036266326904,-1.660436292687887,-2.5240476767169397,2.321765585536621,-1.0126779715167444,0.1112164855003357
1708440545.300941,-1.1446746587753296,-1.66041960338735,-2.524066988621847,2.3218106466480712,-1.0127061049090784,0.11126108467578888
1708440545.3029432,-1.1446837186813354,-1.660386701623434,-2.5241087118731897,2.321737213725708,-1.0126612822162073,0.11124925315380096
1708440545.3049395,-1.1447213888168335,-1.6603990993895472,-2.524108950291769,2.321770115489624,-1.0126450697528284,0.11130771040916443
1708440545.306951,-1.144690990447998,-1.6604153118529261,-2.524087731038229,2.321715994472168,-1.0126484076129358,0.1112746000289917
1708440545.3089488,-1.1446806192398071,-1.660408159295553,-2.5240920225726526,2.3217643934437255,-1.0126407782184046,0.11124926805496216
1708440545.3109143,-1.1446837186813354,-1.660403390923971,-2.5240963141070765,2.321761055583618,-1.0126655737506312,0.1112746000289917
1708440545.312946,-1.1446881294250488,-1.6603781185545863,-2.52407151857485,2.321746273631714,-1.0126493612872522,0.11131519824266434
1708440545.3149261,-1.1446627378463745,-1.660360952416891,-2.524116341267721,2.321728153819702,-1.0126779715167444,0.11122377216815948
1708440545.3169503,-1.1446911096572876,-1.660431524316305,-2.52407151857485,2.3217131334492187,-1.0126736799823206,0.11126565933227539
1708440545.3189251,-1.1446598768234253,-1.6603990993895472,-2.52407151857485,2.321690722102783,-1.0126450697528284,0.11128974705934525
1708440545.3209143,-1.1446717977523804,-1.6604110203185023,-2.5240476767169397,2.321762724513672,-1.0126655737506312,0.11132221668958664
1708440545.3229187,-1.144713282585144,-1.66041960338735,-2.5241132418261927,2.321707172984741,-1.0126612822162073,0.11124468594789505
1708440545.324962,-1.144700050354004,-1.6603943310179652,-2.52407151857485,2.3216726022907714,-1.012632195149557,0.11129876226186752
1708440545.3270009,-1.1446925401687622,-1.6603542766966761,-2.524104658757345,2.3216921526142578,-1.0126736799823206,0.11130324006080627
1708440545.328943,-1.144655466079712,-1.6603990993895472,-2.524055306111471,2.3216592508503417,-1.0126245657550257,0.11123573780059814
1708440545.330987,-1.1446598768234253,-1.660408159295553,-2.5241175333606165,2.321678562755249,-1.0126741568194788,0.11126565933227539
1708440545.3329568,-1.1446256637573242,-1.660431524316305,-2.524087731038229,2.321704073543213,-1.0127103964435022,0.11126565933227539
1708440545.334938,-1.1446837186813354,-1.6603990993895472,-2.5240965525256556,2.3216726022907714,-1.0126822630511683,0.11131520569324493
1708440545.3369498,-1.144700050354004,-1.6603781185545863,-2.524055067692892,2.3216275411793212,-1.0126493612872522,0.1112402081489563
1708440545.3389544,-1.1446717977523804,-1.6604272327818812,-2.524066988621847,2.3216561514088134,-1.0126612822162073,0.11125373840332031
1708440545.341012,-1.1446806192398071,-1.6604153118529261,-2.5240758101092737,2.321633740062378,-1.0126450697528284,0.11131062358617783
1708440545.3429673,-1.1446969509124756,-1.6604110203185023,-2.5240476767169397,2.321636601085327,-1.0126736799823206,0.11130319535732269
1708440545.3449368,-1.1446717977523804,-1.660440584222311,-2.5240801016436976,2.3216005998798828,-1.0126364866839808,0.11126109212636948
1708440545.346932,-1.1447134017944336,-1.6604606113829554,-2.5240920225726526,2.321579857463501,-1.012669865285055,0.11127335578203201
1708440545.348963,-1.1446881294250488,-1.6604062519469203,-2.524087731038229,2.321638270015381,-1.0126331488238733,0.11131519824266434
1708440545.3509219,-1.1447303295135498,-1.660408159295553,-2.524055306111471,2.321629210109375,-1.0126450697528284,0.11127782613039017
1708440545.3529704,-1.144713282585144,-1.6604391537108363,-2.5240681807147425,2.3216022688099365,-1.0126655737506312,0.11130614578723907
1708440545.3549066,-1.144701361656189,-1.6604515514769496,-2.524066988621847,2.3216022688099365,-1.0126655737506312,0.11131064593791962
1708440545.3569233,-1.1446762084960938,-1.66041960338735,-2.5241456667529505,2.3215932089039306,-1.0126407782184046,0.11130612343549728
1708440545.3589456,-1.144679069519043,-1.6604515514769496,-2.5240758101092737,2.321650190944336,-1.0126169363604944,0.11131061613559723
1708440545.3609111,-1.144655466079712,-1.660424371758932,-2.524066988621847,2.3215722280689697,-1.0126612822162073,0.11126108467578888
1708440545.3629217,-1.1446642875671387,-1.660431524316305,-2.524116341267721,2.3216516214558105,-1.0126169363604944,0.1112852543592453
1708440545.3649309,-1.1446969509124756,-1.66038241008901,-2.524059597645895,2.3216096597858886,-1.0126331488238733,0.11129876971244812
1708440545.3669398,-1.1446435451507568,-1.660403390923971,-2.5241008440600794,2.3216351705738525,-1.0126779715167444,0.11127334833145142
1708440545.3689551,-1.1446642875671387,-1.6604153118529261,-2.524104420338766,2.3215886789509277,-1.012653652821676,0.11125660687685013
1708440545.3709452,-1.144701361656189,-1.6603943310179652,-2.5241251627551478,2.3215784269520263,-1.0126374403582972,0.11130166053771973
1708440545.3729403,-1.144619107246399,-1.6603566608824671,-2.5240920225726526,2.3215977388569335,-1.0126493612872522,0.11131520569324493
1708440545.3749635,-1.1446895599365234,-1.660424371758932,-2.5241132418261927,2.321599169368408,-1.012669865285055,0.11131519824266434
1708440545.3769984,-1.144657015800476,-1.660391469995016,-2.524055067692892,2.3215693670460205,-1.0126493612872522,0.11126453429460526
1708440545.3789854,-1.1446568965911865,-1.6603857479491175,-2.5240846315967005,2.3216141897388916,-1.012702767048971,0.111265629529953
1708440545.3809931,-1.1446642875671387,-1.660473962823385,-2.524104658757345,2.3215436178394775,-1.0126050154315394,0.11128973960876465
1708440545.3829527,-1.144668698310852,-1.660408159295553,-2.5240638891803187,2.3215557771870117,-1.0126493612872522,0.11128973960876465
1708440545.3849607,-1.144631028175354,-1.6603943310179652,-2.5240758101092737,2.3215975004383544,-1.0125845114337366,0.111265629529953
1708440545.386952,-1.144619107246399,-1.6604567966856898,-2.5240476767169397,2.3215858179279785,-1.0126493612872522,0.1112852469086647
1708440545.3889368,-1.144677758216858,-1.6604558430113734,-2.52407151857485,2.3215481477924804,-1.0126374403582972,0.11124935001134872
1708440545.3909175,-1.1446523666381836,-1.660436292687887,-2.5240638891803187,2.3215648370930175,-1.012653652821676,0.11129876971244812
1708440545.3929152,-1.144602656364441,-1.6603943310179652,-2.524083201085226,2.3215676981159667,-1.0126741568194788,0.11129728704690933
1708440545.3949802,-1.1446614265441895,-1.6603943310179652,-2.524108950291769,2.3215977388569335,-1.0126741568194788,0.11129876226186752
1708440545.3969755,-1.1446189880371094,-1.660424371758932,-2.524083439503805,2.3215271669575195,-1.0126612822162073,0.1113177239894867
1708440545.398937,-1.1446443796157837,-1.66044344524526,-2.5240758101092737,2.3216067987629394,-1.0126493612872522,0.11127781122922897
1708440545.400934,-1.1446309089660645,-1.6604343853392542,-2.5240638891803187,2.3215243059345703,-1.0126655737506312,0.11124773323535919
1708440545.4029508,-1.1446073055267334,-1.66044344524526,-2.524108950291769,2.3216096597858886,-1.0126579443561,0.11129578948020935
1708440545.4049504,-1.1445856094360352,-1.6603738270201625,-2.524120871220724,2.3215977388569335,-1.0126622358905237,0.11128237843513489
1708440545.4069126,-1.1446444988250732,-1.6604391537108363,-2.524066988621847,2.3215526777454834,-1.0126374403582972,0.11126109957695007
1708440545.408931,-1.1445947885513306,-1.6604763470091761,-2.5241132418261927,2.3215362268635253,-1.012629810963766,0.11126107722520828
1708440545.4109383,-1.1445903778076172,-1.6603943310179652,-2.524112049733297,2.321549816722534,-1.0126007238971155,0.1112942099571228
1708440545.4129083,-1.1446189880371094,-1.6604343853392542,-2.5240758101092737,2.3215829569050292,-1.0126093069659632,0.11131060123443604
1708440545.4149363,-1.1446236371994019,-1.660436292687887,-2.5240801016436976,2.3215316969105224,-1.012641731892721,0.11126109957695007
1708440545.4169173,-1.1446207761764526,-1.6604763470091761,-2.52407151857485,2.3215977388569335,-1.0126822630511683,0.11128684878349304
1708440545.4189153,-1.1446324586868286,-1.6604019604124964,-2.524116341267721,2.3215526777454834,-1.0126374403582972,0.11128684878349304
1708440545.4209101,-1.1446399688720703,-1.6604095898070277,-2.5240965525256556,2.3215648370930175,-1.0126493612872522,0.11126452684402466
1708440545.422907,-1.1446117162704468,-1.6604229412474574,-2.5241175333606165,2.3215603071400146,-1.0126245657550257,0.11126106977462769
1708440545.4250114,-1.14457106590271,-1.6604229412474574,-2.524087731038229,2.3215526777454834,-1.0126169363604944,0.11126449704170227
1708440545.4269834,-1.144620656967163,-1.6604229412474574,-2.5240519682513636,2.3215364652821044,-1.012653652821676,0.1112988144159317
1708440545.4289439,-1.1446037292480469,-1.6604672871031703,-2.524087731038229,2.321561737651489,-1.0126374403582972,0.11125662922859192
1708440545.4310045,-1.1445472240447998,-1.6604062519469203,-2.524055306111471,2.3215738969990234,-1.0126579443561,0.11126109957695007
1708440545.4329333,-1.1445798873901367,-1.660436292687887,-2.5240758101092737,2.3215274053760986,-1.0126579443561,0.11129876971244812
1708440545.434943,-1.1445635557174683,-1.6603852711119593,-2.524087731038229,2.3215693670460205,-1.0126622358905237,0.11128237843513489
1708440545.4369705,-1.14457106590271,-1.660478254357809,-2.5240638891803187,2.321561737651489,-1.0126655737506312,0.11127781867980957
1708440545.4389796,-1.144538402557373,-1.660403390923971,-2.524104658757345,2.3215603071400146,-1.0126493612872522,0.11130615323781967
1708440545.4409933,-1.1446125507354736,-1.6603690586485804,-2.524066988621847,2.3215481477924804,-1.0126579443561,0.11127781867980957
1708440545.4429238,-1.144554615020752,-1.660436292687887,-2.524087731038229,2.321591778392456,-1.012629810963766,0.11129727959632874
1708440545.444983,-1.1446125507354736,-1.6604110203185023,-2.52407151857485,2.321554346675537,-1.0126622358905237,0.11123576760292053
1708440545.4469151,-1.1445220708847046,-1.66041960338735,-2.5240920225726526,2.3215481477924804,-1.012641731892721,0.111310675740242
1708440545.4489396,-1.144522786140442,-1.660408159295553,-2.524059597645895,2.3215362268635253,-1.0126093069659632,0.11127781867980957
1708440545.450937,-1.1445798873901367,-1.6603766880431117,-2.524100128804342,2.3215738969990234,-1.0126169363604944,0.1112942099571228
1708440545.4529774,-1.144588828086853,-1.660431524316305,-2.5240920225726526,2.3215572076984863,-1.0126655737506312,0.11128246784210205
1708440545.4549077,-1.1445932388305664,-1.6603990993895472,-2.524087731038229,2.3215572076984863,-1.0126331488238733,0.11126880347728729
1708440545.4569108,-1.1445887088775635,-1.660408159295553,-2.524104658757345,2.321561737651489,-1.012625519429342,0.11128973960876465
1708440545.4589279,-1.1445798873901367,-1.6603943310179652,-2.5240963141070765,2.3215693670460205,-1.0126374403582972,0.11125993728637695
1708440545.4609408,-1.1445679664611816,-1.6604110203185023,-2.5241456667529505,2.321521206493042,-1.0126741568194788,0.11132219433784485
1708440545.4629333,-1.1445220708847046,-1.660457273522848,-2.524104658757345,2.321599169368408,-1.0126212278949183,0.11124773323535919
1708440545.4649224,-1.1445679664611816,-1.6604696712889613,-2.524066988621847,2.321533365840576,-1.0126450697528284,0.11130613088607788
1708440545.4669137,-1.1445472240447998,-1.6604229412474574,-2.524108950291769,2.321521206493042,-1.0126579443561,0.11131774634122849
1708440545.468977,-1.144572377204895,-1.6604515514769496,-2.5240965525256556,2.321512146587036,-1.0126450697528284,0.11127632856369019
1708440545.4709637,-1.1445887088775635,-1.66044344524526,-2.524104420338766,2.321554346675537,-1.0126212278949183,0.1113177239894867
1708440545.4729283,-1.1445798873901367,-1.6603900394835414,-2.52407151857485,2.321533365840576,-1.0126503149615687,0.1112852692604065
1708440545.4749753,-1.1445516347885132,-1.6604343853392542,-2.5240302721606653,2.321488304729126,-1.0126579443561,0.11128973960876465
1708440545.4769704,-1.1445353031158447,-1.660436292687887,-2.524100128804342,2.321500225658081,-1.0125964323626917,0.11130166053771973
1708440545.4789624,-1.1445560455322266,-1.6604482136168421,-2.524066988621847,2.3214778143116455,-1.0126460234271448,0.11128973960876465
1708440545.4809628,-1.1445516347885132,-1.6604062519469203,-2.524055067692892,2.321497364635132,-1.0126169363604944,0.11129726469516754
1708440545.4829288,-1.1445307731628418,-1.660469194451803,-2.5240920225726526,2.3214191633411865,-1.012597386037008,0.1112808883190155
1708440545.4849343,-1.144572377204895,-1.6604138813414515,-2.5240958372699183,2.3214358526417236,-1.0126221815692347,0.11130878329277039
1708440545.4869585,-1.14457106590271,-1.6604272327818812,-2.524043146763937,2.3214687544056396,-1.0126341024981897,0.11130431294441223
1708440545.4890225,-1.1445516347885132,-1.6604343853392542,-2.5240758101092737,2.3214568334766845,-1.0125768820392054,0.11126445978879929
1708440545.4909413,-1.1445887088775635,-1.660442968408102,-2.52407151857485,2.3214539724537353,-1.0126093069659632,0.11135534942150116
1708440545.492945,-1.1445560455322266,-1.66044344524526,-2.524078909550802,2.3214236932941894,-1.0126460234271448,0.11133742332458496
1708440545.4949088,-1.1445271968841553,-1.660457273522848,-2.524087731038229,2.3213984209248046,-1.012653652821676,0.11131653934717178
1708440545.496955,-1.1445307731628418,-1.6604482136168421,-2.5240920225726526,2.3214449125477294,-1.0125964323626917,0.11137022823095322
1708440545.4989283,-1.1445226669311523,-1.6603976688780726,-2.524066988621847,2.3214449125477294,-1.012625519429342,0.11136126518249512
1708440545.500929,-1.1445649862289429,-1.6604343853392542,-2.5240920225726526,2.321437283153198,-1.0126493612872522,0.11136573553085327
1708440545.502979,-1.1445183753967285,-1.6604558430113734,-2.5241132418261927,2.3214613634296875,-1.0125845114337366,0.11135664582252502
1708440545.5049345,-1.144518256187439,-1.6604649029173792,-2.524050776158468,2.3214613634296875,-1.012625519429342,0.11139728128910065
1708440545.5069191,-1.144539713859558,-1.6604606113829554,-2.5240801016436976,2.3214687544056396,-1.012629810963766,0.11138084530830383
1708440545.508968,-1.1445696353912354,-1.6604138813414515,-2.524050776158468,2.3214778143116455,-1.012625519429342,0.11141403019428253
1708440545.5109115,-1.144514799118042,-1.6604587040343226,-2.524100128804342,2.3214494425007324,-1.0125897566424769,0.11142296344041824
1708440545.5129347,-1.1445679664611816,-1.6604606113829554,-2.524066988621847,2.3214868742176513,-1.0126178900348108,0.11138390749692917
1708440545.5149364,-1.1445649862289429,-1.6604181728758753,-2.5240259806262415,2.321512146587036,-1.0126102606402796,0.11135993897914886
1708440545.5169125,-1.1445317268371582,-1.660492559472555,-2.5240801016436976,2.3215033250996093,-1.0125930945025843,0.11140622943639755
1708440545.5189495,-1.1445441246032715,-1.660497327844137,-2.524055306111471,2.3214568334766845,-1.012601677571432,0.11141699552536011
1708440545.520916,-1.1445146799087524,-1.6604563198485316,-2.524043385182516,2.3214704233356933,-1.0126546064959925,0.11140494048595428
1708440545.5229368,-1.144553303718567,-1.6604300938048304,-2.5240476767169397,2.3214985567280273,-1.0126264731036585,0.11143039911985397
1708440545.5249746,-1.1445271968841553,-1.6604563198485316,-2.5240638891803187,2.3214327532001953,-1.0125897566424769,0.11138086020946503
1708440545.5270333,-1.1445013284683228,-1.6604229412474574,-2.5241456667529505,2.3214732843586425,-1.0126145521747034,0.11143483966588974
1708440545.528969,-1.1444984674453735,-1.6603900394835414,-2.5240801016436976,2.321495695705078,-1.0125864187823694,0.11141398549079895
1708440545.5309558,-1.144539713859558,-1.6604181728758753,-2.5240464846240442,2.3214658933826904,-1.012573544179098,0.11140493303537369
1708440545.5329537,-1.1445057392120361,-1.6604229412474574,-2.524079147969381,2.3214613634296875,-1.0125449339496058,0.11145824193954468
1708440545.53494,-1.1445146799087524,-1.6604706249632777,-2.524100128804342,2.3214313226887207,-1.0125702063189905,0.11137180775403976
1708440545.5369606,-1.1445029973983765,-1.6604391537108363,-2.524055067692892,2.3214568334766845,-1.0125821272479456,0.11139726638793945
1708440545.5389404,-1.1445146799087524,-1.6604391537108363,-2.5240920225726526,2.3214074808308105,-1.0125997702227991,0.11144648492336273
1708440545.5409982,-1.1444894075393677,-1.6603943310179652,-2.524055067692892,2.3214658933826904,-1.0125330130206507,0.11141402274370193
1708440545.542969,-1.1444910764694214,-1.6604343853392542,-2.524050776158468,2.3214539724537353,-1.0125177542315882,0.11143742501735687
1708440545.544974,-1.144519329071045,-1.6604792080321253,-2.5240846315967005,2.3214749532886962,-1.0125535170184534,0.1114213839173317
1708440545.546929,-1.1444730758666992,-1.6604153118529261,-2.524066988621847,2.321392222041748,-1.0125458876239222,0.11135104298591614
1708440545.5489326,-1.144486665725708,-1.6604391537108363,-2.524087731038229,2.3214074808308105,-1.0125015417682093,0.11144944280385971
1708440545.5509143,-1.1445369720458984,-1.6604472599425257,-2.5240920225726526,2.3214585024067382,-1.0125177542315882,0.11145834624767303
1708440545.5530043,-1.1444655656814575,-1.660492559472555,-2.52407151857485,2.3214778143116455,-1.0125177542315882,0.11144936084747314
1708440545.55493,-1.1445578336715698,-1.6604181728758753,-2.524108950291769,2.3214449125477294,-1.012522045766012,0.11142586171627045
1708440545.556935,-1.144540786743164,-1.6604258022704066,-2.5240920225726526,2.3214539724537353,-1.012533966694967,0.11144042760133743
1708440545.558936,-1.1445237398147583,-1.6604515514769496,-2.5240801016436976,2.32142083227124,-1.0125587622271937,0.11144942790269852
1708440545.560933,-1.1445146799087524,-1.6604095898070277,-2.5240464846240442,2.3214327532001953,-1.0125091711627405,0.11142580211162567
1708440545.5629694,-1.144519329071045,-1.6604391537108363,-2.524100128804342,2.3214658933826904,-1.0125177542315882,0.11140794306993484
1708440545.5649085,-1.1444998979568481,-1.6604515514769496,-2.524050776158468,2.3214704233356933,-1.0125134626971644,0.11144943535327911
1708440545.5669382,-1.1445451974868774,-1.660442968408102,-2.524087731038229,2.3214327532001953,-1.0125177542315882,0.11141251027584076
1708440545.5689409,-1.1445237398147583,-1.66050448040151,-2.5240920225726526,2.3214539724537353,-1.0125134626971644,0.11145706474781036
1708440545.5709503,-1.1444774866104126,-1.6604300938048304,-2.5241251627551478,2.3214539724537353,-1.0125263373004358,0.11146612465381622
1708440545.5729415,-1.1444774866104126,-1.6605216465392054,-2.524059597645895,2.321446343059204,-1.012533966694967,0.11141250282526016
1708440545.574935,-1.144540786743164,-1.6604382000365199,-2.524059597645895,2.3214403825947265,-1.0124896208392542,0.11141249537467957
1708440545.576936,-1.1445363759994507,-1.6605125866331996,-2.524043146763937,2.3214585024067382,-1.0125091711627405,0.11144942790269852
1708440545.5790098,-1.1444820165634155,-1.660506387750143,-2.5240846315967005,2.3214000898548584,-1.012533966694967,0.11141245067119598
1708440545.5809498,-1.1445146799087524,-1.6605435810484828,-2.5240681807147425,2.321462793941162,-1.012538258229391,0.11149445921182632
1708440545.5829566,-1.1445118188858032,-1.6606055698790492,-2.52407151857485,2.3214074808308105,-1.0124896208392542,0.11148253828287125
1708440545.5849686,-1.1444703340530396,-1.6606079540648402,-2.524083201085226,2.3214282232471923,-1.012522045766012,0.11140793561935425
1708440545.5869412,-1.1445282697677612,-1.660576959649557,-2.5240963141070765,2.32142083227124,-1.0125263373004358,0.11145714670419693
1708440545.588949,-1.1445074081420898,-1.660569807092184,-2.524104420338766,2.3214539724537353,-1.0125306288348597,0.1115017756819725
1708440545.5909176,-1.144486665725708,-1.6606070003905238,-2.524083439503805,2.3214327532001953,-1.0124495665179651,0.11150636523962021
1708440545.5929623,-1.1445074081420898,-1.6605903110899867,-2.524104420338766,2.321387692088745,-1.0124896208392542,0.11144372820854187
1708440545.594955,-1.1445146799087524,-1.6607052288451136,-2.524059597645895,2.321401281947754,-1.012461010609762,0.11144496500492096
1708440545.5969698,-1.1445146799087524,-1.6606890163817347,-2.5240638891803187,2.321441813106201,-1.0124734083758753,0.1114286556839943
1708440545.598937,-1.1445451974868774,-1.660658975640768,-2.524059597645895,2.32142083227124,-1.0124495665179651,0.11147353053092957
1708440545.6009495,-1.1445317268371582,-1.660654684106344,-2.524026934300558,2.3214163023182373,-1.012493912373678,0.11144039034843445
1708440545.6029623,-1.1445074081420898,-1.6606666050352992,-2.5240638891803187,2.3214494425007324,-1.0124524275409144,0.11144820600748062
1708440545.6049635,-1.1444954872131348,-1.66068758587026,-2.5240638891803187,2.321437283153198,-1.0124734083758753,0.11141948401927948
1708440545.6069114,-1.1445237398147583,-1.660658975640768,-2.5240519682513636,2.3214539724537353,-1.0124738852130335,0.11144816875457764
1708440545.6089513,-1.1445226669311523,-1.6606742344298304,-2.5240357557879847,2.3214494425007324,-1.012481991444723,0.1114809662103653
1708440545.6109562,-1.1445029973983765,-1.6606866321959437,-2.5240965525256556,2.3214494425007324,-1.0125144163714808,0.11144812405109406
1708440545.612945,-1.144493818283081,-1.6606775722899378,-2.5241051355945032,2.3214778143116455,-1.0124982039081019,0.11144817620515823
1708440545.6149154,-1.1445649862289429,-1.6606575451292933,-2.524038855229513,2.3214585024067382,-1.012481991444723,0.11142690479755402
1708440545.6169145,-1.1445362567901611,-1.6606952152647914,-2.5240400473224085,2.3214658933826904,-1.012461010609762,0.11147648096084595
1708440545.6189342,-1.1445237398147583,-1.6606575451292933,-2.5240638891803187,2.3214658933826904,-1.012461010609762,0.11144372820854187
1708440545.6209502,-1.144519329071045,-1.6606999836363734,-2.5240476767169397,2.321425362224243,-1.0124495665179651,0.11151859164237976
1708440545.6229107,-1.1445369720458984,-1.6606608829894007,-2.5240963141070765,2.3214403825947265,-1.0124781767474573,0.11145263910293579
1708440545.6249654,-1.144519329071045,-1.6606666050352992,-2.524059597645895,2.321471853847168,-1.0125024954425257,0.11150957643985748
1708440545.6269178,-1.1445074081420898,-1.6606832943358363,-2.5240638891803187,2.3214494425007324,-1.012481991444723,0.11146903038024902
1708440545.6289513,-1.1445237398147583,-1.6606413326659144,-2.5240758101092737,2.321437283153198,-1.0125067869769495,0.11148542165756226
1708440545.630935,-1.1444984674453735,-1.6606618366637171,-2.5240724722491663,2.3214613634296875,-1.0124495665179651,0.11146456003189087
1708440545.6329184,-1.144454002380371,-1.6606008015074671,-2.5241132418261927,2.32142083227124,-1.0125024954425257,0.1114809662103653
1708440545.634932,-1.1444910764694214,-1.660654684106344,-2.524087731038229,2.321387930507324,-1.0124414602862757,0.11150959134101868
