Eg3-git/Classifiers/Data Collection/u7/u7star1_ur3e_joint_states.csv
time,elbow_joint,shoulder_lift_joint,shoulder_pan_joint,wrist_1_joint,wrist_2_joint,wrist_3_joint
1708440500.3248081,-1.1157305240631104,-1.6759339771666468,-2.5268951098071497,2.2921275335499267,-1.0178120771991175,0.21465714275836945
1708440500.3268125,-1.115795612335205,-1.675851961175436,-2.5268786589251917,2.2921337324329834,-1.0178478399859827,0.21462465822696686
1708440500.3288074,-1.1157793998718262,-1.6758972607054652,-2.5268576780902308,2.2921580511280517,-1.0178359190570276,0.21465282142162323
1708440500.3308399,-1.115771770477295,-1.67588533977651,-2.5268710295306605,2.2921716409870605,-1.0178359190570276,0.21466588973999023
1708440500.3328273,-1.1157879829406738,-1.675819536248678,-2.5269206205951136,2.2921411234089355,-1.0178478399859827,0.21467021107673645
1708440500.3347967,-1.115767478942871,-1.6758972607054652,-2.5269325415240687,2.2921456533619384,-1.0178325811969202,0.2146943211555481
1708440500.3367865,-1.1157922744750977,-1.6758648357787074,-2.5268831888781946,2.2921008306690673,-1.0178034941302698,0.21463769674301147
1708440500.3387878,-1.11578369140625,-1.6758395634093226,-2.5268831888781946,2.2920710283466796,-1.0178359190570276,0.214673712849617
1708440500.3407729,-1.1158009767532349,-1.675823827783102,-2.5268664995776575,2.2921320635029296,-1.0178206602679651,0.2146736979484558
1708440500.3427923,-1.1157317161560059,-1.6758681736388148,-2.5268831888781946,2.2921365934559326,-1.0178239981280726,0.21465714275836945
1708440500.3447745,-1.1157598495483398,-1.675889631310934,-2.5268996397601526,2.2921337324329834,-1.0178034941302698,0.21464964747428894
1708440500.346788,-1.1157230138778687,-1.6758438549437464,-2.5268877188311976,2.2921218115040283,-1.0178316275226038,0.2146899700164795
1708440500.3487947,-1.115743637084961,-1.675901552239889,-2.5268951098071497,2.2921172815510253,-1.017836872731344,0.21467804908752441
1708440500.3507745,-1.1157273054122925,-1.6758724651732386,-2.5268877188311976,2.2921716409870605,-1.017799202595846,0.21464085578918457
1708440500.3527894,-1.1157728433609009,-1.6758963070311488,-2.526874367390768,2.292154474849365,-1.0177667776690882,0.2146899700164795
1708440500.354777,-1.1157435178756714,-1.6758605442442835,-2.5268786589251917,2.292154474849365,-1.0178034941302698,0.21466940641403198
1708440500.356805,-1.1157889366149902,-1.675917764703268,-2.5268951098071497,2.2921172815510253,-1.0178445021258753,0.21467804908752441
1708440500.358798,-1.1157448291778564,-1.6758648357787074,-2.5268741289721888,2.2920538622089843,-1.0178282896624964,0.21467021107673645
1708440500.3608253,-1.1157684326171875,-1.675830980340475,-2.5268786589251917,2.2921008306690673,-1.0178325811969202,0.2146942913532257
1708440500.3628116,-1.115739345550537,-1.6758810482420863,-2.526911799107687,2.292151613826416,-1.0178239981280726,0.2147192806005478
1708440500.3648627,-1.1157565116882324,-1.6758352718748988,-2.526919190083639,2.292093439693115,-1.0178120771991175,0.2146899700164795
1708440500.3668067,-1.1157598495483398,-1.675917764703268,-2.5269325415240687,2.2920872408100585,-1.0178239981280726,0.21470506489276886
1708440500.3687825,-1.115743637084961,-1.6758562527098597,-2.526907269154684,2.292109652156494,-1.0178445021258753,0.2147030383348465
1708440500.3707836,-1.1157190799713135,-1.6758610210814417,-2.5268622080432337,2.2921292024799804,-1.0178120771991175,0.2147105485200882
1708440500.3728092,-1.1157402992248535,-1.6758963070311488,-2.5268996397601526,2.2921218115040283,-1.0177629629718226,0.21475961804389954
1708440500.3747873,-1.1157522201538086,-1.6758562527098597,-2.5268965403186243,2.2921053606220703,-1.0177915732013147,0.2146769016981125
1708440500.3767927,-1.1157479286193848,-1.6759048900999964,-2.5268951098071497,2.292154474849365,-1.0177796522723597,0.21470189094543457
1708440500.378793,-1.1157522201538086,-1.6758724651732386,-2.5268741289721888,2.292159004802368,-1.0178402105914515,0.21470940113067627
1708440500.380782,-1.11581289768219,-1.6758562527098597,-2.5269206205951136,2.2921127515980224,-1.0178573767291468,0.21472246944904327
1708440500.3828073,-1.1157392263412476,-1.6759005985655726,-2.5268831888781946,2.2921172815510253,-1.0178001562701624,0.21475528180599213
1708440500.3847742,-1.115771770477295,-1.6759091816344203,-2.5269416014300745,2.2920889097401123,-1.017771069203512,0.21472923457622528
1708440500.386804,-1.1157230138778687,-1.6758886776366175,-2.526890579854147,2.2921008306690673,-1.017836872731344,0.21474221348762512
1708440500.3888004,-1.11581289768219,-1.675901552239889,-2.5268293062793177,2.2920889097401123,-1.0178044478045862,0.21468882262706757
1708440500.390771,-1.1157610416412354,-1.675852438012594,-2.5268426577197474,2.292093439693115,-1.0178163687335413,0.21480320394039154
1708440500.3928037,-1.1157273054122925,-1.6759005985655726,-2.5268502871142786,2.292093439693115,-1.0178411642657679,0.2147335708141327
1708440500.3947773,-1.1157846450805664,-1.6758266888060511,-2.526802364979879,2.292118950481079,-1.01780873933901,0.2147216498851776
1708440500.3968086,-1.1157597303390503,-1.6759005985655726,-2.5268591086017054,2.292109890575073,-1.0177839438067835,0.2147945612668991
1708440500.3987803,-1.115743637084961,-1.6759091816344203,-2.526740852986471,2.292071982020996,-1.0177839438067835,0.2147814929485321
1708440500.4007783,-1.1158097982406616,-1.6758972607054652,-2.526748243962423,2.292081041927002,-1.0177434126483362,0.2147529572248459
1708440500.402803,-1.1157684326171875,-1.6758648357787074,-2.5267751852618616,2.292071982020996,-1.0177519957171839,0.21478579938411713
1708440500.4047887,-1.1157479286193848,-1.6758886776366175,-2.5267468134509485,2.292081041927002,-1.0177400747882288,0.21476177871227264
1708440500.4067914,-1.1157273054122925,-1.6758886776366175,-2.5267213026629847,2.292093439693115,-1.0177562872516077,0.21480639278888702
1708440500.4087858,-1.1157522201538086,-1.6758681736388148,-2.5267632643329065,2.292081041927002,-1.0178011099444788,0.21479769051074982
1708440500.410783,-1.1157360076904297,-1.6758681736388148,-2.5266972223864954,2.292109890575073,-1.0177391211139124,0.21475733816623688
1708440500.4128478,-1.1157402992248535,-1.6759091816344203,-2.5267558733569544,2.292138023967407,-1.0177672545062464,0.21472366154193878
1708440500.414775,-1.1157402992248535,-1.6758886776366175,-2.5267513434039515,2.2920800882526855,-1.0178120771991175,0.21476174890995026
1708440500.416847,-1.1157610416412354,-1.6759168110289515,-2.5267601648913782,2.2920889097401123,-1.017796818410055,0.21478581428527832
1708440500.4187944,-1.1157610416412354,-1.675892015496725,-2.52669865289797,2.2920889097401123,-1.0177839438067835,0.21483057737350464
1708440500.4208028,-1.1157684326171875,-1.6758681736388148,-2.526706043873922,2.292093439693115,-1.01774770418276,0.21481862664222717
1708440500.4228387,-1.1157803535461426,-1.6759568653502406,-2.526727263127462,2.292043610210083,-1.0177682081805628,0.21476958692073822
1708440500.4248092,-1.1156985759735107,-1.6758929691710414,-2.526748005543844,2.2921337324329834,-1.0177510420428675,0.21483922004699707
1708440500.426841,-1.1157684326171875,-1.6759082279601039,-2.5266807715045374,2.292081041927002,-1.017763916646139,0.21476410329341888
1708440500.4288273,-1.1157610416412354,-1.6759373150267542,-2.526764694844381,2.292067452067993,-1.0177109877215784,0.21480204164981842
1708440500.4307837,-1.115706205368042,-1.6759287319579066,-2.526715103779928,2.292118950481079,-1.0177562872516077,0.21477709710597992
1708440500.4327984,-1.1157772541046143,-1.6758800945677699,-2.526752535496847,2.29214255392041,-1.0177152792560022,0.21483920514583588
1708440500.434789,-1.1158009767532349,-1.6758715114989222,-2.526703182850973,2.292085571880005,-1.0177519957171839,0.21480990946292877
1708440500.4367948,-1.1157402992248535,-1.6759568653502406,-2.5266853014575403,2.292147322291992,-1.017691437398092,0.21483482420444489
1708440500.4387705,-1.1157273054122925,-1.675892015496725,-2.5267601648913782,2.2920889097401123,-1.0177162329303187,0.2147977203130722
1708440500.440805,-1.1157402992248535,-1.6759244404234828,-2.52674371400942,2.292159004802368,-1.0176671187030237,0.2147977352142334
1708440500.442803,-1.1157846450805664,-1.6759244404234828,-2.5267601648913782,2.292102499599121,-1.0177248159991663,0.21478590369224548
1708440500.4448137,-1.1157317161560059,-1.6759535274901332,-2.5267227331744593,2.292138023967407,-1.0176799933062952,0.21480560302734375
1708440500.4468036,-1.1157522201538086,-1.6759330234923304,-2.526752535496847,2.292138023967407,-1.0176680723773401,0.21482613682746887
1708440500.448794,-1.1157684326171875,-1.6759363613524378,-2.5267062822925013,2.2921008306690673,-1.0176833311664026,0.21480555832386017
1708440500.4507968,-1.1157317161560059,-1.675981184045309,-2.526748243962423,2.292126103038452,-1.017684284840719,0.21482180058956146
1708440500.45278,-1.1157610416412354,-1.6759568653502406,-2.526694361363546,2.2921456533619384,-1.0176799933062952,0.21478469669818878
1708440500.4547756,-1.1157479286193848,-1.6760179005064906,-2.526740852986471,2.292071982020996,-1.0177701155291956,0.21486300230026245
1708440500.4567983,-1.1157684326171875,-1.6759854755797328,-2.526752535496847,2.292098208064697,-1.0176594893084925,0.21483486890792847
1708440500.4588492,-1.1157402992248535,-1.6760293445982875,-2.5267391840564173,2.292138023967407,-1.0176637808429163,0.21483804285526276
1708440500.4607975,-1.1157565116882324,-1.6759840450682582,-2.526715103779928,2.292085571880005,-1.0176637808429163,0.2147771269083023
1708440500.4627914,-1.1157522201538086,-1.675976892510885,-2.526710573826925,2.292109890575073,-1.0176475683795374,0.2148456573486328
1708440500.464784,-1.1157522201538086,-1.6759683094420375,-2.5267391840564173,2.2920889097401123,-1.0176637808429163,0.21484126150608063
1708440500.466795,-1.1157610416412354,-1.6759754619994105,-2.5267139116870325,2.2921053606220703,-1.0177128950702112,0.21480989456176758
1708440500.4688427,-1.1157803535461426,-1.6760007343687953,-2.52674371400942,2.2921172815510253,-1.017684284840719,0.21483056247234344
1708440500.4707992,-1.115743637084961,-1.6759878597655238,-2.526710573826925,2.292109890575073,-1.0176637808429163,0.21483804285526276
1708440500.472801,-1.115744709968567,-1.6759473286070765,-2.5267017523394983,2.2921218115040283,-1.0176766554461878,0.21482610702514648
1708440500.4748282,-1.1157190799713135,-1.6760279140868128,-2.5267391840564173,2.292043610210083,-1.0176356474505823,0.21482940018177032
1708440500.476799,-1.1157889366149902,-1.6760193310179652,-2.5267558733569544,2.29203908025708,-1.0176366011248987,0.21485115587711334
1708440500.4788058,-1.1157479286193848,-1.6760570011534632,-2.5267766157733362,2.292118950481079,-1.0176366011248987,0.2148708701133728
1708440500.4807897,-1.1157104969024658,-1.6760570011534632,-2.5267015139209192,2.292060061092041,-1.0176366011248987,0.21484997868537903
1708440500.4828124,-1.1157231330871582,-1.6760322056212367,-2.526748005543844,2.292102499599121,-1.0176571051227015,0.2148870825767517
1708440500.4848092,-1.1157760620117188,-1.6760322056212367,-2.526731793080465,2.292071982020996,-1.0176289717303675,0.21484123170375824
1708440500.4868712,-1.1157317161560059,-1.6760932407774867,-2.5267346541034144,2.292093439693115,-1.0176203886615198,0.21484126150608063
1708440500.48878,-1.1157104969024658,-1.6760322056212367,-2.526703182850973,2.292060061092041,-1.017587963734762,0.2148665338754654
1708440500.4907742,-1.1157641410827637,-1.6760364971556605,-2.5267391840564173,2.2920965391346435,-1.0175798575030726,0.2148708552122116
1708440500.4928002,-1.1157147884368896,-1.6761170826353968,-2.526752535496847,2.292093439693115,-1.017587963734762,0.21481752395629883
1708440500.4947872,-1.1157360076904297,-1.6760193310179652,-2.5267720858203333,2.292064591045044,-1.017604176198141,0.2148708552122116
1708440500.4973378,-1.1157610416412354,-1.6761256657042445,-2.5267227331744593,2.292135162944458,-1.0175755659686487,0.21485860645771027
1708440500.498781,-1.1157190799713135,-1.6760803661742152,-2.526748005543844,2.292055531139038,-1.0176084677325647,0.21482937037944794
1708440500.500784,-1.115743637084961,-1.676067968408102,-2.526710573826925,2.292076511973999,-1.017616097127096,0.2148456573486328
1708440500.5027645,-1.1157934665679932,-1.676063676873678,-2.526731793080465,2.29214255392041,-1.0176375547992151,0.21486973762512207
1708440500.5047762,-1.1157889366149902,-1.6760803661742152,-2.526715103779928,2.292039318675659,-1.0176084677325647,0.2148665338754654
1708440500.5067852,-1.1157230138778687,-1.6761089764037074,-2.526764694844381,2.292093439693115,-1.0176213423358362,0.21480989456176758
1708440500.508785,-1.1157104969024658,-1.6760593853392542,-2.526703182850973,2.2920889097401123,-1.0175798575030726,0.21481318771839142
1708440500.510782,-1.1157727241516113,-1.6761347256102503,-2.526731793080465,2.292064591045044,-1.0176289717303675,0.21485349535942078
1708440500.5127738,-1.1157684326171875,-1.676096101800436,-2.526707712803976,2.292107029552124,-1.0175684134112757,0.214857816696167
1708440500.5148015,-1.1158008575439453,-1.676091810266012,-2.5267227331744593,2.292130871410034,-1.0175641218768519,0.21484918892383575
1708440500.5168278,-1.1157598495483398,-1.676091810266012,-2.52674371400942,2.292069120998047,-1.0176008383380335,0.21486541628837585
1708440500.5188038,-1.1158051490783691,-1.676096101800436,-2.5267017523394983,2.292055531139038,-1.0175560156451624,0.21485351026058197
1708440500.520798,-1.1157772541046143,-1.676091810266012,-2.526748005543844,2.292060061092041,-1.017592732106344,0.2148990035057068
1708440500.5227818,-1.1157147884368896,-1.6761256657042445,-2.52674371400942,2.292097969646118,-1.0176094214068812,0.21485349535942078
1708440500.524777,-1.1157402992248535,-1.6760193310179652,-2.52669865289797,2.292093439693115,-1.0175398031817835,0.2148326188325882
1708440500.5267866,-1.115727424621582,-1.676035543481344,-2.52669865289797,2.2920617300220947,-1.0175884405719202,0.21495091915130615
1708440500.528779,-1.1157479286193848,-1.6760808430113734,-2.526682202016012,2.292114420528076,-1.0175321737872522,0.21495097875595093
1708440500.5307856,-1.1157071590423584,-1.6761003933348597,-2.526694361363546,2.292081041927002,-1.017585579548971,0.21489357948303223
1708440500.5327945,-1.1157231330871582,-1.676063676873678,-2.526727263127462,2.292093439693115,-1.0175603071795862,0.21493685245513916
1708440500.5347862,-1.1156985759735107,-1.6760803661742152,-2.5267558733569544,2.2920898634144287,-1.0175483862506312,0.21495424211025238
1708440500.5367727,-1.1157846450805664,-1.6760441265501917,-2.526715103779928,2.2921053606220703,-1.017536465321676,0.21490876376628876
1708440500.538792,-1.1157522201538086,-1.6760550938048304,-2.526719633732931,2.292093439693115,-1.017552677785055,0.21493685245513916
1708440500.5408304,-1.1157360076904297,-1.676063676873678,-2.5267017523394983,2.292107029552124,-1.0175159613238733,0.2149578332901001
1708440500.542792,-1.115707278251648,-1.6760193310179652,-2.52674371400942,2.292052670116089,-1.0174673239337366,0.21499033272266388
1708440500.5447679,-1.1157610416412354,-1.676035543481344,-2.5267391840564173,2.292055531139038,-1.0174959341632288,0.21495337784290314
1708440500.5468028,-1.1157233715057373,-1.6760765514769496,-2.52674371400942,2.2920898634144287,-1.0175045172320765,0.21493251621723175
1708440500.5487704,-1.115694284439087,-1.676067968408102,-2.5267558733569544,2.2920898634144287,-1.0175169149981897,0.2149578481912613
1708440500.5507758,-1.1157147884368896,-1.6761170826353968,-2.52674371400942,2.292123480434082,-1.0175254980670374,0.2149859219789505
1708440500.5527902,-1.1156866550445557,-1.6760765514769496,-2.5267139116870325,2.292085571880005,-1.0174959341632288,0.21501009166240692
1708440500.554795,-1.1157147884368896,-1.676063676873678,-2.526727263127462,2.2920898634144287,-1.0175374189959925,0.2149902880191803
1708440500.5568051,-1.1157522201538086,-1.6760593853392542,-2.52675706544985,2.292093439693115,-1.0174959341632288,0.21493250131607056
1708440500.5587983,-1.1157190799713135,-1.6761170826353968,-2.526748243962423,2.292081041927002,-1.0175450483905237,0.2149653434753418
1708440500.5607924,-1.1157147884368896,-1.6760322056212367,-2.5266898314105433,2.292022152537964,-1.0175045172320765,0.21494480967521667
1708440500.5628345,-1.1157935857772827,-1.6760031185545863,-2.526727263127462,2.292111559505127,-1.0174558798419397,0.21501873433589935
1708440500.56481,-1.1157565116882324,-1.6760269604124964,-2.526752535496847,2.2920572000690917,-1.0175212065326136,0.21497724950313568
1708440500.5668244,-1.1157317161560059,-1.6760765514769496,-2.526724163685934,2.2920149999805908,-1.017512623463766,0.21497726440429688
1708440500.5687943,-1.1157772541046143,-1.6761089764037074,-2.5266898314105433,2.292052670116089,-1.0175450483905237,0.2149784117937088
1708440500.5707746,-1.1158052682876587,-1.6761003933348597,-2.526748005543844,2.2920662599750976,-1.0175698439227503,0.2149447649717331
1708440500.5728023,-1.115785837173462,-1.6761342487730921,-2.526731793080465,2.2920617300220947,-1.017480198537008,0.21497726440429688
1708440500.5747993,-1.1157684326171875,-1.6760550938048304,-2.526731793080465,2.2920493322559814,-1.0174678007708948,0.21501441299915314
1708440500.5768068,-1.1157147884368896,-1.6761089764037074,-2.526706043873922,2.2920147615620117,-1.017512623463766,0.21501009166240692
1708440500.5788076,-1.1157565116882324,-1.6760193310179652,-2.526715103779928,2.2920448023029785,-1.0175536314593714,0.2149403840303421
1708440500.5808153,-1.1157116889953613,-1.6760808430113734,-2.526724163685934,2.2920781809040527,-1.0175169149981897,0.21493171155452728
1708440500.5828583,-1.1157190799713135,-1.6760322056212367,-2.526682202016012,2.2920872408100585,-1.0175045172320765,0.21492822468280792
1708440500.5848067,-1.1157028675079346,-1.6760312519469203,-2.526727263127462,2.2920357423969726,-1.0175331274615687,0.21494920551776886
1708440500.5868256,-1.1157448291778564,-1.6760441265501917,-2.526731793080465,2.2920192915150146,-1.0174396673785608,0.2149783819913864
1708440500.5887847,-1.1157491207122803,-1.6759988270201625,-2.526731793080465,2.2920781809040527,-1.0174763838397425,0.2149764746427536
1708440500.5907829,-1.1157491207122803,-1.676011701623434,-2.526736084614889,2.2920493322559814,-1.0175254980670374,0.21501438319683075
1708440500.5928657,-1.1157279014587402,-1.6761003933348597,-2.5267227331744593,2.2920870023914794,-1.0175045172320765,0.2149858921766281
1708440500.5948207,-1.1157859563827515,-1.6760441265501917,-2.526731793080465,2.2920536237904052,-1.0174558798419397,0.21503491699695587
1708440500.5968013,-1.1156909465789795,-1.676067968408102,-2.526727263127462,2.2920572000690917,-1.0174558798419397,0.2149815857410431
1708440500.5987597,-1.1157190799713135,-1.676117559472555,-2.526748005543844,2.2920989233204345,-1.0174482504474085,0.21497729420661926
1708440500.600775,-1.1156985759735107,-1.6760760746397914,-2.526710573826925,2.2920946317860107,-1.017451588307516,0.2149566411972046
1708440500.6028001,-1.115720272064209,-1.6760932407774867,-2.526719633732931,2.2920283514210205,-1.0174887816058558,0.21500566601753235
1708440500.604781,-1.1157728433609009,-1.6760441265501917,-2.526694361363546,2.292029781932495,-1.017473045979635,0.21493598818778992
1708440500.6067894,-1.1156823635101318,-1.6760593853392542,-2.526748005543844,2.2920827108570556,-1.0174930731402796,0.21499034762382507
1708440500.6087813,-1.1157727241516113,-1.6760932407774867,-2.52669865289797,2.2920357423969726,-1.017489258443014,0.21498943865299225
1708440500.6107597,-1.1157233715057373,-1.6760803661742152,-2.526695791875021,2.2920536237904052,-1.0174930731402796,0.21492816507816315
1708440500.6128294,-1.1157317161560059,-1.6760107479491175,-2.526748243962423,2.292069120998047,-1.0174930731402796,0.2149566113948822
1708440500.614784,-1.115694284439087,-1.6760159931578578,-2.5267062822925013,2.2921079832264404,-1.0174601713763636,0.2149728685617447
1708440500.6167855,-1.1157565116882324,-1.6760593853392542,-2.526703182850973,2.2920617300220947,-1.0175131003009241,0.21496106684207916
1708440500.6188128,-1.1157279014587402,-1.6760803661742152,-2.5267227331744593,2.2920328813740234,-1.0174439589129847,0.214969664812088
1708440500.6207945,-1.1156985759735107,-1.6760932407774867,-2.526727263127462,2.2920283514210205,-1.0174806753741663,0.21495233476161957
1708440500.6228244,-1.1157317161560059,-1.6760312519469203,-2.526682202016012,2.2920402723499755,-1.0174482504474085,0.214960977435112
1708440500.6248136,-1.1157279014587402,-1.6759945354857386,-2.526710573826925,2.2920946317860107,-1.0174396673785608,0.21491952240467072
1708440500.626807,-1.1157028675079346,-1.676084657708639,-2.526724163685934,2.292048378581665,-1.0174201170550745,0.2149815857410431
1708440500.628803,-1.1157653331756592,-1.6760765514769496,-2.5267062822925013,2.2920448023029785,-1.0174363295184534,0.21493245661258698
1708440500.630801,-1.1157653331756592,-1.6760322056212367,-2.52669865289797,2.292076511973999,-1.0174849669085901,0.21497729420661926
1708440500.6328375,-1.1157610416412354,-1.6760527096190394,-2.526752535496847,2.2920147615620117,-1.0174406210528772,0.21499381959438324
1708440500.634787,-1.1157279014587402,-1.6760765514769496,-2.526703182850973,2.2920448023029785,-1.0174568335162562,0.21500566601753235
1708440500.6368208,-1.1157772541046143,-1.6760765514769496,-2.526665989552633,2.2920192915150146,-1.0174406210528772,0.21495665609836578
1708440500.6388137,-1.1157279014587402,-1.6760765514769496,-2.52666145959963,2.2920617300220947,-1.0173876921283167,0.2149447500705719
1708440500.640787,-1.1157203912734985,-1.6760593853392542,-2.526691261922018,2.2920617300220947,-1.0174568335162562,0.2149152308702469
1708440500.6428301,-1.1157727241516113,-1.6759616337218226,-2.526703182850973,2.2920164304920654,-1.0174525419818323,0.2149815857410431
1708440500.644787,-1.1157479286193848,-1.6760035953917445,-2.526695791875021,2.2920736509510498,-1.0174525419818323,0.2149360179901123
1708440500.6467943,-1.1157366037368774,-1.6760322056212367,-2.526707712803976,2.2920781809040527,-1.0174244085894983,0.21496854722499847
1708440500.6488214,-1.1157279014587402,-1.6760570011534632,-2.526677672063009,2.2920357423969726,-1.0174406210528772,0.21499814093112946
1708440500.6508088,-1.1157233715057373,-1.6760159931578578,-2.526694361363546,2.2920357423969726,-1.0174439589129847,0.21498942375183105
1708440500.652829,-1.1157116889953613,-1.6760484180846156,-2.52667481104006,2.2920781809040527,-1.0174244085894983,0.21502315998077393
1708440500.654799,-1.1157641410827637,-1.6760245762267054,-2.5267003218280237,2.292043610210083,-1.0174396673785608,0.21492816507816315
1708440500.6567912,-1.1157522201538086,-1.6760527096190394,-2.526686731969015,2.2920121389576416,-1.0174806753741663,0.21500246226787567
1708440500.6588032,-1.1156985759735107,-1.6760031185545863,-2.526691261922018,2.292048378581665,-1.0174654165851038,0.21500134468078613
1708440500.6608093,-1.1157728433609009,-1.6759950123228968,-2.526695791875021,2.2920662599750976,-1.0174849669085901,0.21496103703975677
1708440500.6628034,-1.1157402992248535,-1.6760312519469203,-2.526712242756979,2.2920617300220947,-1.0174687544452112,0.21493253111839294
1708440500.6647725,-1.1157360076904297,-1.6760202846922816,-2.526665989552633,2.2920312124439697,-1.0175016562091272,0.21499814093112946
1708440500.6668103,-1.1157104969024658,-1.6760202846922816,-2.526641909276144,2.292064591045044,-1.0174406210528772,0.21497288346290588
1708440500.6688094,-1.1157565116882324,-1.6759950123228968,-2.5267284552203577,2.2920493322559814,-1.0174287001239222,0.21501758694648743
1708440500.6708355,-1.1157317161560059,-1.6759878597655238,-2.52667481104006,2.2920572000690917,-1.01746112505068,0.21496854722499847
1708440500.6728268,-1.1157760620117188,-1.6760484180846156,-2.526695791875021,2.2920734125324707,-1.017407242451803,0.2149403989315033
1708440500.674819,-1.115743637084961,-1.6760407886900843,-2.52665359178652,2.2920147615620117,-1.0174568335162562,0.21494479477405548
1708440500.6768184,-1.1157402992248535,-1.6760975323119105,-2.526679340993063,2.292093439693115,-1.0174244085894983,0.21499814093112946
1708440500.67879,-1.1157727241516113,-1.6760150394835414,-2.526679340993063,2.2920736509510498,-1.0174201170550745,0.21498510241508484
1708440500.6807752,-1.115744709968567,-1.6761065922179164,-2.526719633732931,2.2920266824909667,-1.0174406210528772,0.21501758694648743
1708440500.6828244,-1.1157684326171875,-1.6760035953917445,-2.526670281087057,2.2920073705860595,-1.0174320379840296,0.214969664812088
1708440500.6848888,-1.1157684326171875,-1.6760364971556605,-2.526703182850973,2.292022152537964,-1.0174201170550745,0.21497726440429688
1708440500.6868231,-1.1157598495483398,-1.6760035953917445,-2.526646439229147,2.2920121389576416,-1.0174859205829065,0.2149653434753418
1708440500.6887746,-1.1157511472702026,-1.6760078869261683,-2.52666145959963,2.292052670116089,-1.017421070729391,0.21501438319683075
1708440500.6908014,-1.1157879829406738,-1.6760035953917445,-2.52667481104006,2.2920400339313964,-1.0173919836627405,0.21498510241508484
1708440500.6928062,-1.1158052682876587,-1.6760121784605921,-2.526703182850973,2.292114420528076,-1.017432991658346,0.21496856212615967
1708440500.6947935,-1.11578369140625,-1.6760288677611292,-2.5267284552203577,2.2920736509510498,-1.017444912587301,0.21500566601753235
1708440500.6967876,-1.1157923936843872,-1.6760279140868128,-2.5267210642444056,2.2920102316090087,-1.0173962751971644,0.21502310037612915
1708440500.6987882,-1.1158170700073242,-1.6759835682311,-2.526695791875021,2.292081041927002,-1.0174296537982386,0.2149653434753418
1708440500.7007759,-1.1158041954040527,-1.6760407886900843,-2.526649300252096,2.292081041927002,-1.0173843542682093,0.2149653434753418
1708440500.7027636,-1.1158171892166138,-1.6760007343687953,-2.5266626516925257,2.292055531139038,-1.017376724873678,0.21502310037612915
1708440500.7047935,-1.1157879829406738,-1.6760245762267054,-2.526649300252096,2.292114420528076,-1.0173853079425257,0.2149728685617447
1708440500.706771,-1.11578369140625,-1.6760035953917445,-2.526731793080465,2.292060061092041,-1.0174177328692835,0.21496102213859558
1708440500.708803,-1.1158416271209717,-1.6759835682311,-2.526682202016012,2.292093439693115,-1.0173566977130335,0.2149740606546402
1708440500.7107706,-1.115799903869629,-1.6759597263731898,-2.526707712803976,2.292081041927002,-1.0173609892474573,0.21498942375183105
1708440500.712789,-1.1158161163330078,-1.6760121784605921,-2.5266838709460657,2.292052670116089,-1.017343823109762,0.21495231986045837
1708440500.7148004,-1.1158041954040527,-1.6760035953917445,-2.5266671816455286,2.292114420528076,-1.0173643271075647,0.21492062509059906
1708440500.7167675,-1.1158286333084106,-1.6759640179076136,-2.526641909276144,2.292093439693115,-1.0173242727862757,0.2149903029203415
1708440500.7189138,-1.1157866716384888,-1.6760570011534632,-2.5266581217395228,2.292093439693115,-1.0174058119403284,0.2149653434753418
1708440500.720801,-1.115828037261963,-1.6760035953917445,-2.526712242756979,2.292081041927002,-1.0173524061786097,0.21499814093112946
1708440500.7228072,-1.1158528327941895,-1.6760078869261683,-2.526691261922018,2.292081041927002,-1.0174015204059046,0.2149815857410431
1708440500.7247872,-1.1158196926116943,-1.6760078869261683,-2.5266626516925257,2.292138023967407,-1.0173686186419886,0.21496102213859558
1708440500.7267869,-1.1158528327941895,-1.6759668789305628,-2.5266626516925257,2.292093439693115,-1.0173729101764124,0.2149403989315033
1708440500.7287908,-1.1158111095428467,-1.675955434838766,-2.5266507307635706,2.292071982020996,-1.0173853079425257,0.21501438319683075
1708440500.730788,-1.1158573627471924,-1.6759921512999476,-2.5266838709460657,2.2920800882526855,-1.0173729101764124,0.21502740681171417
1708440500.7328463,-1.1158573627471924,-1.6759993038573207,-2.5267000834094446,2.292135162944458,-1.0173686186419886,0.2149728685617447
1708440500.734791,-1.1157941818237305,-1.6760407886900843,-2.526679340993063,2.2921218115040283,-1.0173729101764124,0.214965358376503
1708440500.7368019,-1.1158323287963867,-1.6760207615294398,-2.526658360158102,2.2921172815510253,-1.0173729101764124,0.2149815857410431
1708440500.738784,-1.1158366203308105,-1.6760121784605921,-2.5266626516925257,2.2920965391346435,-1.017414395009176,0.21496102213859558
1708440500.7407875,-1.1158809661865234,-1.6760322056212367,-2.5266431013690394,2.2921716409870605,-1.0173566977130335,0.21496105194091797
1708440500.7427838,-1.1158442497253418,-1.6760121784605921,-2.5266552607165735,2.2921337324329834,-1.0173729101764124,0.21493686735630035
1708440500.7447789,-1.1158312559127808,-1.6759878597655238,-2.5266717115985315,2.2920920091816406,-1.0173686186419886,0.21497409045696259
1708440500.7467728,-1.115839958190918,-1.676037450829977,-2.526646439229147,2.2921337324329834,-1.0173481146441858,0.2149858921766281
1708440500.748808,-1.1159379482269287,-1.676016469995016,-2.5266881624804896,2.29214255392041,-1.0173895994769495,0.21500557661056519
1708440500.7507875,-1.1158604621887207,-1.6760345898070277,-2.5266838709460657,2.2921625810810546,-1.0173643271075647,0.2149238884449005
1708440500.7528105,-1.1159254312515259,-1.6759559116759242,-2.5266552607165735,2.2921363550373535,-1.0173361937152308,0.2149578183889389
1708440500.7547648,-1.115851879119873,-1.675981184045309,-2.5266838709460657,2.2921292024799804,-1.0173686186419886,0.21496102213859558
1708440500.7567704,-1.1158636808395386,-1.6759969196715296,-2.5267046133624476,2.2921671110340576,-1.0173729101764124,0.21497727930545807
1708440500.7587953,-1.1159205436706543,-1.6759363613524378,-2.5267375151263636,2.2921456533619384,-1.0173895994769495,0.21490879356861115
1708440500.760794,-1.115908145904541,-1.6758843861021937,-2.5267046133624476,2.292181892985962,-1.0173566977130335,0.21495342254638672
1708440500.7628229,-1.1158831119537354,-1.6759468517699183,-2.5266838709460657,2.2921411234089355,-1.0173524061786097,0.21493256092071533
1708440500.7648165,-1.115891933441162,-1.675852438012594,-2.5266597906695765,2.292214556331299,-1.0173729101764124,0.21494126319885254
1708440500.7668138,-1.115896224975586,-1.675873418847555,-2.5266342798816126,2.292177363032959,-1.0173895994769495,0.2149815857410431
1708440500.7688653,-1.1158766746520996,-1.6758777103819789,-2.5266926924334925,2.292196674937866,-1.0173447767840784,0.21493251621723175
1708440500.770819,-1.1158711910247803,-1.6758810482420863,-2.5266626516925257,2.292165442104004,-1.0173729101764124,0.2149783819913864
1708440500.7728205,-1.1158595085144043,-1.675873418847555,-2.5267046133624476,2.292255325908325,-1.0173242727862757,0.21492059528827667
1708440500.774818,-1.1158757209777832,-1.6758820019164027,-2.5267000834094446,2.292201204890869,-1.0173242727862757,0.214969664812088
1708440500.776808,-1.1158766746520996,-1.67582430462026,-2.526658360158102,2.2922555643269042,-1.0173772017108362,0.2149534374475479
1708440500.7788045,-1.1158638000488281,-1.6758367023863734,-2.5266838709460657,2.2922250467487792,-1.0173566977130335,0.21494126319885254
1708440500.7808158,-1.1159090995788574,-1.6758200130858363,-2.5266552607165735,2.292184754008911,-1.0173404852496546,0.21494480967521667
1708440500.7827985,-1.1158442497253418,-1.6758538685240687,-2.526646439229147,2.292233868236206,-1.0173328558551233,0.21492822468280792
1708440500.7847855,-1.1158809661865234,-1.6758495769896449,-2.5266507307635706,2.292229576701782,-1.0173166433917444,0.21499817073345184
1708440500.786792,-1.115880012512207,-1.6758080921568812,-2.5267046133624476,2.292226477260254,-1.0173447767840784,0.2149578332901001
1708440500.788796,-1.115896224975586,-1.6758495769896449,-2.5266955534564417,2.2921923834034423,-1.0173447767840784,0.21499381959438324
1708440500.7908058,-1.1158638000488281,-1.675812383691305,-2.526637379323141,2.292221947307251,-1.0173404852496546,0.2149282544851303
1708440500.7928617,-1.115903615951538,-1.6758610210814417,-2.5266626516925257,2.2921876150318603,-1.0173490683185022,0.2149902731180191
1708440500.7947712,-1.115903615951538,-1.6757918796935023,-2.526691261922018,2.292242928142212,-1.0173895994769495,0.21494127810001373
1708440500.7967968,-1.115891933441162,-1.6758367023863734,-2.5266717115985315,2.2922085958668212,-1.0173447767840784,0.214960977435112
1708440500.7988043,-1.1159443855285645,-1.6758438549437464,-2.5266717115985315,2.2922419744678955,-1.0173166433917444,0.21490873396396637
1708440500.8008068,-1.1159367561340332,-1.6758409939207972,-2.526695791875021,2.2922250467487792,-1.0173123518573206,0.2149728685617447
1708440500.8028352,-1.115929365158081,-1.675852438012594,-2.5266223589526575,2.2922510343739013,-1.0173524061786097,0.21493695676326752
1708440500.8048182,-1.1159162521362305,-1.6758820019164027,-2.5266597906695765,2.2922658163258056,-1.0173566977130335,0.21496963500976562
1708440500.8067997,-1.1159563064575195,-1.67588533977651,-2.5266597906695765,2.2922493654438476,-1.0173652807818812,0.21490438282489777
1708440500.8087857,-1.1159281730651855,-1.675823827783102,-2.5266340414630335,2.2922286230274658,-1.0173490683185022,0.21493685245513916
1708440500.8107843,-1.1159400939941406,-1.6758433781065882,-2.5266342798816126,2.2922250467487792,-1.0173524061786097,0.2149404138326645
1708440500.8128078,-1.1159356832504272,-1.6758886776366175,-2.5266295115100306,2.2921995359608154,-1.0173566977130335,0.2149491161108017
1708440500.8148103,-1.1159520149230957,-1.675802846948141,-2.5266507307635706,2.2922732073017578,-1.0173199812518519,0.21499808132648468
1708440500.8168619,-1.1159520149230957,-1.6759091816344203,-2.5266431013690394,2.2922465044208984,-1.0173285643206995,0.2149815857410431
1708440500.8188114,-1.1159855127334595,-1.6758810482420863,-2.5265982786761683,2.2922419744678955,-1.0173652807818812,0.21489576995372772
1708440500.8207936,-1.1159477233886719,-1.6758562527098597,-2.526635710393087,2.2922510343739013,-1.0173361937152308,0.2149403840303421
1708440500.8228145,-1.1160050630569458,-1.6758352718748988,-2.5265775362597864,2.2921995359608154,-1.0173361937152308,0.21499811112880707
1708440500.8247976,-1.1159563064575195,-1.675889631310934,-2.526623789464132,2.2922865587421875,-1.0173729101764124,0.21496646106243134
1708440500.8268178,-1.1159648895263672,-1.6758438549437464,-2.526557509099142,2.2922250467487792,-1.0173895994769495,0.21496963500976562
1708440500.8287904,-1.1159400939941406,-1.6758691273131312,-2.526604477559225,2.2922374445148925,-1.0173853079425257,0.2149282544851303
1708440500.8308191,-1.1159520149230957,-1.6758281193175257,-2.526599947606222,2.2922069269367675,-1.0173566977130335,0.21493686735630035
1708440500.8328311,-1.1159238815307617,-1.67588533977651,-2.526604477559225,2.2922286230274658,-1.0173609892474573,0.2149740606546402
1708440500.8348267,-1.1159162521362305,-1.6758367023863734,-2.5265710989581507,2.2922701078602294,-1.0173772017108362,0.21490438282489777
1708440500.8368056,-1.1159563064575195,-1.6758691273131312,-2.5265710989581507,2.2922584253498535,-1.0173609892474573,0.2149621695280075
1708440500.838777,-1.1159639358520508,-1.6758281193175257,-2.526557747517721,2.2922419744678955,-1.0173361937152308,0.21494479477405548
1708440500.8408039,-1.1159358024597168,-1.675917764703268,-2.5265756289111536,2.29221956312146,-1.0173652807818812,0.21499893069267273
1708440500.842813,-1.1159238815307617,-1.6758605442442835,-2.5265501181231897,2.2922283846088867,-1.0173285643206995,0.2149815857410431
1708440500.8447876,-1.1159324645996094,-1.6758200130858363,-2.526609007512228,2.2922984796711425,-1.0173361937152308,0.21497726440429688
1708440500.8467934,-1.1159358024597168,-1.6758810482420863,-2.5265710989581507,2.292252464885376,-1.0173242727862757,0.21497076749801636
1708440500.848788,-1.115981101989746,-1.6758605442442835,-2.526583258305685,2.2922567564197998,-1.0173361937152308,0.2149902731180191
1708440500.850811,-1.1159563064575195,-1.675823827783102,-2.5265546480761927,2.2922329145618896,-1.0173404852496546,0.2149578183889389
1708440500.8528051,-1.1159075498580933,-1.6758409939207972,-2.5265546480761927,2.292220278377197,-1.0173972288714808,0.2149578183889389
1708440500.8547873,-1.1159443855285645,-1.6758691273131312,-2.5265665690051478,2.2922658163258056,-1.0173609892474573,0.2149088978767395
1708440500.8568134,-1.1159605979919434,-1.6758157215514125,-2.526587788258688,2.2922567564197998,-1.0173242727862757,0.2149578183889389
1708440500.858794,-1.1159768104553223,-1.675812383691305,-2.526545588170187,2.2923120695301513,-1.0173404852496546,0.2149491012096405
1708440500.8608487,-1.1158950328826904,-1.6758114300169886,-2.526587788258688,2.2922448354908447,-1.0173981825457972,0.2149946093559265
1708440500.8628266,-1.1159075498580933,-1.675889631310934,-2.5265501181231897,2.2922510343739013,-1.017369572316305,0.214969664812088
1708440500.8647835,-1.1159281730651855,-1.67588533977651,-2.526557509099142,2.2922538953968505,-1.0173242727862757,0.21494558453559875
1708440500.8668096,-1.1159281730651855,-1.6759253940977992,-2.526611868535177,2.2922448354908447,-1.017303768788473,0.21493254601955414
1708440500.8687963,-1.1159443855285645,-1.675917764703268,-2.5265710989581507,2.2922658163258056,-1.0173371473895472,0.21492934226989746
1708440500.8708389,-1.1159605979919434,-1.6758367023863734,-2.526602808629171,2.2922701078602294,-1.0173242727862757,0.21494989097118378
1708440500.8728287,-1.1159605979919434,-1.675856729547018,-2.526609007512228,2.2922159868427734,-1.0173004309283655,0.21494126319885254
1708440500.874806,-1.1159605979919434,-1.6758810482420863,-2.526578728352682,2.2922286230274658,-1.0173123518573206,0.21490438282489777
1708440500.876813,-1.1159358024597168,-1.6759168110289515,-2.526562039052145,2.2922658163258056,-1.0173371473895472,0.21493686735630035
1708440500.8788195,-1.1159281730651855,-1.6758843861021937,-2.5265591780291956,2.2922422128864746,-1.0173609892474573,0.21494479477405548
1708440500.8808105,-1.1159486770629883,-1.67588533977651,-2.5265710989581507,2.2922374445148925,-1.017303768788473,0.21494480967521667
1708440500.8828073,-1.1159725189208984,-1.6759058437743128,-2.5265710989581507,2.2922419744678955,-1.0173729101764124,0.21495342254638672
1708440500.8848107,-1.1159400939941406,-1.6758438549437464,-2.526595417653219,2.2922159868427734,-1.0173566977130335,0.21494558453559875
1708440500.8868244,-1.1159367561340332,-1.675917764703268,-2.526562039052145,2.2923030096241455,-1.0173729101764124,0.21494992077350616
1708440500.888784,-1.1158864498138428,-1.6758767567076625,-2.5265923182116907,2.2922939497181396,-1.0173481146441858,0.21488811075687408
1708440500.8908067,-1.1159249544143677,-1.6758648357787074,-2.5265665690051478,2.2922510343739013,-1.0173895994769495,0.21491742134094238
1708440500.8928168,-1.1159367561340332,-1.6758767567076625,-2.526562039052145,2.292240543956421,-1.0173524061786097,0.21492935717105865
1708440500.8948054,-1.1159400939941406,-1.6758691273131312,-2.526553217564718,2.2922538953968505,-1.0173772017108362,0.21491312980651855
1708440500.896813,-1.1159693002700806,-1.6758562527098597,-2.526620928441183,2.292240543956421,-1.0173729101764124,0.21490438282489777
1708440500.898793,-1.1158993244171143,-1.6758605442442835,-2.526587788258688,2.2922820287891845,-1.0174391905414026,0.21497519314289093
1708440500.9007924,-1.11589515209198,-1.67588533977651,-2.5265710989581507,2.2922159868427734,-1.0174015204059046,0.21494558453559875
1708440500.9028223,-1.1158874034881592,-1.6758481464781703,-2.5265982786761683,2.2922114568897705,-1.017343823109762,0.2149055004119873
1708440500.9047668,-1.1159367561340332,-1.6758648357787074,-2.526604477559225,2.2922555643269042,-1.017343823109762,0.21494989097118378
1708440500.906767,-1.1159324645996094,-1.6758352718748988,-2.526595417653219,2.2922071653553466,-1.0173490683185022,0.2149217128753662
1708440500.9087977,-1.115891933441162,-1.6758114300169886,-2.526649061833517,2.292229576701782,-1.0173895994769495,0.21489360928535461
1708440500.9107575,-1.1158875226974487,-1.6759234867491664,-2.52665359178652,2.292213125819824,-1.0173810164081019,0.21491745114326477
1708440500.9127874,-1.1159530878067017,-1.675889631310934,-2.526604477559225,2.2922538953968505,-1.0174015204059046,0.21490982174873352
1708440500.9147913,-1.1159168481826782,-1.6758939228453578,-2.526602808629171,2.2922250467487792,-1.0173566977130335,0.21493031084537506
1708440500.916782,-1.115929365158081,-1.675901552239889,-2.526611868535177,2.292220278377197,-1.0173566977130335,0.21486006677150726
1708440500.9187782,-1.1158595085144043,-1.675873418847555,-2.526607338582174,2.2922329145618896,-1.0174101034747522,0.21486873924732208
1708440500.920863,-1.1159250736236572,-1.675889631310934,-2.526569906865255,2.292196674937866,-1.0173524061786097,0.21486221253871918
1708440500.9228287,-1.115880012512207,-1.6758605442442835,-2.526637140904562,2.2922250467487792,-1.0173566977130335,0.21484923362731934
1708440500.9248037,-1.1158757209777832,-1.6758648357787074,-2.526607338582174,2.2922672468372802,-1.0174058119403284,0.21485425531864166
1708440500.9268115,-1.1159210205078125,-1.675851961175436,-2.526623789464132,2.2922159868427734,-1.0173686186419886,0.21487081050872803
1708440500.9287882,-1.115868091583252,-1.6759211025633753,-2.526602808629171,2.2922419744678955,-1.0173895994769495,0.21483807265758514
1708440500.930776,-1.1158843040466309,-1.6759091816344203,-2.526611868535177,2.2922629553028564,-1.0173395315753382,0.21475659310817719
1708440500.932797,-1.1158757209777832,-1.6759005985655726,-2.526607338582174,2.292233868236206,-1.0173853079425257,0.21478474140167236
1708440500.934786,-1.1158843040466309,-1.675847669641012,-2.526553217564718,2.292213125819824,-1.0173972288714808,0.21478469669818878
1708440500.9367833,-1.115891933441162,-1.675847669641012,-2.526628319417135,2.292226477260254,-1.0173853079425257,0.21477393805980682
1708440500.9387918,-1.1159049272537231,-1.6759287319579066,-2.526611868535177,2.292221947307251,-1.0173681418048304,0.21474874019622803
1708440500.940783,-1.115897297859192,-1.675901552239889,-2.526640001927511,2.2922538953968505,-1.0174091498004358,0.2148185819387436
1708440500.9427912,-1.1159048080444336,-1.6759339771666468,-2.526578728352682,2.2922205167957763,-1.0174015204059046,0.21480204164981842
1708440500.944799,-1.1159542798995972,-1.6759005985655726,-2.526590887700216,2.2922510343739013,-1.017376724873678,0.2147977203130722
1708440500.9467764,-1.115896224975586,-1.6759211025633753,-2.5265894571887415,2.292210026378296,-1.017404858266012,0.21483907103538513
1708440500.9487813,-1.115868091583252,-1.6758724651732386,-2.5266686121570032,2.292201204890869,-1.0173724333392542,0.21480128169059753
1708440500.950797,-1.1158604621887207,-1.675945898095602,-2.5266104380237024,2.292229576701782,-1.0174220244037073,0.2147945761680603
1708440500.9528112,-1.115839958190918,-1.6758281193175257,-2.526652161275045,2.2921668726154785,-1.017388645802633,0.21479451656341553
1708440500.954802,-1.1158647537231445,-1.6759091816344203,-2.5266476313220423,2.2922465044208984,-1.0173972288714808,0.21481503546237946
1708440500.956786,-1.1158647537231445,-1.6758767567076625,-2.5266223589526575,2.292184754008911,-1.0173895994769495,0.2147783488035202
1708440500.9587955,-1.115839958190918,-1.6758395634093226,-2.5266552607165735,2.292238398189209,-1.0173810164081019,0.2148185819387436
1708440500.960779,-1.1158154010772705,-1.6758724651732386,-2.5266431013690394,2.292238398189209,-1.017404858266012,0.2147814929485321
1708440500.9628031,-1.1157985925674438,-1.6758886776366175,-2.526715103779928,2.2921268182941894,-1.0174534956561487,0.21481075882911682
1708440500.9647923,-1.115828037261963,-1.675913473168844,-2.526712242756979,2.292184754008911,-1.017404858266012,0.21477387845516205
1708440500.966789,-1.1158442497253418,-1.6758843861021937,-2.526745144520895,2.292233868236206,-1.0173800627337855,0.21475301682949066
1708440500.9688294,-1.1158366203308105,-1.675929685632223,-2.526707712803976,2.292221947307251,-1.0173962751971644,0.21473675966262817
1708440500.9708126,-1.1157866716384888,-1.6758438549437464,-2.5267284552203577,2.2921477991291503,-1.0174201170550745,0.21478581428527832
1708440500.9727948,-1.115807294845581,-1.6758395634093226,-2.526752535496847,2.292210026378296,-1.0174039045916956,0.21477828919887543
1708440500.9747963,-1.1158411502838135,-1.675917764703268,-2.526773754750387,2.292231007213257,-1.0174568335162562,0.21479012072086334
1708440500.9767962,-1.115833044052124,-1.67588533977651,-2.526677672063009,2.292152090663574,-1.0174363295184534,0.2147378921508789
1708440500.9788072,-1.1157910823822021,-1.6758724651732386,-2.5267558733569544,2.292156382197998,-1.0174406210528772,0.21479880809783936
1708440500.980776,-1.1158411502838135,-1.6758605442442835,-2.526731793080465,2.292210026378296,-1.0174687544452112,0.21475304663181305
1708440500.9828005,-1.115854263305664,-1.6758929691710414,-2.5267227331744593,2.292165442104004,-1.0174525419818323,0.214754119515419
1708440500.9847777,-1.1158455610275269,-1.675830980340475,-2.526706043873922,2.2921745020100097,-1.0174439589129847,0.2146802842617035
1708440500.9867783,-1.1158455610275269,-1.6758843861021937,-2.526710573826925,2.2921909528919677,-1.0174482504474085,0.21470189094543457
1708440500.9887848,-1.1158161163330078,-1.6758929691710414,-2.526727263127462,2.292153521175049,-1.0174930731402796,0.21472597122192383
1708440500.9907792,-1.1158242225646973,-1.675851961175436,-2.5267391840564173,2.2921320635029296,-1.0174568335162562,0.21464097499847412
1708440500.9927928,-1.1158411502838135,-1.6759048900999964,-2.5267062822925013,2.29219834386792,-1.0174930731402796,0.2146528959274292
1708440500.9948044,-1.1157704591751099,-1.6758963070311488,-2.526706043873922,2.2922190862843017,-1.0175045172320765,0.2147148847579956
1708440500.9967723,-1.1158287525177002,-1.6758800945677699,-2.5267766157733362,2.2922000127979736,-1.0174601713763636,0.21463774144649506
1708440500.9987795,-1.115799903869629,-1.6758886776366175,-2.5267227331744593,2.2922026354023437,-1.0174558798419397,0.2145930528640747
1708440501.0008442,-1.1158028841018677,-1.6758886776366175,-2.5267303625689905,2.292090340251587,-1.0175088087665003,0.21462905406951904
1708440501.0028,-1.115807294845581,-1.6759253940977992,-2.5267720858203333,2.2921671110340576,-1.0174806753741663,0.21461796760559082
1708440501.0047846,-1.1158747673034668,-1.6759377918639125,-2.526731793080465,2.2920920091816406,-1.0175131003009241,0.214630126953125
1708440501.0067859,-1.1158498525619507,-1.6759211025633753,-2.5267139116870325,2.2921790319630126,-1.017451588307516,0.21457327902317047
1708440501.0087798,-1.1157922744750977,-1.6759125194945277,-2.5267930666552942,2.2921499448963623,-1.0175002256976526,0.21458196640014648
1708440501.010769,-1.1157793998718262,-1.6759253940977992,-2.5267797152148646,2.2921625810810546,-1.0174849669085901,0.21451707184314728
1708440501.0127814,-1.1157349348068237,-1.675863882104391,-2.5267558733569544,2.292154474849365,-1.0174678007708948,0.21456673741340637
1708440501.0148168,-1.1157307624816895,-1.6759168110289515,-2.5267632643329065,2.2920965391346435,-1.0175045172320765,0.21452997624874115
1708440501.0167668,-1.1157965660095215,-1.6759168110289515,-2.5267391840564173,2.292071982020996,-1.0174678007708948,0.2144899070262909
1708440501.0191336,-1.1157879829406738,-1.6759091816344203,-2.5267391840564173,2.292081041927002,-1.0175212065326136,0.21447013318538666
1708440501.0208678,-1.115771770477295,-1.6758562527098597,-2.5267227331744593,2.2920898634144287,-1.0174973646747034,0.21447443962097168
1708440501.0227988,-1.1158127784729004,-1.6758877239623011,-2.5267470518695276,2.2920572000690917,-1.0175169149981897,0.21440598368644714
1708440501.024837,-1.1157965660095215,-1.6758843861021937,-2.5267017523394983,2.2920846182056884,-1.0175002256976526,0.21434937417507172
1708440501.026796,-1.115767478942871,-1.6758800945677699,-2.5267885367022913,2.292048378581665,-1.0175254980670374,0.21431660652160645
1708440501.0288317,-1.1157965660095215,-1.6758843861021937,-2.5267558733569544,2.292034788722656,-1.0174716154681605,0.21435882151126862
1708440501.0307915,-1.1157879829406738,-1.6758972607054652,-2.5267468134509485,2.292071982020996,-1.0175169149981897,0.21430900692939758
1708440501.0328107,-1.1157879829406738,-1.6758800945677699,-2.5267766157733362,2.292123480434082,-1.017491642628805,0.214269757270813
1708440501.0348113,-1.115796685218811,-1.675830980340475,-2.5267017523394983,2.292097969646118,-1.0175288359271448,0.21425427496433258
1708440501.0368211,-1.115771770477295,-1.675941606561178,-2.5267558733569544,2.292081041927002,-1.0175278822528284,0.21428382396697998
1708440501.038779,-1.1157598495483398,-1.675901552239889,-2.5267227331744593,2.292048140163086,-1.0175483862506312,0.21425649523735046
1708440501.0407865,-1.115771770477295,-1.6759211025633753,-2.526727263127462,2.292123480434082,-1.0175440947162073,0.21415011584758759
1708440501.0427964,-1.1158008575439453,-1.6758605442442835,-2.5267632643329065,2.292052670116089,-1.0175769964801233,0.21415875852108002
1708440501.044809,-1.1157641410827637,-1.6758595905699671,-2.5267346541034144,2.292060061092041,-1.0175603071795862,0.2141270637512207
1708440501.046815,-1.115796685218811,-1.675863882104391,-2.526715103779928,2.292064591045044,-1.0175560156451624,0.21410322189331055
1708440501.0487902,-1.1157512664794922,-1.6759244404234828,-2.526764694844381,2.292060061092041,-1.0176094214068812,0.21403910219669342
1708440501.050821,-1.1157803535461426,-1.675920148889059,-2.5267258326159876,2.292048378581665,-1.0175884405719202,0.21399874985218048
1708440501.0528512,-1.1157479286193848,-1.675932069818014,-2.5267391840564173,2.292064591045044,-1.017592732106344,0.21390178799629211
1708440501.0548108,-1.1157641410827637,-1.6759168110289515,-2.5267346541034144,2.2920357423969726,-1.0175727049456995,0.213870108127594
1708440501.0567925,-1.1157641410827637,-1.6759091816344203,-2.5267677942859095,2.292052670116089,-1.0175483862506312,0.2138180285692215
1708440501.0588129,-1.1157760620117188,-1.6759211025633753,-2.5267558733569544,2.292022152537964,-1.0175440947162073,0.2138080894947052
1708440501.0607958,-1.1157890558242798,-1.6759244404234828,-2.5267720858203333,2.292064591045044,-1.0175684134112757,0.21369808912277222
1708440501.0628645,-1.1157846450805664,-1.675932069818014,-2.5267632643329065,2.2920946317860107,-1.0176094214068812,0.21372416615486145
1708440501.0647748,-1.1157641410827637,-1.6759540043272914,-2.52674371400942,2.2920448023029785,-1.0175641218768519,0.21364055573940277
1708440501.0667717,-1.115706205368042,-1.6759244404234828,-2.5267391840564173,2.292069120998047,-1.0175560156451624,0.21355117857456207
1708440501.0688024,-1.115771770477295,-1.6758796177306117,-2.5267468134509485,2.292022152537964,-1.0176366011248987,0.2134542465209961
1708440501.0707817,-1.1157522201538086,-1.675894399682516,-2.5267885367022913,2.2920402723499755,-1.0176203886615198,0.21339109539985657
1708440501.0728045,-1.115743637084961,-1.6759573421873988,-2.5267258326159876,2.2920357423969726,-1.0176494757281702,0.21331515908241272
1708440501.0747857,-1.115755558013916,-1.675932069818014,-2.5267468134509485,2.2921034532734375,-1.017616097127096,0.21323439478874207
1708440501.0768268,-1.1157147884368896,-1.6759454212584437,-2.5267677942859095,2.2920960622974853,-1.0176084677325647,0.21319624781608582
1708440501.0787883,-1.115771770477295,-1.675911088983053,-2.5267885367022913,2.2920400339313964,-1.0176366011248987,0.21310794353485107
1708440501.080791,-1.1157772541046143,-1.675960203210348,-2.5267587343799036,2.2920402723499755,-1.0176203886615198,0.21301670372486115
1708440501.082788,-1.1157684326171875,-1.675993104974264,-2.5267871061908167,2.292052670116089,-1.0176203886615198,0.21291649341583252
1708440501.0848348,-1.115753412246704,-1.6760097942748011,-2.5267587343799036,2.2920662599750976,-1.0176075140582483,0.2127954661846161
1708440501.086868,-1.115732192993164,-1.6760250530638636,-2.5268123785602015,2.29211608945813,-1.0175793806659144,0.21274428069591522
1708440501.088795,-1.1156585216522217,-1.6760250530638636,-2.5267468134509485,2.2920493322559814,-1.0176084677325647,0.21263252198696136
1708440501.0907886,-1.115769624710083,-1.6759993038573207,-2.5267677942859095,2.2920572000690917,-1.0176246801959437,0.21251258254051208
1708440501.0928023,-1.115732192993164,-1.6760293445982875,-2.5267751852618616,2.2920572000690917,-1.0176127592669886,0.21237635612487793
1708440501.0947843,-1.1157407760620117,-1.6759945354857386,-2.526737991963522,2.2920536237904052,-1.017604176198141,0.2122645229101181
1708440501.0968027,-1.1156878471374512,-1.6760531864561976,-2.5267391840564173,2.2920121389576416,-1.0176118055926722,0.21216072142124176
1708440501.0990288,-1.115732192993164,-1.676005025903219,-2.5268214384662073,2.2920753198811035,-1.0176203886615198,0.21202899515628815
1708440501.100843,-1.1157491207122803,-1.6760312519469203,-2.5267677942859095,2.2920572000690917,-1.0176528135882776,0.2119010090827942
1708440501.1028316,-1.11570405960083,-1.6760932407774867,-2.5268214384662073,2.2920572000690917,-1.017628018056051,0.21177338063716888
1708440501.104794,-1.1157071590423584,-1.6759988270201625,-2.5267301241504114,2.2920736509510498,-1.017684284840719,0.21163435280323029
1708440501.1067953,-1.115769624710083,-1.676084657708639,-2.5267677942859095,2.292061968440674,-1.017656151448385,0.21155892312526703
1708440501.1087787,-1.1157448291778564,-1.6761042080321253,-2.5267885367022913,2.2920736509510498,-1.0176799933062952,0.21136616170406342
1708440501.1108043,-1.1157190799713135,-1.6760674915709437,-2.5267677942859095,2.292071982020996,-1.0176475683795374,0.21117019653320312
1708440501.1128209,-1.115769624710083,-1.676091810266012,-2.5268004576312464,2.292060061092041,-1.0176919142352503,0.21106769144535065
1708440501.1147892,-1.1157279014587402,-1.6761366329588832,-2.526737991963522,2.2920572000690917,-1.0176680723773401,0.21084663271903992
1708440501.1168187,-1.1157360076904297,-1.6759897671141566,-2.5267587343799036,2.292043610210083,-1.0176885763751429,0.21068347990512848
1708440501.1187892,-1.1157610416412354,-1.6761084995665492,-2.5267391840564173,2.2920662599750976,-1.017700497304098,0.21047864854335785
1708440501.1208618,-1.1157279014587402,-1.676096101800436,-2.5268169085132044,2.2920736509510498,-1.017672363911764,0.2103361189365387
1708440501.122795,-1.1157234907150269,-1.6761075458922328,-2.5267303625689905,2.2920238214680175,-1.017700497304098,0.21013163030147552
1708440501.1247835,-1.1157360076904297,-1.6761251888670863,-2.5267871061908167,2.2920617300220947,-1.0176757017718714,0.20994850993156433
1708440501.1268225,-1.1157402992248535,-1.676157136956686,-2.5267425219165247,2.2920898634144287,-1.0176432768451136,0.20974837243556976
1708440501.1287963,-1.1157071590423584,-1.6761204204955042,-2.5268214384662073,2.2920662599750976,-1.0176432768451136,0.20955656468868256
1708440501.1307995,-1.1157116889953613,-1.6762072048582972,-2.5267766157733362,2.2920617300220947,-1.0176928679095667,0.20933783054351807
1708440501.1328208,-1.115679144859314,-1.6761323414244593,-2.5267632643329065,2.2920328813740234,-1.017717186604635,0.20911769568920135
1708440501.1348207,-1.115745186805725,-1.6760956249632777,-2.5267425219165247,2.2920238214680175,-1.0176475683795374,0.20890198647975922
1708440501.1368432,-1.1157159805297852,-1.6760269604124964,-2.526737991963522,2.2919747072407226,-1.0176637808429163,0.20868690311908722
1708440501.1387997,-1.1156997680664062,-1.67612948040151,-2.5267916361438196,2.2919837671467285,-1.0176518599139612,0.20841890573501587
1708440501.1407847,-1.115708351135254,-1.6760632000365199,-2.5267632643329065,2.29204170286145,-1.0177214781390589,0.20819145441055298
1708440501.1428175,-1.1157170534133911,-1.6760999164977015,-2.5267632643329065,2.292013569469116,-1.0177214781390589,0.20789089798927307
1708440501.1447997,-1.115692138671875,-1.6760803661742152,-2.5267871061908167,2.2919806677052,-1.0176551977740687,0.20766454935073853
1708440501.14682,-1.1157288551330566,-1.6760546169676722,-2.5268123785602015,2.2919608789631347,-1.0176356474505823,0.20738010108470917
1708440501.14879,-1.1157139539718628,-1.6761442623534144,-2.5267751852618616,2.291977806682251,-1.0176270643817347,0.20713843405246735
1708440501.1508467,-1.1157127618789673,-1.6761204204955042,-2.5267961660968226,2.291989727611206,-1.0176885763751429,0.20681333541870117
1708440501.1528141,-1.1156682968139648,-1.6760717831053675,-2.5267916361438196,2.291928215617798,-1.017700497304098,0.2065138816833496
1708440501.1547878,-1.1156352758407593,-1.6761323414244593,-2.5267587343799036,2.291951819057129,-1.0176799933062952,0.20619666576385498
1708440501.156786,-1.115647792816162,-1.67612948040151,-2.5267916361438196,2.29191176473584,-1.017672363911764,0.2059268057346344
1708440501.158811,-1.1156394481658936,-1.6761609516539515,-2.526815954838888,2.2919131952473144,-1.017684284840719,0.20554113388061523
1708440501.1608012,-1.1156901121139526,-1.6761042080321253,-2.5267751852618616,2.2919787603565673,-1.0176766554461878,0.2052922248840332
1708440501.1628416,-1.1156244277954102,-1.6761533222594203,-2.5267587343799036,2.2919489580341796,-1.0176194349872034,0.20490364730358124
1708440501.164793,-1.1155833005905151,-1.6760956249632777,-2.5267542044269007,2.2919415670582275,-1.0176671187030237,0.20456811785697937
1708440501.1668837,-1.1156320571899414,-1.6761323414244593,-2.5268078486071985,2.2918967443653564,-1.0176313559161585,0.2042708843946457
1708440501.1688166,-1.1156407594680786,-1.6760593853392542,-2.5267871061908167,2.29185072957959,-1.0176714102374476,0.20390155911445618
1708440501.1707988,-1.115584373474121,-1.6761399708189906,-2.526815954838888,2.291922016734741,-1.017700497304098,0.20357172191143036
1708440501.1727912,-1.115616798400879,-1.6761476002135218,-2.526806894932882,2.291893883342407,-1.0176876227008265,0.2031552940607071
1708440501.1747906,-1.1155519485473633,-1.6761886082091273,-2.5268035570727747,2.2918893533894042,-1.0176962057696741,0.2028237283229828
1708440501.1768456,-1.1155767440795898,-1.6761108837523402,-2.5267797152148646,2.2918893533894042,-1.0177086035357874,0.20245260000228882
1708440501.1788263,-1.1155273914337158,-1.6761685810484828,-2.5267677942859095,2.291853113765381,-1.0176919142352503,0.20209437608718872
1708440501.1808512,-1.1155767440795898,-1.676143308679098,-2.5267797152148646,2.291820212001465,-1.0177043120013636,0.2017177790403366
1708440501.1829104,-1.1155736446380615,-1.6762014828123988,-2.5267587343799036,2.2918247419544677,-1.0176757017718714,0.20127779245376587
1708440501.1848626,-1.1155362129211426,-1.6761757336058558,-2.5267961660968226,2.2918173509785156,-1.0177281538592737,0.20083844661712646
1708440501.1868389,-1.1155210733413696,-1.6761671505370082,-2.5267587343799036,2.2918709951588134,-1.0177043120013636,0.2005201131105423
1708440501.1888225,-1.1155405044555664,-1.676197191277975,-2.5267558733569544,2.291764660472534,-1.0177443663226526,0.200153186917305
1708440501.190793,-1.1154885292053223,-1.676188131371969,-2.526766363774435,2.291743679637573,-1.017735783253805,0.19964823126792908
1708440501.192896,-1.1154842376708984,-1.6762086353697718,-2.5267871061908167,2.2917110162922363,-1.0177281538592737,0.1992424726486206
1708440501.1948211,-1.1154929399490356,-1.6762134037413539,-2.5267885367022913,2.291745348567627,-1.0177648703204554,0.19884377717971802
1708440501.196802,-1.1154941320419312,-1.6762029133238734,-2.5267961660968226,2.2917796808430175,-1.0177887121783655,0.1984318047761917
1708440501.1987839,-1.1154122352600098,-1.676188131371969,-2.5267751852618616,2.291684313411377,-1.017763916646139,0.1980176568031311
1708440501.2008517,-1.1153796911239624,-1.676216264764303,-2.5268035570727747,2.2916390138813476,-1.0177391211139124,0.19762618839740753
1708440501.2027907,-1.1154208183288574,-1.6762358150877894,-2.5267632643329065,2.291677876109741,-1.0177724997149866,0.19711938500404358
1708440501.2047992,-1.1153433322906494,-1.676237245599264,-2.5267675558673304,2.2916287618824462,-1.0177596251117151,0.19667915999889374
1708440501.2067742,-1.115368366241455,-1.6762525043883265,-2.5267706553088587,2.291600390071533,-1.0177229086505335,0.19617144763469696
1708440501.2087686,-1.1153371334075928,-1.6762267551817835,-2.526832405720846,2.2915593820759277,-1.017763916646139,0.1957527995109558
1708440501.2107875,-1.1152920722961426,-1.6762148342528285,-2.526766363774435,2.2915982443043212,-1.0177510420428675,0.19528257846832275
1708440501.2127924,-1.1153051853179932,-1.6762639484801234,-2.5267632643329065,2.2915491300770263,-1.0177434126483362,0.19481971859931946
1708440501.2147908,-1.1152794361114502,-1.6762448749937953,-2.5267706553088587,2.2916242319294433,-1.0177562872516077,0.1943049132823944
1708440501.2168005,-1.115231990814209,-1.6762925587096156,-2.526778046284811,2.29151360570874,-1.0177152792560022,0.19378891587257385
1708440501.2187996,-1.1151835918426514,-1.6762834988036097,-2.526737991963522,2.29152695714917,-1.017719570790426,0.19331099092960358
1708440501.2208266,-1.1151750087738037,-1.676267763177389,-2.5267871061908167,2.2914652067371826,-1.0177443663226526,0.19283683598041534
1708440501.2228346,-1.115139365196228,-1.676267763177389,-2.526815954838888,2.2914578157612304,-1.0177562872516077,0.19228409230709076
1708440501.2248492,-1.1151113510131836,-1.676303049127096,-2.5268576780902308,2.291422052974365,-1.01772386232485,0.1917693018913269
1708440501.2268624,-1.1150916814804077,-1.676345010797018,-2.526794497166769,2.291379614467285,-1.0177434126483362,0.19126439094543457
1708440501.2288206,-1.1150585412979126,-1.6763807735838832,-2.526806894932882,2.2913738924213867,-1.0177519957171839,0.1907123327255249
1708440501.2307994,-1.1150715351104736,-1.67637362102651,-2.526811424885885,2.2913574415394287,-1.01774770418276,0.1901702582836151
1708440501.232796,-1.1150846481323242,-1.6763597927489222,-2.526757303868429,2.2913738924213867,-1.0177314917193812,0.189639151096344
1708440501.2348137,-1.1150283813476562,-1.676389833489889,-2.526839796696798,2.291292591685913,-1.0177400747882288,0.18912777304649353
1708440501.2369204,-1.1149876117706299,-1.6763841114439906,-2.526832405720846,2.2913102346607666,-1.0177434126483362,0.18857793509960175
1708440501.2387862,-1.1150295734405518,-1.6764689884581507,-2.526872698460714,2.2912656503864746,-1.017735783253805,0.18801958858966827
1708440501.2407956,-1.1149433851242065,-1.6763988933958949,-2.526806894932882,2.2912821012684326,-1.017763916646139,0.18741202354431152
1708440501.242781,-1.1149736642837524,-1.676415582696432,-2.526856247578756,2.2911428648182373,-1.0177519957171839,0.18683697283267975
1708440501.244786,-1.114961862564087,-1.6764770946898402,-2.526856009160177,2.291165276164673,-1.017719570790426,0.1862698793411255
1708440501.2467785,-1.1149169206619263,-1.6764842472472132,-2.5268471876727503,2.2911743360706787,-1.0177801291095179,0.18568289279937744
1708440501.2487788,-1.1148972511291504,-1.6764546833434046,-2.5268145243274134,2.2911290365406494,-1.017735783253805,0.18505896627902985
1708440501.250841,-1.1148366928100586,-1.6765443287291468,-2.526839796696798,2.2911500173756103,-1.01780873933901,0.18449658155441284
1708440501.2527823,-1.114819049835205,-1.676535268823141,-2.526848856602804,2.291073961848877,-1.0177391211139124,0.18385206162929535
1708440501.25481,-1.1147640943527222,-1.6765514812865199,-2.5268591086017054,2.2910496431538085,-1.0177925268756312,0.18327483534812927
1708440501.256793,-1.1146986484527588,-1.6765638790526332,-2.526835266743795,2.2910377222248535,-1.0177839438067835,0.18265925347805023
1708440501.258782,-1.114720344543457,-1.676587244073385,-2.52688438097109,2.2909812170216064,-1.0177925268756312,0.18207219243049622
1708440501.2608056,-1.114664077758789,-1.6766087017455042,-2.5268831888781946,2.290965719813965,-1.0177553335772913,0.18145419657230377
1708440501.2628372,-1.1146275997161865,-1.6766473255553187,-2.5269370714770716,2.2909418779560546,-1.017796818410055,0.18084336817264557
1708440501.2648232,-1.114587664604187,-1.6766311130919398,-2.526911799107687,2.2908763128468017,-1.017824951802389,0.18021629750728607
1708440501.2667763,-1.1146018505096436,-1.6766430340208949,-2.5269325415240687,2.29090325414624,-1.0177715460406702,0.17960591614246368
1708440501.268802,-1.1145286560058594,-1.6767031155028285,-2.526902739201681,2.2908057409473876,-1.0177672545062464,0.17893777787685394
1708440501.2707965,-1.1144218444824219,-1.676727911035055,-2.5269206205951136,2.2907723623463134,-1.0177229086505335,0.17829111218452454
1708440501.2728539,-1.114477276802063,-1.676683088342184,-2.526935640965597,2.29069368421521,-1.017763916646139,0.1776898354291916
1708440501.2748382,-1.1143596172332764,-1.6766773662962855,-2.526902739201681,2.2906810480305175,-1.0177882353412073,0.17698906362056732
1708440501.2768338,-1.1143195629119873,-1.676746507684225,-2.5268996397601526,2.290609760875366,-1.0177925268756312,0.17626121640205383
1708440501.2788067,-1.1143414974212646,-1.6767970524229945,-2.5269280115710657,2.2905472952076416,-1.017775837575094,0.17560361325740814
1708440501.280808,-1.1143214702606201,-1.6767789326109828,-2.5269325415240687,2.290529652232788,-1.017775837575094,0.17495332658290863
1708440501.2828083,-1.1142038106918335,-1.6767941914000453,-2.526935640965597,2.2904888826557617,-1.0177882353412073,0.17431122064590454
1708440501.2848363,-1.1141875982284546,-1.6768509350218714,-2.526886288319723,2.2904323774525146,-1.0178292433368128,0.17361980676651
1708440501.2868378,-1.114180564880371,-1.6768890819945277,-2.52688175836672,2.2904249864765625,-1.0177510420428675,0.1729140430688858
1708440501.288853,-1.1141448020935059,-1.6768914661803187,-2.526935640965597,2.2903782564350585,-1.01780873933901,0.17221079766750336
1708440501.2907898,-1.1140878200531006,-1.676931997338766,-2.527001682912008,2.2903455930897216,-1.0178120771991175,0.17152352631092072
1708440501.2927752,-1.1140284538269043,-1.6768948040404261,-2.526919190083639,2.2902883726307373,-1.017824951802389,0.1708211898803711
1708440501.2947984,-1.113999605178833,-1.6769381962218226,-2.526910130177633,2.290310783977173,-1.0177882353412073,0.170098677277565
1708440501.2967873,-1.1139845848083496,-1.6769124470152796,-2.526907269154684,2.2902118402668457,-1.017787281666891,0.16938437521457672
1708440501.2987993,-1.1138875484466553,-1.6770159206786097,-2.526923720036642,2.290247603053711,-1.017824951802389,0.16870981454849243
1708440501.3008301,-1.1138681173324585,-1.676985879937643,-2.526919190083639,2.290111466045044,-1.0178239981280726,0.1680304855108261
1708440501.3027935,-1.1138410568237305,-1.6770221195616664,-2.526931111012594,2.290163679713867,-1.0178001562701624,0.16732724010944366
1708440501.304795,-1.1137465238571167,-1.6770593128600062,-2.5269280115710657,2.290062351817749,-1.017853085194723,0.1667306274175644
1708440501.3067842,-1.1137847900390625,-1.6770459614195765,-2.526947561894552,2.2899860578724365,-1.017771069203512,0.1660880297422409
1708440501.308804,-1.113757848739624,-1.6771398983397425,-2.5268893877612513,2.289928598994873,-1.0178454558001917,0.16541197896003723
1708440501.3108149,-1.1136846542358398,-1.6770698032774867,-2.526914660130636,2.289914055461548,-1.0178163687335413,0.1648057997226715
1708440501.3127818,-1.1136364936828613,-1.6771217785277308,-2.526919190083639,2.2898611265369873,-1.0178402105914515,0.16415072977542877
1708440501.314824,-1.1135143041610718,-1.6772166691222132,-2.5269013086902063,2.289785786265991,-1.0178239981280726,0.16350887715816498
1708440501.3167758,-1.1135081052780151,-1.6771899662413539,-2.526935640965597,2.289741201991699,-1.0178564230548304,0.16285395622253418
1708440501.3187845,-1.113497257232666,-1.6771923504271449,-2.5269280115710657,2.289705439204834,-1.017738167439596,0.16219161450862885
1708440501.3208055,-1.113407850265503,-1.6772552929320277,-2.526935640965597,2.289637966746948,-1.0178206602679651,0.16159670054912567
1708440501.3228292,-1.1133809089660645,-1.6772872410216273,-2.526914660130636,2.2895731168934326,-1.0178197065936487,0.16092930734157562
1708440501.3248558,-1.1132832765579224,-1.6773225269713343,-2.526893917714254,2.2895747858234863,-1.0178120771991175,0.16029062867164612
1708440501.3268332,-1.1132500171661377,-1.6773134670653285,-2.526893917714254,2.289505644435547,-1.017787281666891,0.1596524566411972
1708440501.3288307,-1.113264560699463,-1.6773587665953578,-2.5269401709186,2.2894581991383056,-1.0178163687335413,0.15897713601589203
1708440501.3307984,-1.113184928894043,-1.677316804925436,-2.5269222895251673,2.289398117656372,-1.017876927052633,0.15833927690982819
1708440501.33281,-1.113156795501709,-1.677389761010641,-2.526919190083639,2.2893213468739013,-1.017799202595846,0.15770460665225983
1708440501.3348787,-1.1130759716033936,-1.6773964367308558,-2.526911799107687,2.289302034968994,-1.0178359190570276,0.15699279308319092
1708440501.3368442,-1.1130696535110474,-1.6774827442564906,-2.526911799107687,2.2892419534870605,-1.017839256917135,0.15635788440704346
1708440501.3388534,-1.1129519939422607,-1.6775323353209437,-2.526935640965597,2.2891945081898193,-1.0178716818438929,0.1557001918554306
1708440501.3407817,-1.1129531860351562,-1.6774317226805628,-2.526944700871603,2.2890969949909667,-1.0178759733783167,0.15506993234157562
1708440501.3428037,-1.1129016876220703,-1.6775132618346156,-2.526869837437765,2.2890986639210205,-1.0178793112384241,0.15439051389694214
1708440501.344784,-1.1128323078155518,-1.677544733087057,-2.526923720036642,2.2890288072773437,-1.0179160276996058,0.15377292037010193
1708440501.3467948,-1.1127772331237793,-1.6775623760619105,-2.526919190083639,2.28901116430249,-1.0179045836078089,0.15311743319034576
1708440501.3487873,-1.1127159595489502,-1.677621980706686,-2.526907269154684,2.2889584737965087,-1.017883602772848,0.15247048437595367
1708440501.3508317,-1.1126683950424194,-1.6776014767088832,-2.526907269154684,2.288841648692749,-1.0178630987750452,0.15180304646492004
1708440501.352792,-1.112646222114563,-1.6776343784727992,-2.526890579854147,2.2888552385517578,-1.0178793112384241,0.15122973918914795
1708440501.354796,-1.1125643253326416,-1.6776820621886195,-2.526907269154684,2.288778706187866,-1.0179370085345667,0.15056149661540985
1708440501.3567944,-1.1125297546386719,-1.6776567898192347,-2.526914660130636,2.288698359126709,-1.0179045836078089,0.14997689425945282
1708440501.3587801,-1.1124359369277954,-1.6777297459044398,-2.526902739201681,2.2886544901081542,-1.0178759733783167,0.14926780760288239
1708440501.360794,-1.1123895645141602,-1.6777378521361292,-2.526902739201681,2.2885452943989257,-1.0179370085345667,0.14863279461860657
1708440501.3628275,-1.1123526096343994,-1.6777149639525355,-2.526923720036642,2.288485212916992,-1.017867390309469,0.14803093671798706
1708440501.3648689,-1.1122514009475708,-1.6777836285033167,-2.5269280115710657,2.28845398008313,-1.0178716818438929,0.14742852747440338
1708440501.366814,-1.1122244596481323,-1.677845140496725,-2.526935640965597,2.288402720088623,-1.017900292073385,0.14675703644752502
1708440501.3688264,-1.1121524572372437,-1.6778737507262171,-2.526952091847555,2.288334532375,-1.0178630987750452,0.14614646136760712
1708440501.3708115,-1.1121448278427124,-1.6778809032835902,-2.5269597212420862,2.2882751661488037,-1.0179045836078089,0.14551562070846558
1708440501.3728075,-1.1120685338974,-1.6779214344420375,-2.526919190083639,2.2882134157368164,-1.0179088751422327,0.14490185678005219
1708440501.3747928,-1.1120446920394897,-1.6779452762999476,-2.526931111012594,2.2881883817860107,-1.0178878943072718,0.1442549228668213
1708440501.376801,-1.1119694709777832,-1.677988668481344,-2.5269058386432093,2.2880746561237792,-1.0179045836078089,0.1436787247657776
1708440501.3788114,-1.1118831634521484,-1.6780129871764125,-2.526914660130636,2.2880801397510986,-1.0179045836078089,0.1430596262216568
1708440501.3808346,-1.1118930578231812,-1.6780129871764125,-2.526947561894552,2.2879697519489746,-1.0178878943072718,0.14244547486305237
1708440501.382835,-1.1118204593658447,-1.67804016689443,-2.526935640965597,2.287909670467041,-1.0178425947772425,0.14189718663692474
1708440501.3848157,-1.1117935180664062,-1.678089281121725,-2.526902739201681,2.2878450590321044,-1.017900292073385,0.1412576586008072
1708440501.386822,-1.1117172241210938,-1.6780997715392054,-2.526919190083639,2.287876530284546,-1.017928425465719,0.1406482607126236
1708440501.3887846,-1.111645221710205,-1.6781732044615687,-2.526926581059591,2.287755175227783,-1.017907444630758,0.14000050723552704
1708440501.3908246,-1.1115436553955078,-1.6781684360899867,-2.526914660130636,2.287735863322876,-1.0178917090045374,0.13946744799613953
1708440501.3928237,-1.1115124225616455,-1.6782399616637171,-2.526919190083639,2.2876667219349365,-1.0178988615619105,0.13891373574733734
1708440501.3947868,-1.111485481262207,-1.678267618218893,-2.526914660130636,2.287656469936035,-1.0179198423968714,0.13831479847431183
1708440501.3968186,-1.1114165782928467,-1.678274770776266,-2.5269401709186,2.2875587183186035,-1.017907444630758,0.13780149817466736
1708440501.3988354,-1.1113932132720947,-1.678361555139059,-2.526919190083639,2.2875029283710937,-1.0179198423968714,0.13722415268421173
1708440501.40081,-1.1113245487213135,-1.6783606014647425,-2.526893917714254,2.2874836164661865,-1.0178988615619105,0.1366945505142212
1708440501.4028268,-1.1112806797027588,-1.678420206109518,-2.526919190083639,2.2873996931263427,-1.0179155508624476,0.13613145053386688
1708440501.4047797,-1.1112418174743652,-1.6784726581969203,-2.526893917714254,2.287339611644409,-1.0178945700274866,0.1356058567762375
1708440501.4068024,-1.1111687421798706,-1.6784559688963832,-2.526919190083639,2.287278576488159,-1.017928425465719,0.13506685197353363
1708440501.4087815,-1.111108422279358,-1.6785174808897914,-2.526860777531759,2.2872227865406494,-1.0179436842547815,0.13454799354076385
1708440501.4107761,-1.1110577583312988,-1.6785608730711878,-2.526890579854147,2.28717224180188,-1.0179522673236292,0.13404694199562073
1708440501.4128087,-1.1109845638275146,-1.6786133251585902,-2.526935640965597,2.2871197897144775,-1.0179675261126917,0.13353575766086578
1708440501.4148088,-1.1109750270843506,-1.6786042652525843,-2.5269058386432093,2.287054939860962,-1.0179598967181605,0.13305146992206573
1708440501.4168148,-1.110909342765808,-1.6786190472044886,-2.526898447667257,2.2869955736347656,-1.017947022114889,0.13251645863056183
1708440501.4187922,-1.1108115911483765,-1.6786800823607386,-2.526938501988546,2.286984606380127,-1.0179718176471155,0.13207997381687164
1708440501.4207907,-1.1107642650604248,-1.678716321984762,-2.526890579854147,2.286895914668701,-1.0179927984820765,0.13149553537368774
1708440501.4228437,-1.1107335090637207,-1.6787854633727015,-2.526890579854147,2.286815329188965,-1.0179842154132288,0.1310538500547409
1708440501.4248068,-1.1106609106063843,-1.6787764034666957,-2.526926581059591,2.286768599147461,-1.0179999510394495,0.1305917203426361
1708440501.4268126,-1.1106319427490234,-1.6787659130492152,-2.5269280115710657,2.2866784769245605,-1.0179393927203577,0.1300763487815857
1708440501.4288,-1.1105611324310303,-1.6788646183409632,-2.5269280115710657,2.286701126689575,-1.0180042425738733,0.1296585351228714
1708440501.4308023,-1.110569953918457,-1.6788183651366175,-2.526907269154684,2.2866081434437255,-1.0179927984820765,0.12912517786026
1708440501.4328487,-1.1104772090911865,-1.6789289913573207,-2.526968542729513,2.2865604597279052,-1.017958943043844,0.12864631414413452
1708440501.4348176,-1.1104090213775635,-1.6789409122862757,-2.526911799107687,2.2864722448536376,-1.0179956595050257,0.1281995177268982
1708440501.4368324,-1.1103689670562744,-1.6789142094054164,-2.526919190083639,2.286431236858032,-1.0179713408099573,0.12772688269615173
1708440501.4388258,-1.1103333234786987,-1.6789304218687953,-2.5269401709186,2.286371870631836,-1.017979923878805,0.12726740539073944
1708440501.440801,-1.1102319955825806,-1.6789618931212367,-2.526931111012594,2.286311550731323,-1.0180123488055628,0.12684261798858643
1708440501.4428074,-1.1102255582809448,-1.6789547405638636,-2.526914660130636,2.2862893778034667,-1.0179956595050257,0.12637022137641907
1708440501.4448094,-1.1102086305618286,-1.6790234051146449,-2.5269160906421106,2.2862486082264404,-1.0179632345782679,0.12597255408763885
1708440501.446782,-1.1101254224777222,-1.6790100536742152,-2.526911799107687,2.286229296321533,-1.0179675261126917,0.12560269236564636
1708440501.4488087,-1.1100578308105469,-1.6790458164610804,-2.526911799107687,2.28610007345166,-1.0179999510394495,0.12512347102165222
1708440501.4508076,-1.1100752353668213,-1.6790911159911097,-2.526902739201681,2.286088152522705,-1.0180085341082972,0.12465158104896545
1708440501.4528196,-1.110002040863037,-1.6790648899474085,-2.526947561894552,2.2859574991413574,-1.0179513136493128,0.1242784783244133
1708440501.4548671,-1.1099212169647217,-1.6791473827757777,-2.526898209248678,2.285926266307495,-1.0179556051837366,0.1238269954919815
1708440501.4568007,-1.1098730564117432,-1.6791464291014613,-2.526919190083639,2.2858750063129882,-1.017979923878805,0.1234942227602005
1708440501.4587843,-1.1098260879516602,-1.6791488132872523,-2.526938501988546,2.285864754314087,-1.0179718176471155,0.12301807850599289
1708440501.4607809,-1.109818458557129,-1.6792360744872035,-2.526952091847555,2.2857882219501953,-1.0179632345782679,0.12261436134576797
1708440501.462823,-1.1097421646118164,-1.6792298756041468,-2.526911799107687,2.285747929210327,-1.0180085341082972,0.12225251644849777
1708440501.4648354,-1.1096738576889038,-1.679291387597555,-2.526947561894552,2.2857014375874023,-1.0179675261126917,0.12190643697977066
1708440501.4668007,-1.1096094846725464,-1.679248949090475,-2.5269177595721644,2.285611315364502,-1.0179274717914026,0.12147533148527145
1708440501.4687996,-1.1095448732376099,-1.6792780361571253,-2.52696401277651,2.2856055933186035,-1.0179427305804651,0.12107610702514648
1708440501.4707782,-1.1094346046447754,-1.6793390713133753,-2.5269597212420862,2.2854947286793212,-1.0179885069476526,0.12071840465068817
1708440501.472835,-1.1094578504562378,-1.6793419323363246,-2.5269401709186,2.2854768472858886,-1.0179675261126917,0.12031054496765137
1708440501.474831,-1.1093320846557617,-1.679403921166891,-2.526919190083639,2.285424156779907,-1.0179842154132288,0.12001778185367584
1708440501.4768202,-1.1093463897705078,-1.6794468365111292,-2.526952091847555,2.285421295756958,-1.017918888722555,0.11962969601154327
1708440501.4788175,-1.109249472618103,-1.6794258556761683,-2.526947561894552,2.285341425532959,-1.0179427305804651,0.11929912120103836
1708440501.480807,-1.10923433303833,-1.6794482670226039,-2.5269013086902063,2.285324974651001,-1.0179427305804651,0.11893125623464584
1708440501.482843,-1.1091991662979126,-1.6795264683165492,-2.526947561894552,2.2852439123341064,-1.017947022114889,0.11859307438135147
1708440501.4847934,-1.109121561050415,-1.6795875034727992,-2.526926581059591,2.2851919370838623,-1.0179718176471155,0.11828328669071198
1708440501.4868665,-1.1090127229690552,-1.6796194515623988,-2.5268893877612513,2.285093231792114,-1.0179675261126917,0.11791983246803284
1708440501.4888213,-1.1089489459991455,-1.6796237430968226,-2.5269058386432093,2.285005970592163,-1.0180042425738733,0.11761310696601868
1708440501.490811,-1.1088768243789673,-1.6796461544432582,-2.526914660130636,2.28498022138562,-1.0179913679706019,0.11723387241363525
1708440501.4927928,-1.1088616847991943,-1.6796490154662074,-2.5269551912890833,2.284920855159424,-1.017979923878805,0.11692281067371368
1708440501.494764,-1.108728051185608,-1.6796428165831507,-2.526902739201681,2.284856005305908,-1.017958943043844,0.11656726151704788
1708440501.4967918,-1.1087040901184082,-1.679741998712057,-2.526923720036642,2.284832401866577,-1.017987076436178,0.11635391414165497
1708440501.4987793,-1.1086527109146118,-1.6798020801939906,-2.52690560022463,2.2847439485737304,-1.0179956595050257,0.11598558723926544
1708440501.5007863,-1.1085976362228394,-1.6797763309874476,-2.526931111012594,2.2847606378742675,-1.0179956595050257,0.11576021462678909
1708440501.502811,-1.1085094213485718,-1.6798621616759242,-2.5269597212420862,2.2846287924000244,-1.0179713408099573,0.11542748659849167
1708440501.5047824,-1.1084697246551514,-1.6799427471556605,-2.5269222895251673,2.2845470148273925,-1.0179994742022913,0.11512500047683716
1708440501.506847,-1.1083319187164307,-1.6799527607359828,-2.526931111012594,2.2845215040394287,-1.0180123488055628,0.11480969935655594
1708440501.5088062,-1.1082645654678345,-1.6800176105894984,-2.526975933705465,2.284403010005615,-1.0180156866656702,0.11452732980251312
1708440501.5108125,-1.1081405878067017,-1.6800323925414027,-2.5270045439349573,2.2843238550373535,-1.0179713408099573,0.11419110745191574
1708440501.512781,-1.1080976724624634,-1.680112978021139,-2.5269671122180384,2.284313603038452,-1.018019978200094,0.11390499770641327
1708440501.5147884,-1.108017086982727,-1.6801415882506312,-2.5270031134234827,2.2842086988636474,-1.0179956595050257,0.11360064893960953
1708440501.516812,-1.1078686714172363,-1.6802011928954066,-2.5269866625415247,2.2841693597980957,-1.0180276075946253,0.11336028575897217
1708440501.5187774,-1.1077892780303955,-1.680244585076803,-2.5270357767688196,2.2840980726429443,-1.0180404821978968,0.11305249482393265
1708440501.5207908,-1.107661485671997,-1.6802956066527308,-2.527026955281393,2.2839924532124023,-1.0180524031268519,0.11277323216199875
1708440501.5228744,-1.107556939125061,-1.680336137811178,-2.527072016392843,2.2838594156452636,-1.0180557409869593,0.11246099323034286
1708440501.5248284,-1.1073797941207886,-1.6804338894286097,-2.5271034876452845,2.2838122087666015,-1.0180266539203089,0.11226307600736618
1708440501.526833,-1.1072970628738403,-1.6805311642088832,-2.527100388203756,2.2837135034748535,-1.0180557409869593,0.11200747638940811
1708440501.5288615,-1.1071205139160156,-1.680554529229635,-2.5271275679217737,2.2836176592060546,-1.0180590788470667,0.111793152987957
1708440501.530797,-1.1070009469985962,-1.680636545220846,-2.527123037968771,2.283430739040039,-1.0181034247027796,0.11148028075695038
1708440501.5328157,-1.106852412223816,-1.680737634698385,-2.5271218458758753,2.2833568292805175,-1.0181158224688929,0.11125677078962326
1708440501.5348258,-1.1067615747451782,-1.6807195148863734,-2.527151648198263,2.283303423518799,-1.0180991331683558,0.11100250482559204
1708440501.5368137,-1.1065644025802612,-1.6808320484557093,-2.5271664301501673,2.283137007350586,-1.018139664326803,0.11076322197914124
1708440501.5388722,-1.1064547300338745,-1.6808797321715296,-2.5272489229785364,2.283028765315674,-1.018167797719137,0.11055576056241989
1708440501.5408154,-1.1062320470809937,-1.6810170612730921,-2.5272682348834437,2.2829300600239257,-1.0182493368731897,0.11028837412595749
1708440501.5427842,-1.1061053276062012,-1.6810938320555628,-2.527254883443014,2.2827724653431396,-1.0181954542743128,0.11010993272066116
1708440501.54482,-1.1059374809265137,-1.6811520061888636,-2.5272956530200403,2.2826284605213623,-1.0182235876666468,0.10990329831838608
1708440501.5468009,-1.1057324409484863,-1.6812359295287074,-2.5273478666888636,2.28245656072583,-1.0182669798480433,0.10961826145648956
1708440501.548796,-1.1055364608764648,-1.681291242639059,-2.52738863626589,2.2823118406483154,-1.018249813710348,0.10943260788917542
1708440501.5507917,-1.1053451299667358,-1.6813990078368128,-2.527379576359884,2.282144232387207,-1.0183518568622034,0.10921704769134521
1708440501.5527866,-1.1051372289657593,-1.6814876995482386,-2.527433458958761,2.2820188242145996,-1.0183594862567347,0.10900276899337769
1708440501.5547931,-1.1049244403839111,-1.6816450558104457,-2.5274277369128626,2.2818328577229003,-1.018362824116842,0.10880708694458008
1708440501.5567799,-1.104754090309143,-1.6817432842650355,-2.527491633092062,2.2817351061054687,-1.0183499495135706,0.10855478793382645
1708440501.5587854,-1.1044716835021973,-1.6818181476988734,-2.527482811604635,2.281492157573364,-1.0184066931353968,0.10838399827480316
1708440501.5607772,-1.1042083501815796,-1.6819750271239222,-2.5275636355029505,2.281308098430298,-1.018430534993307,0.10816429555416107
1708440501.562869,-1.1039533615112305,-1.6821066341795863,-2.5275548140155237,2.2810837465473632,-1.018482510243551,0.1080264076590538
1708440501.5648394,-1.1036354303359985,-1.6822596989073695,-2.52759558359255,2.2809499937244873,-1.0185349623309534,0.10778604447841644
1708440501.5668614,-1.1033633947372437,-1.6823708019652308,-2.527620855961935,2.280717058772705,-1.0185545126544397,0.10754864662885666
1708440501.5688713,-1.1030817031860352,-1.682531019250387,-2.5276270548449915,2.2805043894001464,-1.0186198393451136,0.10741612315177917
1708440501.5708392,-1.1026955842971802,-1.6826282940306605,-2.5276883284198206,2.2802771764942626,-1.0186393896686,0.10721602290868759
1708440501.5728438,-1.1024246215820312,-1.6828371487059535,-2.5276616255389612,2.280097647304199,-1.0186546484576624,0.10703673213720322
1708440501.574864,-1.1020804643630981,-1.6829740009703578,-2.5277515093432825,2.279808683986328,-1.0186613241778772,0.10689002275466919
1708440501.5768013,-1.1016546487808228,-1.6831299267210902,-2.527832333241598,2.2795633512684326,-1.0187385717975062,0.1067342460155487
1708440501.578833,-1.1012588739395142,-1.6833545170226039,-2.5278428236590784,2.279278202647827,-1.0187862555133265,0.10655903071165085
1708440501.5808487,-1.1008708477020264,-1.6835743389525355,-2.5278802553759974,2.279066963786743,-1.0188711325274866,0.10641550272703171
1708440501.5828567,-1.100467562675476,-1.6837121448912562,-2.527928177510397,2.2787107664295654,-1.0189150015460413,0.10623639822006226
1708440501.5848851,-1.100031852722168,-1.6840011082091273,-2.5279720465289515,2.278461380595825,-1.0189421812640589,0.10608847439289093
1708440501.586861,-1.0996407270431519,-1.6842104397215785,-2.528015438710348,2.2781449991413574,-1.0189693609820765,0.10588712245225906
1708440501.5888617,-1.0991148948669434,-1.6843720875182093,-2.528084103261129,2.2778243261524658,-1.0190618673907679,0.10573451966047287
1708440501.590802,-1.098650336265564,-1.6845456562437953,-2.528111521397726,2.277508183116577,-1.0191381613360804,0.10556991398334503
1708440501.5928175,-1.0981454849243164,-1.6848107777037562,-2.528151814137594,2.2772061067768554,-1.0192473570453089,0.10540543496608734
1708440501.5948086,-1.0976632833480835,-1.6850906811156214,-2.5281997362719935,2.276841564769409,-1.019282642995016,0.10523047298192978
1708440501.5968468,-1.0971393585205078,-1.6852761707701625,-2.5282958189593714,2.2763802248188476,-1.019317928944723,0.10506286472082138
1708440501.598873,-1.0965664386749268,-1.6856023273863734,-2.528393093739645,2.276003523463867,-1.0194061438189905,0.10489540547132492
1708440501.6008332,-1.0960019826889038,-1.6858860454955042,-2.5284248034106653,2.2755910593220214,-1.0195015112506312,0.10468223690986633
1708440501.6028352,-1.095475673675537,-1.6862160168089808,-2.5284679571734827,2.2752255636402587,-1.0196135679828089,0.10459651798009872
1708440501.6048024,-1.0949070453643799,-1.6864568195738734,-2.528543297444479,2.2747887808033447,-1.0196974913226526,0.10443760454654694
1708440501.606813,-1.0943207740783691,-1.6866899929442347,-2.5286105314837855,2.27432028829541,-1.0197694937335413,0.10428538173437119
1708440501.6087768,-1.0936012268066406,-1.686998029748434,-2.5287049452411097,2.2739004331776123,-1.0199063459979456,0.10418302565813065
1708440501.6107688,-1.0929900407791138,-1.6873709164061488,-2.5287712256061,2.2734426695057373,-1.0199568907367151,0.10405172407627106
1708440501.61279,-1.0922976732254028,-1.6876942119994105,-2.5289045015918177,2.2729429441639404,-1.0200079123126429,0.10385912656784058
1708440501.6147816,-1.091626524925232,-1.688040395776266,-2.5289884249316614,2.272371693248413,-1.0201409498797815,0.10366254299879074
1708440501.6167648,-1.0909130573272705,-1.6883870563902796,-2.529072348271505,2.271906300182007,-1.0202487150775355,0.10355696827173233
1708440501.6188002,-1.0901621580123901,-1.6887875996031703,-2.529201332722799,2.2714029985615234,-1.0203326384173792,0.10343603789806366
1708440501.620769,-1.0894341468811035,-1.6890937290587367,-2.529264513646261,2.2708870607563476,-1.0204604307757776,0.10326436907052994
1708440501.622866,-1.0886344909667969,-1.6894237003722132,-2.529397789631979,2.270317955608032,-1.0205720106707972,0.10310874879360199
1708440501.6248856,-1.08782160282135,-1.689848085443014,-2.5294397513019007,2.269693537349365,-1.0206721464740198,0.10296518355607986
1708440501.6268313,-1.0870096683502197,-1.6902276478209437,-2.529597345982687,2.2691430288502197,-1.02079946199526,0.10290000587701797
1708440501.6288352,-1.0861660242080688,-1.690646310845846,-2.529680077229635,2.2685319620319824,-1.0209272543536585,0.10276079177856445
1708440501.6308022,-1.0852973461151123,-1.6910168133177699,-2.529796902333395,2.2679599958607177,-1.0210183302508753,0.10259521752595901
1708440501.6328611,-1.0845115184783936,-1.6914197407164515,-2.5298882166491907,2.267331762904785,-1.0211551825152796,0.10242825746536255
1708440501.6348135,-1.0835919380187988,-1.691935201684469,-2.530020300542013,2.2667712408253173,-1.0212786833392542,0.10228482633829117
1708440501.6368382,-1.082704782485962,-1.6923657856383265,-2.5301478544818323,2.2660855489918212,-1.0214384237872522,0.10215312242507935
1708440501.63892,-1.0817924737930298,-1.692780157128805,-2.5302675406085413,2.2654124933430175,-1.021578613911764,0.10199302434921265
1708440501.6408117,-1.0808560848236084,-1.6931902370848597,-2.530344072972433,2.2647856908985595,-1.0216901938067835,0.10183336585760117
1708440501.6428025,-1.079889178276062,-1.6936589680113734,-2.5305286089526575,2.2641019064136962,-1.0218465963946741,0.10172221064567566
1708440501.644794,-1.0788211822509766,-1.6941706142821253,-2.5306604544269007,2.263427420253418,-1.021949593220846,0.10150071233510971
1708440501.6467748,-1.0778168439865112,-1.6946498356261195,-2.5307145754443567,2.2627391058155517,-1.0221293608294886,0.10138323158025742
1708440501.6487858,-1.0767993927001953,-1.695132394830221,-2.5308852831469935,2.2620033460804443,-1.0222652594195765,0.10121436417102814
1708440501.6507976,-1.0757075548171997,-1.6955863438048304,-2.531041208897726,2.261267824763916,-1.022437874470846,0.1010957807302475
1708440501.6527917,-1.0746233463287354,-1.6960774860777796,-2.5311406294452112,2.2604984480091552,-1.022536579762594,0.10095991939306259
1708440501.6547937,-1.0734963417053223,-1.6965977154173792,-2.5313218275653284,2.259741945857666,-1.0227044264422815,0.10081206262111664
1708440501.6568203,-1.0724031925201416,-1.6971246204771937,-2.5314117113696497,2.2589589792438964,-1.0228970686541956,0.1007053554058075
1708440501.6587982,-1.071259617805481,-1.6976624927916468,-2.531580988560812,2.2582031923481445,-1.023003880177633,0.10052571445703506
1708440501.6607766,-1.070086121559143,-1.6981812916197718,-2.5317075888263147,2.257296009654663,-1.023151699696676,0.10040749609470367
1708440501.6628687,-1.0688785314559937,-1.6988007030882777,-2.531839434300558,2.2565483289906005,-1.0233352820025843,0.10022170841693878
1708440501.664821,-1.0676941871643066,-1.6993304691710414,-2.532036844884054,2.2557174402424316,-1.0235069433795374,0.10010737925767899
1708440501.6668332,-1.0664829015731812,-1.6999584637083949,-2.5321765581714075,2.254812164897583,-1.0236781279193323,0.09994329512119293
1708440501.668799,-1.0653048753738403,-1.7004806003966273,-2.532299582158224,2.2539068895527343,-1.0238269011126917,0.099795401096344
1708440501.670774,-1.0639578104019165,-1.701083322564596,-2.5324841181384485,2.2530340391346435,-1.023994270955221,0.09963203221559525
1708440501.672803,-1.0627418756484985,-1.7017022571959437,-2.5326114336596888,2.252110405559204,-1.0242279211627405,0.09952544420957565
1708440501.6748185,-1.0614696741104126,-1.702280183831686,-2.53280479112734,2.251199169749878,-1.0243666807757776,0.0993577167391777
1708440501.6768467,-1.0601675510406494,-1.7029558620848597,-2.5330057779895228,2.2502848344990234,-1.0245259443866175,0.09921818971633911
1708440501.6788287,-1.058871865272522,-1.7036100826659144,-2.533161703740255,2.249293013209961,-1.02470571199526,0.09906677156686783
1708440501.680835,-1.0575413703918457,-1.7042252025999964,-2.5332890192614954,2.2483619886585693,-1.0249136129962366,0.09890267252922058
1708440501.6828308,-1.0561513900756836,-1.7049156628050746,-2.533466164265768,2.2473341661640625,-1.0250638167010706,0.09876323491334915
1708440501.6848004,-1.054768443107605,-1.705630441705221,-2.5336416403399866,2.2464112478443603,-1.0252731482135218,0.0986480712890625
1708440501.6868417,-1.0534108877182007,-1.7062403164305628,-2.533781115208761,2.2453993993946533,-1.025440518056051,0.09848473966121674
1708440501.6888638,-1.0520387887954712,-1.7069560490050257,-2.5339611212359827,2.24435202657666,-1.0256603399859827,0.0982881635427475
1708440501.6908247,-1.0506213903427124,-1.7077084980406703,-2.5341363588916224,2.243422670955322,-1.025832478200094,0.09816624224185944
1708440501.6927927,-1.049191951751709,-1.7083260021605433,-2.5342803637133997,2.2423505026051025,-1.0260360876666468,0.0979933813214302
1708440501.694775,-1.0477070808410645,-1.7090760670103968,-2.5345216433154505,2.241285486812256,-1.0261748472796839,0.09785399585962296
1708440501.6968148,-1.046162486076355,-1.7097827396788539,-2.5346809069262903,2.2401415544697265,-1.0264032522784632,0.0976736769080162
1708440501.6987844,-1.0446736812591553,-1.7104884586729945,-2.534848992024557,2.2390376764484863,-1.026602570210592,0.09746590256690979
1708440501.7007897,-1.043171763420105,-1.7112871609129847,-2.5350378195392054,2.237945004100464,-1.026761833821432,0.09736359864473343
1708440501.7028475,-1.0416123867034912,-1.712106843987936,-2.535192076359884,2.2368032175251464,-1.0269530455218714,0.09722121804952621
1708440501.704793,-1.0400310754776,-1.7128030262389125,-2.535405222569601,2.2357000547596435,-1.027189079915182,0.09706903994083405
1708440501.7068214,-1.0383902788162231,-1.7136112652220667,-2.535604778920309,2.234659357661865,-1.0274537245379847,0.09690285474061966
1708440501.7088091,-1.0368263721466064,-1.714365621606344,-2.5358219782458704,2.2334975439259033,-1.0276368300067347,0.096747025847435
1708440501.710788,-1.035186529159546,-1.7152048550047816,-2.535969082509176,2.232314272517822,-1.0278404394732874,0.09656228870153427
1708440501.7128232,-1.033453106880188,-1.7159439525999964,-2.536102596913473,2.2311736780354003,-1.0280073324786585,0.0963372215628624
1708440501.7147868,-1.031855583190918,-1.7167679272093714,-2.536285463963644,2.2300092416950683,-1.0282109419452112,0.09622734785079956
1708440501.7168121,-1.0301332473754883,-1.7175737820067347,-2.5365000406848353,2.2289270597645263,-1.0284231344806116,0.09605550765991211
1708440501.718787,-1.0283830165863037,-1.7184068165221156,-2.5367489496814173,2.227632685298584,-1.028680149708883,0.09588362276554108
1708440501.7207835,-1.0266817808151245,-1.719250818292135,-2.536969248448507,2.226428671474121,-1.0288456122027796,0.09568030387163162
1708440501.7228224,-1.0248814821243286,-1.7201243839659632,-2.5371809641467493,2.225196524257324,-1.0290778318988245,0.0955541729927063
1708440501.7248294,-1.0231094360351562,-1.7209001980223597,-2.537372652684347,2.2238964277454834,-1.0293181578265589,0.09532514214515686
1708440501.7268116,-1.0213520526885986,-1.721816202203268,-2.537543837224142,2.2226871687122802,-1.0295336882220667,0.09519001096487045
1708440501.7288158,-1.0195021629333496,-1.7227360210814417,-2.5377894083606165,2.2213658529468994,-1.0297167936908167,0.09498967230319977
1708440501.7308,-1.0177165269851685,-1.7235776386656703,-2.5379980246173304,2.2200535970875244,-1.0298998991595667,0.09487982094287872
1708440501.732804,-1.0158594846725464,-1.7244750461974085,-2.5381463209735315,2.218700333232544,-1.030144516621725,0.09465588629245758
1708440501.734817,-1.0139986276626587,-1.7253262005248011,-2.5384252707110804,2.217385454768799,-1.0303962866412562,0.09448851644992828
1708440501.736838,-1.0120818614959717,-1.7262584171690882,-2.5385947863208216,2.215935154552124,-1.0306270758258265,0.0942722037434578
1708440501.7388349,-1.0101094245910645,-1.727224966088766,-2.5388692061053675,2.214545889491699,-1.0309155623065394,0.09411425143480301
1708440501.7407906,-1.0081937313079834,-1.7281137905516566,-2.539056364689962,2.2131380277821044,-1.0311105887042444,0.09391441196203232
1708440501.742788,-1.0062243938446045,-1.7290975056090296,-2.5392888228045862,2.211810513133667,-1.0312860647784632,0.09374359250068665
1708440501.744792,-1.0042563676834106,-1.7300497494139613,-2.5394883791552942,2.210444374675415,-1.0315502325641077,0.09349460154771805
1708440501.7467756,-1.0022448301315308,-1.7310291729369105,-2.5397403875934046,2.209076090449951,-1.03184682527651,0.0933443009853363
1708440501.748776,-1.0001957416534424,-1.7320271931090296,-2.540025059376852,2.207651062602661,-1.0320442358600062,0.09315324574708939
1708440501.750795,-0.9981389045715332,-1.7329431972899378,-2.540229145680563,2.2062079149433593,-1.032320801411764,0.09294083714485168
1708440501.752809,-0.9961465001106262,-1.733990331689352,-2.5404558817492884,2.204754515285156,-1.0324743429767054,0.09271731972694397
1708440501.7547805,-0.9940600395202637,-1.7349792919554652,-2.540680710469381,2.203334255809448,-1.0327194372760218,0.09259184449911118
1708440501.7567859,-0.9920443296432495,-1.7360011539854945,-2.5409203211413782,2.201800985927246,-1.032914940510885,0.09233544766902924
1708440501.7587984,-0.9899076819419861,-1.7370687923827113,-2.5411725679980677,2.2003306585499267,-1.0332115332232874,0.09214763343334198
1708440501.7607663,-0.987762987613678,-1.738101144830221,-2.5413673559771937,2.1987849909016113,-1.0333846251117151,0.09194925427436829
1708440501.762792,-0.9856628775596619,-1.7391096554198207,-2.5416656176196497,2.197253628368042,-1.033621613179342,0.09172964841127396
1708440501.7648222,-0.9835655689239502,-1.740237375298971,-2.5419262091266077,2.1957921224781494,-1.0338204542743128,0.09145574271678925
1708440501.7668402,-0.9813681244850159,-1.7412806950011195,-2.5421443621264856,2.1942149835773925,-1.0340717474566858,0.09128612279891968
1708440501.7688098,-0.979133129119873,-1.7423469028868617,-2.542325798665182,2.1927212911793212,-1.0343530813800257,0.09105890989303589
1708440501.7708292,-0.9768944382667542,-1.7435509167113246,-2.5425944964038294,2.1911391454884033,-1.0345318953143519,0.09088670462369919
1708440501.772849,-0.9746604561805725,-1.744540353814596,-2.5428760687457483,2.189622326488159,-1.0348156134234827,0.0907055139541626
1708440501.7748408,-0.9725152254104614,-1.7456819019713343,-2.543102566395895,2.188053532237671,-1.0350716749774378,0.0904606282711029
1708440501.7768183,-0.9703011512756348,-1.74672331432485,-2.54332143465151,2.186567469234131,-1.0353267828570765,0.09020976722240448
1708440501.778837,-0.9681161642074585,-1.7478214703001917,-2.5436318556415003,2.1850785452076416,-1.035562817250387,0.09006260335445404
1708440501.7808146,-0.9659048318862915,-1.7489072285094203,-2.5438507238971155,2.183574839229248,-1.035769287739889,0.08979851752519608
1708440501.7829232,-0.9637477993965149,-1.7500211201109828,-2.5440757910357874,2.182076616878174,-1.0359810034381312,0.08957874774932861
1708440501.7848575,-0.9615850448608398,-1.7511126003661097,-2.544368330632345,2.1805330949970703,-1.0361593405352991,0.08940049260854721
1708440501.7868567,-0.9593629837036133,-1.7522269688048304,-2.5445902983294886,2.1789988714405517,-1.0364568869220179,0.08915714919567108
1708440501.7888074,-0.957159698009491,-1.7533108196654261,-2.544884268437521,2.1774932581135253,-1.0367124716388147,0.08894039690494537
1708440501.7908359,-0.9550042152404785,-1.7544414005675257,-2.5451062361346644,2.175877018565796,-1.0369485060321253,0.08871440589427948
1708440501.792844,-0.9527552127838135,-1.7555128536620082,-2.5453923384295862,2.17429701864209,-1.0371273199664515,0.0885758325457573
