Eg3-git/Classifiers/Data Collection/u7/u7star5_ur3e_joint_states.csv
time,elbow_joint,shoulder_lift_joint,shoulder_pan_joint,wrist_1_joint,wrist_2_joint,wrist_3_joint
1708440593.4670038,-1.1051641702651978,-1.6817976437010707,-2.5268517176257532,2.280886335963867,-1.01772386232485,-0.026218716298238576
1708440593.4689932,-1.1051478385925293,-1.6817895374693812,-2.526856247578756,2.2809576231190185,-1.0177486578570765,-0.026197258626119435
1708440593.471005,-1.1051884889602661,-1.6818348369994105,-2.5267978350268763,2.2809857565113525,-1.0177767912494105,-0.02618104616274053
1708440593.4730213,-1.1051597595214844,-1.6818047962584437,-2.526806894932882,2.2809197145649414,-1.0177152792560022,-0.026209656392232716
1708440593.474993,-1.1051522493362427,-1.6818047962584437,-2.526815954838888,2.2808989721485595,-1.0177119413958948,-0.02624684969057256
1708440593.4770129,-1.1051641702651978,-1.6817342243590296,-2.526835266743795,2.2809695440479736,-1.017719570790426,-0.02624208131899053
1708440593.4790208,-1.1051552295684814,-1.6817885837950648,-2.526818815861837,2.2809530931660156,-1.0177648703204554,-0.02625924745668584
1708440593.4809976,-1.1051685810089111,-1.6818348369994105,-2.52678090730776,2.2809902864643554,-1.0177486578570765,-0.026235405598775685
1708440593.48301,-1.1051597595214844,-1.6818300686278285,-2.526827875767843,2.280912323588989,-1.0177400747882288,-0.02618581453432256
1708440593.484979,-1.1051597595214844,-1.6817714176573695,-2.526856247578756,2.280912323588989,-1.0177367369281214,-0.026226345692769826
1708440593.4870415,-1.1051855087280273,-1.6817885837950648,-2.5268307367907923,2.2809151846119384,-1.0177486578570765,-0.026202026997701466
1708440593.4890256,-1.105143427848816,-1.6817757091917933,-2.526773516331808,2.2808989721485595,-1.01772386232485,-0.026209656392232716
1708440593.4910297,-1.1051884889602661,-1.681807657281393,-2.526832405720846,2.280921383494995,-1.0177486578570765,-0.0261767546283167
1708440593.4930637,-1.1051597595214844,-1.6817647419371546,-2.526773516331808,2.2809077936359863,-1.0177000204669397,-0.026218716298238576
1708440593.4950678,-1.1051899194717407,-1.6818300686278285,-2.526841465626852,2.2809876638599853,-1.0177162329303187,-0.02625924745668584
1708440593.4970353,-1.105143427848816,-1.6818181476988734,-2.526820484791891,2.2809786039539794,-1.017707649861471,-0.026209656392232716
1708440593.4990342,-1.1051522493362427,-1.6817757091917933,-2.526818815861837,2.2809530931660156,-1.017707649861471,-0.026213947926656544
1708440593.5009918,-1.1051552295684814,-1.6817757091917933,-2.526794497166769,2.2809502321430664,-1.0177281538592737,-0.02624684969057256
1708440593.5030217,-1.105138897895813,-1.6817647419371546,-2.526869837437765,2.2809151846119384,-1.0177119413958948,-0.026200596486226857
1708440593.5050628,-1.105138897895813,-1.6818090877928675,-2.526827875767843,2.2809077936359863,-1.0177119413958948,-0.026222054158345998
1708440593.50713,-1.1051151752471924,-1.6817714176573695,-2.526827875767843,2.2809786039539794,-1.0177605787860315,-0.026213947926656544
1708440593.5090303,-1.1051478385925293,-1.6817385158934535,-2.526773516331808,2.2809366422840576,-1.0177443663226526,-0.026239697133199513
1708440593.5110042,-1.105106234550476,-1.6817847690977992,-2.526811424885885,2.280912323588989,-1.0177443663226526,-0.026218716298238576
1708440593.5130327,-1.1051552295684814,-1.6817599735655726,-2.526818815861837,2.2809197145649414,-1.0177205244647425,-0.026235405598775685
1708440593.5149894,-1.1051766872406006,-1.6817733250060023,-2.526832405720846,2.280972405070923,-1.0177281538592737,-0.026206318532125294
1708440593.5170188,-1.1051478385925293,-1.6817690334715785,-2.526806894932882,2.2809366422840576,-1.0177324453936976,-0.026267830525533498
1708440593.519018,-1.1051344871520996,-1.6817976437010707,-2.526820484791891,2.2809576231190185,-1.01772386232485,-0.026192967091695607
1708440593.5210142,-1.105181097984314,-1.6817690334715785,-2.52682334581484,2.2809738355823974,-1.01772386232485,-0.0261767546283167
1708440593.5230258,-1.1051552295684814,-1.6818090877928675,-2.526825014744894,2.2809695440479736,-1.0176704565631312,-0.02618104616274053
1708440593.5249953,-1.1051768064498901,-1.6817976437010707,-2.526853386555807,2.2809411722370605,-1.0177724997149866,-0.026200596486226857
1708440593.5270274,-1.1051552295684814,-1.6818047962584437,-2.526789967213766,2.2809576231190185,-1.017707649861471,-0.026235405598775685
1708440593.5290198,-1.1051270961761475,-1.6818062267699183,-2.52682334581484,2.2809831339069824,-1.0177443663226526,-0.026209656392232716
1708440593.5310042,-1.1051552295684814,-1.6817714176573695,-2.526794497166769,2.280928774470947,-1.0177443663226526,-0.026206318532125294
1708440593.533015,-1.1051552295684814,-1.6817647419371546,-2.526832405720846,2.280912323588989,-1.0177443663226526,-0.026239697133199513
1708440593.5349991,-1.1051225662231445,-1.6817227802672328,-2.5267751852618616,2.2809485632130126,-1.0177443663226526,-0.026202026997701466
1708440593.537009,-1.1051641702651978,-1.6818229160704554,-2.52686053911318,2.2809857565113525,-1.017707649861471,-0.026213947926656544
1708440593.539017,-1.105143427848816,-1.6817928753294886,-2.526802364979879,2.2809530931660156,-1.0177648703204554,-0.026230637227193654
1708440593.541039,-1.105138897895813,-1.6818181476988734,-2.52682334581484,2.2809530931660156,-1.0177152792560022,-0.026192967091695607
1708440593.54305,-1.105143427848816,-1.6817671261229457,-2.526827875767843,2.2810067373463134,-1.01772386232485,-0.02627259889711553
1708440593.5450315,-1.1051344871520996,-1.6817733250060023,-2.526794497166769,2.2810112672993164,-1.0177324453936976,-0.026206318532125294
1708440593.5470407,-1.1051641702651978,-1.6817690334715785,-2.526806894932882,2.2809621530720214,-1.0177033583270472,-0.026204888020650685
1708440593.5490305,-1.1051884889602661,-1.6817804775633753,-2.5268035570727747,2.2809457021900634,-1.0177443663226526,-0.026213947926656544
1708440593.5510237,-1.1052167415618896,-1.6817714176573695,-2.526848856602804,2.2809621530720214,-1.0177486578570765,-0.026217285786763966
1708440593.5530396,-1.1051840782165527,-1.6817647419371546,-2.5268307367907923,2.2809604841419677,-1.0177486578570765,-0.026209656392232716
1708440593.5550184,-1.1051552295684814,-1.6818062267699183,-2.526844326649801,2.2809366422840576,-1.0177367369281214,-0.02624208131899053
1708440593.5570521,-1.1051721572875977,-1.6818005047240199,-2.5268307367907923,2.2809695440479736,-1.0176990667926233,-0.02625447908510381
1708440593.559045,-1.1051840782165527,-1.6818229160704554,-2.526848856602804,2.2809604841419677,-1.0177486578570765,-0.02625447908510381
1708440593.560995,-1.1051840782165527,-1.681833883325094,-2.52682334581484,2.2809650140949707,-1.0177043120013636,-0.026218716298238576
1708440593.5630188,-1.1051721572875977,-1.6817523441710414,-2.526832405720846,2.2809485632130126,-1.0176785627948206,-0.0262377897845667
1708440593.5650055,-1.1051796674728394,-1.681779523889059,-2.52682334581484,2.2809993463703613,-1.0177324453936976,-0.02617198625673467
1708440593.567004,-1.1051766872406006,-1.6817804775633753,-2.526839796696798,2.2809695440479736,-1.017707649861471,-0.026204888020650685
1708440593.5690343,-1.1052018404006958,-1.6817885837950648,-2.526815954838888,2.2809695440479736,-1.0176876227008265,-0.02617961565126592
1708440593.5709994,-1.1051766872406006,-1.6817432842650355,-2.5268681685077112,2.2809197145649414,-1.0177486578570765,-0.02625447908510381
1708440593.5730007,-1.1051766872406006,-1.6817509136595667,-2.52682334581484,2.2809621530720214,-1.0177272001849573,-0.02625590959657842
1708440593.5749803,-1.105193018913269,-1.6818019352354945,-2.526827875767843,2.2809485632130126,-1.0177314917193812,-0.026212994252340138
1708440593.5769982,-1.1051464080810547,-1.6817385158934535,-2.526839796696798,2.2810098367878417,-1.0177682081805628,-0.02624684969057256
1708440593.5789995,-1.1051677465438843,-1.6817928753294886,-2.526789967213766,2.2810186582752685,-1.0177562872516077,-0.02627116838564092
1708440593.580986,-1.105193018913269,-1.6818005047240199,-2.52682334581484,2.2810141283222656,-1.0177767912494105,-0.02627116838564092
1708440593.5829988,-1.1051959991455078,-1.6818062267699183,-2.526818815861837,2.2809740740009765,-1.0176828543292444,-0.02624208131899053
1708440593.5849864,-1.1052343845367432,-1.6817976437010707,-2.526844326649801,2.280972405070923,-1.017719570790426,-0.026233498250142873
1708440593.5869927,-1.1051721572875977,-1.6817599735655726,-2.526818815861837,2.280939741725586,-1.017719570790426,-0.02618867555727178
1708440593.5890462,-1.1051552295684814,-1.6818090877928675,-2.526789967213766,2.280951662654541,-1.0177314917193812,-0.026292149220601857
1708440593.5910578,-1.1051766872406006,-1.6817804775633753,-2.526839796696798,2.2809108930775146,-1.0177152792560022,-0.026284519826070607
1708440593.5930402,-1.1052137613296509,-1.6817976437010707,-2.52682334581484,2.280996246928833,-1.01774770418276,-0.02625447908510381
1708440593.5950246,-1.105175256729126,-1.6818109951415003,-2.52682334581484,2.2809933859058837,-1.0177400747882288,-0.02624208131899053
1708440593.597083,-1.1052123308181763,-1.6818257770934046,-2.526789967213766,2.2810305792042236,-1.0177314917193812,-0.026226345692769826
1708440593.599008,-1.1052048206329346,-1.6817475757994593,-2.5267933050738733,2.280956192607544,-1.0177562872516077,-0.026163403187887013
1708440593.600995,-1.1052035093307495,-1.6817647419371546,-2.526839796696798,2.280944271678589,-1.0177314917193812,-0.026274029408590138
1708440593.6030037,-1.1051708459854126,-1.6818005047240199,-2.526841465626852,2.281012697810791,-1.0177162329303187,-0.026241127644674123
1708440593.6050134,-1.1051708459854126,-1.6818090877928675,-2.526806894932882,2.2809769350239257,-1.0177400747882288,-0.02625447908510381
1708440593.6070077,-1.1052525043487549,-1.6817523441710414,-2.526818815861837,2.280944271678589,-1.0177605787860315,-0.026296440755025685
1708440593.6090472,-1.1052374839782715,-1.6817690334715785,-2.526839796696798,2.2809933859058837,-1.0177400747882288,-0.02625924745668584
1708440593.6110315,-1.105231761932373,-1.6817714176573695,-2.52682334581484,2.2810141283222656,-1.0177519957171839,-0.026233498250142873
1708440593.612985,-1.1052613258361816,-1.6818181476988734,-2.5268471876727503,2.2809604841419677,-1.0177887121783655,-0.02624208131899053
1708440593.6150274,-1.1051783561706543,-1.6817432842650355,-2.5267978350268763,2.2810095983692626,-1.0178011099444788,-0.026208225880758107
1708440593.6170304,-1.1052405834197998,-1.6818424663939417,-2.526877228413717,2.281033440227173,-1.0177434126483362,-0.026212994252340138
1708440593.619051,-1.1052436828613281,-1.6817599735655726,-2.526844326649801,2.281033440227173,-1.01774770418276,-0.026233498250142873
1708440593.6210198,-1.1052035093307495,-1.6817556820311488,-2.526806894932882,2.2809604841419677,-1.0177400747882288,-0.026257816945211232
1708440593.6230774,-1.1051946878433228,-1.6817432842650355,-2.526877228413717,2.281029148692749,-1.0177767912494105,-0.026224438344137013
1708440593.6250048,-1.1052650213241577,-1.6818629703917445,-2.5268471876727503,2.280980034465454,-1.0177605787860315,-0.026232544575826466
1708440593.6270237,-1.1052650213241577,-1.6817928753294886,-2.52682334581484,2.280984325999878,-1.01774770418276,-0.02625447908510381
1708440593.629055,-1.105269432067871,-1.6817432842650355,-2.526839796696798,2.280984325999878,-1.0177724997149866,-0.02626210847963506
1708440593.6309843,-1.1052738428115845,-1.6818181476988734,-2.526818815861837,2.2810489374348144,-1.0177605787860315,-0.026241127644674123
1708440593.6330237,-1.1052769422531128,-1.6817757091917933,-2.5268142859088343,2.281008167857788,-1.017775837575094,-0.026311222706929982
1708440593.6349838,-1.1052560806274414,-1.6817804775633753,-2.526827875767843,2.281083269710205,-1.0177887121783655,-0.02626973787416631
1708440593.6370268,-1.1052436828613281,-1.6817509136595667,-2.52682334581484,2.280984325999878,-1.0177724997149866,-0.026323620473043263
1708440593.6390138,-1.1052606105804443,-1.6817432842650355,-2.5268517176257532,2.2810415464588623,-1.01774770418276,-0.026274029408590138
1708440593.6409988,-1.1052473783493042,-1.6817432842650355,-2.5268755594836634,2.281003637904785,-1.017735783253805,-0.02626210847963506
1708440593.6431231,-1.105251669883728,-1.6818047962584437,-2.526856247578756,2.280999107951782,-1.0177724997149866,-0.026293102894918263
1708440593.6450293,-1.1052887439727783,-1.6817566357054652,-2.5268517176257532,2.2810935217091064,-1.0177519957171839,-0.026310269032613576
1708440593.647052,-1.1052755117416382,-1.6818138561644496,-2.5268681685077112,2.281083269710205,-1.0177272001849573,-0.026378933583394826
1708440593.649035,-1.1052428483963013,-1.6817895374693812,-2.5268800894366663,2.2810489374348144,-1.0177348295794886,-0.026365582142965138
1708440593.6510231,-1.1053050756454468,-1.6817432842650355,-2.5268307367907923,2.2810935217091064,-1.0177682081805628,-0.026327435170308888
1708440593.6530173,-1.1052918434143066,-1.6817690334715785,-2.5268307367907923,2.2810847002216796,-1.017719570790426,-0.02636272112001592
1708440593.655002,-1.1052918434143066,-1.6817342243590296,-2.5268335978137415,2.281059427852295,-1.017735783253805,-0.026377026234762013
1708440593.6570125,-1.1053332090377808,-1.6817647419371546,-2.5268471876727503,2.281137390727661,-1.017763916646139,-0.026381794606344044
1708440593.6590579,-1.1053096055984497,-1.6818019352354945,-2.5268426577197474,2.281146450633667,-1.0177434126483362,-0.026378933583394826
1708440593.6610007,-1.1052428483963013,-1.6817409000792445,-2.526844326649801,2.2810966211506347,-1.0177844206439417,-0.026381794606344044
1708440593.6630394,-1.1052303314208984,-1.6817804775633753,-2.526872698460714,2.281158371562622,-1.0177882353412073,-0.026360813771383107
1708440593.6650307,-1.1053169965744019,-1.6817432842650355,-2.5268500486956995,2.281062288875244,-1.017775837575094,-0.02635223070253545
1708440593.6670094,-1.1053169965744019,-1.6817733250060023,-2.5268681685077112,2.281165524119995,-1.017775837575094,-0.026360813771383107
1708440593.6690297,-1.1052755117416382,-1.6817599735655726,-2.5268307367907923,2.2810861307331542,-1.017763916646139,-0.02640992799867803
1708440593.671004,-1.1052918434143066,-1.6817714176573695,-2.5268142859088343,2.281083031291626,-1.017775837575094,-0.026381794606344044
1708440593.6730304,-1.1052799224853516,-1.6817804775633753,-2.526839796696798,2.281111403102539,-1.0178011099444788,-0.026395146046773732
1708440593.6749873,-1.1053245067596436,-1.6817733250060023,-2.5268471876727503,2.2811478811451416,-1.0178130308734339,-0.026398960744039357
1708440593.6770139,-1.1052711009979248,-1.681838174859518,-2.5268216768847864,2.281181975001953,-1.0177682081805628,-0.026318852101461232
1708440593.6790326,-1.105336308479309,-1.6817690334715785,-2.526806894932882,2.2810861307331542,-1.0177348295794886,-0.026360813771383107
1708440593.680982,-1.1053496599197388,-1.681760927239889,-2.526818815861837,2.2811640936085205,-1.0177229086505335,-0.026423279439107716
1708440593.6830132,-1.1052666902542114,-1.6817733250060023,-2.526835266743795,2.2811612325855712,-1.0177925268756312,-0.026435677205220998
1708440593.6849954,-1.1053364276885986,-1.6817509136595667,-2.5268591086017054,2.281106873149536,-1.017775837575094,-0.02640992799867803
1708440593.6869938,-1.1053156852722168,-1.6818090877928675,-2.526815954838888,2.2811283308216552,-1.01780873933901,-0.026394192372457326
1708440593.6890156,-1.1052918434143066,-1.6817690334715785,-2.5268636385547083,2.2811447817036132,-1.0177553335772913,-0.026423279439107716
1708440593.6909943,-1.1053125858306885,-1.6817895374693812,-2.52682334581484,2.2811731535145263,-1.0177682081805628,-0.02642232576479131
1708440593.6930735,-1.1053156852722168,-1.6817671261229457,-2.5268307367907923,2.2811731535145263,-1.0177682081805628,-0.02642232576479131
1708440593.6950083,-1.1052830219268799,-1.6818109951415003,-2.5268591086017054,2.2811612325855712,-1.0177391211139124,-0.026413742695943654
1708440593.697066,-1.1052993535995483,-1.6818090877928675,-2.5268142859088343,2.2811612325855712,-1.0177682081805628,-0.026381794606344044
1708440593.6990232,-1.1053200960159302,-1.6817647419371546,-2.5268262068377894,2.2811240392872314,-1.0177510420428675,-0.026368443165914357
1708440593.701003,-1.1053006649017334,-1.6817556820311488,-2.526856247578756,2.281132860774658,-1.0177510420428675,-0.0264056364642542
1708440593.7030082,-1.1052993535995483,-1.6817194424071253,-2.5268307367907923,2.2811612325855712,-1.0177596251117151,-0.026394192372457326
1708440593.7050471,-1.105294942855835,-1.6817318401732386,-2.5268142859088343,2.2811240392872314,-1.017796818410055,-0.0263446013080042
1708440593.707133,-1.10530686378479,-1.6817475757994593,-2.5268216768847864,2.2811969953724365,-1.0177839438067835,-0.026389900838033498
1708440593.709004,-1.1052993535995483,-1.6817804775633753,-2.5268636385547083,2.28117744504895,-1.017771069203512,-0.026438538228170216
1708440593.7109857,-1.1053231954574585,-1.6817804775633753,-2.526827875767843,2.2811879354664306,-1.01774770418276,-0.026401344929830373
1708440593.7130117,-1.1053037643432617,-1.6818119488158167,-2.5268681685077112,2.2811359602161865,-1.0177925268756312,-0.02640992799867803
1708440593.7149973,-1.1053276062011719,-1.6817270718016566,-2.526872698460714,2.2811731535145263,-1.0178173224078577,-0.026390854512349904
1708440593.7170079,-1.1053364276885986,-1.6818090877928675,-2.5268636385547083,2.2811567026325683,-1.0178044478045862,-0.026372734700338185
1708440593.7190428,-1.1053231954574585,-1.6817647419371546,-2.526872698460714,2.2811731535145263,-1.0177844206439417,-0.02642232576479131
1708440593.7210147,-1.105294942855835,-1.6817499599852503,-2.526835266743795,2.281149311656616,-1.0177391211139124,-0.026418034230367482
1708440593.7230504,-1.1053483486175537,-1.6817780933775843,-2.5267890135394495,2.2812177377888183,-1.0177596251117151,-0.026372734700338185
1708440593.7250178,-1.105262279510498,-1.6817432842650355,-2.5268097559558313,2.281115694636963,-1.0177801291095179,-0.0264056364642542
1708440593.727225,-1.105340838432312,-1.6817804775633753,-2.5268471876727503,2.2811402517506103,-1.0177348295794886,-0.02640992799867803
1708440593.7290163,-1.1052905321121216,-1.6817103825011195,-2.5268216768847864,2.2811433511921386,-1.017775837575094,-0.026398960744039357
1708440593.7309878,-1.1053112745285034,-1.6817928753294886,-2.5268800894366663,2.2811359602161865,-1.0178130308734339,-0.026403252278463185
1708440593.733033,-1.1052993535995483,-1.6817647419371546,-2.52688175836672,2.2811850744434814,-1.0177434126483362,-0.026438538228170216
1708440593.734994,-1.1052873134613037,-1.681793829003805,-2.526835266743795,2.2811240392872314,-1.0177314917193812,-0.026398960744039357
1708440593.7370086,-1.1053200960159302,-1.6817409000792445,-2.526893440877096,2.2811850744434814,-1.0177596251117151,-0.026377026234762013
1708440593.7390182,-1.105352759361267,-1.6818152866759242,-2.5268471876727503,2.281115694636963,-1.0177510420428675,-0.02635652223695928
1708440593.7410004,-1.1053037643432617,-1.681746622125143,-2.5268426577197474,2.2811195093342285,-1.0177391211139124,-0.02633983293642217
1708440593.7430692,-1.1053037643432617,-1.6817847690977992,-2.526856247578756,2.2811567026325683,-1.0177801291095179,-0.026403252278463185
1708440593.7450225,-1.1053320169448853,-1.6817928753294886,-2.5268545786487024,2.281198425883911,-1.017775837575094,-0.02642709413637334
1708440593.7470813,-1.1053231954574585,-1.6817714176573695,-2.526856247578756,2.281170292491577,-1.017775837575094,-0.026456181203023732
1708440593.7490234,-1.1052993535995483,-1.6818019352354945,-2.5268681685077112,2.281198425883911,-1.0177434126483362,-0.0264056364642542
1708440593.7509937,-1.105334997177124,-1.6817690334715785,-2.5268471876727503,2.281102343196533,-1.017763916646139,-0.026403252278463185
1708440593.75305,-1.105294942855835,-1.6817895374693812,-2.526768986378805,2.2811567026325683,-1.0177715460406702,-0.026398960744039357
1708440593.7550163,-1.105294942855835,-1.6817780933775843,-2.52682334581484,2.2811567026325683,-1.0177519957171839,-0.026381794606344044
1708440593.757118,-1.105352759361267,-1.6817733250060023,-2.5268262068377894,2.281170292491577,-1.0178044478045862,-0.026464287434713185
1708440593.759056,-1.1053526401519775,-1.6817733250060023,-2.526839796696798,2.281153841609619,-1.0177958647357386,-0.026401344929830373
1708440593.7610073,-1.1052906513214111,-1.6817895374693812,-2.5268846193896692,2.281141920680664,-1.0177958647357386,-0.026385132466451466
1708440593.7630453,-1.105278730392456,-1.6818138561644496,-2.526839796696798,2.2811447817036132,-1.017775837575094,-0.026381794606344044
1708440593.7650192,-1.1052830219268799,-1.6817733250060023,-2.5268636385547083,2.2811521726795654,-1.0178001562701624,-0.02633983293642217
1708440593.7669964,-1.105278730392456,-1.6817556820311488,-2.5268142859088343,2.2811240392872314,-1.01780873933901,-0.026403252278463185
1708440593.7690382,-1.1052993535995483,-1.6817838154234828,-2.5268142859088343,2.28117744504895,-1.0177672545062464,-0.026377026234762013
1708440593.7709782,-1.1052742004394531,-1.6817690334715785,-2.5268636385547083,2.2811433511921386,-1.0177844206439417,-0.026381794606344044
1708440593.7730262,-1.1053320169448853,-1.6817804775633753,-2.5268097559558313,2.2811283308216552,-1.01780873933901,-0.026377026234762013
1708440593.7749805,-1.105324387550354,-1.6817976437010707,-2.526835266743795,2.281149311656616,-1.0177801291095179,-0.026372734700338185
1708440593.7770076,-1.1053200960159302,-1.6817895374693812,-2.5268142859088343,2.2811731535145263,-1.0177724997149866,-0.02641469637026006
1708440593.779032,-1.1052742004394531,-1.6817928753294886,-2.526802364979879,2.2811731535145263,-1.0177510420428675,-0.026381794606344044
1708440593.780968,-1.1053037643432617,-1.6818181476988734,-2.5268800894366663,2.2811686235615234,-1.0177596251117151,-0.026395146046773732
1708440593.7829945,-1.1053276062011719,-1.6817733250060023,-2.526856247578756,2.281149311656616,-1.0178011099444788,-0.026381794606344044
1708440593.7849972,-1.1052906513214111,-1.6817976437010707,-2.5268097559558313,2.281210346812866,-1.0177801291095179,-0.02641469637026006
1708440593.7869694,-1.105294942855835,-1.6817976437010707,-2.5268307367907923,2.2811240392872314,-1.0177882353412073,-0.026360813771383107
1708440593.7889953,-1.1052860021591187,-1.6817699871458949,-2.5268681685077112,2.281158371562622,-1.017775837575094,-0.026336495076314748
1708440593.7909691,-1.1053112745285034,-1.6817523441710414,-2.5268097559558313,2.2811612325855712,-1.0177844206439417,-0.026381794606344044
1708440593.7930553,-1.105308175086975,-1.6817733250060023,-2.526835266743795,2.2811521726795654,-1.017775837575094,-0.02633220354189092
1708440593.7950063,-1.105324387550354,-1.6817804775633753,-2.526818815861837,2.281170292491577,-1.01780873933901,-0.026377026234762013
1708440593.797058,-1.105262279510498,-1.6817103825011195,-2.5268517176257532,2.2811240392872314,-1.0178335348712366,-0.026363674794332326
1708440593.7990577,-1.1053231954574585,-1.6817318401732386,-2.5268846193896692,2.2811269003101806,-1.0178130308734339,-0.02641469637026006
1708440593.8009982,-1.1053526401519775,-1.6817733250060023,-2.526835266743795,2.281137390727661,-1.0177839438067835,-0.026394192372457326
1708440593.8030066,-1.1052993535995483,-1.6817733250060023,-2.5268307367907923,2.2811402517506103,-1.0178044478045862,-0.026369873677388966
1708440593.8050191,-1.1053483486175537,-1.6817757091917933,-2.5268171469317835,2.281115933055542,-1.0177391211139124,-0.026369873677388966
1708440593.8071032,-1.105352759361267,-1.6817804775633753,-2.526818815861837,2.281094952220581,-1.0178206602679651,-0.026368443165914357
1708440593.8090668,-1.1053276062011719,-1.6818090877928675,-2.5268381277667444,2.281111403102539,-1.017796818410055,-0.026365582142965138
1708440593.8110166,-1.105294942855835,-1.6817976437010707,-2.5268262068377894,2.281111403102539,-1.01774770418276,-0.02633220354189092
1708440593.8130407,-1.105328917503357,-1.6817227802672328,-2.5268517176257532,2.281137390727661,-1.0178001562701624,-0.026360813771383107
1708440593.8150325,-1.1052831411361694,-1.6817361317076625,-2.5268517176257532,2.281146450633667,-1.0178054014789026,-0.026381794606344044
1708440593.817021,-1.1052666902542114,-1.6817523441710414,-2.5268664995776575,2.2811447817036132,-1.0177925268756312,-0.026381794606344044
1708440593.819025,-1.1053156852722168,-1.6817523441710414,-2.5268681685077112,2.281165524119995,-1.0177882353412073,-0.026369873677388966
1708440593.8209865,-1.1053526401519775,-1.681793829003805,-2.5268173853503626,2.281141920680664,-1.01780873933901,-0.026327435170308888
1708440593.8230133,-1.105340838432312,-1.6817475757994593,-2.5268831888781946,2.2811283308216552,-1.0177925268756312,-0.026407543812887013
1708440593.8249917,-1.1053037643432617,-1.6817976437010707,-2.5268846193896692,2.281170292491577,-1.017796818410055,-0.026386086140767873
1708440593.8269968,-1.1052830219268799,-1.6817509136595667,-2.5268426577197474,2.281075878734253,-1.0177844206439417,-0.026357952748433888
1708440593.8290503,-1.1052918434143066,-1.6817475757994593,-2.5268755594836634,2.28113762914624,-1.01774770418276,-0.026377026234762013
1708440593.8310027,-1.1052830219268799,-1.6818062267699183,-2.5268426577197474,2.281104012126587,-1.0177519957171839,-0.026357952748433888
1708440593.8330348,-1.1053287982940674,-1.6818019352354945,-2.526839796696798,2.2810651498981933,-1.0178044478045862,-0.026381794606344044
1708440593.8350165,-1.1053200960159302,-1.6817733250060023,-2.5268262068377894,2.2811283308216552,-1.017796818410055,-0.026368443165914357
1708440593.8370204,-1.1053451299667358,-1.6818090877928675,-2.5268471876727503,2.281170292491577,-1.0177801291095179,-0.0264056364642542
1708440593.839011,-1.1053156852722168,-1.6817847690977992,-2.5268636385547083,2.2811283308216552,-1.0177882353412073,-0.026377026234762013
1708440593.8410282,-1.1053037643432617,-1.6817690334715785,-2.526856247578756,2.281111403102539,-1.0177839438067835,-0.02635652223695928
1708440593.8429983,-1.1052799224853516,-1.6817103825011195,-2.5268517176257532,2.281153841609619,-1.0177682081805628,-0.02636272112001592
1708440593.8450024,-1.1052874326705933,-1.6817780933775843,-2.5268052260028284,2.281186504954956,-1.0177629629718226,-0.026386086140767873
1708440593.8470013,-1.1052786111831665,-1.6817733250060023,-2.5268097559558313,2.281132860774658,-1.0177672545062464,-0.02635652223695928
1708440593.8490329,-1.1053156852722168,-1.6816984615721644,-2.526818815861837,2.281162663097046,-1.0178335348712366,-0.026381794606344044
1708440593.851007,-1.1053200960159302,-1.6817103825011195,-2.5268517176257532,2.281132860774658,-1.0177839438067835,-0.026377026234762013
1708440593.8529942,-1.1052666902542114,-1.6818047962584437,-2.5268545786487024,2.281094952220581,-1.0177596251117151,-0.026403252278463185
1708440593.8550332,-1.1052874326705933,-1.6817542515196742,-2.5268381277667444,2.2810966211506347,-1.0177715460406702,-0.026362244282857716
1708440593.8570151,-1.1053200960159302,-1.6817523441710414,-2.5268426577197474,2.281104012126587,-1.0178130308734339,-0.026365582142965138
1708440593.8590083,-1.1052711009979248,-1.6817847690977992,-2.5268967787372034,2.28110854207959,-1.0177925268756312,-0.026311699544088185
1708440593.8610485,-1.1053037643432617,-1.681765695611471,-2.5268545786487024,2.281090422267578,-1.017796818410055,-0.026377503071920216
1708440593.8629847,-1.1053364276885986,-1.6816941700377406,-2.5268710295306605,2.281066580409668,-1.0177553335772913,-0.026374165211812794
1708440593.8649943,-1.1052799224853516,-1.6817475757994593,-2.5268591086017054,2.2811283308216552,-1.01780873933901,-0.026398960744039357
1708440593.8670068,-1.1052711009979248,-1.6817895374693812,-2.5268307367907923,2.281083031291626,-1.0177839438067835,-0.02633220354189092
1708440593.8689919,-1.1053332090377808,-1.6817275486388148,-2.5268922487842005,2.2811240392872314,-1.0177596251117151,-0.026390854512349904
1708440593.87099,-1.1052874326705933,-1.6818090877928675,-2.5268664995776575,2.281092091197632,-1.0177348295794886,-0.026320759450094044
1708440593.8730006,-1.1053169965744019,-1.6817566357054652,-2.5268262068377894,2.281141920680664,-1.0177391211139124,-0.026340786610738576
1708440593.875007,-1.1053037643432617,-1.6817895374693812,-2.5268426577197474,2.281099482173584,-1.0178335348712366,-0.026336495076314748
1708440593.8770347,-1.1053112745285034,-1.6817509136595667,-2.5268426577197474,2.281059427852295,-1.0177882353412073,-0.026360813771383107
1708440593.8789897,-1.1052799224853516,-1.6817194424071253,-2.5268800894366663,2.281038685435913,-1.0177715460406702,-0.026389900838033498
1708440593.8810036,-1.1052831411361694,-1.681760927239889,-2.5268471876727503,2.2811292844959716,-1.0177882353412073,-0.026381794606344044
1708440593.8829992,-1.1052755117416382,-1.6817928753294886,-2.5268591086017054,2.28110854207959,-1.0178206602679651,-0.026357952748433888
1708440593.8849945,-1.1053125858306885,-1.6817895374693812,-2.5268877188311976,2.281137390727661,-1.0178130308734339,-0.026345554982320607
1708440593.886997,-1.1052591800689697,-1.6817523441710414,-2.5268755594836634,2.281083031291626,-1.0178292433368128,-0.02634889284242803
1708440593.8890371,-1.1052799224853516,-1.6817194424071253,-2.5269299189196985,2.281087799663208,-1.0177672545062464,-0.026307408009664357
1708440593.891032,-1.1052711009979248,-1.6817566357054652,-2.5268755594836634,2.2810966211506347,-1.0177839438067835,-0.0263446013080042
1708440593.8929996,-1.1053037643432617,-1.6817385158934535,-2.5269163290606897,2.2811283308216552,-1.0177715460406702,-0.026357952748433888
1708440593.8950138,-1.1053168773651123,-1.6817757091917933,-2.5268996397601526,2.281146450633667,-1.0177434126483362,-0.026357952748433888
1708440593.8970027,-1.1053080558776855,-1.6817847690977992,-2.5268877188311976,2.281074209804199,-1.0178001562701624,-0.026374165211812794
1708440593.8990011,-1.1052831411361694,-1.6817566357054652,-2.5268755594836634,2.28110854207959,-1.0177553335772913,-0.026311699544088185
1708440593.9010017,-1.1053125858306885,-1.6818062267699183,-2.5268591086017054,2.281092091197632,-1.0178044478045862,-0.026381794606344044
1708440593.9030075,-1.1052993535995483,-1.681793829003805,-2.5268922487842005,2.28110854207959,-1.0177958647357386,-0.026378933583394826
1708440593.9049993,-1.1053037643432617,-1.6817647419371546,-2.5268664995776575,2.2811292844959716,-1.017796818410055,-0.0263446013080042
1708440593.907017,-1.1052993535995483,-1.6817475757994593,-2.5269327799426478,2.2811011511036376,-1.0177839438067835,-0.0263446013080042
1708440593.9090135,-1.1053169965744019,-1.6817647419371546,-2.526923720036642,2.281141920680664,-1.0177672545062464,-0.026377026234762013
1708440593.9110084,-1.105250358581543,-1.6817523441710414,-2.5268951098071497,2.281120463008545,-1.01780873933901,-0.026378933583394826
1708440593.9130073,-1.1052993535995483,-1.6817847690977992,-2.526898209248678,2.28115098058667,-1.0178044478045862,-0.026365582142965138
1708440593.915001,-1.105263590812683,-1.6817103825011195,-2.526910130177633,2.281063957805298,-1.0178077856646937,-0.026390854512349904
1708440593.917029,-1.105266809463501,-1.6817928753294886,-2.526886049901144,2.281115933055542,-1.0177958647357386,-0.02641469637026006
1708440593.9190357,-1.1052755117416382,-1.6817451916136683,-2.526890579854147,2.281092091197632,-1.0177839438067835,-0.026336495076314748
1708440593.9210064,-1.105308175086975,-1.681765695611471,-2.526968781148092,2.281092091197632,-1.0178163687335413,-0.026390854512349904
1708440593.923004,-1.105284333229065,-1.6817690334715785,-2.526964251195089,2.281149311656616,-1.0177925268756312,-0.026327435170308888
1708440593.9249852,-1.1052918434143066,-1.681793829003805,-2.526938501988546,2.281075878734253,-1.0177882353412073,-0.026378933583394826
1708440593.9270086,-1.1052755117416382,-1.6817780933775843,-2.526980702077047,2.281120463008545,-1.0177467505084437,-0.026374165211812794
1708440593.929029,-1.105340838432312,-1.6817432842650355,-2.526980702077047,2.2811054426380615,-1.017775837575094,-0.026292149220601857
1708440593.9309912,-1.1052504777908325,-1.6817499599852503,-2.526968781148092,2.281075878734253,-1.0177467505084437,-0.026369873677388966
1708440593.9330194,-1.1053037643432617,-1.6817690334715785,-2.5269339720355433,2.2811054426380615,-1.0177839438067835,-0.02635366121401006
1708440593.9350066,-1.10529625415802,-1.6817523441710414,-2.5269625822650355,2.2811130720325927,-1.0177839438067835,-0.026374165211812794
1708440593.9370306,-1.1052711009979248,-1.6817251644530238,-2.5269597212420862,2.281167193050049,-1.0178120771991175,-0.026365582142965138
1708440593.9390266,-1.105294942855835,-1.6817370853819789,-2.526914660130636,2.28110854207959,-1.0177925268756312,-0.02635366121401006
1708440593.9409926,-1.1053125858306885,-1.6817895374693812,-2.526964251195089,2.2810966211506347,-1.0177553335772913,-0.026340309773580373
1708440593.943011,-1.1052547693252563,-1.6818005047240199,-2.5269625822650355,2.2811292844959716,-1.0177796522723597,-0.026365582142965138
1708440593.945032,-1.1053245067596436,-1.6817237339415492,-2.5269010702716272,2.281092091197632,-1.0177925268756312,-0.026362244282857716
1708440593.9470346,-1.1053006649017334,-1.6817566357054652,-2.526968781148092,2.2810847002216796,-1.0177796522723597,-0.026378933583394826
1708440593.9490504,-1.1052547693252563,-1.6817237339415492,-2.526914660130636,2.2811292844959716,-1.0178001562701624,-0.026395146046773732
1708440593.9510014,-1.1053006649017334,-1.681728025475973,-2.5269761721240442,2.28110854207959,-1.01780873933901,-0.026369873677388966
1708440593.9530418,-1.10529625415802,-1.6817409000792445,-2.526931111012594,2.281120463008545,-1.0177672545062464,-0.026374165211812794
1708440593.9550025,-1.1053037643432617,-1.681718488732809,-2.526914660130636,2.281158371562622,-1.0177915732013147,-0.02635366121401006
1708440593.9570699,-1.105278730392456,-1.6817237339415492,-2.526938501988546,2.2811130720325927,-1.0177586714373987,-0.026357952748433888
1708440593.9590454,-1.1053200960159302,-1.6817566357054652,-2.526926581059591,2.281092091197632,-1.0177925268756312,-0.026369873677388966
1708440593.9610484,-1.1053037643432617,-1.6817976437010707,-2.52698523203005,2.28110854207959,-1.0177839438067835,-0.026329819356099904
1708440593.963015,-1.105308175086975,-1.6817409000792445,-2.5269761721240442,2.281087799663208,-1.0177958647357386,-0.02635366121401006
1708440593.964997,-1.105308175086975,-1.681732793847555,-2.526919190083639,2.281141920680664,-1.0178044478045862,-0.026369873677388966
1708440593.9670017,-1.10529625415802,-1.681793829003805,-2.526964251195089,2.2810966211506347,-1.0178001562701624,-0.02636272112001592
1708440593.9690278,-1.1052918434143066,-1.6817237339415492,-2.526931111012594,2.281059427852295,-1.0177510420428675,-0.02635366121401006
1708440593.9709895,-1.1052711009979248,-1.6817804775633753,-2.526910130177633,2.281124992961548,-1.0178044478045862,-0.026395146046773732
1708440593.973012,-1.1052755117416382,-1.6817895374693812,-2.5269551912890833,2.281087799663208,-1.01780873933901,-0.026395146046773732
1708440593.9750173,-1.10529625415802,-1.6817409000792445,-2.526947561894552,2.281149311656616,-1.0177715460406702,-0.026340786610738576
1708440593.9770029,-1.1053125858306885,-1.6817895374693812,-2.52698523203005,2.281162663097046,-1.0177925268756312,-0.02635366121401006
1708440593.9790256,-1.1052874326705933,-1.6817823849120082,-2.526919190083639,2.2811338144489746,-1.0178573767291468,-0.026386086140767873
1708440593.980988,-1.1052830219268799,-1.6816908321776332,-2.526926581059591,2.2811054426380615,-1.0177796522723597,-0.0263446013080042
1708440593.9830048,-1.10529625415802,-1.6817780933775843,-2.526935640965597,2.281162663097046,-1.0178120771991175,-0.026336495076314748
1708440593.9849958,-1.10529625415802,-1.6817523441710414,-2.526938501988546,2.281162901515625,-1.0178120771991175,-0.02634889284242803
1708440593.987004,-1.1052874326705933,-1.6817409000792445,-2.526973311101095,2.281042976970337,-1.0177715460406702,-0.026369873677388966
1708440593.9890087,-1.1052755117416382,-1.681765695611471,-2.526964251195089,2.2811130720325927,-1.0177882353412073,-0.02635366121401006
1708440593.9910023,-1.1052874326705933,-1.6817432842650355,-2.526910130177633,2.2810801702686767,-1.0178163687335413,-0.026365582142965138
1708440593.9930441,-1.105328917503357,-1.6817361317076625,-2.5269401709186,2.28110854207959,-1.0178001562701624,-0.02634889284242803
1708440593.9950151,-1.1052755117416382,-1.6817566357054652,-2.526914660130636,2.2811552721210937,-1.0177925268756312,-0.026345554982320607
1708440593.9970376,-1.1053439378738403,-1.6817451916136683,-2.526944700871603,2.2811011511036376,-1.0178325811969202,-0.026390854512349904
1708440593.9990258,-1.1053364276885986,-1.6816908321776332,-2.526910130177633,2.281104012126587,-1.0177672545062464,-0.02635366121401006
1708440594.0009904,-1.1053125858306885,-1.681711813012594,-2.526943031941549,2.281124992961548,-1.017771069203512,-0.026325050984517873
1708440594.0030136,-1.1052666902542114,-1.6817823849120082,-2.526938501988546,2.281075878734253,-1.017775837575094,-0.02635366121401006
1708440594.0050192,-1.1053200960159302,-1.6817361317076625,-2.5269010702716272,2.28110854207959,-1.0177915732013147,-0.02634889284242803
1708440594.007068,-1.1052799224853516,-1.6817237339415492,-2.526914660130636,2.281092091197632,-1.0177553335772913,-0.026294533406392873
1708440594.0090413,-1.105308175086975,-1.6817194424071253,-2.526919190083639,2.281149311656616,-1.0178206602679651,-0.0263446013080042
1708440594.011072,-1.1052918434143066,-1.6817194424071253,-2.526902739201681,2.28110854207959,-1.0178077856646937,-0.026386086140767873
1708440594.013038,-1.1052385568618774,-1.681728025475973,-2.526898209248678,2.2811292844959716,-1.0177925268756312,-0.02634889284242803
1708440594.015059,-1.105324387550354,-1.6817847690977992,-2.526928249989645,2.2811130720325927,-1.017775837575094,-0.026428047810689748
1708440594.0170052,-1.1052591800689697,-1.6817318401732386,-2.526919190083639,2.281158371562622,-1.0177672545062464,-0.02634889284242803
1708440594.019038,-1.1052993535995483,-1.6817566357054652,-2.526956621800558,2.281120463008545,-1.0177510420428675,-0.02635366121401006
1708440594.0210116,-1.105336308479309,-1.681732793847555,-2.526935640965597,2.2811338144489746,-1.0177467505084437,-0.026354614888326466
1708440594.0230134,-1.1052918434143066,-1.681793829003805,-2.526914660130636,2.281120463008545,-1.0178335348712366,-0.02634889284242803
1708440594.0250468,-1.1053483486175537,-1.6817165813841761,-2.5269551912890833,2.28107134878125,-1.0177844206439417,-0.026374165211812794
1708440594.0270274,-1.1052874326705933,-1.681760927239889,-2.526886049901144,2.28110854207959,-1.0177672545062464,-0.02633220354189092
1708440594.0290017,-1.1053200960159302,-1.6817237339415492,-2.526947561894552,2.2811383444019775,-1.0177467505084437,-0.02634889284242803
1708440594.0309927,-1.1052830219268799,-1.681732793847555,-2.526902739201681,2.2811338144489746,-1.0177715460406702,-0.026354614888326466
1708440594.033013,-1.1052874326705933,-1.6818062267699183,-2.526931111012594,2.281087799663208,-1.0177715460406702,-0.026395146046773732
1708440594.034997,-1.1053245067596436,-1.6817523441710414,-2.526956621800558,2.281158371562622,-1.0177925268756312,-0.026345554982320607
1708440594.0370238,-1.1053037643432617,-1.6817285023131312,-2.526919190083639,2.281042976970337,-1.0177715460406702,-0.026369873677388966
1708440594.0390353,-1.1053037643432617,-1.6817871532835902,-2.526943031941549,2.2811218935200195,-1.0177844206439417,-0.02635366121401006
1708440594.0410085,-1.1053006649017334,-1.6817733250060023,-2.526923720036642,2.281124992961548,-1.0177467505084437,-0.026381794606344044
1708440594.0430622,-1.105308175086975,-1.6817451916136683,-2.526881519948141,2.281158371562622,-1.0177925268756312,-0.0263446013080042
1708440594.045055,-1.1053364276885986,-1.681699892083639,-2.5269325415240687,2.281059427852295,-1.017775837575094,-0.026377026234762013
1708440594.0470736,-1.1053200960159302,-1.6817823849120082,-2.526928249989645,2.281078501338623,-1.0178044478045862,-0.026390854512349904
1708440594.0490627,-1.1053125858306885,-1.6817847690977992,-2.526907269154684,2.281050367946289,-1.0178001562701624,-0.026381794606344044
1708440594.0510433,-1.1053200960159302,-1.6817804775633753,-2.5269373098956507,2.281099482173584,-1.0177801291095179,-0.026360813771383107
1708440594.0530343,-1.1052993535995483,-1.6817237339415492,-2.5268786589251917,2.281063957805298,-1.0177801291095179,-0.02636272112001592
1708440594.055017,-1.1053245067596436,-1.6817013225951136,-2.5268741289721888,2.281083031291626,-1.017763916646139,-0.026403252278463185
1708440594.0570402,-1.1053200960159302,-1.6817895374693812,-2.526935640965597,2.281092091197632,-1.0178011099444788,-0.02636272112001592
1708440594.0591137,-1.105278730392456,-1.681758543054098,-2.526886049901144,2.281099482173584,-1.0178044478045862,-0.026369873677388966
1708440594.0610611,-1.105284333229065,-1.6817780933775843,-2.526902739201681,2.281099482173584,-1.0177272001849573,-0.0263446013080042
1708440594.0629997,-1.105308175086975,-1.6817647419371546,-2.526919190083639,2.2811173635670166,-1.0177510420428675,-0.026381794606344044
1708440594.0650337,-1.1053200960159302,-1.6817733250060023,-2.526902739201681,2.281092091197632,-1.0177801291095179,-0.026369873677388966
1708440594.0669892,-1.1052504777908325,-1.6817847690977992,-2.5268574396716517,2.281063957805298,-1.017763916646139,-0.026327435170308888
1708440594.0690162,-1.1053332090377808,-1.6817432842650355,-2.5268290678607386,2.28104750692334,-1.017763916646139,-0.026340786610738576
1708440594.0710146,-1.1052831411361694,-1.6817823849120082,-2.5268500486956995,2.281146450633667,-1.0177348295794886,-0.026381794606344044
1708440594.0730083,-1.1052579879760742,-1.6817432842650355,-2.5268710295306605,2.2810847002216796,-1.01774770418276,-0.026357952748433888
1708440594.0750034,-1.105278730392456,-1.6817895374693812,-2.5268262068377894,2.2811383444019775,-1.0177844206439417,-0.02633220354189092
1708440594.0770233,-1.1053245067596436,-1.6817780933775843,-2.526818815861837,2.2811130720325927,-1.0177810827838343,-0.026381794606344044
1708440594.0789993,-1.1053125858306885,-1.6817690334715785,-2.526839796696798,2.2810966211506347,-1.0177682081805628,-0.02635366121401006
1708440594.0809858,-1.1053037643432617,-1.6817690334715785,-2.526811424885885,2.2811173635670166,-1.0177519957171839,-0.02641469637026006
1708440594.0829988,-1.105352759361267,-1.6817165813841761,-2.526877228413717,2.2811011511036376,-1.017796818410055,-0.026320759450094044
1708440594.0850031,-1.1053037643432617,-1.6817871532835902,-2.52678090730776,2.2811264234730224,-1.0177844206439417,-0.0263446013080042
1708440594.0870035,-1.1052755117416382,-1.6817780933775843,-2.526832405720846,2.2811130720325927,-1.017763916646139,-0.0263446013080042
1708440594.089012,-1.1052874326705933,-1.6817194424071253,-2.526806894932882,2.2811173635670166,-1.0178216139422815,-0.026386086140767873
1708440594.0910642,-1.105308175086975,-1.6817757091917933,-2.526789967213766,2.2810847002216796,-1.01772386232485,-0.02634889284242803
1708440594.0930233,-1.1053245067596436,-1.6817523441710414,-2.526785437260763,2.2811130720325927,-1.017763916646139,-0.026418987904683888
1708440594.095015,-1.10529625415802,-1.6817523441710414,-2.526827875767843,2.2811145025440673,-1.0177519957171839,-0.026390854512349904
1708440594.0970647,-1.1052993535995483,-1.6817733250060023,-2.526832405720846,2.2810847002216796,-1.0177844206439417,-0.02635366121401006
1708440594.0991144,-1.1052547693252563,-1.6817194424071253,-2.526853386555807,2.2810401159473876,-1.0177443663226526,-0.02634889284242803
1708440594.101057,-1.1053200960159302,-1.6817146740355433,-2.526832405720846,2.28104750692334,-1.017735783253805,-0.026369873677388966
1708440594.1030557,-1.1052711009979248,-1.6817523441710414,-2.526832405720846,2.2810563284107666,-1.0177682081805628,-0.026345554982320607
1708440594.1050458,-1.1052755117416382,-1.6818090877928675,-2.526832405720846,2.281046076411865,-1.0177562872516077,-0.02635366121401006
1708440594.107084,-1.1052591800689697,-1.6817690334715785,-2.526815954838888,2.281029148692749,-1.01774770418276,-0.026329819356099904
1708440594.109037,-1.1052473783493042,-1.6817647419371546,-2.5267871061908167,2.280970736140869,-1.017735783253805,-0.02634889284242803
1708440594.1110587,-1.1052769422531128,-1.6817599735655726,-2.526806894932882,2.2809454637714843,-1.0177562872516077,-0.026374165211812794
1708440594.113024,-1.105263590812683,-1.681711813012594,-2.52682334581484,2.281029148692749,-1.0177400747882288,-0.026345554982320607
1708440594.1150005,-1.1052756309509277,-1.6817895374693812,-2.5267825762378138,2.280988855952881,-1.0177810827838343,-0.0263293425189417
1708440594.1170392,-1.1052606105804443,-1.6817895374693812,-2.526853386555807,2.280918999309204,-1.0177367369281214,-0.026374165211812794
1708440594.11903,-1.1052547693252563,-1.6817981205382289,-2.5268035570727747,2.280935211772583,-1.0177400747882288,-0.02633220354189092
1708440594.1210027,-1.1052976846694946,-1.6817566357054652,-2.526785437260763,2.2808987337299804,-1.0177000204669397,-0.026374165211812794
1708440594.1230521,-1.105284333229065,-1.6817690334715785,-2.526820484791891,2.2809366422840576,-1.0177367369281214,-0.026317421589986623
1708440594.1250064,-1.1052813529968262,-1.6818257770934046,-2.526815954838888,2.2809530931660156,-1.017735783253805,-0.026325050984517873
1708440594.1270347,-1.105284333229065,-1.6817823849120082,-2.526789967213766,2.2809032636829834,-1.0177486578570765,-0.026345554982320607
1708440594.1289873,-1.1052273511886597,-1.6817733250060023,-2.526841465626852,2.2809151846119384,-1.0177529493915003,-0.026345554982320607
1708440594.1309857,-1.1051946878433228,-1.6817342243590296,-2.526773516331808,2.2809411722370605,-1.0177529493915003,-0.026387516652242482
1708440594.132999,-1.1052606105804443,-1.6817733250060023,-2.526839796696798,2.2809502321430664,-1.0177119413958948,-0.026317421589986623
1708440594.1350079,-1.1052228212356567,-1.6817928753294886,-2.526811424885885,2.280926390285156,-1.0177443663226526,-0.026358906422750294
1708440594.1370041,-1.1052110195159912,-1.6817432842650355,-2.5267661253558558,2.2809411722370605,-1.0177844206439417,-0.026362244282857716
1708440594.1390202,-1.105231761932373,-1.681760927239889,-2.5267916361438196,2.2809530931660156,-1.017658535634176,-0.026398483906881154
1708440594.141006,-1.1052436828613281,-1.6818300686278285,-2.5267871061908167,2.2809077936359863,-1.01772386232485,-0.026378933583394826
1708440594.1430607,-1.1052405834197998,-1.6817895374693812,-2.526815954838888,2.2809151846119384,-1.017707649861471,-0.026329819356099904
1708440594.1450672,-1.1051708459854126,-1.6817971668639125,-2.526827875767843,2.2809411722370605,-1.0177400747882288,-0.026367012654439748
1708440594.1470907,-1.1052123308181763,-1.6817647419371546,-2.526825014744894,2.280937834376953,-1.0177162329303187,-0.026329819356099904
1708440594.1490395,-1.1051677465438843,-1.6817733250060023,-2.526827875767843,2.28093330442395,-1.0177400747882288,-0.026334110890523732
1708440594.1510012,-1.1051796674728394,-1.6817237339415492,-2.526815954838888,2.280888004893921,-1.0177000204669397,-0.026297871266500294
1708440594.153056,-1.105179786682129,-1.6817599735655726,-2.526836935673849,2.280871792430542,-1.0177367369281214,-0.0262835661517542
1708440594.1550503,-1.1052004098892212,-1.6817409000792445,-2.526806894932882,2.2808970647999267,-1.0176799933062952,-0.026319328938619435
1708440594.1570957,-1.1051270961761475,-1.6817566357054652,-2.526815954838888,2.280892534846924,-1.0177043120013636,-0.02632171312441045
1708440594.159034,-1.1051597595214844,-1.6817895374693812,-2.526799027119772,2.2809223371693115,-1.0176671187030237,-0.026292149220601857
1708440594.161057,-1.105143427848816,-1.681718488732809,-2.526802364979879,2.280946894282959,-1.0177086035357874,-0.026367012654439748
1708440594.1630113,-1.1051344871520996,-1.6817895374693812,-2.526802364979879,2.280838890666626,-1.0176919142352503,-0.026288811360494435
1708440594.1650257,-1.1051359176635742,-1.6817757091917933,-2.526778046284811,2.2808567720600585,-1.0176714102374476,-0.026305977498189748
1708440594.1670287,-1.105181097984314,-1.6817361317076625,-2.52682334581484,2.2808613020130615,-1.0177119413958948,-0.02626973787416631
1708440594.1689978,-1.1051685810089111,-1.6817823849120082,-2.52682334581484,2.2808219629475097,-1.0177086035357874,-0.026248757039205373
1708440594.1710222,-1.1051685810089111,-1.6817804775633753,-2.526839796696798,2.2808732229420166,-1.0177128950702112,-0.0262530485736292
1708440594.1730032,-1.105106234550476,-1.6817895374693812,-2.526827875767843,2.280857725734375,-1.0177205244647425,-0.02626973787416631
1708440594.174998,-1.1051522493362427,-1.6817361317076625,-2.526835266743795,2.2808117109486084,-1.0177291075335901,-0.02618104616274053
1708440594.176987,-1.1051359176635742,-1.6817389927306117,-2.526815954838888,2.280816002483032,-1.0176919142352503,-0.026213947926656544
1708440594.1790175,-1.1051284074783325,-1.6817342243590296,-2.5267871061908167,2.280825062389038,-1.0177248159991663,-0.026217285786763966
1708440594.180983,-1.1050869226455688,-1.6817804775633753,-2.526799027119772,2.280829353923462,-1.0177043120013636,-0.026233498250142873
1708440594.1829963,-1.105112075805664,-1.6817847690977992,-2.526778046284811,2.280836983317993,-1.0176551977740687,-0.026209656392232716
1708440594.1849928,-1.1050957441329956,-1.6817733250060023,-2.526794497166769,2.280817432994507,-1.0177086035357874,-0.02624684969057256
1708440594.1869943,-1.1051416397094727,-1.6817623577513636,-2.526806894932882,2.280857725734375,-1.0177162329303187,-0.026209656392232716
1708440594.18901,-1.105100154876709,-1.6817928753294886,-2.5268142859088343,2.280816002483032,-1.0176919142352503,-0.02624208131899053
1708440594.1909873,-1.1050926446914673,-1.6817475757994593,-2.526773516331808,2.28083245336499,-1.0177367369281214,-0.026192967091695607
1708440594.1930633,-1.1051298379898071,-1.681741853753561,-2.5267632643329065,2.280754967326782,-1.0177162329303187,-0.026226345692769826
1708440594.1950529,-1.1050386428833008,-1.6818138561644496,-2.5268080870257776,2.280792160625122,-1.0176714102374476,-0.026217285786763966
1708440594.197053,-1.1050763130187988,-1.6817556820311488,-2.526836935673849,2.280756397838257,-1.0176671187030237,-0.026197258626119435
1708440594.1990435,-1.1050896644592285,-1.6817928753294886,-2.526768986378805,2.28078476964917,-1.0177086035357874,-0.02618104616274053
1708440594.2010734,-1.1050763130187988,-1.6817556820311488,-2.526778046284811,2.2808264929005126,-1.0176757017718714,-0.026157204304830373
1708440594.2030225,-1.105068325996399,-1.6817647419371546,-2.5267706553088587,2.280759497279785,-1.0176551977740687,-0.02618581453432256
1708440594.2050748,-1.1050771474838257,-1.6818019352354945,-2.526815954838888,2.2807773786732177,-1.0176680723773401,-0.026190106068746388
1708440594.2071004,-1.1050193309783936,-1.6817599735655726,-2.526806894932882,2.2807819086262207,-1.0176885763751429,-0.026173893605367482
1708440594.2090538,-1.1050400733947754,-1.6818047962584437,-2.5268080870257776,2.2807609277912597,-1.0176518599139612,-0.026152912770406544
1708440594.2110581,-1.1049835681915283,-1.6817804775633753,-2.526832405720846,2.2807320791431884,-1.017656151448385,-0.0261767546283167
1708440594.213091,-1.10499107837677,-1.6818257770934046,-2.526794497166769,2.2807819086262207,-1.0176928679095667,-0.026209656392232716
1708440594.2150311,-1.10499107837677,-1.6817928753294886,-2.526799027119772,2.280772848720215,-1.0176637808429163,-0.026223007832662404
1708440594.2170374,-1.1049954891204834,-1.681751390496725,-2.526815954838888,2.2806667524525146,-1.017717186604635,-0.026251141224996388
1708440594.219018,-1.1049998998641968,-1.6818047962584437,-2.526865307484762,2.2807530599781494,-1.0176876227008265,-0.026190106068746388
1708440594.221013,-1.105036973953247,-1.6817804775633753,-2.5268035570727747,2.2806946474262695,-1.0177047888385218,-0.026213947926656544
1708440594.2230523,-1.1049998998641968,-1.6818167171873988,-2.5267916361438196,2.2807110983082275,-1.017700497304098,-0.026239697133199513
1708440594.2250185,-1.1050043106079102,-1.6817671261229457,-2.5267542044269007,2.2807366090961914,-1.0176237265216272,-0.026211086903707326
1708440594.2270322,-1.1049880981445312,-1.681779523889059,-2.526832405720846,2.280729218120239,-1.0176594893084925,-0.026213947926656544
1708440594.2290301,-1.1049879789352417,-1.6818257770934046,-2.5268142859088343,2.2807530599781494,-1.0177214781390589,-0.026223007832662404
1708440594.2309773,-1.1049835681915283,-1.6818167171873988,-2.526806894932882,2.280759020442627,-1.0176637808429163,-0.026199165974752248
1708440594.2329965,-1.105025053024292,-1.6817976437010707,-2.526794497166769,2.2807411390491943,-1.0176766554461878,-0.026218716298238576
1708440594.2349823,-1.104942798614502,-1.681838174859518,-2.526799027119772,2.2807082372852783,-1.0176962057696741,-0.026199165974752248
1708440594.2370143,-1.1049753427505493,-1.681838174859518,-2.5267871061908167,2.2806948858448486,-1.0176594893084925,-0.02616912523378545
1708440594.2389846,-1.104954719543457,-1.6818391285338343,-2.526836935673849,2.280787869090698,-1.0176680723773401,-0.02616006532777959
1708440594.2409856,-1.1049933433532715,-1.6818047962584437,-2.5268080870257776,2.280717297191284,-1.0176551977740687,-0.026194397603170216
1708440594.2430816,-1.1049680709838867,-1.6817957363524378,-2.526794497166769,2.2807037073322753,-1.0176962057696741,-0.026166264210836232
1708440594.2450104,-1.1050057411193848,-1.6818210087218226,-2.5267871061908167,2.280749960536621,-1.0176518599139612,-0.026223007832662404
1708440594.2470567,-1.104934811592102,-1.6817671261229457,-2.5268080870257776,2.2806801038929443,-1.0176766554461878,-0.026206318532125294
1708440594.2490485,-1.1049798727035522,-1.6817928753294886,-2.526811424885885,2.280712767238281,-1.017672363911764,-0.026173893605367482
1708440594.2510054,-1.1049636602401733,-1.6818210087218226,-2.526794497166769,2.2807201582142334,-1.0176962057696741,-0.02616912523378545
1708440594.2530067,-1.1049517393112183,-1.681840559045309,-2.5268035570727747,2.280729218120239,-1.017700497304098,-0.026194397603170216
1708440594.2550466,-1.1049695014953613,-1.6818586788573207,-2.526764456425802,2.2807246881672363,-1.017672363911764,-0.026140515004293263
1708440594.2571042,-1.1049754619598389,-1.6818448505797328,-2.52675706544985,2.2807411390491943,-1.0176356474505823,-0.026194397603170216
1708440594.2590451,-1.1049050092697144,-1.681807657281393,-2.5267825762378138,2.280761881465576,-1.017684284840719,-0.02617198625673467
1708440594.2610097,-1.10492742061615,-1.681829114953512,-2.526806894932882,2.280717297191284,-1.017717186604635,-0.026223007832662404
1708440594.2630281,-1.1050103902816772,-1.6818210087218226,-2.526832405720846,2.2806801038929443,-1.0176604429828089,-0.02618104616274053
1708440594.264994,-1.1049094200134277,-1.681803365746969,-2.526827875767843,2.280717297191284,-1.0176885763751429,-0.02617818513979131
1708440594.2670014,-1.1049888134002686,-1.6818248234190882,-2.526778046284811,2.2806545931049804,-1.0176356474505823,-0.02616912523378545
1708440594.2690313,-1.1049065589904785,-1.6818539104857386,-2.526832405720846,2.280749960536621,-1.0176962057696741,-0.026166264210836232
1708440594.2710257,-1.104934811592102,-1.6817990742125453,-2.526799027119772,2.280700846309326,-1.0176799933062952,-0.026148144398824513
1708440594.2730448,-1.1049392223358154,-1.681840559045309,-2.526794497166769,2.280745430583618,-1.0176833311664026,-0.026190106068746388
1708440594.2750108,-1.1049933433532715,-1.6818200550475062,-2.526811424885885,2.280745430583618,-1.0176637808429163,-0.026206318532125294
1708440594.277026,-1.1049933433532715,-1.6818825207152308,-2.526853386555807,2.2806874948688964,-1.017733399068014,-0.026194397603170216
1708440594.2790198,-1.1049318313598633,-1.6817823849120082,-2.5268035570727747,2.2807246881672363,-1.0176551977740687,-0.026208225880758107
1708440594.2809994,-1.1049561500549316,-1.6818157635130824,-2.526773516331808,2.2806755739399414,-1.0176919142352503,-0.026149574910299123
1708440594.2830033,-1.1049680709838867,-1.681831499139303,-2.526815954838888,2.2807082372852783,-1.017684284840719,-0.026194397603170216
1708440594.2850015,-1.1049481630325317,-1.6818257770934046,-2.526761595402853,2.2806801038929443,-1.0177086035357874,-0.026140515004293263
1708440594.2870297,-1.104942798614502,-1.6818448505797328,-2.526832405720846,2.2807158666798095,-1.017630402241842,-0.02616912523378545
1708440594.2890253,-1.1049110889434814,-1.681862016717428,-2.526781145726339,2.280677004451416,-1.017717186604635,-0.026157204304830373
1708440594.2910104,-1.1049888134002686,-1.6817957363524378,-2.526841465626852,2.2806710439869384,-1.0177086035357874,-0.026166264210836232
1708440594.2930331,-1.1049606800079346,-1.681829114953512,-2.526811424885885,2.2807246881672363,-1.017717186604635,-0.026199165974752248
1708440594.295035,-1.1049437522888184,-1.681833883325094,-2.52682334581484,2.280738039607666,-1.0176799933062952,-0.026149574910299123
1708440594.2970324,-1.1049724817276,-1.681868692437643,-2.526785437260763,2.280733509654663,-1.0176432768451136,-0.026157204304830373
1708440594.2990508,-1.1049318313598633,-1.681857248345846,-2.526827875767843,2.2807201582142334,-1.0176714102374476,-0.02618724504579717
1708440594.3010485,-1.10492742061615,-1.6817871532835902,-2.526869837437765,2.2807833391376953,-1.0176432768451136,-0.02612001100649053
1708440594.3030038,-1.104922890663147,-1.681866308251852,-2.526835266743795,2.280733509654663,-1.0176919142352503,-0.026203457509176076
1708440594.3050568,-1.10492742061615,-1.6818109951415003,-2.526806894932882,2.2806710439869384,-1.0176799933062952,-0.02617818513979131
1708440594.3070555,-1.1049695014953613,-1.6818448505797328,-2.5267825762378138,2.2807201582142334,-1.0177128950702112,-0.026152912770406544
1708440594.3090284,-1.1049680709838867,-1.681868692437643,-2.52686053911318,2.280712767238281,-1.0177086035357874,-0.026173893605367482
1708440594.3110528,-1.1049473285675049,-1.6818496189513148,-2.526789967213766,2.280712767238281,-1.0177128950702112,-0.02618295351137334
1708440594.313004,-1.104934811592102,-1.6817885837950648,-2.5268142859088343,2.280733509654663,-1.0176919142352503,-0.026148144398824513
1708440594.3150048,-1.1049184799194336,-1.681894441644186,-2.526811424885885,2.280712767238281,-1.0176509062396448,-0.02617818513979131
1708440594.3169944,-1.1049110889434814,-1.681873460809225,-2.526827875767843,2.280646486873291,-1.0176833311664026,-0.026219669972554982
1708440594.3190243,-1.1049977540969849,-1.6818529568114222,-2.526789967213766,2.2806801038929443,-1.0176509062396448,-0.026203457509176076
1708440594.320996,-1.1049724817276,-1.6818157635130824,-2.526799027119772,2.280745430583618,-1.0177205244647425,-0.02617532411684209
1708440594.3230388,-1.104934811592102,-1.6818248234190882,-2.526794497166769,2.2807082372852783,-1.0176962057696741,-0.026166264210836232
1708440594.325042,-1.1049473285675049,-1.681862016717428,-2.526773516331808,2.280733509654663,-1.0177410284625452,-0.026215378438131154
1708440594.3269882,-1.1049140691757202,-1.681798597375387,-2.526839796696798,2.2807110983082275,-1.0176876227008265,-0.026149574910299123
1708440594.3289962,-1.1049724817276,-1.681862016717428,-2.526844326649801,2.2806920248218994,-1.0176714102374476,-0.026190106068746388
1708440594.330989,-1.1049814224243164,-1.6818167171873988,-2.526799027119772,2.2807039457508544,-1.0176714102374476,-0.02614480653871709
1708440594.3330271,-1.105014681816101,-1.681857248345846,-2.52682334581484,2.2807158666798095,-1.0177367369281214,-0.02614480653871709
1708440594.335017,-1.1049754619598389,-1.681857248345846,-2.526825014744894,2.280758782024048,-1.0177691618548792,-0.026152912770406544
1708440594.3369987,-1.1049636602401733,-1.681859632531637,-2.526815954838888,2.280684395427368,-1.0176919142352503,-0.026157204304830373
1708440594.338992,-1.1049561500549316,-1.6818529568114222,-2.526827875767843,2.280761881465576,-1.0176671187030237,-0.026191536580220998
1708440594.340981,-1.1049184799194336,-1.6818529568114222,-2.526839796696798,2.2807530599781494,-1.017695728932516,-0.02617818513979131
1708440594.343031,-1.104934811592102,-1.6818167171873988,-2.5268035570727747,2.2806994157978515,-1.0176757017718714,-0.026152912770406544
1708440594.3450136,-1.1049888134002686,-1.681862016717428,-2.526848856602804,2.2807411390491943,-1.0177410284625452,-0.026190106068746388
1708440594.3470283,-1.1049606800079346,-1.681864400903219,-2.526844326649801,2.2807275491901855,-1.0176876227008265,-0.026166264210836232
1708440594.3490236,-1.1049844026565552,-1.681859632531637,-2.526811424885885,2.280712767238281,-1.0176876227008265,-0.02614480653871709
1708440594.3509989,-1.1050087213516235,-1.681873460809225,-2.526839796696798,2.280749960536621,-1.0176919142352503,-0.026173893605367482
1708440594.3530262,-1.104992389678955,-1.6818448505797328,-2.5268307367907923,2.2807201582142334,-1.017674748097555,-0.026129070912496388
1708440594.3550127,-1.1050013303756714,-1.6818448505797328,-2.52682334581484,2.2807485300251464,-1.0177562872516077,-0.026157204304830373
1708440594.3570278,-1.1049844026565552,-1.681864400903219,-2.526815954838888,2.2807411390491943,-1.0177658239947718,-0.02615815797914678
1708440594.359013,-1.104996919631958,-1.6818248234190882,-2.526799027119772,2.2807788091846923,-1.017707649861471,-0.026207749043599904
1708440594.360995,-1.1049799919128418,-1.6818486652769984,-2.5268517176257532,2.2807485300251464,-1.0177119413958948,-0.026215378438131154
1708440594.3629978,-1.1049184799194336,-1.681862016717428,-2.526839796696798,2.280749960536621,-1.017745319996969,-0.026199165974752248
1708440594.364995,-1.1049754619598389,-1.681864400903219,-2.5267980734454554,2.2807366090961914,-1.0177162329303187,-0.02618724504579717
1708440594.3670235,-1.104981541633606,-1.6818825207152308,-2.5267825762378138,2.280745430583618,-1.0177248159991663,-0.026129070912496388
1708440594.3690329,-1.1049383878707886,-1.6818200550475062,-2.526839796696798,2.2807654577442626,-1.017707649861471,-0.026211086903707326
1708440594.3709824,-1.1049888134002686,-1.681857248345846,-2.52682334581484,2.2807366090961914,-1.0177281538592737,-0.026190106068746388
1708440594.373,-1.1050013303756714,-1.681840559045309,-2.526802364979879,2.2807699876972656,-1.0177400747882288,-0.02616912523378545
1708440594.3750048,-1.104922890663147,-1.681873460809225,-2.526778046284811,2.280756397838257,-1.0177767912494105,-0.026215378438131154
1708440594.3770308,-1.1049970388412476,-1.6818486652769984,-2.5268142859088343,2.2807819086262207,-1.0177162329303187,-0.026203457509176076
1708440594.3790512,-1.1049888134002686,-1.681831499139303,-2.526806894932882,2.2807411390491943,-1.0177000204669397,-0.026194397603170216
1708440594.381005,-1.1049591302871704,-1.6818200550475062,-2.5268636385547083,2.2807394701191406,-1.017695728932516,-0.02623635927309209
1708440594.3829875,-1.1049954891204834,-1.681812425652975,-2.526839796696798,2.280768318767212,-1.0177205244647425,-0.026149574910299123
1708440594.3849967,-1.1050013303756714,-1.681803365746969,-2.52682334581484,2.2807275491901855,-1.017691437398092,-0.026215378438131154
1708440594.3870273,-1.1049844026565552,-1.681894918481344,-2.526827875767843,2.28074757635083,-1.0177443663226526,-0.026157204304830373
1708440594.3890226,-1.104996919631958,-1.681873460809225,-2.5268681685077112,2.2807275491901855,-1.0177205244647425,-0.02618581453432256
1708440594.3909984,-1.1049879789352417,-1.6818777523436488,-2.5268142859088343,2.2807909685322265,-1.017745319996969,-0.026206318532125294
1708440594.3930144,-1.1049754619598389,-1.6818448505797328,-2.526835266743795,2.280730648631714,-1.0177486578570765,-0.026164833699361623
1708440594.3950255,-1.1049879789352417,-1.681836267510885,-2.526789967213766,2.2807819086262207,-1.0177162329303187,-0.026190106068746388
1708440594.3970447,-1.1050325632095337,-1.681868692437643,-2.526860777531759,2.280772848720215,-1.0177281538592737,-0.026157204304830373
1708440594.3990264,-1.1050118207931519,-1.681840559045309,-2.526839796696798,2.280726118678711,-1.0177119413958948,-0.026206318532125294
1708440594.4010177,-1.1050533056259155,-1.6818248234190882,-2.526806894932882,2.2807304102131347,-1.0177648703204554,-0.026202026997701466
1708440594.4030457,-1.1050162315368652,-1.6818224392332972,-2.526806894932882,2.2807909685322265,-1.017691437398092,-0.026164833699361623
1708440594.4050188,-1.105057716369629,-1.6818777523436488,-2.526835266743795,2.280801220531128,-1.017735783253805,-0.026199165974752248
1708440594.4070985,-1.1050564050674438,-1.681831499139303,-2.526827875767843,2.280754967326782,-1.0177519957171839,-0.02618581453432256
1708440594.409033,-1.105069637298584,-1.681866308251852,-2.526856247578756,2.2808100420185546,-1.0177724997149866,-0.02618581453432256
1708440594.411007,-1.1050608158111572,-1.681831499139303,-2.52682334581484,2.2807773786732177,-1.0177930037127894,-0.026232067738668263
1708440594.4130259,-1.1050852537155151,-1.681833883325094,-2.526818815861837,2.2807833391376953,-1.0177314917193812,-0.026199165974752248
1708440594.4150107,-1.1050652265548706,-1.681840559045309,-2.526844326649801,2.280792160625122,-1.017735783253805,-0.026173893605367482
1708440594.4170415,-1.1050149202346802,-1.681911130944723,-2.52682334581484,2.2808546262928466,-1.017796818410055,-0.026190106068746388
1708440594.4190414,-1.1050896644592285,-1.681859632531637,-2.526818815861837,2.280862255687378,-1.01774770418276,-0.026218716298238576
1708440594.4210517,-1.1050639152526855,-1.681866308251852,-2.526794497166769,2.280853195781372,-1.0177925268756312,-0.026190106068746388
1708440594.4230285,-1.1050719022750854,-1.681857248345846,-2.526802364979879,2.2808987337299804,-1.017763916646139,-0.0261614958392542
1708440594.4250083,-1.105047583580017,-1.681831499139303,-2.526832405720846,2.2808894354053955,-1.0177391211139124,-0.026157204304830373
1708440594.4270198,-1.1050808429718018,-1.681868692437643,-2.526815954838888,2.2808894354053955,-1.0177767912494105,-0.026194397603170216
1708440594.4290106,-1.105040192604065,-1.6818438969054164,-2.5268097559558313,2.2808970647999267,-1.0177510420428675,-0.026190106068746388
1708440594.4309957,-1.1050639152526855,-1.6818248234190882,-2.5267890135394495,2.280843420619629,-1.0177844206439417,-0.02618581453432256
1708440594.4330163,-1.1050719022750854,-1.6818496189513148,-2.526806894932882,2.2808760839649658,-1.01774770418276,-0.026235405598775685
1708440594.435004,-1.1050639152526855,-1.6818777523436488,-2.5268262068377894,2.2809178072163085,-1.017775837575094,-0.026197258626119435
1708440594.43702,-1.1050519943237305,-1.681857248345846,-2.5268307367907923,2.2808851438709716,-1.0177434126483362,-0.026226345692769826
1708440594.4390292,-1.1050639152526855,-1.681923051873678,-2.5267980734454554,2.280838890666626,-1.0177391211139124,-0.026222054158345998
1708440594.4410148,-1.1050763130187988,-1.681862016717428,-2.526835266743795,2.2808732229420166,-1.017763916646139,-0.026223007832662404
1708440594.4430282,-1.1051135063171387,-1.681862016717428,-2.5268097559558313,2.2808760839649658,-1.017796818410055,-0.026218716298238576
1708440594.445007,-1.1051015853881836,-1.681868692437643,-2.526835266743795,2.28093330442395,-1.0178206602679651,-0.026202026997701466
1708440594.4470458,-1.105082631111145,-1.681803365746969,-2.526856247578756,2.280925913447998,-1.0178044478045862,-0.02616912523378545
1708440594.449037,-1.1050808429718018,-1.6818438969054164,-2.5268006960498255,2.280883474940918,-1.0178163687335413,-0.026239697133199513
1708440594.4510217,-1.105088233947754,-1.6818067036070765,-2.52682334581484,2.280892534846924,-1.0177839438067835,-0.026235405598775685
1708440594.4530306,-1.1050549745559692,-1.681857248345846,-2.5268681685077112,2.280925913447998,-1.0178206602679651,-0.026276890431539357
1708440594.4550242,-1.1050957441329956,-1.6818820438780726,-2.52682334581484,2.280942364329956,-1.0178974310504358,-0.026222054158345998
1708440594.457039,-1.105105996131897,-1.681857248345846,-2.52682334581484,2.280912323588989,-1.0178001562701624,-0.026163403187887013
1708440594.4591088,-1.1050719022750854,-1.681829114953512,-2.5268054644214075,2.280859871501587,-1.0178120771991175,-0.02627259889711553
1708440594.4610312,-1.1050719022750854,-1.6818448505797328,-2.52682334581484,2.280908985728882,-1.0178239981280726,-0.0262377897845667
1708440594.4629998,-1.1050838232040405,-1.681807657281393,-2.526789967213766,2.28093330442395,-1.0178077856646937,-0.02618438402284795
1708440594.4650059,-1.105088233947754,-1.681831499139303,-2.5268426577197474,2.2809077936359863,-1.0178077856646937,-0.026226345692769826
1708440594.467015,-1.105088233947754,-1.681873460809225,-2.52682334581484,2.2809550005146484,-1.0177949110614222,-0.026233498250142873
1708440594.469007,-1.1050838232040405,-1.6818157635130824,-2.526835266743795,2.2809077936359863,-1.017815415059225,-0.02619630495180303
1708440594.4710174,-1.105067491531372,-1.681894441644186,-2.526835266743795,2.280888004893921,-1.0178316275226038,-0.026217285786763966
1708440594.4730458,-1.1050957441329956,-1.6818486652769984,-2.526844326649801,2.28093330442395,-1.0178077856646937,-0.02617961565126592
1708440594.4750123,-1.1050794124603271,-1.681890150109762,-2.526835266743795,2.280942364329956,-1.0178521315204065,-0.02624208131899053
1708440594.4770231,-1.105100154876709,-1.681831499139303,-2.526860777531759,2.28093330442395,-1.0177915732013147,-0.02626353899110967
1708440594.479035,-1.1050870418548584,-1.6818777523436488,-2.5268636385547083,2.2809459406086425,-1.017811123524801,-0.026278320943013966
1708440594.4810007,-1.1050913333892822,-1.681906362573141,-2.5268381277667444,2.280916853541992,-1.0178478399859827,-0.026279751454488576
1708440594.4830227,-1.105132818222046,-1.681836267510885,-2.5268216768847864,2.2809457021900634,-1.0178034941302698,-0.026266400014058888
1708440594.4849973,-1.1050751209259033,-1.681831499139303,-2.5268681685077112,2.2809695440479736,-1.0178316275226038,-0.026257816945211232
1708440594.4870243,-1.1051032543182373,-1.6818248234190882,-2.5268545786487024,2.2809197145649414,-1.0178316275226038,-0.026287380849019826
1708440594.4890203,-1.1050838232040405,-1.6818529568114222,-2.5268545786487024,2.2809712129780273,-1.0178564230548304,-0.02626210847963506
1708440594.4910038,-1.1051089763641357,-1.6818272076048792,-2.5268636385547083,2.280916853541992,-1.0178435484515589,-0.026274029408590138
1708440594.4930513,-1.105112075805664,-1.6818272076048792,-2.5268681685077112,2.280937834376953,-1.0178921858416956,-0.02626973787416631
1708440594.4950006,-1.105112075805664,-1.6818496189513148,-2.526818815861837,2.280890627498291,-1.01782733598818,-0.026311222706929982
1708440594.4970713,-1.1050719022750854,-1.681873460809225,-2.5268471876727503,2.280959292049072,-1.017839256917135,-0.026274029408590138
1708440594.499051,-1.105112075805664,-1.681868692437643,-2.5268591086017054,2.280928774470947,-1.0178263823138636,-0.026310269032613576
1708440594.5010421,-1.1051164865493774,-1.681894441644186,-2.5268681685077112,2.2809457021900634,-1.017855469380514,-0.026284519826070607
1708440594.503065,-1.105100154876709,-1.681866308251852,-2.5268216768847864,2.280942364329956,-1.0178597609149378,-0.02632600465883428
1708440594.5050142,-1.105132818222046,-1.6818777523436488,-2.526889149342672,2.280886335963867,-1.017839256917135,-0.02633840242494756
1708440594.5070584,-1.105100154876709,-1.681890150109762,-2.5268922487842005,2.2809621530720214,-1.01782733598818,-0.026301209126607716
1708440594.509029,-1.1050838232040405,-1.6818815670409144,-2.5268381277667444,2.280895395869873,-1.0178640524493616,-0.026371304188863576
1708440594.5110152,-1.1050913333892822,-1.681836267510885,-2.5268922487842005,2.280899925822876,-1.0178468863116663,-0.02632171312441045
1708440594.5130494,-1.1051164865493774,-1.6818815670409144,-2.5268831888781946,2.28093330442395,-1.0178435484515589,-0.026329819356099904
1708440594.5150115,-1.1051208972930908,-1.681894441644186,-2.526935640965597,2.2809604841419677,-1.017883602772848,-0.026329819356099904
1708440594.517035,-1.1051076650619507,-1.681857248345846,-2.526919190083639,2.2809411722370605,-1.017900292073385,-0.02628785768617803
1708440594.5190046,-1.1050631999969482,-1.6818496189513148,-2.526926581059591,2.2809323507496337,-1.0178511778460901,-0.026345554982320607
1708440594.5209973,-1.1050630807876587,-1.6818486652769984,-2.526935640965597,2.2809576231190185,-1.0178630987750452,-0.026378933583394826
1708440594.5230274,-1.1050957441329956,-1.681868692437643,-2.526938501988546,2.2809857565113525,-1.0178511778460901,-0.026340786610738576
1708440594.5249982,-1.105132818222046,-1.681840559045309,-2.526889149342672,2.280925913447998,-1.0178349653827112,-0.026301209126607716
1708440594.5269952,-1.1050794124603271,-1.681836267510885,-2.5269883314715784,2.280928774470947,-1.0178640524493616,-0.02633840242494756
1708440594.529015,-1.1051076650619507,-1.681831499139303,-2.5269716421710413,2.280928774470947,-1.0178845564471644,-0.026354614888326466
1708440594.5309951,-1.105100154876709,-1.6818977795042933,-2.5269671122180384,2.280937834376953,-1.0178478399859827,-0.02633840242494756
1708440594.5329957,-1.1051284074783325,-1.6818248234190882,-2.5269551912890833,2.2809242445179443,-1.0178964773761194,-0.026354614888326466
1708440594.534998,-1.105082631111145,-1.6818634472289027,-2.5269702116595667,2.2809197145649414,-1.0178964773761194,-0.026367012654439748
1708440594.5370066,-1.1051251888275146,-1.6818858585753382,-2.5269580523120325,2.2809457021900634,-1.0178597609149378,-0.026358906422750294
1708440594.5390425,-1.1050543785095215,-1.681899210015768,-2.5269866625415247,2.2808989721485595,-1.0178716818438929,-0.026329819356099904
1708440594.5410314,-1.105141520500183,-1.681840559045309,-2.5269838015185755,2.2809621530720214,-1.017867390309469,-0.026387516652242482
1708440594.5430639,-1.1050838232040405,-1.6818529568114222,-2.5269625822650355,2.280912323588989,-1.0178511778460901,-0.02636272112001592
1708440594.545027,-1.1051208972930908,-1.681862016717428,-2.5269747416125696,2.2809576231190185,-1.0178468863116663,-0.02634746233095342
1708440594.5470526,-1.1050750017166138,-1.6818005047240199,-2.5269625822650355,2.2809621530720214,-1.017855469380514,-0.02634317079652959
1708440594.549076,-1.1051490306854248,-1.681840559045309,-2.5270076433764856,2.280899925822876,-1.0178759733783167,-0.02631265321840459
1708440594.5510232,-1.105132818222046,-1.681864400903219,-2.5270167032824915,2.2808944421955566,-1.017900292073385,-0.026308361683980763
1708440594.5530398,-1.105112075805664,-1.6818553409972132,-2.5269957224475306,2.2809411722370605,-1.017883602772848,-0.026329819356099904
1708440594.5550246,-1.105112075805664,-1.681868692437643,-2.5269416014300745,2.280916853541992,-1.0178917090045374,-0.02632600465883428
1708440594.557034,-1.1051579713821411,-1.6818767986693324,-2.5269625822650355,2.280942364329956,-1.017911736165182,-0.02631265321840459
1708440594.5590127,-1.105100154876709,-1.681873460809225,-2.5269702116595667,2.2809242445179443,-1.0179241339312952,-0.02631265321840459
1708440594.5610137,-1.105100154876709,-1.6818272076048792,-2.5269928614245813,2.280928774470947,-1.0178874174701136,-0.02628022829164678
1708440594.5629957,-1.1050587892532349,-1.6818815670409144,-2.5269625822650355,2.2809621530720214,-1.017907444630758,-0.026354614888326466
1708440594.565005,-1.1050913333892822,-1.6818529568114222,-2.5269761721240442,2.2809242445179443,-1.017911736165182,-0.026369873677388966
1708440594.5670044,-1.1050838232040405,-1.6818529568114222,-2.5269716421710413,2.280895395869873,-1.017907444630758,-0.026336495076314748
1708440594.5690114,-1.1050719022750854,-1.6818486652769984,-2.5269625822650355,2.280899925822876,-1.0179198423968714,-0.02631265321840459
1708440594.5709841,-1.1051208972930908,-1.6818272076048792,-2.5269792715655726,2.28089086591687,-1.0178917090045374,-0.02632600465883428
1708440594.5730324,-1.105067491531372,-1.681939264337057,-2.5269957224475306,2.280895395869873,-1.017883602772848,-0.026325050984517873
1708440594.5749865,-1.105067491531372,-1.681864400903219,-2.5269747416125696,2.2809197145649414,-1.0178917090045374,-0.026336495076314748
1708440594.5770078,-1.1050461530685425,-1.6819020710387171,-2.526994053517477,2.2809411722370605,-1.0178917090045374,-0.02633840242494756
1708440594.5790377,-1.1051045656204224,-1.681859632531637,-2.5269716421710413,2.28093330442395,-1.0179045836078089,-0.026349846516744435
1708440594.5809965,-1.105067491531372,-1.681859632531637,-2.5269911924945276,2.2809550005146484,-1.0179160276996058,-0.026383225117818654
1708440594.5830069,-1.1051089763641357,-1.6818486652769984,-2.5269535223590296,2.280924006099365,-1.017928425465719,-0.026397053395406544
1708440594.5849895,-1.1050719022750854,-1.6818677387633265,-2.526977602635519,2.280888004893921,-1.0178793112384241,-0.02632171312441045
1708440594.5870178,-1.1051298379898071,-1.6818725071349085,-2.5270002524005335,2.2809502321430664,-1.017972771321432,-0.026301209126607716
1708440594.5890017,-1.1050719022750854,-1.681864400903219,-2.5269792715655726,2.2809457021900634,-1.0179479757892054,-0.026340786610738576
1708440594.5909874,-1.1050719022750854,-1.6818887195982875,-2.5269838015185755,2.280928774470947,-1.0179436842547815,-0.026305977498189748
1708440594.59302,-1.105068325996399,-1.6818887195982875,-2.5269671122180384,2.2809242445179443,-1.0179598967181605,-0.026310269032613576
1708440594.5949974,-1.1051164865493774,-1.6818725071349085,-2.5269957224475306,2.280921383494995,-1.0179479757892054,-0.026349846516744435
1708440594.5970292,-1.1051045656204224,-1.6818963489928187,-2.5269747416125696,2.280928774470947,-1.0179761091815394,-0.026325050984517873
1708440594.599058,-1.1050549745559692,-1.6818963489928187,-2.5269792715655726,2.2809457021900634,-1.0179393927203577,-0.026358906422750294
1708440594.601027,-1.1051135063171387,-1.6818858585753382,-2.5269747416125696,2.280916853541992,-1.0179155508624476,-0.026349846516744435
1708440594.6030383,-1.105047583580017,-1.6818844280638636,-2.5270076433764856,2.280912323588989,-1.0179436842547815,-0.026317421589986623
1708440594.6050086,-1.105088233947754,-1.6818815670409144,-2.5269911924945276,2.280895395869873,-1.017902676259176,-0.026292149220601857
1708440594.607073,-1.1050808429718018,-1.6819259128966273,-2.5269702116595667,2.2808806139179687,-1.0179522673236292,-0.026329819356099904
1708440594.6090794,-1.1050676107406616,-1.6818796596922816,-2.5270167032824915,2.2809457021900634,-1.0179112593280237,-0.026329819356099904
1708440594.610999,-1.1050838232040405,-1.6818858585753382,-2.5269580523120325,2.28093330442395,-1.0179317633258265,-0.026301209126607716
1708440594.6130462,-1.1050838232040405,-1.6819097004332484,-2.5269671122180384,2.2808641630360107,-1.0179112593280237,-0.026334110890523732
1708440594.6150284,-1.1050808429718018,-1.6818930111327113,-2.5269911924945276,2.280862494105957,-1.0179641882525843,-0.026372257863179982
1708440594.6170754,-1.1051044464111328,-1.6818510494627894,-2.5270167032824915,2.280899925822876,-1.0179479757892054,-0.026358906422750294
1708440594.6190264,-1.1050926446914673,-1.6819259128966273,-2.5269702116595667,2.280942364329956,-1.0179112593280237,-0.02632600465883428
1708440594.6210704,-1.1050639152526855,-1.6818887195982875,-2.5270076433764856,2.280925913447998,-1.0179598967181605,-0.026310269032613576
1708440594.6230452,-1.1050505638122559,-1.6818767986693324,-2.5270405451404017,2.280942364329956,-1.0179198423968714,-0.026319328938619435
1708440594.625027,-1.1050808429718018,-1.6818725071349085,-2.5270121733294886,2.280942125911377,-1.0178988615619105,-0.026354614888326466
1708440594.6270776,-1.1050808429718018,-1.6818844280638636,-2.5269416014300745,2.280862494105957,-1.0179522673236292,-0.026293102894918263
1708440594.6290147,-1.105068325996399,-1.6818963489928187,-2.5270360151873987,2.280972643489502,-1.0179031530963343,-0.026281658803121388
1708440594.6310058,-1.105068325996399,-1.6818815670409144,-2.5269747416125696,2.280942364329956,-1.0179360548602503,-0.02632600465883428
1708440594.633044,-1.105047583580017,-1.6818930111327113,-2.5269461313830774,2.280899925822876,-1.0179112593280237,-0.026315037404195607
1708440594.634994,-1.1050400733947754,-1.6818963489928187,-2.5270360151873987,2.2808806139179687,-1.0179112593280237,-0.02626973787416631
1708440594.637015,-1.1050593852996826,-1.6818510494627894,-2.5269911924945276,2.280925913447998,-1.0179317633258265,-0.026305977498189748
1708440594.6390176,-1.1050763130187988,-1.6818977795042933,-2.5269838015185755,2.280912323588989,-1.0179155508624476,-0.026302162800924123
1708440594.6410084,-1.1050519943237305,-1.6818930111327113,-2.5270076433764856,2.280930443401001,-1.0179479757892054,-0.026302162800924123
1708440594.643019,-1.105068325996399,-1.6819292507567347,-2.5269625822650355,2.280912323588989,-1.0179436842547815,-0.026276890431539357
1708440594.6450412,-1.105047583580017,-1.6818796596922816,-2.5269671122180384,2.280925913447998,-1.0179927984820765,-0.026315037404195607
1708440594.647043,-1.1050727367401123,-1.6818930111327113,-2.5269716421710413,2.2808806139179687,-1.0179641882525843,-0.026310269032613576
1708440594.6490378,-1.105068325996399,-1.6818767986693324,-2.5269957224475306,2.280912323588989,-1.0179479757892054,-0.026285950337545216
1708440594.6510098,-1.105088233947754,-1.6819302044310511,-2.5269625822650355,2.280921383494995,-1.0179761091815394,-0.02624398866762334
1708440594.6530325,-1.1050281524658203,-1.6818977795042933,-2.5270031134234827,2.280892534846924,-1.0179274717914026,-0.026257816945211232
1708440594.6550038,-1.1050852537155151,-1.6818438969054164,-2.5269883314715784,2.280862494105957,-1.0179393927203577,-0.026278320943013966
1708440594.657053,-1.1050808429718018,-1.6819125614561976,-2.5270167032824915,2.2809125620075683,-1.0179598967181605,-0.026208225880758107
1708440594.6590686,-1.1050719022750854,-1.6818529568114222,-2.5269911924945276,2.280883474940918,-1.0179641882525843,-0.026304070149556935
1708440594.6610315,-1.1051015853881836,-1.681864400903219,-2.5269716421710413,2.280899925822876,-1.0179393927203577,-0.026233498250142873
1708440594.6630502,-1.1050763130187988,-1.6818438969054164,-2.526938501988546,2.280916853541992,-1.0179675261126917,-0.026230637227193654
1708440594.6649973,-1.1050983667373657,-1.6818553409972132,-2.5269671122180384,2.28093330442395,-1.017947022114889,-0.02624208131899053
1708440594.6669888,-1.1050763130187988,-1.6819006405272425,-2.5269416014300745,2.280937834376953,-1.0179632345782679,-0.0261767546283167
1708440594.6690278,-1.105047583580017,-1.681868692437643,-2.5269671122180384,2.280930443401001,-1.01793080965151,-0.026204888020650685
1708440594.6709993,-1.105035662651062,-1.681859632531637,-2.5270002524005335,2.2809132772633056,-1.0179513136493128,-0.026190106068746388
1708440594.6730168,-1.1050896644592285,-1.6819097004332484,-2.5270496050464075,2.280942364329956,-1.0179718176471155,-0.02618581453432256
1708440594.6750076,-1.105117917060852,-1.681831499139303,-2.5269597212420862,2.280928774470947,-1.0180042425738733,-0.02618581453432256
1708440594.6770198,-1.1050519943237305,-1.681857248345846,-2.5270167032824915,2.280904455775879,-1.017947022114889,-0.02616912523378545
1708440594.679073,-1.105035662651062,-1.681923051873678,-2.5269747416125696,2.280921383494995,-1.0179641882525843,-0.026223007832662404
1708440594.6810093,-1.105067491531372,-1.681859632531637,-2.5269838015185755,2.280912323588989,-1.0179598967181605,-0.0261767546283167
1708440594.6830177,-1.1050926446914673,-1.6818396053709925,-2.5269506613360804,2.2808760839649658,-1.0179436842547815,-0.026164833699361623
1708440594.6849961,-1.1050505638122559,-1.6818438969054164,-2.5269747416125696,2.280869885081909,-1.0179274717914026,-0.0261767546283167
1708440594.687015,-1.1050763130187988,-1.6818725071349085,-2.526928249989645,2.280862494105957,-1.017984692250387,-0.026164833699361623
1708440594.6890087,-1.1050971746444702,-1.6818510494627894,-2.5269866625415247,2.280942364329956,-1.0179351011859339,-0.026230637227193654
1708440594.6910045,-1.105088233947754,-1.681864400903219,-2.5269339720355433,2.280874415034912,-1.0179598967181605,-0.02618581453432256
1708440594.6930215,-1.1051253080368042,-1.6818114719786585,-2.5269702116595667,2.280895395869873,-1.0179761091815394,-0.026215378438131154
1708440594.6950085,-1.1051326990127563,-1.6817780933775843,-2.5269461313830774,2.280899925822876,-1.0179598967181605,-0.026202026997701466
1708440594.697055,-1.1050838232040405,-1.681836267510885,-2.5269129912005823,2.2809242445179443,-1.0179145971881312,-0.02618581453432256
1708440594.6991074,-1.1050972938537598,-1.681840559045309,-2.5269747416125696,2.2809151846119384,-1.0179436842547815,-0.026199165974752248
1708440594.7010148,-1.105132818222046,-1.681803365746969,-2.5269370714770716,2.2809786039539794,-1.0179513136493128,-0.026215378438131154
1708440594.7030494,-1.1050869226455688,-1.681857248345846,-2.526980702077047,2.2809738355823974,-1.0179598967181605,-0.026190106068746388
1708440594.7050161,-1.105067491531372,-1.681864400903219,-2.5270255247699183,2.280939741725586,-1.0179231802569788,-0.0261767546283167
1708440594.7070508,-1.1051535606384277,-1.681836267510885,-2.5269716421710413,2.280968113536499,-1.0179513136493128,-0.02618581453432256
1708440594.7090418,-1.1051239967346191,-1.681833883325094,-2.5268965403186243,2.2809650140949707,-1.0179641882525843,-0.026190106068746388
1708440594.711015,-1.105177402496338,-1.681836267510885,-2.5269551912890833,2.2809814649769287,-1.0179231802569788,-0.026199165974752248
1708440594.7130334,-1.1051522493362427,-1.6818248234190882,-2.5269761721240442,2.2809650140949707,-1.0179317633258265,-0.026199165974752248
1708440594.7150095,-1.105181097984314,-1.6818448505797328,-2.5269716421710413,2.2810231882282714,-1.0179231802569788,-0.02618104616274053
1708440594.7170491,-1.1051552295684814,-1.681857248345846,-2.5270047823535364,2.281017227763794,-1.0179031530963343,-0.026190106068746388
1708440594.7190163,-1.105172872543335,-1.681871076623434,-2.5269957224475306,2.280988855952881,-1.017944637929098,-0.026206318532125294
1708440594.7210138,-1.1051677465438843,-1.6817838154234828,-2.5269747416125696,2.2810324865528564,-1.0178874174701136,-0.026122395192281544
1708440594.723028,-1.1051552295684814,-1.681774755517477,-2.5269551912890833,2.2810563284107666,-1.0179360548602503,-0.026248757039205373
1708440594.724993,-1.1052167415618896,-1.6817885837950648,-2.5269883314715784,2.28104750692334,-1.0179327170001429,-0.026152912770406544
1708440594.727008,-1.1052035093307495,-1.6818090877928675,-2.5269506613360804,2.281059427852295,-1.0178945700274866,-0.026215378438131154
1708440594.729027,-1.1052480936050415,-1.6817757091917933,-2.5269206205951136,2.28115098058667,-1.0178945700274866,-0.026190106068746388
1708440594.7309914,-1.105231761932373,-1.6817838154234828,-2.526943031941549,2.281104012126587,-1.0179403463946741,-0.026206318532125294
1708440594.7330317,-1.1052110195159912,-1.6817928753294886,-2.5269177595721644,2.2811612325855712,-1.0179479757892054,-0.026215378438131154
1708440594.7350008,-1.1052978038787842,-1.6818348369994105,-2.5268965403186243,2.281193895930908,-1.0178874174701136,-0.02617818513979131
1708440594.7370117,-1.1052799224853516,-1.6817804775633753,-2.5269625822650355,2.2811879354664306,-1.0179317633258265,-0.02616912523378545
1708440594.73903,-1.1053245067596436,-1.6818019352354945,-2.5269761721240442,2.281254215831421,-1.0179641882525843,-0.02616912523378545
1708440594.740992,-1.1053320169448853,-1.6817690334715785,-2.526947561894552,2.281249447459839,-1.0178945700274866,-0.02617818513979131
1708440594.743018,-1.1053565740585327,-1.6818062267699183,-2.526914660130636,2.281249447459839,-1.0179155508624476,-0.026140515004293263
1708440594.7450428,-1.1053439378738403,-1.6817599735655726,-2.5269597212420862,2.281282349223755,-1.0179317633258265,-0.026199165974752248
1708440594.7470167,-1.1053816080093384,-1.6817647419371546,-2.52690560022463,2.281264467830322,-1.017972771321432,-0.026190106068746388
1708440594.749038,-1.1053845882415771,-1.6817499599852503,-2.52690560022463,2.2812599378773193,-1.017928425465719,-0.026190106068746388
1708440594.7510004,-1.1053876876831055,-1.6817194424071253,-2.526922051106588,2.2813262182423095,-1.0179522673236292,-0.026199165974752248
1708440594.7529926,-1.1053965091705322,-1.6817499599852503,-2.526964251195089,2.2812957006641845,-1.0179160276996058,-0.026190106068746388
1708440594.7550054,-1.1054447889328003,-1.681699892083639,-2.526943031941549,2.2813290792652587,-1.017907444630758,-0.026173893605367482
1708440594.757003,-1.1054189205169678,-1.6817208729186,-2.526926581059591,2.281376762981079,-1.0179160276996058,-0.026199165974752248
1708440594.7590384,-1.105506420135498,-1.681704660455221,-2.5269716421710413,2.2814056116291503,-1.0179160276996058,-0.026166264210836232
1708440594.760996,-1.1054632663726807,-1.6816760502257289,-2.526926581059591,2.2814385133930664,-1.0179203192340296,-0.026173893605367482
1708440594.7629995,-1.1054720878601074,-1.681741853753561,-2.5269838015185755,2.2814292150684814,-1.0178588072406214,-0.026206318532125294
1708440594.7650046,-1.105500340461731,-1.6816894016661585,-2.5269597212420862,2.281460686320923,-1.017883602772848,-0.026206318532125294
1708440594.7669911,-1.1055108308792114,-1.6816240749754847,-2.526926581059591,2.2814487653919677,-1.0178759733783167,-0.026248757039205373
1708440594.7689998,-1.1055152416229248,-1.6816703281798304,-2.526935640965597,2.281447096461914,-1.017855469380514,-0.026190106068746388
1708440594.7709906,-1.1055974960327148,-1.6816116772093714,-2.5270002524005335,2.2814499574848632,-1.0178025404559534,-0.026239697133199513
1708440594.7729907,-1.1056005954742432,-1.6815830669798792,-2.5269883314715784,2.281538649196289,-1.0178187529193323,-0.026217285786763966
1708440594.7750006,-1.105575442314148,-1.6815864048399867,-2.526922051106588,2.2815534311481933,-1.0178640524493616,-0.026239697133199513
1708440594.7769914,-1.1056294441223145,-1.6816092930235804,-2.526943031941549,2.2815310198017578,-1.0178726355182093,-0.026213947926656544
1708440594.779023,-1.105639934539795,-1.681531091729635,-2.5269761721240442,2.281597300166748,-1.0178359190570276,-0.026192967091695607
1708440594.780997,-1.1056725978851318,-1.6815368137755335,-2.526910130177633,2.281618281001709,-1.0178197065936487,-0.026206318532125294
1708440594.7829907,-1.1056593656539917,-1.6815411053099574,-2.526964251195089,2.2815674978443603,-1.0178316275226038,-0.026223007832662404
1708440594.7849982,-1.1056180000305176,-1.6815453968443812,-2.526922051106588,2.2816693025776367,-1.0178564230548304,-0.026202026997701466
1708440594.7869895,-1.1056876182556152,-1.6815997562804164,-2.526931111012594,2.281707211131714,-1.0178034941302698,-0.0261767546283167
1708440594.7890403,-1.1057075262069702,-1.6815129719176234,-2.526910130177633,2.2816826540180664,-1.0178402105914515,-0.02624684969057256
1708440594.7910047,-1.105728268623352,-1.6815430126585902,-2.5268848578082483,2.2817038732716064,-1.017771069203512,-0.026251141224996388
1708440594.793007,-1.1057357788085938,-1.681465288201803,-2.526952091847555,2.2817322450825195,-1.0177586714373987,-0.026233498250142873
1708440594.795018,-1.1057507991790771,-1.6814514599242152,-2.526889149342672,2.28176395475354,-1.0178077856646937,-0.02625924745668584
1708440594.797003,-1.105783462524414,-1.6815234623351039,-2.526931111012594,2.28176395475354,-1.0178282896624964,-0.02624541917909795
1708440594.7990477,-1.1058197021484375,-1.6813990078368128,-2.526910130177633,2.2817715841480712,-1.0177629629718226,-0.026292149220601857
1708440594.8010297,-1.105847954750061,-1.6815067730345667,-2.526893679295675,2.281808777446411,-1.0177958647357386,-0.026266400014058888
1708440594.803076,-1.1058882474899292,-1.6813990078368128,-2.526935640965597,2.2818280893513183,-1.0177915732013147,-0.026281658803121388
1708440594.8050265,-1.1058540344238281,-1.6814242802061976,-2.5269461313830774,2.2818326193043212,-1.01780873933901,-0.02633983293642217
1708440594.807026,-1.1059406995773315,-1.6814424000182093,-2.526902739201681,2.2818218904682617,-1.017771069203512,-0.02632600465883428
1708440594.8090527,-1.1059398651123047,-1.6814466915526332,-2.526968781148092,2.2819134432026367,-1.0177801291095179,-0.026380364094869435
1708440594.8110209,-1.1059318780899048,-1.6814633808531703,-2.526943031941549,2.281954451198242,-1.0177596251117151,-0.026325050984517873
1708440594.8130584,-1.1059473752975464,-1.6813556156554164,-2.526935640965597,2.28192846357312,-1.017775837575094,-0.026345554982320607
1708440594.815027,-1.1059666872024536,-1.6814319096007289,-2.52690560022463,2.2819103437611084,-1.0177887121783655,-0.026357952748433888
1708440594.8170247,-1.105995535850525,-1.6813436947264613,-2.526956621800558,2.2819363313862304,-1.017775837575094,-0.026403252278463185
1708440594.819063,-1.1060941219329834,-1.681401868859762,-2.526964251195089,2.2819437223621826,-1.0177844206439417,-0.026492897664205373
1708440594.8210397,-1.1060357093811035,-1.68133606533193,-2.526919190083639,2.2820257383533935,-1.0178130308734339,-0.026389900838033498
1708440594.8230524,-1.1061002016067505,-1.6813661060728968,-2.5269609133349817,2.2820049959370117,-1.017763916646139,-0.026442829762594044
1708440594.8250258,-1.1061077117919922,-1.6813575230040492,-2.526902739201681,2.282015247935913,-1.0177672545062464,-0.026458088551656544
1708440594.827045,-1.106161117553711,-1.681361814538473,-2.526931111012594,2.2820395666309814,-1.0177314917193812,-0.026492897664205373
1708440594.8290603,-1.1061811447143555,-1.6813208065428675,-2.526881519948141,2.2820605474659423,-1.0177596251117151,-0.026465717946187794
1708440594.8310113,-1.1061886548995972,-1.6813751659789027,-2.526865069066183,2.2821006017872314,-1.017763916646139,-0.026470009480611623
1708440594.8330326,-1.1061872243881226,-1.6813708744444789,-2.5269401709186,2.282128019923828,-1.01774770418276,-0.0264819304095667
1708440594.8350275,-1.1061664819717407,-1.681333681146139,-2.526907269154684,2.282099171275757,-1.0177314917193812,-0.026492897664205373
1708440594.8370225,-1.1062229871749878,-1.681333681146139,-2.5268591086017054,2.282160683269165,-1.0177391211139124,-0.026521031056539357
1708440594.8390436,-1.1062318086624146,-1.6812974415221156,-2.5268471876727503,2.2821265894123535,-1.0177314917193812,-0.02659017244447881
1708440594.8410046,-1.1062843799591064,-1.6813389263548792,-2.526856247578756,2.282078190440796,-1.0177562872516077,-0.026548210774556935
1708440594.8430345,-1.106266736984253,-1.6813017330565394,-2.526844326649801,2.282172842616699,-1.0177486578570765,-0.02659017244447881
1708440594.8450282,-1.106279969215393,-1.6812950573363246,-2.526815954838888,2.2821385103413085,-1.0177119413958948,-0.02658397356142217
1708440594.8470285,-1.106266736984253,-1.6812659702696742,-2.526789967213766,2.2822255331226806,-1.017745319996969,-0.02659637132753545
1708440594.8490705,-1.1062874794006348,-1.6812001667418421,-2.526827875767843,2.282219334239624,-1.017773453389303,-0.026624504719869435
1708440594.8510094,-1.1063685417175293,-1.6812325916686,-2.526811424885885,2.282219334239624,-1.0177724997149866,-0.026714626942769826
1708440594.8530416,-1.1063097715377808,-1.6812416515746058,-2.526818815861837,2.2822610574909667,-1.017719570790426,-0.026738945637838185
1708440594.8550186,-1.1063520908355713,-1.6812325916686,-2.526844326649801,2.2822670179554443,-1.0177400747882288,-0.026708428059713185
1708440594.8570406,-1.10635507106781,-1.681221147576803,-2.5267871061908167,2.28227607786145,-1.0177605787860315,-0.026811901723043263
1708440594.8590367,-1.1064128875732422,-1.681230207482809,-2.5268080870257776,2.2822958666035156,-1.0177152792560022,-0.026819531117574513
1708440594.8609996,-1.1063745021820068,-1.6812344990172328,-2.526778046284811,2.2822624880024414,-1.0177324453936976,-0.02683431306947881
1708440594.8630233,-1.1064279079437256,-1.6811686954894007,-2.526768986378805,2.282298966045044,-1.0177162329303187,-0.02684671083559209
1708440594.8650165,-1.1063952445983887,-1.6811820469298304,-2.526799027119772,2.282327099437378,-1.0177000204669397,-0.026903454457418263
1708440594.8669958,-1.1064438819885254,-1.6811658344664515,-2.526811424885885,2.282315178508423,-1.017695728932516,-0.02693492570985967
1708440594.869033,-1.1064809560775757,-1.6811777553954066,-2.5268126169787806,2.282331629390381,-1.0177314917193812,-0.02694398561586553
1708440594.8709848,-1.106472134590149,-1.6812111339964808,-2.526778046284811,2.2823807436176757,-1.0177119413958948,-0.026945416127340138
1708440594.8730237,-1.1064972877502441,-1.6811610660948695,-2.526815954838888,2.2824017244526367,-1.0177033583270472,-0.026995007191793263
1708440594.875013,-1.1065155267715454,-1.68117155651235,-2.526773516331808,2.282343550319336,-1.017691437398092,-0.027005497609273732
1708440594.877019,-1.1065499782562256,-1.6811329327025355,-2.526829544697897,2.282362862224243,-1.0177486578570765,-0.027062241231099904
1708440594.8790128,-1.106490135192871,-1.6811162434019984,-2.526811424885885,2.282343550319336,-1.0176661650287073,-0.02706939378847295
1708440594.880977,-1.106510877609253,-1.681199689904684,-2.526789967213766,2.2823964792438964,-1.0177443663226526,-0.027150456105367482
1708440594.8830225,-1.1065367460250854,-1.6811372242369593,-2.526794497166769,2.2824088770100097,-1.0177248159991663,-0.0271533171283167
1708440594.885009,-1.1065516471862793,-1.6811047993102015,-2.5267871061908167,2.282370014781616,-1.0177162329303187,-0.0272753874408167
1708440594.8870146,-1.1065441370010376,-1.6811043224730433,-2.526836935673849,2.2824160295673828,-1.0177162329303187,-0.02726632753481084
1708440594.8890095,-1.1065887212753296,-1.681150575677389,-2.526827875767843,2.282395287151001,-1.017691437398092,-0.027287785206929982
1708440594.8910093,-1.1065635681152344,-1.6811419926085414,-2.526844326649801,2.2824041086384277,-1.017801586781637,-0.02734834352602178
1708440594.8930151,-1.1065516471862793,-1.6811381779112757,-2.526806894932882,2.282406969661377,-1.0177229086505335,-0.027376476918355763
1708440594.895045,-1.1065798997879028,-1.681100984612936,-2.526841465626852,2.2824486929127197,-1.0177682081805628,-0.027453247700826466
1708440594.8970876,-1.1066162586212158,-1.6811100445189417,-2.526764694844381,2.282431049937866,-1.0177400747882288,-0.027526680623189748
1708440594.8990602,-1.1065948009490967,-1.681131502191061,-2.526835266743795,2.282463713283203,-1.0177434126483362,-0.02759868303407842
1708440594.9010148,-1.1066577434539795,-1.681084772149557,-2.526794497166769,2.282488985652588,-1.0177229086505335,-0.027596775685445607
1708440594.903086,-1.10658597946167,-1.6811100445189417,-2.526776377354757,2.2824429708668212,-1.0177434126483362,-0.027685467396871388
1708440594.9050443,-1.1066443920135498,-1.6810475788512171,-2.526860777531759,2.2825016218372802,-1.0177672545062464,-0.027740303670064748
1708440594.9070592,-1.1065903902053833,-1.681105752984518,-2.526806894932882,2.282555266017578,-1.0177434126483362,-0.027797524129049123
1708440594.9090703,-1.1066073179244995,-1.6811686954894007,-2.526799027119772,2.2824711042591552,-1.01774770418276,-0.02784139314760381
1708440594.9110315,-1.1066519021987915,-1.6810652218260707,-2.526827875767843,2.2824746805378417,-1.0178292433368128,-0.027941528950826466
1708440594.913069,-1.1065903902053833,-1.6810862026610316,-2.526806894932882,2.2824455934711914,-1.0177467505084437,-0.02799684206117803
1708440594.9150047,-1.1066814661026,-1.6811024151244105,-2.5268097559558313,2.282470865840576,-1.017775837575094,-0.028089825307027638
1708440594.9170523,-1.1066474914550781,-1.6810904941954554,-2.5268307367907923,2.2824835020252685,-1.017836872731344,-0.028104607258931935
