Eg3-git/Classifiers/Data Collection/u7/u7star2_ur3e_joint_states.csv
time,elbow_joint,shoulder_lift_joint,shoulder_pan_joint,wrist_1_joint,wrist_2_joint,wrist_3_joint
1708440520.3529522,-1.1056604385375977,-1.6816383800902308,-2.526470724736349,2.2813002306171875,-1.017041031514303,0.0830233097076416
1708440520.3548927,-1.1056030988693237,-1.6816626987852992,-2.526458803807394,2.2812463480183105,-1.017090145741598,0.08301977813243866
1708440520.3569207,-1.105590581893921,-1.6816860638060511,-2.52651292482485,2.2812599378773193,-1.0170944372760218,0.08301115036010742
1708440520.3588812,-1.105635643005371,-1.6816326580443324,-2.526449982319967,2.2812718588062744,-1.017057243977682,0.08305146545171738
1708440520.3608792,-1.105607509613037,-1.6816045246519984,-2.52649170557131,2.2812809187122802,-1.017041031514303,0.0830395445227623
1708440520.3629076,-1.1056723594665527,-1.6816250286498011,-2.526479784642355,2.2812718588062744,-1.0170648733722132,0.08300674706697464
1708440520.364878,-1.1055786609649658,-1.681601186791891,-2.526454273854391,2.281301661128662,-1.0170615355121058,0.08301115036010742
1708440520.3669384,-1.1056530475616455,-1.68158020595693,-2.526503864918844,2.2812627989002685,-1.0170648733722132,0.08301546424627304
1708440520.368878,-1.1056486368179321,-1.6816207371153773,-2.5265172163592737,2.2812954622456054,-1.0170367399798792,0.08301899582147598
1708440520.3708727,-1.1056280136108398,-1.68162264446401,-2.526482645665304,2.281313582057617,-1.0170486609088343,0.08299922943115234
1708440520.37289,-1.105639934539795,-1.6816207371153773,-2.526466194783346,2.2812957006641845,-1.0170815626727503,0.08299491554498672
1708440520.3748693,-1.105663776397705,-1.6816464863219203,-2.526438061391012,2.2812627989002685,-1.0170615355121058,0.08300674706697464
1708440520.3768961,-1.1056736707687378,-1.68162264446401,-2.526454273854391,2.2812763887592773,-1.017057243977682,0.08302418142557144
1708440520.378891,-1.105611801147461,-1.6816159687437953,-2.5265007654773157,2.2812437254139404,-1.0170734564410608,0.08304505795240402
1708440520.380901,-1.1056767702102661,-1.681634088555807,-2.526475254689352,2.2812301355549316,-1.0170734564410608,0.08295771479606628
1708440520.3829315,-1.1055786609649658,-1.681634088555807,-2.526449743901388,2.281313582057617,-1.017052952443258,0.08300794661045074
1708440520.3848808,-1.105607509613037,-1.6816374264159144,-2.526416842137472,2.2812318044849853,-1.0171144644366663,0.0830407440662384
1708440520.386906,-1.105639934539795,-1.6815830669798792,-2.526475254689352,2.2812463480183105,-1.0170777479754847,0.08300354331731796
1708440520.3888803,-1.1056280136108398,-1.681617876092428,-2.526482645665304,2.281264467830322,-1.0170496145831507,0.08301546424627304
1708440520.3908637,-1.1056280136108398,-1.6816054783263148,-2.52649170557131,2.2812346655079345,-1.017041031514303,0.0830482617020607
1708440520.3929245,-1.1056692600250244,-1.6816135845580042,-2.5264256636248987,2.281309052104614,-1.0170734564410608,0.08301115036010742
1708440520.3948781,-1.105607509613037,-1.6816250286498011,-2.526487175618307,2.2812763887592773,-1.017057243977682,0.08298299461603165
1708440520.3969767,-1.1056692600250244,-1.681592126885885,-2.526475254689352,2.281268997783325,-1.0170486609088343,0.08297428488731384
1708440520.3988955,-1.1056604385375977,-1.681629320184225,-2.526499334965841,2.2812599378773193,-1.0170615355121058,0.08299051225185394
1708440520.4008753,-1.1056442260742188,-1.681650777856344,-2.5264843145953577,2.281301661128662,-1.017041031514303,0.083055779337883
1708440520.402889,-1.105611801147461,-1.6815959415831507,-2.5264678637133997,2.2812809187122802,-1.0170858542071741,0.0830482617020607
1708440520.4048595,-1.1056313514709473,-1.6815639934935511,-2.526449743901388,2.2813469606586914,-1.0170453230487269,0.08300243318080902
1708440520.4068916,-1.105586290359497,-1.681601186791891,-2.526458803807394,2.2813002306171875,-1.0170858542071741,0.0830526277422905
1708440520.4088845,-1.105639934539795,-1.6816102466978968,-2.52647835413088,2.281309052104614,-1.0170777479754847,0.08301899582147598
1708440520.4108884,-1.1056735515594482,-1.6816207371153773,-2.5265336672412317,2.2812928396412353,-1.0170944372760218,0.08300243318080902
1708440520.4128904,-1.1056030988693237,-1.681681295434469,-2.5264843145953577,2.2812718588062744,-1.0170734564410608,0.08299053460359573
1708440520.4148731,-1.105639934539795,-1.6815878353514613,-2.52649170557131,2.2812809187122802,-1.017052952443258,0.08301899582147598
1708440520.4168594,-1.1056368350982666,-1.681666990319723,-2.5264843145953577,2.281273289317749,-1.017057243977682,0.08301115036010742
1708440520.4188743,-1.10565185546875,-1.6815830669798792,-2.526475254689352,2.281285210246704,-1.0170367399798792,0.08297865092754364
1708440520.4208744,-1.10565185546875,-1.6815830669798792,-2.526479784642355,2.2812391954609375,-1.0170453230487269,0.08301115036010742
1708440520.42293,-1.10565185546875,-1.6815968952574671,-2.526470724736349,2.2813047605701904,-1.0170453230487269,0.08301115036010742
1708440520.4248736,-1.105623722076416,-1.6816374264159144,-2.526458803807394,2.2812928396412353,-1.0170615355121058,0.08298299461603165
1708440520.4269247,-1.105607509613037,-1.6816002331175746,-2.5264843145953577,2.2812437254139404,-1.0170367399798792,0.08300241082906723
1708440520.4289062,-1.1056530475616455,-1.6816159687437953,-2.526458803807394,2.2812599378773193,-1.017069164906637,0.08298295736312866
1708440520.4308848,-1.105639934539795,-1.6815759144225062,-2.526479784642355,2.2812809187122802,-1.0170453230487269,0.08302421122789383
1708440520.43288,-1.105586290359497,-1.6816417179503382,-2.526503864918844,2.281313582057617,-1.017029110585348,0.08300796896219254
1708440520.434891,-1.105639934539795,-1.6816464863219203,-2.526503864918844,2.2812599378773193,-1.0170453230487269,0.0830395370721817
1708440520.4369013,-1.1056324243545532,-1.6815716228880824,-2.526458803807394,2.281264467830322,-1.0170734564410608,0.08306020498275757
1708440520.4389014,-1.105639934539795,-1.6815830669798792,-2.5264392534839075,2.2812599378773193,-1.017097298298971,0.08300353586673737
1708440520.4408906,-1.1056206226348877,-1.6816045246519984,-2.5264843145953577,2.2812928396412353,-1.017113987599508,0.08301115781068802
1708440520.4428709,-1.105639934539795,-1.6816045246519984,-2.526508156453268,2.281313582057617,-1.0170334021197718,0.0829707682132721
1708440520.444868,-1.1056194305419922,-1.6816331348814906,-2.526442352925436,2.281306191081665,-1.0170453230487269,0.08303201198577881
1708440520.4469352,-1.105623722076416,-1.6816002331175746,-2.526479784642355,2.2813381391712646,-1.0170658270465296,0.08298299461603165
1708440520.4489148,-1.105623722076416,-1.681617876092428,-2.526470724736349,2.2812585073658447,-1.017069164906637,0.08300352096557617
1708440520.450887,-1.1056442260742188,-1.681592126885885,-2.526487175618307,2.2812763887592773,-1.0170367399798792,0.08299492299556732
1708440520.452917,-1.1055830717086792,-1.6816493473448695,-2.526487175618307,2.2812227445789794,-1.017029110585348,0.08297424018383026
1708440520.4548907,-1.1056073904037476,-1.6816374264159144,-2.526478115712301,2.281256838435791,-1.017057243977682,0.08300354331731796
1708440520.4569042,-1.1056485176086426,-1.6816374264159144,-2.526508156453268,2.2812763887592773,-1.0170324484454554,0.08301977068185806
1708440520.458895,-1.1056160926818848,-1.6815959415831507,-2.526466194783346,2.281252546901367,-1.017029110585348,0.08300354331731796
1708440520.46088,-1.1056617498397827,-1.681634088555807,-2.5264678637133997,2.2812465864368896,-1.0170496145831507,0.08302329480648041
1708440520.462942,-1.1056292057037354,-1.68162264446401,-2.5264888445483606,2.2812809187122802,-1.0170820395099085,0.08302772045135498
1708440520.4649384,-1.1055736541748047,-1.6815959415831507,-2.526487175618307,2.2812272745319824,-1.0170496145831507,0.08303523063659668
1708440520.4669406,-1.1056488752365112,-1.681592126885885,-2.5264678637133997,2.281236096019409,-1.0170734564410608,0.08300670981407166
1708440520.4689214,-1.1056160926818848,-1.6816374264159144,-2.526511255894796,2.2812153536030273,-1.017052952443258,0.08301547169685364
1708440520.470887,-1.105594515800476,-1.681629320184225,-2.526512686406271,2.281285210246704,-1.0170367399798792,0.0830233097076416
1708440520.4728994,-1.1056368350982666,-1.6816793880858363,-2.5264468828784388,2.281264467830322,-1.0171101729022425,0.0830526351928711
1708440520.4749236,-1.1055960655212402,-1.6816045246519984,-2.526454273854391,2.2812318044849853,-1.017041031514303,0.08299492299556732
1708440520.4768775,-1.1056444644927979,-1.6816135845580042,-2.526449743901388,2.2812599378773193,-1.017041031514303,0.08299052715301514
1708440520.4788973,-1.1056323051452637,-1.6816331348814906,-2.5264514128314417,2.281240625972412,-1.017052952443258,0.08300672471523285
1708440520.4809055,-1.1055712699890137,-1.6816793880858363,-2.526466433201925,2.281273289317749,-1.0170658270465296,0.08303092420101166
1708440520.4828923,-1.105611801147461,-1.681596418420309,-2.526463333760397,2.281268997783325,-1.0171101729022425,0.08306337147951126
1708440520.4849088,-1.1056252717971802,-1.681601186791891,-2.526458803807394,2.281261368388794,-1.017012898121969,0.08301548659801483
1708440520.4868894,-1.1056251525878906,-1.6816207371153773,-2.526529137288229,2.281224175090454,-1.0170281569110315,0.08299051225185394
1708440520.4888842,-1.1056116819381714,-1.6816183529295863,-2.526470724736349,2.281228705043457,-1.017057243977682,0.08298301696777344
1708440520.4908528,-1.1056082248687744,-1.6816417179503382,-2.5264468828784388,2.2811991411396484,-1.0170658270465296,0.0830320492386818
1708440520.4929297,-1.1055991649627686,-1.6815830669798792,-2.52651292482485,2.281268997783325,-1.017069164906637,0.08301898092031479
1708440520.4948814,-1.1056160926818848,-1.6816464863219203,-2.526503864918844,2.281277819270752,-1.0170496145831507,0.08301898837089539
1708440520.49693,-1.1056206226348877,-1.681596418420309,-2.526503864918844,2.2812272745319824,-1.017041031514303,0.0830363780260086
1708440520.4989507,-1.1056123971939087,-1.6816584072508753,-2.526479784642355,2.2812153536030273,-1.0170443693744105,0.08305572718381882
1708440520.5009718,-1.1055753231048584,-1.681655069390768,-2.526487175618307,2.281207962627075,-1.017052952443258,0.0830351784825325
1708440520.502901,-1.1056371927261353,-1.6816746197142542,-2.526487175618307,2.281306191081665,-1.0171268622027796,0.08302205801010132
1708440520.5048945,-1.1055505275726318,-1.681634088555807,-2.52649170557131,2.2812883096882324,-1.017069164906637,0.08305145800113678
1708440520.5068893,-1.1056334972381592,-1.6816626987852992,-2.526470724736349,2.281285210246704,-1.0170615355121058,0.08303522318601608
1708440520.5089219,-1.1056036949157715,-1.681629320184225,-2.526466433201925,2.28129427015271,-1.0170615355121058,0.08299489319324493
1708440520.5108953,-1.1056368350982666,-1.6816626987852992,-2.526499334965841,2.281306191081665,-1.0170367399798792,0.08297432959079742
1708440520.5128837,-1.1055798530578613,-1.6816116772093714,-2.526487175618307,2.2812153536030273,-1.0170486609088343,0.08299052715301514
1708440520.5148888,-1.1055798530578613,-1.6815959415831507,-2.526503864918844,2.2812809187122802,-1.017052952443258,0.08299487829208374
1708440520.5168567,-1.1055960655212402,-1.681634088555807,-2.526454273854391,2.281245155925415,-1.0170605818377894,0.08298614621162415
1708440520.5188541,-1.1055960655212402,-1.6816207371153773,-2.526433531438009,2.28125707685437,-1.0170248190509241,0.08304394036531448
1708440520.520856,-1.1055474281311035,-1.6816417179503382,-2.526475254689352,2.281216784114502,-1.017041031514303,0.08304274082183838
1708440520.5229068,-1.1055927276611328,-1.6816493473448695,-2.5264347235309046,2.281228705043457,-1.0170734564410608,0.0830320343375206
1708440520.5248785,-1.1055753231048584,-1.6815830669798792,-2.526487175618307,2.281252546901367,-1.0170615355121058,0.08299051970243454
1708440520.526915,-1.1055355072021484,-1.6816374264159144,-2.526416842137472,2.281277819270752,-1.0170987288104456,0.08302659541368484
1708440520.5288656,-1.1055960655212402,-1.6816374264159144,-2.526479784642355,2.281249447459839,-1.017090145741598,0.08305907249450684
1708440520.5308647,-1.1055724620819092,-1.6815878353514613,-2.526524607335226,2.281264467830322,-1.017052952443258,0.08297756314277649
1708440520.5329514,-1.1055917739868164,-1.6816326580443324,-2.526487175618307,2.281224175090454,-1.0170615355121058,0.08303523063659668
1708440520.5348895,-1.1055431365966797,-1.6816331348814906,-2.526470724736349,2.281245155925415,-1.0170820395099085,0.0830395445227623
1708440520.5369217,-1.1055679321289062,-1.6816374264159144,-2.526454273854391,2.281224175090454,-1.017041031514303,0.0830383449792862
1708440520.5388825,-1.1055636405944824,-1.6816450558104457,-2.526479784642355,2.2811669546314697,-1.0170615355121058,0.08303091675043106
1708440520.5408952,-1.105544090270996,-1.6816250286498011,-2.52649170557131,2.281221314067505,-1.0170486609088343,0.08304394781589508
1708440520.542901,-1.1055023670196533,-1.6816331348814906,-2.526454273854391,2.281203432674072,-1.0170615355121058,0.083055779337883
1708440520.5449057,-1.1055679321289062,-1.6816026173033656,-2.526479784642355,2.2811953264423828,-1.0170205275165003,0.08300243318080902
1708440520.5469887,-1.105531096458435,-1.681629320184225,-2.526466433201925,2.2811788755604248,-1.0170367399798792,0.08307595551013947
1708440520.54892,-1.105576515197754,-1.6816746197142542,-2.52649170557131,2.2812303739735107,-1.017041031514303,0.08303091675043106
1708440520.5508764,-1.1055517196655273,-1.6816536388792933,-2.526442352925436,2.2811834055134277,-1.017041031514303,0.0830395445227623
1708440520.5528977,-1.1055306196212769,-1.681629320184225,-2.526454273854391,2.281212254161499,-1.0170453230487269,0.08300243318080902
1708440520.5548747,-1.10557222366333,-1.6816464863219203,-2.526421372090475,2.281240625972412,-1.0170734564410608,0.083055779337883
1708440520.5568998,-1.1055278778076172,-1.6816746197142542,-2.526487175618307,2.2811834055134277,-1.0170496145831507,0.08301899582147598
1708440520.5589018,-1.105497121810913,-1.6816250286498011,-2.52649170557131,2.28123323499646,-1.0170930067645472,0.08304283767938614
1708440520.5609155,-1.1055928468704224,-1.6816746197142542,-2.526499334965841,2.2811834055134277,-1.0170930067645472,0.08302660286426544
1708440520.5629227,-1.1055152416229248,-1.6816450558104457,-2.526454273854391,2.2812043863483886,-1.0170086065875452,0.0830482617020607
1708440520.5648956,-1.1055560111999512,-1.6816159687437953,-2.526503864918844,2.2812258440205078,-1.017057243977682,0.0830233097076416
1708440520.5668905,-1.1055235862731934,-1.6816584072508753,-2.526449743901388,2.281237764949463,-1.017041031514303,0.08303949981927872
1708440520.5688949,-1.1055197715759277,-1.6816135845580042,-2.526482645665304,2.2811834055134277,-1.0170086065875452,0.08303091675043106
1708440520.5708647,-1.105510950088501,-1.6816464863219203,-2.526454273854391,2.2812043863483886,-1.0170858542071741,0.0830482617020607
1708440520.5729027,-1.105560302734375,-1.681690355340475,-2.526503864918844,2.2811924654194335,-1.0170815626727503,0.08310923725366592
1708440520.5748649,-1.1056047677993774,-1.6816541157164515,-2.526475254689352,2.2812303739735107,-1.0170119444476526,0.08304394781589508
1708440520.5768852,-1.105532169342041,-1.6816860638060511,-2.5265279451953333,2.2811624246784667,-1.0170615355121058,0.08301036059856415
1708440520.578896,-1.1055152416229248,-1.681629320184225,-2.526475254689352,2.2812422949024658,-1.0170734564410608,0.08304715156555176
1708440520.5808947,-1.105536699295044,-1.6816584072508753,-2.5265489260302942,2.2811879354664306,-1.0170357863055628,0.08304715156555176
1708440520.5829012,-1.105532169342041,-1.6815959415831507,-2.526482645665304,2.281158133144043,-1.0170944372760218,0.0830889493227005
1708440520.5848844,-1.105544090270996,-1.6816703281798304,-2.526511255894796,2.2812258440205078,-1.017057243977682,0.08306018263101578
1708440520.5869303,-1.1055734157562256,-1.6815830669798792,-2.526466194783346,2.2811879354664306,-1.0170930067645472,0.08303202688694
1708440520.5889325,-1.105481743812561,-1.681596418420309,-2.526499334965841,2.281212254161499,-1.017052952443258,0.08306021988391876
1708440520.5908625,-1.10554838180542,-1.6816045246519984,-2.526475254689352,2.2811998563953857,-1.0170930067645472,0.08305907249450684
1708440520.5929081,-1.1055397987365723,-1.6816770039000453,-2.526475254689352,2.2811760145374755,-1.0170043150531214,0.083055779337883
1708440520.5949135,-1.1055971384048462,-1.68168367962026,-2.526511255894796,2.2811805444904785,-1.0170815626727503,0.0830918624997139
1708440520.5969732,-1.10554838180542,-1.6816746197142542,-2.526449743901388,2.2811686235615234,-1.017052952443258,0.08301115036010742
1708440520.5989215,-1.10554838180542,-1.6816159687437953,-2.526508394871847,2.2811433511921386,-1.0170486609088343,0.08298931270837784
1708440520.6009097,-1.1055529117584229,-1.6816493473448695,-2.526442352925436,2.2811924654194335,-1.017041031514303,0.0830383226275444
1708440520.602947,-1.1055278778076172,-1.6816655598082484,-2.526454273854391,2.2811717230030517,-1.0170205275165003,0.08301468193531036
1708440520.6048846,-1.1055517196655273,-1.6816135845580042,-2.526515785847799,2.2811686235615234,-1.0170658270465296,0.0830233246088028
1708440520.606896,-1.1055691242218018,-1.6816860638060511,-2.526454273854391,2.2811924654194335,-1.0170734564410608,0.08303090184926987
1708440520.6089246,-1.105536699295044,-1.6816746197142542,-2.526478115712301,2.2811595636555175,-1.0170367399798792,0.08306339383125305
1708440520.6109016,-1.10557222366333,-1.6816135845580042,-2.5265234152423304,2.2811433511921386,-1.017052952443258,0.08303523063659668
1708440520.612908,-1.105482816696167,-1.6816417179503382,-2.526499334965841,2.2811686235615234,-1.0170944372760218,0.08303958177566528
1708440520.6148746,-1.105544090270996,-1.6816045246519984,-2.526478115712301,2.2811969953724365,-1.0170648733722132,0.08304282277822495
1708440520.6169019,-1.1055023670196533,-1.6816569767394007,-2.526442352925436,2.2811805444904785,-1.0170734564410608,0.08306766301393509
1708440520.6188862,-1.1055066585540771,-1.6816073856749476,-2.526458803807394,2.2812058168598632,-1.0170772711383265,0.08307206630706787
1708440520.6209161,-1.105510950088501,-1.6816002331175746,-2.526496235524313,2.2811567026325683,-1.0170486609088343,0.08304715156555176
1708440520.622891,-1.105544090270996,-1.6815787754454554,-2.526482645665304,2.2811969953724365,-1.0170815626727503,0.0830320492386818
1708440520.6248765,-1.1055152416229248,-1.6816159687437953,-2.526482645665304,2.2811552721210937,-1.017069164906637,0.08301898092031479
1708440520.6269348,-1.1055808067321777,-1.6816250286498011,-2.526494805012838,2.2811731535145263,-1.0170605818377894,0.08303523063659668
1708440520.6289105,-1.1054916381835938,-1.6816450558104457,-2.5264902750598353,2.281106873149536,-1.0170858542071741,0.08304397016763687
1708440520.630874,-1.1055560111999512,-1.6816250286498011,-2.526499334965841,2.2811805444904785,-1.0170944372760218,0.08299048990011215
1708440520.6329212,-1.10554838180542,-1.6816092930235804,-2.5264859835254114,2.281222029323242,-1.0170486609088343,0.08301465213298798
1708440520.6348999,-1.105532169342041,-1.681629320184225,-2.526466194783346,2.2811478811451416,-1.017069164906637,0.08308026194572449
1708440520.636906,-1.10554838180542,-1.6816283665099085,-2.526470724736349,2.2811805444904785,-1.0170944372760218,0.08306770026683807
1708440520.638891,-1.1054904460906982,-1.6816584072508753,-2.526487175618307,2.2812177377888183,-1.0171058813678187,0.08302772045135498
1708440520.6408646,-1.105536699295044,-1.6816331348814906,-2.526482645665304,2.2811924654194335,-1.0170367399798792,0.08308462798595428
1708440520.6429002,-1.1055636405944824,-1.681629320184225,-2.52649170557131,2.2812346655079345,-1.0170195738421839,0.08307646960020065
1708440520.6449068,-1.105532169342041,-1.6816326580443324,-2.526487175618307,2.2812089163013916,-1.0170648733722132,0.08303090929985046
1708440520.6469939,-1.10554838180542,-1.6816045246519984,-2.526515785847799,2.281210346812866,-1.0170930067645472,0.08304715901613235
1708440520.6488883,-1.105532169342041,-1.6816073856749476,-2.526499334965841,2.2811850744434814,-1.0170729796039026,0.08302657306194305
1708440520.6508873,-1.105548620223999,-1.6816045246519984,-2.526482645665304,2.281193895930908,-1.017052952443258,0.08301465213298798
1708440520.6529238,-1.1055614948272705,-1.6816450558104457,-2.526503864918844,2.2812012869068603,-1.0171387831317347,0.08304715901613235
1708440520.6548967,-1.1055517196655273,-1.6816584072508753,-2.52649170557131,2.2811924654194335,-1.017052952443258,0.08300244808197021
1708440520.6569374,-1.105576515197754,-1.6816135845580042,-2.526482645665304,2.2811760145374755,-1.017069164906637,0.08306769281625748
1708440520.6589139,-1.105532169342041,-1.6816116772093714,-2.5265067259417933,2.2811731535145263,-1.017057243977682,0.0830233097076416
1708440520.66091,-1.1055152416229248,-1.6816159687437953,-2.526475254689352,2.2812222677418212,-1.0170815626727503,0.08303088694810867
1708440520.6629434,-1.1055023670196533,-1.6816045246519984,-2.526487175618307,2.2811521726795654,-1.0170281569110315,0.08306340128183365
1708440520.664907,-1.105547308921814,-1.681629320184225,-2.5265324751483362,2.2811598020740966,-1.0170777479754847,0.08298183232545853
1708440520.6669536,-1.10554838180542,-1.6816407642760218,-2.526511255894796,2.2811612325855712,-1.0171225706683558,0.08304282277822495
1708440520.6689534,-1.1055560111999512,-1.6816464863219203,-2.526487175618307,2.2811478811451416,-1.0170944372760218,0.08305148035287857
1708440520.6709092,-1.105576515197754,-1.6816450558104457,-2.526470724736349,2.2812089163013916,-1.0170562903033655,0.08300674706697464
1708440520.6728969,-1.1055691242218018,-1.6816493473448695,-2.5265279451953333,2.2811776834675292,-1.0170443693744105,0.08303090184926987
1708440520.6748776,-1.1055560111999512,-1.6815830669798792,-2.526515785847799,2.2811433511921386,-1.017052952443258,0.08303198218345642
1708440520.6768608,-1.105532169342041,-1.6816283665099085,-2.526499334965841,2.2811760145374755,-1.017130200062887,0.08304394781589508
1708440520.6788757,-1.10554838180542,-1.6816002331175746,-2.52651292482485,2.2811686235615234,-1.0171096960650843,0.08303955942392349
1708440520.6808608,-1.1055397987365723,-1.6816092930235804,-2.526429001485006,2.2811359602161865,-1.0170734564410608,0.08305148035287857
1708440520.682919,-1.1055235862731934,-1.681617876092428,-2.526496235524313,2.2811686235615234,-1.017069164906637,0.08303524553775787
1708440520.6848862,-1.1055645942687988,-1.6816073856749476,-2.526508394871847,2.2812012869068603,-1.0170734564410608,0.0830439105629921
1708440520.686863,-1.1055023670196533,-1.6816417179503382,-2.526494805012838,2.2811640936085205,-1.0170772711383265,0.08301109820604324
1708440520.6888976,-1.1055395603179932,-1.6816092930235804,-2.526478115712301,2.2811640936085205,-1.0170858542071741,0.08299805223941803
1708440520.6908839,-1.1055560111999512,-1.6816116772093714,-2.526482645665304,2.2811359602161865,-1.0170605818377894,0.08302328735589981
1708440520.6928651,-1.1055679321289062,-1.6816612682738246,-2.526482645665304,2.2811893659779052,-1.0170815626727503,0.08304281532764435
1708440520.694877,-1.1055235862731934,-1.6816250286498011,-2.526548687611715,2.2811521726795654,-1.017069164906637,0.08301030099391937
1708440520.6968834,-1.1055679321289062,-1.6815968952574671,-2.52649170557131,2.281146212215088,-1.017097298298971,0.08301900327205658
1708440520.6989365,-1.1055809259414673,-1.681690355340475,-2.5265324751483362,2.2811476427265625,-1.0170615355121058,0.08302329480648041
1708440520.7009134,-1.105576515197754,-1.681681295434469,-2.5264902750598353,2.2811805444904785,-1.0170858542071741,0.0830557644367218
1708440520.7028868,-1.1055066585540771,-1.6816250286498011,-2.526499334965841,2.2811269003101806,-1.017118279133932,0.08302657306194305
1708440520.7048635,-1.1055679321289062,-1.6815878353514613,-2.526529137288229,2.2811969953724365,-1.0170772711383265,0.08301115781068802
1708440520.7068613,-1.1055152416229248,-1.6816417179503382,-2.526557747517721,2.2811805444904785,-1.0170930067645472,0.08302658051252365
1708440520.7088964,-1.1056090593338013,-1.6816283665099085,-2.526529137288229,2.2812043863483886,-1.0170815626727503,0.08308073878288269
1708440520.7109163,-1.105560302734375,-1.6816250286498011,-2.526475254689352,2.2811850744434814,-1.0170772711383265,0.0830395445227623
1708440520.7128727,-1.105531096458435,-1.6816584072508753,-2.526503864918844,2.2811567026325683,-1.0171015898333948,0.08303521573543549
1708440520.7148597,-1.1056090593338013,-1.6815954647459925,-2.526515785847799,2.2812222677418212,-1.017113987599508,0.08306339383125305
1708440520.7168877,-1.1055397987365723,-1.681634088555807,-2.526520315800802,2.2811760145374755,-1.0170562903033655,0.08304283767938614
1708440520.718917,-1.1055766344070435,-1.6816240749754847,-2.526416603718893,2.2811640936085205,-1.017052952443258,0.08306336402893066
1708440520.7208817,-1.1055278778076172,-1.6816936932005824,-2.526529137288229,2.2811879354664306,-1.0170772711383265,0.083027683198452
1708440520.722885,-1.10551917552948,-1.681619783441061,-2.526478115712301,2.2811598020740966,-1.0170734564410608,0.08303956687450409
1708440520.7248766,-1.105544090270996,-1.6816417179503382,-2.5265234152423304,2.2811388212391357,-1.0171015898333948,0.0830676481127739
1708440520.7269187,-1.105536699295044,-1.6816159687437953,-2.52653676668276,2.2811924654194335,-1.017097298298971,0.08302657306194305
1708440520.7288892,-1.1055647134780884,-1.6816417179503382,-2.526478115712301,2.2811879354664306,-1.017057243977682,0.0830395370721817
1708440520.7309039,-1.1055679321289062,-1.6816417179503382,-2.5265324751483362,2.281226559276245,-1.0170930067645472,0.08307202160358429
1708440520.7328527,-1.1055645942687988,-1.6815878353514613,-2.5265324751483362,2.2812089163013916,-1.0171011129962366,0.08301465213298798
1708440520.7348688,-1.1055397987365723,-1.6816283665099085,-2.526511255894796,2.2811969953724365,-1.0170930067645472,0.08306019008159637
1708440520.736893,-1.10551917552948,-1.6816493473448695,-2.526511255894796,2.281170054072998,-1.0170605818377894,0.08299816399812698
1708440520.7388887,-1.1055560111999512,-1.6816703281798304,-2.526487175618307,2.2811998563953857,-1.0171015898333948,0.08308468014001846
1708440520.7408876,-1.105531096458435,-1.6816374264159144,-2.526487175618307,2.2812134462543945,-1.0170815626727503,0.08305907249450684
1708440520.74286,-1.1055679321289062,-1.6816374264159144,-2.526433531438009,2.281193895930908,-1.0170815626727503,0.08305907249450684
1708440520.7448914,-1.1055517196655273,-1.6816331348814906,-2.526511255894796,2.2811521726795654,-1.017113987599508,0.08305907249450684
1708440520.7468739,-1.1055397987365723,-1.6816135845580042,-2.526487175618307,2.2811731535145263,-1.0170605818377894,0.08299051225185394
1708440520.7489274,-1.105532169342041,-1.6816283665099085,-2.526466194783346,2.2811760145374755,-1.0170648733722132,0.08302660286426544
1708440520.7509274,-1.1055768728256226,-1.6816207371153773,-2.526515785847799,2.2811598020740966,-1.0170858542071741,0.08306018263101578
1708440520.752942,-1.1055572032928467,-1.6816655598082484,-2.526449743901388,2.2811669546314697,-1.0170519987689417,0.0830383449792862
1708440520.7549102,-1.1055232286453247,-1.6816159687437953,-2.526487175618307,2.2811598020740966,-1.0170887152301233,0.08303523063659668
1708440520.7568843,-1.1055560111999512,-1.6816250286498011,-2.526494805012838,2.2811612325855712,-1.0171054045306605,0.08306770026683807
1708440520.758893,-1.1055645942687988,-1.6816250286498011,-2.526496235524313,2.2811598020740966,-1.0170930067645472,0.08301464468240738
1708440520.7608778,-1.1055148839950562,-1.681631704370016,-2.5264528433429163,2.2811521726795654,-1.017113987599508,0.08306338638067245
1708440520.762926,-1.10551917552948,-1.6816283665099085,-2.5264859835254114,2.2811478811451416,-1.0170930067645472,0.08305458724498749
1708440520.7648816,-1.1055397987365723,-1.6816116772093714,-2.5265324751483362,2.2812511163898925,-1.0170772711383265,0.08299380540847778
1708440520.7668817,-1.105536699295044,-1.6816655598082484,-2.526487175618307,2.2811521726795654,-1.017142120991842,0.08305146545171738
1708440520.7689064,-1.105532169342041,-1.6816045246519984,-2.526508394871847,2.28117744504895,-1.0170930067645472,0.0830845907330513
1708440520.7708862,-1.1055691242218018,-1.6816612682738246,-2.526515785847799,2.2811478811451416,-1.017130200062887,0.0830383449792862
1708440520.772864,-1.10557222366333,-1.6816374264159144,-2.5265324751483362,2.2812132078358154,-1.0170648733722132,0.08307147026062012
1708440520.7748532,-1.1055235862731934,-1.6816417179503382,-2.5265234152423304,2.2811478811451416,-1.0171011129962366,0.08305907249450684
1708440520.77691,-1.10554838180542,-1.6816541157164515,-2.5265563170062464,2.2811640936085205,-1.0171259085284632,0.08303523063659668
1708440520.7788804,-1.1055409908294678,-1.6816636524596156,-2.5264573732959192,2.2811598020740966,-1.0171054045306605,0.08307147026062012
1708440520.7808921,-1.105532169342041,-1.6816283665099085,-2.526466194783346,2.2811598020740966,-1.0171173254596155,0.08305907994508743
1708440520.7828789,-1.105532169342041,-1.6816283665099085,-2.526470724736349,2.2811433511921386,-1.0171011129962366,0.08306338638067245
1708440520.7848663,-1.105532169342041,-1.6816283665099085,-2.526511255894796,2.2811850744434814,-1.0171130339251917,0.08305580914020538
1708440520.786909,-1.1055622100830078,-1.6816655598082484,-2.526562277470724,2.281193895930908,-1.017092529927389,0.08305038511753082
1708440520.7888632,-1.1054869890213013,-1.681678911248678,-2.526494805012838,2.281198425883911,-1.0171411673175257,0.08310049772262573
1708440520.7908638,-1.1055413484573364,-1.6816636524596156,-2.526499334965841,2.2811731535145263,-1.0171616713153284,0.08307597041130066
1708440520.792889,-1.1054904460906982,-1.6816407642760218,-2.526466194783346,2.2812391954609375,-1.0171812216388147,0.08305035531520844
1708440520.7948663,-1.1055240631103516,-1.6816407642760218,-2.526503864918844,2.2811476427265625,-1.017176930104391,0.08306338638067245
1708440520.7969255,-1.1055235862731934,-1.6817194424071253,-2.526515785847799,2.2811567026325683,-1.0172174612628382,0.08302657306194305
1708440520.7988915,-1.1054942607879639,-1.6816770039000453,-2.526515785847799,2.2811893659779052,-1.0172250906573694,0.08306292444467545
1708440520.8008869,-1.1055002212524414,-1.6816402874388636,-2.5265398661242884,2.2811195093342285,-1.0172327200519007,0.08307147026062012
1708440520.8029153,-1.105532169342041,-1.6816612682738246,-2.526478115712301,2.2811447817036132,-1.0172165075885218,0.08303414285182953
1708440520.8048804,-1.1054797172546387,-1.6817385158934535,-2.5264814535724085,2.2811567026325683,-1.0172207991229456,0.08305907249450684
1708440520.807132,-1.1054840087890625,-1.6817132435240687,-2.526482645665304,2.2811195093342285,-1.0172165075885218,0.08305907249450684
1708440520.8089046,-1.1055257320404053,-1.6816522083678187,-2.52653676668276,2.2811402517506103,-1.0172575155841272,0.08309618383646011
1708440520.8108842,-1.1054797172546387,-1.6817180118956507,-2.5265443960772913,2.2811567026325683,-1.0172413031207483,0.08307147026062012
1708440520.812896,-1.1054675579071045,-1.6816803417601527,-2.526494805012838,2.281193895930908,-1.0172088781939905,0.08313728868961334
1708440520.8149066,-1.1055004596710205,-1.6816393337645472,-2.526487175618307,2.2812058168598632,-1.017261807118551,0.08304599672555923
1708440520.816932,-1.1054974794387817,-1.6816760502257289,-2.5265234152423304,2.2811149793812255,-1.0172165075885218,0.08304604142904282
1708440520.818915,-1.1054631471633911,-1.681699892083639,-2.5265353361712855,2.2811195093342285,-1.0172327200519007,0.08309940248727798
1708440520.8209097,-1.1054644584655762,-1.6817342243590296,-2.526494805012838,2.281124992961548,-1.0172327200519007,0.08307008445262909
1708440520.8229563,-1.1054794788360596,-1.6816626987852992,-2.526470724736349,2.281149311656616,-1.0172165075885218,0.08309940248727798
1708440520.8248782,-1.1054883003234863,-1.6817504368224085,-2.5265324751483362,2.281146450633667,-1.0172413031207483,0.08309507369995117
1708440520.8269289,-1.1054439544677734,-1.6817385158934535,-2.5265353361712855,2.281165762538574,-1.0172327200519007,0.0830545648932457
1708440520.8288653,-1.1054693460464478,-1.681687971154684,-2.5264859835254114,2.2811283308216552,-1.0172608534442347,0.08306290209293365
1708440520.8308663,-1.1054482460021973,-1.6817208729186,-2.5265279451953333,2.281111403102539,-1.0172694365130823,0.08305908739566803
1708440520.8328903,-1.1053977012634277,-1.6817370853819789,-2.526494805012838,2.281083031291626,-1.0172651449786585,0.08313648402690887
1708440520.8348508,-1.1054041385650635,-1.6817833385863246,-2.5264902750598353,2.281115933055542,-1.0171926657306116,0.08309075236320496
1708440520.8368928,-1.1054234504699707,-1.6816674671568812,-2.5265472571002405,2.281094952220581,-1.0172327200519007,0.08311132341623306
1708440520.8388593,-1.1054482460021973,-1.6816760502257289,-2.5265725294696253,2.281092091197632,-1.0172370115863245,0.08307448029518127
1708440520.840857,-1.1054023504257202,-1.6817089519896449,-2.5265770594226282,2.2811176019855957,-1.0171797911273401,0.0831364318728447
1708440520.842901,-1.1054189205169678,-1.6817251644530238,-2.5265472571002405,2.2811292844959716,-1.0172207991229456,0.08314847946166992
1708440520.8448863,-1.1054664850234985,-1.681728025475973,-2.5265472571002405,2.2810684877583007,-1.0172413031207483,0.083114854991436
1708440520.8469436,-1.1054234504699707,-1.6817165813841761,-2.52653676668276,2.28104750692334,-1.0172737280475062,0.08315161615610123
1708440520.848928,-1.1054234504699707,-1.681765695611471,-2.526478115712301,2.2810847002216796,-1.0172737280475062,0.0831267237663269
1708440520.8508759,-1.1054027080535889,-1.6816970310606898,-2.5265279451953333,2.2810966211506347,-1.0172284285174769,0.08309823274612427
1708440520.8529282,-1.1054069995880127,-1.681741853753561,-2.5265188852893274,2.2810444074818115,-1.0172651449786585,0.08315165340900421
1708440520.854908,-1.1053787469863892,-1.6817451916136683,-2.5265398661242884,2.2811099725910644,-1.017184082661764,0.08312355726957321
1708440520.856917,-1.1053712368011475,-1.6817075214781703,-2.5265398661242884,2.2811054426380615,-1.0172284285174769,0.08314735442399979
1708440520.8588908,-1.1053627729415894,-1.6817451916136683,-2.5265353361712855,2.2810563284107666,-1.017289940510885,0.08315924555063248
1708440520.860913,-1.1054039001464844,-1.681704660455221,-2.5265517870532435,2.2810847002216796,-1.0172608534442347,0.08307764679193497
1708440520.8629622,-1.1054245233535767,-1.6817699871458949,-2.5265637079821985,2.2810534673878173,-1.0172489325152796,0.08311912417411804
1708440520.8649495,-1.10543692111969,-1.6818434200682582,-2.5265546480761927,2.2810355859943847,-1.017212216054098,0.08310258388519287
1708440520.866974,-1.1053757667541504,-1.681802888909811,-2.5265682379352015,2.281026764506958,-1.017289940510885,0.08316037058830261
1708440520.8689215,-1.1053800582885742,-1.6817523441710414,-2.5265546480761927,2.2810816007801513,-1.0172856489764612,0.08313103765249252
1708440520.870909,-1.1053593158721924,-1.6817409000792445,-2.526583258305685,2.281063957805298,-1.0172813574420374,0.08311482518911362
1708440520.8729165,-1.1054126024246216,-1.6817165813841761,-2.526578728352682,2.2810281950184326,-1.0172284285174769,0.083156056702137
1708440520.8749015,-1.1054039001464844,-1.6817566357054652,-2.526632849370138,2.2810401159473876,-1.0172651449786585,0.08315924555063248
1708440520.8769152,-1.1053919792175293,-1.6817780933775843,-2.526590887700216,2.2810847002216796,-1.017240349446432,0.08312241733074188
1708440520.8788733,-1.1053264141082764,-1.6817690334715785,-2.5265820662127894,2.2810608583637695,-1.0172813574420374,0.08309821784496307
1708440520.880906,-1.105384349822998,-1.6817742786803187,-2.526583258305685,2.28101555883374,-1.0172446409808558,0.08311136811971664
1708440520.882955,-1.105384349822998,-1.6817032299437464,-2.526623789464132,2.2810281950184326,-1.0172327200519007,0.08314415067434311
1708440520.8848832,-1.1053681373596191,-1.6817981205382289,-2.526602808629171,2.2811025816151123,-1.0172694365130823,0.0831267461180687
1708440520.886912,-1.1053264141082764,-1.6817780933775843,-2.526623789464132,2.28101555883374,-1.0172489325152796,0.08315606415271759
1708440520.8888927,-1.1053595542907715,-1.6817823849120082,-2.526607338582174,2.281033678645752,-1.0172608534442347,0.0831104964017868
1708440520.8908613,-1.105393886566162,-1.6817409000792445,-2.526635710393087,2.281017227763794,-1.0172327200519007,0.08315495401620865
1708440520.8929162,-1.1053276062011719,-1.6817475757994593,-2.5266221205340784,2.2810324865528564,-1.0172565619098108,0.08314414322376251
1708440520.8948524,-1.1053025722503662,-1.6817823849120082,-2.5266221205340784,2.281003637904785,-1.0172608534442347,0.08310702443122864
1708440520.8969002,-1.1053438186645508,-1.6817237339415492,-2.5266431013690394,2.28101555883374,-1.0173018614398401,0.08313430845737457
1708440520.8989182,-1.105334997177124,-1.6817285023131312,-2.5266431013690394,2.281050606364868,-1.0172565619098108,0.08315495401620865
1708440520.9009554,-1.1053481101989746,-1.681760927239889,-2.526607338582174,2.281024618739746,-1.0172932783709925,0.08309395611286163
1708440520.9029024,-1.1053071022033691,-1.6817699871458949,-2.5266266504870813,2.280999107951782,-1.0172479788409632,0.08311047405004501
1708440520.904919,-1.1053184270858765,-1.6817494831480921,-2.526665512715475,2.281050606364868,-1.017236057912008,0.08313106000423431
1708440520.9068975,-1.1053448915481567,-1.6817237339415492,-2.526635710393087,2.281000776881836,-1.0172284285174769,0.08313106000423431
1708440520.9088733,-1.1053440570831299,-1.6817566357054652,-2.526611868535177,2.2810534673878173,-1.0172770659076136,0.08310257643461227
1708440520.9108722,-1.1053242683410645,-1.6817409000792445,-2.5266431013690394,2.281033440227173,-1.0172446409808558,0.0831560268998146
1708440520.912917,-1.1053276062011719,-1.681798597375387,-2.526652161275045,2.280970736140869,-1.0172889868365687,0.08311484009027481
1708440520.9149725,-1.105299472808838,-1.681728025475973,-2.5266476313220423,2.281024618739746,-1.0173142592059534,0.08315160870552063
1708440520.9169018,-1.105340600013733,-1.6818019352354945,-2.5266507307635706,2.281087799663208,-1.017301384602682,0.08314299583435059
1708440520.9188645,-1.105323314666748,-1.6817647419371546,-2.5266101996051233,2.281008167857788,-1.017268482838766,0.08309826999902725
1708440520.9208636,-1.105352520942688,-1.6817194424071253,-2.526619259511129,2.280975504512451,-1.017264191304342,0.08318442106246948
1708440520.9228568,-1.1052939891815186,-1.6817690334715785,-2.5265939871417444,2.280999107951782,-1.0172770659076136,0.08311052620410919
1708440520.924866,-1.105311393737793,-1.6817194424071253,-2.526660982762472,2.280991955394409,-1.0172975699054163,0.0831310823559761
1708440520.9268665,-1.105312705039978,-1.6817275486388148,-2.5266147295581263,2.281008167857788,-1.0173056761371058,0.08312787115573883
1708440520.9288778,-1.105340600013733,-1.6817780933775843,-2.526656452809469,2.281017227763794,-1.0172727743731897,0.08318442106246948
1708440520.9308875,-1.105340600013733,-1.6817823849120082,-2.5266476313220423,2.281055136317871,-1.0172727743731897,0.08314299583435059
1708440520.932853,-1.105299472808838,-1.681728025475973,-2.5266101996051233,2.281012697810791,-1.017297093068258,0.0831267461180687
1708440520.934849,-1.105352520942688,-1.681765695611471,-2.526640001927511,2.280984325999878,-1.017280403767721,0.08309822529554367
1708440520.9368641,-1.105299472808838,-1.6817237339415492,-2.5266476313220423,2.2810425001331787,-1.0173175970660608,0.08314299583435059
1708440520.9388669,-1.1053276062011719,-1.681760927239889,-2.5266643206225794,2.2809769350239257,-1.0172479788409632,0.08312244713306427
1708440520.940857,-1.1053318977355957,-1.6817494831480921,-2.5266101996051233,2.2809769350239257,-1.0172889868365687,0.0831473097205162
1708440520.942881,-1.1053736209869385,-1.6817494831480921,-2.5266431013690394,2.280996246928833,-1.017297093068258,0.08312355726957321
1708440520.9448538,-1.1053037643432617,-1.6817499599852503,-2.52664024034609,2.281012697810791,-1.0172727743731897,0.08311484009027481
1708440520.9468503,-1.105299472808838,-1.681774755517477,-2.526602808629171,2.280991955394409,-1.017301384602682,0.08308635652065277
1708440520.9489748,-1.105283260345459,-1.6817237339415492,-2.526619259511129,2.281017227763794,-1.017341438923971,0.08312352746725082
1708440520.9509199,-1.105311393737793,-1.6817451916136683,-2.5266686121570032,2.281017227763794,-1.017301384602682,0.08315491676330566
1708440520.9529617,-1.1053580045700073,-1.681760927239889,-2.526590887700216,2.281024618739746,-1.0173209349261683,0.08311915397644043
1708440520.9549272,-1.1053361892700195,-1.6817285023131312,-2.526619259511129,2.281050606364868,-1.0172928015338343,0.08309827744960785
1708440520.9569235,-1.1053037643432617,-1.6817409000792445,-2.5266686121570032,2.281029148692749,-1.017325226460592,0.08311052620410919
1708440520.9589002,-1.1053650379180908,-1.681760927239889,-2.526607338582174,2.281046076411865,-1.017301384602682,0.08314408361911774
1708440520.9608905,-1.105295181274414,-1.681732793847555,-2.526635710393087,2.281000776881836,-1.017329517995016,0.08311911672353745
1708440520.9628801,-1.1053080558776855,-1.6817566357054652,-2.5266643206225794,2.280996246928833,-1.0173166433917444,0.08307777345180511
1708440520.9649463,-1.1053037643432617,-1.681732793847555,-2.5266431013690394,2.281000776881836,-1.0173166433917444,0.0831473097205162
1708440520.9669442,-1.1053276062011719,-1.6817690334715785,-2.5265939871417444,2.280963583583496,-1.017280403767721,0.08315162360668182
1708440520.9689307,-1.1052961349487305,-1.6817566357054652,-2.5265982786761683,2.2810470300861816,-1.0172761122332972,0.08306579291820526
1708440520.9709053,-1.1052875518798828,-1.6817389927306117,-2.5266476313220423,2.281012697810791,-1.017301384602682,0.08317220956087112
1708440520.97286,-1.1053080558776855,-1.6817103825011195,-2.5265939871417444,2.2810067373463134,-1.0172842184649866,0.08311484009027481
1708440520.9748592,-1.1053144931793213,-1.681765695611471,-2.526607338582174,2.281000776881836,-1.0173004309283655,0.08310259133577347
1708440520.9768538,-1.1053242683410645,-1.681765695611471,-2.526623789464132,2.2809933859058837,-1.0173500219928187,0.08318013697862625
1708440520.9789011,-1.1053080558776855,-1.6817499599852503,-2.5266643206225794,2.280996246928833,-1.0173166433917444,0.08308964967727661
1708440520.980891,-1.1053156852722168,-1.6817285023131312,-2.5265939871417444,2.280996246928833,-1.017297093068258,0.08311489224433899
1708440520.9828548,-1.1053242683410645,-1.6817451916136683,-2.5267017523394983,2.2810260492512207,-1.017329517995016,0.08307778835296631
1708440520.9848974,-1.105299472808838,-1.6817566357054652,-2.5266101996051233,2.281000776881836,-1.0173209349261683,0.08311483263969421
1708440520.9868572,-1.105299472808838,-1.6817237339415492,-2.5266266504870813,2.2809604841419677,-1.017325226460592,0.08312355726957321
1708440520.9889033,-1.1052831411361694,-1.6817194424071253,-2.5266340414630335,2.280996246928833,-1.017329517995016,0.08310700953006744
1708440520.99087,-1.105352520942688,-1.681765695611471,-2.5266476313220423,2.280980034465454,-1.0173209349261683,0.08307771384716034
1708440520.9929035,-1.105295181274414,-1.6817647419371546,-2.5266311804400843,2.280984325999878,-1.0173457304583948,0.08307770639657974
1708440520.9948776,-1.1053156852722168,-1.681758543054098,-2.5266101996051233,2.280938072795532,-1.0173090139972132,0.083151675760746
1708440520.9968476,-1.1053199768066406,-1.6817451916136683,-2.5266385714160364,2.2810305792042236,-1.017325226460592,0.08313222229480743
1708440520.9989264,-1.1053037643432617,-1.6817566357054652,-2.5266311804400843,2.280980034465454,-1.0173609892474573,0.0831105038523674
1708440521.0009406,-1.1053276062011719,-1.6817409000792445,-2.526635710393087,2.281033440227173,-1.0172961393939417,0.08311483263969421
1708440521.0029094,-1.1053071022033691,-1.6817971668639125,-2.5266597906695765,2.280963583583496,-1.0173361937152308,0.08316028118133545
1708440521.004927,-1.1053037643432617,-1.6817566357054652,-2.5266132990466517,2.280972405070923,-1.0173285643206995,0.08314728736877441
1708440521.0068836,-1.105311393737793,-1.681835790673727,-2.526619259511129,2.280972405070923,-1.017325226460592,0.08315606415271759
1708440521.008889,-1.1053276062011719,-1.681760927239889,-2.526635710393087,2.2810215192982177,-1.0173371473895472,0.0831235721707344
1708440521.0108664,-1.1052583456039429,-1.6817451916136683,-2.5266385714160364,2.2810215192982177,-1.0172961393939417,0.08315601944923401
1708440521.0129275,-1.105299472808838,-1.6817194424071253,-2.5266431013690394,2.281000776881836,-1.0173209349261683,0.08314299583435059
1708440521.0150104,-1.1053410768508911,-1.6817780933775843,-2.526602808629171,2.2810260492512207,-1.01738149324526,0.08309827744960785
1708440521.0168705,-1.1052961349487305,-1.6817981205382289,-2.5266266504870813,2.2810467916676025,-1.017369572316305,0.08311913907527924
1708440521.0188699,-1.1052756309509277,-1.6817475757994593,-2.5266059080706995,2.280970736140869,-1.0173447767840784,0.08313977718353271
1708440521.0208664,-1.1053037643432617,-1.6817523441710414,-2.5266059080706995,2.281000776881836,-1.0173371473895472,0.08306152373552322
1708440521.0229275,-1.1052745580673218,-1.6817566357054652,-2.526651922856466,2.280939741725586,-1.0173242727862757,0.08309826254844666
1708440521.0248725,-1.1052669286727905,-1.6817599735655726,-2.526640001927511,2.2810305792042236,-1.0173619429217737,0.08313107490539551
1708440521.0269334,-1.1052873134613037,-1.6817475757994593,-2.526644531880514,2.2810141283222656,-1.0173772017108362,0.08307013660669327
1708440521.0288785,-1.1052961349487305,-1.6817566357054652,-2.5265982786761683,2.280991955394409,-1.017353359852926,0.08310259878635406
1708440521.0308802,-1.1053037643432617,-1.6817566357054652,-2.5265653769122522,2.280956192607544,-1.0173328558551233,0.08307886123657227
1708440521.0329065,-1.1052875518798828,-1.6817285023131312,-2.52664024034609,2.281005306834839,-1.0173371473895472,0.08315163850784302
1708440521.034888,-1.1052545309066772,-1.6817285023131312,-2.5266104380237024,2.281005306834839,-1.0173242727862757,0.08311483263969421
1708440521.036881,-1.1053080558776855,-1.6817895374693812,-2.5266266504870813,2.280956192607544,-1.0173490683185022,0.08308633416891098
1708440521.038879,-1.1052590608596802,-1.6817847690977992,-2.526623789464132,2.281005306834839,-1.0173609892474573,0.0830630213022232
1708440521.0408733,-1.1052875518798828,-1.6817451916136683,-2.526619259511129,2.2809695440479736,-1.0173609892474573,0.08310700207948685
1708440521.042897,-1.1052963733673096,-1.6817451916136683,-2.5266147295581263,2.2809485632130126,-1.0173404852496546,0.08311129361391068
1708440521.0448647,-1.1052745580673218,-1.6817895374693812,-2.5265865961657923,2.2809857565113525,-1.0173729101764124,0.083123579621315
1708440521.0468926,-1.1052918434143066,-1.6817981205382289,-2.5266805330859583,2.2809976774403076,-1.0173199812518519,0.08305861800909042
1708440521.0488715,-1.1052712202072144,-1.6817075214781703,-2.52664024034609,2.2810184198566894,-1.0173285643206995,0.08310259878635406
1708440521.0509596,-1.1052842140197754,-1.6818105183043421,-2.5266223589526575,2.2809769350239257,-1.0173209349261683,0.08307014405727386
1708440521.052914,-1.1052594184875488,-1.681793829003805,-2.5266643206225794,2.280944271678589,-1.0173404852496546,0.08314413577318192
1708440521.054939,-1.1052875518798828,-1.6817566357054652,-2.52664024034609,2.280918999309204,-1.0173328558551233,0.08313102275133133
1708440521.056938,-1.1052961349487305,-1.6817733250060023,-2.5266476313220423,2.280951662654541,-1.0173481146441858,0.08311130851507187
1708440521.0589027,-1.1052753925323486,-1.6817733250060023,-2.5266266504870813,2.280972405070923,-1.0173080603228968,0.08307452499866486
1708440521.0608826,-1.1052885055541992,-1.6817928753294886,-2.526656452809469,2.280939741725586,-1.0173242727862757,0.08310814946889877
1708440521.062905,-1.1053167581558228,-1.6817690334715785,-2.5266805330859583,2.2809604841419677,-1.0173490683185022,0.08306288719177246
1708440521.064879,-1.1052885055541992,-1.6817451916136683,-2.5266640822040003,2.2809769350239257,-1.0173404852496546,0.08306723833084106
1708440521.0669343,-1.105271339416504,-1.681760927239889,-2.5266311804400843,2.280956192607544,-1.0173361937152308,0.08307147026062012
1708440521.0690129,-1.105251669883728,-1.6817690334715785,-2.5266431013690394,2.2809106546589355,-1.0173447767840784,0.08305907994508743
1708440521.0709462,-1.1053004264831543,-1.6817981205382289,-2.5266147295581263,2.280935211772583,-1.0174058119403284,0.08305458724498749
1708440521.0729444,-1.1052756309509277,-1.6817566357054652,-2.5266311804400843,2.2809650140949707,-1.0173490683185022,0.08307595551013947
1708440521.0749314,-1.1052918434143066,-1.6817895374693812,-2.5266147295581263,2.2809650140949707,-1.0173609892474573,0.08303091675043106
1708440521.0768974,-1.1053053140640259,-1.6817690334715785,-2.526635710393087,2.2809769350239257,-1.0173490683185022,0.08303412050008774
1708440521.078909,-1.1052474975585938,-1.6818062267699183,-2.5265894571887415,2.2809695440479736,-1.0173404852496546,0.08304715156555176
1708440521.0809107,-1.1052874326705933,-1.6817432842650355,-2.5266686121570032,2.2810022073933105,-1.0173490683185022,0.08302207291126251
1708440521.0828795,-1.1052474975585938,-1.6817566357054652,-2.5266431013690394,2.2809814649769287,-1.0173609892474573,0.08305907994508743
1708440521.0848744,-1.1052474975585938,-1.6817761860289515,-2.5265818277942103,2.280918999309204,-1.0173285643206995,0.08306778222322464
1708440521.0868585,-1.1052842140197754,-1.6817409000792445,-2.526628319417135,2.2809485632130126,-1.0173080603228968,0.08305146545171738
1708440521.0889149,-1.1052517890930176,-1.6817451916136683,-2.526651922856466,2.2809485632130126,-1.0173166433917444,0.08303523063659668
1708440521.0908844,-1.1052560806274414,-1.6818224392332972,-2.526673142110006,2.2809695440479736,-1.0173371473895472,0.08303523808717728
1708440521.092914,-1.1052517890930176,-1.6817599735655726,-2.5266266504870813,2.2809485632130126,-1.017303768788473,0.08303091675043106
1708440521.0949137,-1.1053005456924438,-1.6817971668639125,-2.526616160069601,2.2809604841419677,-1.0173490683185022,0.08298183232545853
1708440521.0969234,-1.1052886247634888,-1.6817342243590296,-2.52664024034609,2.2809576231190185,-1.0173652807818812,0.08301899582147598
1708440521.098873,-1.1052842140197754,-1.6817475757994593,-2.5266311804400843,2.280927820796631,-1.0173609892474573,0.08307595551013947
1708440521.10091,-1.1052517890930176,-1.6817885837950648,-2.5266101996051233,2.2809976774403076,-1.0173199812518519,0.08300243318080902
1708440521.1028922,-1.1052885055541992,-1.6817647419371546,-2.5265939871417444,2.2809485632130126,-1.0173447767840784,0.08305146545171738
1708440521.1049123,-1.1052961349487305,-1.6817838154234828,-2.5266385714160364,2.2809106546589355,-1.0173404852496546,0.08302328735589981
1708440521.1068916,-1.1052391529083252,-1.6817475757994593,-2.526635710393087,2.280881806010864,-1.0173328558551233,0.08304394781589508
1708440521.1089118,-1.1053048372268677,-1.6817523441710414,-2.5265894571887415,2.2809077936359863,-1.0173199812518519,0.0830233097076416
1708440521.1108754,-1.1052435636520386,-1.6817838154234828,-2.5266311804400843,2.2809323507496337,-1.0173404852496546,0.08306018263101578
1708440521.1129174,-1.1052517890930176,-1.6817804775633753,-2.5266147295581263,2.2809650140949707,-1.0173328558551233,0.08306770026683807
1708440521.114937,-1.1052722930908203,-1.6817409000792445,-2.5266760031329554,2.280928774470947,-1.0173900763141077,0.08306018263101578
1708440521.1168702,-1.1052592992782593,-1.6817928753294886,-2.5266643206225794,2.2809604841419677,-1.0173166433917444,0.08305146545171738
1708440521.118863,-1.1052560806274414,-1.6817847690977992,-2.5266101996051233,2.2809323507496337,-1.0173004309283655,0.08305146545171738
1708440521.1208858,-1.1052430868148804,-1.6817075214781703,-2.5266147295581263,2.2810277181812744,-1.0173199812518519,0.08304283767938614
1708440521.1229024,-1.105281114578247,-1.6818138561644496,-2.5266101996051233,2.2809411722370605,-1.0173652807818812,0.08304283767938614
1708440521.1248696,-1.1052436828613281,-1.6817804775633753,-2.5266311804400843,2.2809063631245117,-1.0173447767840784,0.0829775258898735
1708440521.126926,-1.1052262783050537,-1.6817847690977992,-2.526623789464132,2.2809485632130126,-1.0173242727862757,0.08303522318601608
1708440521.1288857,-1.105247974395752,-1.6817733250060023,-2.526635710393087,2.2809695440479736,-1.0173199812518519,0.08305147290229797
1708440521.1308575,-1.1052228212356567,-1.6817761860289515,-2.52664024034609,2.2809950548359375,-1.017369572316305,0.08300674706697464
1708440521.132916,-1.1052722930908203,-1.6817733250060023,-2.526590887700216,2.2809650140949707,-1.0173166433917444,0.0830233171582222
1708440521.1348472,-1.105284333229065,-1.6818648777403773,-2.5266221205340784,2.2809063631245117,-1.0173371473895472,0.08297755569219589
1708440521.136875,-1.1052606105804443,-1.6817928753294886,-2.5266223589526575,2.2809695440479736,-1.0173285643206995,0.08303949981927872
1708440521.1388836,-1.1052722930908203,-1.6818224392332972,-2.5266597906695765,2.2809530931660156,-1.0173490683185022,0.08299046754837036
1708440521.1408672,-1.1052391529083252,-1.6817895374693812,-2.5266221205340784,2.2810022073933105,-1.0173404852496546,0.08298622071743011
1708440521.1428564,-1.1052842140197754,-1.6817523441710414,-2.5266147295581263,2.2809366422840576,-1.0173447767840784,0.08299048990011215
1708440521.144865,-1.1052680015563965,-1.6817976437010707,-2.526652161275045,2.2809197145649414,-1.0173371473895472,0.0830644890666008
1708440521.1468608,-1.1052560806274414,-1.6818343601622523,-2.5266643206225794,2.2809530931660156,-1.0173490683185022,0.08302329480648041
1708440521.1488774,-1.1052560806274414,-1.6818019352354945,-2.5265982786761683,2.2809786039539794,-1.0173609892474573,0.0830233097076416
1708440521.1509354,-1.1052885055541992,-1.6817566357054652,-2.526619259511129,2.2809857565113525,-1.0173566977130335,0.08301036059856415
1708440521.1528847,-1.1052637100219727,-1.6817847690977992,-2.526652161275045,2.2809366422840576,-1.0173652807818812,0.08305910974740982
1708440521.1549456,-1.1052768230438232,-1.6817523441710414,-2.526652161275045,2.2809976774403076,-1.017353359852926,0.0830514207482338
1708440521.1569808,-1.1052474975585938,-1.6817361317076625,-2.5265894571887415,2.280912323588989,-1.0173490683185022,0.08304718881845474
1708440521.1589582,-1.1052930355072021,-1.6817733250060023,-2.5266147295581263,2.2809106546589355,-1.0173242727862757,0.08303207159042358
1708440521.1609037,-1.1052637100219727,-1.6817523441710414,-2.526602808629171,2.2809197145649414,-1.0173242727862757,0.083055779337883
1708440521.1628978,-1.105214238166809,-1.6817599735655726,-2.526602808629171,2.280890627498291,-1.0173652807818812,0.08304281532764435
1708440521.1649125,-1.1052474975585938,-1.6817804775633753,-2.5265894571887415,2.2809650140949707,-1.0173566977130335,0.08303952217102051
1708440521.166955,-1.1053004264831543,-1.6817804775633753,-2.526602808629171,2.2809902864643554,-1.0173242727862757,0.08303526788949966
1708440521.1689327,-1.1052186489105225,-1.6817556820311488,-2.5266311804400843,2.2809530931660156,-1.0173609892474573,0.0830233246088028
1708440521.170893,-1.1052799224853516,-1.6818090877928675,-2.526635710393087,2.2809323507496337,-1.017341438923971,0.08305148780345917
1708440521.1728551,-1.105271339416504,-1.6817885837950648,-2.526632849370138,2.2809650140949707,-1.0173209349261683,0.08302771300077438
1708440521.174859,-1.1053216457366943,-1.6818090877928675,-2.5265820662127894,2.2809323507496337,-1.017353359852926,0.08305151015520096
1708440521.1768613,-1.1052186489105225,-1.6817647419371546,-2.5266476313220423,2.2809993463703613,-1.017369572316305,0.08306773751974106
1708440521.1788707,-1.1052885055541992,-1.6817566357054652,-2.5266059080706995,2.2809485632130126,-1.0173609892474573,0.08302666991949081
1708440521.1808758,-1.1052885055541992,-1.6817761860289515,-2.5266686121570032,2.2809323507496337,-1.0173166433917444,0.08305147290229797
1708440521.1828628,-1.1052886247634888,-1.6817928753294886,-2.5265985170947474,2.2809769350239257,-1.0173566977130335,0.08306338638067245
1708440521.1848617,-1.1052606105804443,-1.6817599735655726,-2.526651922856466,2.2809621530720214,-1.0173166433917444,0.08305907249450684
1708440521.1868758,-1.1052680015563965,-1.6817647419371546,-2.52664024034609,2.2809323507496337,-1.0173652807818812,0.08303093165159225
1708440521.1888812,-1.105309247970581,-1.6817761860289515,-2.5266101996051233,2.2809530931660156,-1.0173285643206995,0.08301037549972534
1708440521.1908698,-1.1052517890930176,-1.6817690334715785,-2.526590887700216,2.2810022073933105,-1.017303768788473,0.08301898837089539
1708440521.1928465,-1.1052517890930176,-1.6817623577513636,-2.526640001927511,2.280914469356201,-1.0173490683185022,0.08301471173763275
1708440521.1948948,-1.1052348613739014,-1.6817432842650355,-2.526623789464132,2.2809530931660156,-1.0173209349261683,0.08303958922624588
1708440521.1968522,-1.1053037643432617,-1.6817409000792445,-2.52664024034609,2.280923290843628,-1.0173447767840784,0.0830276682972908
1708440521.1988573,-1.1053210496902466,-1.6817804775633753,-2.526574198399679,2.2809530931660156,-1.017341438923971,0.08301545679569244
1708440521.200895,-1.1052391529083252,-1.6818019352354945,-2.52661639848818,2.2809457021900634,-1.0173447767840784,0.08306770026683807
1708440521.202882,-1.1052262783050537,-1.6817804775633753,-2.526611868535177,2.2809857565113525,-1.017325226460592,0.08301470428705215
1708440521.2049088,-1.1052517890930176,-1.6817761860289515,-2.526590887700216,2.2809902864643554,-1.0172928015338343,0.08302660286426544
1708440521.2069192,-1.1052594184875488,-1.6817361317076625,-2.5266311804400843,2.2809738355823974,-1.01735765138735,0.08308463543653488
1708440521.2089393,-1.1052262783050537,-1.6817409000792445,-2.526619259511129,2.280984325999878,-1.01735765138735,0.08301035314798355
1708440521.2109203,-1.1052545309066772,-1.6818181476988734,-2.526656452809469,2.2809411722370605,-1.017325226460592,0.08302769809961319
1708440521.2128944,-1.1052680015563965,-1.6817733250060023,-2.5265939871417444,2.2809197145649414,-1.0173371473895472,0.08301042765378952
1708440521.2148783,-1.1052637100219727,-1.6817432842650355,-2.526673142110006,2.2809151846119384,-1.0173090139972132,0.08308064937591553
1708440521.216967,-1.1052305698394775,-1.6817475757994593,-2.5266311804400843,2.2809530931660156,-1.0172885099994105,0.08299807459115982
1708440521.2188811,-1.105309247970581,-1.6818181476988734,-2.5266266504870813,2.280927820796631,-1.0172918478595179,0.0830557644367218
1708440521.220878,-1.1052885055541992,-1.6818062267699183,-2.526619259511129,2.2810112672993164,-1.0173209349261683,0.08304392546415329
1708440521.2229097,-1.1052753925323486,-1.6817475757994593,-2.526619259511129,2.2809621530720214,-1.0173209349261683,0.08307643234729767
1708440521.2248816,-1.1052387952804565,-1.6817885837950648,-2.5265939871417444,2.2809323507496337,-1.0172961393939417,0.08299485594034195
1708440521.2268717,-1.1052594184875488,-1.6818300686278285,-2.526574198399679,2.2809323507496337,-1.017353359852926,0.08301115036010742
1708440521.2288885,-1.1052637100219727,-1.6817475757994593,-2.526656452809469,2.2809695440479736,-1.0173175970660608,0.08300243318080902
1708440521.2309022,-1.1052756309509277,-1.6818019352354945,-2.526602808629171,2.2809151846119384,-1.0173209349261683,0.08302658796310425
1708440521.2329013,-1.1052722930908203,-1.6817761860289515,-2.526656452809469,2.2809814649769287,-1.0173209349261683,0.08301900327205658
1708440521.2348707,-1.1052875518798828,-1.6818105183043421,-2.526607338582174,2.2809457021900634,-1.0173371473895472,0.08301115036010742
1708440521.2368677,-1.1052430868148804,-1.6817566357054652,-2.526644531880514,2.2810394006916503,-1.0173209349261683,0.08297433704137802
1708440521.2388804,-1.1052961349487305,-1.6817409000792445,-2.526574198399679,2.280968113536499,-1.0172918478595179,0.08301901817321777
1708440521.2408912,-1.1053242683410645,-1.6817761860289515,-2.526656452809469,2.2809576231190185,-1.0172799269305628,0.08306772261857986
1708440521.2429852,-1.1052963733673096,-1.6817690334715785,-2.5266147295581263,2.2809650140949707,-1.017341438923971,0.0830395445227623
1708440521.2448845,-1.1052550077438354,-1.6817599735655726,-2.526548687611715,2.280927820796631,-1.0173781553851526,0.08300676196813583
1708440521.2468867,-1.1053080558776855,-1.681793829003805,-2.526590887700216,2.280972405070923,-1.0172928015338343,0.08301977813243866
1708440521.2489235,-1.1053080558776855,-1.6817928753294886,-2.52661639848818,2.2809976774403076,-1.017325226460592,0.08297868818044662
1708440521.2509556,-1.1052594184875488,-1.6818062267699183,-2.526607338582174,2.2809769350239257,-1.0173090139972132,0.08298623561859131
1708440521.2529683,-1.1053047180175781,-1.6817757091917933,-2.526628319417135,2.2809323507496337,-1.017353359852926,0.0829545333981514
1708440521.254894,-1.1053123474121094,-1.6817733250060023,-2.526623789464132,2.280927820796631,-1.0172928015338343,0.08301115036010742
1708440521.2569582,-1.1053167581558228,-1.6818224392332972,-2.526574198399679,2.2809604841419677,-1.017325226460592,0.08298299461603165
1708440521.2588987,-1.1053080558776855,-1.6817761860289515,-2.526623789464132,2.2810351091572265,-1.0173047224627894,0.08298300206661224
1708440521.2608836,-1.1052550077438354,-1.6817523441710414,-2.526607338582174,2.2810022073933105,-1.017341438923971,0.08300353586673737
1708440521.2629383,-1.1052918434143066,-1.6817566357054652,-2.526569906865255,2.2809933859058837,-1.0172718206988733,0.08298300206661224
1708440521.2649095,-1.1053335666656494,-1.6817523441710414,-2.526602808629171,2.2809323507496337,-1.017313305531637,0.08299169689416885
1708440521.266962,-1.1053037643432617,-1.6817432842650355,-2.526635710393087,2.2809950548359375,-1.0173047224627894,0.08299171179533005
1708440521.2689252,-1.1053123474121094,-1.6818181476988734,-2.526590887700216,2.2809485632130126,-1.0173056761371058,0.08301977813243866
1708440521.2709208,-1.1053080558776855,-1.6817361317076625,-2.526599947606222,2.2809976774403076,-1.0172928015338343,0.08303199708461761
1708440521.272924,-1.105271339416504,-1.6817194424071253,-2.526628319417135,2.281012697810791,-1.0173047224627894,0.08298300206661224
1708440521.274865,-1.1052873134613037,-1.6817566357054652,-2.526619259511129,2.281017227763794,-1.0173209349261683,0.08302849531173706
1708440521.2769077,-1.1052387952804565,-1.6817523441710414,-2.526611868535177,2.281005306834839,-1.0173175970660608,0.08297945559024811
1708440521.2788777,-1.1053004264831543,-1.6817523441710414,-2.526623789464132,2.280956192607544,-1.0172718206988733,0.08297513425350189
1708440521.2808518,-1.1052829027175903,-1.681751390496725,-2.526599947606222,2.280968113536499,-1.017264191304342,0.08299922943115234
1708440521.282872,-1.1052961349487305,-1.6817318401732386,-2.526628319417135,2.2809976774403076,-1.0173166433917444,0.0829707607626915
1708440521.2848735,-1.1052756309509277,-1.6817971668639125,-2.5266147295581263,2.2809976774403076,-1.0172761122332972,0.08294700086116791
1708440521.286895,-1.105340600013733,-1.6817647419371546,-2.5266104380237024,2.2809576231190185,-1.017329517995016,0.08297625929117203
1708440521.288919,-1.1053037643432617,-1.6817370853819789,-2.526607338582174,2.2810095983692626,-1.017325226460592,0.08292213082313538
1708440521.2908583,-1.105299472808838,-1.6818224392332972,-2.526590887700216,2.2810095983692626,-1.0172928015338343,0.08294377475976944
1708440521.2928772,-1.1053080558776855,-1.6817847690977992,-2.526623789464132,2.280951662654541,-1.0173457304583948,0.08300463110208511
1708440521.2948885,-1.1053361892700195,-1.6817823849120082,-2.526652161275045,2.2809738355823974,-1.0173175970660608,0.08287747949361801
1708440521.2969098,-1.1053111553192139,-1.6818062267699183,-2.5266476313220423,2.280963583583496,-1.0173047224627894,0.08293507993221283
1708440521.2988918,-1.1052908897399902,-1.6817103825011195,-2.5266311804400843,2.280984325999878,-1.0173209349261683,0.0829196572303772
1708440521.3008993,-1.1052712202072144,-1.6817823849120082,-2.526607338582174,2.280988855952881,-1.0173047224627894,0.08289475739002228
1708440521.3028975,-1.1053276062011719,-1.6817494831480921,-2.5265818277942103,2.280935211772583,-1.0173047224627894,0.0828828364610672
1708440521.3049173,-1.1053438186645508,-1.6818062267699183,-2.526644770299093,2.2809063631245117,-1.0172928015338343,0.08287496119737625
1708440521.3069103,-1.105323314666748,-1.681789060632223,-2.5266147295581263,2.280959053630493,-1.017313305531637,0.08288715034723282
1708440521.3088958,-1.1052992343902588,-1.6817757091917933,-2.526660982762472,2.280984325999878,-1.017341438923971,0.08289146423339844
1708440521.3108897,-1.1053202152252197,-1.6817804775633753,-2.526590887700216,2.280980034465454,-1.0173338095294397,0.08283496648073196
1708440521.3129637,-1.1052738428115845,-1.6817151508727015,-2.526590887700216,2.280947132701538,-1.0173047224627894,0.08283492922782898
1708440521.3149717,-1.105339527130127,-1.6818105183043421,-2.526607338582174,2.280942602748535,-1.017329517995016,0.08282264322042465
1708440521.3168728,-1.1053069829940796,-1.6817714176573695,-2.5266101996051233,2.2809814649769287,-1.0173209349261683,0.08278603106737137
1708440521.3188715,-1.1053693294525146,-1.6817780933775843,-2.5266476313220423,2.281017227763794,-1.0172928015338343,0.08279447257518768
1708440521.3209057,-1.105370044708252,-1.6817647419371546,-2.526602808629171,2.280951662654541,-1.0173209349261683,0.08281834423542023
1708440521.3228977,-1.1053439378738403,-1.6817714176573695,-2.526590887700216,2.280984325999878,-1.0173457304583948,0.08280754089355469
1708440521.3248713,-1.105376958847046,-1.6817523441710414,-2.526611868535177,2.280980034465454,-1.0173166433917444,0.08283134549856186
1708440521.3268661,-1.105334997177124,-1.6817804775633753,-2.526590887700216,2.280935450191162,-1.0173209349261683,0.08283668756484985
1708440521.328873,-1.1052993535995483,-1.6817194424071253,-2.5265985170947474,2.280963583583496,-1.0173209349261683,0.08276724815368652
1708440521.3308687,-1.1053745746612549,-1.6817361317076625,-2.526611868535177,2.281033440227173,-1.0172885099994105,0.08273013681173325
1708440521.3329027,-1.1053438186645508,-1.6817566357054652,-2.5266311804400843,2.2810141283222656,-1.0173457304583948,0.08275175094604492
1708440521.3348455,-1.1053473949432373,-1.6817361317076625,-2.526607338582174,2.281005306834839,-1.017301384602682,0.0827106460928917
1708440521.3368697,-1.1053037643432617,-1.6817714176573695,-2.526602808629171,2.281017227763794,-1.0173047224627894,0.08272039145231247
1708440521.3388548,-1.105302095413208,-1.6817237339415492,-2.526660982762472,2.281017227763794,-1.0173090139972132,0.08267142623662949
1708440521.3409057,-1.105360746383667,-1.6817804775633753,-2.5266431013690394,2.28095452367749,-1.0173166433917444,0.082655169069767
1708440521.3428721,-1.1053071022033691,-1.6818019352354945,-2.5265939871417444,2.280991955394409,-1.017325226460592,0.08268000930547714
1708440521.3448584,-1.105360746383667,-1.6817647419371546,-2.526635710393087,2.280984325999878,-1.017341438923971,0.08259068429470062
1708440521.346876,-1.1053683757781982,-1.6817523441710414,-2.5265985170947474,2.281012697810791,-1.0173047224627894,0.08263644576072693
1708440521.3488922,-1.1053638458251953,-1.6817895374693812,-2.5266643206225794,2.281000776881836,-1.0172961393939417,0.08256679028272629
1708440521.3509438,-1.1053476333618164,-1.6817151508727015,-2.5266311804400843,2.2810379701801757,-1.017353359852926,0.08253931254148483
1708440521.352913,-1.105343222618103,-1.6817733250060023,-2.5266385714160364,2.281046076411865,-1.0173004309283655,0.08253167569637299
1708440521.3549447,-1.1052982807159424,-1.6817165813841761,-2.5265820662127894,2.2810415464588623,-1.0173328558551233,0.08246291428804398
1708440521.3569276,-1.1053681373596191,-1.6817075214781703,-2.5266552607165735,2.2810236650654296,-1.017325226460592,0.08247160911560059
1708440521.3588974,-1.1053757667541504,-1.681786676446432,-2.5265939871417444,2.2810444074818115,-1.0173328558551233,0.08246827870607376
1708440521.3608792,-1.1053730249404907,-1.6817699871458949,-2.5266643206225794,2.2810696798511962,-1.0173123518573206,0.08238328248262405
1708440521.362899,-1.1053844690322876,-1.6817237339415492,-2.526623789464132,2.281092091197632,-1.0173166433917444,0.08233025670051575
1708440521.36495,-1.105384349822998,-1.6817542515196742,-2.5266178289996546,2.2811145025440673,-1.017353359852926,0.08230192214250565
1708440521.36689,-1.1053476333618164,-1.681711813012594,-2.5266385714160364,2.281104012126587,-1.017303768788473,0.0822831466794014
1708440521.3688915,-1.105388879776001,-1.6818152866759242,-2.5266597906695765,2.281153841609619,-1.0173524061786097,0.08228426426649094
1708440521.370854,-1.1053966283798218,-1.6817165813841761,-2.5266385714160364,2.281153841609619,-1.0173242727862757,0.08225609362125397
1708440521.3729236,-1.105334758758545,-1.6817409000792445,-2.5266597906695765,2.281153841609619,-1.0173447767840784,0.08217868953943253
1708440521.3748665,-1.1053951978683472,-1.681732793847555,-2.5266929308520716,2.281210346812866,-1.0173609892474573,0.08217108994722366
1708440521.376894,-1.105334758758545,-1.6817237339415492,-2.5266552607165735,2.28113762914624,-1.0173938910113733,0.08211786299943924
1708440521.3788946,-1.1053757667541504,-1.6817566357054652,-2.5266385714160364,2.2811447817036132,-1.0173895994769495,0.08215238898992538
1708440521.3808675,-1.105338454246521,-1.6817075214781703,-2.5266266504870813,2.2811433511921386,-1.0173729101764124,0.08206737786531448
1708440521.3829293,-1.1053962707519531,-1.6817285023131312,-2.5266295115100306,2.2811433511921386,-1.017360035573141,0.08201951533555984
1708440521.3848581,-1.1053757667541504,-1.6817318401732386,-2.5266342798816126,2.2811195093342285,-1.017360035573141,0.0820530354976654
1708440521.3868864,-1.1053508520126343,-1.6817409000792445,-2.5266597906695765,2.2811402517506103,-1.017388645802633,0.08196806907653809
1708440521.3888814,-1.1053746938705444,-1.6817475757994593,-2.5267167727099817,2.281170292491577,-1.0173638502704065,0.08191585540771484
1708440521.3908598,-1.1054450273513794,-1.6817628345885218,-2.5266385714160364,2.2811283308216552,-1.0173962751971644,0.08181565999984741
1708440521.392929,-1.1053866147994995,-1.681765695611471,-2.5266838709460657,2.2811776834675292,-1.017416779194967,0.08180377632379532
1708440521.3948607,-1.1054115295410156,-1.6816865406432093,-2.5266462008105677,2.2811969953724365,-1.017432991658346,0.08173168450593948
1708440521.3969135,-1.1054575443267822,-1.6817523441710414,-2.52667481104006,2.2811805444904785,-1.0174372831927698,0.08171224594116211
1708440521.398863,-1.1054489612579346,-1.6817237339415492,-2.5266926924334925,2.2811640936085205,-1.0174773375140589,0.08161531388759613
1708440521.400941,-1.1053950786590576,-1.6817237339415492,-2.5266838709460657,2.2811717230030517,-1.0174287001239222,0.08153119683265686
1708440521.4029646,-1.1053746938705444,-1.681760927239889,-2.526703182850973,2.2812349039265136,-1.0174287001239222,0.08151993900537491
1708440521.4049087,-1.1053922176361084,-1.6817566357054652,-2.52665359178652,2.281212254161499,-1.0174930731402796,0.08144068717956543
1708440521.406981,-1.105440378189087,-1.681765695611471,-2.526695791875021,2.2812089163013916,-1.0174973646747034,0.08132297545671463
1708440521.408883,-1.105370283126831,-1.6817237339415492,-2.526670281087057,2.2811505037495117,-1.0175212065326136,0.0813402459025383
1708440521.4108815,-1.1054234504699707,-1.6817823849120082,-2.526703182850973,2.2812422949024658,-1.0175297896014612,0.08120247721672058
1708440521.4128807,-1.1054277420043945,-1.681765695611471,-2.526649300252096,2.2811879354664306,-1.017508331929342,0.08113990724086761
1708440521.4148862,-1.1054069995880127,-1.6817151508727015,-2.5266626516925257,2.281170054072998,-1.0175407568561,0.08108849078416824
1708440521.416949,-1.1054482460021973,-1.6817370853819789,-2.526686731969015,2.2811953264423828,-1.017585579548971,0.0809263363480568
1708440521.4189224,-1.1054277420043945,-1.6817895374693812,-2.526773993168966,2.2812153536030273,-1.0175440947162073,0.08083559572696686
1708440521.4208767,-1.1054645776748657,-1.681741853753561,-2.526727263127462,2.281228705043457,-1.0175483862506312,0.08080506324768066
1708440521.422884,-1.1054072380065918,-1.6817165813841761,-2.5267227331744593,2.2812437254139404,-1.017613712941305,0.08063100278377533
1708440521.4248877,-1.1053860187530518,-1.6817208729186,-2.526710573826925,2.2812227445789794,-1.0175970236407679,0.08053913712501526
1708440521.426886,-1.105435848236084,-1.681758543054098,-2.526731793080465,2.2812272745319824,-1.0175769964801233,0.08047552406787872
1708440521.4288995,-1.1054482460021973,-1.681711813012594,-2.5267346541034144,2.281252546901367,-1.0175684134112757,0.08038437366485596
1708440521.4308753,-1.1054482460021973,-1.6817165813841761,-2.5267258326159876,2.281306191081665,-1.0176203886615198,0.08023952692747116
1708440521.4329023,-1.1054145097732544,-1.6817451916136683,-2.5267723242389124,2.281236096019409,-1.0175922552691858,0.08007657527923584
1708440521.434893,-1.1054234504699707,-1.6817542515196742,-2.5267723242389124,2.2812511163898925,-1.0176118055926722,0.0800083726644516
1708440521.4368732,-1.1054763793945312,-1.6816956005492152,-2.5267632643329065,2.281264467830322,-1.0176613966571253,0.07991683483123779
1708440521.4388862,-1.1054720878601074,-1.6817542515196742,-2.5267377535449427,2.2812763887592773,-1.0176408926593226,0.07980690151453018
1708440521.440883,-1.1054856777191162,-1.6817370853819789,-2.5268006960498255,2.281344099635742,-1.0176528135882776,0.07963304966688156
1708440521.4428663,-1.1054314374923706,-1.681732793847555,-2.526820484791891,2.2812973695942382,-1.0176680723773401,0.07950913906097412
1708440521.444909,-1.1054438352584839,-1.6817285023131312,-2.526749912892477,2.2812718588062744,-1.0176809469806116,0.07936044037342072
1708440521.4468648,-1.1054482460021973,-1.681692739526266,-2.5267961660968226,2.2812627989002685,-1.0177214781390589,0.0792045146226883
1708440521.4489198,-1.1054438352584839,-1.6817370853819789,-2.5267871061908167,2.2813002306171875,-1.0176637808429163,0.07905161380767822
1708440521.450921,-1.105451226234436,-1.681704660455221,-2.526848856602804,2.2812928396412353,-1.0176432768451136,0.0788969099521637
1708440521.4529862,-1.1054437160491943,-1.6817628345885218,-2.526799027119772,2.2813500601002197,-1.0176962057696741,0.07876069098711014
1708440521.454955,-1.1054913997650146,-1.6817089519896449,-2.526799027119772,2.281265898341797,-1.0177119413958948,0.07862888276576996
1708440521.4569693,-1.1054348945617676,-1.681704660455221,-2.526806894932882,2.2813336092182617,-1.0176876227008265,0.07843262702226639
1708440521.4589255,-1.1054750680923462,-1.6817342243590296,-2.526811424885885,2.281315727824829,-1.017691437398092,0.07827336341142654
1708440521.4608886,-1.1054515838623047,-1.681711813012594,-2.52683669725527,2.2812821108051757,-1.017707649861471,0.07809773087501526
1708440521.4629042,-1.1055045127868652,-1.6816970310606898,-2.526815954838888,2.2812911707111816,-1.017763916646139,0.07791367173194885
1708440521.4648771,-1.105430245399475,-1.6817251644530238,-2.526785437260763,2.281336470241211,-1.0177887121783655,0.07772090286016464
1708440521.4669187,-1.1054840087890625,-1.6817265949644984,-2.526844326649801,2.2812866407581787,-1.0178001562701624,0.07758226990699768
1708440521.4689693,-1.10548734664917,-1.6817132435240687,-2.526827875767843,2.281315727824829,-1.0178001562701624,0.07734178006649017
1708440521.470978,-1.105482816696167,-1.681655069390768,-2.5268517176257532,2.281331940288208,-1.0178001562701624,0.0771530345082283
1708440521.4729326,-1.1054515838623047,-1.681655069390768,-2.5267980734454554,2.281381054515503,-1.0178163687335413,0.07694237679243088
1708440521.4749584,-1.10548734664917,-1.6816636524596156,-2.526832405720846,2.2813944059559326,-1.017787281666891,0.07672594487667084
1708440521.4769554,-1.105528473854065,-1.6817103825011195,-2.526827875767843,2.281364842052124,-1.017815415059225,0.0765184536576271
1708440521.4789267,-1.1055412292480469,-1.6816684208311976,-2.52682334581484,2.2813796240040283,-1.017815415059225,0.07632780820131302
1708440521.4809117,-1.1055647134780884,-1.6816770039000453,-2.5268471876727503,2.2814175325581054,-1.0178759733783167,0.07604990899562836
1708440521.4829066,-1.1055151224136353,-1.6816894016661585,-2.526856247578756,2.2813467222401123,-1.017855469380514,0.07582546025514603
1708440521.484931,-1.10556960105896,-1.6816073856749476,-2.5268517176257532,2.281388683910034,-1.0178402105914515,0.07566800713539124
1708440521.486863,-1.1055151224136353,-1.681681295434469,-2.526835266743795,2.2814339834400634,-1.0178230444537562,0.07545589655637741
1708440521.4888818,-1.1055532693862915,-1.6815959415831507,-2.5268307367907923,2.2814013200947265,-1.01782733598818,0.07523209601640701
1708440521.4908798,-1.1055814027786255,-1.6815506420531214,-2.5268591086017054,2.281379385585449,-1.0178349653827112,0.07496240735054016
1708440521.4929144,-1.1055035591125488,-1.681592126885885,-2.5268142859088343,2.281384153957031,-1.0178759733783167,0.07475154846906662
1708440521.4948764,-1.1055560111999512,-1.681650777856344,-2.5268426577197474,2.281367703075073,-1.017867390309469,0.07449059933423996
1708440521.4969075,-1.1055368185043335,-1.681634088555807,-2.5268381277667444,2.2814294534870605,-1.0178793112384241,0.07428006827831268
1708440521.498861,-1.1055235862731934,-1.681601186791891,-2.5268967787372034,2.2814056116291503,-1.017883602772848,0.07403995841741562
1708440521.5008938,-1.1055066585540771,-1.6815935573973597,-2.5269039312945765,2.2813920217701416,-1.0178917090045374,0.07370312511920929
1708440521.50299,-1.1055235862731934,-1.6816188297667445,-2.5268545786487024,2.2814130026051025,-1.0178793112384241,0.07347581535577774
1708440521.5049138,-1.1055197715759277,-1.681540151635641,-2.5268877188311976,2.2813877302357177,-1.0178964773761194,0.07323992252349854
1708440521.5069396,-1.1055853366851807,-1.6815277538695277,-2.5269041697131556,2.2814130026051025,-1.017867390309469,0.07300043851137161
1708440521.50892,-1.1055152416229248,-1.6815039120116175,-2.5268786589251917,2.2813874918171386,-1.0179045836078089,0.07269969582557678
1708440521.510866,-1.1055529117584229,-1.681584974328512,-2.526853148137228,2.281384153957031,-1.0178468863116663,0.0724770575761795
1708440521.5128946,-1.1055197715759277,-1.6815358601012171,-2.526890579854147,2.2814411359974365,-1.0178511778460901,0.07224146276712418
1708440521.5148723,-1.1055355072021484,-1.6816054783263148,-2.526907269154684,2.2814292150684814,-1.0178306738482874,0.07195352762937546
1708440521.5180516,-1.1055232286453247,-1.6815444431700648,-2.5269401709186,2.281383200282715,-1.0179203192340296,0.07164883613586426
1708440521.5189192,-1.1055691242218018,-1.681512018243307,-2.526931111012594,2.2814411359974365,-1.0178988615619105,0.07140658795833588
1708440521.520858,-1.1055679321289062,-1.6816188297667445,-2.526926581059591,2.2814203935810546,-1.017907444630758,0.07108932733535767
1708440521.5228846,-1.105576515197754,-1.6815577946104945,-2.526910130177633,2.2813965517231445,-1.0178988615619105,0.0708150565624237
1708440521.5248885,-1.1055724620819092,-1.6814876995482386,-2.526919190083639,2.2814413744160156,-1.0179522673236292,0.07052262127399445
1708440521.5269113,-1.1055636405944824,-1.6816188297667445,-2.52690560022463,2.2814530569263916,-1.0179393927203577,0.07025090605020523
1708440521.5288672,-1.1055517196655273,-1.681540151635641,-2.5269926230060022,2.281427784557007,-1.0179231802569788,0.06997961550951004
1708440521.530874,-1.10563063621521,-1.6816445789732875,-2.52690560022463,2.2814487653919677,-1.0179317633258265,0.06963883340358734
1708440521.5329459,-1.1055933237075806,-1.6815444431700648,-2.526980463658468,2.281427784557007,-1.0179804007159632,0.0693795382976532
1708440521.5348737,-1.1055928468704224,-1.6816359959044398,-2.526910130177633,2.281519337291382,-1.0179641882525843,0.06910064071416855
1708440521.536924,-1.1055514812469482,-1.681589265862936,-2.526922051106588,2.2814532953449707,-1.017947022114889,0.06878015398979187
1708440521.5388758,-1.1055960655212402,-1.681573053399557,-2.526947561894552,2.28145615636792,-1.0179842154132288,0.06847237050533295
1708440521.5408874,-1.1055712699890137,-1.681601186791891,-2.526910130177633,2.281463547343872,-1.0179632345782679,0.06818068027496338
1708440521.5428872,-1.1056123971939087,-1.681531091729635,-2.5269551912890833,2.2814649778553466,-1.017987076436178,0.06789308786392212
1708440521.544861,-1.1055809259414673,-1.6815444431700648,-2.527030054722921,2.281484528178833,-1.017979923878805,0.06757725030183792
1708440521.546882,-1.105559229850769,-1.6816359959044398,-2.5269671122180384,2.2814768987843017,-1.0180242697345179,0.06731836497783661
1708440521.5488641,-1.1055755615234375,-1.681568285027975,-2.5269928614245813,2.28152243673291,-1.0180447737323206,0.06696726381778717
1708440521.5508733,-1.1056036949157715,-1.6816359959044398,-2.5269086996661585,2.281517906779907,-1.0180404821978968,0.06665102392435074
1708440521.5529635,-1.1055636405944824,-1.6815358601012171,-2.5269551912890833,2.281576080913208,-1.0179742018329065,0.06633169203996658
1708440521.5548959,-1.1055960655212402,-1.6816188297667445,-2.5269506613360804,2.281488819713257,-1.0180113951312464,0.06600818037986755
1708440521.557019,-1.1055798530578613,-1.6815234623351039,-2.526938501988546,2.281488819713257,-1.018048111592428,0.06565582007169724
1708440521.5589168,-1.1056079864501953,-1.6815444431700648,-2.526943031941549,2.281543179149292,-1.0180395285235804,0.06534096598625183
1708440521.5608947,-1.1055636405944824,-1.681573053399557,-2.5269506613360804,2.28141896306958,-1.0180471579181116,0.06497815251350403
1708440521.5628781,-1.1055841445922852,-1.6816359959044398,-2.526943031941549,2.2814923959919433,-1.0180438200580042,0.06463956832885742
1708440521.5648887,-1.10557222366333,-1.68162264446401,-2.526943031941549,2.2815043169208984,-1.0180633703814905,0.06430380791425705
1708440521.5669389,-1.1055960655212402,-1.6815368137755335,-2.5269671122180384,2.281442566508911,-1.018038574849264,0.06400110572576523
1708440521.568943,-1.1055755615234375,-1.6815535030760707,-2.526943031941549,2.2814969259449462,-1.0180309454547327,0.06364011764526367
1708440521.570861,-1.1056166887283325,-1.6815935573973597,-2.5269883314715784,2.281463547343872,-1.0180438200580042,0.06331310421228409
1708440521.5729272,-1.1055798530578613,-1.6815358601012171,-2.5270121733294886,2.2815043169208984,-1.0180309454547327,0.06293977797031403
1708440521.574864,-1.1055885553359985,-1.68158020595693,-2.5270209948169153,2.281472607249878,-1.0180590788470667,0.062655508518219
1708440521.5768993,-1.1055960655212402,-1.681584974328512,-2.5269671122180384,2.281505985850952,-1.0180709997760218,0.06221642717719078
1708440521.5788572,-1.1055755615234375,-1.6815535030760707,-2.5269551912890833,2.2814878660389404,-1.0180752913104456,0.061934418976306915
1708440521.5808604,-1.1055928468704224,-1.681601186791891,-2.5269625822650355,2.281451626414917,-1.0180633703814905,0.061602622270584106
1708440521.5829554,-1.1055636405944824,-1.6816188297667445,-2.5269792715655726,2.281463547343872,-1.0180962721454065,0.0612313449382782
1708440521.584889,-1.1055928468704224,-1.6815577946104945,-2.5269911924945276,2.2814664083668212,-1.0180795828448694,0.06086254119873047
1708440521.5868855,-1.105531096458435,-1.6815906963744105,-2.526994053517477,2.2814664083668212,-1.0180590788470667,0.06055968627333641
1708440521.5888858,-1.1055387258529663,-1.6815453968443812,-2.5269792715655726,2.2815298277088623,-1.0180919806109827,0.060158371925354004
1708440521.5908654,-1.1055841445922852,-1.6815935573973597,-2.5269866625415247,2.281447334880493,-1.0180876890765589,0.05984046682715416
1708440521.5929291,-1.1055798530578613,-1.6815949879088343,-2.5270121733294886,2.28147999822583,-1.018038574849264,0.05949130654335022
1708440521.5948563,-1.1055474281311035,-1.6815277538695277,-2.5269792715655726,2.281470938319824,-1.0181077162372034,0.059138908982276917
1708440521.5968504,-1.1055430173873901,-1.68162264446401,-2.527052942906515,2.281447334880493,-1.0180795828448694,0.058778245002031326
1708440521.5988655,-1.1055841445922852,-1.6816102466978968,-2.5269866625415247,2.281472607249878,-1.0180633703814905,0.05842423439025879
1708440521.6008906,-1.1055963039398193,-1.6816359959044398,-2.526956860219137,2.281463547343872,-1.0180752913104456,0.058088451623916626
1708440521.602969,-1.1055841445922852,-1.681573053399557,-2.526956621800558,2.281435413951538,-1.0181077162372034,0.05774092674255371
1708440521.604889,-1.1055679321289062,-1.6815935573973597,-2.5269866625415247,2.281459017390869,-1.0180795828448694,0.05741884186863899
1708440521.6069386,-1.1056004762649536,-1.6816026173033656,-2.5270448366748255,2.28142158567395,-1.0180991331683558,0.05699590593576431
1708440521.6088903,-1.1055917739868164,-1.6815268001952113,-2.5270348230945032,2.281463547343872,-1.0180962721454065,0.056636132299900055
1708440521.6108599,-1.1055431365966797,-1.6815773449339808,-2.526994053517477,2.281460686320923,-1.0181158224688929,0.05629771575331688
1708440521.6128905,-1.1056036949157715,-1.681584974328512,-2.526994053517477,2.281505985850952,-1.0181320349322718,0.0560113862156868
1708440521.6149082,-1.1055928468704224,-1.681540151635641,-2.5270360151873987,2.281444235438965,-1.0180991331683558,0.055663444101810455
1708440521.6169322,-1.1055809259414673,-1.68158020595693,-2.527039353047506,2.2815133768269042,-1.0181072394000452,0.05524498224258423
1708440521.6189113,-1.1055960655212402,-1.681584974328512,-2.527043883000509,2.2814664083668212,-1.018127743397848,0.05487361550331116
1708440521.620888,-1.1055798530578613,-1.681568285027975,-2.52702242532839,2.281459017390869,-1.018127743397848,0.05454695224761963
1708440521.6229212,-1.1055798530578613,-1.6815186939635218,-2.527043883000509,2.281488819713257,-1.018127743397848,0.05426490306854248
1708440521.6248915,-1.1055928468704224,-1.6815368137755335,-2.526994053517477,2.28155963003125,-1.0181105772601526,0.053908348083496094
1708440521.6268814,-1.10557222366333,-1.681601186791891,-2.526994053517477,2.281397982234619,-1.0181310812579554,0.053553253412246704
1708440521.628878,-1.1055268049240112,-1.681540151635641,-2.526973311101095,2.2814933496662597,-1.0181387106524866,0.05316784977912903
1708440521.630864,-1.1055397987365723,-1.6815773449339808,-2.527026955281393,2.281534357661865,-1.0181635061847132,0.052848830819129944
1708440521.6329072,-1.1055312156677246,-1.681512018243307,-2.52702242532839,2.28147999822583,-1.0181430021869105,0.052472710609436035
1708440521.6348705,-1.1055516004562378,-1.681573053399557,-2.527039353047506,2.281475468272827,-1.0181635061847132,0.05212774872779846
1708440521.6368923,-1.105544090270996,-1.6815277538695277,-2.5270467440234583,2.281454487437866,-1.0181711355792444,0.05182930827140808
1708440521.6388886,-1.105531096458435,-1.681573053399557,-2.526994053517477,2.281472607249878,-1.0181635061847132,0.05150139331817627
1708440521.6408844,-1.1056047677993774,-1.6815935573973597,-2.52698523203005,2.281447334880493,-1.0181711355792444,0.05122542753815651
1708440521.6428645,-1.1056089401245117,-1.6816188297667445,-2.527052942906515,2.281460686320923,-1.0181711355792444,0.05086717754602432
1708440521.6448705,-1.1055679321289062,-1.6815277538695277,-2.527043883000509,2.2814933496662597,-1.0181711355792444,0.05053934454917908
1708440521.6468577,-1.1055153608322144,-1.6815453968443812,-2.527055803929464,2.2814530569263916,-1.0181997458087366,0.050207801163196564
1708440521.6488788,-1.1055679321289062,-1.6816026173033656,-2.527052942906515,2.281475468272827,-1.0182040373431605,0.049855709075927734
1708440521.650872,-1.1055636405944824,-1.6816069088377894,-2.527055803929464,2.2814933496662597,-1.0181830565081995,0.04954865574836731
1708440521.6529884,-1.10557222366333,-1.6815101108946742,-2.527060333882467,2.28138176977124,-1.0181787649737757,0.049215614795684814
1708440521.654913,-1.1055268049240112,-1.6815935573973597,-2.5270677248584192,2.281460686320923,-1.0181711355792444,0.04888265207409859
1708440521.6569552,-1.105560302734375,-1.6815577946104945,-2.527055803929464,2.281454487437866,-1.0181711355792444,0.04860876128077507
1708440521.6589592,-1.105588436126709,-1.6815759144225062,-2.5270302931415003,2.281451626414917,-1.0181744734393519,0.048272810876369476
1708440521.6609104,-1.10557222366333,-1.6816688976683558,-2.5270467440234583,2.2814814287373046,-1.0181592146502894,0.047968775033950806
1708440521.662872,-1.10557222366333,-1.6815773449339808,-2.527055803929464,2.281484528178833,-1.0181744734393519,0.047711387276649475
1708440521.664876,-1.1056047677993774,-1.681531091729635,-2.527017895375387,2.281444235438965,-1.0181668440448206,0.047396544367074966
1708440521.6669784,-1.105531096458435,-1.6815773449339808,-2.5270631949054163,2.281463547343872,-1.0182560125934046,0.047090571373701096
1708440521.6689827,-1.105600357055664,-1.6816026173033656,-2.5270631949054163,2.281514807338379,-1.0182560125934046,0.04678346589207649
1708440521.6709614,-1.105588436126709,-1.681589265862936,-2.5270825068103235,2.281402512187622,-1.0182355085956019,0.04645364359021187
1708440521.6729808,-1.1055355072021484,-1.681589265862936,-2.5270467440234583,2.281430883998535,-1.0182278792010706,0.04622906446456909
1708440521.6749606,-1.1055970191955566,-1.6815935573973597,-2.5270960966693323,2.281472607249878,-1.018231217061178,0.045924510806798935
1708440521.6769676,-1.1055355072021484,-1.6816026173033656,-2.5270586649524134,2.281468077296875,-1.018203083668844,0.04563247784972191
1708440521.6789336,-1.1055474281311035,-1.6815773449339808,-2.5270915667163294,2.281423493022583,-1.0182073752032679,0.045349057763814926
1708440521.6808913,-1.1055971384048462,-1.6815368137755335,-2.5270631949054163,2.281451626414917,-1.0182440916644495,0.045102015137672424
1708440521.6828806,-1.1055307388305664,-1.6815773449339808,-2.5270989576922815,2.281472607249878,-1.0181658903705042,0.04479740932583809
1708440521.6849003,-1.1055927276611328,-1.681584974328512,-2.5270915667163294,2.28141896306958,-1.018191162739889,0.04447222501039505
1708440521.6868694,-1.1055636405944824,-1.6815759144225062,-2.5271080175982874,2.281489058131836,-1.0181868712054651,0.04421457648277283
1708440521.6888587,-1.1055431365966797,-1.681601186791891,-2.5270944277392786,2.281484528178833,-1.0182064215289515,0.043974727392196655
1708440521.6908739,-1.10551917552948,-1.681584974328512,-2.5270705858813685,2.281444235438965,-1.0182965437518519,0.043703533709049225
1708440521.6928678,-1.10556960105896,-1.6815535030760707,-2.5270498434649866,2.281472607249878,-1.018231217061178,0.04342315346002579
1708440521.6948752,-1.10557222366333,-1.6815639934935511,-2.5270989576922815,2.2814923959919433,-1.0182150045977991,0.04318314045667648
1708440521.6968756,-1.1056016683578491,-1.6815864048399867,-2.5270498434649866,2.28141896306958,-1.0182636419879358,0.0430048368871212
1708440521.6988754,-1.10554838180542,-1.6816026173033656,-2.5270498434649866,2.2814575868793945,-1.018231217061178,0.042682945728302
1708440521.700908,-1.1055368185043335,-1.6815935573973597,-2.5270825068103235,2.281472607249878,-1.018231217061178,0.04245474562048912
1708440521.7029388,-1.1055808067321777,-1.681512018243307,-2.5270825068103235,2.2814158636280517,-1.0182550589190882,0.04225276783108711
1708440521.7049258,-1.1055474281311035,-1.681573053399557,-2.5270453135119837,2.281451626414917,-1.018259350453512,0.04200521856546402
1708440521.7069619,-1.1055808067321777,-1.6816092930235804,-2.5270870367633265,2.281430883998535,-1.0182798544513147,0.04172229766845703
1708440521.7088995,-1.1055517196655273,-1.681584974328512,-2.5270541349994105,2.281444235438965,-1.0182345549212855,0.04158105328679085
1708440521.7108755,-1.10554838180542,-1.6816069088377894,-2.5270825068103235,2.2814487653919677,-1.0182865301715296,0.041337016969919205
1708440521.7128756,-1.10549795627594,-1.6815864048399867,-2.5271123091327112,2.28141896306958,-1.0182550589190882,0.04113280773162842
1708440521.7148693,-1.105544090270996,-1.681540151635641,-2.5270615259753626,2.281444235438965,-1.018299404774801,0.040917009115219116
1708440521.716951,-1.1055235862731934,-1.6816231213011683,-2.5271080175982874,2.28139512121167,-1.018320385609762,0.04069649428129196
1708440521.7188945,-1.10551917552948,-1.681589265862936,-2.5271123091327112,2.28139512121167,-1.0182669798480433,0.04054697975516319
1708440521.7208705,-1.105560302734375,-1.6815597019591273,-2.5270586649524134,2.2814158636280517,-1.018243137990133,0.04032675176858902
1708440521.7229125,-1.1055560111999512,-1.6815535030760707,-2.5270453135119837,2.281460686320923,-1.0182908217059534,0.04016295075416565
1708440521.7248921,-1.1055397987365723,-1.681584974328512,-2.5270660559283655,2.2814649778553466,-1.018303696309225,0.03999221324920654
1708440521.72688,-1.1055560111999512,-1.6815864048399867,-2.5270615259753626,2.281402512187622,-1.0182707945453089,0.039812445640563965
1708440521.7288666,-1.105576515197754,-1.681601186791891,-2.5270453135119837,2.281435175532959,-1.0183075110064905,0.03960868716239929
1708440521.7308707,-1.1055152416229248,-1.681568285027975,-2.5270989576922815,2.281460686320923,-1.0182865301715296,0.039427436888217926
1708440521.732975,-1.10557222366333,-1.681629320184225,-2.5271201769458216,2.2814649778553466,-1.0182707945453089,0.03924734145402908
1708440521.7348692,-1.105532169342041,-1.6815773449339808,-2.5271320978747767,2.2814904886433105,-1.018303696309225,0.03914088010787964
1708440521.7368932,-1.1055150032043457,-1.681589265862936,-2.5271275679217737,2.281439705485962,-1.0182908217059534,0.038986824452877045
1708440521.7388794,-1.105588436126709,-1.6816188297667445,-2.527144257222311,2.2814487653919677,-1.0182707945453089,0.038749631494283676
1708440521.7408667,-1.1055152416229248,-1.681601186791891,-2.5270989576922815,2.281409664744995,-1.0182140509234827,0.03864634782075882
1708440521.7429054,-1.1055278778076172,-1.6815864048399867,-2.5270944277392786,2.281444235438965,-1.018271271382467,0.038522202521562576
1708440521.7448723,-1.105560302734375,-1.6815625629820765,-2.5271320978747767,2.2814695078083496,-1.0182908217059534,0.03834543749690056
1708440521.7468908,-1.1055235862731934,-1.6815935573973597,-2.5271111170398157,2.281460686320923,-1.0182879606830042,0.03823419287800789
1708440521.748863,-1.1055307388305664,-1.681589265862936,-2.52714711824526,2.28145615636792,-1.0183232466327112,0.03806058317422867
1708440521.7508814,-1.1055148839950562,-1.6815625629820765,-2.5270779768573206,2.281407042140625,-1.018320385609762,0.0379524901509285
1708440521.7530777,-1.1055457592010498,-1.6815444431700648,-2.52710205713381,2.281427784557007,-1.0182951132403772,0.037796564400196075
1708440521.7549286,-1.105510950088501,-1.6815444431700648,-2.527073685322897,2.281411333675049,-1.0182626883136194,0.03772619366645813
1708440521.7569451,-1.1055240631103516,-1.6815625629820765,-2.527085606251852,2.2814368444630126,-1.018271271382467,0.03755704313516617
1708440521.7588944,-1.105466604232788,-1.681531091729635,-2.527123037968771,2.2814652162739257,-1.0182669798480433,0.037528254091739655
1708440521.7608883,-1.1055647134780884,-1.681540151635641,-2.5270989576922815,2.2814695078083496,-1.0182989279376429,0.0374443344771862
1708440521.7629178,-1.105532169342041,-1.6815358601012171,-2.527106587086813,2.281444235438965,-1.0182951132403772,0.0372990258038044
1708440521.7648952,-1.1055234670639038,-1.6815444431700648,-2.527076546345846,2.2814411359974365,-1.0182464758502405,0.03722711279988289
1708440521.766983,-1.1055397987365723,-1.6815039120116175,-2.527123037968771,2.281444235438965,-1.0183118025409144,0.037065424025058746
1708440521.7689087,-1.1055035591125488,-1.6815620861449183,-2.527085606251852,2.2814249235340576,-1.0182793776141565,0.037030939012765884
1708440521.7708867,-1.1055809259414673,-1.6815577946104945,-2.527123037968771,2.2814084726520996,-1.0183118025409144,0.03696342185139656
1708440521.7729335,-1.1055283546447754,-1.6815773449339808,-2.5271111170398157,2.281399651164673,-1.0183118025409144,0.03687949851155281
1708440521.7748694,-1.1055197715759277,-1.681626935998434,-2.5270898977862757,2.2814530569263916,-1.0183399359332483,0.03680422902107239
1708440521.7768738,-1.1055572032928467,-1.681584974328512,-2.527123037968771,2.2814487653919677,-1.0182541052447718,0.03673257678747177
1708440521.7789025,-1.1055355072021484,-1.6816188297667445,-2.5270989576922815,2.2814487653919677,-1.0182541052447718,0.036675650626420975
1708440521.7808647,-1.105536699295044,-1.68158020595693,-2.527069155369894,2.2814203935810546,-1.0182626883136194,0.036612581461668015
1708440521.782938,-1.1055035591125488,-1.681568285027975,-2.5271201769458216,2.281444235438965,-1.0183160940753382,0.03654380515217781
1708440521.7848666,-1.1055409908294678,-1.6815935573973597,-2.527073685322897,2.2814368444630126,-1.018266503010885,0.036545347422361374
1708440521.7868853,-1.105494737625122,-1.6816054783263148,-2.5270617643939417,2.281399651164673,-1.0182707945453089,0.0365048423409462
1708440521.7888613,-1.1055240631103516,-1.681596418420309,-2.5271034876452845,2.2814530569263916,-1.0182908217059534,0.03649861365556717
1708440521.790863,-1.1055517196655273,-1.6815234623351039,-2.5270915667163294,2.281378670329712,-1.018221680318014,0.03642096370458603
1708440521.7928774,-1.1055152416229248,-1.681601186791891,-2.527106587086813,2.2814294534870605,-1.0182951132403772,0.03641793504357338
1708440521.794858,-1.1055066585540771,-1.6815639934935511,-2.5270617643939417,2.281444235438965,-1.0182707945453089,0.03642250970005989
1708440521.7969074,-1.1055572032928467,-1.6816188297667445,-2.5271156469928187,2.281444235438965,-1.0182626883136194,0.03636524826288223
1708440521.7988777,-1.105532169342041,-1.6816593609251917,-2.5270870367633265,2.281407042140625,-1.0182750860797327,0.03635309264063835
1708440521.8008785,-1.1055572032928467,-1.681531091729635,-2.5270870367633265,2.28139512121167,-1.018259350453512,0.03630368411540985
1708440521.8029406,-1.1055777072906494,-1.6815444431700648,-2.5270915667163294,2.2813877302357177,-1.0182865301715296,0.036308158189058304
1708440521.8048885,-1.1055241823196411,-1.6815444431700648,-2.5270989576922815,2.2814368444630126,-1.0182464758502405,0.03633379936218262
1708440521.8069572,-1.1055409908294678,-1.681540151635641,-2.5270825068103235,2.2814368444630126,-1.0182345549212855,0.036387812346220016
1708440521.8089457,-1.1054658889770508,-1.681531091729635,-2.5271034876452845,2.2814249235340576,-1.0182507673846644,0.03639388084411621
1708440521.8109117,-1.1055409908294678,-1.6815029583373011,-2.5271111170398157,2.2813920217701416,-1.0182464758502405,0.03640579432249069
1708440521.8129191,-1.1055197715759277,-1.68158020595693,-2.5270825068103235,2.2814413744160156,-1.0182841459857386,0.0364343523979187
1708440521.8148983,-1.105516791343689,-1.6816054783263148,-2.5270989576922815,2.2814203935810546,-1.018231217061178,0.0364704467356205
1708440521.8169627,-1.1055033206939697,-1.6815444431700648,-2.5270572344409388,2.2813660341450195,-1.0182388464557093,0.03651835396885872
1708440521.8188832,-1.1055121421813965,-1.6815773449339808,-2.5271034876452845,2.2813631731220703,-1.0182517210589808,0.03658256679773331
1708440521.8208542,-1.1055033206939697,-1.6815906963744105,-2.5270541349994105,2.2813920217701416,-1.0182150045977991,0.036655910313129425
