Eg3-git/Classifiers/Data Collection/u7/u7www4_ur3e_joint_states.csv
time,elbow_joint,shoulder_lift_joint,shoulder_pan_joint,wrist_1_joint,wrist_2_joint,wrist_3_joint
1708441053.9782588,-2.141084671020508,-1.3330123287490387,-2.525951687489645,6.108208167343893,1.0162074565887451,-3.014731232319967
1708441053.9802625,-2.1410677433013916,-1.3330004972270508,-2.5259724299060267,6.108206856041708,1.016162633895874,-3.014759365712301
1708441053.9823816,-2.1410887241363525,-1.3330286604217072,-2.5259636084186,6.108183133393087,1.0162358283996582,-3.01475173631777
1708441053.9842522,-2.1411242485046387,-1.3330286604217072,-2.5259833971606653,6.108199465065756,1.0162568092346191,-3.0147462526904505
1708441053.9862177,-2.141108274459839,-1.333025650387146,-2.5259669462787073,6.108169901161947,1.0162479877471924,-3.0147882143603724
1708441053.9882646,-2.1411285400390625,-1.333003507261612,-2.5259550253497522,6.1082308171089075,1.0162686109542847,-3.014775101338522
1708441053.990244,-2.1411125659942627,-1.3330331605723877,-2.525971237813131,6.108230697899618,1.0162599086761475,-3.0147913138019007
1708441053.9922338,-2.1411285400390625,-1.3330498200706025,-2.5259669462787073,6.1082132933433435,1.0162556171417236,-3.014778439198629
1708441053.9942758,-2.141104221343994,-1.3330331605723877,-2.5259907881366175,6.108258116036215,1.0162718296051025,-3.014787022267477
1708441053.996225,-2.141127109527588,-1.3330616515925904,-2.525971237813131,6.108281838684835,1.0162556171417236,-3.014872137700216
1708441053.9982162,-2.1410999298095703,-1.3330123287490387,-2.5260162989245813,6.108291971474447,1.0162837505340576,-3.0148552099811
1708441054.0002325,-2.141080379486084,-1.333045319919922,-2.5259702841388147,6.108262407570638,1.01633620262146,-3.0148795286761683
1708441054.0022333,-2.1411356925964355,-1.333045319919922,-2.5260611216174524,6.108330714493551,1.0162914991378784,-3.0148795286761683
1708441054.0043154,-2.141119956970215,-1.3330735725215455,-2.526065174733297,6.1083059189613245,1.0163112878799438,-3.0148547331439417
1708441054.0062044,-2.1410911083221436,-1.3331269782832642,-2.5259864966021937,6.108342635422506,1.0163440704345703,-3.014916483555929
1708441054.0081887,-2.1410999298095703,-1.333089904194214,-2.526039187108175,6.108327972679891,1.0163275003433228,-3.0148990789996546
1708441054.010219,-2.141079902648926,-1.3330647510341187,-2.526015106831686,6.108327972679891,1.0163472890853882,-3.0149315039264124
1708441054.0121856,-2.1410999298095703,-1.3330528301051636,-2.526059691105978,6.108325111656942,1.0163722038269043,-3.0149391333209437
1708441054.0142078,-2.1411314010620117,-1.333089904194214,-2.5260806719409388,6.108297335892477,1.016363501548767,-3.014902416859762
1708441054.016197,-2.141079902648926,-1.3331269782832642,-2.526010815297262,6.108307587891378,1.0163966417312622,-3.0149174372302454
1708441054.0181835,-2.1411314010620117,-1.3330988150886078,-2.5260520617114466,6.1083282110984705,1.0163922309875488,-3.014942232762472
1708441054.0203414,-2.1410911083221436,-1.3330988150886078,-2.526022497807638,6.108341443329611,1.016366958618164,-3.015003506337301
1708441054.022261,-2.1411068439483643,-1.3330810827067872,-2.5260632673846644,6.108353602677145,1.0164203643798828,-3.0149667898761194
1708441054.024203,-2.141127109527588,-1.333113746052124,-2.5260632673846644,6.108381855278768,1.0164282321929932,-3.0149624983416956
1708441054.026197,-2.1411314010620117,-1.3331269782832642,-2.5261088053332728,6.10843979099349,1.0164610147476196,-3.015031639729635
1708441054.0282335,-2.141127109527588,-1.3330528301051636,-2.526088062916891,6.1083730337913416,1.016447901725769,-3.0150437990771692
1708441054.030184,-2.1411561965942383,-1.3330320876887818,-2.526128355656759,6.108405935555258,1.016480803489685,-3.015009943638937
1708441054.0322306,-2.141171932220459,-1.3331049245646973,-2.5260465780841272,6.108331668167867,1.0164523124694824,-3.015071217213766
1708441054.0342467,-2.1411633491516113,-1.3330885928920289,-2.5260422865497034,6.108413445740499,1.0165176391601562,-3.0151036421405237
1708441054.0362084,-2.141167640686035,-1.3330930036357422,-2.5261033217059534,6.108397114067831,1.0165176391601562,-3.0150464216815394
1708441054.0382562,-2.141160726547241,-1.3330930036357422,-2.5261240641223353,6.1084210751350305,1.0165045261383057,-3.015087429677145
1708441054.0402591,-2.1411314010620117,-1.3330634397319336,-2.5260914007769983,6.1084385989005945,1.016533374786377,-3.015050713215963
1708441054.0421875,-2.1411476135253906,-1.3330841821483155,-2.5260990301715296,6.10846112945632,1.016491413116455,-3.015143696461813
1708441054.0442448,-2.1411139965057373,-1.3330930036357422,-2.5261357466327112,6.108396041184225,1.016507625579834,-3.015139404927389
1708441054.0462213,-2.1410868167877197,-1.3331586581519623,-2.5260825792895716,6.1084948656852625,1.0164990425109863,-3.0151639620410364
1708441054.048322,-2.1411561965942383,-1.333100513820984,-2.5261109511004847,6.108428227692404,1.0165811777114868,-3.0151670614825647
1708441054.0502388,-2.14113187789917,-1.3331212264350434,-2.5261109511004847,6.10846112945632,1.0165975093841553,-3.0151551405536097
1708441054.052209,-2.1411633491516113,-1.3331212562373658,-2.5261438528644007,6.108465540200033,1.0165603160858154,-3.015158478413717
1708441054.0541818,-2.141139030456543,-1.3331079345992585,-2.526147190724508,6.108505952149191,1.0165724754333496,-3.015146557484762
1708441054.0562117,-2.1411843299865723,-1.3331198555282135,-2.5261603037463587,6.108512270241537,1.016626000404358,-3.015207115803854
1708441054.0581832,-2.1411590576171875,-1.3331454259208222,-2.526167694722311,6.108533131867208,1.0166293382644653,-3.01524788538088
1708441054.060203,-2.1411924362182617,-1.3330946129611512,-2.526114050542013,6.108544814377584,1.0165843963623047,-3.0151572863208216
1708441054.0621982,-2.1411361694335938,-1.3331528466990967,-2.526109759007589,6.108557927399435,1.0166206359863281,-3.0152466932879847
1708441054.0642304,-2.1411843299865723,-1.3331154447845002,-2.526147190724508,6.108515727310934,1.016592264175415,-3.0152104536639612
1708441054.0662098,-2.14113187789917,-1.3331395250609894,-2.526175324116842,6.108487236290731,1.016636848449707,-3.0151973406421106
1708441054.0682445,-2.1411547660827637,-1.3331307929805298,-2.5261264483081263,6.108537542610922,1.0165997743606567,-3.015205685292379
1708441054.070216,-2.14121675491333,-1.3332255196622391,-2.5262165705310267,6.108586060791769,1.0166412591934204,-3.0152629057513636
1708441054.0722423,-2.1411967277526855,-1.33318583786998,-2.5262077490436,6.108592736511984,1.0166325569152832,-3.0152671972857874
1708441054.0742126,-2.1411590576171875,-1.3331515353969117,-2.5262046496020716,6.108609068184652,1.016607642173767,-3.0152953306781214
1708441054.0761945,-2.1412124633789062,-1.3331845265677948,-2.526191536580221,6.108585226326742,1.0166523456573486,-3.015261952077047
1708441054.0782197,-2.141146183013916,-1.333123193388321,-2.526147190724508,6.1086089489753626,1.016685128211975,-3.0152466932879847
1708441054.0802004,-2.1412065029144287,-1.3331725162318726,-2.5262156168567103,6.108613359719076,1.0166926383972168,-3.0152748266803187
1708441054.082237,-2.1411995887756348,-1.333163784151413,-2.5261829535113733,6.108600246697225,1.0166685581207275,-3.015278164540426
1708441054.0842586,-2.1412065029144287,-1.3332291108420868,-2.5262113253222864,6.108646261482992,1.0167135000228882,-3.0153186956988733
1708441054.0862503,-2.1411750316619873,-1.3332335215858002,-2.5261991659747522,6.108633148461141,1.0167005062103271,-3.01536733308901
1708441054.0882163,-2.141141653060913,-1.3331395250609894,-2.5262439886676233,6.108640658646383,1.0167373418807983,-3.0153144041644495
1708441054.090207,-2.1411995887756348,-1.333200530414917,-2.526236597691671,6.10862015464858,1.0167492628097534,-3.015351120625631
1708441054.0922053,-2.1411795616149902,-1.3331602674773713,-2.5262156168567103,6.108653890877523,1.0167574882507324,-3.01536733308901
1708441054.094209,-2.141183853149414,-1.3331845265677948,-2.526226584111349,6.108636367111959,1.0167574882507324,-3.0153868834124964
1708441054.0962782,-2.1411795616149902,-1.3332048070481797,-2.526243034993307,6.108708965569296,1.0167155265808105,-3.015390221272604
1708441054.098213,-2.1412196159362793,-1.3331602823785325,-2.526231114064352,6.108741867333212,1.0167768001556396,-3.015419069920675
1708441054.1002202,-2.141202211380005,-1.333163784151413,-2.5262396971331995,6.10866008976058,1.016797423362732,-3.0153771082507532
1708441054.1022108,-2.1412065029144287,-1.3331961196712037,-2.5262799898730677,6.108721244126119,1.0168052911758423,-3.0154264608966272
1708441054.104177,-2.1412153244018555,-1.3332389158061524,-2.5262799898730677,6.108688342362203,1.0168215036392212,-3.015430752431051
1708441054.106244,-2.1412289142608643,-1.3331845265677948,-2.5262354055987757,6.108724343567648,1.016850233078003,-3.0154264608966272
1708441054.1082075,-2.141162872314453,-1.3331814271262665,-2.5263074080096644,6.108798253327169,1.0168739557266235,-3.015416685734884
1708441054.1101913,-2.141240119934082,-1.3332335215858002,-2.526267115269796,6.108752596169271,1.0168696641921997,-3.0154622236834925
1708441054.1121924,-2.1412646770477295,-1.333197758798935,-2.526254955922262,6.108764755516805,1.0168577432632446,-3.015527311955587
1708441054.1141973,-2.1412065029144287,-1.333197758798935,-2.526283327733175,6.108846056252279,1.0168771743774414,-3.0154736677752894
1708441054.1161997,-2.141190767288208,-1.3332092624953766,-2.5263074080096644,6.108791458397665,1.0168894529342651,-3.015505615864889
1708441054.1181974,-2.141263961791992,-1.3331977737000962,-2.526311699544088,6.1088002798850916,1.0169179439544678,-3.0155251661883753
1708441054.120211,-2.1412200927734375,-1.3331961196712037,-2.526334349309103,6.108828770905294,1.0168763399124146,-3.015529457722799
1708441054.1221972,-2.1411750316619873,-1.3332256090692063,-2.5263639132129114,6.108837473183431,1.0169625282287598,-3.0155661741839808
1708441054.1241999,-2.1412065029144287,-1.3331558567336579,-2.5263596216784876,6.108750092774191,1.0169376134872437,-3.01552397409548
1708441054.1261997,-2.141202211380005,-1.333188847904541,-2.5263553301440638,6.108857261925497,1.0169494152069092,-3.015573803578512
1708441054.1281867,-2.1412243843078613,-1.333163784151413,-2.5264087359057825,6.108775126724996,1.016924500465393,-3.0155895392047327
1708441054.1301937,-2.141268253326416,-1.3331916195205231,-2.526371781026022,6.108819949417867,1.0169944763183594,-3.0155683199511927
1708441054.1322145,-2.14115834236145,-1.3332181733897706,-2.5263500849353235,6.108873474388876,1.0170434713363647,-3.015629593526022
1708441054.134285,-2.1412065029144287,-1.3332454425147553,-2.5263925234424036,6.108794915467062,1.017005205154419,-3.0156822840320032
1708441054.1362245,-2.1412770748138428,-1.3332422536662598,-2.5264251867877405,6.108844983368673,1.0170620679855347,-3.0156822840320032
1708441054.138272,-2.1412272453308105,-1.333212436442711,-2.5263827482806605,6.108855950623312,1.0170786380767822,-3.015722099934713
1708441054.1402066,-2.1412243843078613,-1.333200530414917,-2.5264273325549524,6.108883845597067,1.0170862674713135,-3.0157135168658655
1708441054.1422305,-2.1412558555603027,-1.3331916195205231,-2.526407543812887,6.108826625138082,1.0171431303024292,-3.0157697836505335
1708441054.144187,-2.141202211380005,-1.3331916195205231,-2.5264020601855677,6.108847367554464,1.0171375274658203,-3.015773598347799
1708441054.1462564,-2.141202211380005,-1.3332048517516633,-2.5264392534839075,6.108831035881796,1.0171581506729126,-3.015801731740133
1708441054.1482716,-2.1412065029144287,-1.3331872683814545,-2.526463333760397,6.1088751433189294,1.0171735286712646,-3.015789810811178
1708441054.1502278,-2.1411821842193604,-1.333212436442711,-2.526470963154928,6.1089210388954065,1.017250895500183,-3.0158212820636194
1708441054.1522224,-2.141244649887085,-1.3332335215858002,-2.52645451227297,6.10889612415389,1.0172216892242432,-3.0158405939685267
1708441054.1542075,-2.1411995887756348,-1.3331872087768097,-2.526527706776754,6.108890402107992,1.0172948837280273,-3.0159018675433558
1708441054.1562436,-2.1412038803100586,-1.3332335215858002,-2.52651554742922,6.108874189644613,1.0172817707061768,-3.015897576008932
1708441054.158214,-2.1412243843078613,-1.33319607496772,-2.5265396277057093,6.1089820740516565,1.0172983407974243,-3.0159300009356897
1708441054.1602066,-2.141233205795288,-1.3331827533296128,-2.5265265146838587,6.108940589218893,1.0173628330230713,-3.01591927209963
1708441054.1622055,-2.1412603855133057,-1.3332572740367432,-2.5265515486346644,6.108964788704672,1.0173745155334473,-3.015968624745504
1708441054.1642234,-2.1412243843078613,-1.3332035404494782,-2.5265472571002405,6.108964669495382,1.0173900127410889,-3.015984837208883
1708441054.1662126,-2.141244649887085,-1.3332454574159165,-2.526616160069601,6.108923065453329,1.0174140930175781,-3.01603347459902
1708441054.1681948,-2.1412110328674316,-1.333229125743248,-2.5266311804400843,6.1088610766227625,1.0174424648284912,-3.016074244176046
1708441054.1702425,-2.1412289142608643,-1.3331916195205231,-2.5266223589526575,6.108976709633627,1.0175069570541382,-3.0161011854754847
1708441054.1723006,-2.1412065029144287,-1.3332409423640748,-2.5266671816455286,6.108930933266439,1.0175069570541382,-3.016056839619772
1708441054.1742656,-2.1412243843078613,-1.3332440269044419,-2.5267251173602503,6.108911263733663,1.0175223350524902,-3.016137663518087
1708441054.1762877,-2.141248941421509,-1.3332276803306122,-2.5267282168017786,6.1089186547096155,1.0175749063491821,-3.016177479420797
1708441054.1782537,-2.1412196159362793,-1.333232120876648,-2.526698891316549,6.108963477402487,1.0175737142562866,-3.0161450544940394
1708441054.1802506,-2.141186475753784,-1.3332770031741639,-2.526759926472799,6.1089515564735315,1.017643690109253,-3.016123358403341
1708441054.1822557,-2.141235828399658,-1.3332440120032807,-2.5267675558673304,6.108955848007955,1.0176262855529785,-3.016217056904928
1708441054.1842818,-2.141248941421509,-1.3333467853120347,-2.5267871061908167,6.109004723816671,1.017687201499939,-3.016228977833883
1708441054.1862514,-2.1412153244018555,-1.3332593601993104,-2.5268026033984583,6.108955848007955,1.017723560333252,-3.016245190297262
1708441054.1882467,-2.1411795616149902,-1.3333051663688202,-2.5268026033984583,6.108935344010153,1.0177507400512695,-3.0162528196917933
1708441054.1902878,-2.1412038803100586,-1.3332814884236832,-2.526916805897848,6.1089515564735315,1.0177792310714722,-3.0163541475879114
1708441054.1922345,-2.141188144683838,-1.3333290380290528,-2.5269203821765345,6.108963477402487,1.0178565979003906,-3.016369167958395
1708441054.1942449,-2.1412110328674316,-1.3332888644984742,-2.526874605809347,6.1089515564735315,1.017863392829895,-3.0163725058185022
1708441054.19625,-2.141202211380005,-1.3332800430110474,-2.526914660130636,6.108922230988302,1.0178709030151367,-3.0164261499988
1708441054.198232,-2.141167163848877,-1.3332548451474686,-2.526931111012594,6.1089385626609705,1.0179486274719238,-3.0164857546435755
1708441054.2002363,-2.141233205795288,-1.3333541762879868,-2.5270162264453333,6.108984100609579,1.0179637670516968,-3.0164769331561487
1708441054.2022989,-2.141171455383301,-1.3332919937423249,-2.5270031134234827,6.108972179680624,1.0179755687713623,-3.0165088812457483
1708441054.204286,-2.141146183013916,-1.3332743656686326,-2.5270894209491175,6.1089515564735315,1.0180684328079224,-3.0165002981769007
1708441054.2062647,-2.1412196159362793,-1.3333247613957901,-2.5271013418780726,6.108999240189352,1.0180720090866089,-3.016581122075216
1708441054.2082121,-2.141195297241211,-1.3332991761020203,-2.527116362248556,6.1089385626609705,1.0181365013122559,-3.016609017048971
1708441054.210234,-2.1411547660827637,-1.3333691966584702,-2.5270944277392786,6.108930933266439,1.018151879310608,-3.0165961424456995
1708441054.2122633,-2.1411476135253906,-1.333364800815918,-2.5271437803851526,6.108971106797018,1.0182371139526367,-3.0166643301593226
1708441054.214208,-2.1411843299865723,-1.3333440285972138,-2.5271645228015345,6.108954775124349,1.0182687044143677,-3.016712013875143
1708441054.2161963,-2.141176462173462,-1.3333559495261689,-2.5271263758288782,6.109016644745626,1.018296480178833,-3.016723934804098
1708441054.218191,-2.141143321990967,-1.3333440583995362,-2.5271578470813196,6.108963477402487,1.018372654914856,-3.0167797247516077
1708441054.220204,-2.141115665435791,-1.333351508980133,-2.5272396246539515,6.108959185868063,1.0184173583984375,-3.016799275075094
1708441054.2222345,-2.1411054134368896,-1.3333070588162919,-2.5272515455829065,6.1089796898658655,1.0184359550476074,-3.0168724695788782
1708441054.2242358,-2.1411561965942383,-1.3333470684340973,-2.527280394230978,6.108923065453329,1.0185377597808838,-3.016876761113302
1708441054.2261968,-2.1411240100860596,-1.3333514642766495,-2.527316157017843,6.109000313072958,1.0185812711715698,-3.0169394651996058
1708441054.228194,-2.1411240100860596,-1.3334052425673981,-2.5273118654834192,6.108926641732015,1.0186207294464111,-3.017000738774435
1708441054.230184,-2.141115665435791,-1.3333637577346344,-2.5273149649249476,6.1089186547096155,1.018701434135437,-3.0169833342181605
1708441054.232231,-2.141108274459839,-1.3333559793284913,-2.5273762384997767,6.108947145729818,1.0187287330627441,-3.017005983983175
1708441054.2343118,-2.1410999298095703,-1.333323286180832,-2.52739125887026,6.1089515564735315,1.018784761428833,-3.017071549092428
1708441054.2362251,-2.141084671020508,-1.333298147921898,-2.527440611516134,6.108955967217245,1.0188491344451904,-3.017127339039938
1708441054.2382538,-2.141063690185547,-1.3333144050887604,-2.5274067560779017,6.1089385626609705,1.0188941955566406,-3.017139259968893
1708441054.2402663,-2.14107608795166,-1.333338202243187,-2.5274632612811487,6.108959185868063,1.0189701318740845,-3.017186943684713
1708441054.2422466,-2.1410810947418213,-1.3334085953286667,-2.527491633092062,6.108954775124349,1.0189976692199707,-3.017224375401632
1708441054.2442117,-2.1410114765167236,-1.3334085953286667,-2.527482811604635,6.108886110573568,1.019054651260376,-3.017287079487936
1708441054.2462196,-2.141028881072998,-1.333362416630127,-2.5275233427630823,6.108942854195394,1.0191099643707275,-3.017339531575338
1708441054.2482958,-2.1409878730773926,-1.3333339256099244,-2.5275591055499476,6.1089385626609705,1.019149899482727,-3.0173633734332483
1708441054.2502797,-2.1409921646118164,-1.3334086549333115,-2.5275505224811,6.108996021538534,1.0192434787750244,-3.017374102269308
1708441054.2522497,-2.141017436981201,-1.3333548319390793,-2.527607266102926,6.109000313072958,1.0192502737045288,-3.0174148718463343
1708441054.254212,-2.1409401893615723,-1.333465115433075,-2.5276313463794153,6.108926641732015,1.019335150718689,-3.0174711386310022
1708441054.256246,-2.140944480895996,-1.3334527176669617,-2.5276389757739466,6.108954775124349,1.0193870067596436,-3.0175400416003626
1708441054.2582123,-2.1409811973571777,-1.3334070158055802,-2.527666155491964,6.1089666960533044,1.0194023847579956,-3.0175474325763147
1708441054.2601993,-2.1409406661987305,-1.333408610229828,-2.527703110371725,6.10896776893691,1.0194544792175293,-3.0175495783435267
1708441054.2622085,-2.1408872604370117,-1.333415762787201,-2.52776009241213,6.10896776893691,1.0194778442382812,-3.017594639454977
1708441054.2641797,-2.1408843994140625,-1.333456353550293,-2.527729574834005,6.108960377960958,1.0195549726486206,-3.017646614705221
1708441054.2662148,-2.1408843994140625,-1.3334978085807343,-2.5278244654284876,6.108939635544576,1.019607663154602,-3.0177109877215784
1708441054.2682247,-2.140897274017334,-1.3335183572820206,-2.527860228215353,6.108930933266439,1.0197079181671143,-3.0177066961871546
1708441054.2702844,-2.1408562660217285,-1.3334934127381821,-2.527888600026266,6.108927476197042,1.019707441329956,-3.017831865941183
1708441054.2722487,-2.140869379043579,-1.3334307831576844,-2.5278921763049524,6.108931886940756,1.019783616065979,-3.0178070704089563
1708441054.2742095,-2.140798807144165,-1.333472655420639,-2.527919117604391,6.108939635544576,1.01981520652771,-3.0178349653827112
1708441054.2761972,-2.1408205032348633,-1.3334933382323761,-2.527931038533346,6.1089361784751794,1.019879698753357,-3.0179153124438685
1708441054.278198,-2.1408119201660156,-1.333460734491684,-2.527992312108175,6.108878600388326,1.0199235677719116,-3.017921749745504
1708441054.2801862,-2.140854597091675,-1.3334144067815323,-2.5279956499682825,6.108935224800863,1.0199717283248901,-3.01792556444277
1708441054.2821965,-2.1408090591430664,-1.333435134296753,-2.5280445257769983,6.1089361784751794,1.0200077295303345,-3.017945114766256
1708441054.2843227,-2.1407103538513184,-1.3334518384984513,-2.5280023256884974,6.108924257546224,1.0200393199920654,-3.0180307070361536
1708441054.2862875,-2.1407570838928223,-1.3334770661643525,-2.528039280568258,6.108902323036947,1.020099401473999,-3.0180257002459925
1708441054.2882662,-2.1407251358032227,-1.333456353550293,-2.5280795733081263,6.108931886940756,1.0201278924942017,-3.0180819670306605
1708441054.2902553,-2.1406641006469727,-1.3334484857371827,-2.5281036535846155,6.10890673378066,1.0201804637908936,-3.0181177298175257
1708441054.292223,-2.1407177448272705,-1.3334430021098633,-2.528106991444723,6.108870732575216,1.020248293876648,-3.0181260744677942
1708441054.2942321,-2.1406443119049072,-1.3334351939013978,-2.528135124837057,6.108924257546224,1.0202882289886475,-3.0181735197650355
1708441054.296236,-2.1406445503234863,-1.3334593933871766,-2.5281832853900355,6.108985292702474,1.0203412771224976,-3.0182185808764856
1708441054.2982776,-2.1406407356262207,-1.3334963631680985,-2.5281909147845667,6.108915555268087,1.0203518867492676,-3.01821738878359
1708441054.300346,-2.1406617164611816,-1.3334351491979142,-2.528170410786764,6.108948457032003,1.0203795433044434,-3.0182693640338343
1708441054.3022406,-2.140636920928955,-1.333421916966774,-2.5282519499408167,6.108924257546224,1.020424246788025,-3.018305842076437
1708441054.3042152,-2.140641212463379,-1.3334233325770875,-2.528255049382345,6.108899223595419,1.0205217599868774,-3.018313233052389
1708441054.3067646,-2.1406097412109375,-1.3334756654552002,-2.528276030217306,6.108879554062643,1.0205292701721191,-3.01832086244692
1708441054.3082242,-2.1406097412109375,-1.3334386211684723,-2.5283029715167444,6.108894932060995,1.0205237865447998,-3.018369499837057
1708441054.3101993,-2.140601634979248,-1.3334564131549378,-2.5283358732806605,6.108912455826559,1.0205968618392944,-3.0184102694140833
1708441054.312197,-2.140568971633911,-1.3335130375674744,-2.528302017842428,6.108870732575216,1.0206327438354492,-3.018409077321188
1708441054.3141966,-2.140568971633911,-1.3334787648967286,-2.528318468724386,6.108862030297079,1.0206360816955566,-3.0184295813189905
1708441054.3161964,-2.140557289123535,-1.3334919971278687,-2.528358761464254,6.108842837601461,1.0206809043884277,-3.018444840108053
1708441054.3182025,-2.1405415534973145,-1.3334997457316895,-2.528379265462057,6.108883845597067,1.0207170248031616,-3.0184479395495813
1708441054.3201742,-2.1405301094055176,-1.3334997457316895,-2.528374973927633,6.108909117966451,1.0206995010375977,-3.0185092131244105
1708441054.3222203,-2.1405458450317383,-1.3334909689477463,-2.5284112135516565,6.1088528511817834,1.0207488536834717,-3.0185049215899866
1708441054.3241858,-2.1405301094055176,-1.33347441375766,-2.5284274260150355,6.108773934632101,1.020817756652832,-3.018512550984518
1708441054.326214,-2.140526533126831,-1.3335202199271698,-2.5284395853625696,6.1088318703468225,1.0208046436309814,-3.018520180379049
1708441054.328195,-2.140472650527954,-1.3334504675916214,-2.5284393469439905,6.108750092774191,1.020836353302002,-3.0185888449298304
1708441054.3302016,-2.140554428100586,-1.3335202497294922,-2.5284512678729456,6.108824360161581,1.0208394527435303,-3.018609348927633
1708441054.3322036,-2.1405344009399414,-1.333529071216919,-2.528422180806295,6.108787047653951,1.020909309387207,-3.018593136464254
1708441054.3343594,-2.140502452850342,-1.3334954243949433,-2.528414551411764,6.108795869141378,1.0209007263183594,-3.0186288992511194
1708441054.3362358,-2.140526533126831,-1.3334919971278687,-2.528475348149435,6.108833181649008,1.0209007263183594,-3.0186782518969935
1708441054.3382797,-2.140451669692993,-1.3334997457316895,-2.528402630482809,6.108754503517904,1.0209236145019531,-3.0186613241778772
1708441054.340221,-2.140472650527954,-1.3334876012853165,-2.528426472340719,6.1088002798850916,1.020961046218872,-3.0186408201800745
1708441054.3422303,-2.14046049118042,-1.333527759914734,-2.528438393269674,6.108783948212423,1.0209567546844482,-3.0186288992511194
1708441054.3442125,-2.1404857635498047,-1.3335725975087662,-2.5284631888019007,6.108754503517904,1.020989179611206,-3.0186408201800745
1708441054.3462331,-2.140453338623047,-1.3335563403419037,-2.528450314198629,6.108756053238668,1.021005392074585,-3.0186408201800745
1708441054.348278,-2.140477180480957,-1.3335157495788117,-2.528458897267477,6.108792531281271,1.020976185798645,-3.0186451117144983
1708441054.350218,-2.1405436992645264,-1.333527759914734,-2.5284512678729456,6.108723151474752,1.0210342407226562,-3.018660847340719
1708441054.3522272,-2.1404333114624023,-1.333507017498352,-2.528414551411764,6.1086981175239465,1.0210219621658325,-3.0186527411090296
1708441054.3541849,-2.1405029296875,-1.3334492158940812,-2.528430763875143,6.108758795052328,1.0209879875183105,-3.0186484495746058
1708441054.3563004,-2.1404619216918945,-1.333491028552391,-2.528442684804098,6.108742940216818,1.021005392074585,-3.0186408201800745
1708441054.3582044,-2.140408515930176,-1.3335157495788117,-2.528471056615011,6.108763325005331,1.0209968090057373,-3.0186365286456507
1708441054.360195,-2.1404690742492676,-1.333507017498352,-2.5284350554095667,6.108760344773092,1.021005392074585,-3.018595282231466
1708441054.362219,-2.1404123306274414,-1.3335572940162201,-2.528438393269674,6.108783948212423,1.0209848880767822,-3.0186527411090296
1708441054.364197,-2.1404128074645996,-1.333539680843689,-2.528454605733053,6.108752476959982,1.020977258682251,-3.0186408201800745
1708441054.3662243,-2.140420913696289,-1.3334954243949433,-2.52846342722048,6.108731972962179,1.0209567546844482,-3.018665377293722
1708441054.3682241,-2.1404576301574707,-1.3334866029075165,-2.528438393269674,6.108780729561605,1.020961046218872,-3.0186365286456507
1708441054.370295,-2.140481948852539,-1.3335157644799729,-2.528450314198629,6.108817684441366,1.0209444761276245,-3.0186408201800745
1708441054.3722594,-2.1404662132263184,-1.3334743541530152,-2.5284059683429163,6.108756053238668,1.0209816694259644,-3.0186989943133753
1708441054.3742847,-2.1404504776000977,-1.3334830415299912,-2.52846342722048,6.108764755516805,1.020948886871338,-3.0186527411090296
1708441054.376268,-2.1404380798339844,-1.3335114133409043,-2.5284677187549036,6.108804571419515,1.0209698677062988,-3.0186527411090296
1708441054.3783054,-2.1404213905334473,-1.3335352700999756,-2.5284631888019007,6.108813154488363,1.0209323167800903,-3.0186126867877405
1708441054.3803089,-2.140451192855835,-1.3335277748158951,-2.5284674803363245,6.108756053238668,1.0209128856658936,-3.0186739603625696
1708441054.3822749,-2.140397071838379,-1.3335519295981904,-2.528414551411764,6.1087437746818445,1.0209128856658936,-3.0186570326434534
1708441054.3842897,-2.1404128074645996,-1.3335114431432267,-2.528426472340719,6.108769166260519,1.020904302597046,-3.018639628087179
1708441054.3862238,-2.1404635906219482,-1.3335396659425278,-2.52838641801943,6.108739483147421,1.0209050178527832,-3.0186365286456507
1708441054.3882287,-2.1404213905334473,-1.3335440915874024,-2.5284631888019007,6.108777868538656,1.0208930969238281,-3.01855975786318
1708441054.3902652,-2.1404337882995605,-1.3335563403419037,-2.5284069220172327,6.108740675240316,1.0208930969238281,-3.0185964743243616
1708441054.3922358,-2.140481948852539,-1.3335352551988144,-2.5284720102893274,6.108736264496603,1.0208556652069092,-3.0185964743243616
1708441054.3942304,-2.1404504776000977,-1.3334866774133225,-2.52836519876589,6.108761179238119,1.0208687782287598,-3.0186169783221644
1708441054.3962374,-2.140474796295166,-1.3335114282420655,-2.528398338948385,6.108670818596639,1.0208611488342285,-3.0186007658587855
1708441054.3982162,-2.140408515930176,-1.3335650277188797,-2.5284231344806116,6.108679520874777,1.0207916498184204,-3.0186169783221644
1708441054.40022,-2.1404170989990234,-1.333539680843689,-2.528402630482809,6.108728754311361,1.0208046436309814,-3.018609348927633
1708441054.4022377,-2.140442371368408,-1.3334909838489075,-2.5283780733691614,6.108708011894979,1.0207924842834473,-3.018613640462057
1708441054.4042714,-2.1404056549072266,-1.3335726720145722,-2.5284200350390833,6.108650195389547,1.0207597017288208,-3.01856500307192
1708441054.406321,-2.1403720378875732,-1.3335682463696976,-2.528390709553854,6.1086721298988245,1.0207359790802002,-3.0185726324664515
1708441054.40822,-2.1404144763946533,-1.3335474294475098,-2.5283950010882776,6.108675110131063,1.0207114219665527,-3.018581215535299
1708441054.4102101,-2.140376329421997,-1.333507017498352,-2.5284069220172327,6.108667719155111,1.0207414627075195,-3.0185027758227747
1708441054.4122288,-2.140455484390259,-1.3335100275329133,-2.528390709553854,6.108677613526144,1.0206712484359741,-3.018578116093771
1708441054.4141898,-2.140418767929077,-1.3335519295981904,-2.5284200350390833,6.108676421433248,1.0206680297851562,-3.018578116093771
1708441054.4162042,-2.140373706817627,-1.3335519295981904,-2.5283456484424036,6.108655798226156,1.0206530094146729,-3.0185611883746546
1708441054.4182003,-2.1403493881225586,-1.3335800778916855,-2.5283995310412806,6.108624446183004,1.0206153392791748,-3.018512550984518
1708441054.4202313,-2.140385150909424,-1.333526374106743,-2.5283337275134485,6.1085795042808435,1.020599126815796,-3.018524471913473
1708441054.4222543,-2.1403369903564453,-1.3335386526635666,-2.5283456484424036,6.108629691391744,1.0206165313720703,-3.01850396791567
1708441054.4242096,-2.140324592590332,-1.3335966926864167,-2.5283950010882776,6.108531582146444,1.0205881595611572,-3.01848012605776
1708441054.4262204,-2.1403822898864746,-1.333584578042366,-2.528374973927633,6.108573066979208,1.020552158355713,-3.0185254255877894
1708441054.428237,-2.140346050262451,-1.3335593801787873,-2.5282724539386194,6.108531701355734,1.0205399990081787,-3.018512550984518
1708441054.4302,-2.140317440032959,-1.3335637015155335,-2.528334919606344,6.108488428383627,1.0205485820770264,-3.018468681965963
1708441054.4322267,-2.140258312225342,-1.3335923117450257,-2.528367344533102,6.1084927199180505,1.0205118656158447,-3.0184930006610315
1708441054.4342813,-2.1403403282165527,-1.3335460436395188,-2.528371874486105,6.108480918198385,1.0205087661743164,-3.0184436480151575
1708441054.4362183,-2.140275478363037,-1.3336072725108643,-2.5283435026751917,6.108432638436117,1.0204428434371948,-3.018473211918966
1708441054.4382665,-2.1401829719543457,-1.3335703176311036,-2.5283263365374964,6.1084210751350305,1.0204471349716187,-3.0184860865222376
1708441054.4402304,-2.140178680419922,-1.3336189550212403,-2.52828556696047,6.10837613323287,1.0204601287841797,-3.0184243361102503
1708441054.4422138,-2.1401424407958984,-1.3336311143687745,-2.5283270517932337,6.108320700913229,1.0204689502716064,-3.018416706715719
1708441054.44424,-2.1401429176330566,-1.3336012673429032,-2.52838379541506,6.108337032585897,1.020387053489685,-3.018388573323385
1708441054.4462333,-2.1400866508483887,-1.3336623919061203,-2.52832276025881,6.10825668552474,1.0203826427459717,-3.018420998250143
1708441054.4482794,-2.1400294303894043,-1.3336549562266846,-2.5283270517932337,6.10824595668868,1.0203752517700195,-3.018380943928854
1708441054.4502513,-2.139998435974121,-1.333616555934288,-2.52826172510256,6.108180749207296,1.020371913909912,-3.0183852354632776
1708441054.4522398,-2.1399660110473633,-1.333728016620018,-2.528306547795431,6.108157741814413,1.0203020572662354,-3.0183728376971644
1708441054.454224,-2.1399197578430176,-1.3337443184903641,-2.528294388447897,6.108108866005697,1.020371913909912,-3.018369499837057
1708441054.4562662,-2.139854907989502,-1.333759383564331,-2.528294388447897,6.1081228134925745,1.0203062295913696,-3.018381420766012
1708441054.458214,-2.1398541927337646,-1.3337518584779282,-2.5283029715167444,6.108029591828146,1.0202865600585938,-3.0183327833758753
1708441054.4601998,-2.1397953033447266,-1.3337297600558777,-2.5282986799823206,6.108021724015035,1.0202909708023071,-3.018341366444723
1708441054.4622078,-2.1397266387939453,-1.333763764505722,-2.528310839329855,6.107945906906881,1.020328164100647,-3.0183046499835413
1708441054.464188,-2.139678955078125,-1.3337909591249009,-2.52832276025881,6.107915508538046,1.0203443765640259,-3.01829702058901
1708441054.466208,-2.139659881591797,-1.3337821674397965,-2.528343741093771,6.107875096588888,1.0202460289001465,-3.018329445515768
1708441054.4682188,-2.139575242996216,-1.3338314455798645,-2.528297726308004,6.107778298645773,1.0202996730804443,-3.018337074910299
1708441054.470223,-2.1395249366760254,-1.3338835400393982,-2.5283270517932337,6.107735025673666,1.0203039646148682,-3.0182974974261683
1708441054.4722903,-2.1394200325012207,-1.3338865649751206,-2.528306547795431,6.107609975128927,1.0202747583389282,-3.0183101336108606
1708441054.4742324,-2.139359951019287,-1.3338998568109055,-2.5283599535571497,6.107575166016378,1.0202747583389282,-3.018313233052389
1708441054.4762194,-2.1392312049865723,-1.3338896346143265,-2.5283270517932337,6.107507812767782,1.0202546119689941,-3.018231455479757
1708441054.4781919,-2.1391429901123047,-1.333910734658577,-2.5283096472369593,6.107403504639425,1.0202996730804443,-3.0182769934283655
1708441054.480204,-2.1390600204467773,-1.3339548867991944,-2.528363052998678,6.107323872834005,1.0202579498291016,-3.018305842076437
1708441054.4822168,-2.1389970779418945,-1.3339495819858094,-2.528379265462057,6.107218491822042,1.020308494567871,-3.018308941517965
1708441054.484311,-2.1389217376708984,-1.3339285117438813,-2.5283663908587855,6.107096540718832,1.020275354385376,-3.0182927290545862
1708441054.4862177,-2.1387507915496826,-1.3340387356332322,-2.528402630482809,6.106976973801412,1.0202922821044922,-3.0182889143573206
1708441054.488254,-2.1386325359344482,-1.3340049547008057,-2.528386179600851,6.106775748520651,1.0203158855438232,-3.0182727018939417
1708441054.4902914,-2.1385254859924316,-1.334058241253235,-2.5284231344806116,6.106681453972616,1.0203158855438232,-3.0183220545398157
1708441054.4922137,-2.1383893489837646,-1.334098683004715,-2.528475348149435,6.106485831528463,1.0203158855438232,-3.018280092869894
1708441054.4942129,-2.13828182220459,-1.3341509413770218,-2.5284743944751185,6.106370675354757,1.020307183265686,-3.0182650724994105
1708441054.496219,-2.1381261348724365,-1.334174470310547,-2.5284655729876917,6.106227147370138,1.0203237533569336,-3.0183263460742396
1708441054.4982388,-2.137929916381836,-1.334226743584015,-2.528538767491476,6.106059658318319,1.020328164100647,-3.0183101336108606
1708441054.500276,-2.1377859115600586,-1.3342062097838898,-2.528579060231344,6.105871426850118,1.0203237533569336,-3.0182932058917444
1708441054.5022569,-2.1376659870147705,-1.3342779588750382,-2.528590981160299,6.105705249100485,1.0203475952148438,-3.0183425585376185
1708441054.5042276,-2.1374869346618652,-1.3342822802117844,-2.5286522547351282,6.105454909592428,1.0203684568405151,-3.01829702058901
1708441054.5062466,-2.137295961380005,-1.3343268048814316,-2.5286672751056116,6.105266201287069,1.020371913909912,-3.01829702058901
1708441054.5082111,-2.137112617492676,-1.334346593623497,-2.528724018727438,6.10498987415389,1.0203641653060913,-3.0183425585376185
1708441054.5102024,-2.1369171142578125,-1.3343663674644013,-2.528726402913229,6.104737627297201,1.020436406135559,-3.018305842076437
1708441054.5122147,-2.136697292327881,-1.3343520623496552,-2.5287635962115687,6.104486334114828,1.0203914642333984,-3.018337074910299
1708441054.5141962,-2.136460542678833,-1.3344202798656006,-2.528806988392965,6.104247200279989,1.0204973220825195,-3.018345657979147
1708441054.5161963,-2.136274576187134,-1.3344781261733552,-2.5288801828967493,6.10406123378829,1.0204929113388062,-3.01832086244692
1708441054.5182052,-2.136037826538086,-1.3344519448331376,-2.5289321581469935,6.103802668839254,1.0205292701721191,-3.0183852354632776
1708441054.52019,-2.135826826095581,-1.3345051270774384,-2.528931204472677,6.103465187340536,1.0205292701721191,-3.018404785786764
1708441054.5222197,-2.135611057281494,-1.3345202070525666,-2.529025141392843,6.103244054108419,1.0205529928207397,-3.018420998250143
1708441054.524208,-2.1353282928466797,-1.334543139939644,-2.5289860407458704,6.102949130326071,1.0205323696136475,-3.0184534231769007
1708441054.526207,-2.1350324153900146,-1.3346411448768158,-2.529055658970968,6.102616536408224,1.0205596685409546,-3.0184653441058558
1708441054.5281918,-2.1348118782043457,-1.3346518886140366,-2.5291603247271937,6.102321731835165,1.0206458568572998,-3.0184972921954554
1708441054.5302074,-2.134550094604492,-1.334687517290451,-2.5292051474200647,6.101974832802572,1.0206972360610962,-3.0185254255877894
1708441054.5322082,-2.134262800216675,-1.3347486716559906,-2.5291953722583216,6.101583707123556,1.0206972360610962,-3.0185373465167444
1708441054.5343032,-2.133934259414673,-1.3347399097732087,-2.5292955080615442,6.101195561676779,1.0207738876342773,-3.018540684376852
1708441054.5362246,-2.133638858795166,-1.3348203313401719,-2.5293317476855677,6.1008081314857385,1.0208011865615845,-3.0186343828784388
1708441054.5382802,-2.1333487033843994,-1.3348105114749451,-2.52940017381777,6.100511777191915,1.020837426185608,-3.0185964743243616
1708441054.5402563,-2.1330325603485107,-1.3348866266063233,-2.5294724146472376,6.100128638535299,1.0208942890167236,-3.018632237111227
1708441054.5422192,-2.1327428817749023,-1.3348953139832993,-2.5295398871051233,6.099708425789633,1.0209128856658936,-3.0186365286456507
1708441054.5442395,-2.132369041442871,-1.3349583905986329,-2.5295661131488245,6.099338161736288,1.0209978818893433,-3.018717114125387
1708441054.5462322,-2.1320133209228516,-1.334982455973961,-2.5296717325793665,6.098874199181356,1.0210461616516113,-3.0187235514270228
1708441054.5482752,-2.131646156311035,-1.3350508523038407,-2.529743734990255,6.098476516991415,1.021069049835205,-3.0188785235034388
1708441054.550259,-2.1312742233276367,-1.3351138097098847,-2.529844109212057,6.098012912064352,1.0211859941482544,-3.018843952809469
1708441054.5522506,-2.130892276763916,-1.3351749193719407,-2.529903237019674,6.0975239155586145,1.0212669372558594,-3.018953863774435
1708441054.554197,-2.1305205821990967,-1.33529548466716,-2.5299628416644495,6.097028124123373,1.0213191509246826,-3.0189927260028284
1708441054.556284,-2.130126476287842,-1.335281179552414,-2.5300634543048304,6.096641647606649,1.0213871002197266,-3.0190771261798304
1708441054.5582135,-2.1297152042388916,-1.335349754696228,-2.530191961918966,6.096108662873068,1.021487832069397,-3.0191050211535853
1708441054.5602043,-2.129251003265381,-1.3354703050902863,-2.5302401224719446,6.095602023392477,1.0215510129928589,-3.019163433705465
1708441054.5622299,-2.1288366317749023,-1.335534618501999,-2.5303154627429407,6.095018255501547,1.0216319561004639,-3.019292656575338
1708441054.5641947,-2.1283493041992188,-1.335552842622139,-2.5303948561297815,6.094504821091451,1.0216670036315918,-3.0193327108966272
1708441054.5661998,-2.127922534942627,-1.3356293004802247,-2.530499521886007,6.093840229302206,1.0218242406845093,-3.0194206873523157
1708441054.5681932,-2.127448081970215,-1.3357292872718354,-2.530595604573385,6.093230950623312,1.021878957748413,-3.019500795994894
1708441054.5702267,-2.1269521713256836,-1.335726873283722,-2.530687395726339,6.092662441521444,1.0219961404800415,-3.019564215336935
1708441054.5722322,-2.126478433609009,-1.3358236712268372,-2.530771319066183,6.0920565007026575,1.022075891494751,-3.0196197668658655
1708441054.5742552,-2.125983476638794,-1.3359248501113434,-2.530879084263937,6.091426121979513,1.0221893787384033,-3.0197232405291956
1708441054.5762608,-2.125483989715576,-1.3359997433475037,-2.5309961477862757,6.090816247254171,1.0222647190093994,-3.0199008623706263
1708441054.5782628,-2.1249492168426514,-1.336062805061676,-2.5310960451709192,6.0901691792304895,1.0223981142044067,-3.019907299672262
1708441054.580274,-2.1243691444396973,-1.3361226630261918,-2.5312445799456995,6.089533197670736,1.0224738121032715,-3.019966427479879
1708441054.582273,-2.1238114833831787,-1.336274967794754,-2.5312543551074427,6.08873604515151,1.0225772857666016,-3.0201407114612024
1708441054.5842745,-2.1232235431671143,-1.3363705736449738,-2.5313907305346888,6.08802746513442,1.0227183103561401,-3.020207468663351
1708441054.5862296,-2.122654438018799,-1.3364379864982148,-2.531549040471212,6.087283122330465,1.0227893590927124,-3.020303551350729
1708441054.588224,-2.1220710277557373,-1.3365049821189423,-2.5317254702197474,6.086505043297567,1.022931456565857,-3.0203943888293665
1708441054.5902202,-2.121480941772461,-1.3366270673326035,-2.5317724386798304,6.085776316910543,1.0230231285095215,-3.020510737095968
1708441054.592263,-2.120877265930176,-1.336723045711853,-2.5319133440600794,6.084923851280966,1.0231198072433472,-3.020618263875143
1708441054.594235,-2.1202449798583984,-1.336788923745491,-2.531982962285177,6.084290373116293,1.0231983661651611,-3.0207303206073206
1708441054.5962422,-2.119663953781128,-1.3368726980737229,-2.532119337712423,6.0834107277686975,1.0233018398284912,-3.020888868962423
1708441054.5982497,-2.118952751159668,-1.3370022040656586,-2.5322676340686243,6.082582342415609,1.0234144926071167,-3.020982329045431
1708441054.6002479,-2.1182827949523926,-1.3370815378478547,-2.532440964375631,6.081655013352194,1.0235350131988525,-3.021045748387472
1708441054.602231,-2.117579221725464,-1.3371227544597168,-2.5324912706958216,6.080799090653219,1.023692011833191,-3.021238390599386
1708441054.6042287,-2.1169137954711914,-1.3372305196574708,-2.532687250767843,6.079937922745504,1.0237962007522583,-3.021334234868185
1708441054.6062467,-2.116194725036621,-1.3373261255076905,-2.532828156148092,6.079001176148214,1.023850679397583,-3.0214689413653772
1708441054.6082878,-2.1154937744140625,-1.3374217313579102,-2.5329349676715296,6.078181135445394,1.0240005254745483,-3.0215726534472864
1708441054.6102178,-2.114750623703003,-1.3375708323768158,-2.533099953328268,6.0772061226661584,1.0241323709487915,-3.0217321554767054
1708441054.6121974,-2.1140360832214355,-1.3376172941974183,-2.5332229773150843,6.076337325363912,1.0242778062820435,-3.021848265324728
1708441054.6142013,-2.113219738006592,-1.3376922321370621,-2.533417050038473,6.07537733295516,1.0243940353393555,-3.022028986607687
1708441054.616228,-2.1124749183654785,-1.3378371757319947,-2.5335195700274866,6.074375378876486,1.0245141983032227,-3.0221594015704554
1708441054.6182342,-2.1117055416107178,-1.3379194152406235,-2.533659044896261,6.073372113495626,1.0246374607086182,-3.022332731877462
1708441054.6201873,-2.1108877658843994,-1.3380896908095856,-2.5337987581836146,6.072314250260153,1.0247817039489746,-3.0225568453418177
1708441054.6222496,-2.110153913497925,-1.3381972175887604,-2.5339961687671106,6.07133578041152,1.024930715560913,-3.0226872603045862
1708441054.624225,-2.1093266010284424,-1.3383213442615052,-2.5341761747943323,6.0703550455863855,1.0250543355941772,-3.0228565374957483
1708441054.626229,-2.108466386795044,-1.3384337735227128,-2.5342913309680384,6.069286811142721,1.0251778364181519,-3.023020092641012
1708441054.6282215,-2.107677459716797,-1.338479833011963,-2.534410540257589,6.06820701339797,1.0252976417541504,-3.023191515599386
1708441054.6302085,-2.1067917346954346,-1.3386247766068955,-2.5346723238574427,6.067216741829672,1.0254719257354736,-3.023334566746847
1708441054.6322374,-2.105945587158203,-1.3387234073928376,-2.5348032156573694,6.066045748978414,1.025604009628296,-3.023551050816671
1708441054.6342273,-2.1050546169281006,-1.338892252450325,-2.535024706517355,6.065010773926534,1.0257568359375,-3.023767058049337
1708441054.6362364,-2.10414457321167,-1.3390238893083115,-2.5351555983172815,6.063846218376913,1.0258923768997192,-3.023949686680929
1708441054.6382442,-2.1032874584198,-1.3391268861344834,-2.535356108342306,6.062696087151327,1.0260653495788574,-3.0240801016436976
1708441054.6402538,-2.1023778915405273,-1.3392584931901474,-2.535539452229635,6.061653601914205,1.0261852741241455,-3.024297300969259
1708441054.6422389,-2.1014599800109863,-1.3393121373704453,-2.5357323328601282,6.060505735665121,1.0263251066207886,-3.024480406438009
1708441054.6442218,-2.1005218029022217,-1.3394604486278077,-2.5358381907092493,6.0592548725898645,1.0264337062835693,-3.0247581640826624
1708441054.6462452,-2.0996642112731934,-1.339592145090439,-2.536039177571432,6.058115947037496,1.0265779495239258,-3.024912420903341
1708441054.6481993,-2.0987303256988525,-1.3396787506392975,-2.536224667225973,6.05701099613265,1.0267266035079956,-3.0251029173480433
1708441054.6502602,-2.0977983474731445,-1.339844287639,-2.536362950001852,6.055813896446981,1.0268750190734863,-3.0253520647632044
1708441054.6522236,-2.0968756675720215,-1.3399339330247422,-2.536535088215963,6.054596769600668,1.0270315408706665,-3.0255757013904017
1708441054.6541975,-2.0959250926971436,-1.340086357002594,-2.53676420847048,6.053376304894247,1.0271461009979248,-3.0258644262896937
1708441054.6566782,-2.094970941543579,-1.340267152791359,-2.5369442144977015,6.0521031496818445,1.027364730834961,-3.026046339665548
1708441054.6582053,-2.094005584716797,-1.34040321529422,-2.5371111075030726,6.050809609680929,1.0275198221206665,-3.0262942949878138
1708441054.6602042,-2.093024253845215,-1.340497301225998,-2.5373433271991175,6.049598681717672,1.0276522636413574,-3.0265422503100794
1708441054.6622138,-2.092087745666504,-1.3406155419400712,-2.537531916295187,6.048291551857748,1.0278159379959106,-3.0267658869372767
1708441054.6641934,-2.0910511016845703,-1.3407382828048249,-2.537689987813131,6.047089564591207,1.0279693603515625,-3.0269976297961634
1708441054.6662266,-2.090061664581299,-1.3409234446338196,-2.537875477467672,6.045853721886434,1.028125524520874,-3.027196470891134
1708441054.6682184,-2.0890653133392334,-1.3410982948592682,-2.5380542914019983,6.044577467232504,1.0282686948776245,-3.02741510072817
1708441054.6702158,-2.0880579948425293,-1.3412761849216004,-2.5382712523089808,6.043361413269796,1.0284370183944702,-3.0276718775378626
1708441054.6723137,-2.0869834423065186,-1.3414255243590851,-2.538459126149313,6.042028653412618,1.0285769701004028,-3.0279606024371546
1708441054.674258,-2.0859861373901367,-1.3416185092977067,-2.5386629740344446,6.04075704792098,1.0287569761276245,-3.028208080922262
1708441054.676234,-2.084954023361206,-1.3417949837497254,-2.538902823125021,6.039445149689474,1.028978943824768,-3.0284600893603724
1708441054.6782138,-2.0838992595672607,-1.3419279915145417,-2.5390499273883265,6.038080799370565,1.029154658317566,-3.0287509600268763
1708441054.68019,-2.082923650741577,-1.3421161782792588,-2.539307419453756,6.036723959236898,1.029322862625122,-3.0290029684649866
1708441054.682235,-2.0818164348602295,-1.3422180724195023,-2.539544169102804,6.035433041840353,1.0294831991195679,-3.0293224493609827
1708441054.6842377,-2.0807511806488037,-1.34243597209964,-2.5396772066699427,6.034193265229025,1.0296350717544556,-3.029562536870138
1708441054.6862738,-2.0797104835510254,-1.3426438731006165,-2.539943043385641,6.0328277228172205,1.0297787189483643,-3.02980620065798
1708441054.688226,-2.0786242485046387,-1.3427784156850358,-2.5401504675494593,6.031547415047445,1.0299755334854126,-3.030100409184591
1708441054.6902478,-2.0775604248046875,-1.3429606419852753,-2.540399138127462,6.03015028217391,1.0301642417907715,-3.030401055012838
1708441054.6922424,-2.076442241668701,-1.3431819838336487,-2.5406106154071253,6.028838860779562,1.0303447246551514,-3.0306831041919153
1708441054.6942239,-2.0752885341644287,-1.3433404576829453,-2.5408061186419886,6.027455198555746,1.0304969549179077,-3.0310242811786097
1708441054.6962178,-2.0742013454437256,-1.3435320419124146,-2.5410872141467493,6.026098477631368,1.0307055711746216,-3.0312700907336634
1708441054.6982281,-2.0730319023132324,-1.3437230300954361,-2.541291062031881,6.024723994522848,1.030897617340088,-3.0315502325641077
1708441054.7002707,-2.0719876289367676,-1.3438666474870224,-2.5415268580066126,6.023384439736166,1.0310945510864258,-3.031853739415304
1708441054.7022548,-2.070849657058716,-1.3440656822970887,-2.541819159184591,6.021959769516744,1.0312583446502686,-3.0322144667254847
1708441054.704205,-2.0697293281555176,-1.3442370605519791,-2.5420473257647913,6.020614731102743,1.0314472913742065,-3.0325496832477015
1708441054.706235,-2.0685951709747314,-1.3444523525289078,-2.5422826449023646,6.019194113999166,1.0316396951675415,-3.0328241030322474
1708441054.7082195,-2.0673980712890625,-1.3446316433003922,-2.542534891759054,6.017774569779196,1.0318440198898315,-3.0331719557391565
1708441054.71022,-2.066249132156372,-1.3448810887387772,-2.542790953313009,6.0163519261176965,1.032056212425232,-3.0335314909564417
1708441054.7122073,-2.0650429725646973,-1.345067859893181,-2.5430548826800745,6.014932620316305,1.0322281122207642,-3.033854309712545
1708441054.7142265,-2.063910722732544,-1.3452340525439759,-2.5433228651629847,6.0134901879127405,1.032469391822815,-3.034247938786642
1708441054.7162173,-2.0626983642578125,-1.345358283524849,-2.5435617605792444,6.012202250748434,1.0326454639434814,-3.0345621744738978
1708441054.7181928,-2.0615501403808594,-1.3456153285554429,-2.5438509623156946,6.01073311546401,1.0328303575515747,-3.034929339085714
1708441054.720201,-2.0603702068328857,-1.3458230209401627,-2.544131342564718,6.009358751564779,1.032997965812683,-3.0352771917926233
1708441054.722219,-2.0591461658477783,-1.346030594115593,-2.544398371373312,6.007959472924032,1.033239483833313,-3.035640064870016
1708441054.724234,-2.057957410812378,-1.3462488514235993,-2.544694964085714,6.00643156745986,1.0334516763687134,-3.0361056963550013
1708441054.726217,-2.0566823482513428,-1.3464849901250382,-2.5449820200549524,6.004945862084188,1.0337371826171875,-3.0364213625537317
1708441054.7282374,-2.055471181869507,-1.3467660558274765,-2.5452948252307337,6.003523576050558,1.0339406728744507,-3.036828343068258
1708441054.730219,-2.054227828979492,-1.346918762927391,-2.5455947558032435,6.002071606903829,1.0341517925262451,-3.037149969731466
1708441054.73223,-2.0530381202697754,-1.3471919012120743,-2.545910183583395,6.000572550087728,1.0344456434249878,-3.037571732197897
1708441054.734242,-2.0517349243164062,-1.3474807900241395,-2.5462141672717493,5.9991586087043665,1.0346492528915405,-3.0379791895495813
1708441054.736212,-2.0505340099334717,-1.3476270896247406,-2.546506468449728,5.99766885021285,1.034869909286499,-3.0384026209460657
1708441054.7382202,-2.049302577972412,-1.3479126554778595,-2.5468884150134485,5.996298301010885,1.035106897354126,-3.0387492815600794
1708441054.7402172,-2.0480473041534424,-1.348155991440155,-2.5471108595477503,5.994900572090902,1.0353355407714844,-3.039182488118307
1708441054.7422464,-2.0468897819519043,-1.348437027340271,-2.547417465840475,5.993522512703695,1.0356043577194214,-3.0395479838000696
1708441054.744205,-2.0455963611602783,-1.3485925060561677,-2.547795836125509,5.992020952492513,1.0358611345291138,-3.0399683157550257
1708441054.746213,-2.044318199157715,-1.3489675682834168,-2.5481565634356897,5.990574705391683,1.0360612869262695,-3.0403593222247522
1708441054.7482433,-2.0431010723114014,-1.3492097568563004,-2.5484381357776087,5.989091384201803,1.0363092422485352,-3.040888849888937
1708441054.7502518,-2.0417943000793457,-1.3494490397027512,-2.5487993399249476,5.987617242127218,1.0366100072860718,-3.0412467161761683
1708441054.7522535,-2.0405027866363525,-1.3497480166009446,-2.54913837114443,5.986097681313314,1.0368911027908325,-3.041726891194479
1708441054.754203,-2.0392580032348633,-1.3499794465354462,-2.549523417149679,5.984604227333822,1.0371395349502563,-3.0421465078936976
1708441054.7562382,-2.0379741191864014,-1.3501961541226883,-2.5498014132129114,5.983196007996359,1.0374001264572144,-3.0425406138049524
1708441054.758222,-2.0367112159729004,-1.3505071562579651,-2.5501745382892054,5.9817038653190515,1.0376815795898438,-3.043009344731466
1708441054.760206,-2.0353269577026367,-1.3507658702186127,-2.5505333582507532,5.980197536736288,1.037909984588623,-3.043541971837179
1708441054.762231,-2.0340423583984375,-1.3511763227036973,-2.5509422461139124,5.978715765267172,1.0382221937179565,-3.0440266768084925
1708441054.764211,-2.03265118598938,-1.3514296126416703,-2.55131704012026,5.977256881981649,1.0385065078735352,-3.0444815794574183
1708441054.7662117,-2.031313896179199,-1.351740376358368,-2.5517216364489954,5.975732433586874,1.0388641357421875,-3.044934336339132
1708441054.7681935,-2.0299909114837646,-1.3520347338965912,-2.552134100590841,5.97424470165328,1.0391886234283447,-3.0454798380481165
1708441054.7702034,-2.028674840927124,-1.3523170214942475,-2.5524984041797083,5.972806679993429,1.0394564867019653,-3.0459888617144983
1708441054.7723064,-2.0273289680480957,-1.352681742315628,-2.552915159855978,5.971360552101888,1.0397406816482544,-3.0464194456683558
1708441054.7742972,-2.026063919067383,-1.3529360902360459,-2.553265158330099,5.969975220948019,1.0400750637054443,-3.046927038823263
1708441054.7763028,-2.0247058868408203,-1.3532840770534058,-2.5537102858172815,5.968469011574545,1.0403298139572144,-3.0474422613727015
1708441054.7782807,-2.0233280658721924,-1.3535742920688172,-2.554089371358053,5.967012750893392,1.0406711101531982,-3.047981564198629
1708441054.7803066,-2.0218701362609863,-1.3539327395013352,-2.5545132795916956,5.9655871269996545,1.0409506559371948,-3.0485015551196497
1708441054.7822955,-2.0205271244049072,-1.3542719048312684,-2.554936234151022,5.964143383293905,1.041304588317871,-3.049032513295309
1708441054.7843022,-2.019153356552124,-1.3546353441527863,-2.55540115038027,5.962572681694784,1.0416619777679443,-3.0495484511004847
1708441054.7862265,-2.017695426940918,-1.3549819153598328,-2.555828634892599,5.961159932404318,1.0420349836349487,-3.0501325766192835
1708441054.788274,-2.0162971019744873,-1.3553124827197571,-2.5563092867480677,5.959718572884359,1.0423465967178345,-3.0506227652179163
1708441054.7902186,-2.014883518218994,-1.3556471926024933,-2.5567577520953577,5.958225476532736,1.04264235496521,-3.051155392323629
1708441054.792231,-2.0135064125061035,-1.3559670162251969,-2.557229820881979,5.956798302918234,1.0429961681365967,-3.0517361799823206
1708441054.7942424,-2.012115240097046,-1.3563006085208436,-2.557664934788839,5.955281960755148,1.043287754058838,-3.0522833506213587
1708441054.7962427,-2.0106923580169678,-1.3566383582404633,-2.5581327120410364,5.9537930367286584,1.0436534881591797,-3.0528550783740442
1708441054.7982218,-2.0091733932495117,-1.3570595395616074,-2.558615748082296,5.952264296799459,1.0440349578857422,-3.0533974806415003
1708441054.8002272,-2.0077695846557617,-1.3574703347733994,-2.5591090361224573,5.950771558075704,1.0444679260253906,-3.053981129323141
1708441054.8022323,-2.0063319206237793,-1.3578085911324997,-2.5595999399768274,5.949263083725729,1.0448600053787231,-3.0545809904681605
1708441054.8042104,-2.0049021244049072,-1.3581389051726838,-2.5601077715503138,5.947793471604147,1.0452286005020142,-3.055220429097311
1708441054.8062265,-2.0034520626068115,-1.358516813521721,-2.5605955759631556,5.946254956513204,1.0455325841903687,-3.0558717886554163
1708441054.808226,-2.0019772052764893,-1.3589087289622803,-2.561070982609884,5.944739448815145,1.0458813905715942,-3.05652362505068
1708441054.8102417,-2.00055193901062,-1.359291137461998,-2.5616019407855433,5.94332634189681,1.0462911128997803,-3.0571542421924036
1708441054.8121853,-1.999050259590149,-1.3596573633006592,-2.5620883146869105,5.941829311638632,1.0466759204864502,-3.0578458944903772
1708441054.8142226,-1.9976179599761963,-1.3600713175586243,-2.562658135090963,5.940359222679891,1.047088861465454,-3.0584967772113245
1708441054.8162172,-1.9960546493530273,-1.3604344141534348,-2.563148562108175,5.9388418076331995,1.0475096702575684,-3.059160296116964
1708441054.8182151,-1.9945155382156372,-1.3608365964940567,-2.563770596181051,5.937351691513815,1.0479545593261719,-3.0597389380084437
1708441054.8202016,-1.9929862022399902,-1.3612599086812516,-2.5642851034747522,5.935761797219076,1.0484079122543335,-3.060383383427755
1708441054.8222165,-1.991423487663269,-1.3616741311601182,-2.564878288899557,5.934279429703512,1.0488691329956055,-3.061047379170553
1708441054.8242047,-1.9898943901062012,-1.3620986652425309,-2.565392796193258,5.932766544609823,1.049285650253296,-3.0616663138019007
1708441054.8261943,-1.9883463382720947,-1.3625035297921677,-2.5659964720355433,5.931252705841818,1.0497424602508545,-3.0623720327960413
1708441054.8283315,-1.9867960214614868,-1.3629265439561387,-2.5665410200702112,5.929707038193502,1.0501753091812134,-3.063031021748678
1708441054.8302147,-1.9852375984191895,-1.3633299183896561,-2.567124668751852,5.9282041666801355,1.050600290298462,-3.063690249119894
1708441054.8322055,-1.983634352684021,-1.3638292414001008,-2.56771690050234,5.92662929275588,1.0510574579238892,-3.0643563906299036
1708441054.834213,-1.9820117950439453,-1.3642104876092453,-2.5683653990374964,5.925089823990621,1.0514529943466187,-3.0649643580066126
1708441054.8362179,-1.980448603630066,-1.3647259336761017,-2.5689736048327845,5.923408376961508,1.0519428253173828,-3.0656779448138636
1708441054.8382263,-1.9787830114364624,-1.3652060639909287,-2.569573465977804,5.921892154007711,1.0523353815078735,-3.066382710133688
1708441054.840221,-1.9771647453308105,-1.3655851495317002,-2.5702090899096888,5.920340764313497,1.0528056621551514,-3.0672064463244837
1708441054.8422136,-1.9755687713623047,-1.3660485309413453,-2.5707793871508997,5.91892300823287,1.0532461404800415,-3.067874256764547
1708441054.8442059,-1.9739965200424194,-1.3664462876370926,-2.5714696089373987,5.917360174446859,1.0536060333251953,-3.0685744921313685
1708441054.8462062,-1.9723632335662842,-1.3669320207885285,-2.5721128622638147,5.91579960563735,1.054071068763733,-3.069333616887228
1708441054.8482208,-1.9707106351852417,-1.3673596692136307,-2.5727160612689417,5.9142353413398645,1.05449640750885,-3.0700154940234583
1708441054.850231,-1.9689860343933105,-1.3678334069303055,-2.573372189198629,5.912605035095968,1.0550577640533447,-3.0707767645465296
1708441054.8522077,-1.9672728776931763,-1.3683296304992218,-2.574075762425558,5.911029803543844,1.0556232929229736,-3.0715606848346155
1708441054.854198,-1.965639352798462,-1.3688065570643921,-2.574712578450338,5.909452545433798,1.0561392307281494,-3.072277847920553
1708441054.856251,-1.9639142751693726,-1.369354636674263,-2.5754080454455774,5.90791534164504,1.056701898574829,-3.0731142202960413
1708441054.858207,-1.9622509479522705,-1.3697423052838822,-2.5760679880725306,5.906299936562338,1.0572270154953003,-3.0737991968738
1708441054.8602018,-1.9605419635772705,-1.3702414345792313,-2.5767844359027308,5.904802429467001,1.0577226877212524,-3.074636761342184
1708441054.862193,-1.9587799310684204,-1.37072146058593,-2.577416006718771,5.9031996605689905,1.058211326599121,-3.0754078070269983
1708441054.8641925,-1.9570614099502563,-1.3712199342301865,-2.578160587941305,5.901484000473776,1.058773159980774,-3.0761991182910364
1708441054.8662117,-1.9552433490753174,-1.3717385542443772,-2.578888003026144,5.899869668274679,1.059347152709961,-3.0770259539233606
1708441054.8681996,-1.9534852504730225,-1.3721696895411988,-2.5796170870410364,5.898223387985983,1.0599316358566284,-3.0778446833239954
1708441054.870198,-1.9516969919204712,-1.3727016013911744,-2.5803313891040247,5.896580326348104,1.0604733228683472,-3.078654114400045
1708441054.872287,-1.949864149093628,-1.373325915341713,-2.581095043812887,5.8949471590812585,1.0609395503997803,-3.0795448462115687
1708441054.8743372,-1.9480472803115845,-1.373814882045128,-2.5817912260638636,5.893226492195883,1.0614818334579468,-3.0803261438952845
1708441054.8762784,-1.9463136196136475,-1.374267504816391,-2.582559410725729,5.891627537995138,1.062036156654358,-3.0811808745013636
1708441054.8782117,-1.9444446563720703,-1.3748004001430054,-2.5832725206958216,5.8899797079856775,1.062544584274292,-3.0820727984057825
1708441054.8802056,-1.9426528215408325,-1.375334696178772,-2.584003988896505,5.88844250419692,1.0630817413330078,-3.082851235066549
1708441054.8822172,-1.9409048557281494,-1.3758335423520585,-2.584763828908102,5.886799442559042,1.0636181831359863,-3.083735767995016
1708441054.8842657,-1.9390937089920044,-1.3763950628093262,-2.585555378590719,5.885207164078512,1.0641520023345947,-3.084529463444845
1708441054.886275,-1.937278389930725,-1.376835123901703,-2.586310688649313,5.883506285935201,1.0647376775741577,-3.0854371229754847
1708441054.8882399,-1.9354592561721802,-1.3773919653943558,-2.5870400110827845,5.881852137833395,1.065177321434021,-3.0862396399127405
1708441054.890247,-1.9336148500442505,-1.3778980833343049,-2.5878644625293177,5.880186426430502,1.0658032894134521,-3.0872202555285853
1708441054.892223,-1.931767463684082,-1.3784908962300797,-2.5886266867267054,5.8784817335899255,1.0663079023361206,-3.08806020418276
1708441054.8942053,-1.929969072341919,-1.3790522527745743,-2.589487377797262,5.876822936325826,1.0669091939926147,-3.088947598134176
1708441054.8962445,-1.928077220916748,-1.3795853120139618,-2.590278212224142,5.875146376877584,1.067453145980835,-3.089895311986105
1708441054.8982358,-1.9263323545455933,-1.3800695103457947,-2.5909844080554407,5.873456942826071,1.0680750608444214,-3.090867344533102
1708441054.900217,-1.9244718551635742,-1.3806385409883042,-2.5917492548571985,5.871817457466879,1.068534016609192,-3.0917285124408167
1708441054.902333,-1.9226750135421753,-1.3811568182757874,-2.592513624821798,5.870166766434469,1.0690534114837646,-3.0926149527179163
1708441054.9042182,-1.9208152294158936,-1.3816955548575898,-2.593344751988546,5.868525254517355,1.0696306228637695,-3.09349495569338
1708441054.906217,-1.918965220451355,-1.3822346192649384,-2.594149176274435,5.866839277535238,1.0702106952667236,-3.094323460255758
1708441054.9082,-1.9170870780944824,-1.3828227531960984,-2.594930950795309,5.865063893585958,1.0708616971969604,-3.0952959696399134
1708441054.910222,-1.9151443243026733,-1.3834478122046967,-2.595693651829855,5.863302457123556,1.0714647769927979,-3.0961864630328577
1708441054.912256,-1.9132388830184937,-1.3840175133994599,-2.5965121428119105,5.861585128098287,1.0720912218093872,-3.097110096608297
1708441054.9142237,-1.9113472700119019,-1.3845104736140748,-2.5973878542529505,5.859860288887777,1.072695016860962,-3.0979819933520716
1708441054.9162383,-1.909481406211853,-1.3850662273219605,-2.5981631914721888,5.858254897385397,1.0732749700546265,-3.0988734404193323
1708441054.9182212,-1.9075614213943481,-1.3855886918357392,-2.5989893118487757,5.856582391052999,1.0737862586975098,-3.0997934977160853
1708441054.92021,-1.9056477546691895,-1.3862577837756653,-2.599747959767477,5.854836928635397,1.074273943901062,-3.100719753895895
1708441054.9222314,-1.9037526845932007,-1.3867582243731995,-2.60054594675173,5.853160726815023,1.0747663974761963,-3.101632897053854
1708441054.9242105,-1.9018290042877197,-1.387412430053093,-2.601405207310812,5.8513915417488,1.0752959251403809,-3.1025832335101526
1708441054.9262292,-1.8998173475265503,-1.3878917706063767,-2.6021955649005335,5.849734890251913,1.075881004333496,-3.1034653822528284
1708441054.9282136,-1.897844910621643,-1.3885530841401597,-2.6030705610858362,5.847928154259481,1.0764334201812744,-3.104412619267599
1708441054.930221,-1.8958529233932495,-1.3891121608069916,-2.6038764158831995,5.846190917282858,1.0769778490066528,-3.105359141026632
1708441054.9322312,-1.8939062356948853,-1.3896999818137665,-2.604684654866354,5.844532835274496,1.077506184577942,-3.106295887623922
1708441054.934224,-1.8919709920883179,-1.390250877743103,-2.605511252080099,5.84285722950057,1.0780467987060547,-3.10718542734255
1708441054.93623,-1.8900426626205444,-1.3908794981292267,-2.6063395182238978,5.841181385308065,1.0785998106002808,-3.1081205050097864
1708441054.9382179,-1.8880231380462646,-1.3913754981807251,-2.607105080281393,5.83945249298171,1.07909095287323,-3.1090825239764612
1708441054.9402378,-1.8860517740249634,-1.3919802618077775,-2.6079517046557825,5.837746727257528,1.079671859741211,-3.1100028196917933
1708441054.9422808,-1.8840055465698242,-1.3925533902696152,-2.6088112036334437,5.835975515633383,1.0802645683288574,-3.1109283606158655
1708441054.9442139,-1.8819936513900757,-1.393079937701561,-2.6096749941455286,5.834137546807089,1.0808581113815308,-3.1119077841388147
1708441054.946202,-1.8800104856491089,-1.3936389696649094,-2.610471789036886,5.832316267281332,1.0814136266708374,-3.11292273203005
1708441054.9482434,-1.8779995441436768,-1.3942541939071198,-2.6113393942462366,5.830514061241903,1.0819138288497925,-3.1137869993792933
1708441054.950223,-1.8760457038879395,-1.3948499870351334,-2.6121609846698206,5.828821646958151,1.0824542045593262,-3.1147716681109827
1708441054.9522123,-1.8741365671157837,-1.3953356903842469,-2.61302096048464,5.827000844269552,1.0829778909683228,-3.1157425085650843
1708441054.95421,-1.8721116781234741,-1.3959515553763886,-2.6137619654284876,5.825263488083639,1.0835034847259521,-3.11676270166506
1708441054.9562016,-1.870104193687439,-1.3965337586453934,-2.6146698633777063,5.823502051621237,1.0839787721633911,-3.1176627318011683
1708441054.9582102,-1.8680380582809448,-1.397145853643753,-2.61558181444277,5.821767556458273,1.0845489501953125,-3.1187639872180384
1708441054.960199,-1.866002082824707,-1.3977077317288895,-2.6163628737079065,5.819845425873556,1.0850938558578491,-3.119950596486227
1708441054.9622016,-1.8639252185821533,-1.3982947182706376,-2.6172495524035853,5.81810890415267,1.0856853723526,-3.1208837668048304
1708441054.9642353,-1.8619165420532227,-1.398835690026619,-2.6180768648730677,5.816340553551473,1.0862330198287964,-3.121866051350729
1708441054.966202,-1.8598383665084839,-1.399447650914528,-2.6189149061786097,5.814482319145956,1.0867375135421753,-3.1228743235217493
1708441054.9682,-1.857843279838562,-1.400047780280449,-2.6197479406939905,5.8127386448676965,1.0872617959976196,-3.1239314715014856
1708441054.970214,-1.8558027744293213,-1.4006283593228837,-2.6205833593951624,5.811013328820028,1.0877662897109985,-3.1248279253589075
1708441054.972222,-1.8538289070129395,-1.4012644600919266,-2.6214547793017786,5.809275018959799,1.0882313251495361,-3.1257410685168665
1708441054.9742987,-1.8517720699310303,-1.4018187087825318,-2.622289005910055,5.807463037758627,1.0887110233306885,-3.126763407384054
1708441054.9762864,-1.8496850728988647,-1.4024339777282258,-2.6231468359576624,5.805612313538351,1.0892565250396729,-3.127904717122213
1708441054.9783123,-1.8476414680480957,-1.4029912662557145,-2.6240535418139856,5.803732025414266,1.0897451639175415,-3.1287909189807337
1708441054.980324,-1.8456592559814453,-1.4035826933434983,-2.624852959309713,5.80193446853713,1.090196132659912,-3.1296656767474573
1708441054.9823194,-1.8436251878738403,-1.4041509491256257,-2.6257060209857386,5.800018179207601,1.0906760692596436,-3.130656067525045
1708441054.9842947,-1.8415889739990234,-1.4047072392753144,-2.626582447682516,5.798231589585104,1.0911860466003418,-3.131653134022848
1708441054.986207,-1.8395588397979736,-1.4053644698909302,-2.6273956934558313,5.796365368157186,1.0916037559509277,-3.132674519215719
1708441054.9882114,-1.8375118970870972,-1.4059318167022248,-2.6282227675067347,5.79454659202651,1.092063546180725,-3.133616034184591
1708441054.9902089,-1.8355052471160889,-1.4064890158227463,-2.6291361490832728,5.7928435681159876,1.0925809144973755,-3.134609047566549
1708441054.9922237,-1.833478331565857,-1.4071462464383622,-2.6300340334521692,5.79100118854598,1.0930782556533813,-3.13558799425234
1708441054.9942129,-1.8313570022583008,-1.4077317130616684,-2.6308069864856165,5.7890769121940515,1.0935534238815308,-3.1365602652179163
1708441054.996221,-1.8293089866638184,-1.4083236318877717,-2.631702486668722,5.787276971131124,1.0940256118774414,-3.1375184694873255
1708441054.9982338,-1.8272500038146973,-1.4089176964810868,-2.6324854532824915,5.785466778069296,1.0944451093673706,-3.138428513203756
1708441055.0002203,-1.8252174854278564,-1.409492478971817,-2.6333401838885706,5.783734667092123,1.094893455505371,-3.1394296328174036
1708441055.002211,-1.823196291923523,-1.410054237847664,-2.634150807057516,5.781916844635763,1.0953524112701416,-3.1403780619250696
1708441055.0042157,-1.8212037086486816,-1.4106188130429764,-2.635003391896383,5.780181276589193,1.095719337463379,-3.1413353125201624
1708441055.0062513,-1.8191571235656738,-1.4112263780883332,-2.6357479731189173,5.778433072357931,1.0961600542068481,-3.1422966162311
1708441055.0082276,-1.81705904006958,-1.4117508393577118,-2.6365273634540003,5.776659238129415,1.0966047048568726,-3.1433234850512903
1708441055.0102293,-1.815002202987671,-1.412422166471817,-2.6373170057879847,5.774905788689413,1.0970488786697388,-3.144273106251852
1708441055.0122387,-1.8129979372024536,-1.412948564892151,-2.638111416493551,5.772942530899801,1.0974618196487427,-3.1452470461474817
1708441055.0142212,-1.8109443187713623,-1.413553462629654,-2.6389439741717737,5.771206724434652,1.0978540182113647,-3.1461899916278284
1708441055.0162442,-1.8088464736938477,-1.414113701587059,-2.6397348085986536,5.769358742028036,1.0982496738433838,-3.1471529642688196
1708441055.018195,-1.8068394660949707,-1.4146750283292313,-2.6405542532550257,5.767592179566183,1.0986377000808716,-3.148146931325094
1708441055.0202148,-1.8048107624053955,-1.4152829212001343,-2.641304318104879,5.765771496086874,1.0990053415298462,-3.14917236963381
1708441055.0222173,-1.802713394165039,-1.4158041340163727,-2.6420987288104456,5.764023172646322,1.099409818649292,-3.1501458326922815
1708441055.0242383,-1.8007113933563232,-1.4164060366204758,-2.642919127141134,5.762322532921591,1.0998846292495728,-3.15112811723818
1708441055.0262148,-1.7987394332885742,-1.4169974637082596,-2.6436849276172083,5.76057909706191,1.100256323814392,-3.1520775000201624
1708441055.028207,-1.796744465827942,-1.4175182592919846,-2.644451920186178,5.7588350651557825,1.1006165742874146,-3.153073851262228
1708441055.0302055,-1.7947059869766235,-1.4181127709201355,-2.6451993624316614,5.75717710235671,1.1008949279785156,-3.1541226545916956
1708441055.0321982,-1.7926675081253052,-1.4186358165792008,-2.645949188862936,5.755266177445211,1.1011954545974731,-3.1550121943103235
1708441055.034203,-1.7906482219696045,-1.4192048025182267,-2.6467371622668665,5.753526913910665,1.1015479564666748,-3.155907932912008
1708441055.0362282,-1.7886477708816528,-1.4197865736535569,-2.64748722711672,5.751777398377218,1.1019091606140137,-3.156839911137716
1708441055.0382488,-1.7866874933242798,-1.4202933770469208,-2.648238007222311,5.750073540001669,1.1023056507110596,-3.1577680746661585
1708441055.0402145,-1.7847435474395752,-1.4208647173694153,-2.6490169207202356,5.748380887299337,1.1025846004486084,-3.1587160269366663
1708441055.042214,-1.7827540636062622,-1.4213967335275193,-2.649788204823629,5.746670949250021,1.1029094457626343,-3.159569803868429
1708441055.044206,-1.7809090614318848,-1.4219187063029786,-2.6505101362811487,5.744975912361898,1.1031370162963867,-3.160440746937887
1708441055.0462074,-1.778916358947754,-1.4224986892989655,-2.651278320943014,5.74333022811965,1.1033563613891602,-3.1613763014422815
1708441055.0482066,-1.776991367340088,-1.4230480206063767,-2.652020517979757,5.741590606957235,1.1036700010299683,-3.162252966557638
1708441055.0502667,-1.7750123739242554,-1.42353808999572,-2.6528049151050013,5.739873397141256,1.1039941310882568,-3.1631858984576624
1708441055.052198,-1.7730990648269653,-1.4240738165429612,-2.653551165257589,5.7381090996559045,1.1043227910995483,-3.164016071950094
1708441055.05419,-1.7710720300674438,-1.4246412825635453,-2.654273811970846,5.736325132637777,1.1046150922775269,-3.1649954954730433
1708441055.0562088,-1.7691339254379272,-1.4251890492490311,-2.655008379613058,5.734592187195577,1.1048293113708496,-3.1658406893359583
1708441055.0581954,-1.767181634902954,-1.4257280987552186,-2.6557276884662073,5.732874381333151,1.1050708293914795,-3.1667800585376185
1708441055.0601916,-1.7652490139007568,-1.4262315791896363,-2.6564438978778284,5.731313216477194,1.1053065061569214,-3.1675849596606653
1708441055.0622501,-1.7633414268493652,-1.4267542672208329,-2.657203976308004,5.729678618698873,1.1055587530136108,-3.1684892813311976
1708441055.0642061,-1.7614104747772217,-1.4273215395263215,-2.6578739325152796,5.728094804077902,1.1057703495025635,-3.169302050267355
1708441055.0661988,-1.759451150894165,-1.4278513503125687,-2.6585593859301966,5.726392614632406,1.1060502529144287,-3.1701930204974573
1708441055.0681958,-1.7574129104614258,-1.4284729373506089,-2.659351650868551,5.724739062577047,1.1062499284744263,-3.1710482279406946
1708441055.070187,-1.7555056810379028,-1.4289461982301255,-2.6599937121020716,5.723018991738119,1.106494665145874,-3.171915356312887
1708441055.0721962,-1.7535557746887207,-1.4294031423381348,-2.660712782536642,5.721389758377828,1.1067477464675903,-3.172770325337545
1708441055.074308,-1.7517213821411133,-1.429949702029564,-2.6614723841296595,5.719803678780355,1.1069844961166382,-3.1735785643206995
1708441055.0762134,-1.749818205833435,-1.4305021923831482,-2.6620896498309534,5.718264210015096,1.1070992946624756,-3.174403492604391
1708441055.0782082,-1.747908353805542,-1.4310262960246583,-2.6628292242633265,5.716674315720358,1.1072840690612793,-3.175258461629049
1708441055.0802002,-1.7459598779678345,-1.4315342617085953,-2.663476053868429,5.715127098351278,1.1074191331863403,-3.1760931650744837
1708441055.082201,-1.7439950704574585,-1.4320896130851288,-2.6641956011401575,5.713436710625448,1.1075305938720703,-3.1768983046161097
1708441055.0842037,-1.7420543432235718,-1.4325538885644455,-2.6648951212512415,5.7118955729301355,1.1076911687850952,-3.1777504126178187
1708441055.0862467,-1.7401182651519775,-1.433118463759758,-2.6655693689929407,5.710264014988699,1.1078473329544067,-3.178558413182394
1708441055.088239,-1.738186001777649,-1.4335597169450303,-2.6663344542132776,5.708633529930868,1.1080394983291626,-3.1793912092791956
1708441055.0902042,-1.736220359802246,-1.434116707449295,-2.666971270238058,5.706992077618398,1.1081790924072266,-3.180298630391256
1708441055.092238,-1.734323501586914,-1.434582845573761,-2.6675859133349817,5.705436575203695,1.1082866191864014,-3.1811934153186243
1708441055.0942602,-1.732453465461731,-1.4351636183312912,-2.6682687441455286,5.70387493351058,1.1084238290786743,-3.1820040384875696
1708441055.0962703,-1.7304701805114746,-1.4355767232230683,-2.6689375082599085,5.702299284725942,1.108449935913086,-3.1828842798816126
1708441055.0982275,-1.7286099195480347,-1.436157451277115,-2.6696320215808313,5.70079796293334,1.1085788011550903,-3.183750931416647
1708441055.1002376,-1.7266651391983032,-1.4366806757501145,-2.6702500025378626,5.699263083725729,1.1086586713790894,-3.1845036188708704
1708441055.1022542,-1.7247018814086914,-1.4371963006309052,-2.6709585825549524,5.697722065239706,1.1088244915008545,-3.1854050795184534
1708441055.1041915,-1.722782850265503,-1.4376855355552216,-2.6716366449939173,5.696142959385671,1.1089556217193604,-3.186172072087423
1708441055.1062634,-1.720810890197754,-1.438208983545639,-2.672295157109396,5.694589125901022,1.1090517044067383,-3.186988178883688
1708441055.1082098,-1.718888282775879,-1.4387494039586564,-2.6729348341571253,5.693045305996694,1.1091805696487427,-3.187754217778341
1708441055.1102018,-1.7169406414031982,-1.4392481011203309,-2.6736088434802454,5.691486882954397,1.1091947555541992,-3.1885369459735315
1708441055.1121974,-1.7150851488113403,-1.439694495206215,-2.6742921511279505,5.689980673580923,1.1091861724853516,-3.189282480870382
1708441055.1141996,-1.713139295578003,-1.4402712148479004,-2.674893919621603,5.688464689045706,1.1092746257781982,-3.190061394368307
1708441055.1162312,-1.7112324237823486,-1.44083587945018,-2.6755662600146692,5.686994004040518,1.1094087362289429,-3.190744940434591
1708441055.118192,-1.7093085050582886,-1.4413194221309205,-2.676245991383688,5.685465264111318,1.1094000339508057,-3.191620175038473
1708441055.1201892,-1.707340955734253,-1.441776694064476,-2.676904026662008,5.683927464276113,1.1094554662704468,-3.1923802534686487
1708441055.1222386,-1.7053589820861816,-1.4422785949758072,-2.6776402632342737,5.682432937413015,1.1094884872436523,-3.1931634585009974
1708441055.1242073,-1.7034094333648682,-1.442798839216568,-2.6782413164721888,5.68084995725707,1.1094712018966675,-3.1938775221454065
1708441055.126233,-1.7015122175216675,-1.4433682423881073,-2.678929392491476,5.67944889047698,1.1094862222671509,-3.1946080366717737
1708441055.128202,-1.6995903253555298,-1.4438835394433518,-2.679547373448507,5.67800925949172,1.1094906330108643,-3.195362154637472
1708441055.130211,-1.697611927986145,-1.444328786139824,-2.6802688280688685,5.67647002914504,1.1094467639923096,-3.1961103121386927
1708441055.1322513,-1.695724368095398,-1.44482013702903,-2.6808953920947474,5.675031173020162,1.1093577146530151,-3.19685942331423
1708441055.1342437,-1.6938029527664185,-1.4453082096627732,-2.6815343538867396,5.673531996994772,1.1092842817306519,-3.197646443043844
1708441055.1362498,-1.6919084787368774,-1.4458447334221383,-2.6822038332568567,5.672150718956747,1.1092822551727295,-3.198385779057638
1708441055.138204,-1.6900769472122192,-1.4463973057321091,-2.682814661656515,5.670656788140096,1.1092252731323242,-3.199089829121725
1708441055.1402047,-1.6881930828094482,-1.446849712436535,-2.6835106054889124,5.669325876026907,1.1091818809509277,-3.1997879187213343
1708441055.1422298,-1.6862995624542236,-1.4473377850702782,-2.684173885975973,5.667883562832632,1.109129548072815,-3.2005303541766565
1708441055.144229,-1.6844193935394287,-1.4478491705707093,-2.6847711245166224,5.666450547962942,1.109093189239502,-3.2012255827533167
1708441055.1462362,-1.6825013160705566,-1.448382483129837,-2.6854432264911097,5.665071475296774,1.109045386314392,-3.202010456715719
1708441055.1482022,-1.6806098222732544,-1.4488273945501824,-2.6860888640033167,5.663683402329244,1.1089731454849243,-3.202702585850851
1708441055.150598,-1.6786973476409912,-1.4493068617633362,-2.686683241521017,5.6623185751731775,1.1089457273483276,-3.203413788472311
1708441055.1522226,-1.6767805814743042,-1.4498193648508568,-2.687376085911886,5.660945224552908,1.1088576316833496,-3.204124991093771
1708441055.154197,-1.6749588251113892,-1.4503283661654969,-2.687909189854757,5.659613895207205,1.1087689399719238,-3.2047985235797327
1708441055.1562028,-1.6730265617370605,-1.4508043092540284,-2.6885605494128626,5.658262538700857,1.1087089776992798,-3.2054734865771692
1708441055.158204,-1.671147346496582,-1.451312245135643,-2.6892812887774866,5.656969892769613,1.1086444854736328,-3.2062204519854944
1708441055.160194,-1.6692174673080444,-1.4517629531076928,-2.6898399035083216,5.6556299207504175,1.108593463897705,-3.2068913618670862
1708441055.162222,-1.6673449277877808,-1.452247255747654,-2.6904545466052454,5.654332387238302,1.1085036993026733,-3.2075236479388636
1708441055.1641881,-1.6654244661331177,-1.4527794432691117,-2.6910691897021692,5.6530513046081445,1.1083673238754272,-3.2081993261920374
1708441055.1662323,-1.6635186672210693,-1.4533105430058022,-2.6917739550219935,5.651666927128591,1.1082830429077148,-3.2088914553271692
1708441055.1682246,-1.6616302728652954,-1.45378731310878,-2.6923022905932825,5.650383460312643,1.1081312894821167,-3.2095819155322474
1708441055.1702359,-1.6597247123718262,-1.454272874896862,-2.6930118242846888,5.649168240814962,1.1080355644226074,-3.2102161089526575
1708441055.1722229,-1.6578426361083984,-1.4547933426550408,-2.6936336199389856,5.647874223976888,1.1078944206237793,-3.210874382649557
1708441055.1743073,-1.6559339761734009,-1.4552848127535363,-2.694281880055563,5.646592783718862,1.1077057123184204,-3.211602751408712
1708441055.176288,-1.6539627313613892,-1.4558356565288086,-2.6948798338519495,5.64525859335021,1.1076029539108276,-3.21228796640505
1708441055.1782959,-1.6520955562591553,-1.4563429442099114,-2.6955576578723353,5.643940377026357,1.1074674129486084,-3.21296197572817
1708441055.180309,-1.6501474380493164,-1.4567561534098168,-2.696085755025045,5.6426617977912805,1.1072744131088257,-3.213639799748556
1708441055.1823096,-1.6482211351394653,-1.4572696548751374,-2.69670540491213,5.64140950420455,1.1071300506591797,-3.2142542044269007
1708441055.184298,-1.646377682685852,-1.4577841472676774,-2.6973114649402063,5.640126812248983,1.1069738864898682,-3.214914147053854
1708441055.1862304,-1.6444686651229858,-1.4582260263017197,-2.6978872458087366,5.63889895656661,1.1067981719970703,-3.2155280748950403
1708441055.1882677,-1.6425442695617676,-1.4587368232062836,-2.6984978357898157,5.637665438442983,1.1065884828567505,-3.216208044682638
1708441055.1902924,-1.6406186819076538,-1.4592372861555596,-2.6991880575763147,5.636421966343679,1.1064618825912476,-3.216806236897604
1708441055.1923466,-1.6386768817901611,-1.4597721558860322,-2.699716393147604,5.635203945427694,1.1062045097351074,-3.2174771467791956
1708441055.194301,-1.6367735862731934,-1.4602872741273423,-2.700404946004049,5.634005594044485,1.1060155630111694,-3.218092981969015
1708441055.1962516,-1.634845495223999,-1.4608071905425568,-2.7010367552386683,5.632766115456381,1.1058276891708374,-3.2186248938189905
1708441055.1982398,-1.6328885555267334,-1.4612810772708436,-2.7016642729388636,5.631451952248373,1.105636715888977,-3.219278637562887
1708441055.2002347,-1.6309844255447388,-1.4618261244944115,-2.7022553125964563,5.630308675556936,1.1054322719573975,-3.21985108057131
1708441055.2022247,-1.6290644407272339,-1.4622757595828553,-2.702874485646383,5.629090833454885,1.1052075624465942,-3.220377270375387
1708441055.2042434,-1.6272456645965576,-1.4628557872823258,-2.7034972349749964,5.627962875157156,1.1049838066101074,-3.220996920262472
1708441055.2062106,-1.6252834796905518,-1.463358999495842,-2.70406681696047,5.626776385098257,1.1048165559768677,-3.221621815358297
1708441055.2082624,-1.6234204769134521,-1.4638575103930016,-2.7047558466540735,5.625571834831991,1.1045557260513306,-3.222174946461813
1708441055.2102027,-1.6214473247528076,-1.4644225102714081,-2.705402199422018,5.624491321831503,1.1043306589126587,-3.2227945963488978
1708441055.2121935,-1.6195482015609741,-1.464933195417263,-2.7060173193561,5.623289394169607,1.1041558980941772,-3.2233246008502405
1708441055.2142053,-1.6175916194915771,-1.4654680502465744,-2.706632677708761,5.622168886452474,1.1038621664047241,-3.2238996664630335
1708441055.2162097,-1.6156198978424072,-1.4659716796926041,-2.7072466055499476,5.621085393219747,1.103633999824524,-3.2244795004474085
1708441055.2182055,-1.6137129068374634,-1.4664403212121506,-2.7078776995288294,5.619854438095846,1.1033494472503662,-3.224968496953146
1708441055.2202163,-1.6118019819259644,-1.4669696253589173,-2.7085216681109827,5.618796276837148,1.1030479669570923,-3.225574318562643
1708441055.2221868,-1.6098178625106812,-1.4674352642944832,-2.709123675023214,5.617728698044576,1.1027923822402954,-3.2260709444629114
1708441055.224267,-1.607967734336853,-1.4679792013815423,-2.70975906053652,5.616635191231527,1.1026252508163452,-3.2266679445849817
1708441055.2262075,-1.605992317199707,-1.468510964219906,-2.7104411760913294,5.615523564606466,1.1023194789886475,-3.22722298303713
1708441055.2282474,-1.6039854288101196,-1.4690216866186638,-2.711026732121603,5.614307629853048,1.1020967960357666,-3.2277823130237024
1708441055.2302134,-1.6020435094833374,-1.469579280619957,-2.711653534566061,5.613249468594351,1.1018643379211426,-3.228280846272604
1708441055.2322056,-1.6001005172729492,-1.4700317245772858,-2.7123246828662317,5.612089144974508,1.1015551090240479,-3.2288365999804896
1708441055.2342176,-1.5982153415679932,-1.47061841309581,-2.712968174611227,5.611021148949423,1.10129976272583,-3.22937256494631
1708441055.2362163,-1.5963302850723267,-1.471120686536171,-2.713627640401022,5.610021042614736,1.101047396659851,-3.2299118677722376
1708441055.2382379,-1.5943894386291504,-1.471645289366581,-2.714278523121969,5.608887541085043,1.100705862045288,-3.2304204146014612
1708441055.2402568,-1.5924441814422607,-1.4721113604358216,-2.7149255911456507,5.6079221842582605,1.1004505157470703,-3.230872933064596
1708441055.2422402,-1.5905470848083496,-1.472663478260376,-2.715569082890646,5.606850850373068,1.1001498699188232,-3.231419626866476
1708441055.2442033,-1.5886081457138062,-1.4731551495245476,-2.7161901632892054,5.605891752033987,1.099784255027771,-3.2318738142596644
1708441055.2462084,-1.586656093597412,-1.4736699920943757,-2.716874424611227,5.604865240841665,1.0995745658874512,-3.2323601881610315
1708441055.2482069,-1.5847289562225342,-1.4741887313178559,-2.7174111048327845,5.603839325695791,1.0992374420166016,-3.232880179082052
1708441055.2502444,-1.5827765464782715,-1.4747509446791192,-2.7181156317340296,5.602758037834921,1.0989937782287598,-3.233347479497091
1708441055.2522562,-1.580828309059143,-1.4752194371870537,-2.7186761538134974,5.601787912636556,1.098738431930542,-3.2338219324695032
1708441055.2541916,-1.5789324045181274,-1.4757212486914177,-2.7193153540240687,5.600786793022909,1.0983966588974,-3.2342687288867396
1708441055.2561972,-1.576996088027954,-1.476233721976616,-2.719950262700216,5.599840807705679,1.098137617111206,-3.2347617785083216
1708441055.2582388,-1.5750962495803833,-1.4767236572555085,-2.720569435750143,5.598889696388998,1.0977997779846191,-3.235178057347433
1708441055.2601988,-1.5731596946716309,-1.4772224363735695,-2.7211597601519983,5.597903418331899,1.0975615978240967,-3.235724751149313
1708441055.2621992,-1.5712640285491943,-1.4777260658195992,-2.7217639128314417,5.596978652268209,1.0972684621810913,-3.236126724873678
1708441055.2642255,-1.5694031715393066,-1.4782921534827729,-2.7223900000201624,5.596016812115469,1.0969524383544922,-3.23661452928652
1708441055.2662017,-1.567535400390625,-1.4788075771978875,-2.72303277650942,5.595060097962179,1.0966436862945557,-3.23700982729067
1708441055.2681854,-1.5655823945999146,-1.4793465745500107,-2.7236884276019495,5.594241666584768,1.0964118242263794,-3.2374656836139124
1708441055.2701886,-1.563712477684021,-1.4798317191055794,-2.7242992560016077,5.593323397427358,1.0961151123046875,-3.237889353428976
1708441055.2721844,-1.5618141889572144,-1.4803847533515473,-2.724949900303976,5.592385458737173,1.095826268196106,-3.2382589022265833
1708441055.2742739,-1.559946894645691,-1.4808463615230103,-2.725544039403097,5.591545092850485,1.0955058336257935,-3.2386415640460413
1708441055.2763195,-1.558072805404663,-1.48137533039365,-2.7261059919940394,5.590668666153707,1.0952061414718628,-3.239082161580221
1708441055.2782447,-1.5562047958374023,-1.4818872150829812,-2.7267420927630823,5.589787232666769,1.0948991775512695,-3.2394772211657923
1708441055.2802186,-1.5543614625930786,-1.4823812779835244,-2.727332417164938,5.5889471648033044,1.094496726989746,-3.2398844400988978
1708441055.282227,-1.5524719953536987,-1.482884832923748,-2.72791034380068,5.588059055596151,1.094294786453247,-3.2402878443347376
1708441055.284237,-1.5506128072738647,-1.483391412799694,-2.72857910791506,5.5871949074561975,1.094014286994934,-3.2406771818744105
1708441055.2862413,-1.5487749576568604,-1.4839318332127114,-2.729201618825094,5.586297857552328,1.09371018409729,-3.241014067326681
1708441055.2882998,-1.5468707084655762,-1.484433801179268,-2.729746405278341,5.58541094043807,1.0934010744094849,-3.241415564213888
1708441055.2902193,-1.5450159311294556,-1.4850091573647042,-2.7304070631610315,5.584586727410116,1.093140959739685,-3.2417407671557825
1708441055.2922356,-1.543216586112976,-1.485452653174736,-2.731013600026266,5.583767461567678,1.0928330421447754,-3.24217397371401
1708441055.2942207,-1.5413353443145752,-1.48600538939748,-2.731556240712301,5.582895326405325,1.0924679040908813,-3.2425645033465784
1708441055.2962496,-1.5395325422286987,-1.4864714604667206,-2.732126299534933,5.582168030529775,1.0921717882156372,-3.242870632802145
1708441055.2982218,-1.5376701354980469,-1.4869885084084054,-2.7327347437488,5.58132957199172,1.0918478965759277,-3.2432432810412806
1708441055.3002124,-1.535866618156433,-1.4875274536064644,-2.7333126703845423,5.5804598210151575,1.091551423072815,-3.2436118761645716
1708441055.3023062,-1.534045934677124,-1.488043339257576,-2.733903471623556,5.579711484700002,1.091270923614502,-3.243887249623434
1708441055.3042033,-1.5321959257125854,-1.4885287892869492,-2.7345543543445032,5.5789427039916895,1.09104323387146,-3.244220558797018
1708441055.3062353,-1.5303409099578857,-1.4890412253192444,-2.7351132074939173,5.578176724701681,1.0907539129257202,-3.2445650736438196
1708441055.3082178,-1.528611421585083,-1.48955291629348,-2.7357402483569544,5.577387022763052,1.0904542207717896,-3.2448981443988245
1708441055.310197,-1.526801586151123,-1.490031198864319,-2.736351553593771,5.576601612358846,1.0902103185653687,-3.245242420827047
1708441055.3122375,-1.5250335931777954,-1.4905760002187272,-2.736918036137716,5.575956630497732,1.0899057388305664,-3.2454503218280237
1708441055.3142328,-1.523226261138916,-1.4911415737918396,-2.7374873797046106,5.575254905014791,1.0896337032318115,-3.2457638422595423
1708441055.316219,-1.5213841199874878,-1.4915651243976136,-2.7380991617785853,5.574541675835409,1.0892921686172485,-3.246014181767599
1708441055.3182218,-1.5195823907852173,-1.492120699291565,-2.7386534849749964,5.573783385544576,1.0889918804168701,-3.2463298479663294
1708441055.3201969,-1.5177139043807983,-1.4926497277668496,-2.7392733732806605,5.573017048626699,1.0886424779891968,-3.2465696970569056
1708441055.3222044,-1.5159105062484741,-1.4931474191001435,-2.7398229281054896,5.572256970196523,1.088421106338501,-3.2468987146960657
1708441055.3242013,-1.5141563415527344,-1.4936235335520287,-2.7405203024493616,5.571554648667135,1.0881311893463135,-3.2470548788653772
1708441055.3262072,-1.51231849193573,-1.4941493657282372,-2.7410855929004114,5.570946323662557,1.0878148078918457,-3.247320000325338
1708441055.3282135,-1.51055908203125,-1.4946377736381073,-2.7416203657733362,5.570243882923879,1.0875396728515625,-3.2475748697863978
1708441055.3301914,-1.5087649822235107,-1.4951771733215828,-2.742197577153341,5.569518315583029,1.08719801902771,-3.247831169758932
1708441055.33221,-1.5069948434829712,-1.495677502160408,-2.7428091208087366,5.568856882839956,1.0869346857070923,-3.248042170201437
1708441055.334272,-1.505269169807434,-1.4961074751666565,-2.743396822606222,5.568234908371725,1.0865932703018188,-3.248302761708395
1708441055.3362541,-1.5035390853881836,-1.4966390591910859,-2.7439666430102747,5.567614722042837,1.086325764656067,-3.24854284921755
1708441055.3382218,-1.5018072128295898,-1.4971489247730752,-2.744556728993551,5.56695585229949,1.0860296487808228,-3.2487946192370813
1708441055.34021,-1.5000479221343994,-1.497611404662468,-2.7450948397265833,5.566297042160787,1.085741400718689,-3.248984400426046
1708441055.3422425,-1.498273491859436,-1.4981102359345932,-2.745734755192892,5.565726625710287,1.0855306386947632,-3.249220911656515
1708441055.344205,-1.4964772462844849,-1.498590776031353,-2.7463179270373743,5.565023410111227,1.0852785110473633,-3.249434296284811
1708441055.3462393,-1.4947423934936523,-1.4990473550609131,-2.7469409147845667,5.564454304962911,1.0849640369415283,-3.2496004740344446
1708441055.3482118,-1.4930424690246582,-1.4996046286872406,-2.7474430243121546,5.5638165948684595,1.084720492362976,-3.2497757116900843
1708441055.350225,-1.491239309310913,-1.5001347598484536,-2.7480292955981653,5.563270258694448,1.084441065788269,-3.249950949345724
1708441055.3522108,-1.4894949197769165,-1.500578099196293,-2.7485836187945765,5.562651145249166,1.0841724872589111,-3.250113550816671
1708441055.3541932,-1.487763524055481,-1.5010704857162018,-2.7491584459887903,5.562063860684194,1.0838382244110107,-3.250315014516012
1708441055.356252,-1.4859708547592163,-1.501631812458374,-2.7497862021075647,5.5614938018615625,1.083640694618225,-3.250491205845968
1708441055.3582163,-1.484187126159668,-1.5021326330355187,-2.7502711454974573,5.560906696110525,1.0833872556686401,-3.2506054083453577
1708441055.3602107,-1.4824845790863037,-1.5026665937951584,-2.7509318033801478,5.5603282926376245,1.0831321477890015,-3.250802818928854
1708441055.3621993,-1.4807363748550415,-1.5032120657018204,-2.7514784971820276,5.55979340055541,1.0829038619995117,-3.2509213129626673
1708441055.3642123,-1.47906494140625,-1.503652685587742,-2.7520328203784388,5.559120166092672,1.0826603174209595,-3.2511053721057337
1708441055.3662002,-1.4772495031356812,-1.5041614559343834,-2.7525880972491663,5.5585548160369775,1.0824036598205566,-3.251162592564718
1708441055.3682044,-1.475530743598938,-1.5046423089555283,-2.753221098576681,5.558038759022512,1.0821197032928467,-3.251348320637838
1708441055.370194,-1.4737681150436401,-1.5051503863981743,-2.7537129561053675,5.557340788632192,1.0818346738815308,-3.251472298298971
1708441055.372205,-1.4720417261123657,-1.5056800705245514,-2.754385534917013,5.556872713356771,1.0815937519073486,-3.2516029516803187
1708441055.3742073,-1.4702327251434326,-1.5061676514199753,-2.754956070576803,5.556293654232778,1.081419825553894,-3.251664702092306
1708441055.3762877,-1.4685508012771606,-1.5067299467376252,-2.755552355443136,5.555807101517477,1.0811426639556885,-3.251843039189474
1708441055.3782775,-1.4667198657989502,-1.507211187188961,-2.756122652684347,5.555293309479513,1.0808978080749512,-3.2520116011248987
1708441055.3803136,-1.4650216102600098,-1.5077686098269005,-2.756659809743063,5.554830598622122,1.0806010961532593,-3.2521031538592737
1708441055.3823345,-1.4632407426834106,-1.5082327660969277,-2.7572150866137903,5.554220902710714,1.0803979635238647,-3.252218786870138
1708441055.3843172,-1.4615565538406372,-1.5087452133050938,-2.7577946821795862,5.553784358292379,1.080133318901062,-3.252298418675558
1708441055.3862143,-1.4598873853683472,-1.5092177365771313,-2.75830847421755,5.553199577122488,1.0798770189285278,-3.252389732991354
1708441055.3882413,-1.4581875801086426,-1.5097561453333874,-2.758834425603048,5.552736866265096,1.0796769857406616,-3.2525182406054896
1708441055.3902464,-1.4565112590789795,-1.5102123890868207,-2.7594383398639124,5.552225398808279,1.079429268836975,-3.2525811831103724
1708441055.3923233,-1.4547654390335083,-1.5108110916665574,-2.759977404271261,5.551679003029623,1.0792326927185059,-3.252669874821798
1708441055.3942363,-1.4530830383300781,-1.5113067042878647,-2.760569159184591,5.551201331406393,1.0790654420852661,-3.2527790705310267
1708441055.3962402,-1.451395034790039,-1.5117750962129612,-2.7610982100116175,5.55066995599822,1.0788735151290894,-3.2528331915484827
1708441055.3982112,-1.4496467113494873,-1.5122305800071736,-2.76168662706484,5.550169634609976,1.0786484479904175,-3.2529223600970667
1708441055.4002337,-1.4479427337646484,-1.5127766330591221,-2.7622249762164515,5.549748587399282,1.0784038305282593,-3.2529946009265345
1708441055.4022143,-1.4462699890136719,-1.5132489886930962,-2.762685839329855,5.549166369229116,1.0781397819519043,-3.25303823152651
1708441055.4042406,-1.4445898532867432,-1.5138065305403252,-2.7633281389819544,5.548806416779318,1.077898383140564,-3.2531309763537806
1708441055.4062455,-1.4428739547729492,-1.5142701801708718,-2.7637973467456263,5.5483630178268335,1.0776822566986084,-3.253162447606222
1708441055.4082525,-1.4412076473236084,-1.5148037758520623,-2.7643941084491175,5.547940420895376,1.077461838722229,-3.2531681696521204
1708441055.4102128,-1.4394590854644775,-1.5153183986297627,-2.7648754755603235,5.547473597317495,1.0773065090179443,-3.2532478014575403
1708441055.4122076,-1.4377634525299072,-1.5158145439675828,-2.765451494847433,5.547040569573202,1.077176809310913,-3.2532268206225794
1708441055.4142046,-1.4360506534576416,-1.5163483296385785,-2.766033951436178,5.5465635536010645,1.076975703239441,-3.2532885710345667
1708441055.4162183,-1.4344078302383423,-1.5168891374817868,-2.766559902821676,5.546144830971517,1.076799750328064,-3.253324095402853
1708441055.41823,-1.4327210187911987,-1.5173484285226841,-2.7670910994159144,5.54571299532012,1.0766035318374634,-3.2534008661853235
1708441055.4202092,-1.4311103820800781,-1.517842100267746,-2.7676950136767786,5.54531483629302,1.0764309167861938,-3.2534173170672815
1708441055.4222054,-1.429426670074463,-1.5183383424631138,-2.7682212034808558,5.544896113663473,1.0762181282043457,-3.2534080187426966
1708441055.424263,-1.4277544021606445,-1.5188793328455468,-2.7687674204455774,5.544503855496206,1.0760599374771118,-3.253427569066183
1708441055.4261973,-1.42606782913208,-1.5193344143084069,-2.769298855458395,5.544121849327841,1.07583487033844,-3.253460947667257
1708441055.4282231,-1.4243593215942383,-1.5198948842338105,-2.769857708607809,5.543673682003774,1.0756831169128418,-3.253411118184225
1708441055.4302046,-1.4227131605148315,-1.5204257567277928,-2.770444695149557,5.543213891773977,1.0754494667053223,-3.253381077443258
1708441055.4322104,-1.421021819114685,-1.5209893745234986,-2.7709108034717005,5.542754459172048,1.0753062963485718,-3.253364864979879
1708441055.4342124,-1.4193437099456787,-1.5214662712863465,-2.7714744249926966,5.542282628804006,1.0751662254333496,-3.253397528325216
1708441055.436253,-1.4176541566848755,-1.5219396700016041,-2.7720299402820032,5.541942345886984,1.074973464012146,-3.253413979207174
1708441055.4382381,-1.4160648584365845,-1.5224890534630795,-2.772605005894796,5.541517960816183,1.0748260021209717,-3.253373924885885
1708441055.440215,-1.4144092798233032,-1.5229960990003129,-2.7731106917010706,5.541159558087148,1.0746937990188599,-3.253345553074972
1708441055.442228,-1.4127869606018066,-1.5234769408455868,-2.7736571470843714,5.540736067086019,1.0745463371276855,-3.2534173170672815
1708441055.4442127,-1.4110931158065796,-1.5240299825421353,-2.7742493788348597,5.540324735432424,1.0743727684020996,-3.2533724943744105
1708441055.4462366,-1.409363865852356,-1.5245497499457379,-2.7748034636126917,5.539937186032095,1.0742090940475464,-3.253327194844381
1708441055.4482112,-1.4077067375183105,-1.5250991073301812,-2.7753377596484583,5.539571511536398,1.074044942855835,-3.253258768712179
1708441055.4502552,-1.406069040298462,-1.5256359700909634,-2.7758427301989954,5.539184081345358,1.0738564729690552,-3.2532432715045374
1708441055.4522264,-1.4044371843338013,-1.5261021491936226,-2.7763825098620813,5.538765179901876,1.0736894607543945,-3.25320011774172
1708441055.4541998,-1.4027278423309326,-1.5267104183188458,-2.7769010702716272,5.538454758911886,1.0735535621643066,-3.253153149281637
1708441055.4564948,-1.401073932647705,-1.5271518428674717,-2.777457062398092,5.538098442345419,1.073372721672058,-3.2531190554248255
1708441055.4582453,-1.3994053602218628,-1.5276217621615906,-2.7780078093158167,5.5377107737358,1.0732481479644775,-3.2530484835254114
1708441055.4601958,-1.397768259048462,-1.5281450499645253,-2.7785094420062464,5.53737227895812,1.0730712413787842,-3.2531028429614466
1708441055.462183,-1.3960617780685425,-1.5287246902338048,-2.7790451685534876,5.536935615330496,1.0729848146438599,-3.253042761479513
1708441055.4641914,-1.3943735361099243,-1.529239111845829,-2.7795758883105677,5.536571907788076,1.0728845596313477,-3.2529950777636927
1708441055.466206,-1.392709493637085,-1.5297935281744977,-2.7800734678851526,5.536279248982229,1.0727674961090088,-3.2529874483691614
1708441055.468219,-1.3910088539123535,-1.5302994523993512,-2.780617062245504,5.535956132202902,1.0726639032363892,-3.252984110509054
