Eg3-git/Classifiers/Data Collection/u7/u7www5_ur3e_joint_states.csv
time,elbow_joint,shoulder_lift_joint,shoulder_pan_joint,wrist_1_joint,wrist_2_joint,wrist_3_joint
1708441071.5642753,-2.141953945159912,-1.3334594529918213,-2.5266385714160364,6.110805022507467,1.0173087120056152,-3.0780497233020228
1708441071.5662901,-2.1419663429260254,-1.33345182359729,-2.5266385714160364,6.110785472183981,1.0173296928405762,-3.0781098047839563
1708441071.5682554,-2.1419410705566406,-1.3334971082261582,-2.5266266504870813,6.110756265908041,1.017337679862976,-3.0781248251544397
1708441071.5702584,-2.141993522644043,-1.3334390085986634,-2.5266130606280726,6.11078559139327,1.017346739768982,-3.0782504717456263
1708441071.5723634,-2.1419620513916016,-1.3334561747363587,-2.5266221205340784,6.110776889115133,1.0173250436782837,-3.078285519276754
1708441071.5743163,-2.1419663429260254,-1.3334918332150956,-2.5266221205340784,6.110794174462118,1.0173430442810059,-3.0783289114581507
1708441071.576247,-2.1419243812561035,-1.333479956989624,-2.526635710393087,6.110825645714559,1.0173420906066895,-3.0784505049334925
1708441071.5782375,-2.141970634460449,-1.3335114282420655,-2.5266552607165735,6.110773551255026,1.0173296928405762,-3.078472916279928
1708441071.5802388,-2.141997814178467,-1.3335255992463608,-2.5266431013690394,6.110806095391073,1.017374873161316,-3.0786100069629114
1708441071.5822678,-2.141997814178467,-1.3334961247495194,-2.526619259511129,6.110739934235372,1.0173511505126953,-3.0786407629596155
1708441071.5842593,-2.1419663429260254,-1.3334918779185791,-2.5266011396991175,6.110805022507467,1.0173341035842896,-3.078745428715841
1708441071.5862422,-2.1419243812561035,-1.333476648931839,-2.5266762415515345,6.110720145493307,1.017358422279358,-3.0788586775409144
1708441071.588241,-2.1419243812561035,-1.3334346276572724,-2.5266597906695765,6.110739934235372,1.0173540115356445,-3.0789013544665735
1708441071.5902421,-2.1419577598571777,-1.3334637445262452,-2.5266056696521204,6.110801803856649,1.0173615217208862,-3.0789971987353724
1708441071.5922372,-2.141982078552246,-1.33345519125972,-2.5266175905810755,6.110769259720602,1.017403483390808,-3.079109493886129
1708441071.5942407,-2.1419577598571777,-1.3334842187217255,-2.5266552607165735,6.1107637760932825,1.0173615217208862,-3.0792301336871546
1708441071.596247,-2.141932964324951,-1.33345519125972,-2.5266643206225794,6.110785472183981,1.0173496007919312,-3.079308573399679
1708441071.5982356,-2.141937255859375,-1.3334475767663498,-2.5266733805285853,6.110842215805807,1.017382264137268,-3.079367462788717
1708441071.600238,-2.141993522644043,-1.333491863017418,-2.5266221205340784,6.110813724785604,1.017418622970581,-3.07949144044985
1708441071.6022472,-2.1419849395751953,-1.3334713888219376,-2.5266733805285853,6.110793101578512,1.0173524618148804,-3.0796812216388147
1708441071.604234,-2.141982078552246,-1.333422453408577,-2.5265966097461146,6.11079620102004,1.017418622970581,-3.0797844568835657
1708441071.6063135,-2.141982078552246,-1.333496169453003,-2.5266311804400843,6.110756265908041,1.0174275636672974,-3.079864565526144
1708441071.6082819,-2.141974925994873,-1.3334432703307648,-2.5266476313220423,6.11080943325118,1.017401933670044,-3.080094877873556
1708441071.6102753,-2.1419734954833984,-1.333480955367424,-2.5266850630389612,6.110866057663717,1.0174262523651123,-3.080177609120504
1708441071.6122704,-2.1420021057128906,-1.3334918779185791,-2.5266597906695765,6.110793101578512,1.0174381732940674,-3.0802844206439417
1708441071.6142714,-2.141937255859375,-1.3334680658629914,-2.5266762415515345,6.110808121948995,1.0174353122711182,-3.0804157892810267
1708441071.6162682,-2.141982078552246,-1.3334181171706696,-2.5266431013690394,6.110821234970846,1.017392873764038,-3.080515448247091
1708441071.6182573,-2.142031192779541,-1.3334875714829941,-2.5266340414630335,6.110809314041891,1.0174140930175781,-3.080691401158468
1708441071.6202636,-2.1419734954833984,-1.3334390234998246,-2.5266431013690394,6.110821234970846,1.0173884630203247,-3.0808735529529017
1708441071.6223614,-2.1420021057128906,-1.3334310215762635,-2.5266507307635706,6.110816943436422,1.0174174308776855,-3.0810371080981653
1708441071.6242812,-2.14198637008667,-1.3334310215762635,-2.5266552607165735,6.1108529446418665,1.0173856019973755,-3.0811765829669397
1708441071.6262357,-2.14198637008667,-1.3335213375142594,-2.5266643206225794,6.110788810044088,1.0173765420913696,-3.081352774296896
1708441071.628252,-2.142014503479004,-1.3334997755340119,-2.5266266504870813,6.110837924271383,1.0174140930175781,-3.081487480794088
1708441071.6302433,-2.14198637008667,-1.333475650554039,-2.5266597906695765,6.110842215805807,1.0174230337142944,-3.0816803614245813
1708441071.632278,-2.141993522644043,-1.3334310215762635,-2.5266476313220423,6.110793101578512,1.0174545049667358,-3.081827465687887
1708441071.6342278,-2.141989231109619,-1.333455206160881,-2.5266431013690394,6.110870349198141,1.0174589157104492,-3.0820115248309534
1708441071.6362543,-2.141993522644043,-1.3334508550218125,-2.5266717115985315,6.110799538880148,1.0174307823181152,-3.08221942583193
1708441071.6382174,-2.141970634460449,-1.3334799271873017,-2.5266178289996546,6.110842215805807,1.0174589157104492,-3.082374159489767
1708441071.6402302,-2.1419906616210938,-1.333488554959633,-2.5266385714160364,6.110778796463766,1.017421841621399,-3.08259088197817
1708441071.6422634,-2.1419577598571777,-1.333455206160881,-2.5266385714160364,6.11083351352767,1.0174381732940674,-3.082762066517965
1708441071.6442387,-2.141997814178467,-1.3334765893271943,-2.5266147295581263,6.110784399300375,1.0174140930175781,-3.083014790211813
1708441071.646839,-2.1419777870178223,-1.3334723871997376,-2.5266552607165735,6.11079620102004,1.017421841621399,-3.0832682291613978
1708441071.6484096,-2.1419620513916016,-1.3334680062583466,-2.5266175905810755,6.110808121948995,1.017466425895691,-3.083413902913229
1708441071.6502507,-2.1419577598571777,-1.3334594678929825,-2.526635710393087,6.110836612969198,1.0174381732940674,-3.0836623350726526
1708441071.6523235,-2.1419849395751953,-1.333459497695305,-2.526652161275045,6.11079620102004,1.0174589157104492,-3.0838540236102503
1708441071.6543176,-2.141932964324951,-1.333450899725296,-2.5266340414630335,6.110816943436422,1.0174051523208618,-3.084041420613424
1708441071.6563578,-2.141982078552246,-1.3334594678929825,-2.5266013781176966,6.110816943436422,1.017433762550354,-3.0842869917498987
1708441071.6583338,-2.141953468322754,-1.3335212481072922,-2.5266597906695765,6.110821234970846,1.0174411535263062,-3.084472958241598
1708441071.6603403,-2.1419453620910645,-1.3334799271873017,-2.5266311804400843,6.110779988556661,1.017433762550354,-3.084766451512472
1708441071.6623468,-2.141953468322754,-1.3334594827941437,-2.5266643206225794,6.110837924271383,1.0174174308776855,-3.085006300603048
1708441071.6642735,-2.1419734954833984,-1.333484174018242,-2.5266733805285853,6.110849845200338,1.017429232597351,-3.0852013270007532
1708441071.667441,-2.1419460773468018,-1.3334475767663498,-2.5266221205340784,6.110837924271383,1.0174095630645752,-3.0854366461383265
1708441071.6682446,-2.1419734954833984,-1.3335168969682236,-2.5266431013690394,6.110809314041891,1.017433762550354,-3.085691754017965
1708441071.6702437,-2.1419410705566406,-1.3334679913571854,-2.5266597906695765,6.1107669947441,1.0174634456634521,-3.086012903844015
1708441071.6723359,-2.1419410705566406,-1.3334723722985764,-2.5266597906695765,6.110829102783956,1.0173962116241455,-3.086235825215475
1708441071.674256,-2.1419453620910645,-1.333435283308365,-2.5266552607165735,6.110800730973043,1.0174051523208618,-3.0864883104907435
1708441071.6762683,-2.1419084072113037,-1.333455206160881,-2.526595417653219,6.110837924271383,1.0174620151519775,-3.086801354085104
1708441071.6782262,-2.141970634460449,-1.3334475469640275,-2.5266884008990687,6.110779988556661,1.0174787044525146,-3.0870068709002894
1708441071.680247,-2.1419734954833984,-1.3334918481162568,-2.5266340414630335,6.11079620102004,1.0174381732940674,-3.087331835423605
1708441071.6822517,-2.141953945159912,-1.333434672360756,-2.5266762415515345,6.110787617951193,1.0174708366394043,-3.087628189717428
1708441071.6842368,-2.141974925994873,-1.3334918779185791,-2.526677672063009,6.110805022507467,1.0174262523651123,-3.087918821965353
1708441071.6862767,-2.1419849395751953,-1.333446667795517,-2.5266552607165735,6.110829102783956,1.0174381732940674,-3.0881992022143763
1708441071.688252,-2.1420021057128906,-1.3334475618651886,-2.526619259511129,6.110837924271383,1.017421841621399,-3.0885630289660853
1708441071.6902404,-2.141982078552246,-1.3334594827941437,-2.5266266504870813,6.110829102783956,1.017421841621399,-3.0888331572162073
1708441071.6922312,-2.1419734954833984,-1.333451808696129,-2.5266130606280726,6.110837924271383,1.0174381732940674,-3.089194122944967
1708441071.6942344,-2.1419663429260254,-1.333443285231926,-2.5266431013690394,6.110800730973043,1.0174174308776855,-3.089505736027853
1708441071.6962423,-2.1419734954833984,-1.3334310215762635,-2.5266597906695765,6.110759365349569,1.0174753665924072,-3.089874569569723
1708441071.6982324,-2.141993522644043,-1.3334799271873017,-2.5266311804400843,6.1108072874839685,1.0174007415771484,-3.0902345816241663
1708441071.7002854,-2.14194917678833,-1.3334594827941437,-2.526602808629171,6.110800730973043,1.0174708366394043,-3.090485159550802
1708441071.7022624,-2.141997814178467,-1.333479956989624,-2.5265966097461146,6.110788810044088,1.0174545049667358,-3.0907884279834192
1708441071.7042494,-2.1419663429260254,-1.3334714037230988,-2.5266597906695765,6.1107637760932825,1.0174500942230225,-3.0911687056170862
1708441071.7062602,-2.141970634460449,-1.3334842038205643,-2.526619259511129,6.110805022507467,1.0174381732940674,-3.0914555231677454
1708441071.708253,-2.1419692039489746,-1.3334680211595078,-2.5266056696521204,6.110788810044088,1.0174620151519775,-3.091828171406881
1708441071.7102528,-2.1419777870178223,-1.3334918481162568,-2.5266385714160364,6.110800730973043,1.0174381732940674,-3.0921877066241663
1708441071.712256,-2.141997814178467,-1.3334594827941437,-2.5266688505755823,6.110800730973043,1.0174293518066406,-3.09251577058901
1708441071.7142572,-2.14198637008667,-1.3335041415742417,-2.526656691228048,6.110813724785604,1.0174425840377808,-3.0929229895221155
1708441071.7162435,-2.141970634460449,-1.3334961247495194,-2.5266147295581263,6.110787498741903,1.0174545049667358,-3.0932634512530726
1708441071.7182362,-2.141932964324951,-1.33345519125972,-2.52664024034609,6.110779988556661,1.017421841621399,-3.093658749257223
1708441071.7202332,-2.1419286727905273,-1.3334918481162568,-2.526602808629171,6.110800730973043,1.017433762550354,-3.0940383116351526
1708441071.722293,-2.141958236694336,-1.3334841889194031,-2.5266311804400843,6.110821234970846,1.0174589157104492,-3.0943592230426233
1708441071.7243018,-2.141982078552246,-1.3334832352450867,-2.5266597906695765,6.1107919094856165,1.017433762550354,-3.094764296208517
1708441071.7262356,-2.1419777870178223,-1.3335242581418534,-2.5266101996051233,6.110776889115133,1.0174708366394043,-3.095168177281515
1708441071.728233,-2.1419777870178223,-1.333430991773941,-2.5266597906695765,6.110829102783956,1.0174174308776855,-3.095616881047384
1708441071.730225,-2.142014503479004,-1.3334961098483582,-2.526632849370138,6.11083351352767,1.0174381732940674,-3.0960078875171106
1708441071.7322438,-2.141982078552246,-1.3334918481162568,-2.5265818277942103,6.110776889115133,1.0174708366394043,-3.0963926951037806
1708441071.7342193,-2.1419777870178223,-1.3334670674851914,-2.526602808629171,6.11080943325118,1.0174798965454102,-3.096856419240133
1708441071.7362185,-2.1419126987457275,-1.333468036060669,-2.526607338582174,6.110809314041891,1.0174425840377808,-3.0972428957568567
1708441071.7382138,-2.141937255859375,-1.333459423189499,-2.526611868535177,6.110813724785604,1.0174129009246826,-3.097649637852804
1708441071.7402227,-2.141997814178467,-1.3334396493485947,-2.5266147295581263,6.110855209618368,1.0174129009246826,-3.09810978571047
1708441071.7422202,-2.141989231109619,-1.33345182359729,-2.526619259511129,6.110837924271383,1.0174545049667358,-3.098532740269796
1708441071.7442212,-2.1419663429260254,-1.3334268045476456,-2.526623789464132,6.110760557442465,1.017379641532898,-3.098891083394186
1708441071.7462208,-2.142014503479004,-1.3335285049727936,-2.526590887700216,6.11077247837142,1.0174262523651123,-3.099372212086813
1708441071.748214,-2.1419777870178223,-1.333455206160881,-2.526590887700216,6.110812532692709,1.017461895942688,-3.0998111406909388
1708441071.750245,-2.1419777870178223,-1.3334918481162568,-2.5266221205340784,6.110825645714559,1.017421841621399,-3.1002755800830286
1708441071.7523127,-2.1419692039489746,-1.3334799271873017,-2.5265818277942103,6.1107367155845544,1.0174381732940674,-3.1006975809680384
1708441071.7542613,-2.1419663429260254,-1.3334310364774247,-2.526595417653219,6.11077247837142,1.0174293518066406,-3.101157251988546
1708441071.7562873,-2.1419620513916016,-1.3335285049727936,-2.526619259511129,6.110805022507467,1.0174500942230225,-3.101645056401388
1708441071.758267,-2.141932964324951,-1.333459497695305,-2.5266597906695765,6.110797393112936,1.0174634456634521,-3.102067295704977
1708441071.7602472,-2.1419243812561035,-1.3334475767663498,-2.5266643206225794,6.1107767699058435,1.0174708366394043,-3.102522675191061
1708441071.7622488,-2.1420021057128906,-1.3334756654552002,-2.5266643206225794,6.110773551255026,1.0174425840377808,-3.103014055882589
1708441071.7642453,-2.141993522644043,-1.3334918481162568,-2.5266385714160364,6.110788810044088,1.0174752473831177,-3.1034207979785364
1708441071.766254,-2.1419663429260254,-1.3334790480187912,-2.526619259511129,6.110773551255026,1.0174425840377808,-3.103952471409933
1708441071.768249,-2.141982078552246,-1.333455206160881,-2.5266101996051233,6.110728013306417,1.0174307823181152,-3.104391876851217
1708441071.7702675,-2.141989231109619,-1.3334390234998246,-2.526569668446676,6.110855209618368,1.0174589157104492,-3.104875151311056
1708441071.7722433,-2.141953945159912,-1.3334181767753144,-2.5266643206225794,6.110769259720602,1.017429232597351,-3.105297390614645
1708441071.7742143,-2.1419577598571777,-1.3334594827941437,-2.52661639848818,6.110764968186178,1.0174095630645752,-3.1057711283313196
1708441071.7762241,-2.14198637008667,-1.3334475618651886,-2.52664024034609,6.110741007118978,1.0174545049667358,-3.1062546412097376
1708441071.778211,-2.1419849395751953,-1.3334225130132218,-2.5266221205340784,6.110741126328268,1.017421841621399,-3.1067619959460657
1708441071.7802095,-2.1419734954833984,-1.3334475618651886,-2.52664024034609,6.110794174462118,1.017421841621399,-3.1072548071490687
1708441071.7822285,-2.1419777870178223,-1.3334475618651886,-2.526586357747213,6.110819208412924,1.0174095630645752,-3.1077457110034388
1708441071.7842247,-2.141993522644043,-1.3334475618651886,-2.5266762415515345,6.110744225769796,1.0174095630645752,-3.108234230672018
1708441071.7862184,-2.14198637008667,-1.3334105026772995,-2.526619259511129,6.110720145493307,1.0174140930175781,-3.108692471181051
1708441071.7882452,-2.1419620513916016,-1.3334267747453232,-2.5265939871417444,6.110785472183981,1.0173839330673218,-3.1092119852649134
1708441071.7902324,-2.141997814178467,-1.333451808696129,-2.526607338582174,6.110782372742452,1.0174174308776855,-3.109670702611105
1708441071.7922482,-2.1419577598571777,-1.3334799420884629,-2.5266147295581263,6.110720145493307,1.0174709558486938,-3.1101208368884485
1708441071.7942414,-2.1419777870178223,-1.3334267300418396,-2.52661639848818,6.1107661602790735,1.017418622970581,-3.1106529871570032
1708441071.7962375,-2.1419577598571777,-1.3334918481162568,-2.526602808629171,6.110757338791647,1.0174051523208618,-3.1111937204944056
1708441071.798239,-2.141970634460449,-1.3334918481162568,-2.5266147295581263,6.110717046051779,1.0174307823181152,-3.1116960684405726
1708441071.800221,-2.141989231109619,-1.333488554959633,-2.5265982786761683,6.110777961998739,1.0174063444137573,-3.1121791044818323
1708441071.8022335,-2.141997814178467,-1.3334747862866898,-2.5265818277942103,6.11079107502059,1.0174230337142944,-3.1126871744738978
1708441071.804238,-2.141997814178467,-1.3334842038205643,-2.526644770299093,6.110708224564352,1.017418622970581,-3.113157097493307
1708441071.8063035,-2.1420063972473145,-1.333456130032875,-2.526623789464132,6.110758530884542,1.0174471139907837,-3.1136890093432825
1708441071.808257,-2.141982078552246,-1.3334842336228867,-2.526649300252096,6.110758530884542,1.0174051523208618,-3.114192549382345
1708441071.810259,-2.1419620513916016,-1.3334714037230988,-2.526628319417135,6.110651600151815,1.017401933670044,-3.114692513142721
1708441071.8122509,-2.141970634460449,-1.333439053302147,-2.526578728352682,6.110693204193868,1.017421841621399,-3.115206782017843
1708441071.8142557,-2.1420021057128906,-1.3334310364774247,-2.526644770299093,6.110652792244711,1.0174174308776855,-3.11575156847109
1708441071.816232,-2.1419620513916016,-1.3334647429040452,-2.526644770299093,6.110718238144674,1.0174307823181152,-3.116220537816183
1708441071.8182466,-2.1419577598571777,-1.33351685226474,-2.526628319417135,6.110677706986227,1.017397403717041,-3.11674935022463
1708441071.820233,-2.1419620513916016,-1.3334508550218125,-2.526586357747213,6.110643970757284,1.017397403717041,-3.117276732121603
1708441071.822285,-2.1419620513916016,-1.3334594827941437,-2.52664024034609,6.11074315288619,1.0174471139907837,-3.1178558508502405
1708441071.8243194,-2.1419577598571777,-1.3334680062583466,-2.526611868535177,6.110677826195516,1.017392873764038,-3.118411127720968
1708441071.8262486,-2.1419577598571777,-1.333443285231926,-2.526637140904562,6.110693204193868,1.0174230337142944,-3.1189633051501673
1708441071.8282416,-2.1420021057128906,-1.3334390234998246,-2.526607338582174,6.110674488335409,1.0173856019973755,-3.119437042866842
1708441071.8302352,-2.141989231109619,-1.3334799271873017,-2.526604477559225,6.110612737923422,1.017397403717041,-3.1200247446643274
1708441071.8322308,-2.1419734954833984,-1.3334106367877503,-2.526623789464132,6.110642063408651,1.0174063444137573,-3.1205883661853235
1708441071.8342369,-2.1419243812561035,-1.3334799122861405,-2.526595417653219,6.110593187599935,1.0174397230148315,-3.1211066881762903
1708441071.836261,-2.141993522644043,-1.333418221478798,-2.526574198399679,6.1106289503868005,1.0174230337142944,-3.121638838444845
1708441071.838229,-2.141993522644043,-1.3334353131106873,-2.526586357747213,6.1105995056922815,1.0174353122711182,-3.1221984068499964
1708441071.8402202,-2.141997814178467,-1.3334475618651886,-2.526590887700216,6.1106300232704065,1.0173643827438354,-3.1226518789874476
1708441071.842239,-2.1419777870178223,-1.3334561747363587,-2.526586357747213,6.110597598343649,1.0173553228378296,-3.1231635252581995
1708441071.84434,-2.1419734954833984,-1.3334234815886994,-2.526590887700216,6.110618102341451,1.0174140930175781,-3.123683039342062
1708441071.84623,-2.141953945159912,-1.3334353131106873,-2.526620928441183,6.110597479134359,1.0173391103744507,-3.1241610685931605
1708441071.848238,-2.141970634460449,-1.3335003864816208,-2.526565138493673,6.110564696579733,1.0173856019973755,-3.1247223059283655
1708441071.8502438,-2.1419906616210938,-1.333484174018242,-2.526656452809469,6.110606300621786,1.0174152851104736,-3.1252577940570276
1708441071.85231,-2.14201021194458,-1.3334808510592957,-2.526628319417135,6.110610711365499,1.0173989534378052,-3.1256993452655237
1708441071.8542893,-2.141953945159912,-1.333439664249756,-2.526557509099142,6.110572206764974,1.017382264137268,-3.126329008732931
1708441071.8563867,-2.141970634460449,-1.333439664249756,-2.526574198399679,6.110589730530538,1.0173569917678833,-3.1267784277545374
1708441071.8583338,-2.1419496536254883,-1.3334561598351975,-2.5266476313220423,6.110557186394491,1.0173659324645996,-3.1273327509509485
1708441071.8603325,-2.1419496536254883,-1.333472342496254,-2.5265563170062464,6.110548364907064,1.0173989534378052,-3.1278203169452112
1708441071.8623142,-2.14198637008667,-1.3334756654552002,-2.526632849370138,6.1106194136436365,1.0173569917678833,-3.1283355394946497
1708441071.864269,-2.141958236694336,-1.3334234815886994,-2.5265982786761683,6.110540616303243,1.01735258102417,-3.1288719812976282
1708441071.8662553,-2.142014503479004,-1.3334850531867524,-2.5266643206225794,6.1105702994163416,1.017359733581543,-3.1293590704547327
1708441071.8682888,-2.141970634460449,-1.33345182359729,-2.526599947606222,6.1105127213294885,1.0174230337142944,-3.1298940817462366
1708441071.870351,-2.141982078552246,-1.333402932887413,-2.5266688505755823,6.110549318581381,1.0173332691192627,-3.1303773562060755
1708441071.872313,-2.1419663429260254,-1.3334724021008988,-2.526628319417135,6.110525834351339,1.0173569917678833,-3.1309049765216272
1708441071.8742428,-2.1419286727905273,-1.333468036060669,-2.526562039052145,6.110533344536581,1.017382264137268,-3.1314404646502894
1708441071.87629,-2.141958236694336,-1.333439664249756,-2.5265818277942103,6.110488641052999,1.0174230337142944,-3.1319969336139124
1708441071.8782394,-2.141932964324951,-1.333439664249756,-2.526632849370138,6.11050163486556,1.01735258102417,-3.1324220339404505
1708441071.8802485,-2.141953945159912,-1.3334723722985764,-2.526557509099142,6.110473501473226,1.0173569917678833,-3.1329100767718714
1708441071.8822615,-2.1419243812561035,-1.33345182359729,-2.526590887700216,6.11049102523879,1.0173569917678833,-3.1333964506732386
1708441071.8842397,-2.1419577598571777,-1.3334105473807831,-2.526595417653219,6.110502826958456,1.0173856019973755,-3.133948628102438
1708441071.8862572,-2.141932964324951,-1.3334680062583466,-2.526590887700216,6.110445010453024,1.0173643827438354,-3.1344521681415003
1708441071.8882234,-2.141982078552246,-1.3334190857461472,-2.526578728352682,6.110433089524069,1.0173733234405518,-3.1349666754352015
1708441071.8902216,-2.1420109272003174,-1.3334267747453232,-2.526607338582174,6.110487687378683,1.0173778533935547,-3.1354990641223353
1708441071.8922431,-2.1420021057128906,-1.3334756654552002,-2.526623789464132,6.110438930779257,1.0174152851104736,-3.1360207239734095
1708441071.8942294,-2.141937255859375,-1.333443285231926,-2.526578728352682,6.110441911011495,1.0173900127410889,-3.1364927927600306
1708441071.8962693,-2.1419663429260254,-1.3334604513696213,-2.5266311804400843,6.110425936966696,1.0173900127410889,-3.1369717756854456
1708441071.8982503,-2.141941547393799,-1.33344820261512,-2.526578728352682,6.110388624459066,1.0174230337142944,-3.1374626795398157
1708441071.9002254,-2.141953945159912,-1.3334561747363587,-2.526578728352682,6.110423433571615,1.017397403717041,-3.13798696199526
1708441071.9022434,-2.1420021057128906,-1.3334481877139588,-2.526623789464132,6.110386597901144,1.0174063444137573,-3.1384411493884485
1708441071.9042127,-2.141970634460449,-1.3334561747363587,-2.52661639848818,6.110353696137228,1.017401933670044,-3.1389218012439173
1708441071.906292,-2.141974925994873,-1.333439664249756,-2.526607338582174,6.110341775208273,1.017397403717041,-3.1394196192370813
1708441071.9082408,-2.141979455947876,-1.3334234815886994,-2.526623789464132,6.110325562744894,1.0174140930175781,-3.1399200598346155
1708441071.91025,-2.141913414001465,-1.3334723722985764,-2.526607338582174,6.110408532410421,1.017348051071167,-3.1404112021075647
1708441071.912265,-2.141892194747925,-1.333439664249756,-2.526583258305685,6.11032651641921,1.0173810720443726,-3.1408897081958216
1708441071.9142423,-2.1419177055358887,-1.3333901327899476,-2.526586357747213,6.110298621445455,1.0173856019973755,-3.1413498560534876
1708441071.9162533,-2.1419177055358887,-1.3334277433208008,-2.526637379323141,6.11027883270339,1.0174307823181152,-3.141820732747213
1708441071.9182386,-2.141934394836426,-1.3334723722985764,-2.526623789464132,6.110287534981527,1.0174140930175781,-3.142341200505392
1708441071.9202654,-2.141909599304199,-1.3334723722985764,-2.526623789464132,6.110238778382101,1.0174307823181152,-3.1427751223193567
1708441071.9222667,-2.14193058013916,-1.3334072840264817,-2.526628319417135,6.110272395401754,1.0174140930175781,-3.1433361212359827
1708441071.9242592,-2.1418895721435547,-1.3334277433208008,-2.5265665690051478,6.110231983452596,1.0174307823181152,-3.1437252203570765
1708441071.9262507,-2.141850233078003,-1.3334310364774247,-2.526586357747213,6.110239493637838,1.0174589157104492,-3.144228998814718
1708441071.9282453,-2.1418046951293945,-1.3334148538163682,-2.526644770299093,6.11018322685317,1.0173884630203247,-3.144672218953268
1708441071.9302304,-2.141850233078003,-1.3334320050529023,-2.5265818277942103,6.110216128617086,1.017433762550354,-3.1451478640185755
1708441071.9322667,-2.141846179962158,-1.333435283308365,-2.526611868535177,6.110138404160299,1.0174634456634521,-3.145618740712301
1708441071.9342709,-2.141818046569824,-1.3334234964898606,-2.52661639848818,6.110077726631918,1.017433762550354,-3.146118704472677
1708441071.9362707,-2.1418092250823975,-1.3334072840264817,-2.5265982786761683,6.110110270767965,1.0174953937530518,-3.1465538183795374
1708441071.9382432,-2.141818046569824,-1.33345182359729,-2.5265937487231653,6.110096323281088,1.017466425895691,-3.1470657030688685
1708441071.940241,-2.1417653560638428,-1.3334234815886994,-2.526611868535177,6.1099984524543665,1.017433762550354,-3.147512499486105
1708441071.9422617,-2.141805648803711,-1.3334115606597443,-2.526635710393087,6.109990584641256,1.0175117254257202,-3.1479888598071497
1708441071.9442344,-2.141753673553467,-1.333412767653801,-2.526623789464132,6.110036599427023,1.0175145864486694,-3.14843994775881
1708441071.9462352,-2.141753673553467,-1.3333999526551743,-2.526635710393087,6.109996068268575,1.0174938440322876,-3.148898188267843
1708441071.948264,-2.1417622566223145,-1.3334523749402543,-2.526619259511129,6.109964716225424,1.017498254776001,-3.149369780217306
1708441071.9502454,-2.1417579650878906,-1.3333914291909714,-2.52664024034609,6.109914648323812,1.0175628662109375,-3.1498003641711634
1708441071.9523811,-2.1417129039764404,-1.333464728002884,-2.5266431013690394,6.109871136933126,1.0175461769104004,-3.150280777608053
1708441071.9543245,-2.141685724258423,-1.3333302748254319,-2.526619259511129,6.10988866069869,1.017583966255188,-3.15078050294985
1708441071.9562702,-2.141723155975342,-1.3334243607572098,-2.5266311804400843,6.109847414284506,1.0176076889038086,-3.151166025792257
1708441071.958253,-2.1416285037994385,-1.3334158223918458,-2.5265892187701624,6.109815585404196,1.0175824165344238,-3.151710812245504
1708441071.9602797,-2.1416451930999756,-1.333387629394867,-2.526602808629171,6.10984097698287,1.017606496810913,-3.1520682016955774
1708441071.9622862,-2.1416914463043213,-1.333396242266037,-2.5266178289996546,6.109824406891622,1.0176591873168945,-3.1525405089007776
1708441071.9642642,-2.141666889190674,-1.3333510619452973,-2.5266147295581263,6.109813558846273,1.0176502466201782,-3.1530121008502405
1708441071.9662647,-2.1416025161743164,-1.3333552491715928,-2.5266597906695765,6.109817969589987,1.0176546573638916,-3.1534438768969935
1708441071.9682968,-2.1416068077087402,-1.3334170293859025,-2.526644770299093,6.109749424248495,1.01765775680542,-3.1539154688464563
1708441071.9702566,-2.141566038131714,-1.3333767664483567,-2.526623789464132,6.109672057419576,1.0176784992218018,-3.1543424765216272
1708441071.972252,-2.1415624618530273,-1.33334735155616,-2.5266311804400843,6.109639632492819,1.017751932144165,-3.154757324849264
1708441071.9742424,-2.141514301300049,-1.33335596442733,-2.5266340414630335,6.10966573932723,1.017722249031067,-3.155213181172506
1708441071.9762435,-2.1415228843688965,-1.3333559793284913,-2.5266221205340784,6.1095547554786584,1.0177385807037354,-3.155644957219259
1708441071.9782512,-2.1414709091186523,-1.333323599105217,-2.5266643206225794,6.109576451569357,1.0177463293075562,-3.156022612248556
1708441071.98023,-2.1414427757263184,-1.3333569479039689,-2.5266974608050745,6.1094504473503015,1.0177658796310425,-3.1564908663379114
1708441071.9822676,-2.1414599418640137,-1.3333225560239335,-2.5266462008105677,6.109525668412008,1.0177536010742188,-3.15687066713442
1708441071.9842327,-2.1413824558258057,-1.3333645176938553,-2.526695791875021,6.109530079155721,1.0178108215332031,-3.1572938601123255
1708441071.98624,-2.1413867473602295,-1.3332792979529877,-2.526691261922018,6.109444844513693,1.0178227424621582,-3.1576598326312464
1708441071.9882414,-2.14139986038208,-1.3332878363183518,-2.526703182850973,6.109352457314291,1.0178064107894897,-3.158161465321676
1708441071.9902275,-2.141347885131836,-1.3333525967649003,-2.5266626516925257,6.10938190200881,1.0178545713424683,-3.1585639158831995
1708441071.992245,-2.1412906646728516,-1.3332822781852265,-2.526724163685934,6.1093493578727625,1.0178545713424683,-3.1589394251452845
1708441071.9942355,-2.1412510871887207,-1.3332760047963639,-2.526707712803976,6.109277474671163,1.0178905725479126,-3.159435574208395
1708441071.9962482,-2.1412510871887207,-1.3332511943629761,-2.526785675679342,6.109253752022543,1.0179431438446045,-3.1597657839404505
1708441071.9982374,-2.1412315368652344,-1.3333037060550232,-2.5267842451678675,6.109164464264669,1.0179475545883179,-3.1601839701281946
1708441072.0002255,-2.141202211380005,-1.33330491304908,-2.5267978350268763,6.109153854637899,1.0179758071899414,-3.1606364885913294
1708441072.0022411,-2.14115047454834,-1.3333534759334107,-2.5267558733569544,6.109142768173971,1.0180000066757202,-3.1609788576709192
1708441072.0042315,-2.141167640686035,-1.3333006364158173,-2.5267496744738978,6.1090979454811,1.017986536026001,-3.1613903681384485
1708441072.006254,-2.141167640686035,-1.33330491304908,-2.5267706553088587,6.1090383408363245,1.0180362462997437,-3.1617489496814173
1708441072.0082526,-2.1411240100860596,-1.3332355630448838,-2.5268080870257776,6.10903953292922,1.0180511474609375,-3.1621480623828333
1708441072.010246,-2.141097068786621,-1.3332760047963639,-2.526794497166769,6.108999240189352,1.0180754661560059,-3.1626203695880335
1708441072.012277,-2.1410889625549316,-1.3332768839648743,-2.526836935673849,6.1089361784751794,1.018087387084961,-3.162922445927755
1708441072.014247,-2.1410653591156006,-1.3332646501115342,-2.526839796696798,6.108887421875753,1.0181037187576294,-3.1633458773242396
1708441072.0162444,-2.141000270843506,-1.333264635210373,-2.526835266743795,6.108823048859396,1.0180903673171997,-3.163720432912008
1708441072.0182426,-2.140995740890503,-1.333293081527092,-2.5268545786487024,6.1087307808692834,1.018185019493103,-3.1641088167773646
1708441072.0202336,-2.140976905822754,-1.3332603734782715,-2.5268710295306605,6.108675229340353,1.0181596279144287,-3.1645193735705774
1708441072.0222917,-2.1409568786621094,-1.333273173575737,-2.526890579854147,6.108664500504293,1.0181699991226196,-3.1648457686053675
1708441072.0243075,-2.140953302383423,-1.3332682710937043,-2.5269327799426478,6.108587252884664,1.0182119607925415,-3.165252749119894
1708441072.0262396,-2.140860080718994,-1.3332768839648743,-2.526928249989645,6.1085349200065515,1.0182483196258545,-3.1656485239612024
1708441072.0282528,-2.1408958435058594,-1.333244190817215,-2.526943031941549,6.108512270241537,1.0182764530181885,-3.166076723729269
1708441072.0302322,-2.1408321857452393,-1.3332398247769852,-2.526926581059591,6.108455526619711,1.0182883739471436,-3.1664236227618616
1708441072.0322468,-2.140815496444702,-1.3332160872272034,-2.526964251195089,6.108400451927938,1.0183336734771729,-3.16681152979006
1708441072.0342531,-2.1408205032348633,-1.3332236868194123,-2.5269747416125696,6.108419048577108,1.0183532238006592,-3.167173687611715
1708441072.036243,-2.1408162117004395,-1.333301604991295,-2.527057472859518,6.108356940537252,1.018356204032898,-3.1675522963153284
1708441072.0382342,-2.140777349472046,-1.3332203489593049,-2.527078453694479,6.108261215477743,1.0184341669082642,-3.167873207722799
1708441072.0402522,-2.140719175338745,-1.3332365316203614,-2.527052942906515,6.108217704087057,1.0184118747711182,-3.1682687441455286
1708441072.0422587,-2.1406726837158203,-1.3332569909146805,-2.527072254811422,6.108135926514425,1.0184329748153687,-3.1685763041125696
1708441072.044243,-2.1406686305999756,-1.3332038235715409,-2.5271034876452845,6.108130800514974,1.0184029340744019,-3.1689849535571497
1708441072.0462308,-2.140657424926758,-1.3332081002048035,-2.5270870367633265,6.1080994484718225,1.0185004472732544,-3.169347349797384
1708441072.0482512,-2.1406168937683105,-1.3332203489593049,-2.5271125475512903,6.108002412110128,1.018538236618042,-3.169694964085714
1708441072.0502315,-2.1405892372131348,-1.333228961830475,-2.52710205713381,6.107913124352255,1.0185530185699463,-3.1700409094439905
1708441072.052267,-2.1404998302459717,-1.3332408529571076,-2.527159039174215,6.10789047458724,1.0185638666152954,-3.1704450289355677
1708441072.0543032,-2.140573263168335,-1.333200530414917,-2.52717096010317,6.107867824822225,1.0186090469360352,-3.1707950274096888
1708441072.0563097,-2.1405177116394043,-1.3331876707128067,-2.5272372404681605,6.10775767543868,1.0186283588409424,-3.1711600462542933
1708441072.0583766,-2.140526533126831,-1.3331803989461442,-2.5272162596331995,6.107771861344137,1.0186268091201782,-3.1715105215655726
1708441072.0603404,-2.1404943466186523,-1.3332081002048035,-2.5272372404681605,6.107740628510275,1.0187184810638428,-3.17186147371401
1708441072.0623608,-2.1404380798339844,-1.3331803989461442,-2.5272207895862024,6.107634770661154,1.0187005996704102,-3.172208372746603
1708441072.0643005,-2.1404144763946533,-1.3331442189267655,-2.527259413396017,6.1075665829475305,1.0187411308288574,-3.1725435892688196
1708441072.0662751,-2.140373706817627,-1.333188847904541,-2.527254883443014,6.107601392060079,1.018784761428833,-3.1729324499713343
1708441072.0682685,-2.1403894424438477,-1.3331812781146546,-2.52726394334902,6.107458698540487,1.01883864402771,-3.173307243977682
1708441072.070242,-2.1403541564941406,-1.333176926975586,-2.5272837320910853,6.107394683151998,1.018834114074707,-3.1736672560321253
1708441072.0723312,-2.1403064727783203,-1.3331237745336075,-2.5273059050189417,6.107380616455831,1.01884925365448,-3.1740227381335657
1708441072.0744336,-2.1402854919433594,-1.3331604164889832,-2.5273075739489954,6.107336985855856,1.0188730955123901,-3.1743815580951136
1708441072.0762877,-2.1402668952941895,-1.3331931096366425,-2.5273223559008997,6.107231485634603,1.0188974142074585,-3.174736801777975
1708441072.0782642,-2.1401569843292236,-1.3331485849669953,-2.527367655430929,6.107180583267965,1.0189123153686523,-3.175055805836813
1708441072.0802352,-2.140157699584961,-1.3331941676190873,-2.527363125477926,6.107173192292013,1.018945336341858,-3.175378147755758
1708441072.0822227,-2.1402015686035156,-1.3331898015788575,-2.527396027241842,6.107137071877279,1.0189698934555054,-3.175757948552267
1708441072.0842175,-2.140151262283325,-1.3331647676280518,-2.5273569265948694,6.10700415351943,1.018989086151123,-3.1760931650744837
1708441072.08622,-2.140117645263672,-1.3331898164800187,-2.5274201075183313,6.107038008957662,1.0190294981002808,-3.1764164606677454
1708441072.0882232,-2.140101909637451,-1.3331528466990967,-2.5273855368243616,6.1069161770637415,1.0190658569335938,-3.1767523924456995
1708441072.090225,-2.140012264251709,-1.333145262008049,-2.52744704881777,6.106851923256674,1.0190658569335938,-3.1770435015307825
1708441072.0922215,-2.140029191970825,-1.3331244152835389,-2.527430597935812,6.106848823815145,1.0191015005111694,-3.1774030367480677
1708441072.0942147,-2.13997745513916,-1.333120198254921,-2.5274351278888147,6.106846797257223,1.0190961360931396,-3.1777544657336634
1708441072.0962253,-2.1399941444396973,-1.3331495535424729,-2.527491871510641,6.106749760895529,1.0191454887390137,-3.1780815760241907
1708441072.09822,-2.1400070190429688,-1.3331495535424729,-2.527454439793722,6.106754052429952,1.0191618204116821,-3.1784167925464075
1708441072.1002295,-2.1399495601654053,-1.3331495535424729,-2.527517859135763,6.106723892479696,1.0192145109176636,-3.1787312666522425
1708441072.1022203,-2.1399295330047607,-1.3331538152745743,-2.5275071302997034,6.106618511467733,1.0192055702209473,-3.179070774708883
1708441072.1042235,-2.1399030685424805,-1.3331082177213212,-2.527482811604635,6.106578457146444,1.0192011594772339,-3.17941123643984
1708441072.1062422,-2.1399073600769043,-1.333055393104889,-2.527478281651632,6.106546628266134,1.0192582607269287,-3.1798389593707483
1708441072.1082747,-2.139845609664917,-1.3330920350602646,-2.5275400320636194,6.106539952545919,1.0192656517028809,-3.180092159901754
1708441072.1102486,-2.139860153198242,-1.3331134629300614,-2.5275235811816614,6.106479155808248,1.0192897319793701,-3.1804690996753138
1708441072.1123009,-2.1398191452026367,-1.3330317300609131,-2.5275235811816614,6.106443154602804,1.0193225145339966,-3.1807387510882776
1708441072.1142464,-2.139815330505371,-1.3331006926349183,-2.5275400320636194,6.106363045960226,1.0193346738815308,-3.1810832659350794
1708441072.1162753,-2.139832019805908,-1.3331253838590165,-2.5275428930865687,6.106384861260214,1.0193603038787842,-3.181390110646383
1708441072.1182358,-2.1397178173065186,-1.333141566520073,-2.5275760332690638,6.106315123825826,1.0193676948547363,-3.1817103067981165
1708441072.1202588,-2.1397762298583984,-1.3330391955426713,-2.5275264422046106,6.106276261597433,1.0193454027175903,-3.1820207277881067
1708441072.1222992,-2.1397790908813477,-1.3330725294402619,-2.527533833180563,6.106202947884359,1.019354224205017,-3.182328526173727
1708441072.1242507,-2.1397480964660645,-1.3331049245646973,-2.5275760332690638,6.106229054718771,1.019378423690796,-3.1826568285571497
1708441072.1262271,-2.139699935913086,-1.3331543666175385,-2.527533833180563,6.106200921326437,1.019385814666748,-3.1829353014575403
1708441072.1282415,-2.139683723449707,-1.3330844950727005,-2.527553383504049,6.106148946076193,1.0193649530410767,-3.183202330266134
1708441072.130233,-2.1396663188934326,-1.333048702483513,-2.527588192616598,6.106185781746664,1.0193812847137451,-3.183547083531515
1708441072.1322498,-2.139688014984131,-1.3330649000457306,-2.527591053639547,6.10608588436202,1.0194220542907715,-3.1837766806231897
1708441072.1342268,-2.139676570892334,-1.3330767911723633,-2.527574602757589,6.106053340225973,1.0194098949432373,-3.1841006914721888
1708441072.1362562,-2.139655590057373,-1.3330972653678437,-2.5276029745685022,6.106049763947286,1.0194592475891113,-3.1844242254840296
1708441072.1382253,-2.1396431922912598,-1.3330563616803666,-2.5276103655444544,6.106017339020529,1.0194756984710693,-3.184695545827047
1708441072.1402228,-2.139620304107666,-1.3330767911723633,-2.5276029745685022,6.106030452042379,1.0194205045700073,-3.18497878709902
1708441072.142246,-2.139599323272705,-1.3330811274102707,-2.5275984446154993,6.105933654099264,1.0194792747497559,-3.185331408177511
1708441072.144241,-2.139631748199463,-1.3330768209746857,-2.5276315847979944,6.105920541077413,1.0194956064224243,-3.185549561177389
1708441072.1462207,-2.1396210193634033,-1.333032490020134,-2.5276361147509974,6.105922567635336,1.019502878189087,-3.1858373324023646
1708441072.148217,-2.139586925506592,-1.3330896210721512,-2.5276344458209437,6.105890023499288,1.0194531679153442,-3.1861208120929163
1708441072.1502242,-2.1395840644836426,-1.3330444407514115,-2.5276179949389856,6.105894315033712,1.0194531679153442,-3.186368528996603
1708441072.1522536,-2.1395912170410156,-1.3330972653678437,-2.5276103655444544,6.1058175442512415,1.0194531679153442,-3.186688009892599
1708441072.1543016,-2.1395840644836426,-1.3330649000457306,-2.527642075215475,6.105858552246847,1.0194956064224243,-3.1869428793536585
1708441072.1563115,-2.1395955085754395,-1.3330563616803666,-2.5276344458209437,6.105826127320089,1.01947021484375,-3.1872227827655237
1708441072.1582906,-2.139603614807129,-1.3331015420011063,-2.5276601950274866,6.105838048249044,1.0194414854049683,-3.187469784413473
1708441072.1602614,-2.1395506858825684,-1.3330649000457306,-2.5276721159564417,6.10583924034194,1.0194792747497559,-3.187756363545553
1708441072.1623085,-2.1395673751831055,-1.3330572706511994,-2.5276299158679407,6.105793225556173,1.0194368362426758,-3.1880531946765345
1708441072.1642466,-2.1396079063415527,-1.333081067805626,-2.52760893503298,6.105813848763265,1.0194658041000366,-3.188324515019552
1708441072.1662743,-2.139570951461792,-1.3330160093358536,-2.527642075215475,6.105830418854513,1.01947021484375,-3.188596789036886
1708441072.1682515,-2.1396121978759766,-1.3331219416907807,-2.527707878743307,6.105793225556173,1.0194956064224243,-3.1888724009143274
1708441072.1702497,-2.1396210193634033,-1.333020271067955,-2.527695957814352,6.10583924034194,1.019491195678711,-3.189159933720724
1708441072.1723,-2.13962459564209,-1.3331014972976227,-2.527625385914938,6.105826961785116,1.019482135772705,-3.1893656889544886
1708441072.1742437,-2.1396334171295166,-1.3330734235099335,-2.5276675860034388,6.105859744339742,1.0195103883743286,-3.1897714773761194
1708441072.1762686,-2.1395912170410156,-1.3330896210721512,-2.5276675860034388,6.105793225556173,1.01947021484375,-3.189944569264547
1708441072.1782389,-2.1396000385284424,-1.3330938828042527,-2.527625385914938,6.105806338578024,1.0194865465164185,-3.190216604863302
1708441072.1802416,-2.139604330062866,-1.3330572259477158,-2.5276299158679407,6.105859744339742,1.0194658041000366,-3.19049579301943
1708441072.182297,-2.1396167278289795,-1.3330768209746857,-2.527613703404562,6.105806338578024,1.01947021484375,-3.1907640139209192
1708441072.1842914,-2.139604330062866,-1.333020271067955,-2.527679506932394,6.105834829598226,1.0194658041000366,-3.1910882631884974
1708441072.186266,-2.1396377086639404,-1.3330734235099335,-2.5276344458209437,6.105822551041403,1.019514799118042,-3.1913278738604944
1708441072.188232,-2.1395912170410156,-1.3330853444388886,-2.5275970141040247,6.105826961785116,1.0194613933563232,-3.1915863196002405
1708441072.1902282,-2.1396334171295166,-1.3330844652703782,-2.52760893503298,6.105785715370931,1.0194532871246338,-3.1918955484973353
1708441072.192284,-2.1396121978759766,-1.333048702483513,-2.5276511351214808,6.105830418854513,1.0195103883743286,-3.192112986241476
1708441072.1942396,-2.1395628452301025,-1.3330615025809784,-2.5276013056384485,6.105813848763265,1.0194532871246338,-3.192343775426046
1708441072.1962402,-2.1395795345306396,-1.3330282431891938,-2.5276928583728235,6.105818259506979,1.0194792747497559,-3.192632261906759
1708441072.198227,-2.1396121978759766,-1.3330649000457306,-2.5276854673968714,6.105887639313497,1.0194578170776367,-3.1928749720202845
1708441072.2002242,-2.1395912170410156,-1.3331262481263657,-2.5275896231280726,6.105846631317892,1.0194414854049683,-3.193138662968771
1708441072.2022655,-2.139616012573242,-1.3330896210721512,-2.5276675860034388,6.105857121735372,1.019491195678711,-3.193442408238546
1708441072.2042263,-2.1395795345306396,-1.3330444407514115,-2.5276556650744837,6.1058175442512415,1.0194458961486816,-3.193746868764059
1708441072.2062697,-2.139604330062866,-1.333036796455719,-2.5276299158679407,6.105874526291647,1.01946222782135,-3.1940136591540735
1708441072.2082734,-2.1396334171295166,-1.3330938828042527,-2.5276647249804896,6.10583375671462,1.019400954246521,-3.194289747868673
1708441072.2102427,-2.1396288871765137,-1.333057240848877,-2.5275774637805384,6.105873811035909,1.019417643547058,-3.19454795518984
1708441072.2122688,-2.139599323272705,-1.3330239814570923,-2.5275939146624964,6.105923640518942,1.0193527936935425,-3.1948373953448694
1708441072.2142427,-2.139664649963379,-1.3329912734082718,-2.5275939146624964,6.105890023499288,1.0193768739700317,-3.195042912160055
1708441072.2162473,-2.13955020904541,-1.3330529791167756,-2.5276103655444544,6.105906235962667,1.0193527936935425,-3.1953147093402308
1708441072.2182508,-2.1396403312683105,-1.333048702483513,-2.527649704610006,6.105890023499288,1.0193498134613037,-3.195599142705099
1708441072.2203026,-2.1395626068115234,-1.3330615025809784,-2.5276406447040003,6.105881321221151,1.01935875415802,-3.1958580652820032
1708441072.2223141,-2.139586925506592,-1.333072544341423,-2.5275774637805384,6.105839717179098,1.0192809104919434,-3.1961498896228235
1708441072.2242725,-2.13962459564209,-1.333020271067955,-2.527541224156515,6.1059467671211145,1.0192897319793701,-3.196393076573507
1708441072.2262497,-2.1396374702453613,-1.3330444407514115,-2.527600113545553,6.105937945633688,1.0193195343017578,-3.196721140538351
1708441072.2282767,-2.1396121978759766,-1.3331177246621628,-2.5275760332690638,6.105991112976827,1.0192700624465942,-3.1969555060016077
1708441072.230246,-2.1395795345306396,-1.3331134629300614,-2.5275638739215296,6.106019246369161,1.0192537307739258,-3.1973088423358362
1708441072.2322366,-2.139575242996216,-1.3331015569022675,-2.5275805632220667,6.105995523720541,1.0192203521728516,-3.197550360356466
1708441072.2342792,-2.1395585536956787,-1.333105818634369,-2.5275355021106165,6.105949866562643,1.0192582607269287,-3.1978495756732386
1708441072.236223,-2.139571189880371,-1.3330810827067872,-2.5275309721576136,6.105946647911825,1.0191967487335205,-3.198197905217306
1708441072.238254,-2.1396474838256836,-1.3330649000457306,-2.5275474230395716,6.105954158097067,1.0191892385482788,-3.1984573046313685
1708441072.2402487,-2.1395840644836426,-1.3330972653678437,-2.5275071302997034,6.1060062525566,1.019186019897461,-3.1987081209765833
1708441072.242248,-2.1396560668945312,-1.333072544341423,-2.5274952093707483,6.105924951821127,1.0191410779953003,-3.1990469137774866
1708441072.2442484,-2.1395912170410156,-1.3330853146365662,-2.5275383631335657,6.105936872750082,1.0191588401794434,-3.1993029753314417
1708441072.2462418,-2.139586925506592,-1.333088756804802,-2.5275309721576136,6.10595856884078,1.0190597772598267,-3.1996400992022913
1708441072.2482786,-2.1396491527557373,-1.3330606085113068,-2.5275026003467005,6.105908739357748,1.0191015005111694,-3.1999271551715296
1708441072.2502437,-2.139554262161255,-1.333069072370865,-2.5275638739215296,6.10598241069869,1.0190658569335938,-3.2002177874194544
1708441072.2522702,-2.1396288871765137,-1.3331006628325959,-2.5275190512286585,6.105949866562643,1.0190328359603882,-3.2004733721362513
1708441072.2543175,-2.1395883560180664,-1.3330649000457306,-2.527461830769674,6.105928051262655,1.0189712047576904,-3.2007773558246058
1708441072.256367,-2.1396079063415527,-1.33310158670459,-2.527487341557638,6.105933654099264,1.0189964771270752,-3.2010608355151575
1708441072.258353,-2.1396000385284424,-1.3331253838590165,-2.527454439793722,6.105949866562643,1.0190054178237915,-3.2013641039477747
1708441072.2603493,-2.1395392417907715,-1.3330649000457306,-2.527437988911764,6.105926024704733,1.018965244293213,-3.2016637961017054
1708441072.2623696,-2.1395840644836426,-1.333133877520897,-2.527487341557638,6.105937945633688,1.0189201831817627,-3.202019278203146
1708441072.2643292,-2.139523506164551,-1.333103985791542,-2.527458969746725,6.105975138932028,1.0189049243927002,-3.2022536436664026
1708441072.266289,-2.13956356048584,-1.3331244450858613,-2.5274680296527308,6.105901944428243,1.0188930034637451,-3.2026177088366907
1708441072.2682748,-2.1394588947296143,-1.3331168305924912,-2.527458969746725,6.105890023499288,1.0188766717910767,-3.202912155781881
1708441072.270263,-2.139442205429077,-1.3331211072257538,-2.527414147053854,6.105930435448446,1.0188196897506714,-3.2032130400287073
1708441072.2722437,-2.1394553184509277,-1.3330802035382767,-2.5274680296527308,6.105898844986715,1.0187954902648926,-3.2035284678088587
1708441072.2743733,-2.1394200325012207,-1.3331538301757355,-2.5274441877948206,6.105841266899862,1.0187803506851196,-3.2037957350360315
1708441072.27626,-2.1394119262695312,-1.333103985791542,-2.5273945967303675,6.105891096382894,1.018747329711914,-3.2041102091418665
1708441072.2782567,-2.139375686645508,-1.3330963861993332,-2.5273779074298304,6.105790126114645,1.0187276601791382,-3.2044337431537073
1708441072.2802396,-2.1393446922302246,-1.333201752310135,-2.5273733774768274,6.105790126114645,1.018703579902649,-3.2047134081469935
1708441072.2822306,-2.1392672061920166,-1.333181918864586,-2.5274036566363733,6.105774628907003,1.0187005996704102,-3.2050328890429896
1708441072.284248,-2.139281749725342,-1.3331647974303742,-2.527412716542379,6.105712759285726,1.018705129623413,-3.205359999333517
1708441072.2862241,-2.139232635498047,-1.3331647676280518,-2.52735406557192,6.105738866120138,1.018676519393921,-3.2057207266436976
1708441072.2882264,-2.139193534851074,-1.3331769120744248,-2.527346436177389,6.105698811798849,1.0186524391174316,-3.2060022989856165
1708441072.2902431,-2.139120578765869,-1.3331528466990967,-2.5273659865008753,6.105621325760641,1.018613576889038,-3.2063022295581263
1708441072.2922323,-2.1390771865844727,-1.3331604909947892,-2.527317825947897,6.105577933579244,1.0186012983322144,-3.2066577116595667
1708441072.2942317,-2.1390128135681152,-1.3331442189267655,-2.5273223559008997,6.105554091721334,1.0185352563858032,-3.2070093790637415
1708441072.296231,-2.1389567852020264,-1.3331519675305863,-2.527334515248434,6.105454194336691,1.0185203552246094,-3.207287613545553
1708441072.2982233,-2.1389050483703613,-1.3331919324449082,-2.527339045201437,6.1054149744804285,1.0184707641601562,-3.207684580479757
1708441072.3002357,-2.138828992843628,-1.3332417172244568,-2.527339045201437,6.105389106064596,1.0184391736984253,-3.2079957167254847
1708441072.3022459,-2.1387901306152344,-1.3332124513438721,-2.5273149649249476,6.105250823288717,1.0184240341186523,-3.208338801060812
1708441072.304228,-2.138746738433838,-1.3331995916417618,-2.5273223559008997,6.1051509259040735,1.0183836221694946,-3.2086010614978235
1708441072.3062272,-2.1386120319366455,-1.333321989779808,-2.5272985140429896,6.105124699860372,1.0183672904968262,-3.2089806238757532
1708441072.3083043,-2.138540744781494,-1.3332193803838273,-2.5273359457599085,6.104991185456075,1.0183383226394653,-3.209365193043844
1708441072.3102493,-2.1385059356689453,-1.333272562628128,-2.5272491613971155,6.104899513512411,1.0182652473449707,-3.2096634546863
1708441072.3122635,-2.1383895874023438,-1.3332603883794327,-2.5273149649249476,6.104759561806478,1.018270492553711,-3.2100113073932093
1708441072.314273,-2.1383140087127686,-1.333264024262764,-2.5273030439959925,6.104664790421285,1.0182616710662842,-3.2103799025165003
1708441072.3162322,-2.138230323791504,-1.3333407205394288,-2.5273075739489954,6.104569184571066,1.0182512998580933,-3.210759703313009
1708441072.318237,-2.1381378173828125,-1.3333278608373185,-2.5272865931140345,6.104466068535604,1.018210768699646,-3.21110183397402
1708441072.3202386,-2.138091564178467,-1.3333244931748887,-2.527250353490011,6.104317891388693,1.0182030200958252,-3.2114694754229944
1708441072.3222861,-2.137958526611328,-1.333368108873703,-2.5272792021380823,6.1041778204734705,1.018178939819336,-3.2118528524981897
1708441072.324282,-2.1378631591796875,-1.3333758425763627,-2.527254883443014,6.104046571045675,1.0181385278701782,-3.212163035069601
1708441072.3262503,-2.137775182723999,-1.3334817004254838,-2.52722937265505,6.103906976967611,1.0180935859680176,-3.2126081625567835
1708441072.3282392,-2.1376588344573975,-1.3334361624768754,-2.527259413396017,6.1037428257759,1.0181277990341187,-3.2128856817828577
1708441072.3302357,-2.1375486850738525,-1.3334106367877503,-2.527238432561056,6.103579032212057,1.0180420875549316,-3.2132912317859095
1708441072.3322387,-2.1373584270477295,-1.333483250146248,-2.527254883443014,6.103374111443319,1.0179731845855713,-3.2136316935168665
1708441072.3342638,-2.1372668743133545,-1.3334670674851914,-2.52722937265505,6.103272068291464,1.0179624557495117,-3.2140000502215784
1708441072.3362439,-2.1371889114379883,-1.333531768327095,-2.527304712926046,6.103088605194845,1.0179580450057983,-3.214423481618063
1708441072.3382375,-2.137061357498169,-1.3335680079511185,-2.5272026697741907,6.102944719582357,1.017926812171936,-3.2147226969348353
1708441072.3402483,-2.1368889808654785,-1.3336048436215897,-2.527214590703146,6.10277413108901,1.0179024934768677,-3.215125862752096
1708441072.342237,-2.1367616653442383,-1.3335593205741425,-2.5272191206561487,6.102562296181478,1.0178709030151367,-3.2154532114612024
1708441072.3442247,-2.1365973949432373,-1.3335920584252854,-2.5272355715381067,6.1023632166679285,1.017830491065979,-3.2159090677844446
1708441072.3462272,-2.136478900909424,-1.3335987639478226,-2.527226511632101,6.102191555290975,1.017786979675293,-3.216248099003927
1708441072.3482351,-2.1363027095794678,-1.3336103570512314,-2.527210060750143,6.101988065033712,1.0177626609802246,-3.2166104952441614
1708441072.350233,-2.13616681098938,-1.3336796474507828,-2.527231041585104,6.1017565605934045,1.01768958568573,-3.217033926640646
1708441072.352295,-2.136014699935913,-1.3336540174535294,-2.5272191206561487,6.1015455601509,1.0176398754119873,-3.2174375692950647
1708441072.35431,-2.1358225345611572,-1.3337190312198182,-2.5272355715381067,6.101321804314413,1.0176681280136108,-3.2177725473987024
1708441072.3563335,-2.1356799602508545,-1.3337267351201554,-2.527247492467062,6.1010674116905115,1.0175763368606567,-3.2181552092181605
1708441072.3582985,-2.135504722595215,-1.3337676686099549,-2.527226511632101,6.100807297020712,1.0175659656524658,-3.21857196489443
1708441072.360256,-2.1353437900543213,-1.3337300431779404,-2.527247492467062,6.100616085320272,1.017537236213684,-3.2189016977893274
1708441072.3623028,-2.1352150440216064,-1.3337788593820115,-2.5272071997271937,6.100412714272299,1.0175386667251587,-3.219273392354147
1708441072.3642476,-2.1349780559539795,-1.3338396710208436,-2.5272026697741907,6.1001824019248865,1.0174819231033325,-3.2196529547320765
1708441072.366251,-2.134782314300537,-1.333810643558838,-2.527285401021139,6.099935638695516,1.0174130201339722,-3.2200163046466272
1708441072.3682451,-2.1345860958099365,-1.333822564487793,-2.5272117296801966,6.099727976113119,1.0173633098602295,-3.2203877607928675
1708441072.3702781,-2.134382486343384,-1.3339034479907532,-2.5271952787982386,6.099380242615499,1.0173659324645996,-3.2208107153521937
1708441072.3723245,-2.1342313289642334,-1.333898351793625,-2.5272191206561487,6.099149453430929,1.0172998905181885,-3.221271340047018
1708441072.3742568,-2.134000062942505,-1.333918185239174,-2.5272191206561487,6.098893987923422,1.0172609090805054,-3.2216673533069056
1708441072.3762531,-2.1338279247283936,-1.3339097660830994,-2.5272701422320765,6.0986190913017175,1.0172621011734009,-3.222046438847677
1708441072.378233,-2.1336050033569336,-1.3340272170356293,-2.5271998087512415,6.0982820866401575,1.0172216892242432,-3.2223969141589563
1708441072.380215,-2.1334331035614014,-1.3339735281518479,-2.527198139821188,6.098061430245199,1.0171902179718018,-3.2227512041675013
1708441072.3822465,-2.1331937313079834,-1.3340138059905549,-2.5272565523730677,6.097740518837728,1.0171538591384888,-3.223217312489645
1708441072.3842428,-2.132969617843628,-1.3340982508710404,-2.5272071997271937,6.097450363426962,1.0171136856079102,-3.2235596815692347
1708441072.386241,-2.1327555179595947,-1.3341016632369538,-2.5272610823260706,6.097074496537008,1.0170191526412964,-3.2239626089679163
1708441072.38823,-2.1325137615203857,-1.3341255497983475,-2.527198139821188,6.096824276238241,1.0169590711593628,-3.224297110234396
1708441072.39023,-2.1322712898254395,-1.3341496002725144,-2.5272026697741907,6.0965144512946985,1.0169469118118286,-3.224701229725973
1708441072.3922462,-2.1320512294769287,-1.3342140924981614,-2.5272236506091517,6.096248137741842,1.0169451236724854,-3.225093428288595
1708441072.394238,-2.1318020820617676,-1.3342579764178772,-2.5272236506091517,6.0959359286125085,1.0168927907943726,-3.2254930178271692
1708441072.396253,-2.1316447257995605,-1.3342571270516892,-2.5272520224200647,6.095610010414877,1.0168356895446777,-3.225900713597433
1708441072.398231,-2.131363868713379,-1.3343458634665986,-2.5272236506091517,6.095257508545675,1.0168037414550781,-3.2262874285327356
1708441072.4002278,-2.1311631202697754,-1.3343577843955536,-2.527198139821188,6.094906437187948,1.0167813301086426,-3.226649586354391
1708441072.402263,-2.1308791637420654,-1.3343043190291901,-2.5272191206561487,6.094575869828024,1.0167529582977295,-3.227021042500631
1708441072.4042325,-2.130594491958618,-1.3344049614718934,-2.5272236506091517,6.094236838608541,1.0166596174240112,-3.2274168173419397
1708441072.406254,-2.1303606033325195,-1.334436447625496,-2.5271907488452356,6.093829023628988,1.016623616218567,-3.227816406880514
1708441072.408342,-2.1300768852233887,-1.3344882142594834,-2.5271604696856897,6.093515860825338,1.0165921449661255,-3.228215758000509
1708441072.4102685,-2.1298205852508545,-1.334544153218605,-2.5272191206561487,6.093173730164327,1.0165647268295288,-3.228591505681173
1708441072.4122744,-2.1294968128204346,-1.334576429133751,-2.5272191206561487,6.092769849091329,1.0164541006088257,-3.2289746443377894
1708441072.414265,-2.1292450428009033,-1.3346321296742936,-2.5272117296801966,6.092471110611715,1.0164071321487427,-3.2294190565692347
1708441072.416254,-2.1289665699005127,-1.3346517396024247,-2.5272355715381067,6.092092740326681,1.016383409500122,-3.2297733465777796
1708441072.418238,-2.1287033557891846,-1.3347607117942353,-2.5272236506091517,6.091689336090841,1.0162975788116455,-3.23023230234255
1708441072.4202402,-2.128387689590454,-1.3347557497075577,-2.5272401014911097,6.091282593994894,1.0162837505340576,-3.2305410544024866
1708441072.4223073,-2.1280970573425293,-1.3347949099591752,-2.5272565523730677,6.090846764832296,1.0162643194198608,-3.2310269514666956
1708441072.4242744,-2.1278343200683594,-1.3348387789777298,-2.527231041585104,6.090501177101888,1.0161832571029663,-3.2313054243670862
1708441072.4262564,-2.127592086791992,-1.334906966691353,-2.5272520224200647,6.090109932213583,1.0161467790603638,-3.231668297444479
1708441072.4282248,-2.1272435188293457,-1.334930346613266,-2.5272355715381067,6.089670884400167,1.0160629749298096,-3.232067886983053
1708441072.4302375,-2.1269266605377197,-1.3349986386350174,-2.527221981679098,6.089300739556112,1.0159729719161987,-3.232471768056051
1708441072.4322903,-2.1265950202941895,-1.3350701195052643,-2.52722937265505,6.0888322470481775,1.0159473419189453,-3.232835117970602
1708441072.4342694,-2.126340627670288,-1.3351912808469315,-2.527198139821188,6.088496434479513,1.0159111022949219,-3.2332432905780237
1708441072.4362683,-2.126009702682495,-1.3352466982654114,-2.527247492467062,6.088029014855184,1.0158045291900635,-3.2336631456958216
1708441072.438244,-2.1257073879241943,-1.3352572929910203,-2.527242962514059,6.087594139366903,1.0157415866851807,-3.2339966932879847
1708441072.4402351,-2.125358819961548,-1.335357980137207,-2.5272672812091272,6.087139594345846,1.0156934261322021,-3.2344089190112513
1708441072.4422495,-2.125039577484131,-1.3354416501573105,-2.527250353490011,6.086697566300192,1.0156663656234741,-3.2348161379443567
1708441072.4442203,-2.124720811843872,-1.3355295223048707,-2.527288262044088,6.086307275086202,1.015602946281433,-3.2351725737201136
1708441072.4462593,-2.124394416809082,-1.335577206020691,-2.527288262044088,6.08590196350173,1.0155086517333984,-3.235560719166891
1708441072.4482498,-2.124030351638794,-1.3356933903745194,-2.5272627512561243,6.085455167084493,1.0154527425765991,-3.2358902136432093
1708441072.450238,-2.123694658279419,-1.3357525181821366,-2.527309242879049,6.084983336716451,1.0153719186782837,-3.2363558451281946
1708441072.4522803,-2.123364210128784,-1.335832030778267,-2.5272865931140345,6.084541904717245,1.0152920484542847,-3.2366581598864954
1708441072.454288,-2.1230101585388184,-1.3359156858972092,-2.5273121039019983,6.084058987885275,1.0152831077575684,-3.2370453516589563
1708441072.4563427,-2.1226537227630615,-1.3360480976155777,-2.5273059050189417,6.083597886353292,1.0151928663253784,-3.2374330202685755
1708441072.4583137,-2.1222410202026367,-1.33608994007621,-2.5273435751544397,6.0830774185951135,1.0151536464691162,-3.237772289906637
1708441072.4603486,-2.121971845626831,-1.3361779016307374,-2.5273600260363978,6.082680094033041,1.0150519609451294,-3.238164726887838
1708441072.4623113,-2.121608257293701,-1.336289868955948,-2.527400557194845,6.08220540264205,1.0150004625320435,-3.2385194937335413
1708441072.4643002,-2.1212410926818848,-1.3364016276649018,-2.5273945967303675,6.081697451859274,1.0148955583572388,-3.2388959566699427
1708441072.4662452,-2.1208786964416504,-1.3365217459252854,-2.527358595524923,6.081256139069357,1.0148158073425293,-3.239250961934225
1708441072.4682343,-2.1204540729522705,-1.336654157643654,-2.5273991266833704,6.080720054894247,1.0147422552108765,-3.2396019140826624
1708441072.470282,-2.1201109886169434,-1.336748943930008,-2.5273900667773646,6.080247390061178,1.0146957635879517,-3.2399819532977503
1708441072.4724736,-2.119678497314453,-1.3369292628816147,-2.5274277369128626,6.079736339836874,1.0146560668945312,-3.240410629902975
1708441072.4743488,-2.119311571121216,-1.336992622619011,-2.527458969746725,6.079267966538229,1.0145301818847656,-3.240716044102804
1708441072.476279,-2.11893630027771,-1.3371162724545975,-2.52744704881777,6.078711259156027,1.0144579410552979,-3.2410317103015345
1708441072.478262,-2.118587017059326,-1.3372401905110856,-2.527487341557638,6.078318702965536,1.0143905878067017,-3.2413676420794886
1708441072.480251,-2.118175506591797,-1.337391809826233,-2.5274861494647425,6.077803241997518,1.0143183469772339,-3.241755549107687
1708441072.482261,-2.117765188217163,-1.3374624860337754,-2.5274997393237513,6.077308761864462,1.0142744779586792,-3.242126766835348
1708441072.4843054,-2.1173079013824463,-1.3375702810338517,-2.5275638739215296,6.076814996987142,1.014173984527588,-3.2424901167498987
1708441072.4862475,-2.1169700622558594,-1.3376972836307068,-2.5275805632220667,6.076271760254659,1.0140899419784546,-3.2428906599627894
1708441072.4882658,-2.1165103912353516,-1.3378789138844986,-2.5275474230395716,6.075765836029806,1.0140714645385742,-3.2431979815112513
1708441072.4902444,-2.116142988204956,-1.3379692894271393,-2.5275264422046106,6.07518361785964,1.013933777809143,-3.2435413042651575
1708441072.492244,-2.1157076358795166,-1.338085637693741,-2.527604643498556,6.074681269913473,1.0138462781906128,-3.2438605467425745
1708441072.4942825,-2.115342617034912,-1.3382159930518647,-2.5276029745685022,6.0741625902946375,1.0138014554977417,-3.2441545168506067
1708441072.4962444,-2.114859104156494,-1.3383105111173172,-2.5276194254504603,6.073698508530416,1.0137053728103638,-3.244532648717062
1708441072.4982457,-2.114447593688965,-1.3384792518666764,-2.5276435057269495,6.073146331101217,1.0136330127716064,-3.2448063532458704
1708441072.5002358,-2.1140084266662598,-1.3385860335877915,-2.527663056050436,6.072665560036459,1.0135440826416016,-3.2451475302325647
1708441072.5022333,-2.1135599613189697,-1.3387659800103684,-2.527670447026388,6.0721473572547815,1.0135022401809692,-3.2454543749438685
1708441072.5042427,-2.113154172897339,-1.33889755726371,-2.5277650992022913,6.07169400432662,1.0133683681488037,-3.2457383314715784
1708441072.5062358,-2.1126952171325684,-1.339083732371666,-2.5277186075793665,6.071143376618185,1.0133053064346313,-3.246040646229879
1708441072.508269,-2.112297773361206,-1.3391933155110856,-2.5277589003192347,6.070604431420126,1.0132571458816528,-3.246300284062521
1708441072.5102744,-2.111813545227051,-1.3393660497716446,-2.5277798811541956,6.070098268776693,1.0131118297576904,-3.2465627829181116
1708441072.512287,-2.1113922595977783,-1.3394674819758912,-2.527787510548727,6.069524752884664,1.0130603313446045,-3.246882979069845
1708441072.5143054,-2.1108908653259277,-1.3396311861327668,-2.5278354326831263,6.068966495781698,1.0129683017730713,-3.2471798102008265
1708441072.5162842,-2.1104683876037598,-1.3398238283446808,-2.5278459231006067,6.0684325573738,1.0128514766693115,-3.247479025517599
1708441072.5182743,-2.110006332397461,-1.33998358369384,-2.527911965047018,6.067934739380636,1.0128498077392578,-3.2477429548846644
1708441072.5202646,-2.109584093093872,-1.340141938333847,-2.527952257786886,6.067413079529562,1.012738823890686,-3.2480464617358606
1708441072.5222902,-2.1091413497924805,-1.3402900856784363,-2.5279601255999964,6.0668914196784876,1.0126395225524902,-3.248277727757589
1708441072.524348,-2.108644723892212,-1.340412126188614,-2.5280049482928675,6.066345679550924,1.0125927925109863,-3.2486353556262415
1708441072.5262725,-2.108158588409424,-1.3405845177224656,-2.5280290285693567,6.06581591346816,1.0124503374099731,-3.24886137643923
1708441072.5282495,-2.1076388359069824,-1.340772808795311,-2.528065029774801,6.065156209259786,1.0123419761657715,-3.24912935892214
1708441072.530233,-2.1071436405181885,-1.3409390461495896,-2.5280633608447474,6.064606535225668,1.0122995376586914,-3.2493887583362024
1708441072.5322351,-2.106645107269287,-1.3411391836455842,-2.5280993620501917,6.064092862396993,1.0121619701385498,-3.2496524492846888
1708441072.534276,-2.1062231063842773,-1.3413498413613816,-2.528135363255636,6.063548433571615,1.0120774507522583,-3.2499170939074915
1708441072.536276,-2.105696439743042,-1.34156188488517,-2.528159205113546,6.062924372940817,1.0119738578796387,-3.250094715748922
1708441072.538278,-2.105208158493042,-1.3417530220798035,-2.5282283465014856,6.062403666764059,1.0119632482528687,-3.2503801027881067
1708441072.5402482,-2.1046621799468994,-1.3419283640435715,-2.528231207524435,6.061829554825582,1.0118790864944458,-3.2506189982043665
1708441072.5422878,-2.1041643619537354,-1.3421075505069275,-2.5282793680774134,6.061226951866903,1.011752963066101,-3.2508018652545374
1708441072.5442703,-2.10365629196167,-1.3423598122647782,-2.5283153692828577,6.0606573698814294,1.0117014646530151,-3.251049820576803
1708441072.5462568,-2.1031124591827393,-1.3425043684295197,-2.528310839329855,6.060030567436971,1.011613130569458,-3.2512529532061976
1708441072.548297,-2.1026108264923096,-1.3427360963872452,-2.528396193181173,6.059391248017111,1.011512279510498,-3.2515013853656214
1708441072.5502758,-2.102083206176758,-1.3430099499276658,-2.5284324328051966,6.058846819191732,1.0114208459854126,-3.251704994832174
1708441072.55225,-2.101606845855713,-1.3432000142386933,-2.528484884892599,6.058218943863668,1.011360764503479,-3.251936737691061
1708441072.5542746,-2.101033926010132,-1.3433818531087418,-2.5285356680499476,6.05766116359786,1.0112838745117188,-3.252119843159811
1708441072.5563076,-2.1005046367645264,-1.3436545741609116,-2.528597418461935,6.057059514313497,1.011147141456604,-3.252347771321432
1708441072.5583334,-2.099951982498169,-1.3438784045032044,-2.5286241213427942,6.056438076287069,1.0110751390457153,-3.252547089253561
1708441072.560303,-2.0994348526000977,-1.3441130977920075,-2.528651301060812,6.055848228722372,1.0110118389129639,-3.2527716795550745
1708441072.5622938,-2.0988309383392334,-1.3444185566953202,-2.528682533894674,6.055181848793783,1.0109083652496338,-3.25297981897463
1708441072.5643146,-2.098313093185425,-1.3446373653462906,-2.5287728945361536,6.054514157563009,1.010819435119629,-3.253134552632467
1708441072.5662684,-2.09771728515625,-1.344798208480217,-2.528804365788595,6.0539166806037805,1.0107426643371582,-3.2533143202411097
1708441072.568269,-2.0971269607543945,-1.3450372827104111,-2.5288808981524866,6.0532617447669885,1.0106722116470337,-3.2535093466388147
1708441072.570273,-2.096559524536133,-1.3452884566834946,-2.5289529005633753,6.0526572344596765,1.0105758905410767,-3.2537508646594446
1708441072.5723228,-2.096013069152832,-1.3455492419055481,-2.5289841333972376,6.051994907646932,1.0104573965072632,-3.253836218510763
1708441072.574334,-2.0954017639160156,-1.3458118599704285,-2.529036823903219,6.051335322647848,1.0103989839553833,-3.2540040651904505
1708441072.5762742,-2.0948357582092285,-1.3460263770869751,-2.5290754477130335,6.050705659180441,1.0102981328964233,-3.2542339007007044
1708441072.5782506,-2.094322443008423,-1.3462902468493958,-2.5291431585894983,6.050084340363302,1.0102547407150269,-3.254368607197897
1708441072.5802479,-2.093634843826294,-1.3465166252902527,-2.5292120615588587,6.049393641739645,1.0100759267807007,-3.2545321623431605
1708441072.5822494,-2.093057155609131,-1.3467838031104584,-2.529285494481222,6.04868363121108,1.0100619792938232,-3.254651133214132
1708441072.5843115,-2.0924582481384277,-1.3470392388156434,-2.529344145451681,6.048089849739828,1.0099539756774902,-3.2548189798938196
1708441072.5862613,-2.091778516769409,-1.3473510903171082,-2.5294416586505335,6.047394621163168,1.0098369121551514,-3.2549460569964808
1708441072.5882573,-2.091196298599243,-1.3475123059800644,-2.529496971760885,6.0468389866645715,1.009823203086853,-3.2551282087909144
1708441072.5902386,-2.090611219406128,-1.3477829706719895,-2.529560152684347,6.0461593745048425,1.0097179412841797,-3.2551773230182093
1708441072.5922456,-2.0899758338928223,-1.3480794590762635,-2.5296171347247522,6.045512902527609,1.0096545219421387,-3.2553251425372522
1708441072.5942335,-2.089348077774048,-1.3483503025821229,-2.5296815077411097,6.044823395996847,1.009554147720337,-3.2554331461535853
1708441072.596269,-2.088707447052002,-1.3485526752522965,-2.529687468205587,6.044149505883016,1.0094817876815796,-3.2556095759021204
1708441072.5982833,-2.088111400604248,-1.3488437247327347,-2.529764000569479,6.043512093811788,1.009384274482727,-3.2557054201709192
1708441072.6002593,-2.0874154567718506,-1.3491449368051072,-2.5298193136798304,6.04281364658431,1.009342074394226,-3.2558773199664515
1708441072.6022425,-2.0868148803710938,-1.3493907463601609,-2.5299034754382532,6.042151319771566,1.0092207193374634,-3.2559571901904505
1708441072.604227,-2.086127519607544,-1.34966595590625,-2.5299797693835657,6.041408765106954,1.0091978311538696,-3.2561185995685022
1708441072.6062386,-2.085484027862549,-1.3499038231423874,-2.530048910771505,6.040783989220419,1.009056568145752,-3.256169382725851
1708441072.608297,-2.0848441123962402,-1.350187287931778,-2.5301571528064173,6.040069210320272,1.008996844291687,-3.2562974135028284
1708441072.6102931,-2.0841798782348633,-1.3505122524550934,-2.5302165190326136,6.039447176247396,1.0088704824447632,-3.256429974232809
1708441072.6122665,-2.083516836166382,-1.3507538449815293,-2.530308548604147,6.038711535721578,1.0088207721710205,-3.2565329710589808
1708441072.614289,-2.082895040512085,-1.3510654431632538,-2.530339781438009,6.038091408997335,1.0087724924087524,-3.2566331068622034
1708441072.6162412,-2.0822207927703857,-1.3513558369925995,-2.530435625706808,6.037377464562216,1.0086301565170288,-3.2567570845233362
1708441072.618277,-2.081566572189331,-1.3516526383212586,-2.5304957071887415,6.036687123566427,1.008530855178833,-3.256782833729879
1708441072.6202564,-2.0808651447296143,-1.3519220662168046,-2.530555788670675,6.0359569666679285,1.0085363388061523,-3.256908718739645
1708441072.6222985,-2.080207109451294,-1.352273405795433,-2.5306277910815638,6.035364019661703,1.0084328651428223,-3.2569387594806116
1708441072.6243508,-2.0795443058013916,-1.3525353831103821,-2.5307117144214075,6.034616815834799,1.0083669424057007,-3.2570346037494105
1708441072.6262715,-2.0788328647613525,-1.3527899247458954,-2.5307820479022425,6.033961999207296,1.0082708597183228,-3.257098976765768
1708441072.6282394,-2.0781795978546143,-1.3531379860690613,-2.530891720448629,6.033297168999471,1.008247971534729,-3.257228676472799
1708441072.6302438,-2.077530860900879,-1.3534005147269745,-2.530968252812521,6.032644259720602,1.0081682205200195,-3.257235113774435
1708441072.632258,-2.076836347579956,-1.3537116360715409,-2.5310402552234095,6.031904208451071,1.0080662965774536,-3.257376019154684
1708441072.634305,-2.07612943649292,-1.3540427696755906,-2.5311196486102503,6.031267750054159,1.007968783378601,-3.2573865095721644
1708441072.6362782,-2.0754270553588867,-1.3543504786542435,-2.531165901814596,6.030517685204305,1.007974624633789,-3.257446829472677
1708441072.638237,-2.0746476650238037,-1.3546973925879975,-2.531299654637472,6.029766309052267,1.00790274143219,-3.257547918950216
1708441072.64028,-2.0739426612854004,-1.354991928940155,-2.531346146260397,6.0290846703346155,1.0078586339950562,-3.257582489644186
1708441072.6422431,-2.073273181915283,-1.3552940350821991,-2.5314555803882044,6.028310763626852,1.007782220840454,-3.2576428095446985
1708441072.6442215,-2.072530746459961,-1.3556009244969864,-2.531576935444967,6.027585375099935,1.0077581405639648,-3.2576943079577845
1708441072.6462386,-2.0718815326690674,-1.3558946412852784,-2.531693998967306,6.026907908707418,1.007723331451416,-3.2577579657184046
1708441072.6482463,-2.071186065673828,-1.356235758667328,-2.531759802495138,6.026250350266256,1.0076050758361816,-3.257761303578512
1708441072.6502588,-2.070449113845825,-1.3564976167729874,-2.531860415135519,6.025522458344259,1.0075494050979614,-3.257818047200338
1708441072.652261,-2.069690465927124,-1.3567791891149064,-2.5319610277758997,6.024730789452352,1.0074355602264404,-3.2578538099872034
1708441072.65425,-2.068955659866333,-1.3572138261846085,-2.5320690313922327,6.023920166283407,1.0074334144592285,-3.2578890959369105
1708441072.656317,-2.0682389736175537,-1.357454926972725,-2.5321019331561487,6.023154723435201,1.007422924041748,-3.2579410711871546
1708441072.6583505,-2.0675084590911865,-1.3578379613212128,-2.5322306791888636,6.022481667786398,1.0073299407958984,-3.257981602345602
1708441072.6603928,-2.0668184757232666,-1.3581207704595109,-2.5323644320117396,6.021675455361166,1.007289171218872,-3.257973019276754
1708441072.6623385,-2.0660316944122314,-1.3584561508945008,-2.5324228445636194,6.020969021111288,1.007207989692688,-3.2580493132220667
1708441072.6643534,-2.0653038024902344,-1.3587338489345093,-2.532523218785421,6.0201912997062585,1.0071812868118286,-3.258073155079977
1708441072.666268,-2.0645549297332764,-1.3590322744897385,-2.532619301472799,6.019502627640524,1.0070955753326416,-3.2581382433520716
1708441072.6683018,-2.063825845718384,-1.3593708884767075,-2.532776657735006,6.018687236099996,1.0071178674697876,-3.2581003347979944
1708441072.670261,-2.063016891479492,-1.359694556598999,-2.532851759587423,6.017999636917867,1.007107138633728,-3.258129421864645
1708441072.6722724,-2.0622458457946777,-1.3601228159717103,-2.5329507032977503,6.017135250359335,1.0069973468780518,-3.258137051259176
1708441072.6744094,-2.061413526535034,-1.3603599232486268,-2.533117119465963,6.016447889595785,1.0070395469665527,-3.2581937948810022
1708441072.6763504,-2.0606436729431152,-1.3606905353120347,-2.533180300389425,6.015653598099508,1.0069539546966553,-3.2581852118121546
1708441072.6783006,-2.059906482696533,-1.361036868100502,-2.5333316961871546,6.014863002091207,1.0068761110305786,-3.2582090536700647
1708441072.6802719,-2.059088706970215,-1.3613977295211335,-2.5334110895739954,6.014155137329855,1.0068938732147217,-3.2582746187793177
1708441072.6822817,-2.0583715438842773,-1.3616827142289658,-2.5335310141192835,6.013355242996969,1.006817102432251,-3.258254114781515
1708441072.6842763,-2.0575029850006104,-1.3620187205127259,-2.5336840788470667,6.01256679275588,1.006788969039917,-3.258261505757467
1708441072.6862488,-2.056699514389038,-1.3623131078532715,-2.5337379614459437,6.011816727906027,1.0067481994628906,-3.2582529226886194
1708441072.688245,-2.0558853149414062,-1.3626677256873627,-2.5339494387256067,6.010921704560079,1.006719946861267,-3.258273426686422
1708441072.6902454,-2.055021286010742,-1.3630556923202057,-2.534055773411886,6.010125624924459,1.0067332983016968,-3.258184258137838
1708441072.6922512,-2.0541529655456543,-1.3633907300284882,-2.5342255274402063,6.009320843010702,1.0066925287246704,-3.25822097459902
1708441072.6942456,-2.0533273220062256,-1.3637250822833558,-2.5343363920794886,6.008511173516073,1.0066759586334229,-3.25822097459902
1708441072.6962574,-2.052504062652588,-1.3640157741359253,-2.5344727675067347,6.007661092072286,1.0066684484481812,-3.258233610783712
1708441072.6982453,-2.0516867637634277,-1.3643276554397126,-2.534583870564596,6.006953465729513,1.0066277980804443,-3.2582078615771692
1708441072.700237,-2.0508029460906982,-1.3647101682475586,-2.53467828432192,6.006039964943685,1.0066535472869873,-3.258212153111593
1708441072.7022514,-2.049940347671509,-1.365031973724701,-2.5348671118365687,6.005286323815145,1.0066099166870117,-3.25822097459902
1708441072.7042356,-2.0490434169769287,-1.3653823149255295,-2.535032097493307,6.00438021400527,1.006560206413269,-3.25822097459902
1708441072.7062407,-2.048173189163208,-1.3657167267850419,-2.53518516222109,6.003517496376791,1.0066173076629639,-3.2582078615771692
1708441072.7083125,-2.047290086746216,-1.36613321424041,-2.5352869669543665,6.0027211783225916,1.0065813064575195,-3.2582204977618616
1708441072.7102628,-2.046381711959839,-1.3664594006589432,-2.535468403493063,6.001920449524679,1.0066425800323486,-3.2582865397082728
1708441072.7122843,-2.045475721359253,-1.3667735022357483,-2.5355961958514612,6.001046764641561,1.0065886974334717,-3.2582290808307093
1708441072.7142673,-2.0445640087127686,-1.3670965147069474,-2.5356813112842005,6.000252830773153,1.0066217184066772,-3.258249823247091
1708441072.7162716,-2.0436463356018066,-1.3674720984748383,-2.535870377217428,5.999346840172567,1.0065557956695557,-3.2582204977618616
1708441072.718253,-2.0427918434143066,-1.3677656811526795,-2.536003891621725,5.998522150307455,1.0065813064575195,-3.258249823247091
1708441072.7202647,-2.0418875217437744,-1.368136779671051,-2.536185328160421,5.9976563332374475,1.0065842866897583,-3.2582529226886194
1708441072.7223017,-2.0409224033355713,-1.3684901756099244,-2.5362544695483606,5.996881830483236,1.006608486175537,-3.258212153111593
1708441072.7242792,-2.0400421619415283,-1.3688584131053467,-2.5364342371570032,5.995963918953695,1.0066380500793457,-3.258254114781515
1708441072.726286,-2.039119005203247,-1.369214044218399,-2.5365586916552942,5.995088803559103,1.0066698789596558,-3.258184258137838
1708441072.7282708,-2.038180112838745,-1.3695712846568604,-2.5367522875415247,5.994160163193502,1.006661057472229,-3.2582014242755335
1708441072.730246,-2.037236452102661,-1.3699343812516709,-2.5369699637042444,5.993261444359579,1.006693720817566,-3.258212153111593
1708441072.732283,-2.0362448692321777,-1.370241106753685,-2.537088219319479,5.992362129479208,1.0066684484481812,-3.258233610783712
1708441072.7343063,-2.0353176593780518,-1.3705999118140717,-2.5372512976275843,5.991459715157308,1.006730079650879,-3.2581916491137903
1708441072.7362702,-2.0343706607818604,-1.3710489136031647,-2.537424151097433,5.990625726967611,1.006770372390747,-3.2582176367389124
1708441072.7382367,-2.033440589904785,-1.3713087004474183,-2.5375710169421595,5.989651548653402,1.0067615509033203,-3.258132044469015
1708441072.7402546,-2.032489061355591,-1.3716893208077927,-2.537755552922384,5.988782036095419,1.0067822933197021,-3.2581689993487757
1708441072.7422707,-2.031442403793335,-1.3720640552094956,-2.5378873983966272,5.987837183266439,1.0067856311798096,-3.2581282297717493
1708441072.744246,-2.0304784774780273,-1.3724107903293152,-2.538107697163717,5.986841308861532,1.0068097114562988,-3.2581003347979944
1708441072.7462535,-2.0294547080993652,-1.372741476898529,-2.5382471720324915,5.985919105797567,1.0068293809890747,-3.2581327597247522
1708441072.7482517,-2.028481960296631,-1.3730947387269516,-2.538497511540548,5.984897959023275,1.0068775415420532,-3.2580958048449915
1708441072.7502463,-2.027484178543091,-1.3735184234431763,-2.538593594227926,5.983930456429281,1.006968379020691,-3.2580719629870813
1708441072.7522523,-2.0264172554016113,-1.3739389193109055,-2.5388365427600306,5.9830617783363245,1.0069342851638794,-3.2580764929400843
1708441072.7542582,-2.025493621826172,-1.3742244851640244,-2.5390120188342493,5.982008087425985,1.0069372653961182,-3.258073155079977
1708441072.7563617,-2.0244343280792236,-1.3746286940625687,-2.539166275654928,5.981032240181722,1.0069661140441895,-3.258061234151022
1708441072.7583487,-2.0233638286590576,-1.3750078541091462,-2.539428774510519,5.980069863587179,1.006982445716858,-3.258045021687643
1708441072.7603679,-2.022247552871704,-1.3753616374782105,-2.53963286081423,5.979075300484457,1.0069855451583862,-3.2579837481128138
1708441072.7622674,-2.0211470127105713,-1.3757658314755936,-2.5398369471179407,5.978034007340231,1.0070140361785889,-3.2580743471728724
1708441072.764264,-2.020028591156006,-1.37615358949218,-2.5399957338916224,5.976950394898214,1.0071115493774414,-3.2580130735980433
1708441072.76626,-2.018886089324951,-1.3766181778958817,-2.540180031453268,5.975891697197714,1.0071266889572144,-3.2579806486712855
1708441072.7682571,-2.0177557468414307,-1.376927227979042,-2.540408198033468,5.974848258286276,1.007149338722229,-3.2579742113696497
1708441072.7702563,-2.016681432723999,-1.3773195159486313,-2.540600124989645,5.973712432175436,1.0072064399719238,-3.257944170628683
1708441072.7722514,-2.015511989593506,-1.3776832830956955,-2.5407920519458216,5.972685563355245,1.0072338581085205,-3.2579410711871546
1708441072.774259,-2.014345169067383,-1.37803270042453,-2.5409839789019983,5.971645700722494,1.0073610544204712,-3.257876221333639
1708441072.7762878,-2.0131824016571045,-1.3784412157586594,-2.541109863911764,5.9706365940864465,1.0073837041854858,-3.2579215208636683
1708441072.7782536,-2.0119986534118652,-1.3788733345321198,-2.541363302861349,5.969503271370687,1.0074241161346436,-3.2578278223620813
1708441072.7802396,-2.010714292526245,-1.3792082530311127,-2.541571919118063,5.968367206841268,1.007529377937317,-3.257890288029806
1708441072.782254,-2.009540319442749,-1.379642979507782,-2.541811768208639,5.967203366547384,1.0075805187225342,-3.2578614393817347
1708441072.7842748,-2.008265972137451,-1.380044014458992,-2.542039934788839,5.966077315598287,1.0076525211334229,-3.257788960133688
1708441072.7862654,-2.0069644451141357,-1.3803861451200028,-2.542267624531881,5.9648815272148035,1.0077366828918457,-3.2578018347369593
1708441072.788291,-2.005735158920288,-1.3807799381068726,-2.542504612599508,5.963790881424703,1.007723331451416,-3.2577644030200403
1708441072.7902586,-2.0045084953308105,-1.3811483842185517,-2.542692009602682,5.962612020760336,1.0077265501022339,-3.257810656224386
1708441072.7922564,-2.0032260417938232,-1.3814992320588608,-2.542894426976339,5.9614611742790125,1.0077999830245972,-3.257745091115133
1708441072.794268,-2.001971483230591,-1.3819194001010437,-2.543084685002462,5.96015082576827,1.0078407526016235,-3.257716957722799
1708441072.7962563,-2.00057053565979,-1.3823265445283432,-2.5434001127826136,5.958900677948751,1.0079259872436523,-3.25770074525942
1708441072.7982426,-1.9992231130599976,-1.3827223789742966,-2.5435736815081995,5.957600223809042,1.0079923868179321,-3.2577059904681605
1708441072.800256,-1.9978705644607544,-1.3831693542054673,-2.5438676516162317,5.956308591156759,1.008125901222229,-3.2576404253589075
1708441072.802251,-1.9965426921844482,-1.3835443419269104,-2.5441272894488733,5.955052006035604,1.0082100629806519,-3.2576611677752894
1708441072.804272,-1.9951995611190796,-1.383927197461464,-2.5444045702563685,5.9537521479423425,1.0082553625106812,-3.2576211134540003
1708441072.8062527,-1.9938108921051025,-1.3844040495208283,-2.544685188923971,5.952436435013571,1.0083980560302734,-3.257641617451803
1708441072.80827,-1.9923490285873413,-1.3846769344857712,-2.5448666254626673,5.951084482460775,1.0084985494613647,-3.257609192525045
1708441072.8102767,-1.9909862279891968,-1.3851448607495804,-2.5451212565051478,5.949843394547262,1.0085978507995605,-3.257633988057272
1708441072.8122714,-1.9895243644714355,-1.3855933558991929,-2.545432154332296,5.948435175209799,1.0087283849716187,-3.257601563130514
1708441072.8142667,-1.9880086183547974,-1.3860485267690201,-2.5456958452807825,5.946995961457052,1.0088845491409302,-3.257578198109762
1708441072.8162591,-1.986515998840332,-1.3864592921784897,-2.545983616505758,5.945508467942037,1.009053111076355,-3.2575209776507776
1708441072.8182743,-1.9849475622177124,-1.386844964032509,-2.5462148825274866,5.944107162743368,1.0092048645019531,-3.257538143788473
1708441072.8202555,-1.9834723472595215,-1.3873586815646668,-2.546515766774313,5.942673313408651,1.0093250274658203,-3.2574926058398646
1708441072.8222694,-1.9819897413253784,-1.3877325367978592,-2.5467963854419153,5.941197860031881,1.009482502937317,-3.257505718861715
1708441072.8242629,-1.980487585067749,-1.3881928336671372,-2.547091786061422,5.939805137902059,1.0095582008361816,-3.257530752812521
1708441072.8262665,-1.9789507389068604,-1.388677479033806,-2.5473364035235804,5.938348638802328,1.0096288919448853,-3.2574930826770228
1708441072.8282418,-1.9773821830749512,-1.389060140853264,-2.5475617090808313,5.93686734417037,1.0097984075546265,-3.257514540349142
1708441072.8302445,-1.9757640361785889,-1.3894419086030503,-2.5479498545276087,5.935356485634603,1.0099698305130005,-3.2574942747699183
1708441072.832266,-1.9741758108139038,-1.3898850691369553,-2.5481987635241907,5.933804499893942,1.0101232528686523,-3.257460657750265
1708441072.8342712,-1.9725511074066162,-1.390384854083397,-2.5485451857196253,5.932234990387716,1.0102225542068481,-3.2574132124530237
1708441072.8362343,-1.9709433317184448,-1.3908564460328598,-2.548861328755514,5.930614936142721,1.0103639364242554,-3.2574217955218714
1708441072.8382351,-1.9693596363067627,-1.3912389439395447,-2.549135986958639,5.928989755898275,1.0104762315750122,-3.257463041936056
1708441072.8402357,-1.967720866203308,-1.3917019677213212,-2.549426857625143,5.927424537926473,1.0105187892913818,-3.2574380079852503
1708441072.8422554,-1.9660934209823608,-1.3921091270497818,-2.5497430006610315,5.925869333534994,1.0106266736984253,-3.257409159337179
1708441072.8442419,-1.9644016027450562,-1.3925892871669312,-2.550080124531881,5.9242275831993005,1.0107365846633911,-3.2574222723590296
1708441072.84624,-1.9627530574798584,-1.3930239987424393,-2.550376001988546,5.922553527146139,1.0108234882354736,-3.257430617009298
1708441072.8482337,-1.9610861539840698,-1.3933979284814377,-2.55064303079714,5.920957672386923,1.0108914375305176,-3.257430617009298
1708441072.850271,-1.9593944549560547,-1.393858255153038,-2.550983254109518,5.919387924462118,1.011077642440796,-3.257442299519674
1708441072.8522365,-1.9576654434204102,-1.394334153538086,-2.5512829462634485,5.917731034546652,1.011244773864746,-3.2574222723590296
1708441072.8542652,-1.9559004306793213,-1.3947205257466813,-2.551642958317892,5.915968763619222,1.0114954710006714,-3.257385555897848
1708441072.8563423,-1.954128623008728,-1.3951063019088288,-2.552007500325338,5.91422854641036,1.0117194652557373,-3.257458511983053
1708441072.8583992,-1.9523347616195679,-1.3955661070397873,-2.552282158528463,5.912451731949606,1.0118799209594727,-3.2574265638934534
1708441072.8603613,-1.9505788087844849,-1.395977960234024,-2.552610460911886,5.910834061890402,1.012001872062683,-3.2574222723590296
1708441072.8624046,-1.948776125907898,-1.3964656454375763,-2.552951161061422,5.909115779190817,1.0121219158172607,-3.2574005762683313
1708441072.8643906,-1.9469637870788574,-1.396875874405243,-2.553274933491842,5.9074286101158044,1.0122828483581543,-3.257413689290182
1708441072.8662987,-1.945149540901184,-1.3973310154727479,-2.5535367170916956,5.905743586808004,1.0124528408050537,-3.257483784352438
1708441072.8682544,-1.9432929754257202,-1.3977457296899338,-2.553934160863058,5.903999316483297,1.012591004371643,-3.257409159337179
1708441072.8702552,-1.9414373636245728,-1.398221181040146,-2.554291311894552,5.902193772583761,1.0127307176589966,-3.257430617009298
1708441072.8722556,-1.9395184516906738,-1.3986926835826416,-2.5546582380877894,5.900447356491842,1.0129064321517944,-3.2574380079852503
1708441072.8743777,-1.9376354217529297,-1.3991274398616333,-2.5549898783313196,5.898530232697286,1.0131378173828125,-3.2574618498431605
1708441072.876323,-1.9356975555419922,-1.3995509010604401,-2.555399004613058,5.896731006890096,1.013379693031311,-3.257476870213644
1708441072.8782718,-1.9338473081588745,-1.4000466775945206,-2.55575138727297,5.8949129460151575,1.0135467052459717,-3.257481400166647
1708441072.8802924,-1.931957483291626,-1.4004584711841126,-2.556114737187521,5.892953145294943,1.013710618019104,-3.257510010396139
1708441072.8822749,-1.9299993515014648,-1.4009473782828827,-2.556458059941427,5.891117918282308,1.013848900794983,-3.257521931325094
1708441072.8842578,-1.9281049966812134,-1.4013809126666565,-2.5568252245532435,5.889282452851095,1.0140877962112427,-3.257561985646383
1708441072.8862414,-1.9261183738708496,-1.4018980425647278,-2.557243887578146,5.887357818871298,1.014284610748291,-3.2575858275042933
1708441072.8882506,-1.9241563081741333,-1.4022835803082963,-2.557650629674093,5.8853527186210535,1.0145008563995361,-3.2575610319720667
1708441072.890244,-1.9221298694610596,-1.4027671080878754,-2.5580435434924524,5.883364069252767,1.0147250890731812,-3.257601563130514
1708441072.8922446,-1.920118808746338,-1.4032589954188843,-2.5584054628955286,5.881377923279562,1.0149461030960083,-3.257625404988424
1708441072.8942442,-1.9181256294250488,-1.4037349832108994,-2.5588131586657923,5.879417645722189,1.01513671875,-3.257669750844137
1708441072.8962357,-1.9161442518234253,-1.4041403842023392,-2.5592461268054407,5.87743757942275,1.0153486728668213,-3.2577222029315394
1708441072.898246,-1.914063572883606,-1.404668466453888,-2.5595973173724573,5.875357496529379,1.0154883861541748,-3.257757012044088
1708441072.9002345,-1.912062168121338,-1.4051238310388108,-2.560025755559103,5.873490202217855,1.0157469511032104,-3.2578018347369593
1708441072.9022362,-1.910010814666748,-1.4055822354606171,-2.560462299977438,5.871432053833761,1.0159845352172852,-3.2579074541675013
1708441072.904247,-1.9079322814941406,-1.406056524520256,-2.560906235371725,5.869429337769308,1.0162484645843506,-3.2578988710986536
1708441072.906241,-1.9057282209396362,-1.406618447308876,-2.561270777379171,5.867253291397848,1.0165133476257324,-3.257987085972921
1708441072.9082565,-1.9036089181900024,-1.40705198169265,-2.5617223421679896,5.865179765015402,1.0167373418807983,-3.25803786913027
1708441072.9102662,-1.9014748334884644,-1.4075551492026825,-2.562139097844259,5.8630703566368005,1.0170468091964722,-3.2581380049334925
1708441072.9122546,-1.8993252515792847,-1.4080551129630585,-2.562583033238546,5.860991108208456,1.0172287225723267,-3.2581937948810022
1708441072.9142528,-1.897178292274475,-1.4085225474885483,-2.56297737756838,5.858822095185079,1.0175228118896484,-3.2583146731006067
1708441072.9162698,-1.8949315547943115,-1.4089646500400086,-2.563437287007467,5.856695282250204,1.0177874565124512,-3.258397404347555
1708441072.9182324,-1.8927150964736938,-1.4094634068063279,-2.563892428074972,5.8546191332633875,1.0180853605270386,-3.2584531942950647
1708441072.9202616,-1.890481948852539,-1.409946934585907,-2.5644052664386194,5.852408754616537,1.0183364152908325,-3.2585459391223353
1708441072.9222672,-1.8882352113723755,-1.4104954463294526,-2.5648022333728235,5.850311982422628,1.018637776374817,-3.258698050175802
1708441072.9242775,-1.8859697580337524,-1.4109498274377366,-2.5652297178851526,5.848152863770284,1.0189130306243896,-3.2587721983539026
1708441072.9262595,-1.8837586641311646,-1.41135589898143,-2.565727774296896,5.846042501717367,1.0191867351531982,-3.258869234715597
1708441072.9282424,-1.8815596103668213,-1.4118383389762421,-2.566153589879171,5.844032990723409,1.0194149017333984,-3.2590013186084192
1708441072.9302797,-1.8793739080429077,-1.4123140138438721,-2.566627327595846,5.841986286431112,1.0196796655654907,-3.2591503302203577
1708441072.9323115,-1.8772398233413696,-1.4127860230258484,-2.5671313444720667,5.839842188149252,1.0200086832046509,-3.259221140538351
1708441072.9342792,-1.8749924898147583,-1.4132487785867234,-2.567606512700216,5.837765085488119,1.0203030109405518,-3.259373966847555
1708441072.93628,-1.872812032699585,-1.413659231071808,-2.5680626074420374,5.835670816689291,1.020545244216919,-3.2594760099994105
1708441072.93824,-1.870625376701355,-1.414151446228363,-2.5685513655291956,5.833528983383932,1.0207726955413818,-3.2596214453326624
1708441072.9402485,-1.8684415817260742,-1.4146959793618699,-2.5690391699420374,5.831358301430502,1.0210953950881958,-3.2597203890429896
1708441072.9422545,-1.866246223449707,-1.4151257884553452,-2.569465223942892,5.829214322357931,1.0213301181793213,-3.259892527257101
1708441072.9442334,-1.8639647960662842,-1.4156136971763154,-2.569981638585226,5.8270915625389,1.0216816663742065,-3.2600327173816126
1708441072.946263,-1.8617639541625977,-1.416026623254158,-2.5704332033740442,5.824931967049398,1.021956443786621,-3.2601481119738978
1708441072.9482458,-1.8595154285430908,-1.4165026259473343,-2.5708983580218714,5.822853195458212,1.0222606658935547,-3.260292355214254
1708441072.9502335,-1.8573460578918457,-1.4169905346683045,-2.571406666432516,5.820728885918417,1.0225203037261963,-3.2604032198535364
1708441072.9522624,-1.8551403284072876,-1.4175108981183548,-2.5718372503863733,5.818606126099386,1.0227850675582886,-3.2605515162097376
1708441072.9542325,-1.8529126644134521,-1.4179368180087586,-2.5723093191729944,5.816547858506002,1.023058295249939,-3.2606385389911097
1708441072.9563332,-1.8507306575775146,-1.4184236538461228,-2.572789732609884,5.814370739250936,1.02340829372406,-3.260803286229269
1708441072.9583895,-1.8485642671585083,-1.4189526301673432,-2.5732455889331263,5.81227873542861,1.0236715078353882,-3.2609642187701624
1708441072.9603581,-1.8463687896728516,-1.419406608944275,-2.5736687819110315,5.810161459236898,1.023964762687683,-3.2610014120685022
1708441072.9622774,-1.8442342281341553,-1.4199259591153641,-2.5741151014911097,5.808060157089987,1.0242729187011719,-3.261179272328512
1708441072.9642737,-1.8420361280441284,-1.4203353834203263,-2.5746386686908167,5.805878984719076,1.0244877338409424,-3.261306349431173
1708441072.9662578,-1.8398743867874146,-1.4208841633847733,-2.57502252260317,5.80382655838088,1.024783730506897,-3.2614665667163294
1708441072.9682806,-1.8376408815383911,-1.4213266682675858,-2.5755067507373255,5.801613080292501,1.0250904560089111,-3.2615657488452356
1708441072.9702404,-1.8354343175888062,-1.4218221020749588,-2.5759311358081263,5.79949842670516,1.0254404544830322,-3.26174766222109
1708441072.9722683,-1.8332363367080688,-1.4223536264947434,-2.5764783064471644,5.79728256443099,1.0256839990615845,-3.2618499437915247
1708441072.974277,-1.83100426197052,-1.42279905200515,-2.576883618031637,5.795223223954,1.0260173082351685,-3.261965815220968
1708441072.9762566,-1.8288488388061523,-1.42329457521949,-2.57734185854067,5.793092000275411,1.0263465642929077,-3.262101952229635
1708441072.9782534,-1.8266215324401855,-1.423818365936615,-2.5778444449054163,5.790903913765707,1.0266457796096802,-3.262205187474386
1708441072.9802303,-1.8244520425796509,-1.4242820304683228,-2.5782957712756556,5.7888046381767175,1.0268516540527344,-3.262346092854635
1708441072.982243,-1.8222546577453613,-1.424758718614914,-2.578742806111471,5.7866729376609705,1.0271254777908325,-3.2624438444720667
1708441072.984237,-1.8200639486312866,-1.4252795290998002,-2.5792649427997034,5.784570085793295,1.0274271965026855,-3.2625516096698206
1708441072.9862347,-1.817875862121582,-1.4257393193295975,-2.5797162691699427,5.782467233925619,1.0277066230773926,-3.2627132574664515
1708441072.9882402,-1.8156933784484863,-1.4262139064124604,-2.580163065587179,5.780356275826254,1.0280075073242188,-3.2628734747516077
1708441072.9902399,-1.8134814500808716,-1.4267223340323945,-2.5806883017169397,5.778204190521993,1.0283286571502686,-3.262951914464132
1708441072.9922423,-1.811397671699524,-1.4272379887155076,-2.581134621297018,5.776162373810568,1.0285724401474,-3.263104025517599
1708441072.9942486,-1.8091849088668823,-1.42765165985141,-2.581594769154684,5.774117576866903,1.0288084745407104,-3.263211790715353
1708441072.9963098,-1.8070406913757324,-1.4280981135419388,-2.582045857106344,5.771972524910726,1.029077172279358,-3.263348166142599
1708441072.9982433,-1.8047538995742798,-1.4285532546094437,-2.5825513044940394,5.769881713181295,1.029303789138794,-3.2633898893939417
1708441073.0002367,-1.802606225013733,-1.4290410739234467,-2.5830379168139856,5.76774679401473,1.0296951532363892,-3.263604466115133
1708441073.002271,-1.8003491163253784,-1.429516003733017,-2.5834675470935267,5.765595185547628,1.0300078392028809,-3.2637227217303675
1708441073.0042324,-1.7981520891189575,-1.4300525796464463,-2.5839605967151087,5.763521063118734,1.030266523361206,-3.2638638655291956
1708441073.006275,-1.7958793640136719,-1.430457980637886,-2.584381167088644,5.761468040734091,1.0305969715118408,-3.2639673391925257
1708441073.0082743,-1.7936837673187256,-1.430922047500946,-2.584858004246847,5.759410249977865,1.0308053493499756,-3.2641237417804163
1708441073.0102582,-1.7914791107177734,-1.4314053368619462,-2.585320536290304,5.75720094421462,1.0311040878295898,-3.2642059961902063
1708441073.0122948,-1.7891924381256104,-1.4319137793830414,-2.585759941731588,5.755063402443685,1.031381368637085,-3.2643917242633265
1708441073.0142865,-1.7869750261306763,-1.4323353928378602,-2.586226765309469,5.752977835922994,1.031695008277893,-3.2644744555102747
1708441073.0162666,-1.784751296043396,-1.432794750933983,-2.586677853261129,5.750801670342245,1.0319706201553345,-3.264602247868673
1708441073.018271,-1.7825685739517212,-1.4332740616849442,-2.5872038046466272,5.748762476235189,1.0322265625,-3.2647669951068323
1708441073.0202641,-1.7804596424102783,-1.433754028086998,-2.5876992384540003,5.746656405716696,1.032572627067566,-3.2648378054248255
1708441073.0222578,-1.7782351970672607,-1.4341561955264588,-2.5881338755237024,5.74452697017745,1.0328409671783447,-3.264994446431295
1708441073.024279,-1.7760144472122192,-1.4346603167108078,-2.5885682741748255,5.742427336960592,1.0330480337142944,-3.265141550694601
1708441073.0262716,-1.7738813161849976,-1.4351586264422913,-2.5890401045428675,5.740396249085226,1.0333901643753052,-3.2652741114245813
1708441073.028294,-1.771628737449646,-1.435569779281952,-2.5895164648639124,5.738257276802816,1.033654808998108,-3.265372101460592
1708441073.0302422,-1.7694398164749146,-1.436036468749382,-2.5899580160724085,5.736006247788229,1.033962607383728,-3.2655022780047815
1708441073.0322683,-1.7672324180603027,-1.4365520638278504,-2.590510908757345,5.733847248345175,1.034255862236023,-3.2656152884112757
1708441073.0342627,-1.7650277614593506,-1.437011019592621,-2.590940777455465,5.7317871926124475,1.0345354080200195,-3.265769068394796
1708441073.0362656,-1.762784481048584,-1.4374945026687165,-2.591384236012594,5.7296063778694055,1.034841775894165,-3.265888754521505
1708441073.0383048,-1.760568618774414,-1.4379455757192154,-2.591950241719381,5.727569091110983,1.0350600481033325,-3.265991989766256
1708441073.040264,-1.7584353685379028,-1.4384589058211823,-2.592356030141012,5.725447165756979,1.0353498458862305,-3.266104284917013
1708441073.0422893,-1.7561882734298706,-1.4389252972653885,-2.5928569475757044,5.723296630173483,1.0355980396270752,-3.266202751790182
1708441073.044255,-1.7540205717086792,-1.4394088995507737,-2.5933225790606897,5.7211265442665,1.0359153747558594,-3.2663560549365442
1708441073.0462625,-1.7518384456634521,-1.4398433578065415,-2.5938108603106897,5.719065773278036,1.036208152770996,-3.2664719263659876
1708441073.048245,-1.749642014503479,-1.440379412179329,-2.5942702929126185,5.716947662621298,1.0364636182785034,-3.2666285673724573
1708441073.0502706,-1.7474759817123413,-1.4408218276551743,-2.594740692769186,5.714838492661276,1.0367029905319214,-3.266779963170187
1708441073.052262,-1.7453285455703735,-1.4413064879230042,-2.595149819050924,5.712808835297384,1.0370407104492188,-3.266883436833517
1708441073.0542502,-1.7431052923202515,-1.4418193858912964,-2.595626179371969,5.710686731129446,1.0373008251190186,-3.266986672078268
