Eg3-git/Classifiers/Data Collection/u7/u7www1_ur3e_joint_states.csv
time,elbow_joint,shoulder_lift_joint,shoulder_pan_joint,wrist_1_joint,wrist_2_joint,wrist_3_joint
1708440856.2296727,-1.1071724891662598,-1.6809078655638636,-2.5252559820758265,2.2823049265095214,-1.014733616505758,0.1601291298866272
1708440856.2316797,-1.1071182489395142,-1.6808740101256312,-2.5252352396594446,2.282259626979492,-1.014749828969137,0.16009345650672913
1708440856.2336633,-1.107143521308899,-1.6808425388731898,-2.525292936955587,2.282271547908447,-1.0147174040423792,0.16010095179080963
1708440856.2356966,-1.107155442237854,-1.6808496914305628,-2.525281016026632,2.2822508054920654,-1.0147083441363733,0.16009347140789032
1708440856.2376485,-1.1071271896362305,-1.6808964214720667,-2.5252311865436,2.2822958666035156,-1.01477557817568,0.16011285781860352
1708440856.2396674,-1.1071687936782837,-1.6808544598021449,-2.525231901799337,2.2822879987904052,-1.0146978537188929,0.16010093688964844
1708440856.2416637,-1.1071510314941406,-1.680857320825094,-2.5252354780780237,2.2822670179554443,-1.0147140661822718,0.16008122265338898
1708440856.2436938,-1.107106328010559,-1.6808425388731898,-2.525215450917379,2.2822508054920654,-1.0147665182696741,0.16009658575057983
1708440856.2456317,-1.1071724891662598,-1.6808544598021449,-2.525231901799337,2.282271547908447,-1.0147174040423792,0.16009223461151123
1708440856.2476497,-1.1071510314941406,-1.6809035740294398,-2.5252187887774866,2.2822579580494384,-1.0147293249713343,0.16010969877243042
1708440856.249631,-1.107106328010559,-1.680894514123434,-2.525248352681295,2.282296820277832,-1.0147245565997522,0.16010215878486633
1708440856.2516549,-1.1071419715881348,-1.6808496914305628,-2.525236193333761,2.28227607786145,-1.0147665182696741,0.16010092198848724
1708440856.2536316,-1.107155442237854,-1.6809364757933558,-2.5252721945392054,2.2822879987904052,-1.014737908040182,0.16011720895767212
1708440856.2556486,-1.107094407081604,-1.680911203423971,-2.525230948125021,2.2822834688374023,-1.0147665182696741,0.16009657084941864
1708440856.2576375,-1.1071724891662598,-1.680915971795553,-2.5252187887774866,2.2823077875324707,-1.014754597340719,0.16011285781860352
1708440856.25962,-1.1071770191192627,-1.680857320825094,-2.5252767244922083,2.282255097026489,-1.0146916548358362,0.1600562334060669
1708440856.2616408,-1.1071724891662598,-1.6809317074217738,-2.5252721945392054,2.282287045116089,-1.0147321859942835,0.16005176305770874
1708440856.2636254,-1.107106328010559,-1.680857320825094,-2.5252652804004114,2.2823375898548584,-1.0147832075702112,0.16009658575057983
1708440856.2656486,-1.1071316003799438,-1.6808749637999476,-2.5252354780780237,2.2822670179554443,-1.014761749898092,0.16010528802871704
1708440856.2676318,-1.107106328010559,-1.68092741588735,-2.5251947085009974,2.2822417455860595,-1.0147245565997522,0.1601128727197647
1708440856.2696376,-1.1071391105651855,-1.6809364757933558,-2.5252636114703577,2.28227607786145,-1.014733616505758,0.16010527312755585
1708440856.2716503,-1.1071255207061768,-1.6809035740294398,-2.5252311865436,2.2823049265095214,-1.014749828969137,0.16010969877243042
1708440856.2736418,-1.1071182489395142,-1.6808706722655238,-2.525214497243063,2.2822624880024414,-1.0147951284991663,0.16008122265338898
1708440856.275648,-1.1071510314941406,-1.680840631524557,-2.525275532399313,2.2823168474384765,-1.014749828969137,0.1601172238588333
1708440856.2776408,-1.1071510314941406,-1.6808630428709925,-2.5252397696124476,2.28227607786145,-1.0147174040423792,0.1601543426513672
1708440856.2796648,-1.1072052717208862,-1.68089022258901,-2.5252276102649134,2.2822460371204834,-1.0147531668292444,0.16008034348487854
1708440856.2817085,-1.1071510314941406,-1.680894514123434,-2.5252068678485315,2.2822670179554443,-1.0146916548358362,0.16008123755455017
1708440856.283632,-1.107155442237854,-1.6808697185912074,-2.525214497243063,2.2822670179554443,-1.0147293249713343,0.16015444695949554
1708440856.2856345,-1.1071933507919312,-1.6808740101256312,-2.5252187887774866,2.2822958666035156,-1.014733616505758,0.16015012562274933
1708440856.2876089,-1.1071590185165405,-1.6808787784972132,-2.525247399006979,2.2822834688374023,-1.0147293249713343,0.16007156670093536
1708440856.2896388,-1.107175350189209,-1.6808988056578578,-2.5252440611468714,2.2822834688374023,-1.0147879759417933,0.16008900105953217
1708440856.291615,-1.107159972190857,-1.6808988056578578,-2.5252485910998743,2.2822744089313964,-1.0147245565997522,0.16008034348487854
1708440856.2936368,-1.1071300506591797,-1.680828710595602,-2.5252397696124476,2.28227607786145,-1.014749828969137,0.16014137864112854
1708440856.2956095,-1.107143521308899,-1.6809078655638636,-2.5252397696124476,2.2823049265095214,-1.0147455374347132,0.16010095179080963
1708440856.2976148,-1.1071590185165405,-1.680892129937643,-2.5252559820758265,2.2822536665150146,-1.0147665182696741,0.16008037328720093
1708440856.2996128,-1.1071346998214722,-1.6808706722655238,-2.525271240864889,2.282330198878906,-1.014749828969137,0.1601334661245346
1708440856.3016386,-1.107163429260254,-1.680861612359518,-2.5252311865436,2.282282515163086,-1.0147293249713343,0.16008780896663666
1708440856.3036323,-1.1071510314941406,-1.6808544598021449,-2.5252636114703577,2.2823197084614257,-1.0147293249713343,0.1601215898990631
1708440856.3056393,-1.1071797609329224,-1.6809035740294398,-2.5252485910998743,2.2823168474384765,-1.014749828969137,0.16008467972278595
1708440856.3076205,-1.1071510314941406,-1.680845399896139,-2.5252354780780237,2.282298727626465,-1.014733616505758,0.16014574468135834
1708440856.3096168,-1.1071346998214722,-1.680883070031637,-2.5252559820758265,2.2823123174854736,-1.0147245565997522,0.1601378619670868
1708440856.3116322,-1.1071680784225464,-1.6808496914305628,-2.5252605120288294,2.2822536665150146,-1.014761749898092,0.1601203978061676
1708440856.3136234,-1.107158899307251,-1.6808630428709925,-2.5252679030047815,2.2822913366505126,-1.014749828969137,0.16008344292640686
1708440856.3156855,-1.1071510314941406,-1.6808787784972132,-2.5252636114703577,2.2823776441761474,-1.014754597340719,0.1601247936487198
1708440856.3177338,-1.1071844100952148,-1.680833478967184,-2.5252187887774866,2.282327099437378,-1.0147364775287073,0.1601422280073166
1708440856.319655,-1.107175350189209,-1.6809126339354457,-2.5252187887774866,2.2823077875324707,-1.014761749898092,0.16011719405651093
1708440856.3216841,-1.1071455478668213,-1.68092741588735,-2.525198046361105,2.2823239999958496,-1.0147412459002894,0.16015881299972534
1708440856.3236594,-1.1071664094924927,-1.6809364757933558,-2.5252066294299524,2.282310886973999,-1.0147035757647913,0.16012157499790192
1708440856.3256676,-1.1071664094924927,-1.680861612359518,-2.5252397696124476,2.282343550319336,-1.0147741476642054,0.16011285781860352
1708440856.327659,-1.1071783304214478,-1.6808496914305628,-2.5252884070025843,2.2823361593433837,-1.0147245565997522,0.1601422280073166
1708440856.329642,-1.1071947813034058,-1.6809035740294398,-2.5251992384540003,2.2823197084614257,-1.0147665182696741,0.16015438735485077
1708440856.3317056,-1.107170820236206,-1.6808749637999476,-2.525276486073629,2.282322807902954,-1.0147698561297815,0.16009344160556793
1708440856.3336911,-1.1071500778198242,-1.680887838403219,-2.5252276102649134,2.282371922130249,-1.014733616505758,0.16008467972278595
1708440856.335672,-1.107202172279358,-1.68089022258901,-2.5252276102649134,2.282350941295288,-1.0147202650653284,0.16010414063930511
1708440856.3376195,-1.1072564125061035,-1.680883070031637,-2.525236193333761,2.282334728831909,-1.0147455374347132,0.16011719405651093
1708440856.3396072,-1.1071783304214478,-1.680883070031637,-2.5252440611468714,2.282348080272339,-1.0147083441363733,0.16011285781860352
1708440856.3416235,-1.1071902513504028,-1.6808201275267542,-2.5252276102649134,2.282343550319336,-1.0147154966937464,0.16008783876895905
1708440856.343621,-1.107202172279358,-1.6809069118895472,-2.5252841154681605,2.2823642927357177,-1.0147741476642054,0.1601172685623169
1708440856.3456275,-1.1072067022323608,-1.6809116802611292,-2.5252559820758265,2.2823962408253173,-1.0147083441363733,0.16007156670093536
1708440856.3476257,-1.1071559190750122,-1.680883070031637,-2.5252276102649134,2.282370014781616,-1.0147574583636683,0.16011285781860352
1708440856.3496578,-1.1072801351547241,-1.6808797321715296,-2.5252111593829554,2.2823962408253173,-1.0147574583636683,0.16007599234580994
1708440856.35164,-1.1072520017623901,-1.680852552453512,-2.5252602736102503,2.2823962408253173,-1.0147832075702112,0.16009660065174103
1708440856.3536174,-1.1072801351547241,-1.680887838403219,-2.525219742451803,2.2824041086384277,-1.0147455374347132,0.16009660065174103
1708440856.3556333,-1.1072258949279785,-1.680861612359518,-2.5252397696124476,2.2823962408253173,-1.0147245565997522,0.16009661555290222
1708440856.3576202,-1.1072473526000977,-1.6808496914305628,-2.525215450917379,2.2823871809193115,-1.0147698561297815,0.16008467972278595
1708440856.359641,-1.1072711944580078,-1.6809035740294398,-2.5252233187304896,2.2824041086384277,-1.0147455374347132,0.1601422280073166
1708440856.3616443,-1.1072636842727661,-1.6808678112425746,-2.525215450917379,2.2824205595203857,-1.014761749898092,0.1600680947303772
1708440856.3636098,-1.1072473526000977,-1.6809126339354457,-2.5252276102649134,2.2824134069630126,-1.0147574583636683,0.16010093688964844
1708440856.3656063,-1.1072920560836792,-1.680883070031637,-2.525231901799337,2.2824322420307617,-1.0148041884051722,0.16014577448368073
1708440856.3676827,-1.1072801351547241,-1.680828710595602,-2.525236193333761,2.282407208079956,-1.014737908040182,0.1601247787475586
1708440856.3696296,-1.1072636842727661,-1.680857320825094,-2.5252111593829554,2.2824367719837646,-1.0147083441363733,0.16005182266235352
1708440856.371624,-1.1072125434875488,-1.6808253727354945,-2.525231901799337,2.2823871809193115,-1.01477557817568,0.16010093688964844
1708440856.373626,-1.1072741746902466,-1.6808425388731898,-2.5252276102649134,2.2824205595203857,-1.0146797339068812,0.16015762090682983
1708440856.3756137,-1.1072964668273926,-1.680828710595602,-2.5252817312823694,2.2824651437946777,-1.0147202650653284,0.16009221971035004
1708440856.377625,-1.1072964668273926,-1.6808749637999476,-2.5252559820758265,2.2824324804493408,-1.014733616505758,0.1601172387599945
1708440856.3796322,-1.1072876453399658,-1.680892129937643,-2.5251992384540003,2.282431049937866,-1.0147040526019495,0.16013780236244202
1708440856.3816323,-1.107295036315918,-1.6808706722655238,-2.5252111593829554,2.28247253477063,-1.0146797339068812,0.16008034348487854
1708440856.38365,-1.1072667837142944,-1.6808840237059535,-2.5252397696124476,2.2823938566395263,-1.0147083441363733,0.16015881299972534
1708440856.3856525,-1.10727858543396,-1.6808587513365687,-2.525219742451803,2.282463713283203,-1.0147455374347132,0.16010093688964844
1708440856.3876562,-1.1073278188705444,-1.6808544598021449,-2.525215450917379,2.282444401378296,-1.014754597340719,0.16012153029441833
1708440856.3896341,-1.1072980165481567,-1.6808630428709925,-2.525231901799337,2.2824970918842773,-1.014754597340719,0.16008783876895905
1708440856.3916392,-1.1073702573776245,-1.6808515987791957,-2.525207821522848,2.2824429708668212,-1.0147126356707972,0.16013023257255554
1708440856.3936212,-1.107295036315918,-1.6808210812010707,-2.525215450917379,2.2824835020252685,-1.014749828969137,0.16010969877243042
1708440856.3956213,-1.1073352098464966,-1.6808659038939417,-2.5252233187304896,2.2824429708668212,-1.0147054831134241,0.16010412573814392
1708440856.3976247,-1.1073522567749023,-1.6808344326415003,-2.52522856393923,2.2825371462055664,-1.0147054831134241,0.16015438735485077
1708440856.3996096,-1.1073687076568604,-1.6808425388731898,-2.5252276102649134,2.2824999529072265,-1.014733616505758,0.16009344160556793
1708440856.4016354,-1.1073217391967773,-1.6807967625060023,-2.525215450917379,2.2824620443531494,-1.0147259871112269,0.16015438735485077
1708440856.4036467,-1.1073261499404907,-1.6808797321715296,-2.525195900593893,2.2825402456470947,-1.014737908040182,0.1601291298866272
1708440856.4056225,-1.1073522567749023,-1.6808587513365687,-2.525248352681295,2.2824746805378417,-1.014749828969137,0.16008901596069336
1708440856.4076338,-1.1073307991027832,-1.680861612359518,-2.525219742451803,2.2825118738361816,-1.014700714741842,0.16011719405651093
1708440856.4096272,-1.1072845458984375,-1.6808721027769984,-2.5251784960376185,2.2825445371815185,-1.0147174040423792,0.16008035838603973
1708440856.411611,-1.1073298454284668,-1.6808630428709925,-2.52523643175234,2.2825862604328613,-1.0146964232074183,0.1601303517818451
1708440856.4136138,-1.10737144947052,-1.6808659038939417,-2.525219742451803,2.2825192648121337,-1.014721695576803,0.1600922793149948
1708440856.4156318,-1.1073923110961914,-1.6808930836119593,-2.525231901799337,2.282547636623047,-1.0146964232074183,0.1601378619670868
1708440856.4176373,-1.1073952913284302,-1.680925031701559,-2.525203529988424,2.282538576717041,-1.014754597340719,0.16010968387126923
1708440856.4196537,-1.107383370399475,-1.6808840237059535,-2.5251992384540003,2.282589836711548,-1.0147307554828089,0.16005615890026093
1708440856.4216356,-1.1074161529541016,-1.6808253727354945,-2.525187317525045,2.282547636623047,-1.014742676411764,0.16014569997787476
1708440856.4236295,-1.107349157333374,-1.6808210812010707,-2.52517539659609,2.2825683790394287,-1.0147054831134241,0.16008034348487854
1708440856.425656,-1.1073745489120483,-1.6809035740294398,-2.5251830259906214,2.282592936153076,-1.014737908040182,0.16008464992046356
1708440856.4276385,-1.1073983907699585,-1.6808721027769984,-2.5251947085009974,2.282564087505005,-1.014716927205221,0.16010527312755585
1708440856.4296157,-1.1074072122573853,-1.6808587513365687,-2.525207821522848,2.282555027598999,-1.014709774647848,0.16009663045406342
1708440856.43164,-1.1073983907699585,-1.6808630428709925,-2.5251711050616663,2.282613678569458,-1.0147350470172327,0.16008469462394714
1708440856.4336245,-1.107414722442627,-1.6808659038939417,-2.525179688130514,2.282592936153076,-1.0147293249713343,0.16008035838603973
1708440856.4356208,-1.1073819398880005,-1.6808515987791957,-2.525195900593893,2.2825674253651123,-1.0146525541888636,0.16010527312755585
1708440856.43763,-1.107349157333374,-1.6808468304076136,-2.525215450917379,2.2825631338306884,-1.0147188345538538,0.16010409593582153
1708440856.439638,-1.1073607206344604,-1.6808425388731898,-2.525191609059469,2.2825838762470703,-1.0146406332599085,0.16012153029441833
1708440856.4416218,-1.107409954071045,-1.6808387241759242,-2.525179688130514,2.282609387035034,-1.0146978537188929,0.16009660065174103
1708440856.4436557,-1.107414722442627,-1.6808678112425746,-2.525207821522848,2.2825838762470703,-1.014721695576803,0.16011719405651093
1708440856.4456403,-1.1073983907699585,-1.6808096371092738,-2.52517539659609,2.2826284605213623,-1.0146434942828577,0.16007684171199799
1708440856.4476275,-1.1074142456054688,-1.6809054813780726,-2.525252882634298,2.2825869756885986,-1.0146978537188929,0.16008120775222778
1708440856.449641,-1.107409954071045,-1.6808186970152796,-2.5251992384540003,2.2826284605213623,-1.0146601835833948,0.16008031368255615
1708440856.4516172,-1.1074275970458984,-1.6807924709715785,-2.52517539659609,2.2826284605213623,-1.014693562184469,0.1601378470659256
1708440856.453614,-1.1074230670928955,-1.6808387241759242,-2.525215450917379,2.2825912672230224,-1.0146692434894007,0.1601097136735916
1708440856.4556255,-1.107405424118042,-1.6808253727354945,-2.52517539659609,2.2826031881519775,-1.0146735350238245,0.1600681096315384
1708440856.4576247,-1.1074395179748535,-1.6808344326415003,-2.525191609059469,2.2826241689869384,-1.0146978537188929,0.1600561887025833
1708440856.459665,-1.107455849647522,-1.6808229885497035,-2.525203529988424,2.2826151090809326,-1.0146434942828577,0.1600681096315384
1708440856.46163,-1.107443928718567,-1.6808515987791957,-2.525207821522848,2.282642050380371,-1.0147069136248987,0.1600312888622284
1708440856.4636269,-1.107423186302185,-1.6808434925475062,-2.525120798741476,2.2825824457355957,-1.0146902243243616,0.16000711917877197
1708440856.4656396,-1.1074767112731934,-1.6808721027769984,-2.5252187887774866,2.2826241689869384,-1.0146525541888636,0.16005617380142212
1708440856.4676478,-1.1074514389038086,-1.6808425388731898,-2.525191609059469,2.2826642233082275,-1.0146573225604456,0.1600443422794342
1708440856.469666,-1.1073920726776123,-1.6808253727354945,-2.525240484868185,2.2826315599628906,-1.0146573225604456,0.16008035838603973
1708440856.471637,-1.1074752807617188,-1.6808296642699183,-2.5251830259906214,2.282677574748657,-1.0146616140948694,0.16007685661315918
1708440856.473641,-1.10747230052948,-1.6808272800841273,-2.5252111593829554,2.2826730447956542,-1.0146859327899378,0.16010092198848724
1708440856.4756355,-1.1074261665344238,-1.6808139286436976,-2.525224033986227,2.2826599317738037,-1.0146525541888636,0.1600486934185028
1708440856.4776292,-1.1074334383010864,-1.6808558903136195,-2.525257174168722,2.2826730447956542,-1.0146778265582483,0.1600443571805954
1708440856.4796278,-1.1074872016906738,-1.6808887920775355,-2.525219742451803,2.2826434808918457,-1.0146778265582483,0.16002459824085236
1708440856.4816751,-1.1074633598327637,-1.6808387241759242,-2.5251992384540003,2.2826270300098876,-1.0146659056292933,0.1600574254989624
1708440856.4836168,-1.1074752807617188,-1.6808515987791957,-2.525195900593893,2.2826360899158935,-1.0146573225604456,0.16007685661315918
1708440856.4856124,-1.1074796915054321,-1.6808105907835902,-2.525219742451803,2.282681389445923,-1.0146949926959437,0.1600530445575714
1708440856.4876194,-1.1074633598327637,-1.6808272800841273,-2.525207821522848,2.2826554018208007,-1.0146616140948694,0.1600574254989624
1708440856.489613,-1.1074589490890503,-1.6808272800841273,-2.525203529988424,2.282646341914795,-1.0146196524249476,0.16006925702095032
1708440856.4916174,-1.1075124740600586,-1.6807900867857875,-2.525191609059469,2.2826270300098876,-1.0146692434894007,0.16003209352493286
1708440856.493666,-1.1074708700180054,-1.6808139286436976,-2.525212113057272,2.282650871867798,-1.0146992842303675,0.1600170135498047
1708440856.4956362,-1.107461929321289,-1.6808096371092738,-2.525252882634298,2.2826554018208007,-1.0146949926959437,0.16001269221305847
1708440856.4976482,-1.1074544191360474,-1.6808105907835902,-2.5251830259906214,2.282693310374878,-1.0146735350238245,0.1600170135498047
1708440856.499646,-1.1074916124343872,-1.6808515987791957,-2.525207821522848,2.282613678569458,-1.0147159735309046,0.1600213348865509
1708440856.5016313,-1.1075243949890137,-1.6808229885497035,-2.5251992384540003,2.282667799586914,-1.0146735350238245,0.15999293327331543
1708440856.5036578,-1.1074872016906738,-1.6808425388731898,-2.525215450917379,2.282667799586914,-1.0146859327899378,0.15999728441238403
1708440856.505629,-1.1074782609939575,-1.6808320484557093,-2.525207821522848,2.2826554018208007,-1.0146902243243616,0.1599287986755371
1708440856.5076456,-1.1075035333633423,-1.6808387241759242,-2.5251992384540003,2.28267685949292,-1.0146949926959437,0.1599734127521515
1708440856.5096397,-1.1074916124343872,-1.6808630428709925,-2.525187317525045,2.282679720515869,-1.0146992842303675,0.15998215973377228
1708440856.5116181,-1.1074572801589966,-1.6807857952513636,-2.5251830259906214,2.282679720515869,-1.0146525541888636,0.15992434322834015
1708440856.5136807,-1.107461929321289,-1.6808186970152796,-2.525219742451803,2.282712383861206,-1.0146735350238245,0.15990059077739716
1708440856.5156589,-1.1074872016906738,-1.6807991466917933,-2.525224033986227,2.282700462932251,-1.0146949926959437,0.15990059077739716
1708440856.5177002,-1.107461929321289,-1.680819650689596,-2.5252187887774866,2.282691641444824,-1.0147159735309046,0.15990492701530457
1708440856.519649,-1.107438087463379,-1.6808229885497035,-2.5252354780780237,2.282684250468872,-1.0147202650653284,0.15986892580986023
1708440856.5216742,-1.1074752807617188,-1.6807972393431605,-2.5251949469195765,2.282632990474365,-1.0147069136248987,0.15990141034126282
1708440856.523637,-1.1075035333633423,-1.6808229885497035,-2.5252488295184534,2.282733364696167,-1.0146778265582483,0.15985234081745148
1708440856.525629,-1.107490062713623,-1.6808630428709925,-2.5252516905414026,2.282663269633911,-1.0147398153888147,0.15984484553337097
1708440856.5277007,-1.1075414419174194,-1.6808229885497035,-2.525215450917379,2.282693310374878,-1.014672581349508,0.1598566770553589
1708440856.52963,-1.1075035333633423,-1.6808015308775843,-2.5252023378955286,2.2826589780994873,-1.014688793812887,0.15984156727790833
1708440856.5317073,-1.1075154542922974,-1.6808062992491664,-2.525215450917379,2.282622738475464,-1.0147188345538538,0.15982182323932648
1708440856.5336573,-1.107511043548584,-1.680819650689596,-2.5252559820758265,2.2826544481464843,-1.014742676411764,0.159805566072464
1708440856.5356574,-1.1075243949890137,-1.680814882318014,-2.5252516905414026,2.282672329539917,-1.0147174040423792,0.15977339446544647
1708440856.537648,-1.1074872016906738,-1.680781980554098,-2.5252440611468714,2.282716913814209,-1.014681641255514,0.15976107120513916
1708440856.5396388,-1.1075036525726318,-1.680781980554098,-2.5252516905414026,2.282712383861206,-1.014742676411764,0.15976662933826447
1708440856.5416377,-1.1074708700180054,-1.6807991466917933,-2.5251904169665735,2.282672329539917,-1.014733616505758,0.15971314907073975
1708440856.5436115,-1.1074708700180054,-1.6808363399901332,-2.5252276102649134,2.2827035623737792,-1.0147174040423792,0.15968506038188934
1708440856.5456438,-1.107461929321289,-1.680814882318014,-2.5252397696124476,2.282675190562866,-1.0147665182696741,0.15963713824748993
1708440856.5476322,-1.1075243949890137,-1.6807910404601039,-2.5252261797534388,2.282708092326782,-1.0147412459002894,0.1596248894929886
1708440856.5496302,-1.107511043548584,-1.6808039150633753,-2.5252516905414026,2.2827035623737792,-1.0147789160357874,0.15956389904022217
1708440856.5516088,-1.1074916124343872,-1.6807614765562953,-2.5252516905414026,2.28266350805249,-1.0147364775287073,0.15956832468509674
1708440856.5536082,-1.1075444221496582,-1.6808229885497035,-2.5252681414233606,2.282675190562866,-1.0147908369647425,0.1595781147480011
1708440856.5556314,-1.1074752807617188,-1.680814882318014,-2.525259081517355,2.2827035623737792,-1.0147607962237757,0.15952040255069733
1708440856.5576448,-1.1075243949890137,-1.680814882318014,-2.5252798239337366,2.282708092326782,-1.0147979895221155,0.15955433249473572
1708440856.5596092,-1.1075533628463745,-1.6807991466917933,-2.525304142628805,2.282708092326782,-1.0147774855243128,0.15946488082408905
1708440856.5616145,-1.1075414419174194,-1.6808105907835902,-2.525304142628805,2.282688780421875,-1.0148385206805628,0.15948987007141113
1708440856.563616,-1.1075243949890137,-1.6807991466917933,-2.525320593510763,2.2826871114918212,-1.0148175398456019,0.15948669612407684
1708440856.5656059,-1.1074752807617188,-1.6807614765562953,-2.525299612675802,2.282712383861206,-1.0148442427264612,0.15941812098026276
1708440856.5676641,-1.107499122619629,-1.6808387241759242,-2.525311533604757,2.2827200132557373,-1.014853302632467,0.15934519469738007
1708440856.5696847,-1.1075533628463745,-1.680812498132223,-2.5253191629992884,2.282641811961792,-1.0148652235614222,0.15938666462898254
1708440856.5716798,-1.1074663400650024,-1.6807857952513636,-2.5253446737872522,2.282675190562866,-1.0149295965777796,0.15931034088134766
1708440856.5736852,-1.1075035333633423,-1.68078674892568,-2.5253356138812464,2.2826990324207763,-1.0148924032794397,0.15926241874694824
1708440856.5756721,-1.107461929321289,-1.6808105907835902,-2.5253265539752405,2.2827154833027343,-1.014911953602926,0.15925809741020203
1708440856.5776393,-1.1075489521026611,-1.6808239422240199,-2.5253639856921595,2.282724304790161,-1.0150106588946741,0.15920574963092804
1708440856.5796168,-1.1074782609939575,-1.680819650689596,-2.5253313223468226,2.282691641444824,-1.0149973074542444,0.15919506549835205
1708440856.581672,-1.1075289249420166,-1.6807285747923792,-2.5253503958331507,2.2826663690754394,-1.0151074568377894,0.15914274752140045
1708440856.5836844,-1.1074872016906738,-1.6808039150633753,-2.5253594557391565,2.282684012050293,-1.0150330702411097,0.15911976993083954
1708440856.5856667,-1.1074572801589966,-1.680828710595602,-2.5253716150866907,2.2827200132557373,-1.015118424092428,0.15904223918914795
1708440856.5876262,-1.1074947118759155,-1.680814882318014,-2.525411907826559,2.282675190562866,-1.0150650183307093,0.15899381041526794
1708440856.5896165,-1.1074589490890503,-1.6808320484557093,-2.525399986897604,2.282696171397827,-1.0151127020465296,0.15896205604076385
1708440856.5916145,-1.1074708700180054,-1.6808229885497035,-2.5254374186145228,2.282696171397827,-1.0151289145099085,0.1589031219482422
1708440856.5936503,-1.10753333568573,-1.680758615533346,-2.525428597127096,2.282696171397827,-1.015198055897848,0.15887495875358582
1708440856.5956607,-1.1075199842453003,-1.6808229885497035,-2.525398556386129,2.282696171397827,-1.0151813665973108,0.15881045162677765
1708440856.5976326,-1.1074916124343872,-1.680795808831686,-2.525435988103048,2.282728834743164,-1.0151317755328577,0.15873877704143524
1708440856.5996125,-1.1074752807617188,-1.680781980554098,-2.525403086339132,2.2827035623737792,-1.0151918570147913,0.15865369141101837
1708440856.601646,-1.1074752807617188,-1.6807948551573695,-2.525431458150045,2.2826782900043945,-1.0151847044574183,0.15860718488693237
1708440856.6036282,-1.1074796915054321,-1.6808330021300257,-2.5254479090320032,2.282752676601074,-1.0152576605426233,0.1585385501384735
1708440856.60564,-1.1074589490890503,-1.6808039150633753,-2.5254178682910364,2.282736225719116,-1.0152156988727015,0.15850456058979034
1708440856.6076353,-1.1074752807617188,-1.6808082065977992,-2.5254183451281946,2.2826902109333496,-1.0152648130999964,0.15840668976306915
1708440856.6096392,-1.1074872016906738,-1.6807671986021937,-2.5254762808429163,2.2827035623737792,-1.0152323881732386,0.15836837887763977
1708440856.61163,-1.107516884803772,-1.68078674892568,-2.525491539631979,2.282721443767212,-1.015275780354635,0.1582597941160202
1708440856.6136699,-1.1074707508087158,-1.6807705364623011,-2.5255005995379847,2.282733126277588,-1.015284840260641,0.15813471376895905
1708440856.615644,-1.1075050830841064,-1.680812498132223,-2.5255618731128138,2.2826828199573974,-1.0153268019305628,0.15806694328784943
1708440856.6176229,-1.1074752807617188,-1.6807705364623011,-2.525564972554342,2.2826589780994873,-1.0153487364398401,0.15802019834518433
1708440856.6196408,-1.1074589490890503,-1.6807810268797816,-2.525507990513937,2.2826947408863525,-1.015312973652975,0.15789906680583954
1708440856.621655,-1.1074752807617188,-1.680781980554098,-2.5254948774920862,2.282667799586914,-1.015336815510885,0.1577991545200348
1708440856.6236567,-1.1074305772781372,-1.680765768090719,-2.5255394617663782,2.282691641444824,-1.015369717274801,0.15774042904376984
1708440856.6256554,-1.1074796915054321,-1.6807948551573695,-2.5255516211139124,2.282667799586914,-1.0153401533709925,0.1576281040906906
1708440856.627647,-1.107467770576477,-1.6807910404601039,-2.525564972554342,2.2826873499104003,-1.0153730551349085,0.15749560296535492
1708440856.6296356,-1.1074544191360474,-1.680781980554098,-2.525543753300802,2.28263442098584,-1.0153844992267054,0.15742474794387817
1708440856.631678,-1.1074886322021484,-1.6808082065977992,-2.5255304018603724,2.2826663690754394,-1.0153926054583948,0.15734946727752686
1708440856.6336906,-1.1074652671813965,-1.6807495556273402,-2.5255680719958704,2.2826286989399414,-1.015437428151266,0.15723064541816711
1708440856.6356995,-1.107405185699463,-1.680737634698385,-2.5255709330188196,2.2826871114918212,-1.0154417196856897,0.15705685317516327
1708440856.6376874,-1.1074275970458984,-1.6808105907835902,-2.5255709330188196,2.282721443767212,-1.0154326597796839,0.15696635842323303
1708440856.6396644,-1.107405424118042,-1.6808039150633753,-2.5255544821368616,2.282700462932251,-1.015456501637594,0.1568291038274765
1708440856.6416621,-1.107423186302185,-1.680795808831686,-2.525562111531393,2.282679720515869,-1.0155184904681605,0.15670618414878845
1708440856.6436985,-1.107423186302185,-1.6808320484557093,-2.5255919138537806,2.282700462932251,-1.0155094305621546,0.15660710632801056
1708440856.6456773,-1.1074860095977783,-1.6807900867857875,-2.5256040732013147,2.282679720515869,-1.0155304113971155,0.15641319751739502
1708440856.6476328,-1.107405424118042,-1.6808105907835902,-2.52555758157839,2.2826589780994873,-1.0155404249774378,0.15629465878009796
1708440856.649639,-1.1074275970458984,-1.6807567081847132,-2.525602404271261,2.2826871114918212,-1.0155242125140589,0.15611675381660461
1708440856.6516953,-1.1074784994125366,-1.6808039150633753,-2.525614563618795,2.282696171397827,-1.0155318419085901,0.15601500868797302
1708440856.6536267,-1.1073771715164185,-1.6807948551573695,-2.525672976170675,2.282696171397827,-1.0155227820025843,0.15584702789783478
1708440856.655659,-1.1073864698410034,-1.6808039150633753,-2.525635544453756,2.2826389509388427,-1.0155556837665003,0.1557358056306839
1708440856.657619,-1.1073908805847168,-1.6807404957213343,-2.5256310145007532,2.2826599317738037,-1.0155933539019983,0.1555684208869934
1708440856.6596603,-1.107356309890747,-1.6807900867857875,-2.525656525288717,2.282667799586914,-1.0155933539019983,0.15541598200798035
1708440856.661632,-1.1073700189590454,-1.680781980554098,-2.5256758371936243,2.282679720515869,-1.0156095663653772,0.15530583262443542
1708440856.663645,-1.107316493988037,-1.6808330021300257,-2.5256639162646692,2.282733364696167,-1.0155800024615687,0.15507620573043823
1708440856.6656501,-1.1073253154754639,-1.680814882318014,-2.5256956259356897,2.2826554018208007,-1.0156038443194788,0.1549040526151657
1708440856.6676445,-1.10737144947052,-1.680819650689596,-2.5257254282580774,2.282588406200073,-1.0156453291522425,0.1547168642282486
1708440856.669673,-1.107312798500061,-1.680814882318014,-2.5257166067706507,2.2826642233082275,-1.0156438986407679,0.1545490175485611
1708440856.671648,-1.1074178218841553,-1.6808062992491664,-2.5257282892810267,2.282684250468872,-1.0157020727740687,0.1543128490447998
1708440856.6736128,-1.1073352098464966,-1.680774827996725,-2.525707546864645,2.2826389509388427,-1.0156438986407679,0.15415725111961365
1708440856.675628,-1.1073113679885864,-1.6807910404601039,-2.5257001558886927,2.2826480108448486,-1.0156601111041468,0.1539982706308365
1708440856.6776524,-1.1073188781738281,-1.6808062992491664,-2.525726858769552,2.2826315599628906,-1.0156515280352991,0.15378595888614655
1708440856.679655,-1.1073188781738281,-1.6808363399901332,-2.525714937840597,2.2826270300098876,-1.0156963507281702,0.15365521609783173
1708440856.6816428,-1.1073278188705444,-1.6807991466917933,-2.525731388722555,2.2826315599628906,-1.0156996885882776,0.15340697765350342
1708440856.683626,-1.1073203086853027,-1.6807900867857875,-2.525747839604513,2.28263442098584,-1.0157082716571253,0.15312613546848297
1708440856.6856365,-1.1073352098464966,-1.6807948551573695,-2.5257931391345423,2.2825988966175537,-1.0157440344439905,0.15293912589550018
1708440856.6876435,-1.1072994470596313,-1.6807900867857875,-2.525776449834005,2.2826360899158935,-1.0156996885882776,0.15274500846862793
1708440856.6896439,-1.1072711944580078,-1.6808320484557093,-2.5257418791400355,2.2826196390339355,-1.0157941023456019,0.152508944272995
1708440856.6916354,-1.107234001159668,-1.6808229885497035,-2.5257554689990442,2.2825957971760253,-1.015759293233053,0.15224474668502808
1708440856.6936545,-1.1072875261306763,-1.6808229885497035,-2.5257628599749964,2.2826031881519775,-1.0157917181598108,0.15196043252944946
1708440856.6956153,-1.107301115989685,-1.680819650689596,-2.5257795492755335,2.2825674253651123,-1.0157998243915003,0.15173308551311493
1708440856.6976562,-1.1071841716766357,-1.6807991466917933,-2.5257960001574915,2.282601757640503,-1.0158026854144495,0.15150605142116547
1708440856.6996465,-1.107230305671692,-1.6808272800841273,-2.5257538000689905,2.282505913371704,-1.0158355871783655,0.15127860009670258
1708440856.7016315,-1.1072111129760742,-1.68084778408193,-2.5258033911334437,2.282529755229614,-1.0158641974078577,0.1509990096092224
1708440856.7036128,-1.1071947813034058,-1.6808015308775843,-2.5258410612689417,2.282526894206665,-1.0159018675433558,0.15078423917293549
1708440856.705631,-1.1072230339050293,-1.6808186970152796,-2.5258198420154017,2.282510443324707,-1.0159252325641077,0.15051746368408203
1708440856.707625,-1.1071783304214478,-1.6808515987791957,-2.5257824102984827,2.2825237947651367,-1.01591664949526,0.15019209682941437
1708440856.7096052,-1.1071916818618774,-1.6807900867857875,-2.525835100804464,2.2825402456470947,-1.0158985296832483,0.14994163811206818
1708440856.7116137,-1.1071680784225464,-1.6808186970152796,-2.525832001362936,2.2824911314197998,-1.0159314314471644,0.14962488412857056
1708440856.7136173,-1.1071419715881348,-1.6808253727354945,-2.52586800256838,2.2825445371815185,-1.0159805456744593,0.14931674301624298
1708440856.7156055,-1.1071419715881348,-1.6807924709715785,-2.525827471409933,2.282475634212158,-1.0159509817706507,0.1490543633699417
1708440856.717672,-1.107106328010559,-1.6808186970152796,-2.5258753935443323,2.2824591833302,-1.0159881750689905,0.14878645539283752
1708440856.7196527,-1.107098937034607,-1.6808186970152796,-2.5258470217334192,2.2825135427662353,-1.0159834066974085,0.14847852289676666
1708440856.7216487,-1.107122778892517,-1.6808768711485804,-2.525851551686422,2.2824591833302,-1.0159629026996058,0.1482113003730774
1708440856.7236269,-1.107098937034607,-1.6808229885497035,-2.5258753935443323,2.282447262401245,-1.0160005728351038,0.1478959321975708
1708440856.7256317,-1.1071122884750366,-1.6808296642699183,-2.5258799234973353,2.282480164165161,-1.015991512929098,0.1476094275712967
1708440856.7276316,-1.1071122884750366,-1.6808678112425746,-2.5258873144732874,2.282454653377197,-1.0160272757159632,0.14735037088394165
1708440856.7296462,-1.1070705652236938,-1.6808544598021449,-2.5259037653552454,2.2824858862110595,-1.0159733931170862,0.14700189232826233
1708440856.7316687,-1.1071094274520874,-1.6808387241759242,-2.5258947054492396,2.282423420543335,-1.0160673300372522,0.14669035375118256
1708440856.7337132,-1.107064127922058,-1.6808840237059535,-2.5259607473956507,2.2824160295673828,-1.0160720984088343,0.14637897908687592
1708440856.7356224,-1.1070388555526733,-1.6808120212950648,-2.5259326140033167,2.282407208079956,-1.0160554091082972,0.14601853489875793
1708440856.737623,-1.1070566177368164,-1.6808468304076136,-2.525944534932272,2.2823917108723144,-1.0160797278033655,0.14569655060768127
1708440856.7396078,-1.1070075035095215,-1.6808544598021449,-2.525947395955221,2.2823492723652343,-1.0160916487323206,0.1453852653503418
1708440856.741634,-1.1070194244384766,-1.6808587513365687,-2.525938336049215,2.2823256689259033,-1.0161412397967737,0.1449682116508484
1708440856.743624,-1.1069546937942505,-1.6808425388731898,-2.52595025697817,2.282360001201294,-1.0161188284503382,0.14462994039058685
1708440856.7456295,-1.1069146394729614,-1.6808377705016078,-2.525980297719137,2.282367392177246,-1.016139332448141,0.1443321704864502
1708440856.7476232,-1.1068841218948364,-1.6808544598021449,-2.5260208288775843,2.282360001201294,-1.0161798636065882,0.14399702847003937
1708440856.7496314,-1.106938362121582,-1.6808630428709925,-2.5260120073901575,2.2823642927357177,-1.0161874930011194,0.14363716542720795
1708440856.751606,-1.1068902015686035,-1.6808515987791957,-2.5259998480426233,2.282318277949951,-1.0162237326251429,0.14331994950771332
1708440856.753646,-1.106894850730896,-1.6808496914305628,-2.5259743372546595,2.282294436092041,-1.0162070433246058,0.1430097371339798
1708440856.7556167,-1.10685396194458,-1.6808425388731898,-2.5259698073016565,2.2822744089313964,-1.016230885182516,0.14260198175907135
1708440856.7576416,-1.1068873405456543,-1.680883070031637,-2.5260358492480677,2.2823242384144287,-1.016263786946432,0.14221452176570892
1708440856.7596717,-1.1068183183670044,-1.6808988056578578,-2.5260029474841517,2.2822789388843994,-1.0162695089923304,0.1418396234512329
1708440856.7616024,-1.106825828552246,-1.680861612359518,-2.526026789342062,2.2823003965565185,-1.0162819067584437,0.14146117866039276
1708440856.7636714,-1.1068555116653442,-1.6809069118895472,-2.526055399571554,2.2822879987904052,-1.0163357893573206,0.14110176265239716
1708440856.7656062,-1.1067990064620972,-1.6808988056578578,-2.5260301272021692,2.282255097026489,-1.0163148085223597,0.1406787484884262
1708440856.76765,-1.106807827949524,-1.6808706722655238,-2.526046339665548,2.282268448466919,-1.016322437916891,0.14038586616516113
1708440856.7696996,-1.1067700386047363,-1.68092741588735,-2.526050869618551,2.2822150427052,-1.0163176695453089,0.13992920517921448
1708440856.7716415,-1.1067044734954834,-1.680885454217428,-2.5260630289660853,2.282256527537964,-1.016346279774801,0.13958336412906647
1708440856.7737052,-1.1067150831222534,-1.6809035740294398,-2.5260987917529505,2.282235785121582,-1.0163653532611292,0.1391432285308838
1708440856.7756338,-1.1067761182785034,-1.680918355981344,-2.5261288324939173,2.282210512752197,-1.0164077917682093,0.13879284262657166
1708440856.7776809,-1.1067239046096802,-1.6808763943114222,-2.5261078516589563,2.2822462755390625,-1.0164149443255823,0.13832101225852966
1708440856.7796457,-1.1067285537719727,-1.680913587609762,-2.5261405150042933,2.2821578222462158,-1.0164268652545374,0.13795115053653717
1708440856.7816377,-1.1066861152648926,-1.6809307537474574,-2.5261107126819056,2.2821950155445556,-1.0164554754840296,0.13759341835975647
1708440856.7837107,-1.1067041158676147,-1.6809264622130335,-2.526156012211935,2.2821964460560302,-1.0164421240436,0.1371297538280487
1708440856.78566,-1.1066266298294067,-1.6809588871397914,-2.526163403187887,2.2821668821522216,-1.016491715108053,0.13670754432678223
1708440856.787675,-1.1066550016403198,-1.6809679470457972,-2.526146952305929,2.2822164732166748,-1.0164826552020472,0.136291965842247
1708440856.789599,-1.1066399812698364,-1.6810203991331996,-2.526188675557272,2.282156391734741,-1.0165346304522913,0.13588637113571167
1708440856.7915974,-1.1066176891326904,-1.6809784374632777,-2.526170794163839,2.2821311193653564,-1.0165498892413538,0.13542988896369934
1708440856.7936087,-1.1066399812698364,-1.6810065708556117,-2.526170794163839,2.282123489970825,-1.0165823141681116,0.13509400188922882
1708440856.7956066,-1.106603741645813,-1.6809693775572718,-2.5262203852282923,2.282094641322754,-1.0166061560260218,0.1346132457256317
1708440856.7976344,-1.1066126823425293,-1.6810113392271937,-2.5261946360217493,2.282090111369751,-1.0166381041156214,0.1342160552740097
1708440856.7996347,-1.106571078300476,-1.6810351810851039,-2.5262158552752894,2.2821037012287597,-1.0166338125811976,0.13378897309303284
1708440856.801633,-1.106559157371521,-1.6810065708556117,-2.5262399355517786,2.282120628947876,-1.0166338125811976,0.13333341479301453
1708440856.8036444,-1.1065605878829956,-1.681009431878561,-2.5262399355517786,2.2820917802998046,-1.0166991392718714,0.13294027745723724
1708440856.8056056,-1.106501817703247,-1.6810757122435511,-2.526280466710226,2.2821037012287597,-1.0167143980609339,0.1324406862258911
1708440856.8076243,-1.1065397262573242,-1.6810218296446742,-2.5262354055987757,2.2820307451435546,-1.0167143980609339,0.13199466466903687
1708440856.8096478,-1.1065287590026855,-1.6810366115965785,-2.5262683073626917,2.2820514875599365,-1.0167220274554651,0.13158784806728363
1708440856.8116472,-1.1065332889556885,-1.6810499630370082,-2.52627140680422,2.2820395666309814,-1.0167668501483362,0.13109757006168365
1708440856.8136175,-1.1064379215240479,-1.6810671291747035,-2.526304546986715,2.2820560175129394,-1.0167620817767542,0.13074767589569092
1708440856.8156462,-1.106439471244812,-1.6810580692686976,-2.5262909571277063,2.282064839000366,-1.0168069044696253,0.13023604452610016
1708440856.8176394,-1.1064008474349976,-1.6810652218260707,-2.526361052189962,2.2820679384418945,-1.0168312231646937,0.12980547547340393
1708440856.8196628,-1.1064280271530151,-1.6810995541014613,-2.5263147989856165,2.2820486265369873,-1.016817871724264,0.1293654590845108
1708440856.8216765,-1.106427550315857,-1.6810490093626917,-2.526361052189962,2.281982346171997,-1.016846005116598,0.12892977893352509
1708440856.8236988,-1.1064621210098267,-1.6810580692686976,-2.5263267199145716,2.28206650793042,-1.016869846974508,0.12846806645393372
1708440856.8256495,-1.1063978672027588,-1.6810904941954554,-2.5263643900500696,2.281982346171997,-1.016862694417135,0.1279938668012619
1708440856.8276494,-1.1064071655273438,-1.6811357937254847,-2.526388470326559,2.281975193614624,-1.0168612639056605,0.12756645679473877
1708440856.8296561,-1.1063789129257202,-1.6810933552184046,-2.526362959538595,2.282050057048462,-1.0168898741351526,0.12713706493377686
1708440856.8317509,-1.1063566207885742,-1.6810890636839808,-2.526416842137472,2.282050057048462,-1.0168808142291468,0.12669453024864197
1708440856.8336797,-1.1063215732574463,-1.681105752984518,-2.526379410420553,2.2819601732441406,-1.0169509092914026,0.12618693709373474
1708440856.8356621,-1.1063261032104492,-1.6810819111266078,-2.5263987223254603,2.2820047575184326,-1.0169537703143519,0.12580174207687378
1708440856.8376682,-1.1062904596328735,-1.68109192470693,-2.5264483133899134,2.2820004659840087,-1.0170028845416468,0.12530292570590973
1708440856.839693,-1.1063023805618286,-1.68117155651235,-2.5264812151538294,2.2819482523151855,-1.0169976393329065,0.12488827109336853
1708440856.841706,-1.1062949895858765,-1.681183477441305,-2.5264151732074183,2.2819675642200927,-1.0170782248126429,0.12436534464359283
1708440856.8436978,-1.1063157320022583,-1.6811701260008753,-2.526479784642355,2.2819885450550537,-1.0170734564410608,0.12389475852251053
1708440856.845699,-1.1062710285186768,-1.6811415157713832,-2.5265217463122767,2.2819973665424804,-1.0170734564410608,0.12343208491802216
1708440856.8476841,-1.1062755584716797,-1.681124826470846,-2.526454273854391,2.281951351756714,-1.0170601050006312,0.12295390665531158
1708440856.8496573,-1.1062383651733398,-1.681124826470846,-2.526478115712301,2.281951351756714,-1.0171263853656214,0.12246992439031601
1708440856.8516817,-1.1062891483306885,-1.6811582050719203,-2.526494805012838,2.2819363313862304,-1.0171502272235315,0.12200766801834106
1708440856.8536417,-1.1062273979187012,-1.6811539135374964,-2.526503864918844,2.281902952785156,-1.0172637144671839,0.12159037590026855
1708440856.8556697,-1.1062681674957275,-1.6811791859068812,-2.526537005101339,2.2819015222736816,-1.0172103087054651,0.12107039988040924
1708440856.8576438,-1.1062318086624146,-1.6811729870238246,-2.526511255894796,2.281919403667114,-1.017242733632223,0.12065062671899796
1708440856.8596206,-1.106192946434021,-1.6812354526915492,-2.5265353361712855,2.28192846357312,-1.0172041098224085,0.12018878757953644
1708440856.8616443,-1.1062273979187012,-1.6812063656248988,-2.5265234152423304,2.2819408613392334,-1.0172327200519007,0.11971305310726166
1708440856.8636205,-1.1062318086624146,-1.6811982593932093,-2.5265100638019007,2.2819148737141113,-1.0172608534442347,0.11922624707221985
1708440856.8656693,-1.1061946153640747,-1.6811939678587855,-2.5265472571002405,2.281920834178589,-1.017313305531637,0.11864679306745529
1708440856.8676472,-1.1061826944351196,-1.6812063656248988,-2.5265591780291956,2.281883640880249,-1.017306152974264,0.11820178478956223
1708440856.869687,-1.1062079668045044,-1.6812435589232386,-2.526602808629171,2.281916542644165,-1.017313305531637,0.11766999959945679
1708440856.8716834,-1.1062288284301758,-1.6811863384642542,-2.5265710989581507,2.281958742732666,-1.017325226460592,0.11719149351119995
1708440856.873701,-1.1061588525772095,-1.6812459431090296,-2.526623789464132,2.2818702894398193,-1.0173853079425257,0.11676164716482162
1708440856.8756804,-1.1062005758285522,-1.681221147576803,-2.526637379323141,2.281916542644165,-1.0173595587359827,0.11629179865121841
1708440856.877657,-1.106209635734558,-1.6812344990172328,-2.5266147295581263,2.281920834178589,-1.0174019972430628,0.11575589329004288
1708440856.8796718,-1.1061887741088867,-1.6812588177123011,-2.5266311804400843,2.281871719951294,-1.017437760029928,0.11527314782142639
1708440856.8816552,-1.106127142906189,-1.681204458276266,-2.5266762415515345,2.281859799022339,-1.017465893422262,0.11482378095388412
1708440856.8837242,-1.1061599254608154,-1.6812178097166957,-2.5266671816455286,2.2818969923206787,-1.0174525419818323,0.11428825557231903
1708440856.8856857,-1.1060807704925537,-1.68127503017568,-2.5266340414630335,2.281850977534912,-1.0175002256976526,0.11371694505214691
1708440856.8876061,-1.1061732769012451,-1.6812344990172328,-2.5266626516925257,2.2819296556660156,-1.0174673239337366,0.11329670250415802
1708440856.8895972,-1.1061687469482422,-1.681263109246725,-2.52667481104006,2.2819015222736816,-1.017557446156637,0.11274892091751099
1708440856.891616,-1.1061480045318604,-1.681270261804098,-2.5267003218280237,2.281876249904297,-1.017595116292135,0.11229997128248215
1708440856.8936327,-1.1061240434646606,-1.6812416515746058,-2.526727263127462,2.281920834178589,-1.0175483862506312,0.11180088669061661
1708440856.8956082,-1.1060913801193237,-1.6812325916686,-2.526748243962423,2.281879349345825,-1.017569367085592,0.11124947667121887
1708440856.8976119,-1.1061285734176636,-1.681225915948385,-2.5267227331744593,2.281900091762207,-1.0176127592669886,0.11073087155818939
1708440856.899616,-1.1061033010482788,-1.681254049340719,-2.5267558733569544,2.281871719951294,-1.0176070372210901,0.11029466986656189
1708440856.9016426,-1.1060794591903687,-1.68127503017568,-2.5266926924334925,2.28184358655896,-1.0176680723773401,0.10972724854946136
1708440856.9036272,-1.1061375141143799,-1.6812368832030238,-2.5267422834979456,2.281871719951294,-1.017677132283346,0.10920003801584244
1708440856.9056242,-1.106067419052124,-1.6812616787352503,-2.5267916361438196,2.281888170833252,-1.017656151448385,0.10869337618350983
1708440856.9076173,-1.1060794591903687,-1.6813060245909632,-2.5267797152148646,2.28184358655896,-1.0177176634417933,0.10829734057188034
1708440856.9096143,-1.1060459613800049,-1.6812497578062953,-2.526789967213766,2.2818850713917236,-1.0177162329303187,0.10769615322351456
1708440856.9116204,-1.1061122417449951,-1.6813084087767542,-2.526785437260763,2.281855507487915,-1.0177682081805628,0.10725638270378113
1708440856.9135966,-1.1060675382614136,-1.6812659702696742,-2.526844326649801,2.2818478780933837,-1.017817799245016,0.10666421800851822
1708440856.9156091,-1.1060675382614136,-1.681270261804098,-2.5268681685077112,2.281871719951294,-1.0178044478045862,0.10614530742168427
1708440856.9176238,-1.1060504913330078,-1.681315084496969,-2.5268381277667444,2.281871719951294,-1.0178030172931116,0.10564689338207245
1708440856.9196982,-1.1060882806777954,-1.6812659702696742,-2.5268517176257532,2.2818807798572998,-1.0178688208209437,0.1051739752292633
1708440856.9216669,-1.1060221195220947,-1.6812325916686,-2.5268664995776575,2.281813307399414,-1.0178807417498987,0.10465171188116074
1708440856.9236796,-1.1060595512390137,-1.6812616787352503,-2.5268664995776575,2.2818807798572998,-1.0179207960711878,0.10411302745342255
1708440856.925662,-1.1060267686843872,-1.6812659702696742,-2.5268951098071497,2.281888170833252,-1.017966095601217,0.10368726402521133
1708440856.9276333,-1.106056571006775,-1.6812993488707484,-2.526944700871603,2.281855507487915,-1.0179241339312952,0.10314351320266724
1708440856.9296288,-1.106040120124817,-1.6812569103636683,-2.5268848578082483,2.281859799022339,-1.0180023352252405,0.10264913737773895
1708440856.9316928,-1.1060312986373901,-1.6812449894347132,-2.526997152959005,2.281859799022339,-1.0179975668536585,0.10217131674289703
1708440856.9336832,-1.106002926826477,-1.6812778911986292,-2.52698523203005,2.2818969923206787,-1.017979923878805,0.1016692966222763
1708440856.9356973,-1.1060312986373901,-1.6812588177123011,-2.526952091847555,2.281892700786255,-1.0179913679706019,0.10115070641040802
1708440856.9376805,-1.1060357093811035,-1.6812588177123011,-2.5269597212420862,2.281888170833252,-1.0180156866656702,0.10065271705389023
1708440856.9396188,-1.1060237884521484,-1.681286951104635,-2.5269551912890833,2.2819134432026367,-1.0180605093585413,0.10015330463647842
1708440856.941652,-1.1060535907745361,-1.6813270054259242,-2.5269838015185755,2.281876249904297,-1.0180676619159144,0.09969618171453476
1708440856.9436352,-1.1060237884521484,-1.6813036404051722,-2.5269957224475306,2.28190462171521,-1.0181124846087855,0.0991884246468544
1708440856.9456215,-1.1059985160827637,-1.6812731228270472,-2.527073685322897,2.281888170833252,-1.0181368033038538,0.0986771434545517
1708440856.9476197,-1.1059701442718506,-1.6812616787352503,-2.5270360151873987,2.281871719951294,-1.0181143919574183,0.09818737208843231
1708440856.949633,-1.1060327291488647,-1.6812569103636683,-2.5270467440234583,2.281888170833252,-1.0181682745562952,0.09770546853542328
1708440856.9516187,-1.106019377708435,-1.6812688312926234,-2.5270751158343714,2.2818309503742675,-1.0181787649737757,0.09720674157142639
1708440856.9536285,-1.1060371398925781,-1.6812950573363246,-2.5270422140704554,2.2818643289753417,-1.018191162739889,0.09671598672866821
1708440856.9556375,-1.1060327291488647,-1.6812974415221156,-2.5270541349994105,2.2819060522266845,-1.018219296132223,0.0962255597114563
1708440856.957642,-1.1060490608215332,-1.6813270054259242,-2.5271034876452845,2.281876249904297,-1.0182269255267542,0.09571954607963562
1708440856.9596055,-1.1060371398925781,-1.6812812290587367,-2.5270989576922815,2.281895561809204,-1.018271271382467,0.09518806636333466
1708440856.9616125,-1.1060327291488647,-1.6812778911986292,-2.5270989576922815,2.2818850713917236,-1.0182579199420374,0.09464982151985168
1708440856.9636118,-1.1059620380401611,-1.6812993488707484,-2.527106587086813,2.281855507487915,-1.0183404127704065,0.09416040033102036
1708440856.96564,-1.106002926826477,-1.6812778911986292,-2.527159039174215,2.281879349345825,-1.0183566252337855,0.09368941187858582
1708440856.9676678,-1.106002926826477,-1.681286951104635,-2.5271649996386927,2.281892700786255,-1.0183103720294397,0.09325248748064041
1708440856.9696882,-1.1060490608215332,-1.681254049340719,-2.527175490056173,2.281839056605957,-1.0183585325824183,0.09270969033241272
1708440856.971757,-1.10600745677948,-1.6812812290587367,-2.527163569127218,2.281900091762207,-1.0184243361102503,0.092211052775383
1708440856.973671,-1.1060237884521484,-1.6813346348204554,-2.527138058339254,2.281876249904297,-1.0184066931353968,0.0917247086763382
1708440856.9756982,-1.10600745677948,-1.6812526188292445,-2.5271876494037073,2.281892700786255,-1.0184558073626917,0.09123847633600235
1708440856.977629,-1.10600745677948,-1.6812778911986292,-2.5271952787982386,2.281862898463867,-1.0184629599200647,0.09077189862728119
1708440856.9796314,-1.1059999465942383,-1.6812778911986292,-2.5271862188922327,2.281859799022339,-1.0184629599200647,0.0902380719780922
1708440856.9817257,-1.1060043573379517,-1.6812859974303187,-2.5272236506091517,2.2818912702747802,-1.0184991995440882,0.0897512137889862
1708440856.98369,-1.1060043573379517,-1.6812950573363246,-2.5272071997271937,2.281970663661621,-1.0185440222369593,0.08934181928634644
1708440856.985625,-1.105966567993164,-1.6812688312926234,-2.527214590703146,2.281895561809204,-1.0185635725604456,0.08877003192901611
1708440856.9876046,-1.105995535850525,-1.6813341579832972,-2.527221981679098,2.2818538385578613,-1.0185635725604456,0.08833576738834381
1708440856.9896083,-1.1059457063674927,-1.681315084496969,-2.527288262044088,2.28192846357312,-1.0185826460467737,0.0878133475780487
1708440856.9916441,-1.1060043573379517,-1.6813179455199183,-2.5272672812091272,2.281932755107544,-1.0186188856707972,0.0873030573129654
1708440856.9936383,-1.1059836149215698,-1.6812731228270472,-2.52727181116213,2.281912012691162,-1.0185983816729944,0.08683355897665024
1708440856.9956532,-1.105997085571289,-1.6812526188292445,-2.5272985140429896,2.281902952785156,-1.0186474959002894,0.08628206700086594
1708440856.997648,-1.105966567993164,-1.6813017330565394,-2.5273194948779505,2.2819899755665283,-1.0186756292926233,0.08581504225730896
1708440856.9996161,-1.105966567993164,-1.6812645397581996,-2.5273481051074427,2.2819689947315673,-1.0187113920794886,0.08527173846960068
1708440857.0016544,-1.1059880256652832,-1.6813107929625453,-2.527384106312887,2.281919403667114,-1.018714729939596,0.08485084772109985
1708440857.003619,-1.105997085571289,-1.6813060245909632,-2.527372185383932,2.2819573122211914,-1.018735710774557,0.08438089489936829
1708440857.0056572,-1.1060043573379517,-1.6813084087767542,-2.5273149649249476,2.2819689947315673,-1.0187504927264612,0.08390127122402191
1708440857.0076196,-1.1059926748275757,-1.681331296960348,-2.527391497288839,2.2819973665424804,-1.0187910238849085,0.08344785124063492
1708440857.0096142,-1.105997085571289,-1.6812902889647425,-2.5273495356189173,2.2819720941730957,-1.0187986532794397,0.08293233811855316
1708440857.0116866,-1.10597562789917,-1.681282182733053,-2.5273869673358362,2.281979485149048,-1.018801514302389,0.08244486153125763
1708440857.0136518,-1.1059709787368774,-1.6812616787352503,-2.527429167424337,2.2819394308277587,-1.018867317830221,0.08190862089395523
1708440857.0156398,-1.1059709787368774,-1.6812735996642054,-2.5273779074298304,2.281979485149048,-1.0188420454608362,0.08143314719200134
1708440857.0176544,-1.105997085571289,-1.68133606533193,-2.5274065176593226,2.2819840151020507,-1.0188911596881312,0.08100685477256775
1708440857.0196779,-1.105997085571289,-1.6812778911986292,-2.5274844805346888,2.281995936031006,-1.0189393202411097,0.0805799812078476
1708440857.0216756,-1.1059926748275757,-1.6813346348204554,-2.5274186770068567,2.282012386912964,-1.0189393202411097,0.0801038146018982
1708440857.0236702,-1.10597562789917,-1.6812449894347132,-2.52747089067568,2.2820917802998046,-1.0189302603351038,0.07957499474287033
1708440857.0256886,-1.1059880256652832,-1.681258340875143,-2.527463499699728,2.2820285993763427,-1.0189498106585901,0.07913240790367126
1708440857.02765,-1.1059592962265015,-1.6812526188292445,-2.527482811604635,2.282024307841919,-1.0190017859088343,0.07864025980234146
1708440857.0296223,-1.1059309244155884,-1.6812659702696742,-2.527482811604635,2.282012386912964,-1.0190351645099085,0.07824638485908508
1708440857.0317502,-1.105938196182251,-1.6813060245909632,-2.5274980703936976,2.2820767599293212,-1.0189884344684046,0.07773300260305405
1708440857.033652,-1.1059709787368774,-1.6812645397581996,-2.5275281111346644,2.2820233541676025,-1.0190919081317347,0.07728177309036255
1708440857.0356903,-1.1059926748275757,-1.6812926731505335,-2.5275400320636194,2.282036705608032,-1.0190694967852991,0.0768023133277893
1708440857.0376558,-1.1059473752975464,-1.6812812290587367,-2.5274906794177454,2.282073898906372,-1.019057575856344,0.07627684623003006
1708440857.0396485,-1.1059772968292236,-1.6812778911986292,-2.5274980703936976,2.282064839000366,-1.0190723578082483,0.07583422213792801
1708440857.0416737,-1.1059709787368774,-1.6812645397581996,-2.5275638739215296,2.2820276457020263,-1.0191429297076624,0.07539085298776627
1708440857.0436735,-1.1059592962265015,-1.6813107929625453,-2.5275548140155237,2.2820886808582763,-1.0191429297076624,0.07492760568857193
1708440857.0456357,-1.1059709787368774,-1.6812569103636683,-2.5275474230395716,2.2820634084888916,-1.0191534201251429,0.07450050860643387
1708440857.0476267,-1.1059709787368774,-1.6812616787352503,-2.527621094380514,2.2820679384418945,-1.0191696325885218,0.07408127933740616
1708440857.0496254,-1.106013536453247,-1.6812778911986292,-2.52759558359255,2.2820307451435546,-1.019214932118551,0.07366204261779785
1708440857.0516756,-1.105938196182251,-1.6813107929625453,-2.52759558359255,2.2820560175129394,-1.0192058722125452,0.07322262972593307
1708440857.0536342,-1.1059637069702148,-1.6813017330565394,-2.527612034474508,2.2820188242145996,-1.0192416349994105,0.07274224609136581
1708440857.0556674,-1.105954647064209,-1.6812902889647425,-2.5276270548449915,2.2820886808582763,-1.0192297140704554,0.07233487814664841
1708440857.0576258,-1.1059473752975464,-1.6812950573363246,-2.5276690165149134,2.282050057048462,-1.0192654768573206,0.07195615023374557
1708440857.0596497,-1.1059309244155884,-1.681282182733053,-2.5276344458209437,2.2820753294178466,-1.0193150679217737,0.07150068879127502
1708440857.0616071,-1.1059681177139282,-1.6812645397581996,-2.5276225248919886,2.2820591169544677,-1.0193012396441858,0.07106027007102966
1708440857.0636399,-1.1059681177139282,-1.6813270054259242,-2.5276928583728235,2.282033606166504,-1.0192597548114222,0.07063712924718857
1708440857.0656188,-1.1059561967849731,-1.681282182733053,-2.5276556650744837,2.282116098994873,-1.0193465391742151,0.07023389637470245
1708440857.067678,-1.1059561967849731,-1.6813436947264613,-2.527674976979391,2.2820798593708496,-1.0192959944354456,0.06982593983411789
1708440857.0696747,-1.1059473752975464,-1.6812569103636683,-2.527698818837301,2.2821459013172607,-1.0193613211261194,0.06937818229198456
1708440857.0716558,-1.105981707572937,-1.681315084496969,-2.527679506932394,2.282082720393799,-1.0193570295916956,0.06899077445268631
1708440857.0736861,-1.1059445142745972,-1.6812569103636683,-2.52771240869631,2.2820591169544677,-1.0193570295916956,0.06855446845293045
1708440857.0756407,-1.105981707572937,-1.6813036404051722,-2.527658526097433,2.2821037012287597,-1.019393269215719,0.06815093010663986
1708440857.0776784,-1.1059398651123047,-1.6813060245909632,-2.527752939854757,2.282137079829834,-1.0194128195392054,0.0677550882101059
1708440857.0796459,-1.1059398651123047,-1.6812859974303187,-2.527715269719259,2.2820872503468017,-1.0194409529315394,0.06744112074375153
1708440857.081655,-1.1059199571609497,-1.6812859974303187,-2.5277188459979456,2.2821578222462158,-1.0194528738604944,0.06699075549840927
1708440857.083677,-1.1058900356292725,-1.681315084496969,-2.5277305285083216,2.282116098994873,-1.0194528738604944,0.06658724695444107
1708440857.085651,-1.1059318780899048,-1.68127503017568,-2.5277441183673304,2.282186194057129,-1.0194767157184046,0.06625673919916153
1708440857.0876358,-1.1059184074401855,-1.6812859974303187,-2.5276852289782923,2.282153530711792,-1.019533936177389,0.06575749814510345
1708440857.0916195,-1.105911135673523,-1.6812616787352503,-2.5277798811541956,2.282144232387207,-1.0195367972003382,0.06501121819019318
1708440857.0936356,-1.1059489250183105,-1.6812902889647425,-2.5277589003192347,2.2821027475544433,-1.019562069569723,0.06463496387004852
1708440857.0956318,-1.1059080362319946,-1.681286951104635,-2.5277965704547327,2.2821683126636962,-1.019585911427633,0.06430568546056747
1708440857.0977583,-1.1058566570281982,-1.681282182733053,-2.5277753512011927,2.2821354108997802,-1.0196097532855433,0.06392521411180496
1708440857.0996497,-1.1059036254882812,-1.6812993488707484,-2.5277753512011927,2.2821518617817382,-1.0195143858539026,0.06361468881368637
1708440857.101619,-1.1059155464172363,-1.6813179455199183,-2.527782980595724,2.2821430402943115,-1.0196054617511194,0.0632505863904953
1708440857.1036398,-1.1058613061904907,-1.6812859974303187,-2.5277963320361536,2.2821549612232666,-1.0196221510516565,0.06289954483509064
1708440857.105613,-1.1058827638626099,-1.6813107929625453,-2.527790371571676,2.2821592527576904,-1.0196087996112269,0.06251140683889389
1708440857.1076372,-1.1059199571609497,-1.6812449894347132,-2.527794901524679,2.282156391734741,-1.0195873419391077,0.06211472675204277
1708440857.1096058,-1.10591721534729,-1.6812449894347132,-2.5278025309192103,2.2821072775074462,-1.0196369330035608,0.06179113686084747
1708440857.1116607,-1.105879306793213,-1.6812769375243128,-2.5277708212481897,2.2821027475544433,-1.019644562398092,0.061443477869033813
1708440857.1136305,-1.1058629751205444,-1.6813389263548792,-2.527782980595724,2.28217260419812,-1.019611660634176,0.06108023598790169
1708440857.1156147,-1.105837345123291,-1.681315084496969,-2.5278309027301233,2.28217260419812,-1.0196564833270472,0.060760002583265305
1708440857.1176457,-1.105841875076294,-1.6813198528685511,-2.527832333241598,2.282139940852783,-1.019644562398092,0.06043750047683716
1708440857.1196592,-1.1058882474899292,-1.6812812290587367,-2.52778131166567,2.282205267543457,-1.0196355024920862,0.06008093059062958
1708440857.1216633,-1.1058746576309204,-1.681282182733053,-2.527823511754171,2.282123489970825,-1.0196564833270472,0.0597662627696991
1708440857.123644,-1.105830192565918,-1.6812950573363246,-2.5278144518481653,2.28214876234021,-1.019644562398092,0.05945441126823425
1708440857.1256206,-1.1058717966079712,-1.6812974415221156,-2.5278189818011683,2.2821518617817382,-1.0196641127215784,0.05911508575081825
1708440857.127638,-1.1058435440063477,-1.6812974415221156,-2.5278518835650843,2.2821058469959716,-1.0196684042560022,0.05881547927856445
1708440857.1296232,-1.105858325958252,-1.681315084496969,-2.5277939478503626,2.2821191984364013,-1.0196593443499964,0.05846654251217842
1708440857.1316464,-1.1058763265609741,-1.6812449894347132,-2.5278354326831263,2.282181425685547,-1.0196684042560022,0.05815574899315834
1708440857.1336603,-1.1058926582336426,-1.6812478504576625,-2.527827803288595,2.282139940852783,-1.019672695790426,0.05780298635363579
1708440857.1356773,-1.1058435440063477,-1.6813255749144496,-2.5278549830066126,2.2821101385303955,-1.0196550528155726,0.05756083130836487
1708440857.137625,-1.105864405632019,-1.6812778911986292,-2.527808491383688,2.2821058469959716,-1.0196803251849573,0.057182375341653824
1708440857.1396167,-1.1058763265609741,-1.6812769375243128,-2.5278309027301233,2.282078190440796,-1.0197013060199183,0.05689145252108574
1708440857.1416311,-1.1058598756790161,-1.6812359295287074,-2.5278685728656214,2.282099171275757,-1.0196312109576624,0.05664517357945442
1708440857.1436229,-1.1058435440063477,-1.6813060245909632,-2.5278189818011683,2.2821549612232666,-1.0196760336505335,0.056309524923563004
1708440857.1456132,-1.105836033821106,-1.6812645397581996,-2.527823511754171,2.282189055080078,-1.0197013060199183,0.05600081756711006
1708440857.147634,-1.1058226823806763,-1.6813389263548792,-2.527823511754171,2.2821683126636962,-1.0196712652789515,0.05572173371911049
1708440857.1496253,-1.105847954750061,-1.6812812290587367,-2.5278099218951624,2.282153530711792,-1.0196760336505335,0.05541026219725609
1708440857.1516685,-1.1057988405227661,-1.6813317737975062,-2.5278428236590784,2.282205267543457,-1.0196312109576624,0.055080730468034744
1708440857.1536286,-1.1058152914047241,-1.6812859974303187,-2.5278309027301233,2.2821518617817382,-1.0196846167193812,0.054813873022794724
1708440857.1556501,-1.1058152914047241,-1.6813107929625453,-2.5278263727771204,2.282128019923828,-1.0196893850909632,0.0545106939971447
1708440857.1576476,-1.1058287620544434,-1.6813317737975062,-2.5278595129596155,2.282177134151123,-1.0196669737445276,0.05429582670331001
1708440857.159615,-1.1058077812194824,-1.6812731228270472,-2.5277937094317835,2.28211156904187,-1.0196803251849573,0.05397918447852135
1708440857.161598,-1.105812430381775,-1.6813093624510707,-2.5278099218951624,2.2821191984364013,-1.0197084585772913,0.053702984005212784
1708440857.1636205,-1.1058377027511597,-1.6812955341734828,-2.5278518835650843,2.28214876234021,-1.0196965376483362,0.05344722792506218
1708440857.1656055,-1.105812430381775,-1.6813093624510707,-2.5278053919421595,2.282139940852783,-1.019721810017721,0.053171221166849136
1708440857.1676528,-1.1058168411254883,-1.6813045940794886,-2.5278144518481653,2.282144470805786,-1.0196507612811487,0.05290443077683449
1708440857.1697035,-1.1057817935943604,-1.6813298664488734,-2.52778131166567,2.282099171275757,-1.0196760336505335,0.05268823727965355
1708440857.1716554,-1.1057907342910767,-1.6813045940794886,-2.527851406727926,2.282085819835327,-1.0196803251849573,0.05242477357387543
1708440857.173685,-1.1057744026184082,-1.6813403568663539,-2.5278685728656214,2.282189055080078,-1.0196922461139124,0.052128080278635025
1708440857.1757596,-1.105812430381775,-1.6812883816161097,-2.5278189818011683,2.282139940852783,-1.0196803251849573,0.05191368609666824
1708440857.177645,-1.105812430381775,-1.6812812290587367,-2.5278099218951624,2.282094641322754,-1.0196922461139124,0.0516245998442173
1708440857.1796556,-1.1057997941970825,-1.6813136539854945,-2.5278549830066126,2.2821037012287597,-1.0196803251849573,0.051487311720848083
1708440857.1816227,-1.105812430381775,-1.6812859974303187,-2.5278595129596155,2.282120628947876,-1.0196684042560022,0.05116996914148331
1708440857.1836843,-1.1058043241500854,-1.6813298664488734,-2.5278354326831263,2.282120628947876,-1.0196312109576624,0.050991348922252655
1708440857.185675,-1.1057759523391724,-1.6813584766783656,-2.527807060872213,2.2821037012287597,-1.019644562398092,0.05070231109857559
1708440857.187671,-1.1057343482971191,-1.6813093624510707,-2.5278025309192103,2.2821082311817626,-1.019660774861471,0.05041784048080444
1708440857.1896205,-1.1057552099227905,-1.6813751659789027,-2.527823511754171,2.2821072775074462,-1.0196235815631312,0.05022706091403961
1708440857.1917157,-1.105830192565918,-1.6812974415221156,-2.5277980009662073,2.282120628947876,-1.019620720540182,0.0499994158744812
1708440857.1936085,-1.1057744026184082,-1.6813165150084437,-2.52778131166567,2.2820917802998046,-1.0196283499347132,0.0497506745159626
1708440857.1956189,-1.1057759523391724,-1.6813537083067835,-2.5278025309192103,2.2821385103413085,-1.019604508076803,0.0495513454079628
1708440857.1976268,-1.105743169784546,-1.6813379726805628,-2.527832333241598,2.2820591169544677,-1.019571606312887,0.04931464418768883
1708440857.1996088,-1.1058176755905151,-1.681291242639059,-2.527811590825216,2.2821213442036132,-1.0195635000811976,0.049168966710567474
1708440857.201723,-1.1057685613632202,-1.6813494167723597,-2.527790371571676,2.28200547277417,-1.0195682684527796,0.048935387283563614
1708440857.203652,-1.1057432889938354,-1.6813165150084437,-2.5277753512011927,2.2820514875599365,-1.0195892492877405,0.048752572387456894
1708440857.2057743,-1.1057552099227905,-1.6813661060728968,-2.527820650731222,2.2820605474659423,-1.0195816198932093,0.04856492951512337
1708440857.2076213,-1.105722427368164,-1.6813165150084437,-2.52773362794985,2.282057686442993,-1.0195515791522425,0.04832829535007477
1708440857.2096276,-1.1057312488555908,-1.681328912774557,-2.5277963320361536,2.282036705608032,-1.0195325056659144,0.048140984028577805
1708440857.211654,-1.1057968139648438,-1.681361814538473,-2.527794901524679,2.281991406078003,-1.019524876271383,0.04794897139072418
1708440857.2136462,-1.105722427368164,-1.6812955341734828,-2.5277259985553187,2.282036705608032,-1.0194967428790491,0.04774634167551994
1708440857.215632,-1.1057446002960205,-1.6813165150084437,-2.527741018925802,2.281998797053955,-1.019501034413473,0.04755033925175667
1708440857.2176387,-1.1057640314102173,-1.6814080677428187,-2.5277798811541956,2.281970663661621,-1.0194485823260706,0.047370340675115585
1708440857.219655,-1.1057313680648804,-1.6813975773253382,-2.5277543703662317,2.2820166784473876,-1.0194605032550257,0.04722230136394501
1708440857.221653,-1.1057149171829224,-1.681361814538473,-2.5277515093432825,2.281995936031006,-1.0194318930255335,0.04703431576490402
1708440857.2236779,-1.105771541595459,-1.6813198528685511,-2.5277515093432825,2.281979485149048,-1.0194128195392054,0.04684136062860489
1708440857.2256303,-1.1057029962539673,-1.6813823185362757,-2.5277605692492884,2.2819720941730957,-1.019426170979635,0.04670326039195061
1708440857.2276309,-1.1057268381118774,-1.6813732586302699,-2.5277231375323694,2.2819720941730957,-1.0193527380572718,0.046539388597011566
1708440857.2296233,-1.1057029962539673,-1.6814528904356898,-2.5277395884143274,2.2819275098988037,-1.01931077638735,0.0463881641626358
1708440857.2316363,-1.1057566404342651,-1.6813494167723597,-2.527710739766256,2.281919403667114,-1.0193613211261194,0.046150773763656616
1708440857.2336807,-1.105711817741394,-1.6813823185362757,-2.527694288884298,2.2819618421741943,-1.0193212668048304,0.04597819969058037
1708440857.235641,-1.1057521104812622,-1.6813732586302699,-2.52765399614443,2.281919403667114,-1.0192926565753382,0.04582713544368744
1708440857.2376282,-1.1056948900222778,-1.6813575230040492,-2.527694288884298,2.281912012691162,-1.0192773977862757,0.045647233724594116
1708440857.2396548,-1.10574471950531,-1.681410928765768,-2.527642075215475,2.2818657594868164,-1.019207779561178,0.04550744965672493
1708440857.2416677,-1.1057194471359253,-1.6813765964903773,-2.527700487767355,2.2818450170704345,-1.0192449728595179,0.04536345228552818
1708440857.2436707,-1.105728268623352,-1.6814185581602992,-2.5276344458209437,2.281912012691162,-1.0191758314715784,0.0451880618929863
1708440857.2456553,-1.1057194471359253,-1.6813932857909144,-2.527646605168478,2.2818302351185302,-1.019193474446432,0.04503219574689865
1708440857.247629,-1.1056652069091797,-1.6813885174193324,-2.5276315847979944,2.281892700786255,-1.019128147755758,0.04493742808699608
1708440857.2496266,-1.1056904792785645,-1.681401868859762,-2.5276148954974573,2.2818969923206787,-1.0191252867328089,0.04476524144411087
1708440857.2516735,-1.1056668758392334,-1.6814424000182093,-2.5275984446154993,2.2818688589283447,-1.0190804640399378,0.044653184711933136
1708440857.2536597,-1.1057040691375732,-1.6814466915526332,-2.5275941530810755,2.2818309503742675,-1.0190680662738245,0.04450133815407753
1708440857.2556372,-1.1056785583496094,-1.6813551388182582,-2.52759558359255,2.2818643289753417,-1.0190399328814905,0.04434455558657646
1708440857.257621,-1.1056995391845703,-1.6814290485777796,-2.5275700728045862,2.2818569379993896,-1.0190203825580042,0.044266052544116974
1708440857.259615,-1.105674147605896,-1.6814257107176722,-2.527550284062521,2.2818400102802734,-1.0190337339984339,0.044072918593883514
1708440857.261633,-1.1056859493255615,-1.6813885174193324,-2.527550284062521,2.2818235593983154,-1.0190098921405237,0.04399019107222557
1708440857.2636275,-1.1057343482971191,-1.6813460789122523,-2.5275548140155237,2.281804247493408,-1.0189617315875452,0.04385397210717201
1708440857.2656097,-1.1057084798812866,-1.6814214191832484,-2.5275145212756556,2.281820698375366,-1.0189202467547815,0.04368499293923378
1708440857.2676215,-1.1056712865829468,-1.6814829311766566,-2.5275235811816614,2.2818056780048828,-1.0189335981952112,0.04358123987913132
1708440857.2696302,-1.1057344675064087,-1.6814290485777796,-2.5275099913226526,2.281743212337158,-1.018958870564596,0.043535344302654266
1708440857.2716415,-1.1056429147720337,-1.6813913784422816,-2.5274861494647425,2.281784935588501,-1.0188854376422327,0.04344277083873749
1708440857.2736359,-1.1056846380233765,-1.6814333401122035,-2.527478281651632,2.2817441660114746,-1.0188525358783167,0.04328152537345886
1708440857.2756705,-1.1056876182556152,-1.6814547977843226,-2.5274906794177454,2.2817186552235107,-1.0188449064837855,0.04316626489162445
1708440857.277643,-1.1056712865829468,-1.6815086803831996,-2.527482811604635,2.2816995817371826,-1.018839184437887,0.043069981038570404
1708440857.2796695,-1.105623483657837,-1.6814662418761195,-2.527458969746725,2.281733675593994,-1.018790070210592,0.042941492050886154
1708440857.2816372,-1.1056846380233765,-1.6814242802061976,-2.527449909840719,2.2817038732716064,-1.0188100973712366,0.04285448417067528
1708440857.2836592,-1.1056562662124634,-1.681469579736227,-2.527487341557638,2.2816964822956542,-1.0187700430499476,0.04280420392751694
1708440857.2856417,-1.105639934539795,-1.681443830529684,-2.527421538029806,2.2816638189503173,-1.0187132994281214,0.042633894830942154
1708440857.2876194,-1.1056309938430786,-1.681474348107809,-2.52740985551943,2.2816669183918457,-1.0186970869647425,0.042596086859703064
1708440857.2896194,-1.1056444644927979,-1.681441446343893,-2.5274065176593226,2.2817038732716064,-1.018714729939596,0.0424344539642334
1708440857.2916224,-1.1056280136108398,-1.6814857921996058,-2.5273945967303675,2.2816268640705566,-1.0186956564532679,0.04240083694458008
1708440857.2936525,-1.1056101322174072,-1.6814857921996058,-2.5273945967303675,2.281689091319702,-1.0186532179461878,0.042263470590114594
1708440857.2956293,-1.1056236028671265,-1.6815186939635218,-2.5273285547839563,2.2817069727131347,-1.0186517874347132,0.04218817129731178
1708440857.2976208,-1.1056071519851685,-1.681481500665182,-2.527417246495382,2.2816194730946044,-1.0186188856707972,0.04207903519272804
1708440857.2995982,-1.105599045753479,-1.6814724407591761,-2.527367655430929,2.2816104131885986,-1.0185859839068812,0.04202790558338165
1708440857.3016458,-1.1055982112884521,-1.681497713128561,-2.527329985295431,2.281644745463989,-1.0185826460467737,0.041964899748563766
1708440857.303631,-1.1056115627288818,-1.681526323358053,-2.527339045201437,2.2816032606312255,-1.0185173193561,0.04180340841412544
1708440857.3056571,-1.1055946350097656,-1.6814724407591761,-2.5273481051074427,2.2815629678913574,-1.0185383001910608,0.04174034669995308
1708440857.3076205,-1.1056081056594849,-1.681493421594137,-2.5273030439959925,2.281571789378784,-1.0185588041888636,0.04168780520558357
1708440857.3096101,-1.1055917739868164,-1.6815129719176234,-2.5272370020495813,2.2815520006367187,-1.0185111204730433,0.041657447814941406
1708440857.3116703,-1.1056207418441772,-1.6814843616881312,-2.5272627512561243,2.281571789378784,-1.0184662977801722,0.04156918451189995
1708440857.313613,-1.1056370735168457,-1.681509634057516,-2.527316395436422,2.2815684515186767,-1.018449608479635,0.04152558371424675
1708440857.3156211,-1.1055917739868164,-1.6815129719176234,-2.52727181116213,2.281592770213745,-1.0184510389911097,0.041425418108701706
1708440857.317618,-1.1055798530578613,-1.6814800701537074,-2.5272672812091272,2.2815684515186767,-1.0183942953692835,0.041353415697813034
1708440857.319649,-1.1056126356124878,-1.6815387211241664,-2.527259413396017,2.2815474706837158,-1.0183704535113733,0.04130551591515541
1708440857.3216362,-1.1055827140808105,-1.681509634057516,-2.527217451726095,2.2815520006367187,-1.0183375517474573,0.04123697429895401
1708440857.3236434,-1.1055961847305298,-1.6815501652159632,-2.527210060750143,2.281473084087036,-1.018379036580221,0.04122251644730568
1708440857.3256853,-1.1056036949157715,-1.6815501652159632,-2.527247492467062,2.2815400797077636,-1.018362824116842,0.04113610461354256
1708440857.3276296,-1.1056170463562012,-1.681554456750387,-2.52726394334902,2.2814575868793945,-1.0183432737933558,0.04104475677013397
1708440857.3296344,-1.105587363243103,-1.6815453968443812,-2.527193848286764,2.2815117078968505,-1.018289868031637,0.041075222194194794
1708440857.33167,-1.1055798530578613,-1.68150057415151,-2.5271862188922327,2.2815162378498535,-1.0182908217059534,0.040953222662210464
1708440857.3336365,-1.1055961847305298,-1.6815906963744105,-2.5271499792682093,2.2815534311481933,-1.0182626883136194,0.040938131511211395
1708440857.3356562,-1.1056007146835327,-1.6815535030760707,-2.527138058339254,2.2814621168323974,-1.0182550589190882,0.04089021682739258
1708440857.337641,-1.1055635213851929,-1.6815129719176234,-2.527142588292257,2.281484528178833,-1.0182836691485804,0.04079640656709671
1708440857.3396423,-1.105609655380249,-1.6815172634520472,-2.5271218458758753,2.281484528178833,-1.0182269255267542,0.04074418917298317
1708440857.3416274,-1.1055798530578613,-1.6815206013121546,-2.52714711824526,2.281430883998535,-1.018219296132223,0.04073280841112137
1708440857.3436186,-1.105593204498291,-1.6815453968443812,-2.527156178151266,2.2814997869678955,-1.018219296132223,0.04074276611208916
1708440857.345639,-1.1055396795272827,-1.6815277538695277,-2.527156178151266,2.281460686320923,-1.0181697050677698,0.04065364971756935
1708440857.347632,-1.1055679321289062,-1.6815864048399867,-2.5270989576922815,2.281488819713257,-1.018186394368307,0.04057599976658821
1708440857.3496273,-1.1055724620819092,-1.6814948521056117,-2.5270779768573206,2.28141896306958,-1.0181592146502894,0.040597785264253616
1708440857.3516982,-1.1055307388305664,-1.6815773449339808,-2.5270989576922815,2.2814814287373046,-1.0181501547442835,0.040599025785923004
1708440857.353742,-1.1055679321289062,-1.6816026173033656,-2.5271247068988245,2.2814768987843017,-1.0181263128863733,0.040517408400774
1708440857.3556585,-1.1055351495742798,-1.6815864048399867,-2.5270825068103235,2.281439705485962,-1.018139664326803,0.040469538420438766
1708440857.3576436,-1.1055768728256226,-1.6815139255919398,-2.5270631949054163,2.281444235438965,-1.018111530934469,0.04049446061253548
1708440857.3596518,-1.1055516004562378,-1.6816073856749476,-2.5270512739764612,2.2814487653919677,-1.0180991331683558,0.04042597860097885
1708440857.3616302,-1.1055262088775635,-1.681596418420309,-2.5269716421710413,2.281411572093628,-1.01809007326235,0.040413666516542435
1708440857.3636286,-1.1055307388305664,-1.681573053399557,-2.527072254811422,2.2814368444630126,-1.0180709997760218,0.040349528193473816
1708440857.3656619,-1.1055842638015747,-1.6816054783263148,-2.5270841757403772,2.2814783292957763,-1.0180967489825647,0.04036577790975571
1708440857.3676429,-1.1055859327316284,-1.6815444431700648,-2.527069155369894,2.2814158636280517,-1.0180218855487269,0.0403701476752758
1708440857.3696468,-1.1055842638015747,-1.6816102466978968,-2.5269911924945276,2.2814203935810546,-1.0180605093585413,0.04035067558288574
1708440857.3716922,-1.1055768728256226,-1.681573053399557,-2.526977841054098,2.2814695078083496,-1.0180395285235804,0.04030604287981987
1708440857.3736386,-1.1055768728256226,-1.6816054783263148,-2.5270403067218226,2.2813965517231445,-1.017987076436178,0.04041248932480812
1708440857.3756654,-1.1055396795272827,-1.6815864048399867,-2.52696139017214,2.281427784557007,-1.0180290381061,0.04033851623535156
1708440857.3776271,-1.1055649518966675,-1.6816026173033656,-2.5270121733294886,2.2814056116291503,-1.0179756323443812,0.04035067558288574
1708440857.3796353,-1.105468988418579,-1.681531091729635,-2.5269926230060022,2.2814292150684814,-1.017982308064596,0.04033851623535156
1708440857.3816419,-1.105574131011963,-1.681526323358053,-2.5269702116595667,2.2814456659504394,-1.017979923878805,0.04034717008471489
1708440857.3836207,-1.1055485010147095,-1.681589265862936,-2.5269580523120325,2.281339569682739,-1.0179598967181605,0.04031785577535629
1708440857.3856838,-1.1055723428726196,-1.681573053399557,-2.5270045439349573,2.281367703075073,-1.0179184118853968,0.040322281420230865
1708440857.387629,-1.1055151224136353,-1.681540151635641,-2.526938501988546,2.2814039426990966,-1.0179718176471155,0.040342021733522415
1708440857.3896236,-1.1054898500442505,-1.6816555462279261,-2.526943031941549,2.2814010816761474,-1.0179155508624476,0.04032540321350098
1708440857.391663,-1.1055188179016113,-1.681584974328512,-2.526914660130636,2.2813796240040283,-1.0179031530963343,0.04039076715707779
1708440857.3936281,-1.1055107116699219,-1.6815639934935511,-2.526931111012594,2.281372233028076,-1.0179289023028772,0.04035509005188942
1708440857.3956356,-1.1055412292480469,-1.681559225121969,-2.52690560022463,2.2814101415821533,-1.0178960005389612,0.04041599482297897
1708440857.3976266,-1.1055457592010498,-1.681584974328512,-2.526914660130636,2.2814220625111084,-1.0178926626788538,0.040419258177280426
1708440857.3996232,-1.1055649518966675,-1.6815639934935511,-2.526984993611471,2.281388683910034,-1.0178960005389612,0.040403012186288834
1708440857.4017115,-1.1055241823196411,-1.6815935573973597,-2.526926581059591,2.2813259798237304,-1.0178759733783167,0.040345199406147
1708440857.4036434,-1.1055197715759277,-1.681540151635641,-2.526926581059591,2.281343861217163,-1.0178716818438929,0.04041053727269173
1708440857.405662,-1.10556960105896,-1.6815535030760707,-2.526931111012594,2.2813586431690673,-1.0178521315204065,0.04041484743356705
1708440857.4076486,-1.1054942607879639,-1.681559225121969,-2.526952091847555,2.281369133586548,-1.0178182760821741,0.040426768362522125
1708440857.409652,-1.1055166721343994,-1.6815773449339808,-2.526848618184225,2.281367703075073,-1.0178807417498987,0.04049641266465187
1708440857.4116359,-1.1054942607879639,-1.681535383264059,-2.526928249989645,2.2813023763843994,-1.0178402105914515,0.040466006845235825
1708440857.4136398,-1.105528712272644,-1.6816102466978968,-2.5268741289721888,2.2814108568378906,-1.0178239981280726,0.040478192269802094
1708440857.4156446,-1.1055034399032593,-1.68158020595693,-2.5268922487842005,2.281369133586548,-1.0178330580340784,0.04051501676440239
1708440857.4176247,-1.105532169342041,-1.681601186791891,-2.526911799107687,2.281355782146118,-1.0177667776690882,0.04051385819911957
1708440857.419685,-1.1055413484573364,-1.6816054783263148,-2.5268786589251917,2.281331940288208,-1.0177624861346644,0.04060017317533493
1708440857.4216459,-1.1054543256759644,-1.6816359959044398,-2.5268619696246546,2.281376762981079,-1.017754856740133,0.04055428504943848
1708440857.4236374,-1.1054942607879639,-1.681589265862936,-2.5269370714770716,2.281343861217163,-1.0177801291095179,0.040627434849739075
1708440857.42566,-1.105516791343689,-1.681540151635641,-2.526890579854147,2.281360312099121,-1.0177715460406702,0.040606509894132614
1708440857.427648,-1.1055197715759277,-1.6815935573973597,-2.5268965403186243,2.2813469606586914,-1.0177400747882288,0.040695931762456894
1708440857.4296272,-1.1055197715759277,-1.681601186791891,-2.5268636385547083,2.281364842052124,-1.017735783253805,0.04063820838928223
1708440857.4316418,-1.1055107116699219,-1.6816135845580042,-2.5268426577197474,2.281376762981079,-1.0177934805499476,0.04066220298409462
1708440857.4336462,-1.1055034399032593,-1.681601186791891,-2.5268099943744105,2.281339569682739,-1.0177534262286585,0.0407232791185379
1708440857.4356732,-1.105553150177002,-1.68162264446401,-2.5268307367907923,2.281341000194214,-1.017660919819967,0.040726449340581894
1708440857.4376724,-1.1054915189743042,-1.681592126885885,-2.5268219153033655,2.281355782146118,-1.0177071730243128,0.04073835536837578
1708440857.4396217,-1.1055151224136353,-1.68162264446401,-2.5268426577197474,2.281336470241211,-1.0176737944232386,0.04077150300145149
1708440857.4416265,-1.1055368185043335,-1.681540151635641,-2.526872460042135,2.2813572126575927,-1.0176919142352503,0.04078654199838638
1708440857.4436312,-1.105544090270996,-1.681634088555807,-2.5268710295306605,2.281327648753784,-1.0176952520953577,0.04081936180591583
1708440857.4456303,-1.1055078506469727,-1.6816555462279261,-2.526839796696798,2.281352921123169,-1.0177415052997034,0.040837958455085754
1708440857.4476426,-1.1055576801300049,-1.6815773449339808,-2.526835266743795,2.281348391170166,-1.0177086035357874,0.04086179658770561
1708440857.449675,-1.1055078506469727,-1.681626935998434,-2.526794497166769,2.281315727824829,-1.0176547209369105,0.04080504924058914
1708440857.4516232,-1.1054706573486328,-1.681568285027975,-2.52683669725527,2.2814366060444335,-1.0176637808429163,0.040946878492832184
1708440857.4536383,-1.1054823398590088,-1.6816054783263148,-2.526832405720846,2.281311197871826,-1.0176876227008265,0.040946852415800095
1708440857.4556186,-1.1054987907409668,-1.681589265862936,-2.52682334581484,2.281352921123169,-1.0176799933062952,0.041024189442396164
1708440857.4576285,-1.1054942607879639,-1.6815773449339808,-2.5267935434924524,2.281315727824829,-1.0176470915423792,0.041006747633218765
1708440857.4596343,-1.1055033206939697,-1.681589265862936,-2.526806894932882,2.281324549312256,-1.017632309590475,0.04105456545948982
1708440857.4616256,-1.1055412292480469,-1.6815639934935511,-2.526844326649801,2.281352921123169,-1.01764423051943,0.04104592278599739
1708440857.4636521,-1.1054987907409668,-1.6815773449339808,-2.526802364979879,2.281324549312256,-1.017595116292135,0.04110574722290039
1708440857.4656408,-1.1055285930633545,-1.6815639934935511,-2.526799027119772,2.281324549312256,-1.0176246801959437,0.041142888367176056
1708440857.4676185,-1.1055151224136353,-1.681584974328512,-2.5267825762378138,2.2813870149799804,-1.0176532904254358,0.04114607721567154
1708440857.4696443,-1.105512261390686,-1.681573053399557,-2.526794497166769,2.281308098430298,-1.0176366011248987,0.04121938720345497
1708440857.47165,-1.1055368185043335,-1.6815935573973597,-2.5267871061908167,2.2812868791767578,-1.0175789038287562,0.041237592697143555
1708440857.4736369,-1.1055078506469727,-1.6816383800902308,-2.5267706553088587,2.2813047605701904,-1.0176008383380335,0.04124565050005913
1708440857.475632,-1.105553150177002,-1.6815277538695277,-2.526827875767843,2.2813498216816406,-1.0176246801959437,0.04126828536391258
1708440857.4776447,-1.105485439300537,-1.6816555462279261,-2.5267825762378138,2.281364842052124,-1.0176203886615198,0.04135026037693024
1708440857.4796922,-1.1054869890213013,-1.68158020595693,-2.526778046284811,2.281336470241211,-1.0175636450396937,0.041393790394067764
1708440857.4816236,-1.1055197715759277,-1.6816731892027796,-2.526778046284811,2.2813290792652587,-1.0175922552691858,0.0414428636431694
1708440857.4836566,-1.1055277585983276,-1.6815906963744105,-2.5267706553088587,2.2812883096882324,-1.0175922552691858,0.04151465371251106
1708440857.4856415,-1.1054987907409668,-1.681498189965719,-2.5267542044269007,2.2813617426105957,-1.0175750891314905,0.04150901734828949
1708440857.4876246,-1.1054660081863403,-1.6815639934935511,-2.5267632643329065,2.281341000194214,-1.0175512472735804,0.041619159281253815
1708440857.489646,-1.1055151224136353,-1.6815773449339808,-2.5267213026629847,2.2813572126575927,-1.0176141897784632,0.04163021221756935
1708440857.4916248,-1.1055232286453247,-1.6816054783263148,-2.5268004576312464,2.281348391170166,-1.0175750891314905,0.04168996959924698
1708440857.4936383,-1.1054987907409668,-1.681601186791891,-2.5268169085132044,2.281320019359253,-1.0175560156451624,0.04172945022583008
1708440857.495634,-1.1055197715759277,-1.681589265862936,-2.5267558733569544,2.281315727824829,-1.017597500477926,0.04179829731583595
1708440857.4976335,-1.1055859327316284,-1.6816359959044398,-2.5267632643329065,2.2813498216816406,-1.0175841490374964,0.04181021824479103
1708440857.4996295,-1.1055151224136353,-1.681634088555807,-2.5267842451678675,2.281324549312256,-1.0175188223468226,0.04189414158463478
1708440857.5016694,-1.1055197715759277,-1.681584974328512,-2.5267661253558558,2.281352921123169,-1.017597500477926,0.04197142645716667
1708440857.5036137,-1.1055576801300049,-1.6816193066039027,-2.5267258326159876,2.2813290792652587,-1.017606560383932,0.042006202042102814
1708440857.5056403,-1.105528712272644,-1.681596418420309,-2.52674371400942,2.2813498216816406,-1.0175393263446253,0.04210749268531799
1708440857.507606,-1.1055197715759277,-1.681601186791891,-2.5267391840564173,2.2813424307056884,-1.0175603071795862,0.04209766536951065
1708440857.509605,-1.1055197715759277,-1.681535383264059,-2.5267558733569544,2.281352921123169,-1.01750356355776,0.04213690757751465
1708440857.511632,-1.1054987907409668,-1.681568285027975,-2.5267227331744593,2.2812704282947998,-1.0175603071795862,0.04218916967511177
1708440857.513624,-1.105532169342041,-1.6816073856749476,-2.5267558733569544,2.281303806895874,-1.017590347920553,0.042265795171260834
1708440857.5156164,-1.1055241823196411,-1.6816054783263148,-2.52674371400942,2.2813617426105957,-1.0175483862506312,0.04232551530003548
1708440857.5176108,-1.1055576801300049,-1.681526323358053,-2.526727263127462,2.281324549312256,-1.0175617376910608,0.04234540835022926
1708440857.5196247,-1.1054898500442505,-1.681626935998434,-2.526727263127462,2.2812957006641845,-1.0175111929522913,0.042417123913764954
1708440857.5216644,-1.1054823398590088,-1.6816026173033656,-2.5267468134509485,2.281294985408447,-1.0174911657916468,0.042453087866306305
1708440857.5236301,-1.1055413484573364,-1.681584974328512,-2.5267346541034144,2.2813126283833007,-1.0175002256976526,0.04253821447491646
1708440857.525638,-1.1054869890213013,-1.681592126885885,-2.5267015139209192,2.281336470241211,-1.01747972169985,0.04254893213510513
1708440857.52764,-1.1054869890213013,-1.6816183529295863,-2.5267227331744593,2.281324549312256,-1.0175154844867151,0.0426090806722641
1708440857.5296414,-1.1055368185043335,-1.6816026173033656,-2.5267182032214563,2.2812868791767578,-1.0175002256976526,0.042685121297836304
1708440857.5316284,-1.1055412292480469,-1.6816073856749476,-2.5267227331744593,2.2813452917286376,-1.0174911657916468,0.04278683289885521
1708440857.5336125,-1.105532169342041,-1.6816026173033656,-2.526740852986471,2.281308098430298,-1.0174887816058558,0.042825981974601746
1708440857.5356376,-1.1055063009262085,-1.6815639934935511,-2.5266898314105433,2.281385584468506,-1.017545525227682,0.042905524373054504
1708440857.5376687,-1.1055277585983276,-1.6816183529295863,-2.52674371400942,2.2812883096882324,-1.0175002256976526,0.0428924560546875
1708440857.5396116,-1.1055277585983276,-1.6816464863219203,-2.526748243962423,2.281348391170166,-1.0174959341632288,0.042960911989212036
1708440857.5416448,-1.1055368185043335,-1.6815759144225062,-2.5267139116870325,2.281327648753784,-1.0175002256976526,0.04302863031625748
1708440857.5436137,-1.1055107116699219,-1.6816383800902308,-2.5267391840564173,2.281315727824829,-1.017484490071432,0.04310154169797897
1708440857.5456147,-1.1055078506469727,-1.681601186791891,-2.526724163685934,2.281294985408447,-1.0174644629107874,0.043177954852581024
1708440857.54764,-1.105528712272644,-1.681629320184225,-2.526682202016012,2.2813572126575927,-1.0175336042987269,0.04319297894835472
1708440857.5496237,-1.1055151224136353,-1.68158020595693,-2.526769224797384,2.281336470241211,-1.0174568335162562,0.04317120462656021
1708440857.5517166,-1.1055197715759277,-1.6815878353514613,-2.526694122944967,2.2813736635395507,-1.0174525419818323,0.043264150619506836
1708440857.5536406,-1.1055034399032593,-1.681526323358053,-2.52674371400942,2.2813543516346435,-1.0174763838397425,0.043353550136089325
1708440857.5556138,-1.1055034399032593,-1.6816250286498011,-2.526719633732931,2.2813216882893066,-1.0174153486834925,0.04346996918320656
1708440857.557631,-1.1055034399032593,-1.6816541157164515,-2.526682202016012,2.2813126283833007,-1.0174644629107874,0.043452538549900055
1708440857.5596385,-1.105528712272644,-1.6816417179503382,-2.526764694844381,2.281308098430298,-1.0174601713763636,0.043487437069416046
1708440857.561644,-1.1054942607879639,-1.6816655598082484,-2.5267227331744593,2.2813047605701904,-1.0175021330462855,0.04353104531764984
1708440857.5636215,-1.1054794788360596,-1.6816464863219203,-2.5267227331744593,2.2813259798237304,-1.0174601713763636,0.04362799972295761
1708440857.5656369,-1.105467677116394,-1.6816374264159144,-2.526764694844381,2.281248016948364,-1.0174735228167933,0.04364338889718056
1708440857.5676296,-1.1054222583770752,-1.6816760502257289,-2.526731793080465,2.2812198835560302,-1.0175154844867151,0.0437481626868248
1708440857.569624,-1.1054348945617676,-1.6816684208311976,-2.5267017523394983,2.281191034907959,-1.0175111929522913,0.04377121850848198
1708440857.5716434,-1.1054071187973022,-1.681699892083639,-2.52674371400942,2.2811760145374755,-1.0174930731402796,0.043884411454200745
1708440857.5737252,-1.1053920984268188,-1.6817823849120082,-2.52674371400942,2.2810937601276855,-1.0174806753741663,0.043939851224422455
1708440857.5756269,-1.105339527130127,-1.6817895374693812,-2.5267391840564173,2.281099482173584,-1.0174644629107874,0.04398025572299957
1708440857.5776255,-1.105302095413208,-1.6817928753294886,-2.5267513434039515,2.2810534673878173,-1.0174806753741663,0.04399458318948746
1708440857.5796442,-1.1053290367126465,-1.6818167171873988,-2.526781145726339,2.2810324865528564,-1.0174482504474085,0.04414888843894005
1708440857.5816402,-1.105284333229065,-1.681838174859518,-2.5267346541034144,2.280980034465454,-1.0174434820758265,0.04413938522338867
1708440857.5836306,-1.1052154302597046,-1.6818977795042933,-2.526715103779928,2.2809650140949707,-1.0174482504474085,0.04424849897623062
1708440857.5856726,-1.1051417589187622,-1.6819426021971644,-2.52674371400942,2.2809457021900634,-1.0175226370440882,0.044283390045166016
1708440857.5876303,-1.1051522493362427,-1.6819154224791468,-2.5267513434039515,2.280892534846924,-1.0174897352801722,0.04432699829339981
1708440857.5896587,-1.1050429344177246,-1.6820217571654261,-2.5267558733569544,2.2808191019245605,-1.0174554030047815,0.04436297342181206
1708440857.5916646,-1.1049745082855225,-1.6820575199522914,-2.5267632643329065,2.280759497279785,-1.0174854437457483,0.04452522471547127
1708440857.5936344,-1.104988932609558,-1.682077547112936,-2.5267961660968226,2.2807773786732177,-1.0174525419818323,0.0445435531437397
1708440857.5956693,-1.1048564910888672,-1.682134290734762,-2.5267542044269007,2.2807158666798095,-1.0174806753741663,0.04462428763508797
1708440857.597632,-1.1048479080200195,-1.6821638546385707,-2.5267632643329065,2.280684395427368,-1.0174978415118616,0.04462640732526779
1708440857.599619,-1.1047698259353638,-1.682221075097555,-2.5267825762378138,2.280578299159668,-1.0175302664386194,0.04471925273537636
1708440857.6016963,-1.1046292781829834,-1.6822782955565394,-2.526745144520895,2.2805842596241455,-1.0174763838397425,0.04482479393482208
1708440857.6036599,-1.1045544147491455,-1.6823755703368128,-2.5268080870257776,2.280556841487549,-1.017545525227682,0.04485980421304703
1708440857.605665,-1.1044750213623047,-1.6823398075499476,-2.526844326649801,2.2804927068897705,-1.0175288359271448,0.04492420330643654
1708440857.607632,-1.1043787002563477,-1.682361742059225,-2.5268636385547083,2.280477448100708,-1.0175483862506312,0.044946931302547455
1708440857.6096475,-1.1042165756225586,-1.6825372181334437,-2.52690560022463,2.2803799349018554,-1.0175440947162073,0.04503517225384712
1708440857.6116538,-1.1041460037231445,-1.682577749291891,-2.5268710295306605,2.280348702067993,-1.0175884405719202,0.04514836519956589
1708440857.6136348,-1.1039936542510986,-1.6826325855650843,-2.526923720036642,2.2802397447773437,-1.0175965468036097,0.04514671117067337
1708440857.6156576,-1.1038236618041992,-1.6826416454710902,-2.526956383381979,2.280200167293213,-1.017611328755514,0.045198939740657806
1708440857.6176324,-1.103717565536499,-1.6827970943846644,-2.526968781148092,2.280099554652832,-1.0176485220538538,0.045282863080501556
1708440857.619664,-1.1035186052322388,-1.6828767261900843,-2.526997152959005,2.279967947597168,-1.0176504294024866,0.04531896114349365
1708440857.6216471,-1.1033546924591064,-1.682960649529928,-2.5269792715655726,2.279813690776489,-1.0177457968341272,0.04539494588971138
1708440857.6236355,-1.103086233139038,-1.6830417118468226,-2.5270031134234827,2.279641790980957,-1.0177400747882288,0.045442868024110794
1708440857.6256733,-1.1029163599014282,-1.6831938229002894,-2.527026955281393,2.2795423704334716,-1.0177519957171839,0.04550734907388687
1708440857.6276386,-1.102733850479126,-1.6832267246642054,-2.527072254811422,2.2794226843067626,-1.0177801291095179,0.04553435370326042
1708440857.6296484,-1.102464199066162,-1.6833363972105921,-2.5270853678332728,2.2792953687855224,-1.017775837575094,0.0456644743680954
1708440857.6316714,-1.1022480726242065,-1.683394571343893,-2.527201239262716,2.279122753734253,-1.0178330580340784,0.04571988806128502
1708440857.6336405,-1.1019991636276245,-1.683554311791891,-2.52717096010317,2.2789625364490966,-1.0178821722613733,0.045800548046827316
1708440857.6357567,-1.1017186641693115,-1.683683534661764,-2.5272489229785364,2.2788354593464355,-1.0178926626788538,0.045799486339092255
1708440857.6376743,-1.101426601409912,-1.683826585809225,-2.527242962514059,2.2785934644886474,-1.017900292073385,0.045850563794374466
1708440857.6396394,-1.1011052131652832,-1.6839930019774378,-2.5272627512561243,2.2784480291553955,-1.0179408232318323,0.045894138514995575
1708440857.6417015,-1.1008275747299194,-1.68412508587026,-2.527339045201437,2.278190775508545,-1.0179718176471155,0.04594993591308594
1708440857.643654,-1.1004743576049805,-1.6842357120909632,-2.52738863626589,2.278003140086792,-1.018024746571676,0.04602602869272232
1708440857.6457,-1.100122094154358,-1.6843334637083949,-2.5274396578418177,2.2777468401142578,-1.018057648335592,0.04605337232351303
1708440857.647667,-1.0997737646102905,-1.6845632992186488,-2.527491871510641,2.277505560512207,-1.0180919806109827,0.046158112585544586
1708440857.649666,-1.0994212627410889,-1.6846987209715785,-2.5275772253619593,2.277294560069702,-1.0181649366961878,0.04626384377479553
1708440857.6516547,-1.098978042602539,-1.6848842106261195,-2.527579132710592,2.2770675855823974,-1.0181711355792444,0.046303026378154755
1708440857.6536415,-1.0985970497131348,-1.6851026020445765,-2.5276315847979944,2.2767504888721923,-1.0182727018939417,0.04631412401795387
1708440857.6556659,-1.0982023477554321,-1.6853076420226039,-2.527695957814352,2.276458902949951,-1.018332306538717,0.04633674770593643
1708440857.6576436,-1.097720980644226,-1.6854597530760707,-2.5278082529651087,2.276167078609131,-1.0184076468097132,0.046433765441179276
1708440857.6596673,-1.0972487926483154,-1.6856800518431605,-2.5278850237475794,2.2757691580006103,-1.0185139814959925,0.04649471491575241
1708440857.6616702,-1.0967601537704468,-1.6859165630736292,-2.527916495000021,2.2755135732838134,-1.0185602347003382,0.04655042290687561
1708440857.6636696,-1.0962891578674316,-1.686174055139059,-2.5279131571399134,2.2752112585255126,-1.0186103026019495,0.046601902693510056
1708440857.665654,-1.095780611038208,-1.686371465722555,-2.5280633608447474,2.2748541074940185,-1.0187132994281214,0.04663470759987831
1708440857.6676185,-1.095284342765808,-1.6866065464415492,-2.5280783812152308,2.2745274740406494,-1.018780533467428,0.04667389765381813
1708440857.6696174,-1.0947474241256714,-1.6868754825987757,-2.5281999746905726,2.274097128505371,-1.0189045111285608,0.04678713530302048
1708440857.6716685,-1.0942047834396362,-1.6871301136412562,-2.5282838980304163,2.2737960058399658,-1.0190256277667444,0.04678598791360855
1708440857.6736484,-1.093656063079834,-1.6873985729613246,-2.528393093739645,2.27342073499646,-1.0190752188311976,0.046838246285915375
1708440857.675838,-1.0930365324020386,-1.6877109012999476,-2.528447214757101,2.2730037409016113,-1.0191548506366175,0.04690232500433922
1708440857.6776383,-1.0924568176269531,-1.6879893742003382,-2.5285478273974817,2.2726031976887207,-1.0193074385272425,0.04692966863512993
1708440857.6796296,-1.0918211936950684,-1.6883260212340296,-2.5286274592029017,2.27216021596875,-1.0194528738604944,0.04698868840932846
1708440857.6816537,-1.0911551713943481,-1.6886326275267542,-2.5287728945361536,2.2717441755482177,-1.0195677916156214,0.04698868840932846
1708440857.6836755,-1.0905036926269531,-1.6889645061888636,-2.5288718382464808,2.271272822017334,-1.0196130911456507,0.04704854637384415
1708440857.6856673,-1.089805245399475,-1.6892701588072718,-2.528973642979757,2.2708322244831542,-1.0197375456439417,0.04703112691640854
1708440857.6876633,-1.0891804695129395,-1.6895677051939906,-2.52906042734255,2.27034775793042,-1.0198405424701136,0.047108519822359085
1708440857.6896076,-1.0884588956832886,-1.6899730167784632,-2.529222551976339,2.2699410158344726,-1.0200231711017054,0.047177426517009735
1708440857.6916611,-1.0876901149749756,-1.6903535328307093,-2.5293076674090784,2.269446297282837,-1.0201051870929163,0.04722527042031288
1708440857.6936216,-1.086934208869934,-1.6907488308348597,-2.5294294993029993,2.2689055639454345,-1.0202458540545862,0.0472700409591198
1708440857.6956263,-1.0861622095108032,-1.6910859547057093,-2.529496971760885,2.2683660227009277,-1.0203774611102503,0.0472731813788414
1708440857.6976469,-1.0853958129882812,-1.691458364526266,-2.5296455065356653,2.2679435449787597,-1.0204485098468226,0.047300562262535095
1708440857.6996305,-1.084538459777832,-1.691878458062643,-2.5297773520099085,2.26737825452771,-1.0205591360675257,0.047380995005369186
