Eg3-git/Classifiers/Data Collection/u7/u7www3_ur3e_joint_states.csv
time,elbow_joint,shoulder_lift_joint,shoulder_pan_joint,wrist_1_joint,wrist_2_joint,wrist_3_joint
1708440994.4620788,-2.1418867111206055,-1.3333919805339356,-2.526508394871847,6.110280144005575,1.0171583890914917,-3.121748749409811
1708440994.4640782,-2.1418211460113525,-1.3334405434182663,-2.5264514128314417,6.110308635025778,1.0171183347702026,-3.121816698704855
1708440994.4660523,-2.141866683959961,-1.3333706122687836,-2.526475254689352,6.110295522003927,1.0171056985855103,-3.1217530409442347
1708440994.468067,-2.141862154006958,-1.3334005188992997,-2.526479784642355,6.110286581307211,1.0171136856079102,-3.121798578892843
1708440994.4700487,-2.1418540477752686,-1.3334243905595322,-2.5264843145953577,6.110360848694601,1.0171464681625366,-3.121715847645895
1708440994.4721076,-2.1418938636779785,-1.3334084910205384,-2.526458803807394,6.110286581307211,1.0171256065368652,-3.12172776857485
1708440994.4740672,-2.141857862472534,-1.3333919805339356,-2.526454273854391,6.110321986466207,1.0171420574188232,-3.12177020708193
1708440994.4760332,-2.1418867111206055,-1.3333999675563355,-2.5264392534839075,6.110311734467306,1.017087697982788,-3.12177020708193
1708440994.478058,-2.1418778896331787,-1.3333552342704316,-2.5264559427844446,6.110289799958029,1.0170832872390747,-3.121791187916891
1708440994.4800677,-2.141906976699829,-1.3334170591882248,-2.5264437834369105,6.110371339112081,1.0171300172805786,-3.121782128010885
1708440994.4820728,-2.1418893337249756,-1.3333919805339356,-2.5263779799090784,6.11036382892684,1.0171419382095337,-3.121774975453512
1708440994.484122,-2.1418540477752686,-1.3333919954350968,-2.5264182726489466,6.11031328418807,1.017139196395874,-3.1218164602862757
1708440994.4860897,-2.1419026851654053,-1.33333873868499,-2.5263972918139856,6.110359537392416,1.0171136856079102,-3.121707026158468
1708440994.488108,-2.1418371200561523,-1.333367259507515,-2.5264559427844446,6.110366928368368,1.0171047449111938,-3.121732298527853
1708440994.49057,-2.141840934753418,-1.3333260726979752,-2.5264347235309046,6.110371339112081,1.0170966386795044,-3.121748749409811
1708440994.4920948,-2.1418867111206055,-1.3334085059216996,-2.5264514128314417,6.1103625176246545,1.017087697982788,-3.121786657963888
1708440994.4940693,-2.1418585777282715,-1.3333876442960282,-2.5264678637133997,6.1103131649787805,1.0171183347702026,-3.12177020708193
1708440994.4960413,-2.1418540477752686,-1.3334200096181412,-2.5264182726489466,6.110391008644857,1.0171012878417969,-3.1217368284808558
1708440994.4980347,-2.1418912410736084,-1.3334170442870636,-2.5264559427844446,6.110414850502767,1.017151117324829,-3.121765677128927
1708440994.5000186,-2.1418709754943848,-1.3334213656238099,-2.5264347235309046,6.110418307572164,1.0171300172805786,-3.1217623392688196
1708440994.5020454,-2.141906976699829,-1.3333919954350968,-2.5264559427844446,6.110405909806051,1.0171136856079102,-3.121800247822897
1708440994.5040424,-2.1418540477752686,-1.3333919954350968,-2.526458803807394,6.1104681370551965,1.0171012878417969,-3.121779266987936
1708440994.5060663,-2.141935348510742,-1.333371416931488,-2.5264437834369105,6.110361444741049,1.0171183347702026,-3.1217339674579065
1708440994.5080945,-2.141918420791626,-1.333396242266037,-2.5264437834369105,6.110459434777059,1.0170849561691284,-3.1217339674579065
1708440994.5101006,-2.1418912410736084,-1.3333919656327744,-2.5264483133899134,6.11044334152297,1.0171056985855103,-3.121765677128927
1708440994.5120208,-2.1418850421905518,-1.333375797872879,-2.5264931360827845,6.110458123474874,1.017052173614502,-3.1217203775988978
1708440994.5140817,-2.141866683959961,-1.3334286671927948,-2.5264256636248987,6.110389578133383,1.017122745513916,-3.121779266987936
1708440994.5160723,-2.141866683959961,-1.3333876144937058,-2.5264347235309046,6.1104668257530115,1.0171183347702026,-3.121779266987936
1708440994.518047,-2.141906976699829,-1.3333671999028702,-2.5264139811145228,6.110438930779257,1.0170730352401733,-3.1217458883868616
1708440994.5200372,-2.141873598098755,-1.3333962720683594,-2.5264604727374476,6.110434520035543,1.0170893669128418,-3.1217504183398646
1708440994.522066,-2.1418983936309814,-1.3333962720683594,-2.5264061133014124,6.110458123474874,1.017080307006836,-3.1217592398272913
1708440994.5240626,-2.1419026851654053,-1.3334084910205384,-2.5264437834369105,6.110471236496725,1.0171012878417969,-3.121774975453512
1708440994.5260992,-2.141862154006958,-1.3334158223918458,-2.5264063517199915,6.110453593521871,1.0170849561691284,-3.1217010656939905
1708440994.5280602,-2.141866683959961,-1.3334005188992997,-2.5264151732074183,6.1104094860847376,1.0171092748641968,-3.1217294375049036
1708440994.5301037,-2.141862154006958,-1.333380089407303,-2.5264392534839075,6.110453593521871,1.0170774459838867,-3.1217458883868616
1708440994.5320396,-2.141866683959961,-1.3334404689124604,-2.5264318625079554,6.110400664597311,1.017080307006836,-3.1217458883868616
1708440994.5340745,-2.1418371200561523,-1.3333510917476197,-2.5264468828784388,6.110434520035543,1.017080307006836,-3.1217129866229456
1708440994.5360289,-2.141857862472534,-1.3334372502616425,-2.5264723936664026,6.110432970314779,1.0170729160308838,-3.1217010656939905
1708440994.5380476,-2.1418983936309814,-1.3333672297051926,-2.5264273325549524,6.110441791802206,1.0170774459838867,-3.1217175165759485
1708440994.540057,-2.1418867111206055,-1.333421380524971,-2.5264182726489466,6.110479104309835,1.0170609951019287,-3.1217623392688196
1708440994.54204,-2.1418957710266113,-1.333367259507515,-2.5264437834369105,6.110425817757406,1.0170774459838867,-3.1217175165759485
1708440994.5440817,-2.141857862472534,-1.3334127825549622,-2.5264256636248987,6.110458123474874,1.017098307609558,-3.1217294375049036
1708440994.5460331,-2.141918659210205,-1.3333875846913834,-2.5263941923724573,6.110458123474874,1.0170685052871704,-3.1217010656939905
1708440994.548027,-2.1418709754943848,-1.3334200096181412,-2.5263941923724573,6.110434520035543,1.0170685052871704,-3.121735397969381
1708440994.5500338,-2.1418938636779785,-1.333375797872879,-2.5264483133899134,6.110421287804403,1.0171102285385132,-3.1216891447650355
1708440994.5520167,-2.141914129257202,-1.3334085059216996,-2.5264151732074183,6.110446202545919,1.0170865058898926,-3.1216982046710413
1708440994.5540643,-2.1419098377227783,-1.3334200543216248,-2.5264483133899134,6.110483395844259,1.017098307609558,-3.1217055956469935
1708440994.5560434,-2.141840934753418,-1.3333999675563355,-2.5264151732074183,6.110437261849203,1.0170565843582153,-3.1217191855060022
1708440994.5580664,-2.141906976699829,-1.333453432922699,-2.5264437834369105,6.110479223519125,1.0170893669128418,-3.1216982046710413
1708440994.5600975,-2.141862154006958,-1.3333998781493683,-2.5264347235309046,6.110511767655172,1.0170398950576782,-3.1216698328601282
1708440994.5620782,-2.141911745071411,-1.333375797872879,-2.5264559427844446,6.110425817757406,1.0170533657073975,-3.1217027346240442
1708440994.564068,-2.141862154006958,-1.3334286224893113,-2.5264273325549524,6.1104256985481165,1.0170278549194336,-3.121678892766134
1708440994.5660725,-2.1418867111206055,-1.3333425384810944,-2.5264437834369105,6.110528099327841,1.0170414447784424,-3.121657196675436
1708440994.5680702,-2.141845464706421,-1.3333467108062287,-2.5264766852008265,6.110437381058492,1.0170156955718994,-3.12164551416506
1708440994.5700696,-2.1419310569763184,-1.3334115904620667,-2.526463333760397,6.110400545388021,1.0170202255249023,-3.121695343648092
1708440994.5720873,-2.1419098377227783,-1.333367259507515,-2.5263896624194544,6.110453593521871,1.0170414447784424,-3.121629063283102
1708440994.5740929,-2.1418938636779785,-1.3333749038032074,-2.5264061133014124,6.110495435982504,1.017038345336914,-3.121657196675436
1708440994.576028,-2.1418755054473877,-1.3333586764386673,-2.5264437834369105,6.110474812775411,1.0170292854309082,-3.121633593236105
1708440994.5780892,-2.141927480697632,-1.3334200096181412,-2.5264139811145228,6.1104702828224084,1.016996145248413,-3.121683422719137
1708440994.5800638,-2.1419222354888916,-1.3334005785039444,-2.5264228026019495,6.110494124680319,1.0169872045516968,-3.1216707865344446
1708440994.5820625,-2.1419053077697754,-1.3334042143872757,-2.5264182726489466,6.110535847931661,1.0170578956604004,-3.121612850819723
1708440994.5841324,-2.141862154006958,-1.3334127974561234,-2.5264151732074183,6.110465872078695,1.016979694366455,-3.121666495000021
1708440994.586087,-2.1419026851654053,-1.3333843362382432,-2.526386801396505,6.110465872078695,1.0170550346374512,-3.121629063283102
1708440994.5880601,-2.141914129257202,-1.33337918043647,-2.5264228026019495,6.110473382263937,1.017005205154419,-3.1216545740710657
1708440994.5900698,-2.1418497562408447,-1.3334004890969773,-2.5264392534839075,6.11049102523879,1.016979694366455,-3.1216545740710657
1708440994.5920663,-2.141845464706421,-1.333412767653801,-2.5264228026019495,6.110465872078695,1.0170505046844482,-3.121650044118063
1708440994.5940797,-2.1418893337249756,-1.3333758127740403,-2.5264528433429163,6.110474693566122,1.0170128345489502,-3.121666495000021
1708440994.5960474,-2.1418709754943848,-1.3333800596049805,-2.5264018217669886,6.110523688584127,1.0170294046401978,-3.121633593236105
1708440994.598071,-2.1419007778167725,-1.3333425384810944,-2.5263987223254603,6.110458123474874,1.0170173645019531,-3.121617380772726
1708440994.6000395,-2.141845464706421,-1.3334084910205384,-2.5264318625079554,6.110444772034445,1.017005205154419,-3.121633593236105
1708440994.6020465,-2.1418778896331787,-1.3334244054606934,-2.5264318625079554,6.110457050591268,1.0170096158981323,-3.1216679255114954
1708440994.6040325,-2.1418912410736084,-1.3334085208228608,-2.5264228026019495,6.110453712731161,1.017026424407959,-3.1216216723071497
1708440994.606062,-2.1418709754943848,-1.3334170144847413,-2.5264318625079554,6.110458123474874,1.0169646739959717,-3.121650044118063
1708440994.608076,-2.1418540477752686,-1.3333672446063538,-2.5264318625079554,6.11046456077651,1.0169932842254639,-3.121633593236105
1708440994.6100738,-2.1419267654418945,-1.3333749038032074,-2.526407782231466,6.110440480500021,1.0169976949691772,-3.121650044118063
1708440994.612077,-2.1419098377227783,-1.33344820261512,-2.526407782231466,6.110502946167745,1.0170068740844727,-3.1216633955584925
1708440994.6140566,-2.1419098377227783,-1.333375797872879,-2.526445213948385,6.1104482291038416,1.0169858932495117,-3.1216381231891077
1708440994.6160557,-2.1419265270233154,-1.3334286224893113,-2.52637488046755,6.110506045609274,1.0169434547424316,-3.1216381231891077
1708440994.6180525,-2.141866683959961,-1.333387629394867,-2.526412312184469,6.110465872078695,1.0169813632965088,-3.121591631566183
1708440994.620053,-2.141914129257202,-1.3333800596049805,-2.526395861302511,6.110514747887411,1.0169570446014404,-3.1216514746295374
1708440994.6220748,-2.1419177055358887,-1.333367259507515,-2.526379410420553,6.110453593521871,1.0169769525527954,-3.12158447900881
1708440994.6240773,-2.1418983936309814,-1.3334243607572098,-2.526376549397604,6.110522734909811,1.0169451236724854,-3.1216545740710657
1708440994.626079,-2.1419389247894287,-1.333375797872879,-2.5263643900500696,6.11049102523879,1.0169496536254883,-3.1216545740710657
1708440994.6280334,-2.141934633255005,-1.3333834421685715,-2.5262983481036585,6.110465872078695,1.0169692039489746,-3.1216097513781946
1708440994.6301045,-2.1418488025665283,-1.3333870631507416,-2.5262864271747034,6.110506045609274,1.0169570446014404,-3.1216514746295374
1708440994.632035,-2.1419053077697754,-1.3334084910205384,-2.526337210332052,6.110458123474874,1.0169451236724854,-3.1216216723071497
1708440994.6340418,-2.1418893337249756,-1.3333919805339356,-2.526304546986715,6.110550749092855,1.016978144645691,-3.1216307322131556
1708440994.6360471,-2.1419053077697754,-1.333367259507515,-2.5262864271747034,6.11046456077651,1.0169646739959717,-3.1216262022601526
1708440994.6380348,-2.1418585777282715,-1.3334084761193772,-2.52627140680422,6.11047779300765,1.0169949531555176,-3.121650044118063
1708440994.6400185,-2.1419098377227783,-1.3333919805339356,-2.526304546986715,6.110428440361776,1.0169271230697632,-3.1216097513781946
1708440994.6420267,-2.1419098377227783,-1.3333430898240586,-2.526278797780172,6.110489713936605,1.016915202140808,-3.1216633955584925
1708440994.644018,-2.141925573348999,-1.3333681386760254,-2.5263028780566614,6.110501515656271,1.0169904232025146,-3.1216426531421106
1708440994.646042,-2.1419007778167725,-1.3333914291909714,-2.5262742678271692,6.110540377884664,1.0169451236724854,-3.1215933004962366
1708440994.6480227,-2.141875982284546,-1.3333430898240586,-2.526300017033712,6.110485303192892,1.0169405937194824,-3.1216426531421106
1708440994.6500537,-2.1418893337249756,-1.3334158223918458,-2.5262413660632532,6.11047779300765,1.0169451236724854,-3.121596399937765
1708440994.652099,-2.1419007778167725,-1.3334286224893113,-2.526304546986715,6.1105137942130945,1.0169000625610352,-3.1216262022601526
1708440994.6540747,-2.1419434547424316,-1.3333999526551743,-2.526287857686178,6.110468852310934,1.0169332027435303,-3.1215859095202845
1708440994.6560328,-2.1419265270233154,-1.3334738922170182,-2.526292387639181,6.110489713936605,1.0169000625610352,-3.1216307322131556
1708440994.658075,-2.1418893337249756,-1.3334361922791977,-2.5262954870807093,6.110522734909811,1.016925573348999,-3.1215606371508997
1708440994.6600895,-2.1419222354888916,-1.3333552491715928,-2.5262580553637903,6.110494124680319,1.0168956518173218,-3.1216440836535853
1708440994.6620712,-2.1419007778167725,-1.3334127229503174,-2.52627140680422,6.1105137942130945,1.0169299840927124,-3.121556107197897
1708440994.6640346,-2.1419434547424316,-1.333396242266037,-2.526262346898214,6.110510456352987,1.0168882608413696,-3.1216188112842005
1708440994.6660657,-2.1419265270233154,-1.3333468002131958,-2.526283327733175,6.110472070961752,1.0169299840927124,-3.1215978304492396
1708440994.6680427,-2.141873359680176,-1.3334005188992997,-2.526245896016256,6.110518204956808,1.0169299840927124,-3.1216471830951136
1708440994.6700807,-2.1419177055358887,-1.3334158223918458,-2.526300017033712,6.110494124680319,1.0168927907943726,-3.1216352621661585
1708440994.6720805,-2.141941547393799,-1.3333999526551743,-2.52627140680422,6.110473382263937,1.0168882608413696,-3.121589008961813
1708440994.6741185,-2.141941547393799,-1.3334361922791977,-2.52625018755068,6.110480773239889,1.0169299840927124,-3.1216381231891077
1708440994.6760602,-2.141958475112915,-1.3333468002131958,-2.52627140680422,6.110506045609274,1.0169345140457153,-3.1216426531421106
1708440994.6780574,-2.141925573348999,-1.3333919805339356,-2.52631646791567,6.110521423607626,1.0169000625610352,-3.1216514746295374
1708440994.6800466,-2.141972064971924,-1.333387629394867,-2.526283327733175,6.11047779300765,1.0168927907943726,-3.1216798464404505
1708440994.6820629,-2.141934633255005,-1.3334320050529023,-2.526309076939718,6.110527145653524,1.0168837308883667,-3.1216097513781946
1708440994.6840956,-2.1419506072998047,-1.3333834272674103,-2.526287857686178,6.110518204956808,1.0169377326965332,-3.1216188112842005
1708440994.686084,-2.1419460773468018,-1.333456740980484,-2.526245896016256,6.110518204956808,1.0169299840927124,-3.1216142813311976
1708440994.688073,-2.141908645629883,-1.3333999526551743,-2.526313368474142,6.1105137942130945,1.0169345140457153,-3.1216307322131556
1708440994.6902196,-2.1419222354888916,-1.3334170591882248,-2.526266876851217,6.1105477688606165,1.016913652420044,-3.1216381231891077
1708440994.692108,-2.1419131755828857,-1.3334005188992997,-2.526308838521139,6.110494124680319,1.0168429613113403,-3.1216052214251917
1708440994.6941128,-2.1419222354888916,-1.333346740608551,-2.5262699762927454,6.110530125885763,1.0169512033462524,-3.1216307322131556
1708440994.6960404,-2.141869068145752,-1.3334158223918458,-2.526266876851217,6.110506045609274,1.0168850421905518,-3.1216262022601526
1708440994.6980627,-2.141908645629883,-1.3334041398814698,-2.5262580553637903,6.110564100533285,1.0169299840927124,-3.1216262022601526
1708440994.7000225,-2.141958475112915,-1.3333919805339356,-2.526278797780172,6.110509383469381,1.0168401002883911,-3.121633593236105
1708440994.702431,-2.1418850421905518,-1.3334523749402543,-2.526278797780172,6.110510456352987,1.0168683528900146,-3.1216307322131556
1708440994.7040663,-2.141864538192749,-1.3333345514586945,-2.5262742678271692,6.110494124680319,1.0168728828430176,-3.1215978304492396
1708440994.7060518,-2.141875743865967,-1.33337918043647,-2.52631646791567,6.110518204956808,1.0168895721435547,-3.1216097513781946
1708440994.7080777,-2.1419177055358887,-1.3333834421685715,-2.526292387639181,6.11052571514205,1.016875982284546,-3.1216216723071497
1708440994.710079,-2.1419007778167725,-1.3333999526551743,-2.526300017033712,6.110534536629476,1.0169017314910889,-3.121556107197897
1708440994.7120762,-2.1419434547424316,-1.333375797872879,-2.52625018755068,6.1105596897895715,1.0168850421905518,-3.1216514746295374
1708440994.7140744,-2.1419053077697754,-1.3333999526551743,-2.526292387639181,6.110522734909811,1.016892671585083,-3.121556107197897
1708440994.7161114,-2.1419551372528076,-1.3334041398814698,-2.52625018755068,6.110518204956808,1.0169017314910889,-3.1216052214251917
1708440994.7180793,-2.141925573348999,-1.3333748590997239,-2.526292387639181,6.110522734909811,1.0168882608413696,-3.1216142813311976
1708440994.720065,-2.1419131755828857,-1.3334158223918458,-2.526278797780172,6.110542046814718,1.0168850421905518,-3.1216052214251917
1708440994.7220726,-2.14190411567688,-1.3333714318326493,-2.526292387639181,6.110539066582479,1.0169047117233276,-3.1216381231891077
1708440994.7240813,-2.141916513442993,-1.333371416931488,-2.52625018755068,6.110579120903768,1.0168850421905518,-3.1216307322131556
1708440994.7260628,-2.1419551372528076,-1.3334286224893113,-2.526275936757223,6.110530125885763,1.0168941020965576,-3.1215978304492396
1708440994.7281592,-2.1419506072998047,-1.3333919805339356,-2.526275936757223,6.110468971520223,1.0168805122375488,-3.1216395537005823
1708440994.7300858,-2.1419551372528076,-1.3333672148040314,-2.52627140680422,6.110485303192892,1.0169181823730469,-3.1216262022601526
1708440994.7320359,-2.141908645629883,-1.3334567856839676,-2.526287857686178,6.1104808924491785,1.0168473720550537,-3.121589008961813
1708440994.7340841,-2.141921043395996,-1.33334735155616,-2.526304546986715,6.1104808924491785,1.0168805122375488,-3.1216350237475794
1708440994.736036,-2.1419131755828857,-1.3333757829717179,-2.526262346898214,6.11046456077651,1.0168850421905518,-3.1216560045825403
1708440994.738066,-2.1419131755828857,-1.3333629381707688,-2.526275936757223,6.110480773239889,1.0168565511703491,-3.1216262022601526
1708440994.740082,-2.141937017440796,-1.3333791357329865,-2.526304546986715,6.110530125885763,1.0168850421905518,-3.1216216723071497
1708440994.7420385,-2.1419131755828857,-1.3333834421685715,-2.526245896016256,6.110542046814718,1.0168805122375488,-3.1216216723071497
1708440994.744045,-2.141967535018921,-1.3334372502616425,-2.526320759450094,6.110501515656271,1.0168654918670654,-3.1215978304492396
1708440994.746075,-2.141988754272461,-1.333424375658371,-2.526283327733175,6.110497104912557,1.0168565511703491,-3.1216350237475794
1708440994.748053,-2.141941547393799,-1.3334361922791977,-2.5262954870807093,6.110494124680319,1.0168609619140625,-3.1215606371508997
1708440994.7500749,-2.141934633255005,-1.3334005188992997,-2.526287857686178,6.110472190171041,1.0168638229370117,-3.1216262022601526
1708440994.752023,-2.141932725906372,-1.3333672148040314,-2.52627140680422,6.1104928133781335,1.0168805122375488,-3.12158447900881
1708440994.7540488,-2.1419460773468018,-1.3334372502616425,-2.526292387639181,6.110535847931661,1.0168519020080566,-3.1216023604022425
1708440994.7560315,-2.141986608505249,-1.3334085059216996,-2.526292387639181,6.110468971520223,1.0168818235397339,-3.1216216723071497
1708440994.7581139,-2.1419389247894287,-1.3333876144937058,-2.5262954870807093,6.110522615700521,1.016877293586731,-3.1215933004962366
1708440994.760064,-2.141925573348999,-1.333346740608551,-2.526304546986715,6.110530125885763,1.0168445110321045,-3.1216426531421106
1708440994.7620664,-2.141979932785034,-1.3334158223918458,-2.526254717503683,6.1105137942130945,1.0168609619140625,-3.1216514746295374
1708440994.7640586,-2.141975164413452,-1.333412767653801,-2.526304546986715,6.110539066582479,1.0168728828430176,-3.1216068903552454
1708440994.766052,-2.141925573348999,-1.3333681386760254,-2.526266876851217,6.110542046814718,1.0168490409851074,-3.1216262022601526
1708440994.7682557,-2.1419506072998047,-1.3333962571671982,-2.526283327733175,6.110535847931661,1.016806960105896,-3.121572558079855
1708440994.7701046,-2.141925573348999,-1.3333956611207505,-2.526300017033712,6.110494124680319,1.0168862342834473,-3.1216111818896692
1708440994.772063,-2.141941547393799,-1.333453432922699,-2.526259247456686,6.110494124680319,1.0168401002883911,-3.1215978304492396
1708440994.7740958,-2.141932725906372,-1.3333430898240586,-2.526287857686178,6.110476481705465,1.0168237686157227,-3.1215933004962366
1708440994.776066,-2.141908645629883,-1.3334490817836304,-2.526325289403097,6.110506045609274,1.0168416500091553,-3.1216023604022425
1708440994.7780602,-2.141925573348999,-1.3333962571671982,-2.526262346898214,6.110547888069906,1.0168371200561523,-3.121589008961813
1708440994.7800279,-2.141864538192749,-1.3333748590997239,-2.526278797780172,6.110489713936605,1.0168037414550781,-3.1215949694262903
1708440994.782059,-2.141934633255005,-1.3333919805339356,-2.526300017033712,6.110485183983602,1.016811490058899,-3.1215904394732874
1708440994.784094,-2.141908645629883,-1.3333800596049805,-2.526304546986715,6.110566842346945,1.0168416500091553,-3.121589008961813
1708440994.7860982,-2.1419007778167725,-1.3333876144937058,-2.5262413660632532,6.11053894737319,1.0168745517730713,-3.1215933004962366
1708440994.7880812,-2.141958475112915,-1.333436207180359,-2.526278797780172,6.110519158631124,1.016849160194397,-3.1216188112842005
1708440994.790096,-2.1419389247894287,-1.3333919954350968,-2.526266876851217,6.110461461334982,1.0168159008026123,-3.1216350237475794
1708440994.7920249,-2.141953945159912,-1.3333834272674103,-2.52625018755068,6.110468971520223,1.016808271408081,-3.1215859095202845
1708440994.7940679,-2.141953945159912,-1.33334735155616,-2.526308838521139,6.110564100533285,1.016791820526123,-3.1216188112842005
1708440994.7960389,-2.141934633255005,-1.333387629394867,-2.526275936757223,6.1104822037513635,1.0168036222457886,-3.1215933004962366
1708440994.7980595,-2.141930103302002,-1.333375797872879,-2.526245896016256,6.110502946167745,1.0168462991714478,-3.1216023604022425
1708440994.8000283,-2.141925573348999,-1.3333767664483567,-2.526229445134298,6.110527145653524,1.016812801361084,-3.1215949694262903
1708440994.802046,-2.141908645629883,-1.333396242266037,-2.526221815739767,6.11047779300765,1.0168339014053345,-3.1215651671039026
1708440994.8040483,-2.141963005065918,-1.3333919805339356,-2.5262683073626917,6.110510456352987,1.0167964696884155,-3.1215859095202845
1708440994.8060336,-2.141963005065918,-1.3334214252284546,-2.526275936757223,6.110527026444235,1.0167796611785889,-3.1216514746295374
1708440994.8080788,-2.1418917179107666,-1.3334085059216996,-2.526275936757223,6.110522734909811,1.016817331314087,-3.1215651671039026
1708440994.8101177,-2.14190411567688,-1.3334085059216996,-2.526262346898214,6.110461461334982,1.0167964696884155,-3.1215620676623743
1708440994.812088,-2.141941547393799,-1.333396242266037,-2.526308838521139,6.110527026444235,1.016808271408081,-3.1215532461749476
1708440994.8140793,-2.14190411567688,-1.333396242266037,-2.5262637774096888,6.110444891243734,1.0168218612670898,-3.1215665976153772
1708440994.816031,-2.1419222354888916,-1.333371416931488,-2.526254717503683,6.110498535424032,1.0168306827545166,-3.121542755757467
1708440994.8180823,-2.141958475112915,-1.3334005188992997,-2.526283327733175,6.110523688584127,1.0167796611785889,-3.121518913899557
1708440994.8200777,-2.141988754272461,-1.3333473366549988,-2.526259247456686,6.110457050591268,1.016812801361084,-3.121506992970602
1708440994.8221276,-2.141963005065918,-1.3334085059216996,-2.526275936757223,6.110465872078695,1.0167841911315918,-3.1215489546405237
1708440994.8240695,-2.141925573348999,-1.3333757829717179,-2.526233975087301,6.110468852310934,1.0167514085769653,-3.1214497725116175
1708440994.826062,-2.141953945159912,-1.3334041398814698,-2.526292387639181,6.110486614495077,1.016781210899353,-3.121481720601217
1708440994.8280456,-2.141986608505249,-1.3333800596049805,-2.526275936757223,6.1104822037513635,1.0167964696884155,-3.1215041319476526
1708440994.830073,-2.141941547393799,-1.3334128123572846,-2.526275936757223,6.1104702828224084,1.0167796611785889,-3.121490542088644
1708440994.8320165,-2.141921043395996,-1.3334005338004609,-2.526229445134298,6.110511767655172,1.0167887210845947,-3.1214707533465784
1708440994.8340561,-2.141963005065918,-1.3334085059216996,-2.5262637774096888,6.110506045609274,1.0167964696884155,-3.1214497725116175
1708440994.836037,-2.1419460773468018,-1.333371416931488,-2.526259247456686,6.110486614495077,1.0168099403381348,-3.1214872042285364
1708440994.8380523,-2.141975164413452,-1.3333681386760254,-2.526317898427145,6.110502826958456,1.0168054103851318,-3.1215041319476526
1708440994.8400323,-2.141925573348999,-1.3333714318326493,-2.52627140680422,6.1105148670967,1.0167887210845947,-3.121486012135641
1708440994.8420339,-2.141963005065918,-1.3333757829717179,-2.526325289403097,6.110510456352987,1.0167964696884155,-3.121496025715963
1708440994.8440542,-2.141975164413452,-1.3334170591882248,-2.526266876851217,6.110489713936605,1.0167796611785889,-3.1214872042285364
1708440994.8460553,-2.141979932785034,-1.3333876144937058,-2.526238505040304,6.110432970314779,1.0168099403381348,-3.121499840413229
1708440994.8480325,-2.141928195953369,-1.3334157925895234,-2.5263283888446253,6.110532510071554,1.0167559385299683,-3.1215041319476526
1708440994.8501096,-2.141963005065918,-1.3333962571671982,-2.526254717503683,6.110498535424032,1.0167558193206787,-3.1214707533465784
1708440994.852017,-2.141941547393799,-1.3333586615375062,-2.526266876851217,6.1104822037513635,1.0167603492736816,-3.1215205828296106
1708440994.8540409,-2.1419618129730225,-1.3333757680705567,-2.526304308568136,6.1105315563972376,1.0167768001556396,-3.1214380900012415
1708440994.8560069,-2.1419460773468018,-1.3334005338004609,-2.526245896016256,6.110519277840414,1.0168308019638062,-3.1214752832995813
1708440994.8580856,-2.141925573348999,-1.3333834570697327,-2.526320759450094,6.110535847931661,1.0167932510375977,-3.1214616934405726
1708440994.8600638,-2.141979932785034,-1.3333919954350968,-2.526300017033712,6.110461461334982,1.0167932510375977,-3.1214917341815394
1708440994.8620925,-2.1419460773468018,-1.3333757829717179,-2.526259247456686,6.110507356911459,1.016800880432129,-3.121427361165182
1708440994.8640673,-2.141921043395996,-1.3333311539939423,-2.52627140680422,6.110502946167745,1.0167964696884155,-3.121451441441671
1708440994.8660603,-2.141937017440796,-1.3334169846824189,-2.526300017033712,6.1105148670967,1.0168054103851318,-3.1214917341815394
1708440994.8680623,-2.141975164413452,-1.333412767653801,-2.5262954870807093,6.110519158631124,1.0167604684829712,-3.1214423815356653
1708440994.8701072,-2.141991138458252,-1.3333552193692704,-2.526304546986715,6.110498535424032,1.016793131828308,-3.1214423815356653
1708440994.8721344,-2.141925573348999,-1.3334127825549622,-2.526287857686178,6.1104822037513635,1.0167558193206787,-3.1214304606067103
1708440994.8740792,-2.141937017440796,-1.3334005338004609,-2.5262909571277063,6.1104822037513635,1.016800880432129,-3.1214171091662806
1708440994.8760254,-2.141963005065918,-1.3334404987147828,-2.52631646791567,6.110387313156881,1.016730546951294,-3.1214287916766565
1708440994.8780468,-2.141930103302002,-1.3334127378514786,-2.526250425969259,6.110479104309835,1.0167887210845947,-3.1214633623706263
1708440994.8800554,-2.141937017440796,-1.3333876591971894,-2.526266876851217,6.110465872078695,1.0167723894119263,-3.1214543024646204
1708440994.882058,-2.141967535018921,-1.3333886873773118,-2.526283327733175,6.110495435982504,1.0167841911315918,-3.1214497725116175
1708440994.884037,-2.141941547393799,-1.3333919656327744,-2.5262413660632532,6.110486614495077,1.0167964696884155,-3.1214469114886683
1708440994.8860817,-2.1418964862823486,-1.3333919805339356,-2.526292387639181,6.110458123474874,1.0168308019638062,-3.1214304606067103
1708440994.8881032,-2.141937017440796,-1.3334005188992997,-2.5262580553637903,6.1104094860847376,1.0167768001556396,-3.121411148701803
1708440994.8901086,-2.141908645629883,-1.3334235113910218,-2.5262637774096888,6.110444891243734,1.0167559385299683,-3.1214259306537073
1708440994.8920858,-2.141941547393799,-1.333371402030327,-2.526296679173605,6.1104493019874475,1.0167440176010132,-3.121411148701803
1708440994.8941104,-2.1419460773468018,-1.3334277731231232,-2.52627140680422,6.110474693566122,1.0168218612670898,-3.121484104787008
1708440994.8960843,-2.141925573348999,-1.3333835017732163,-2.5262308756457728,6.110458123474874,1.0167603492736816,-3.1214023272143763
1708440994.8980691,-2.1419506072998047,-1.3333345216563721,-2.526275936757223,6.110499846726217,1.0167633295059204,-3.1214142481433313
1708440994.9002624,-2.141958475112915,-1.3333596003106614,-2.526245896016256,6.110446202545919,1.0167604684829712,-3.121455732976095
1708440994.9020467,-2.141953945159912,-1.3334243607572098,-2.526292149220602,6.110453712731161,1.0167887210845947,-3.1214469114886683
1708440994.9040518,-2.141932725906372,-1.3333468300155182,-2.526266876851217,6.1104493019874475,1.0167768001556396,-3.121467892323629
1708440994.9060328,-2.141958475112915,-1.3334170293859025,-2.526284996663229,6.110424148827352,1.0167559385299683,-3.1214097181903284
1708440994.908108,-2.141925573348999,-1.3334041696837922,-2.526280466710226,6.110441791802206,1.0168099403381348,-3.121427599583761
1708440994.9100568,-2.1419460773468018,-1.3334169697812577,-2.526280228291647,6.1104140160377405,1.0168099403381348,-3.121497694646017
1708440994.9120805,-2.1419451236724854,-1.333380089407303,-2.526275936757223,6.110462534218588,1.0167723894119263,-3.121439520512716
1708440994.9140525,-2.141937017440796,-1.333375797872879,-2.526275936757223,6.110430228501119,1.0168054103851318,-3.1214066187488
1708440994.9160564,-2.14190411567688,-1.333432899122574,-2.526300017033712,6.11049102523879,1.0168172121047974,-3.121402088795797
1708440994.918062,-2.1419506072998047,-1.3334372502616425,-2.526300017033712,6.1104668257530115,1.0168054103851318,-3.12146503130068
1708440994.9200642,-2.1419460773468018,-1.3333345216563721,-2.526287857686178,6.110413896828451,1.0168143510818481,-3.12146503130068
1708440994.9220676,-2.1419460773468018,-1.3333552193692704,-2.526266876851217,6.110413896828451,1.016796350479126,-3.1213932673083704
1708440994.9240577,-2.141979932785034,-1.3333843362382432,-2.526254717503683,6.110432970314779,1.0167887210845947,-3.121460262929098
1708440994.926128,-2.141932725906372,-1.3334005338004609,-2.526266876851217,6.110450494080343,1.0167603492736816,-3.121432129536764
1708440994.9280522,-2.141958475112915,-1.3333386939815064,-2.526259247456686,6.110479223519125,1.0167723894119263,-3.121423069630758
1708440994.9300704,-2.142000198364258,-1.3334257018617173,-2.526278797780172,6.110404956131735,1.016793131828308,-3.121427599583761
1708440994.9320183,-2.141937017440796,-1.333338664179184,-2.526278797780172,6.110438930779257,1.0168172121047974,-3.121423069630758
1708440994.934034,-2.1419131755828857,-1.3333595854095002,-2.5262954870807093,6.110434520035543,1.0168263912200928,-3.121377770100729
1708440994.9360552,-2.141975164413452,-1.3333424639752884,-2.526300017033712,6.110483515053549,1.0167677402496338,-3.1214032808886927
1708440994.9380558,-2.142011880874634,-1.3333876144937058,-2.526254717503683,6.110487806587972,1.0167677402496338,-3.1214469114886683
1708440994.9400318,-2.141925573348999,-1.3334214252284546,-2.526300017033712,6.1104434607322595,1.0167887210845947,-3.121389691029684
1708440994.9420328,-2.141953945159912,-1.3334329438260575,-2.52625018755068,6.110413896828451,1.0167677402496338,-3.121460262929098
1708440994.9440084,-2.1419131755828857,-1.3333268475583573,-2.52625018755068,6.110407340317526,1.016775131225586,-3.121420208607809
1708440994.9460208,-2.141941547393799,-1.3333638620427628,-2.526300017033712,6.110430228501119,1.0167768001556396,-3.121373240147726
1708440994.9480066,-2.141880512237549,-1.3334041398814698,-2.526266876851217,6.110362398415365,1.016812801361084,-3.12144118944277
1708440994.9500463,-2.141941547393799,-1.3334285777858277,-2.5262954870807093,6.110419261246481,1.0167964696884155,-3.121432129536764
1708440994.9520621,-2.1419708728790283,-1.3334048998406907,-2.52625018755068,6.110340463906088,1.016796350479126,-3.121385161076681
1708440994.954047,-2.141934633255005,-1.3333919805339356,-2.52625018755068,6.1103625176246545,1.0168172121047974,-3.1214066187488
1708440994.9560304,-2.141958475112915,-1.3333510172418137,-2.526275936757223,6.110423671990194,1.016812801361084,-3.1214032808886927
1708440994.958094,-2.141899824142456,-1.3334048998406907,-2.526287857686178,6.110379206925192,1.016812801361084,-3.121411148701803
1708440994.9600682,-2.141937017440796,-1.3334170591882248,-2.526283327733175,6.1103131649787805,1.016812801361084,-3.1213823000537317
1708440994.9620886,-2.141921043395996,-1.333371416931488,-2.526362482701437,6.110329854279318,1.0167872905731201,-3.1213868300067347
1708440994.9640508,-2.141925573348999,-1.3333671999028702,-2.5262413660632532,6.1103625176246545,1.016829490661621,-3.121418539677755
1708440994.9660833,-2.1419131755828857,-1.3334005338004609,-2.526278797780172,6.110346185951986,1.016775131225586,-3.121373240147726
1708440994.9680572,-2.1419222354888916,-1.3334128123572846,-2.526280228291647,6.1103625176246545,1.0168218612670898,-3.1213977972613733
1708440994.9703324,-2.1418964862823486,-1.3334127825549622,-2.5262413660632532,6.110366928368368,1.016808271408081,-3.1214066187488
1708440994.972066,-2.141921043395996,-1.3334127825549622,-2.5262821356402796,6.1103625176246545,1.016817331314087,-3.121427599583761
1708440994.9741263,-2.1419506072998047,-1.3334170591882248,-2.526332680379049,6.110280978470602,1.0168172121047974,-3.121423069630758
1708440994.9760315,-2.141925573348999,-1.3333800596049805,-2.526300017033712,6.110321986466207,1.016812801361084,-3.121402088795797
1708440994.9780552,-2.141925573348999,-1.3333919805339356,-2.526266876851217,6.11032651641921,1.0167872905731201,-3.121415917073385
1708440994.9800313,-2.1419506072998047,-1.3333638620427628,-2.5262864271747034,6.110371339112081,1.016808271408081,-3.121448580418722
1708440994.9820626,-2.1419460773468018,-1.3333843362382432,-2.526300017033712,6.110273349076071,1.0168249607086182,-3.121411148701803
1708440994.984055,-2.1419131755828857,-1.3333430600217362,-2.5262580553637903,6.1102778790290735,1.0168204307556152,-3.121373240147726
1708440994.9861042,-2.1419460773468018,-1.3333919805339356,-2.526304546986715,6.1103118536765955,1.0168462991714478,-3.1213823000537317
1708440994.9880888,-2.141967535018921,-1.3334200096181412,-2.5263119379626673,6.110228645592489,1.0168416500091553,-3.1213977972613733
1708440994.9900482,-2.141963005065918,-1.3333510172418137,-2.5262489954577845,6.110290992050924,1.0168627500534058,-3.121439520512716
1708440994.9920456,-2.1419177055358887,-1.3333681535771866,-2.52627140680422,6.110270011215963,1.016829490661621,-3.121415917073385
1708440994.9940598,-2.1419131755828857,-1.333388702278473,-2.526275936757223,6.110249268799581,1.016812801361084,-3.1213868300067347
1708440994.9960816,-2.1419506072998047,-1.3334085059216996,-2.526304546986715,6.110335218697347,1.0168371200561523,-3.1213939825641077
1708440994.9980657,-2.141932725906372,-1.3333800447038193,-2.5262742678271692,6.110286581307211,1.0168534517288208,-3.121389691029684
1708440995.0000176,-2.141930103302002,-1.3333638620427628,-2.5262637774096888,6.1103519079978845,1.0168744325637817,-3.121436659489767
1708440995.0020518,-2.141941547393799,-1.3334610623172303,-2.526300017033712,6.110283243447103,1.0168653726577759,-3.121336046849386
1708440995.004032,-2.141925573348999,-1.3333638620427628,-2.5263074080096644,6.110314833908834,1.0168609619140625,-3.121376339589254
1708440995.006072,-2.141930103302002,-1.3333919805339356,-2.526300017033712,6.110290992050924,1.0168653726577759,-3.1214066187488
1708440995.00805,-2.141972064971924,-1.3333516132882615,-2.5262625853167933,6.110286581307211,1.0168941020965576,-3.121439520512716
1708440995.0100725,-2.1419131755828857,-1.3333800596049805,-2.5263028780566614,6.110282289772787,1.0168609619140625,-3.121411148701803
1708440995.0120668,-2.141908645629883,-1.3333757829717179,-2.5262697378741663,6.110234248429098,1.0168862342834473,-3.121432129536764
1708440995.014056,-2.141941547393799,-1.3333800596049805,-2.526278797780172,6.110311734467306,1.016898512840271,-3.1214032808886927
1708440995.0160596,-2.1419506072998047,-1.3334005338004609,-2.5263193289386194,6.110302912979879,1.0168473720550537,-3.121424738560812
1708440995.0180514,-2.1418962478637695,-1.3334005188992997,-2.526278797780172,6.110253679543295,1.016909122467041,-3.121389691029684
1708440995.0200768,-2.141908645629883,-1.3333473664573212,-2.5263028780566614,6.1103118536765955,1.0168882608413696,-3.121389691029684
1708440995.0220993,-2.142000198364258,-1.3334244203618546,-2.5263329187976282,6.11025499084548,1.016925573348999,-3.121415678654806
1708440995.0240629,-2.1419389247894287,-1.3333714318326493,-2.5262954870807093,6.110259401589193,1.0169377326965332,-3.121377770100729
1708440995.0260344,-2.14186692237854,-1.333387629394867,-2.526349131261007,6.110244858055868,1.0169254541397095,-3.121411148701803
1708440995.0280077,-2.141967535018921,-1.3333596301129838,-2.526337210332052,6.110246169358053,1.0169451236724854,-3.1214066187488
1708440995.0300605,-2.141979932785034,-1.3333714616349717,-2.5262745062457483,6.110246169358053,1.016928791999817,-3.121432129536764
1708440995.032019,-2.1419506072998047,-1.333359570508339,-2.5263357798205774,6.1102919457252405,1.016919732093811,-3.121366087590353
1708440995.0340683,-2.1419222354888916,-1.3334405732205887,-2.5262985865222376,6.110263931542196,1.0169360637664795,-3.121427599583761
1708440995.036022,-2.1419506072998047,-1.3334373098662873,-2.526320759450094,6.1102919457252405,1.0169904232025146,-3.121368710194723
1708440995.0380502,-2.1418964862823486,-1.3333834421685715,-2.5262954870807093,6.1102298376853845,1.016928791999817,-3.121418539677755
1708440995.0400558,-2.1419131755828857,-1.333424375658371,-2.526278797780172,6.110274302750387,1.0169360637664795,-3.121368710194723
1708440995.0420187,-2.141941547393799,-1.333380089407303,-2.526300017033712,6.110226499825277,1.0169692039489746,-3.121423069630758
1708440995.0440197,-2.141937017440796,-1.3333638620427628,-2.526278797780172,6.11029206493453,1.0169646739959717,-3.121389691029684
1708440995.0460174,-2.141921043395996,-1.3333919805339356,-2.5262909571277063,6.110250580101766,1.0169601440429688,-3.121439520512716
1708440995.048008,-2.141908645629883,-1.3334085059216996,-2.526266876851217,6.110266911774435,1.0169949531555176,-3.121420208607809
1708440995.0500207,-2.141908645629883,-1.3333800596049805,-2.5262954870807093,6.110308754235067,1.0169570446014404,-3.1213939825641077
1708440995.0520089,-2.1419098377227783,-1.333404929643013,-2.5263028780566614,6.110271322518148,1.0170097351074219,-3.121420208607809
1708440995.0540364,-2.141908645629883,-1.3333919805339356,-2.5263312498675745,6.110238778382101,1.0169888734817505,-3.12144381204714
1708440995.0560148,-2.1419007778167725,-1.3334127825549622,-2.5263238588916224,6.110304343491354,1.0170186758041382,-3.1213977972613733
1708440995.0581203,-2.141930103302002,-1.333428682093956,-2.5263357798205774,6.110300767212667,1.0169932842254639,-3.121432129536764
1708440995.0601125,-2.141941547393799,-1.3333552193692704,-2.5263477007495325,6.110313045769491,1.0169769525527954,-3.121361319218771
1708440995.0621185,-2.141934633255005,-1.3333552193692704,-2.5263477007495325,6.110262501030721,1.0170096158981323,-3.121455732976095
1708440995.0640626,-2.141925573348999,-1.333388702278473,-2.5263403097735804,6.11027883270339,1.0169888734817505,-3.1213987509356897
1708440995.0660548,-2.1419551372528076,-1.333371416931488,-2.5263193289386194,6.110296475678243,1.016996145248413,-3.121476713811056
1708440995.068039,-2.141930103302002,-1.333346740608551,-2.5263312498675745,6.110283243447103,1.016996145248413,-3.121415917073385
1708440995.0700614,-2.1419007778167725,-1.3334170144847413,-2.5263400713550013,6.110198604851522,1.017005205154419,-3.121389691029684
1708440995.0720608,-2.1419222354888916,-1.3333386492780228,-2.5262954870807093,6.110258090287008,1.017038345336914,-3.1213987509356897
1708440995.0741234,-2.141935348510742,-1.3333473366549988,-2.5262983481036585,6.110214578896322,1.0170292854309082,-3.121439520512716
1708440995.0760562,-2.1419098377227783,-1.3333638620427628,-2.5263119379626673,6.11021767833785,1.0170292854309082,-3.121411148701803
1708440995.0780613,-2.1418938636779785,-1.3333962571671982,-2.5263312498675745,6.110296475678243,1.017000675201416,-3.121411148701803
1708440995.0800893,-2.1419131755828857,-1.3333596003106614,-2.5263403097735804,6.110234248429098,1.0170247554779053,-3.121373240147726
1708440995.0820382,-2.1419131755828857,-1.3333919656327744,-2.5263193289386194,6.110201346665182,1.0170292854309082,-3.121432129536764
1708440995.0840456,-2.1418893337249756,-1.3334085059216996,-2.5262909571277063,6.110192405968466,1.0170414447784424,-3.121423069630758
1708440995.086085,-2.141914129257202,-1.3333559793284913,-2.5263028780566614,6.110235321312704,1.0170745849609375,-3.1214378515826624
1708440995.088107,-2.1419222354888916,-1.3334214252284546,-2.5263059774981897,6.110238659172811,1.0170202255249023,-3.121460262929098
1708440995.0901074,-2.1419098377227783,-1.3333354157260437,-2.5263028780566614,6.1102298376853845,1.0170443058013916,-3.121418539677755
1708440995.0921016,-2.1419177055358887,-1.3333430600217362,-2.5263477007495325,6.110251891403951,1.0170533657073975,-3.121460262929098
1708440995.094177,-2.1419434547424316,-1.3333586615375062,-2.5263147989856165,6.11025499084548,1.0170533657073975,-3.1214259306537073
1708440995.0961072,-2.1419479846954346,-1.3334005338004609,-2.5263519922839563,6.110287654190817,1.0170774459838867,-3.121439520512716
1708440995.0980666,-2.141937017440796,-1.3334170591882248,-2.5263119379626673,6.110243069916525,1.0170443058013916,-3.1213977972613733
1708440995.1000688,-2.141869068145752,-1.3333887171796341,-2.5263810793506067,6.11027883270339,1.0170865058898926,-3.121460262929098
1708440995.1020758,-2.1419131755828857,-1.3333725047162552,-2.5263238588916224,6.11024163940505,1.0170893669128418,-3.1213977972613733
1708440995.1040497,-2.141967535018921,-1.3333757829717179,-2.5263193289386194,6.110266911774435,1.0170730352401733,-3.1214452425586146
1708440995.106047,-2.1419479846954346,-1.33334735155616,-2.5263312498675745,6.110304343491354,1.017102837562561,-3.121455971394674
1708440995.108178,-2.1418893337249756,-1.3333758127740403,-2.5263357798205774,6.110275733261862,1.0170818567276,-3.1214304606067103
1708440995.110068,-2.1419098377227783,-1.333412767653801,-2.5263267199145716,6.110214578896322,1.0170685052871704,-3.1214752832995813
1708440995.1120768,-2.1419177055358887,-1.3333886873773118,-2.5263643900500696,6.110214578896322,1.017092227935791,-3.121423069630758
1708440995.1140673,-2.1419222354888916,-1.3333552193692704,-2.5262940565692347,6.110316145211019,1.0171183347702026,-3.121488634740011
1708440995.116048,-2.141914129257202,-1.3333999675563355,-2.5263105074511927,6.110222089081564,1.0171256065368652,-3.1214380900012415
1708440995.1180713,-2.1419007778167725,-1.3333595854095002,-2.5263312498675745,6.110259401589193,1.0171136856079102,-3.1214588324176233
1708440995.1200392,-2.1419007778167725,-1.3333919805339356,-2.526367489491598,6.110221969872274,1.0171012878417969,-3.1215086619006556
1708440995.1220653,-2.141869068145752,-1.3333681535771866,-2.5263431707965296,6.110225426941671,1.0171256065368652,-3.1214917341815394
1708440995.1240678,-2.1418938636779785,-1.333444894557335,-2.526383940373556,6.110296475678243,1.017134666442871,-3.1214736143695276
1708440995.126054,-2.1419007778167725,-1.333372489815094,-2.526403252278463,6.110213267594137,1.0171300172805786,-3.1214779059039515
1708440995.12805,-2.1418964862823486,-1.333355264072754,-2.526386801396505,6.11026822307662,1.0171301364898682,-3.121490542088644
1708440995.130051,-2.1419177055358887,-1.3334170442870636,-2.526412312184469,6.110296475678243,1.0171183347702026,-3.121535364781515
1708440995.1320045,-2.1419267654418945,-1.3333638173392792,-2.526424233113424,6.110271322518148,1.0171420574188232,-3.121518913899557
1708440995.1340559,-2.1419007778167725,-1.3333714616349717,-2.526452604924337,6.110304224282064,1.0171136856079102,-3.12152344385256
1708440995.1360161,-2.1419007778167725,-1.3334005188992997,-2.5263777414904993,6.11021767833785,1.0171047449111938,-3.121535364781515
1708440995.13805,-2.1418850421905518,-1.3334085059216996,-2.5264392534839075,6.110210048943319,1.0171183347702026,-3.121502463017599
1708440995.1400402,-2.1418964862823486,-1.333396242266037,-2.5264347235309046,6.110243069916525,1.0171136856079102,-3.12157112756838
1708440995.1420195,-2.141862154006958,-1.333326907163002,-2.5264392534839075,6.1102638123329065,1.0170549154281616,-3.1215501467334192
1708440995.1440263,-2.1419177055358887,-1.3334048998406907,-2.5264843145953577,6.110221969872274,1.0170966386795044,-3.1215129534350794
1708440995.14604,-2.1419389247894287,-1.3333516132882615,-2.5264678637133997,6.11021767833785,1.0171092748641968,-3.121620241795675
1708440995.1480348,-2.141866683959961,-1.3333552491715928,-2.5264678637133997,6.110210048943319,1.0171092748641968,-3.121596399937765
1708440995.150066,-2.1419222354888916,-1.3334049445441742,-2.526482645665304,6.110262501030721,1.0170966386795044,-3.1216142813311976
1708440995.1520305,-2.1419026851654053,-1.3333919954350968,-2.526442352925436,6.110221969872274,1.0170668363571167,-3.1215859095202845
1708440995.1540666,-2.1418938636779785,-1.333371416931488,-2.526479784642355,6.1102263806159876,1.0171012878417969,-3.1216188112842005
1708440995.156032,-2.1418778896331787,-1.3334128123572846,-2.52649170557131,6.110333907395162,1.0171012878417969,-3.1215933004962366
1708440995.1581612,-2.1418938636779785,-1.33334735155616,-2.5264468828784388,6.110238659172811,1.0171047449111938,-3.1216471830951136
1708440995.1600614,-2.1419265270233154,-1.3334048700383683,-2.5264468828784388,6.110208737641134,1.0171256065368652,-3.1216514746295374
1708440995.1620877,-2.141935348510742,-1.333371416931488,-2.526463333760397,6.11027883270339,1.0171183347702026,-3.1216545740710657
1708440995.1640606,-2.141918420791626,-1.3334213209203263,-2.526458803807394,6.110221969872274,1.0171136856079102,-3.1216188112842005
1708440995.1700363,-2.141934633255005,-1.333399922852852,-2.5264843145953577,6.110234248429098,1.0171136856079102,-3.121633593236105
1708440995.172108,-2.141857862472534,-1.333417074089386,-2.5263972918139856,6.110210048943319,1.0171136856079102,-3.121624533330099
1708440995.1740594,-2.141873598098755,-1.3333800596049805,-2.5264559427844446,6.110197055130758,1.0171136856079102,-3.1216936747180384
1708440995.176068,-2.1418983936309814,-1.333359570508339,-2.5264678637133997,6.110275733261862,1.0170832872390747,-3.121640984212057
1708440995.178046,-2.1418938636779785,-1.3334127825549622,-2.5264678637133997,6.110250580101766,1.0171538591384888,-3.121704403554098
1708440995.1800306,-2.1418893337249756,-1.3333800596049805,-2.5264437834369105,6.110271322518148,1.0170878171920776,-3.121624533330099
1708440995.1820414,-2.1418850421905518,-1.3333962571671982,-2.526442352925436,6.110275733261862,1.0171092748641968,-3.121728245412008
1708440995.1840172,-2.141880512237549,-1.333343045120575,-2.5264514128314417,6.110296475678243,1.017087697982788,-3.1216862837420862
1708440995.1860697,-2.1418824195861816,-1.333371416931488,-2.5264678637133997,6.110201346665182,1.017139196395874,-3.1216893831836146
1708440995.1880972,-2.1419026851654053,-1.3333757829717179,-2.526463333760397,6.110299813538351,1.0171136856079102,-3.1217027346240442
1708440995.1900768,-2.1418964862823486,-1.3333800596049805,-2.526449743901388,6.1102298376853845,1.017151117324829,-3.1217146555529993
1708440995.1920214,-2.1418938636779785,-1.333404855137207,-2.5264843145953577,6.110250580101766,1.0171092748641968,-3.1217191855060022
1708440995.1940262,-2.1419222354888916,-1.333400012259819,-2.5264559427844446,6.110180842667379,1.0171136856079102,-3.1217594782458704
1708440995.1960123,-2.1418938636779785,-1.3333843362382432,-2.526475254689352,6.110295522003927,1.0171136856079102,-3.1217265764819544
1708440995.1980202,-2.141880512237549,-1.3333876144937058,-2.526463333760397,6.110266911774435,1.0171256065368652,-3.1217191855060022
1708440995.2000153,-2.1419098377227783,-1.3333595854095002,-2.5264301935779017,6.110283243447103,1.0171183347702026,-3.1217549482928675
1708440995.202035,-2.1418983936309814,-1.3333473217538376,-2.526421372090475,6.11029993274764,1.0170966386795044,-3.121779266987936
1708440995.2040133,-2.1419265270233154,-1.3333552193692704,-2.5264347235309046,6.110250580101766,1.0171047449111938,-3.1217623392688196
1708440995.2060244,-2.1418893337249756,-1.3334085059216996,-2.5264437834369105,6.110328185349264,1.0171539783477783,-3.1217249075519007
1708440995.208056,-2.141918420791626,-1.3333268624595185,-2.5264437834369105,6.110274302750387,1.0171300172805786,-3.121795717869894
1708440995.2100723,-2.1419389247894287,-1.3333834421685715,-2.5264888445483606,6.11029993274764,1.0171092748641968,-3.121774975453512
1708440995.2120802,-2.141934633255005,-1.3334042441895981,-2.5264843145953577,6.11024175861434,1.0171047449111938,-3.121744219456808
1708440995.2140698,-2.1419007778167725,-1.3334127974561234,-2.526437822972433,6.11026560047225,1.0171136856079102,-3.121779266987936
1708440995.2161028,-2.1418938636779785,-1.3334127825549622,-2.5264347235309046,6.11021767833785,1.0171047449111938,-3.121824089680807
1708440995.2180424,-2.1419007778167725,-1.3334127527526398,-2.5265172163592737,6.1102298376853845,1.017162799835205,-3.121835772191183
1708440995.22004,-2.1418850421905518,-1.3333714318326493,-2.526470724736349,6.11027883270339,1.0171047449111938,-3.121782128010885
1708440995.222063,-2.1419177055358887,-1.3333638471416016,-2.526438061391012,6.1102579710777185,1.0171092748641968,-3.121761147175924
1708440995.2241242,-2.1418850421905518,-1.3333714318326493,-2.526438061391012,6.110304343491354,1.0171375274658203,-3.121798578892843
1708440995.226052,-2.141840934753418,-1.3333956611207505,-2.52649170557131,6.11029993274764,1.0171464681625366,-3.121826712285177
1708440995.2280161,-2.141840934753418,-1.333408535724022,-2.5264514128314417,6.110286581307211,1.0171464681625366,-3.121789518986837
1708440995.2300282,-2.1419265270233154,-1.3333681386760254,-2.5264721552478235,6.110290992050924,1.0171047449111938,-3.12179404893984
1708440995.23202,-2.1418938636779785,-1.3334005188992997,-2.5264678637133997,6.1102579710777185,1.0171136856079102,-3.121822182332174
1708440995.2340417,-2.141845464706421,-1.3333886575749894,-2.526421372090475,6.110323655396261,1.0171136856079102,-3.12179404893984
1708440995.236021,-2.1418778896331787,-1.3334049147418519,-2.526475254689352,6.110246169358053,1.0171136856079102,-3.121805969868795
1708440995.238069,-2.1418938636779785,-1.333412767653801,-2.526458803807394,6.110269892006674,1.0171136856079102,-3.1217849890338343
1708440995.2400234,-2.141866683959961,-1.3333150011352082,-2.5264721552478235,6.110290992050924,1.017063856124878,-3.121859614049093
1708440995.2420597,-2.1418938636779785,-1.3333596003106614,-2.526508156453268,6.110298502236166,1.0171092748641968,-3.1218252817737024
1708440995.2440293,-2.1419222354888916,-1.3333629381707688,-2.5264843145953577,6.110330807953634,1.0171136856079102,-3.1218388716327112
1708440995.2460346,-2.1418938636779785,-1.3334170889905472,-2.5265050570117396,6.110295522003927,1.0171256065368652,-3.1218178907977503
1708440995.2480674,-2.1418488025665283,-1.3333919954350968,-2.526475254689352,6.110328185349264,1.0171256065368652,-3.1218751112567347
1708440995.250063,-2.1419053077697754,-1.3334084910205384,-2.5264092127429407,6.110302912979879,1.017122745513916,-3.1218178907977503
1708440995.2520268,-2.1418867111206055,-1.333322526221611,-2.526479784642355,6.110302912979879,1.017092227935791,-3.1218298117267054
1708440995.2540677,-2.1418983936309814,-1.3334416163018723,-2.5264888445483606,6.110282170563497,1.0171047449111938,-3.1218207518206995
1708440995.2560155,-2.1419053077697754,-1.3334084910205384,-2.5264061133014124,6.110351788788595,1.0171583890914917,-3.1218841711627405
1708440995.2580612,-2.1418709754943848,-1.3334127974561234,-2.5264304319964808,6.110298502236166,1.017080307006836,-3.1218751112567347
1708440995.2600305,-2.141864538192749,-1.3334286373904725,-2.5264182726489466,6.110314833908834,1.0171300172805786,-3.1218236128436487
1708440995.262091,-2.1418850421905518,-1.3333259236863633,-2.526496235524313,6.1103118536765955,1.0170832872390747,-3.121866051350729
1708440995.264023,-2.141935348510742,-1.3334005338004609,-2.5264301935779017,6.110290992050924,1.0171256065368652,-3.121861521397726
1708440995.2660456,-2.141914129257202,-1.3333800596049805,-2.5264723936664026,6.110301720886984,1.0171420574188232,-3.1218281427966517
1708440995.2680216,-2.1418893337249756,-1.3334243607572098,-2.5264256636248987,6.110359537392416,1.0171300172805786,-3.1218867937671106
1708440995.2700605,-2.1418938636779785,-1.3333800596049805,-2.5264514128314417,6.1103060124214075,1.0171256065368652,-3.121889893208639
1708440995.272086,-2.1418778896331787,-1.333371491437294,-2.526496235524313,6.110328066139974,1.0171092748641968,-3.121866051350729
1708440995.2740433,-2.1418893337249756,-1.3333999526551743,-2.526496235524313,6.1103519079978845,1.0171092748641968,-3.1218987146960657
1708440995.2760222,-2.1419434547424316,-1.3334127974561234,-2.5264559427844446,6.110366928368368,1.0171183347702026,-3.121906344090597
1708440995.2780764,-2.1418778896331787,-1.333384321337082,-2.5264766852008265,6.110346185951986,1.0171256065368652,-3.121894423161642
1708440995.28004,-2.141869068145752,-1.333359570508339,-2.526479784642355,6.1103060124214075,1.0171047449111938,-3.121866051350729
1708440995.2820816,-2.141873598098755,-1.3333834421685715,-2.5264514128314417,6.110343205719747,1.0171256065368652,-3.121877972279684
1708440995.2840357,-2.1419007778167725,-1.3334286224893113,-2.5263972918139856,6.110401141434469,1.0171136856079102,-3.121918265019552
1708440995.2860808,-2.141918420791626,-1.3333919805339356,-2.5264392534839075,6.110371339112081,1.0171464681625366,-3.121866051350729
1708440995.2880874,-2.141873598098755,-1.33334735155616,-2.526479784642355,6.110375749855795,1.0171092748641968,-3.121906344090597
1708440995.2901063,-2.1418938636779785,-1.3333552193692704,-2.5264347235309046,6.110379206925192,1.0170966386795044,-3.1219046751605433
1708440995.2920957,-2.141862154006958,-1.3333638471416016,-2.5264678637133997,6.110419261246481,1.0171256065368652,-3.121869150792257
1708440995.2941322,-2.1418893337249756,-1.333367334013321,-2.5264392534839075,6.11045931556777,1.0171211957931519,-3.121946398411886
1708440995.2960782,-2.1418983936309814,-1.333420069222786,-2.526458803807394,6.110427129059591,1.0171183347702026,-3.121894423161642
1708440995.2980509,-2.1419310569763184,-1.3333595258048554,-2.5264766852008265,6.110427129059591,1.0171419382095337,-3.121939007435934
1708440995.3000627,-2.141869068145752,-1.3333919805339356,-2.5264301935779017,6.110385286598959,1.0171300172805786,-3.121864620839254
1708440995.302049,-2.1418778896331787,-1.3334243458560486,-2.5263927618609827,6.110450494080343,1.0171092748641968,-3.121897284184591
1708440995.3040323,-2.1418867111206055,-1.3334085506251832,-2.5264979044543665,6.11050425746993,1.017122745513916,-3.121913735066549
1708440995.3060553,-2.1419479846954346,-1.3333344769528885,-2.5264228026019495,6.110422599106588,1.017139196395874,-3.121909205113546
1708440995.308075,-2.141873598098755,-1.3333956909230729,-2.5264514128314417,6.110447752266683,1.017116665840149,-3.121930185948507
1708440995.3100746,-2.1418867111206055,-1.333408461218216,-2.5264392534839075,6.110438930779257,1.0171375274658203,-3.121901814137594
1708440995.3120925,-2.1418824195861816,-1.333330289726593,-2.5264888445483606,6.110462534218588,1.0171419382095337,-3.1219635645495813
1708440995.3140736,-2.1418850421905518,-1.3333473217538376,-2.5264979044543665,6.11045931556777,1.017080307006836,-3.121906344090597
1708440995.3161,-2.1419098377227783,-1.333371416931488,-2.5264301935779017,6.110480057984152,1.0171092748641968,-3.121894423161642
1708440995.3180828,-2.141906976699829,-1.3334286671927948,-2.526463333760397,6.11050425746993,1.0171300172805786,-3.1219211260425013
1708440995.320073,-2.1418778896331787,-1.333399937754013,-2.5264888445483606,6.1103927967842,1.0171091556549072,-3.121880833302633
1708440995.3220766,-2.1418778896331787,-1.3334041249803086,-2.5264723936664026,6.110438811569967,1.0171183347702026,-3.1219165960894983
1708440995.324037,-2.141869068145752,-1.3333595556071778,-2.526458803807394,6.110397326737203,1.0171136856079102,-3.121934477482931
1708440995.3260765,-2.1418938636779785,-1.3334127974561234,-2.5264139811145228,6.110434520035543,1.0171102285385132,-3.1219211260425013
1708440995.3280756,-2.141880512237549,-1.3333919805339356,-2.5264228026019495,6.110396253853597,1.0170685052871704,-3.1218720118152063
1708440995.3300502,-2.141845464706421,-1.3334072989276429,-2.5264514128314417,6.110441791802206,1.0171047449111938,-3.121976915990011
1708440995.3320713,-2.1418964862823486,-1.3333791357329865,-2.5264678637133997,6.1104256985481165,1.0171300172805786,-3.121950928364889
1708440995.3340294,-2.1418893337249756,-1.3334170293859025,-2.526475254689352,6.110483515053549,1.0171183347702026,-3.121934477482931
1708440995.3360407,-2.1419434547424316,-1.3333962720683594,-2.5264018217669886,6.110449182778158,1.017122745513916,-3.121918265019552
1708440995.3380368,-2.1418709754943848,-1.3333714318326493,-2.5264650026904505,6.1104493019874475,1.017087697982788,-3.121930185948507
1708440995.3400238,-2.1419177055358887,-1.3333543700030823,-2.5264392534839075,6.110405075341024,1.0171136856079102,-3.121922556553976
1708440995.3420293,-2.1419479846954346,-1.333424375658371,-2.5264678637133997,6.110430228501119,1.0171102285385132,-3.121930185948507
1708440995.3440142,-2.141922950744629,-1.333392010336258,-2.5264392534839075,6.110425817757406,1.0171183347702026,-3.121897284184591
1708440995.3460913,-2.141864538192749,-1.3334158521941681,-2.5264647642718714,6.110458123474874,1.0171136856079102,-3.1219211260425013
1708440995.3480194,-2.1419222354888916,-1.3333714616349717,-2.5264228026019495,6.110465872078695,1.0170966386795044,-3.121906344090597
1708440995.3500357,-2.1419522762298584,-1.333404154782631,-2.5264318625079554,6.110404956131735,1.0171102285385132,-3.121913735066549
1708440995.3520055,-2.1419310569763184,-1.3334072989276429,-2.5263972918139856,6.11044334152297,1.017092227935791,-3.121848169957296
1708440995.3540547,-2.1418850421905518,-1.3333638173392792,-2.5264468828784388,6.110405075341024,1.0171136856079102,-3.121939007435934
1708440995.356003,-2.1419310569763184,-1.3333914440921326,-2.5264437834369105,6.110453593521871,1.0171092748641968,-3.1219046751605433
1708440995.358115,-2.1418778896331787,-1.3334406030229111,-2.5264468828784388,6.110425817757406,1.017075777053833,-3.121918265019552
1708440995.3600774,-2.1418488025665283,-1.333363876943924,-2.5264678637133997,6.110487806587972,1.0171210765838623,-3.121897284184591
1708440995.3620634,-2.1418893337249756,-1.3334244203618546,-2.5265050570117396,6.110421407013693,1.0171183347702026,-3.121972386037008
1708440995.3640614,-2.1418824195861816,-1.333384321337082,-2.526463333760397,6.110438930779257,1.017075777053833,-3.121930185948507
1708440995.3660505,-2.1418893337249756,-1.3333876442960282,-2.5264468828784388,6.1104668257530115,1.0171012878417969,-3.1218765417682093
1708440995.3680396,-2.141880512237549,-1.3333914142898102,-2.5264647642718714,6.110441791802206,1.017139196395874,-3.121909205113546
1708440995.3700566,-2.141880512237549,-1.3333714318326493,-2.5264392534839075,6.110385167389669,1.0171136856079102,-3.121885363255636
1708440995.37211,-2.141914129257202,-1.3333810579827805,-2.526442591344015,6.110483395844259,1.0170966386795044,-3.1219635645495813
1708440995.3740995,-2.1418778896331787,-1.3333724600127717,-2.5263972918139856,6.110511767655172,1.0171347856521606,-3.121901814137594
1708440995.376037,-2.1418983936309814,-1.333396242266037,-2.5264015833484095,6.110487806587972,1.0171058177947998,-3.121901814137594
1708440995.3780642,-2.1419053077697754,-1.3333886873773118,-2.5264273325549524,6.1104668257530115,1.0170937776565552,-3.121925655995504
1708440995.3800266,-2.141836404800415,-1.333417074089386,-2.5264468828784388,6.110523688584127,1.0171012878417969,-3.121901814137594
1708440995.382065,-2.1418442726135254,-1.3333681386760254,-2.526442352925436,6.110465872078695,1.017122745513916,-3.121927086506979
1708440995.38405,-2.1419177055358887,-1.3334128123572846,-2.5264468828784388,6.110421287804403,1.0171056985855103,-3.121939007435934
1708440995.3860724,-2.141862154006958,-1.3333225560239335,-2.5264018217669886,6.110486614495077,1.0171012878417969,-3.121925655995504
1708440995.388115,-2.141869068145752,-1.333432899122574,-2.5264437834369105,6.11050425746993,1.0171056985855103,-3.121901814137594
1708440995.3900893,-2.1419310569763184,-1.333387629394867,-2.5264437834369105,6.110479104309835,1.017098307609558,-3.121873442326681
1708440995.3920145,-2.1419222354888916,-1.3333595556071778,-2.5263899008380335,6.1104668257530115,1.0170848369598389,-3.1218884626971644
1708440995.394029,-2.1418533325195312,-1.333384321337082,-2.5264061133014124,6.110499846726217,1.0171147584915161,-3.121922794972555
1708440995.396007,-2.141857862472534,-1.3333757531693955,-2.5264392534839075,6.110458123474874,1.0170685052871704,-3.121901814137594
1708440995.3980691,-2.1418938636779785,-1.3334200096181412,-2.5264392534839075,6.110446202545919,1.0171056985855103,-3.121901814137594
1708440995.4000545,-2.141862154006958,-1.3334128123572846,-2.5264692942248743,6.110446202545919,1.0170966386795044,-3.121913735066549
1708440995.40204,-2.1418533325195312,-1.333400548701622,-2.5264604727374476,6.110446202545919,1.0171058177947998,-3.1218765417682093
1708440995.4041862,-2.1419222354888916,-1.333363876943924,-2.5264514128314417,6.110405909806051,1.0170685052871704,-3.121889893208639
1708440995.4060447,-2.1418938636779785,-1.333387629394867,-2.5264392534839075,6.110507356911459,1.0171136856079102,-3.1218765417682093
1708440995.4080665,-2.1418850421905518,-1.3334127825549622,-2.5264559427844446,6.1104094860847376,1.0171183347702026,-3.12193471590151
1708440995.4101017,-2.1418983936309814,-1.333392010336258,-2.5264347235309046,6.110483515053549,1.017096757888794,-3.1219046751605433
1708440995.41206,-2.141862154006958,-1.333396242266037,-2.5264559427844446,6.110413896828451,1.0171393156051636,-3.121950928364889
1708440995.4141052,-2.1418893337249756,-1.3333749336055298,-2.5264301935779017,6.110446202545919,1.0170655250549316,-3.121918265019552
1708440995.4160607,-2.141857862472534,-1.3333596003106614,-2.5264273325549524,6.110446202545919,1.0170893669128418,-3.121922556553976
1708440995.4180717,-2.1418938636779785,-1.3333919805339356,-2.5264301935779017,6.110453593521871,1.017098307609558,-3.121901814137594
1708440995.4200456,-2.1418867111206055,-1.3333834421685715,-2.5264273325549524,6.110487925797262,1.017098307609558,-3.121918265019552
1708440995.422057,-2.1418938636779785,-1.3333473217538376,-2.5264273325549524,6.110475647240438,1.0171102285385132,-3.121894423161642
1708440995.424058,-2.1419310569763184,-1.3333629828742524,-2.5264318625079554,6.110475647240438,1.0170801877975464,-3.121897284184591
1708440995.4260745,-2.1419310569763184,-1.333444820051529,-2.5264273325549524,6.110479223519125,1.0170938968658447,-3.1218929926501673
1708440995.4280386,-2.141873598098755,-1.333387629394867,-2.5264559427844446,6.110474693566122,1.0171012878417969,-3.1219120661364954
1708440995.4300404,-2.1419098377227783,-1.333375797872879,-2.5263989607440394,6.110404956131735,1.0171058177947998,-3.121913735066549
1708440995.4320314,-2.1418938636779785,-1.3334041398814698,-2.5263941923724573,6.110486614495077,1.0170893669128418,-3.121939007435934
1708440995.4340672,-2.141880512237549,-1.3334005188992997,-2.5264604727374476,6.110453712731161,1.0171012878417969,-3.121909205113546
1708440995.436019,-2.1419007778167725,-1.333387629394867,-2.5264151732074183,6.110438930779257,1.0170819759368896,-3.1219592730151575
1708440995.4380379,-2.141862154006958,-1.333375797872879,-2.526386801396505,6.1104094860847376,1.0171183347702026,-3.121922794972555
1708440995.4400167,-2.1418893337249756,-1.333355264072754,-2.5264392534839075,6.110447752266683,1.017092227935791,-3.12193471590151
1708440995.4420435,-2.141862154006958,-1.3333629828742524,-2.5263689200030726,6.110425817757406,1.0171012878417969,-3.121922556553976
1708440995.4440327,-2.1418938636779785,-1.333367259507515,-2.5264061133014124,6.1104094860847376,1.0170966386795044,-3.121946398411886
1708440995.4460006,-2.141918420791626,-1.3333552044681092,-2.5264061133014124,6.110458123474874,1.0170730352401733,-3.1218720118152063
1708440995.4480534,-2.1418938636779785,-1.3333800596049805,-2.5264604727374476,6.110462534218588,1.017063856124878,-3.121906344090597
1708440995.4500377,-2.1419053077697754,-1.3333834421685715,-2.5264437834369105,6.110487925797262,1.017134666442871,-3.121918265019552
1708440995.4520254,-2.1419522762298584,-1.3334243607572098,-2.526403252278463,6.110474812775411,1.0170893669128418,-3.121922556553976
1708440995.454038,-2.1419053077697754,-1.3334041398814698,-2.5264437834369105,6.110441791802206,1.0170323848724365,-3.121861759816305
1708440995.4560044,-2.141873598098755,-1.333363876943924,-2.5264347235309046,6.110499846726217,1.0170774459838867,-3.121906344090597
1708440995.4580588,-2.1418850421905518,-1.3334084761193772,-2.5264559427844446,6.1104094860847376,1.0170818567276,-3.121913735066549
1708440995.4600666,-2.1419310569763184,-1.3333919954350968,-2.5264514128314417,6.110459434777059,1.0170700550079346,-3.121906344090597
1708440995.462039,-2.141918420791626,-1.3334115755609055,-2.5263853708850306,6.110454904824056,1.0170700550079346,-3.121864620839254
1708440995.464061,-2.141918420791626,-1.3334285926869889,-2.5264182726489466,6.110422599106588,1.0170533657073975,-3.1218765417682093
1708440995.4660356,-2.1418964862823486,-1.3333473813584824,-2.5264363924609583,6.110471236496725,1.0170488357543945,-3.121885363255636
1708440995.468057,-2.1418938636779785,-1.333387629394867,-2.526419703160421,6.110479104309835,1.017037034034729,-3.121877972279684
1708440995.4700773,-2.1419310569763184,-1.3334200394204636,-2.5264228026019495,6.110453712731161,1.017102837562561,-3.121901814137594
1708440995.472072,-2.1418867111206055,-1.3333510619452973,-2.5264228026019495,6.110458123474874,1.0170819759368896,-3.121909205113546
1708440995.4741013,-2.1418893337249756,-1.333383471970894,-2.5264318625079554,6.110440480500021,1.0170533657073975,-3.121918265019552
1708440995.4760644,-2.1419131755828857,-1.3333681386760254,-2.526419703160421,6.110458123474874,1.0170279741287231,-3.1219316164599817
1708440995.4780548,-2.1419267654418945,-1.3334041398814698,-2.526452604924337,6.110438930779257,1.0170202255249023,-3.121909205113546
1708440995.4800477,-2.1419265270233154,-1.3334041398814698,-2.5264514128314417,6.110430228501119,1.0170369148254395,-3.121885363255636
1708440995.4820569,-2.141857862472534,-1.3333800596049805,-2.5264318625079554,6.110413896828451,1.0170369148254395,-3.121906344090597
1708440995.4840193,-2.141914129257202,-1.3333510917476197,-2.5264392534839075,6.110425817757406,1.0170533657073975,-3.121927086506979
1708440995.48605,-2.141873598098755,-1.3333800596049805,-2.5264437834369105,6.110425817757406,1.0170037746429443,-3.121898953114645
1708440995.48812,-2.141869068145752,-1.333375797872879,-2.5264347235309046,6.110421407013693,1.017037034034729,-3.1219316164599817
1708440995.4900835,-2.141918420791626,-1.333432899122574,-2.5264061133014124,6.110397326737203,1.017090916633606,-3.121892754231588
1708440995.4921005,-2.1418778896331787,-1.3333681386760254,-2.5264061133014124,6.110504138260641,1.0170247554779053,-3.121906344090597
1708440995.4941313,-2.141862154006958,-1.3334243607572098,-2.5264151732074183,6.110438930779257,1.0170083045959473,-3.121864620839254
1708440995.4961078,-2.1418938636779785,-1.3333962720683594,-2.526419703160421,6.1104140160377405,1.017021894454956,-3.121868912373678
1708440995.4980989,-2.1419098377227783,-1.333444820051529,-2.526419703160421,6.110450494080343,1.017059564590454,-3.1218987146960657
1708440995.500069,-2.1418938636779785,-1.3333596003106614,-2.5264392534839075,6.110421287804403,1.016984224319458,-3.1218751112567347
1708440995.5020514,-2.141906976699829,-1.33334735155616,-2.5264151732074183,6.110475647240438,1.0170141458511353,-3.121866051350729
1708440995.5040622,-2.141862154006958,-1.3333792102387925,-2.5263941923724573,6.110446202545919,1.0169724225997925,-3.121866051350729
1708440995.5060363,-2.1418850421905518,-1.333375797872879,-2.5264151732074183,6.110430228501119,1.0170141458511353,-3.121845308934347
1708440995.5080354,-2.1419131755828857,-1.33341699958358,-2.5264106432544153,6.110422599106588,1.0169434547424316,-3.1218326727496546
1708440995.5100698,-2.1418778896331787,-1.333367259507515,-2.5263779799090784,6.110458123474874,1.017005205154419,-3.121894423161642
1708440995.5120943,-2.141873598098755,-1.3334084910205384,-2.526419703160421,6.110441791802206,1.0169601440429688,-3.1218326727496546
1708440995.5140543,-2.1418442726135254,-1.3333587509444733,-2.5264273325549524,6.110450494080343,1.0169557332992554,-3.1218326727496546
1708440995.5160656,-2.1419265270233154,-1.333375797872879,-2.5263941923724573,6.11049102523879,1.0169769525527954,-3.1218417326556605
1708440995.5180752,-2.1418850421905518,-1.3334688407233735,-2.526419703160421,6.110432970314779,1.0169932842254639,-3.1218705813037317
1708440995.5200415,-2.141869068145752,-1.3333714318326493,-2.526419703160421,6.110454904824056,1.0169724225997925,-3.1218369642840784
1708440995.5220573,-2.1419007778167725,-1.333363876943924,-2.5263660589801233,6.110449182778158,1.0169557332992554,-3.1218326727496546
1708440995.524017,-2.1418824195861816,-1.3334005188992997,-2.526419703160421,6.110339510231771,1.0169932842254639,-3.1218326727496546
1708440995.5260653,-2.1418938636779785,-1.3334041398814698,-2.5263899008380335,6.110430228501119,1.0170096158981323,-3.1218369642840784
1708440995.5280337,-2.141864538192749,-1.333432899122574,-2.526424233113424,6.110441791802206,1.0169932842254639,-3.1218043009387415
1708440995.5300632,-2.1419310569763184,-1.3333430898240586,-2.5263615290271204,6.110405075341024,1.0169978141784668,-3.1218133608447474
1708440995.532056,-2.1418824195861816,-1.33333873868499,-2.5264106432544153,6.110480057984152,1.0169737339019775,-3.12185508409609
1708440995.5340533,-2.1418964862823486,-1.3333999675563355,-2.5264106432544153,6.110397207527914,1.0169434547424316,-3.121773068104879
1708440995.536045,-2.141914129257202,-1.33334735155616,-2.5264273325549524,6.11049102523879,1.0169798135757446,-3.1218178907977503
1708440995.5380418,-2.1419098377227783,-1.333375797872879,-2.5264273325549524,6.110413896828451,1.0169932842254639,-3.1217642466174524
1708440995.5400424,-2.1418778896331787,-1.333421380524971,-2.5263734499560755,6.110446202545919,1.0169932842254639,-3.1217687765704554
1708440995.542033,-2.1419098377227783,-1.3333672893098374,-2.5264647642718714,6.110453593521871,1.0169557332992554,-3.121840540562765
1708440995.5440187,-2.1418893337249756,-1.3334243905595322,-2.5263899008380335,6.1104094860847376,1.0169813632965088,-3.121810499821798
1708440995.5460532,-2.1418938636779785,-1.3334084761193772,-2.5264106432544153,6.110483395844259,1.0169978141784668,-3.121814791356222
1708440995.5480292,-2.1418778896331787,-1.333387629394867,-2.5264139811145228,6.110458123474874,1.0169782638549805,-3.121777598057882
1708440995.5500658,-2.141869068145752,-1.33334735155616,-2.5263941923724573,6.110446202545919,1.0170141458511353,-3.121815029774801
1708440995.5520282,-2.1419053077697754,-1.333387629394867,-2.5264139811145228,6.110430228501119,1.0169390439987183,-3.121782128010885
1708440995.5540645,-2.141869068145752,-1.333412767653801,-2.5264392534839075,6.110450494080343,1.0169813632965088,-3.12179404893984
1708440995.5560398,-2.1418850421905518,-1.3333800596049805,-2.5264228026019495,6.110434520035543,1.0169858932495117,-3.121761147175924
1708440995.5580437,-2.141873598098755,-1.3333516281894227,-2.5264483133899134,6.110462534218588,1.017005205154419,-3.121819321309225
1708440995.5600734,-2.1419098377227783,-1.333444820051529,-2.5264228026019495,6.110422599106588,1.0169888734817505,-3.121819321309225
1708440995.5620625,-2.1418964862823486,-1.333367259507515,-2.526419703160421,6.110430228501119,1.0170023441314697,-3.1218014399157923
1708440995.5640702,-2.141880512237549,-1.3333767664483567,-2.5263615290271204,6.110450494080343,1.0169813632965088,-3.121798578892843
1708440995.5660613,-2.1418850421905518,-1.33337918043647,-2.5263660589801233,6.110397207527914,1.0169978141784668,-3.12179404893984
1708440995.5680463,-2.1419434547424316,-1.33337918043647,-2.52637488046755,6.1104668257530115,1.0170096158981323,-3.121819559727804
1708440995.5700765,-2.1418938636779785,-1.333421380524971,-2.526386801396505,6.110422599106588,1.017005205154419,-3.1217568556415003
1708440995.57203,-2.1418850421905518,-1.3334200096181412,-2.526445213948385,6.110458123474874,1.0169813632965088,-3.121782128010885
1708440995.57407,-2.1419053077697754,-1.3334084910205384,-2.5264151732074183,6.1104493019874475,1.0169932842254639,-3.121744219456808
1708440995.5760455,-2.141930103302002,-1.3333714616349717,-2.526428524647848,6.110434520035543,1.017005205154419,-3.121798578892843
1708440995.578035,-2.1419310569763184,-1.3334084910205384,-2.526386801396505,6.110450494080343,1.0170308351516724,-3.1217687765704554
1708440995.5800438,-2.1418893337249756,-1.3333749038032074,-2.5264106432544153,6.110450494080343,1.016988754272461,-3.121777598057882
1708440995.582052,-2.1419007778167725,-1.3334320050529023,-2.5264151732074183,6.1103927967842,1.0170023441314697,-3.121761147175924
1708440995.584027,-2.141869068145752,-1.3334041398814698,-2.5264363924609583,6.110397326737203,1.0169813632965088,-3.121761147175924
1708440995.5860343,-2.141862154006958,-1.3334200096181412,-2.526391331349508,6.110418188362875,1.0169601440429688,-3.12179142633547
1708440995.5881104,-2.1418893337249756,-1.3333886873773118,-2.526403252278463,6.110425817757406,1.0169768333435059,-3.121810499821798
1708440995.590122,-2.141908645629883,-1.3334361922791977,-2.526391331349508,6.1104668257530115,1.0169813632965088,-3.121779266987936
1708440995.5920396,-2.141873598098755,-1.333375797872879,-2.526403252278463,6.110434520035543,1.0169858932495117,-3.121807638798849
1708440995.594056,-2.1418778896331787,-1.3333714318326493,-2.5263822714435022,6.110422599106588,1.0169888734817505,-3.121798578892843
1708440995.5960243,-2.1419098377227783,-1.3333430898240586,-2.5264363924609583,6.110388386040487,1.0170023441314697,-3.121814791356222
1708440995.598025,-2.141869068145752,-1.333375797872879,-2.526428763066427,6.1104668257530115,1.0169888734817505,-3.121810499821798
1708440995.6000211,-2.141860008239746,-1.3333468002131958,-2.526407782231466,6.110458123474874,1.0169646739959717,-3.121786657963888
1708440995.6020353,-2.1419265270233154,-1.333432899122574,-2.5264151732074183,6.110463845520773,1.0169390439987183,-3.121744219456808
1708440995.6040447,-2.1419053077697754,-1.3333800596049805,-2.5264363924609583,6.110421287804403,1.0169769525527954,-3.121791187916891
1708440995.60604,-2.1418850421905518,-1.333396242266037,-2.5264151732074183,6.110450494080343,1.0169678926467896,-3.12177020708193
1708440995.6080217,-2.1418533325195312,-1.3333596003106614,-2.526407782231466,6.110474812775411,1.0169932842254639,-3.121744219456808
1708440995.6100686,-2.141880512237549,-1.3334243309548874,-2.526407782231466,6.1104997275169275,1.0169390439987183,-3.121807638798849
1708440995.6120415,-2.1418850421905518,-1.3333914291909714,-2.5263987223254603,6.110471117287435,1.0169976949691772,-3.121803108845846
1708440995.6140795,-2.1419007778167725,-1.3334158223918458,-2.5263987223254603,6.110405075341024,1.0169769525527954,-3.121798578892843
1708440995.6160545,-2.141908645629883,-1.3333425384810944,-2.5263987223254603,6.110450494080343,1.0170505046844482,-3.121805969868795
1708440995.6180582,-2.141925573348999,-1.3334158223918458,-2.5263941923724573,6.110458123474874,1.017000675201416,-3.1218224207507532
1708440995.6200519,-2.1418850421905518,-1.3333714318326493,-2.5263822714435022,6.110437261849203,1.017005205154419,-3.12179404893984
1708440995.62205,-2.141875743865967,-1.3334158223918458,-2.5263987223254603,6.110458123474874,1.0170129537582397,-3.121838633214132
1708440995.624065,-2.1418848037719727,-1.3333834421685715,-2.5264151732074183,6.110486614495077,1.016984224319458,-3.12179404893984
1708440995.6260784,-2.141934633255005,-1.3334610027125855,-2.5263987223254603,6.110462534218588,1.017021894454956,-3.12179404893984
1708440995.628073,-2.1419639587402344,-1.333367259507515,-2.526424233113424,6.11047779300765,1.0170097351074219,-3.1217971483813685
1708440995.630043,-2.1419389247894287,-1.3334361922791977,-2.526419703160421,6.110474693566122,1.016996145248413,-3.1217761675464075
1708440995.6320446,-2.1419098377227783,-1.3333800596049805,-2.526403252278463,6.110498535424032,1.0170129537582397,-3.1218224207507532
1708440995.634105,-2.141880512237549,-1.3334084910205384,-2.5264437834369105,6.110462534218588,1.0170173645019531,-3.1217923800097864
1708440995.6360304,-2.1419177055358887,-1.333396242266037,-2.5263405481921595,6.110444772034445,1.0169916152954102,-3.1218722502337855
1708440995.638053,-2.141941547393799,-1.3334148538163682,-2.526403252278463,6.110470163613119,1.017038345336914,-3.1218014399157923
1708440995.64004,-2.141880512237549,-1.3334361773780365,-2.526403252278463,6.110444772034445,1.0170791149139404,-3.12185508409609
1708440995.6420329,-2.1418964862823486,-1.3333914291909714,-2.526391331349508,6.11040364482955,1.0170624256134033,-3.1217954794513147
1708440995.6440365,-2.1418893337249756,-1.3333714318326493,-2.5263987223254603,6.11047779300765,1.0169872045516968,-3.121849600468771
1708440995.6460373,-2.141875743865967,-1.3334361922791977,-2.5263899008380335,6.110465872078695,1.0170323848724365,-3.1218281427966517
1708440995.648026,-2.141930103302002,-1.333387629394867,-2.5264106432544153,6.11047779300765,1.0170865058898926,-3.121882502232687
1708440995.6500366,-2.141880512237549,-1.3334361922791977,-2.5264151732074183,6.110506045609274,1.0170488357543945,-3.121894423161642
1708440995.6520052,-2.1418964862823486,-1.3334320050529023,-2.5264106432544153,6.110510456352987,1.0170966386795044,-3.121909205113546
1708440995.6540468,-2.1418964862823486,-1.3333914291909714,-2.526403252278463,6.110542046814718,1.017092227935791,-3.1219800154315394
1708440995.6560295,-2.141934633255005,-1.3334405434182663,-2.5264857451068323,6.110546457558431,1.0171583890914917,-3.121925655995504
1708440995.6580644,-2.1419506072998047,-1.3334041398814698,-2.5264106432544153,6.110557067185201,1.0171449184417725,-3.1219828764544886
1708440995.6601007,-2.141875743865967,-1.3333425384810944,-2.5264812151538294,6.110580909043112,1.0171375274658203,-3.1219499746905726
1708440995.6620338,-2.141930103302002,-1.3334041398814698,-2.526419703160421,6.110659706383505,1.017107605934143,-3.121985737477438
1708440995.6641643,-2.141972064971924,-1.3334439259818573,-2.5264061133014124,6.11063443401412,1.017116665840149,-3.1220348517047327
1708440995.666062,-2.141930103302002,-1.3334647131017228,-2.5264318625079554,6.110642063408651,1.0171449184417725,-3.1220877806292933
1708440995.6680608,-2.1418962478637695,-1.3333956909230729,-2.5264409224139612,6.110654341965475,1.0171661376953125,-3.1220293680774134
1708440995.6700668,-2.1419389247894287,-1.3334084910205384,-2.5264018217669886,6.110658633499899,1.0171571969985962,-3.1221025625811976
1708440995.6720378,-2.141908645629883,-1.3334439259818573,-2.5264151732074183,6.110636698990621,1.0171570777893066,-3.122100893651144
1708440995.674082,-2.141921043395996,-1.3333914291909714,-2.5264151732074183,6.110652673035421,1.017214298248291,-3.1221187750445765
1708440995.6760807,-2.1419434547424316,-1.33344820261512,-2.5264273325549524,6.110673415451803,1.017197608947754,-3.122150723134176
1708440995.6780794,-2.1418917179107666,-1.333396242266037,-2.5264392534839075,6.110697495728292,1.0172336101531982,-3.122190777455465
1708440995.680045,-2.14190411567688,-1.333444820051529,-2.5264182726489466,6.1107332585151575,1.0172502994537354,-3.122190777455465
1708440995.6821332,-2.1419506072998047,-1.3334115606597443,-2.5264347235309046,6.110709416657247,1.0172756910324097,-3.1221922079669397
1708440995.68408,-2.1419098377227783,-1.333387629394867,-2.5264061133014124,6.110750901490011,1.0172698497772217,-3.122279469166891
1708440995.6860545,-2.1419389247894287,-1.3334277433208008,-2.526442352925436,6.110737669258871,1.0172531604766846,-3.122294251118795
1708440995.6881058,-2.1419131755828857,-1.3334234815886994,-2.5265021959887903,6.110754239350118,1.0172772407531738,-3.122333351765768
1708440995.6901593,-2.141937017440796,-1.3334439259818573,-2.5264604727374476,6.110790002136984,1.017317771911621,-3.1223540941821497
1708440995.6921096,-2.141930103302002,-1.3333919805339356,-2.5264468828784388,6.110790002136984,1.0173133611679077,-3.122373644505636
1708440995.6941812,-2.141921043395996,-1.3334439259818573,-2.526466194783346,6.110813843994894,1.0173912048339844,-3.1224189440356653
1708440995.6961164,-2.141864538192749,-1.333402932887413,-2.52649170557131,6.110805022507467,1.0174064636230469,-3.1224053541766565
1708440995.6981502,-2.141908645629883,-1.3333914291909714,-2.5264468828784388,6.11080943325118,1.017397403717041,-3.1224828402148646
1708440995.7001183,-2.1419131755828857,-1.3334405434182663,-2.526429001485006,6.110845434456625,1.0174753665924072,-3.1224892775165003
1708440995.7020566,-2.1419551372528076,-1.3334243607572098,-2.52651292482485,6.110885965615072,1.0174953937530518,-3.1225505510913294
1708440995.7040606,-2.141941547393799,-1.3333986711553116,-2.5264514128314417,6.110881554871359,1.017486333847046,-3.1225743929492396
1708440995.7060401,-2.141963005065918,-1.3334277433208008,-2.526458803807394,6.1108648655708215,1.0175223350524902,-3.1225772539721888
1708440995.708032,-2.141916513442993,-1.33344820261512,-2.526548687611715,6.1109423516090295,1.0175931453704834,-3.122610632573263
1708440995.710083,-2.1419708728790283,-1.3334072840264817,-2.526478115712301,6.110908019333639,1.017616868019104,-3.1226208845721644
1708440995.7120287,-2.141859769821167,-1.3334518384984513,-2.5265279451953333,6.110899197846212,1.0176291465759277,-3.122690025960104
1708440995.7140934,-2.1419131755828857,-1.3335047376206894,-2.5265637079821985,6.110924708634176,1.0176184177398682,-3.122713867818014
1708440995.7160454,-2.141984462738037,-1.3334115606597443,-2.5265801588641565,6.110978472023763,1.0176093578338623,-3.1227739492999476
1708440995.7180562,-2.1419506072998047,-1.3334799271873017,-2.5265217463122767,6.111025917321005,1.0176457166671753,-3.1227434317218226
1708440995.7200506,-2.1419131755828857,-1.3334353131106873,-2.526562039052145,6.110926496773519,1.017691969871521,-3.1228788534747522
1708440995.722047,-2.14192533493042,-1.3334072840264817,-2.526607338582174,6.111025917321005,1.0177074670791626,-3.122812573109762
1708440995.7240582,-2.141925573348999,-1.3334723573974152,-2.5266311804400843,6.111020314484396,1.0177191495895386,-3.1228516737567347
1708440995.7260706,-2.141963005065918,-1.3334604513696213,-2.5266385714160364,6.111015903740682,1.0177340507507324,-3.1229427496539515
1708440995.7280643,-2.1419460773468018,-1.3334310364774247,-2.5266717115985315,6.111044156342306,1.017767071723938,-3.122932259236471
1708440995.730071,-2.1419460773468018,-1.3334918481162568,-2.526695791875021,6.111018883972921,1.0177793502807617,-3.1229639689074915
1708440995.7320507,-2.141958475112915,-1.333488554959633,-2.52669865289797,6.11109338977889,1.0177490711212158,-3.1230133215533655
1708440995.7340431,-2.141986608505249,-1.3334723722985764,-2.526731793080465,6.11105631568984,1.0178197622299194,-3.123068873082296
1708440995.7360265,-2.141925573348999,-1.3335003864816208,-2.526715103779928,6.111108767777242,1.0178529024124146,-3.1230807940112513
1708440995.73804,-2.141925573348999,-1.3334604513696213,-2.5267513434039515,6.111173975258627,1.0178635120391846,-3.123161856328146
1708440995.7400773,-2.141895294189453,-1.3334310364774247,-2.5267961660968226,6.111082303314962,1.0179249048233032,-3.1231663862811487
1708440995.7420583,-2.141953945159912,-1.3334310364774247,-2.5268035570727747,6.111171352654257,1.0179024934768677,-3.1232247988330286
1708440995.7440524,-2.1419131755828857,-1.333431140785553,-2.526820484791891,6.111183512001791,1.0179567337036133,-3.123211447392599
1708440995.7460415,-2.1419460773468018,-1.33345182359729,-2.526827875767843,6.111199843674459,1.0179849863052368,-3.123260561619894
1708440995.7483468,-2.141930103302002,-1.3334714037230988,-2.5268681685077112,6.111253130226888,1.0180168151855469,-3.1233041922198694
1708440995.7500517,-2.141928195953369,-1.33351685226474,-2.5268800894366663,6.111227738648214,1.0180273056030273,-3.123392883931295
1708440995.7520192,-2.141953945159912,-1.3334628504565735,-2.5268664995776575,6.1112801907356165,1.018034815788269,-3.123449150715963
1708440995.7540674,-2.141925573348999,-1.333495558505394,-2.526911799107687,6.111308681755819,1.018087387084961,-3.1234729925738733
1708440995.7560208,-2.1419506072998047,-1.3335840863040467,-2.5268951098071497,6.111328112870016,1.0181609392166138,-3.12352425256838
1708440995.7580621,-2.141941547393799,-1.3335190874389191,-2.526923720036642,6.111340033798971,1.0181429386138916,-3.1235690752612513
1708440995.7600605,-2.141984462738037,-1.3336211305907746,-2.527013603840963,6.111338722496786,1.0181878805160522,-3.123601023350851
1708440995.7620652,-2.1419177055358887,-1.3335507226041337,-2.5269792715655726,6.111383545189657,1.0181939601898193,-3.123660389577047
1708440995.7640865,-2.141937017440796,-1.3335755628398438,-2.5270031134234827,6.111396896630087,1.018288493156433,-3.1237221399890345
1708440995.7660677,-2.141916513442993,-1.3335910898498078,-2.52710205713381,6.111345159798422,1.018308401107788,-3.12374717393984
1708440995.768076,-2.1419177055358887,-1.333618940120079,-2.5271123091327112,6.111411678581991,1.0183277130126953,-3.1237805525409144
1708440995.7700808,-2.141975164413452,-1.3336158406785508,-2.5270989576922815,6.111358272820272,1.018388032913208,-3.1238401571856897
1708440995.7720454,-2.141953945159912,-1.333614633684494,-2.527123037968771,6.1114433882530115,1.0184662342071533,-3.123873535786764
1708440995.774076,-2.1419451236724854,-1.3336840283921738,-2.527139727269308,6.111434685974874,1.0184571743011475,-3.12386137643923
1708440995.7760653,-2.1419708728790283,-1.333618940120079,-2.527130667363302,6.111447798996725,1.0185503959655762,-3.123996082936422
1708440995.7780678,-2.141982316970825,-1.3336719584516068,-2.5271664301501673,6.111431467324056,1.018560528755188,-3.1240080038653772
1708440995.7800364,-2.141975164413452,-1.3336268079331894,-2.5272281805621546,6.111491071968832,1.018646478652954,-3.12407094637026
1708440995.7820694,-2.1419618129730225,-1.333622546201088,-2.5271952787982386,6.111519682198324,1.0186827182769775,-3.1241655985461634
1708440995.7840462,-2.141949415206909,-1.3336711388877411,-2.527221981679098,6.111515271454611,1.018709659576416,-3.1241145769702356
1708440995.7860475,-2.1419777870178223,-1.3336060655168076,-2.527288262044088,6.111477839737692,1.0187500715255737,-3.124183241521017
1708440995.7880633,-2.1419708728790283,-1.3336549413255234,-2.5273075739489954,6.111538994103231,1.018786072731018,-3.1242714563952845
1708440995.7901828,-2.141928195953369,-1.3336258840611954,-2.5273481051074427,6.111564624100485,1.0187921524047852,-3.124274555836813
1708440995.792111,-2.141986608505249,-1.3336668771556397,-2.527339045201437,6.111538994103231,1.018865704536438,-3.1243675390826624
1708440995.7940845,-2.141949415206909,-1.333662526016571,-2.527334515248434,6.111574756890096,1.018902063369751,-3.124403778706686
1708440995.7960522,-2.141953945159912,-1.3336634945920487,-2.527412716542379,6.111603367119589,1.0189138650894165,-3.1244662443744105
1708440995.7980719,-2.141916513442993,-1.3336549562266846,-2.5274036566363733,6.111601936608114,1.0189481973648071,-3.124514404927389
1708440995.8000407,-2.141975164413452,-1.3336748343757172,-2.5274065176593226,6.111603367119589,1.0190222263336182,-3.124521795903341
1708440995.8020506,-2.141998052597046,-1.333638773565628,-2.5274396578418177,6.111634599953451,1.0190749168395996,-3.1246374289142054
1708440995.8040473,-2.141930103302002,-1.3337200444987793,-2.527463499699728,6.111634599953451,1.0191150903701782,-3.1246593634234827
1708440995.8060503,-2.1419777870178223,-1.333645449285843,-2.527466360722677,6.111657130509176,1.0191185474395752,-3.1246987024890345
1708440995.808071,-2.1419618129730225,-1.333690957432129,-2.5275326410876673,6.1117437956626794,1.0191782712936401,-3.124763313923971
1708440995.8100731,-2.141949415206909,-1.3336577874473114,-2.5275309721576136,6.111727106362142,1.019207239151001,-3.1248019377337855
1708440995.8120484,-2.141991138458252,-1.333702878361084,-2.5275519529925745,6.111766207009115,1.019219160079956,-3.12485915819277
1708440995.8140738,-2.141932725906372,-1.3336292666247864,-2.52759558359255,6.111742365151205,1.0192294120788574,-3.124939505253927
1708440995.8160686,-2.141975164413452,-1.333711416726448,-2.527604643498556,6.111724722176351,1.0192447900772095,-3.1249876658069056
1708440995.8180506,-2.141925573348999,-1.3336834174445649,-2.5276406447040003,6.111782896309652,1.0193090438842773,-3.124986235295431
1708440995.8200676,-2.141921043395996,-1.3337438118508835,-2.5276764074908655,6.111729132920065,1.0193678140640259,-3.1250718275653284
1708440995.8220437,-2.1419708728790283,-1.3336952191642304,-2.5276179949389856,6.111752974777975,1.0193873643875122,-3.125077549611227
1708440995.8240192,-2.141916513442993,-1.3336866957000275,-2.527679506932394,6.111772286682882,1.0193979740142822,-3.1251183191882532
1708440995.826071,-2.141958475112915,-1.3336747598699112,-2.5277002493487757,6.11180196979598,1.019450306892395,-3.1251824537860315
1708440995.8280308,-2.1420071125030518,-1.3336900782636185,-2.527689758931295,6.111821639328756,1.0195285081863403,-3.125214163457052
1708440995.8300498,-2.141941547393799,-1.3337190610221406,-2.527689758931295,6.111821639328756,1.0195059776306152,-3.125270668660299
1708440995.8320653,-2.141916513442993,-1.3337309819510956,-2.5277305285083216,6.111756431847372,1.0195419788360596,-3.1252647081958216
1708440995.8340206,-2.1419663429260254,-1.3337841492942353,-2.5277259985553187,6.111821639328756,1.0195871591567993,-3.125366512929098
1708440995.836026,-2.142002582550049,-1.3337267202189942,-2.5277395884143274,6.11184989193038,1.0196068286895752,-3.1253486315356653
1708440995.8380182,-2.1419777870178223,-1.333702028994896,-2.5277753512011927,6.1118366596992395,1.0196640491485596,-3.12542969385256
1708440995.840061,-2.141989231109619,-1.333718166952469,-2.527745548878805,6.111866223603048,1.0196667909622192,-3.12545615831484
1708440995.8420403,-2.141928195953369,-1.333747149710991,-2.527799431477682,6.111903655319967,1.0197149515151978,-3.1254943052874964
1708440995.8440351,-2.1419119834899902,-1.333697722559311,-2.527785841618673,6.111852872162618,1.0197840929031372,-3.125575367604391
1708440995.8460274,-2.141916513442993,-1.3337181371501465,-2.5277980009662073,6.111856448441305,1.0197738409042358,-3.1255558172809046
1708440995.8480167,-2.1419451236724854,-1.3337627214244385,-2.5278189818011683,6.11189745643691,1.0198441743850708,-3.1255930105792444
1708440995.8500388,-2.141958475112915,-1.3337670725635071,-2.5278382937060755,6.111900555878439,1.0198683738708496,-3.1256585756884974
1708440995.8520012,-2.1419777870178223,-1.3337258112481614,-2.5278053919421595,6.111890303879537,1.0198907852172852,-3.125714365636007
1708440995.85404,-2.1419663429260254,-1.3337951016477128,-2.5278504530536097,6.111954438477316,1.0199027061462402,-3.1257291475879114
1708440995.8560119,-2.141991138458252,-1.3337832999280472,-2.5278504530536097,6.111938106804647,1.0199360847473145,-3.125798050557272
1708440995.8580422,-2.1419777870178223,-1.3338112843087693,-2.527916495000021,6.111937987595358,1.0199675559997559,-3.125847403203146
1708440995.8600366,-2.141953945159912,-1.3337865632823487,-2.5279372374164026,6.111938106804647,1.019974946975708,-3.1257830301867884
1708440995.8620777,-2.1419663429260254,-1.3337865632823487,-2.527879063283102,6.111942398339071,1.0200321674346924,-3.1258156935321253
1708440995.8640695,-2.141949415206909,-1.3337951016477128,-2.527853314076559,6.111949908524313,1.0200603008270264,-3.125885073338644
1708440995.8660798,-2.141963005065918,-1.3337908250144501,-2.52791935602297,6.1119247553642175,1.0200378894805908,-3.125847641621725
1708440995.8680265,-2.141932725906372,-1.3337299835732956,-2.527914826069967,6.111936676293173,1.0200875997543335,-3.1259987990008753
1708440995.8700633,-2.141941547393799,-1.3337865483811875,-2.527910296116964,6.1119741080100916,1.0201207399368286,-3.125927273427145
1708440995.8720455,-2.141953945159912,-1.3337376427701493,-2.5279765764819544,6.111948835640707,1.0201236009597778,-3.12604266801943
1708440995.874066,-2.141941547393799,-1.3337779206088562,-2.5279510656939905,6.111965167313375,1.020126461982727,-3.126054588948385
1708440995.8761876,-2.141979932785034,-1.3338192713311692,-2.527926746998922,6.112014043122091,1.0201435089111328,-3.126094643269674
1708440995.8780649,-2.141921043395996,-1.3337951016477128,-2.5279765764819544,6.111993419914999,1.0201510190963745,-3.1260767618762415
1708440995.8800147,-2.141932725906372,-1.3337541830590744,-2.5279884974109095,6.1120022414024255,1.0201435089111328,-3.1260841528521937
1708440995.8821232,-2.141953945159912,-1.3337941330722352,-2.5279675165759485,6.111984598427572,1.0201959609985352,-3.126153055821554
1708440995.8840497,-2.141975164413452,-1.333879755144455,-2.5279386679278772,6.111989009171285,1.0201914310455322,-3.1261397043811243
1708440995.8860245,-2.1419732570648193,-1.333794118171074,-2.5279703775988978,6.111996519356527,1.020179271697998,-3.1261277834521692
1708440995.8881009,-2.1419119834899902,-1.3338027459434052,-2.5279088656054896,6.111968385964193,1.020200490951538,-3.1261969248401087
1708440995.8901522,-2.141895294189453,-1.3337207448533555,-2.527949635182516,6.112029182701864,1.0201747417449951,-3.1262250582324427
1708440995.8921168,-2.141963005065918,-1.3338513237288971,-2.5279420057879847,6.111984598427572,1.0201747417449951,-3.126216236745016
1708440995.8941433,-2.141958475112915,-1.333802194600441,-2.5279839674579065,6.112033593445577,1.0201629400253296,-3.1262250582324427
1708440995.896153,-2.141953945159912,-1.3338504296592255,-2.527966086064474,6.112017261772909,1.02016282081604,-3.126195494328634
1708440995.8981621,-2.141923666000366,-1.333814100628235,-2.5279749075519007,6.1120009301002405,1.0201914310455322,-3.1262741724597376
1708440995.900129,-2.1419708728790283,-1.3338183772614975,-2.5280121008502405,6.112012851029196,1.0201702117919922,-3.126211706792013
1708440995.9020753,-2.1419708728790283,-1.3338632446578522,-2.528019968663351,6.1120009301002405,1.0202077627182007,-3.126216236745016
1708440995.9040883,-2.1419451236724854,-1.3337814074805756,-2.528019968663351,6.112038004189291,1.0202291011810303,-3.126220766698019
1708440995.9060514,-2.141986608505249,-1.333802194600441,-2.527998749409811,6.112009751587667,1.020179271697998,-3.1262369791613978
1708440995.9080527,-2.141979932785034,-1.3337779355100174,-2.5280032793628138,6.112014043122091,1.020182490348816,-3.126207415257589
1708440995.910112,-2.141953945159912,-1.3337941628745575,-2.528010908757345,6.112026083260336,1.0201836824417114,-3.126260821019308
1708440995.9120703,-2.141937017440796,-1.333827794795372,-2.5279703775988978,6.111935603409567,1.0201747417449951,-3.126216236745016
1708440995.9140604,-2.1419663429260254,-1.3337979328683396,-2.527961317692892,6.111959445267477,1.0201464891433716,-3.126244608555929
1708440995.9160438,-2.1419506072998047,-1.3338797849467774,-2.5279913584338587,6.111971485405721,1.0201747417449951,-3.126248900090353
1708440995.9180582,-2.141941547393799,-1.3338384342244645,-2.528015438710348,6.111989009171285,1.0201747417449951,-3.1261983553515833
1708440995.9200315,-2.1419777870178223,-1.3338354986957093,-2.527982298527853,6.111996519356527,1.020200490951538,-3.126207415257589
1708440995.9220479,-2.141958475112915,-1.3338512641242524,-2.528010908757345,6.112026083260336,1.0201926231384277,-3.126223627720968
1708440995.924044,-2.1419451236724854,-1.3338021647981186,-2.527994219456808,6.112049805908956,1.0201389789581299,-3.126237217579977
1708440995.9260702,-2.141953945159912,-1.333834246998169,-2.527966086064474,6.111971485405721,1.020171880722046,-3.126211706792013
1708440995.928112,-2.141949415206909,-1.3338397157243271,-2.527973477040426,6.112045395165243,1.0201345682144165,-3.126228157673971
1708440995.930055,-2.141949415206909,-1.3338554811528702,-2.527982298527853,6.1120455143745325,1.0201464891433716,-3.126216236745016
1708440995.932032,-2.1419451236724854,-1.3338711273721238,-2.528048340474264,6.111992108612814,1.0201762914657593,-3.1261923948871058
1708440995.934074,-2.141934633255005,-1.333765224819519,-2.5280078093158167,6.112009751587667,1.0201717615127563,-3.126216236745016
1708440995.93603,-2.141941547393799,-1.3338470470956345,-2.528019968663351,6.112012851029196,1.0201510190963745,-3.1262088457690638
1708440995.9380605,-2.141899585723877,-1.3338754040053864,-2.527982298527853,6.112033474236288,1.020171880722046,-3.1261923948871058
1708440995.9400423,-2.141937017440796,-1.3337898564389725,-2.5279539267169397,6.112004029541769,1.0201345682144165,-3.1261923948871058
1708440995.9420424,-2.1419451236724854,-1.3338311922601243,-2.5280001799212855,6.111999499588766,1.0201390981674194,-3.1261606852160853
1708440995.9440434,-2.1419460773468018,-1.3338149946979065,-2.527965847645895,6.112012851029196,1.0200769901275635,-3.1261561552630823
1708440995.9460716,-2.141932725906372,-1.3337979030660172,-2.5279296080218714,6.1120009301002405,1.020102858543396,-3.1260786692248743
1708440995.948055,-2.1419663429260254,-1.333822564487793,-2.5280166308032435,6.112041103630819,1.0200995206832886,-3.12608772913088
1708440995.950049,-2.1419460773468018,-1.3337856543115159,-2.5279465357409876,6.112017261772909,1.0200875997543335,-3.1260677019702356
1708440995.9520288,-2.141941547393799,-1.333822564487793,-2.5279584566699427,6.112015950470724,1.0200623273849487,-3.1260855833636683
1708440995.9540465,-2.141995906829834,-1.333802194600441,-2.527933184300558,6.112015950470724,1.0200549364089966,-3.1260200182544153
1708440995.956035,-2.141958475112915,-1.3338149797967453,-2.5279749075519007,6.112012851029196,1.0200639963150024,-3.126033608113424
1708440995.9580572,-2.141986608505249,-1.3338268262198945,-2.5279374758349817,6.111980187683859,1.0200066566467285,-3.125979248677389
