Eg3-git/Classifiers/Data Collection/u7/u7www2_ur3e_joint_states.csv
time,elbow_joint,shoulder_lift_joint,shoulder_pan_joint,wrist_1_joint,wrist_2_joint,wrist_3_joint
1708440973.7039516,-2.1415627002716064,-1.3333123934319993,-2.52616793314089,6.1092086909110925,1.016634225845337,-2.9976280371295374
1708440973.705944,-2.1415421962738037,-1.33326809227977,-2.5261498133288782,6.109278785973348,1.016634225845337,-2.997599188481466
1708440973.7080188,-2.141587495803833,-1.3332725328258057,-2.526151482258932,6.1092580435569666,1.0165798664093018,-2.9975948969470423
1708440973.710035,-2.1415536403656006,-1.33326809227977,-2.526208225880758,6.1092580435569666,1.016588807106018,-2.997660462056295
1708440973.7120373,-2.14153790473938,-1.3332725328258057,-2.52616793314089,6.109287726670065,1.0165753364562988,-2.9976118246661585
1708440973.7140539,-2.1415467262268066,-1.3333124083331604,-2.526151482258932,6.1092638848121545,1.016608476638794,-2.9976072947131556
1708440973.7159667,-2.1415750980377197,-1.333235116010048,-2.526142422352926,6.109242784767904,1.0166175365447998,-2.9976561705218714
1708440973.7179658,-2.1415750980377197,-1.333227665429451,-2.526212755833761,6.109263765602865,1.0165965557098389,-2.9976280371295374
1708440973.7199843,-2.1415793895721436,-1.3332888943007966,-2.52613336244692,6.109222042351522,1.016634225845337,-2.9977060000049036
1708440973.7220418,-2.1415750980377197,-1.3332888943007966,-2.526184384022848,6.109201180725851,1.0166128873825073,-2.9976323286639612
1708440973.7240953,-2.141592025756836,-1.3332469773343583,-2.526175324116842,6.109293329506674,1.0166010856628418,-2.9976399580584925
1708440973.7259622,-2.1415793895721436,-1.333285928969719,-2.526170794163839,6.109272706299581,1.0165965557098389,-2.997640911732809
1708440973.7279541,-2.1415421962738037,-1.3332469773343583,-2.526125971470968,6.109210121422567,1.016625165939331,-2.9976723829852503
1708440973.7299504,-2.141594409942627,-1.3332920235446473,-2.526196304951803,6.109189379006185,1.0166128873825073,-2.997640911732809
1708440973.7319582,-2.141587495803833,-1.3332888943007966,-2.526142422352926,6.109232175141134,1.016603946685791,-2.9976323286639612
1708440973.7339427,-2.1415536403656006,-1.3333379489234467,-2.52616793314089,6.109226453095236,1.016625165939331,-2.9976356665240687
1708440973.7359443,-2.1415536403656006,-1.3332440120032807,-2.526179854069845,6.1091967699821375,1.0165798664093018,-2.9976778666125696
1708440973.7379866,-2.1415669918060303,-1.3332920384458085,-2.526203695927755,6.109162437706747,1.016608476638794,-2.997685257588522
1708440973.7399669,-2.14153790473938,-1.333280013208725,-2.5261827150927942,6.1092145321662805,1.0165921449661255,-2.997657124196188
1708440973.741968,-2.1415421962738037,-1.333280013208725,-2.5261991659747522,6.1092145321662805,1.0166206359863281,-2.997636620198385
1708440973.74395,-2.1415555477142334,-1.3332306307605286,-2.5261736551867884,6.109205710678854,1.0165544748306274,-2.997652832661764
1708440973.7459726,-2.141526460647583,-1.3332681071809311,-2.5261917749988,6.109207021981039,1.0166206359863281,-2.997652832661764
1708440973.7479618,-2.1415352821350098,-1.333239496951439,-2.526170794163839,6.109192478447714,1.016599416732788,-2.99762469926943
1708440973.7500403,-2.1415512561798096,-1.3332306307605286,-2.526196304951803,6.1092145321662805,1.0166206359863281,-2.99764854112734
1708440973.7519405,-2.1415183544158936,-1.3332469773343583,-2.526187245045797,6.109242784767904,1.016629695892334,-2.9976442495929163
1708440973.7539418,-2.1415228843688965,-1.33326809227977,-2.5261827150927942,6.109199511795797,1.016599416732788,-2.9975536505328577
1708440973.7559397,-2.1415600776672363,-1.3332440120032807,-2.5262203852282923,6.109181868820944,1.0166175365447998,-2.997664753590719
1708440973.7580335,-2.1415555477142334,-1.3332920235446473,-2.5262370745288294,6.109247195511617,1.0166370868682861,-2.997652832661764
1708440973.7600033,-2.1415183544158936,-1.3332934093526383,-2.5262067953692835,6.109210121422567,1.0166206359863281,-2.9976895491229456
1708440973.7620304,-2.1415183544158936,-1.3332636666348954,-2.5262067953692835,6.109218942909994,1.0166579484939575,-2.997660462056295
1708440973.7639713,-2.141510486602783,-1.3333141964725037,-2.526280466710226,6.109184968262472,1.0166369676589966,-2.997636620198385
1708440973.765977,-2.1415486335754395,-1.3332558435252686,-2.526229206715719,6.109165537148275,1.0166399478912354,-2.9976280371295374
1708440973.7679706,-2.1415555477142334,-1.3332558435252686,-2.526259247456686,6.109125005989828,1.0166206359863281,-2.997636620198385
1708440973.770043,-2.1415183544158936,-1.3332888943007966,-2.526309076939718,6.109235274582662,1.0166701078414917,-2.997636620198385
1708440973.7720368,-2.1415486335754395,-1.3332558435252686,-2.5263119379626673,6.109113085060873,1.016641616821289,-2.997680966054098
1708440973.7739544,-2.1415274143218994,-1.3333185774138947,-2.526304546986715,6.109165537148275,1.0165921449661255,-2.9976442495929163
1708440973.7759442,-2.1415228843688965,-1.3332888943007966,-2.5263329187976282,6.1091699478919885,1.016608476638794,-2.9975786844836634
1708440973.7779372,-2.1415274143218994,-1.3332394820502778,-2.526278797780172,6.109193789749899,1.016641616821289,-2.9976161162005823
1708440973.7799532,-2.1415140628814697,-1.333297849898674,-2.5262578169452112,6.10919069030837,1.0166071653366089,-2.997669045125143
1708440973.782042,-2.1415140628814697,-1.333215744500496,-2.526292387639181,6.109181868820944,1.0166206359863281,-2.997636620198385
1708440973.784078,-2.1415646076202393,-1.3332814884236832,-2.5263119379626673,6.109198200493612,1.016603946685791,-2.9976123015033167
1708440973.7860873,-2.1415398120880127,-1.3332725328258057,-2.5262909571277063,6.109189379006185,1.0165950059890747,-2.9976161162005823
1708440973.7880132,-2.1415352821350098,-1.3332528930953522,-2.526245657597677,6.109181868820944,1.0166162252426147,-2.9976399580584925
1708440973.790053,-2.1415555477142334,-1.3333212745240708,-2.5262532869922083,6.109238374024191,1.0166624784469604,-2.997685257588522
1708440973.7920756,-2.1415228843688965,-1.3332770627788086,-2.526262346898214,6.109198200493612,1.0166325569152832,-2.997657124196188
1708440973.7940676,-2.1414945125579834,-1.333223135476448,-2.526259247456686,6.10916684845046,1.016625165939331,-2.9976442495929163
1708440973.7959988,-2.1415016651153564,-1.3332934093526383,-2.5262532869922083,6.10915361621932,1.0166534185409546,-2.9976940790759485
1708440973.7979617,-2.1414830684661865,-1.3332888943007966,-2.526309076939718,6.109222042351522,1.0166488885879517,-2.99764854112734
1708440973.799978,-2.1414742469787598,-1.3333052408746262,-2.5262866655932825,6.109259474068441,1.0166161060333252,-2.997685496007101
1708440973.8019788,-2.141575813293457,-1.3332844537547608,-2.526245657597677,6.1092203734214685,1.016603946685791,-2.9976442495929163
1708440973.8039474,-2.141510486602783,-1.3332636666348954,-2.526254717503683,6.109218942909994,1.0166325569152832,-2.997636620198385
1708440973.805957,-2.1415059566497803,-1.3332725328258057,-2.526292387639181,6.109211432724752,1.0166399478912354,-2.997640911732809
1708440973.8080451,-2.1415228843688965,-1.3332636666348954,-2.526287857686178,6.1091580269630334,1.0166444778442383,-2.997652832661764
1708440973.8100421,-2.1415352821350098,-1.3332963746837159,-2.526287857686178,6.109183180123129,1.0166071653366089,-2.997660462056295
1708440973.812015,-2.1415274143218994,-1.3332648140243073,-2.526292387639181,6.109178769379415,1.016672968864441,-2.9976442495929163
1708440973.814043,-2.1414875984191895,-1.3332770627788086,-2.526278797780172,6.1092145321662805,1.0166116952896118,-2.997645441685812
1708440973.8159852,-2.1415352821350098,-1.333197907810547,-2.5262578169452112,6.109174358635702,1.0166701078414917,-2.997629229222433
1708440973.8179905,-2.1415228843688965,-1.3332636666348954,-2.526309076939718,6.109178769379415,1.0166071653366089,-2.99760348001589
1708440973.8200111,-2.1415059566497803,-1.333239496951439,-2.5262697378741663,6.109199511795797,1.0166325569152832,-2.9976561705218714
1708440973.8220227,-2.1414856910705566,-1.3332603734782715,-2.526262346898214,6.109220254212179,1.0166685581207275,-2.9976161162005823
1708440973.824047,-2.1415183544158936,-1.3332725328258057,-2.5262909571277063,6.109186279564657,1.0166234970092773,-2.9976518789874476
1708440973.825997,-2.141526460647583,-1.3332593154958268,-2.5262742678271692,6.1091370461280725,1.0166943073272705,-2.997652832661764
1708440973.8279767,-2.1415352821350098,-1.3332770627788086,-2.52627140680422,6.109199511795797,1.0166444778442383,-2.997652832661764
1708440973.829998,-2.1414902210235596,-1.3332844537547608,-2.526245657597677,6.109161126404562,1.016672968864441,-2.997680966054098
1708440973.8319824,-2.1415441036224365,-1.3332440120032807,-2.526266876851217,6.109252917557516,1.0166430473327637,-2.997657124196188
1708440973.8339543,-2.1415352821350098,-1.333255798821785,-2.526283327733175,6.109207021981039,1.0166566371917725,-2.9976323286639612
1708440973.835974,-2.141510486602783,-1.3332814884236832,-2.526245657597677,6.109125005989828,1.0166566371917725,-2.9975906054126185
1708440973.8379972,-2.1415228843688965,-1.333285928969719,-2.526287857686178,6.109210121422567,1.0167016983032227,-2.99762469926943
1708440973.8399732,-2.1414787769317627,-1.3332558435252686,-2.526262346898214,6.109223353653707,1.0166807174682617,-2.9976940790759485
1708440973.8419428,-2.1415531635284424,-1.3332888943007966,-2.526254717503683,6.109218942909994,1.0167016983032227,-2.997620407735006
1708440973.8439944,-2.141515016555786,-1.333239496951439,-2.526292387639181,6.109239685326376,1.0166549682617188,-2.9976895491229456
1708440973.845937,-2.1415486335754395,-1.33326809227977,-2.526283327733175,6.109207021981039,1.0167094469070435,-2.997664753590719
1708440973.8479583,-2.1414902210235596,-1.3332725328258057,-2.5263283888446253,6.109198200493612,1.0167301893234253,-2.997636620198385
1708440973.8499784,-2.1415228843688965,-1.3332692694715043,-2.5263119379626673,6.109210121422567,1.016709327697754,-2.997599188481466
1708440973.8519354,-2.1415183544158936,-1.3332636666348954,-2.526287857686178,6.1092145321662805,1.016721248626709,-2.9976118246661585
1708440973.8539677,-2.1415035724639893,-1.3332603883794327,-2.526304546986715,6.109210121422567,1.0166958570480347,-2.9976897875415247
1708440973.8559387,-2.1415441036224365,-1.3332023483565827,-2.526337210332052,6.1092145321662805,1.0167495012283325,-2.9976280371295374
1708440973.8580627,-2.1414787769317627,-1.3332440120032807,-2.526254717503683,6.109230863838949,1.0167620182037354,-2.997636620198385
1708440973.8600035,-2.1415398120880127,-1.3332770627788086,-2.5262864271747034,6.109211432724752,1.0167286396026611,-2.997669045125143
1708440973.8620143,-2.141510486602783,-1.3333141964725037,-2.526262346898214,6.109208452492513,1.0167286396026611,-2.9976442495929163
1708440973.8639808,-2.1415059566497803,-1.3332603734782715,-2.5262954870807093,6.109202611237325,1.0167495012283325,-2.9976075331317347
1708440973.8660233,-2.1415228843688965,-1.3332859587720414,-2.526309076939718,6.109226453095236,1.0167359113693237,-2.9976030031787317
1708440973.867999,-2.141515016555786,-1.3332648140243073,-2.5262909571277063,6.109244096070089,1.0167286396026611,-2.997652832661764
1708440973.8700204,-2.141510486602783,-1.3332725328258057,-2.526266876851217,6.109211432724752,1.0167450904846191,-2.997660462056295
1708440973.8719926,-2.1415274143218994,-1.3332770627788086,-2.5262578169452112,6.109223353653707,1.0167241096496582,-2.9976072947131556
1708440973.8739848,-2.1415183544158936,-1.333239496951439,-2.526300017033712,6.109230863838949,1.0167405605316162,-2.9976075331317347
1708440973.8759415,-2.1415183544158936,-1.3332725328258057,-2.526300017033712,6.109193789749899,1.0167739391326904,-2.9976356665240687
1708440973.8779807,-2.1415274143218994,-1.3332725328258057,-2.526346270238058,6.109230863838949,1.0167529582977295,-2.9976680914508265
1708440973.879981,-2.1415140628814697,-1.333239496951439,-2.52625018755068,6.10917745807723,1.0167694091796875,-2.997685257588522
1708440973.882081,-2.1415441036224365,-1.333272562628128,-2.526292387639181,6.109165656357565,1.016757607460022,-2.9976723829852503
1708440973.8840299,-2.1415059566497803,-1.3333007854274292,-2.526300017033712,6.109181868820944,1.0167529582977295,-2.9976800123797815
1708440973.8859715,-2.141568899154663,-1.3332725328258057,-2.5262909571277063,6.109186279564657,1.0167559385299683,-2.9976723829852503
1708440973.8879693,-2.1415274143218994,-1.3332648140243073,-2.52625018755068,6.109186279564657,1.016769289970398,-2.9976356665240687
1708440973.889979,-2.1414787769317627,-1.3332306009582062,-2.526320759450094,6.109198200493612,1.016781210899353,-2.9976723829852503
1708440973.8919427,-2.141515016555786,-1.3332814586213608,-2.526245657597677,6.1092145321662805,1.016769289970398,-2.9976843039142054
1708440973.8939698,-2.1415059566497803,-1.333239496951439,-2.5262864271747034,6.109230863838949,1.016710638999939,-2.997704807912008
1708440973.8959558,-2.1415512561798096,-1.3332350564054032,-2.5262954870807093,6.109268295555868,1.016785740852356,-2.997709099446432
1708440973.897953,-2.1415441036224365,-1.3332558435252686,-2.526300017033712,6.109205710678854,1.0167484283447266,-2.997704807912008
1708440973.8999553,-2.1415274143218994,-1.3332770627788086,-2.5262368361102503,6.109217512398519,1.0167604684829712,-2.9977005163775843
1708440973.9019475,-2.1415441036224365,-1.3332440120032807,-2.526320997868673,6.109271394997396,1.016781210899353,-2.9977298418628138
1708440973.9039748,-2.1415183544158936,-1.3332558435252686,-2.52631646791567,6.10928891876296,1.0167722702026367,-2.997711960469381
1708440973.905948,-2.1415398120880127,-1.3332306158593674,-2.5263074080096644,6.10916422584609,1.016781210899353,-2.9977293650256556
1708440973.9080548,-2.1415059566497803,-1.3332636815360566,-2.526283327733175,6.109230863838949,1.0167512893676758,-2.9976874033557337
1708440973.9099598,-2.1414902210235596,-1.3332725328258057,-2.526245896016256,6.109235274582662,1.016817331314087,-2.9977293650256556
1708440973.9119477,-2.1414945125579834,-1.333272547726967,-2.5262954870807093,6.109271394997396,1.0167796611785889,-2.9977529684649866
1708440973.913987,-2.1415317058563232,-1.333316759472229,-2.526266876851217,6.109247195511617,1.0168099403381348,-2.997756306325094
1708440973.9159472,-2.1415529251098633,-1.3332692098668595,-2.526300017033712,6.109250533371725,1.016800880432129,-2.997760597859518
1708440973.9179807,-2.14158034324646,-1.3332277250340958,-2.5262909571277063,6.109238374024191,1.0168262720108032,-2.997772518788473
1708440973.919967,-2.1415512561798096,-1.333255873327591,-2.526266876851217,6.109222161560812,1.0168339014053345,-2.9977758566485804
1708440973.9220223,-2.1415059566497803,-1.3332558584264298,-2.5262983481036585,6.109247195511617,1.016800880432129,-2.9978206793414515
1708440973.9239583,-2.1415352821350098,-1.3332529079965134,-2.5263074080096644,6.109274375229635,1.016812801361084,-2.9978089968310755
1708440973.9259443,-2.1415274143218994,-1.3332395118526001,-2.5263403097735804,6.109238374024191,1.0168461799621582,-2.99780780473818
1708440973.927968,-2.1414945125579834,-1.3332888943007966,-2.5262983481036585,6.109266865044393,1.0168249607086182,-2.997803513203756
1708440973.9299638,-2.1415274143218994,-1.3332858842662354,-2.5263238588916224,6.109281766205587,1.0168036222457886,-2.997791592274801
1708440973.931971,-2.1415486335754395,-1.333197997217514,-2.5263074080096644,6.109241711884298,1.0169243812561035,-2.9978564421283167
1708440973.933983,-2.141536235809326,-1.3333257299712677,-2.5262954870807093,6.109283196717062,1.0168653726577759,-2.997824017201559
1708440973.9359677,-2.1415441036224365,-1.3332725328258057,-2.5263028780566614,6.109297144203939,1.0168609619140625,-2.9978845755206507
1708440973.9380236,-2.1414945125579834,-1.333244041805603,-2.5262983481036585,6.109319197922506,1.0168638229370117,-2.997859779988424
1708440973.9399588,-2.1414902210235596,-1.3332470667413254,-2.5263403097735804,6.109322058945455,1.0168895721435547,-2.9978671709643763
1708440973.941947,-2.141481399536133,-1.3332978200963517,-2.526386801396505,6.109329569130697,1.0168927907943726,-2.9979165236102503
1708440973.9439745,-2.1415512561798096,-1.3332725179246445,-2.5263312498675745,6.109355079918661,1.016909122467041,-2.997883383427755
1708440973.945942,-2.1415016651153564,-1.3332859438708802,-2.5263147989856165,6.109361040383138,1.0169165134429932,-2.997953478490011
1708440973.9479604,-2.1415016651153564,-1.333239496951439,-2.526350800191061,6.109349238663473,1.0168955326080322,-2.9979165236102503
1708440973.9499638,-2.1415059566497803,-1.3332681071809311,-2.5263598600970667,6.1094103930290125,1.0169332027435303,-2.9979804197894495
1708440973.951942,-2.1415140628814697,-1.333242730503418,-2.5263477007495325,6.10936866977767,1.0169360637664795,-2.9979479948626917
1708440973.9539633,-2.1415274143218994,-1.333284468655922,-2.5263386408435267,6.109413373261251,1.016940712928772,-2.997918669377462
1708440973.9559326,-2.1415274143218994,-1.333272547726967,-2.5263341108905237,6.1094223139579675,1.0169692039489746,-2.997963015233175
1708440973.9580853,-2.1415352821350098,-1.3332469922355195,-2.5263643900500696,6.109446036606588,1.0170187950134277,-2.998024288808004
1708440973.960002,-2.1415274143218994,-1.333272547726967,-2.526367489491598,6.109458076744833,1.0169888734817505,-2.99799615541567
1708440973.9619856,-2.141571521759033,-1.3333258044770737,-2.5263341108905237,6.109446036606588,1.017000675201416,-2.9980157057391565
1708440973.9640276,-2.1415274143218994,-1.3332756769708176,-2.526383940373556,6.109490978508749,1.017005205154419,-2.9980319182025355
1708440973.9659684,-2.1415035724639893,-1.3332558435252686,-2.526350800191061,6.109494077950277,1.017000675201416,-2.998052422200338
1708440973.9679914,-2.141510486602783,-1.3332799834064026,-2.52637488046755,6.109424102097311,1.0170038938522339,-2.9980600515948694
1708440973.969968,-2.1414902210235596,-1.3332558435252686,-2.526400391255514,6.109482276230612,1.0170323848724365,-2.9980931917773646
1708440973.9719605,-2.1414945125579834,-1.3333257746747513,-2.5263822714435022,6.109473335533895,1.017098307609558,-2.998112503682272
1708440973.9740326,-2.1415441036224365,-1.3332962852767487,-2.526407782231466,6.109497177391805,1.0170865058898926,-2.9980714956866663
1708440973.9759686,-2.1415016651153564,-1.3332636815360566,-2.5264273325549524,6.109530198365011,1.0171146392822266,-2.998160187398092
1708440973.9779432,-2.1415016651153564,-1.333254800443985,-2.526419703160421,6.10948525646285,1.0171012878417969,-2.9981635252581995
1708440973.979943,-2.1415183544158936,-1.333272547726967,-2.5264061133014124,6.109530198365011,1.0171183347702026,-2.998197619115011
1708440973.9820478,-2.1415421962738037,-1.3332593154958268,-2.5264151732074183,6.109540450363912,1.017134666442871,-2.998171631489889
1708440973.9840202,-2.1415274143218994,-1.3333123934319993,-2.5264392534839075,6.1095420000846765,1.0171449184417725,-2.998199764882223
1708440973.9860206,-2.1415441036224365,-1.3332636666348954,-2.5264228026019495,6.109504687577047,1.0171329975128174,-2.9982410112964075
1708440973.9880059,-2.1415228843688965,-1.3333290827325364,-2.5264483133899134,6.1095420000846765,1.0171869993209839,-2.9982686678515833
1708440973.9899974,-2.1415512561798096,-1.333239422445633,-2.5264979044543665,6.109564530640402,1.0172066688537598,-2.9982686678515833
1708440973.9920137,-2.1415274143218994,-1.3332770478776474,-2.5264514128314417,6.109601604729452,1.0172442197799683,-2.9982555548297327
1708440973.9941006,-2.141571521759033,-1.3332426410964509,-2.5264678637133997,6.109555709152975,1.0172516107559204,-2.9982717672931116
1708440973.9960196,-2.1415059566497803,-1.3333052408746262,-2.5265052954303187,6.1096746800239465,1.0172638893127441,-2.9982999006854456
1708440973.9980397,-2.141515016555786,-1.333337978725769,-2.526479784642355,6.10966585853652,1.0172743797302246,-2.9983237425433558
1708440973.9999874,-2.1415441036224365,-1.3333080571940918,-2.52651292482485,6.109664547234335,1.0172834396362305,-2.998364512120382
1708440974.001967,-2.1414971351623535,-1.3333080571940918,-2.52649170557131,6.109660136490621,1.0172412395477295,-2.9984458128558558
1708440974.0039663,-2.14151930809021,-1.3332770627788086,-2.526461664830343,6.109709489136495,1.0172698497772217,-2.9983752409564417
1708440974.005977,-2.14158034324646,-1.3333321523717423,-2.5265021959887903,6.109688269882955,1.0173029899597168,-2.9983957449542444
1708440974.0079963,-2.1415486335754395,-1.3332667660764237,-2.526586119328634,6.109709489136495,1.0173267126083374,-2.9984357992755335
1708440974.0100288,-2.1414530277252197,-1.333280013208725,-2.526548687611715,6.10976921299056,1.017346739768982,-2.998418394719259
1708440974.011986,-2.1414856910705566,-1.3332666915706177,-2.5265353361712855,6.109736192017355,1.017337679862976,-2.9985016028033655
1708440974.0139868,-2.1415183544158936,-1.3333080571940918,-2.5265021959887903,6.109724390297689,1.017370343208313,-2.998417917882101
1708440974.015982,-2.1415669918060303,-1.333296389584877,-2.5265637079821985,6.109739768296041,1.017370343208313,-2.99852425256838
1708440974.017991,-2.1415398120880127,-1.333348498945572,-2.5265546480761927,6.109792816429891,1.017401933670044,-2.9985230604754847
1708440974.02,-2.1415669918060303,-1.3332875084928055,-2.5265710989581507,6.109752881317892,1.0174140930175781,-2.9985442797290247
1708440974.0219836,-2.1415183544158936,-1.3333334934762497,-2.5265172163592737,6.109776484757223,1.0174140930175781,-2.998559300099508
1708440974.0239625,-2.1415317058563232,-1.333324746494629,-2.52661639848818,6.109776484757223,1.017466425895691,-2.9985831419574183
1708440974.0259542,-2.141509532928467,-1.3333080571940918,-2.526569668446676,6.109824406891622,1.0174620151519775,-2.9985907713519495
1708440974.0279677,-2.1415512561798096,-1.3333168190768738,-2.526623789464132,6.109800445824423,1.0175118446350098,-2.9986355940448206
1708440974.029967,-2.1415512561798096,-1.3333247315934678,-2.526635710393087,6.109872329026022,1.0175145864486694,-2.998631302510397
1708440974.0319824,-2.1415228843688965,-1.333332137470581,-2.5265818277942103,6.1098917601402185,1.0174891948699951,-2.998634640370504
1708440974.0339403,-2.1415016651153564,-1.333332137470581,-2.526656691228048,6.109899151116171,1.0175840854644775,-2.998638931904928
1708440974.0359523,-2.1414835453033447,-1.3333440583995362,-2.5266385714160364,6.109908091812887,1.017529845237732,-2.998683277760641
1708440974.037977,-2.1415352821350098,-1.333332137470581,-2.5266686121570032,6.109916913300314,1.0175824165344238,-2.9986982981311243
1708440974.0399659,-2.1415059566497803,-1.3333484840444108,-2.5266884008990687,6.109911072045126,1.0175988674163818,-2.9987223784076136
1708440974.0419612,-2.1415228843688965,-1.3334097576192399,-2.5266462008105677,6.109944093018331,1.0176228284835815,-2.9987462202655237
1708440974.0439534,-2.1415398120880127,-1.3333770793727417,-2.5266626516925257,6.1098917601402185,1.0176396369934082,-2.9987786451922815
1708440974.0459666,-2.1415398120880127,-1.3334543716958542,-2.5266884008990687,6.109960424691,1.0176546573638916,-2.9988237063037317
1708440974.0479412,-2.1415421962738037,-1.3334041398814698,-2.526748243962423,6.1099634049232385,1.017687439918518,-2.9988225142108362
1708440974.0499616,-2.1415512561798096,-1.3334321689656754,-2.526694122944967,6.110005008965292,1.0176993608474731,-2.9988225142108362
1708440974.0519571,-2.141571521759033,-1.3334726852229615,-2.5267768541919153,6.109942781716146,1.0176904201507568,-2.9988420645343226
1708440974.0539484,-2.141571521759033,-1.3334201735309144,-2.5267391840564173,6.109938370972433,1.0176857709884644,-2.998878780995504
1708440974.0560389,-2.1415398120880127,-1.33345182359729,-2.5267165342914026,6.109959113388815,1.0177310705184937,-2.9988744894610804
1708440974.057958,-2.1415398120880127,-1.3334099513343354,-2.5267871061908167,6.109971391945638,1.0177717208862305,-2.99886137643923
1708440974.0599842,-2.141526460647583,-1.333421842460968,-2.5267825762378138,6.109982955246725,1.0177838802337646,-2.998890225087301
1708440974.0619683,-2.1415882110595703,-1.3335008484176178,-2.5268338362323206,6.110048520355978,1.017807960510254,-2.998978916798727
1708440974.063975,-2.141533136367798,-1.333468185072281,-2.5267496744738978,6.110097873001852,1.017836093902588,-2.998970333729879
1708440974.0660233,-2.141509532928467,-1.3334384721568604,-2.526820484791891,6.110080110817709,1.017884373664856,-2.9990227858172815
1708440974.0679836,-2.1415536403656006,-1.3334351491979142,-2.526820484791891,6.110096442490377,1.0178422927856445,-2.9989829699145716
1708440974.0700316,-2.1415839195251465,-1.3334727150252839,-2.52682334581484,6.110066997795858,1.0178619623184204,-2.9990347067462366
1708440974.071969,-2.141533136367798,-1.3334845167449494,-2.526827875767843,6.110108363419332,1.0178741216659546,-2.999058548604147
1708440974.0739486,-2.1415581703186035,-1.3334385019591828,-2.526827875767843,6.110090720444479,1.017906904220581,-2.9990456740008753
1708440974.0759559,-2.141570568084717,-1.3334712398103257,-2.5268471876727503,6.110164868622579,1.0179312229156494,-2.9990819136248987
1708440974.0779748,-2.1415421962738037,-1.3334593039802094,-2.5268500486956995,6.11020981052474,1.0179387331008911,-2.99904448190798
1708440974.0799704,-2.1415536403656006,-1.3334636700204392,-2.5268500486956995,6.1101726172264,1.0179506540298462,-2.99908954301943
1708440974.0820992,-2.141528844833374,-1.3334845167449494,-2.5268710295306605,6.110162365227499,1.017975926399231,-2.999167029057638
1708440974.0840678,-2.14158296585083,-1.3334563237479706,-2.5269041697131556,6.11017011383132,1.018012285232544,-2.999133888875143
1708440974.0860305,-2.1415627002716064,-1.3334385317615052,-2.5268741289721888,6.110272633820333,1.0180317163467407,-2.9991496245013636
1708440974.0879767,-2.141596555709839,-1.3334845167449494,-2.526928249989645,6.110198604851522,1.0180437564849854,-2.9992058912860315
1708440974.089962,-2.1415581703186035,-1.3334549379399796,-2.526944700871603,6.11025499084548,1.0180845260620117,-2.9992101828204554
1708440974.091937,-2.1415793895721436,-1.3334307235530396,-2.526928249989645,6.110234248429098,1.0180799961090088,-2.999241654072897
1708440974.0939944,-2.1415421962738037,-1.3334935170463105,-2.526964251195089,6.110283243447103,1.0180964469909668,-2.999302927647726
1708440974.0959828,-2.1415581703186035,-1.333450437789299,-2.5269761721240442,6.110290992050924,1.0181159973144531,-2.999286476765768
1708440974.097981,-2.1415183544158936,-1.3334637445262452,-2.5269506613360804,6.11026560047225,1.0181397199630737,-2.99927789369692
1708440974.0999615,-2.1415512561798096,-1.333495409493782,-2.5269957224475306,6.110375869065084,1.0181940793991089,-2.9993136564837855
1708440974.101959,-2.14153790473938,-1.3334756356528779,-2.5269838015185755,6.110357987671652,1.018178939819336,-2.9993136564837855
1708440974.1039839,-2.1415467262268066,-1.3335291159204026,-2.5270405451404017,6.110375749855795,1.0181834697723389,-2.9993255774127405
1708440974.1059387,-2.141528844833374,-1.3334997606328507,-2.526984993611471,6.1103625176246545,1.01816987991333,-2.999354426060812
1708440974.1080158,-2.1415600776672363,-1.3334920418313523,-2.527017895375387,6.110391008644857,1.0182287693023682,-2.9994104544269007
1708440974.1099818,-2.1415581703186035,-1.3335202646306534,-2.527116839085714,6.11039553859786,1.0182406902313232,-2.9993563334094446
1708440974.1119459,-2.141570568084717,-1.333480106001236,-2.527126137410299,6.110385286598959,1.0182483196258545,-2.9994052092181605
1708440974.1140437,-2.1415491104125977,-1.3335380566171189,-2.5270825068103235,6.110385167389669,1.0182225704193115,-2.9994500319110315
1708440974.1159554,-2.1416008472442627,-1.3334756654552002,-2.5270677248584192,6.110422599106588,1.0183130502700806,-2.999457661305563
1708440974.1179547,-2.141587495803833,-1.3335114282420655,-2.52706748643984,6.110498535424032,1.018312931060791,-2.999449078236715
1708440974.1200244,-2.141587495803833,-1.3334997457316895,-2.5270989576922815,6.1104702828224084,1.0183502435684204,-2.999505345021383
1708440974.121952,-2.1415491104125977,-1.3334997457316895,-2.5270989576922815,6.110453593521871,1.0183231830596924,-2.9995341936694544
1708440974.1240308,-2.1415839195251465,-1.3335321110538025,-2.5271034876452845,6.110498535424032,1.0183684825897217,-2.9995341936694544
1708440974.125964,-2.1415491104125977,-1.333536685710289,-2.527189079915182,6.110527145653524,1.0183970928192139,-2.999610964451925
1708440974.1279843,-2.14158296585083,-1.333507002597191,-2.527113978062765,6.110510456352987,1.018392562866211,-2.999589268361227
1708440974.1299973,-2.141533136367798,-1.3335352700999756,-2.5271933714496058,6.11052571514205,1.0184252262115479,-2.9996054808246058
1708440974.1319976,-2.141561508178711,-1.3335277748158951,-2.527184549962179,6.110505091934957,1.0184118747711182,-2.999634329472677
1708440974.1340296,-2.1415627002716064,-1.3335189086249848,-2.52717096010317,6.110539066582479,1.0184645652770996,-2.999669853840963
1708440974.1359577,-2.141587495803833,-1.3334936511567612,-2.5271831194507044,6.110562431603231,1.0184857845306396,-2.9996405283557337
1708440974.1379797,-2.141592025756836,-1.3335396957448502,-2.527175490056173,6.110544907837667,1.0184930562973022,-2.9996731917010706
1708440974.1399658,-2.14158296585083,-1.333495409493782,-2.5271831194507044,6.110616194992819,1.0185004472732544,-2.999692503605978
1708440974.1419513,-2.14159893989563,-1.3335144084743042,-2.5272281805621546,6.110643374710836,1.0185322761535645,-2.9997008482562464
1708440974.1439672,-2.141587495803833,-1.333536611204483,-2.5272026697741907,6.110606300621786,1.0185531377792358,-2.9997788111316126
1708440974.1459465,-2.1415445804595947,-1.3335321259549637,-2.5272491613971155,6.110613810807028,1.0185846090316772,-2.999794308339254
1708440974.1480057,-2.14159893989563,-1.333556429748871,-2.527247492467062,6.110637652664938,1.0185847282409668,-2.9997451941119593
1708440974.1499755,-2.141594409942627,-1.333515779381134,-2.5272191206561487,6.110596287041464,1.0186090469360352,-2.9998188654529017
1708440974.1519568,-2.141611337661743,-1.3335352551988144,-2.5272517840014856,6.110665786057272,1.0186328887939453,-2.999821488057272
1708440974.154047,-2.1415793895721436,-1.3334936511567612,-2.52720553079714,6.110638963967123,1.0186973810195923,-2.999805275593893
1708440974.155966,-2.141594409942627,-1.3335519444993515,-2.5272627512561243,6.110649812012472,1.0186854600906372,-2.999841038380758
1708440974.1584554,-2.141615629196167,-1.333559350376465,-2.5272672812091272,6.110693084984579,1.0186928510665894,-2.999845568333761
1708440974.159996,-2.14159893989563,-1.3335099679282685,-2.52722937265505,6.110710847168722,1.018705129623413,-2.9998484293567103
1708440974.162022,-2.14158296585083,-1.3335352551988144,-2.5273001829730433,6.1107064364250085,1.0186961889266968,-2.9998720327960413
1708440974.1640003,-2.141594409942627,-1.3335430038026352,-2.527288262044088,6.110672104149618,1.0187366008758545,-2.9998424688922327
1708440974.165977,-2.1415491104125977,-1.3335519444993515,-2.5273075739489954,6.110713827400961,1.0187487602233887,-2.9999569098102015
1708440974.1680155,-2.141594409942627,-1.33357127130542,-2.5272956530200403,6.110758650093832,1.0187697410583496,-2.9999528566943567
1708440974.169984,-2.141594409942627,-1.3336500835469742,-2.5273030439959925,6.110778081208029,1.0187983512878418,-2.9999693075763147
1708440974.1719635,-2.141570568084717,-1.33357127130542,-2.527317825947897,6.110727774887838,1.0187938213348389,-2.999964777623312
1708440974.1739872,-2.141611337661743,-1.3335623306087037,-2.5273223559008997,6.110790002136984,1.0188313722610474,-2.9999800364123743
1708440974.1759613,-2.141592025756836,-1.3336250495961686,-2.527355496083395,6.110741007118978,1.0187803506851196,-3.000038210545675
1708440974.177979,-2.141578435897827,-1.3335834306529541,-2.527375046406881,6.110822665482321,1.0188673734664917,-3.0000532309161585
1708440974.1799705,-2.1416068077087402,-1.3335667115500947,-2.527396027241842,6.1107767699058435,1.0187785625457764,-2.999990526829855
1708440974.182038,-2.1415979862213135,-1.333574579363205,-2.527396027241842,6.11074851730422,1.0188523530960083,-3.0000396410571497
1708440974.1841729,-2.141632556915283,-1.333574579363205,-2.5273869673358362,6.110769259720602,1.0188207626342773,-3.0000396410571497
1708440974.1860535,-2.1416068077087402,-1.3336117130569,-2.5274201075183313,6.110769259720602,1.0188595056533813,-3.000077549611227
1708440974.1880765,-2.1416280269622803,-1.3336161238006135,-2.5274201075183313,6.110736596375265,1.018859624862671,-3.0000551382647913
1708440974.1902146,-2.1416022777557373,-1.333644376402237,-2.5274110476123255,6.110760438233175,1.0189138650894165,-3.0001042524920862
1708440974.1920702,-2.1416280269622803,-1.3336144399693985,-2.5274186770068567,6.110797512322225,1.0189499855041504,-3.0001116434680384
1708440974.1940804,-2.1415934562683105,-1.3336519759944458,-2.5274110476123255,6.110719072609701,1.0189788341522217,-3.0001490751849573
1708440974.1960382,-2.141611337661743,-1.3335702580264588,-2.5274441877948206,6.110751616745748,1.0189363956451416,-3.0001400152789515
1708440974.1979883,-2.141648530960083,-1.3336563122323533,-2.52747089067568,6.1108388779456995,1.018965244293213,-3.000155274068014
1708440974.1999547,-2.141639471054077,-1.3336232912591477,-2.527458969746725,6.110773670464315,1.0189815759658813,-3.00018817583193
1708440974.2019515,-2.1416192054748535,-1.3336232912591477,-2.527458969746725,6.110805022507467,1.0189846754074097,-3.000258270894186
1708440974.203993,-2.1416022777557373,-1.3336519759944458,-2.5274844805346888,6.110805022507467,1.0189545154571533,-3.000228468571798
1708440974.2059515,-2.141615629196167,-1.3336233061603089,-2.527520720158712,6.110837924271383,1.0190385580062866,-3.0002403895007532
1708440974.2079713,-2.141594409942627,-1.3336356592229386,-2.527457300816671,6.110788690834799,1.0190327167510986,-3.0002530256854456
1708440974.2099876,-2.141561508178711,-1.3335984212211152,-2.527487341557638,6.110818254738607,1.0190446376800537,-3.0002811590777796
1708440974.2119706,-2.141615629196167,-1.3336366426995774,-2.5274952093707483,6.110837924271383,1.019095778465271,-3.000251356755392
1708440974.2140412,-2.1416068077087402,-1.3335820895484467,-2.527482811604635,6.1108213541801355,1.0190823078155518,-3.000316921864645
1708440974.2159677,-2.1416237354278564,-1.333586574797966,-2.5275309721576136,6.110838043480673,1.0190688371658325,-3.000312391911642
1708440974.2179704,-2.141540288925171,-1.3335984212211152,-2.5275326410876673,6.110805022507467,1.0191186666488647,-3.000303332005636
1708440974.2199762,-2.141615629196167,-1.3335579198649903,-2.5275309721576136,6.110800611763754,1.019105076789856,-3.0003770033465784
1708440974.2219706,-2.1416068077087402,-1.3335776639035721,-2.5275145212756556,6.110816943436422,1.0191094875335693,-3.0003514925586146
1708440974.2240539,-2.14159893989563,-1.3336232912591477,-2.5275071302997034,6.110805022507467,1.019163727760315,-3.0003588835345667
1708440974.2259462,-2.141611337661743,-1.333656297331192,-2.5275219122516077,6.110796081810751,1.0191574096679688,-3.0004246870623987
1708440974.2279599,-2.14158296585083,-1.333610014324524,-2.527571503316061,6.110803591995992,1.0191782712936401,-3.000415627156393
1708440974.2299623,-2.1415491104125977,-1.3336593818715592,-2.5275400320636194,6.110793101578512,1.0191529989242554,-3.000432793294088
1708440974.2320163,-2.141594409942627,-1.3336012077382584,-2.527545754109518,6.110842335015096,1.0191936492919922,-3.0004399458514612
1708440974.2339816,-2.14164400100708,-1.3336399656585236,-2.527600113545553,6.110805022507467,1.0191936492919922,-3.0004428068744105
1708440974.2360537,-2.1416280269622803,-1.3335702580264588,-2.527625385914938,6.110834586411276,1.0192055702209473,-3.0004947821246546
1708440974.2380505,-2.1416022777557373,-1.333635614519455,-2.527550284062521,6.110813843994894,1.0192338228225708,-3.0005207697497767
1708440974.2399685,-2.141615629196167,-1.33368472874675,-2.5275700728045862,6.11080943325118,1.0192370414733887,-3.0005434195147913
1708440974.2419662,-2.141578435897827,-1.3336189550212403,-2.527557913457052,6.110796081810751,1.0192158222198486,-3.0005672613727015
1708440974.2439625,-2.1416068077087402,-1.3336189550212403,-2.5275490919696253,6.110813843994894,1.0192537307739258,-3.0006285349475306
1708440974.245968,-2.1416022777557373,-1.3336607229760666,-2.527591053639547,6.110838043480673,1.0193151235580444,-3.000643555318014
1708440974.2479537,-2.1415741443634033,-1.3336144399693985,-2.527607504521505,6.110825764923849,1.0192821025848389,-3.0006640593158167
1708440974.2499757,-2.141578435897827,-1.333602936272957,-2.527623955403463,6.1108213541801355,1.0193649530410767,-3.0007081667529505
1708440974.251965,-2.141615629196167,-1.333684654240944,-2.5276270548449915,6.110837924271383,1.0192853212356567,-3.0006781260119837
1708440974.2540236,-2.1416237354278564,-1.3336222630790253,-2.527623955403463,6.110816943436422,1.0193225145339966,-3.000751320515768
1708440974.255945,-2.141603469848633,-1.3336474758437653,-2.5276361147509974,6.110805022507467,1.0193179845809937,-3.0008049646960657
1708440974.258044,-2.141561508178711,-1.3336266887239,-2.5276315847979944,6.110818254738607,1.0193257331848145,-3.000852648411886
1708440974.2599735,-2.14158296585083,-1.3336311143687745,-2.5276601950274866,6.110796081810751,1.0193753242492676,-3.0008233229266565
1708440974.2619855,-2.141566038131714,-1.3336232912591477,-2.5276270548449915,6.110784280091085,1.0193588733673096,-3.0008395353900355
1708440974.2639813,-2.14164400100708,-1.3336311143687745,-2.5276556650744837,6.11080943325118,1.0193378925323486,-3.0009246508227747
1708440974.2659922,-2.141556978225708,-1.3336144399693985,-2.5276013056384485,6.110751735955038,1.0193498134613037,-3.00093657175173
1708440974.2680082,-2.141587734222412,-1.3336474609426041,-2.5276179949389856,6.110816943436422,1.0193617343902588,-3.0009148756610315
1708440974.2699778,-2.14158296585083,-1.3336356294206162,-2.5276675860034388,6.110800611763754,1.019385814666748,-3.0010321776019495
1708440974.271967,-2.1415491104125977,-1.3336266887239,-2.5276299158679407,6.110813843994894,1.01936936378479,-3.0009902159320276
1708440974.2739582,-2.141624689102173,-1.333638609652855,-2.52771240869631,6.110779750138082,1.019385814666748,-3.0010388533221644
1708440974.275954,-2.14158296585083,-1.3336266887239,-2.527658526097433,6.110793101578512,1.0193902254104614,-3.0011163393603724
1708440974.2779574,-2.141566038131714,-1.333610014324524,-2.527679506932394,6.110764848976888,1.0193889141082764,-3.001094643269674
1708440974.2799728,-2.1415491104125977,-1.3336144399693985,-2.527698818837301,6.110760438233175,1.01936936378479,-3.0011380354510706
1708440974.2820494,-2.141533136367798,-1.3336519759944458,-2.527649466191427,6.110764848976888,1.0194143056869507,-3.0012105146991175
1708440974.2840943,-2.1415445804595947,-1.3336356294206162,-2.527670447026388,6.11078559139327,1.0194220542907715,-3.0012007395373743
1708440974.28621,-2.141620397567749,-1.333693416123726,-2.5276616255389612,6.110744225769796,1.0194385051727295,-3.0012901465045374
1708440974.2880578,-2.141570568084717,-1.333656297331192,-2.527665917073385,6.110752928047933,1.019466757774353,-3.0013309160815638
1708440974.290037,-2.141530752182007,-1.3335940104774018,-2.527682367955343,6.110745417862692,1.0194414854049683,-3.00139028230776
1708440974.29196,-2.141587495803833,-1.3336638075164338,-2.5276525656329554,6.110745417862692,1.0194531679153442,-3.0014753977404993
1708440974.2939858,-2.1415600776672363,-1.3336189550212403,-2.5277486483203333,6.110658752709188,1.0195002555847168,-3.0015273729907435
1708440974.295952,-2.1415183544158936,-1.3336519759944458,-2.527689758931295,6.110709416657247,1.0194957256317139,-3.0015504995929163
1708440974.2980003,-2.1415627002716064,-1.3336519759944458,-2.527698818837301,6.110709416657247,1.019491195678711,-3.001593891774313
1708440974.2999442,-2.1415183544158936,-1.3336519759944458,-2.527691427861349,6.110652673035421,1.0194398164749146,-3.001740042363302
1708440974.3019426,-2.141530752182007,-1.3336189550212403,-2.527707878743307,6.110633122711935,1.0195059776306152,-3.0017595926867884
1708440974.3039415,-2.1415352821350098,-1.3336277169040223,-2.5277186075793665,6.110621320992269,1.0194984674453735,-3.0017693678485315
1708440974.3059483,-2.1415016651153564,-1.3336356294206162,-2.5277016798602503,6.110663163452902,1.0195014476776123,-3.001887385045187
1708440974.3079739,-2.1415441036224365,-1.3336519759944458,-2.527715269719259,6.110637652664938,1.0195014476776123,-3.0019543806659144
1708440974.3099968,-2.1415035724639893,-1.3335940104774018,-2.5277276674853724,6.110634553223409,1.0195271968841553,-3.0019777456866663
1708440974.3119936,-2.141515016555786,-1.333684654240944,-2.527710739766256,6.110589730530538,1.0194849967956543,-3.0020790735827845
1708440974.3139534,-2.1415274143218994,-1.3336519759944458,-2.5277186075793665,6.1106029627616785,1.0195344686508179,-3.002146069203512
1708440974.3159485,-2.1414945125579834,-1.333601177935936,-2.5277231375323694,6.110508072167196,1.0195300579071045,-3.002181355153219
1708440974.3179605,-2.1414947509765625,-1.3336356294206162,-2.5277560392962855,6.110583531647482,1.0195014476776123,-3.002343241368429
1708440974.3199892,-2.1414618492126465,-1.3336356294206162,-2.5277515093432825,6.1105137942130945,1.0195798873901367,-3.002413574849264
1708440974.3219862,-2.1414618492126465,-1.3336607229760666,-2.5276926199542444,6.110510456352987,1.019518256187439,-3.0024781862842005
1708440974.323954,-2.1414875984191895,-1.3336232912591477,-2.5277441183673304,6.110468971520223,1.0195419788360596,-3.002540413533346
1708440974.3259685,-2.141475200653076,-1.333610014324524,-2.5277679602252405,6.110473382263937,1.0195590257644653,-3.002686087285177
1708440974.3279707,-2.141451358795166,-1.3335732382586976,-2.5277679602252405,6.110471236496725,1.0195499658584595,-3.0027158896075647
1708440974.3299654,-2.141484022140503,-1.3336399656585236,-2.5277350584613245,6.110427129059591,1.0195543766021729,-3.0028041044818323
1708440974.3320808,-2.141455888748169,-1.3336607229760666,-2.5277305285083216,6.110380875855245,1.019566297531128,-3.0029528776751917
1708440974.3339455,-2.141432046890259,-1.3336144399693985,-2.5277634302722376,6.11039553859786,1.019537329673767,-3.0031142870532435
1708440974.3359513,-2.141439914703369,-1.3336189550212403,-2.5277634302722376,6.110365855484762,1.0195499658584595,-3.003176752720968
1708440974.3379622,-2.141397476196289,-1.3336161238006135,-2.5277589003192347,6.110379206925192,1.0195543766021729,-3.003341261540548
1708440974.3399603,-2.141427516937256,-1.3336189550212403,-2.5277395884143274,6.110353696137228,1.0195707082748413,-3.0034244696246546
1708440974.341951,-2.1413822174072266,-1.3336266887239,-2.5277889410602015,6.110346185951986,1.0195856094360352,-3.003531281148092
1708440974.3439887,-2.141451358795166,-1.333663822417595,-2.5277753512011927,6.11031328418807,1.0195945501327515,-3.003650967274801
1708440974.3459382,-2.1413822174072266,-1.333602936272957,-2.5277515093432825,6.110314833908834,1.0195329189300537,-3.0037832895862024
1708440974.3479538,-2.1414036750793457,-1.333610014324524,-2.5277589003192347,6.11029993274764,1.0195707082748413,-3.0038779417621058
1708440974.349935,-2.1413822174072266,-1.333602936272957,-2.5277589003192347,6.110282170563497,1.0195454359054565,-3.0040343443499964
1708440974.3519545,-2.1413426399230957,-1.3336277169040223,-2.5277589003192347,6.110217559128561,1.0195707082748413,-3.0041828791247767
1708440974.3539584,-2.141383409500122,-1.333602936272957,-2.5277214686023157,6.110186564713278,1.0195692777633667,-3.004309956227438
1708440974.3559456,-2.1414215564727783,-1.3336222630790253,-2.527766291295187,6.110275733261862,1.0195364952087402,-3.0045161882983606
1708440974.3579705,-2.1413586139678955,-1.3335940104774018,-2.5277753512011927,6.110174286156454,1.0195528268814087,-3.004679028187887
1708440974.3600032,-2.1413674354553223,-1.3336474609426041,-2.527787510548727,6.110208737641134,1.0196113586425781,-3.0048092047320765
1708440974.3619697,-2.1413586139678955,-1.3336144399693985,-2.527749840413229,6.110216247826376,1.0195573568344116,-3.0050249735461634
1708440974.363974,-2.141434907913208,-1.3336266887239,-2.5277844111071985,6.110101210861959,1.0196068286895752,-3.005162779484884
1708440974.3659527,-2.1414003372192383,-1.3336232912591477,-2.5277379194842737,6.110114562302389,1.0196022987365723,-3.005382839833395
1708440974.367959,-2.1413514614105225,-1.3336638075164338,-2.5277753512011927,6.110123383789816,1.0195573568344116,-3.0055297056781214
1708440974.369989,-2.1413514614105225,-1.333610014324524,-2.5277634302722376,6.110107052117147,1.0195647478103638,-3.00574237505068
1708440974.3720121,-2.1413516998291016,-1.333602936272957,-2.5277469793902796,6.110102641373434,1.0195856094360352,-3.0059312025653284
1708440974.3739893,-2.141317844390869,-1.333565742974617,-2.5277560392962855,6.1100995419319055,1.0195945501327515,-3.006096903477804
1708440974.375957,-2.141371965408325,-1.3336161238006135,-2.5277589003192347,6.110111462860861,1.0195738077163696,-3.006333891545431
1708440974.3779736,-2.141343593597412,-1.333610014324524,-2.527749840413229,6.110066878586569,1.0195573568344116,-3.0065045992480677
1708440974.3799527,-2.1413347721099854,-1.3336321276477356,-2.5277379194842737,6.110075700073995,1.0195573568344116,-3.006766382847921
1708440974.3819685,-2.1413967609405518,-1.3336189550212403,-2.527766291295187,6.110080110817709,1.0195647478103638,-3.006899897252218
1708440974.3840327,-2.1413559913635254,-1.3335820895484467,-2.527766291295187,6.110112774163046,1.0195945501327515,-3.007171932850973
1708440974.3860505,-2.1413447856903076,-1.3335909259370347,-2.5277305285083216,6.110115873604574,1.0195618867874146,-3.00739032426943
1708440974.388095,-2.1413357257843018,-1.3335776639035721,-2.5277424494372767,6.110072719841757,1.0195945501327515,-3.007620159779684
1708440974.3900695,-2.141357183456421,-1.3335909259370347,-2.5277259985553187,6.110066878586569,1.0196113586425781,-3.0078192392932337
1708440974.392054,-2.141343593597412,-1.3336189550212403,-2.5277965704547327,6.110084640770712,1.0195871591567993,-3.008054558430807
1708440974.3940692,-2.14129376411438,-1.3336144399693985,-2.5277798811541956,6.110044109612264,1.0195573568344116,-3.008332077656881
1708440974.3960571,-2.1413118839263916,-1.3336232912591477,-2.5277753512011927,6.110051619797506,1.0195618867874146,-3.0085511843310755
1708440974.3980768,-2.1412858963012695,-1.3336519759944458,-2.5277634302722376,6.110023367195883,1.0195618867874146,-3.008850161229269
1708440974.3999987,-2.1413073539733887,-1.3336144399693985,-2.5277543703662317,6.110048520355978,1.0195410251617432,-3.0091005007373255
1708440974.4019716,-2.141322374343872,-1.3335865896991272,-2.5277589003192347,6.110007035523214,1.019566297531128,-3.0093405882464808
1708440974.403971,-2.1413118839263916,-1.3335865896991272,-2.5277589003192347,6.109990346222677,1.0195826292037964,-3.0095961729632776
1708440974.4059825,-2.141328811645508,-1.3335820895484467,-2.5277679602252405,6.10999487617568,1.0195990800857544,-3.0098558107959192
1708440974.408027,-2.141319751739502,-1.3335953515819092,-2.5277589003192347,6.109975802689352,1.0195871591567993,-3.0101023356067103
1708440974.410021,-2.1413402557373047,-1.3336474311402817,-2.5277305285083216,6.110015857010641,1.019537329673767,-3.0103660265551966
1708440974.4119718,-2.1413028240203857,-1.3336161238006135,-2.5277424494372767,6.10993384101943,1.0195209980010986,-3.01068360010256
1708440974.4139864,-2.141324281692505,-1.3336189550212403,-2.5277305285083216,6.110029089241781,1.019537329673767,-3.010921065007345
1708440974.4159606,-2.141265630722046,-1.333602936272957,-2.5277605692492884,6.109996068268575,1.0195329189300537,-3.0112255255328577
1708440974.417999,-2.1413402557373047,-1.3336277169040223,-2.5277186075793665,6.10999475696639,1.019492506980896,-3.0115087668048304
1708440974.419995,-2.141331195831299,-1.3335702580264588,-2.5277424494372767,6.109996068268575,1.0195344686508179,-3.011759344731466
1708440974.421978,-2.1412746906280518,-1.3336607229760666,-2.5277977625476282,6.110015857010641,1.0195316076278687,-3.012091938649313
1708440974.4240332,-2.1413660049438477,-1.3335865896991272,-2.5277634302722376,6.1100114462669275,1.019492506980896,-3.0124006907092493
1708440974.425982,-2.141254186630249,-1.3336189550212403,-2.5277186075793665,6.110012399941244,1.019519329071045,-3.0126708189593714
1708440974.4279783,-2.1413357257843018,-1.333684654240944,-2.5277395884143274,6.1100114462669275,1.0194731950759888,-3.0129950682269495
1708440974.4299862,-2.141298294067383,-1.333602936272957,-2.5277515093432825,6.109954702645101,1.0194159746170044,-3.0132978598224085
1708440974.4319673,-2.14129376411438,-1.3336277169040223,-2.5277186075793665,6.109989034920492,1.0194294452667236,-3.013660494481222
1708440974.434015,-2.1413376331329346,-1.333565742974617,-2.5277469793902796,6.109987365990438,1.0194087028503418,-3.013961140309469
1708440974.4359703,-2.1412949562072754,-1.3335865896991272,-2.5277605692492884,6.110041129380026,1.0194008350372314,-3.014273468648092
1708440974.4380302,-2.1413402557373047,-1.333602936272957,-2.5277441183673304,6.1099668619926355,1.0194220542907715,-3.0145559946643274
1708440974.4399838,-2.1412994861602783,-1.333602936272957,-2.5277276674853724,6.109996068268575,1.0194053649902344,-3.014883343373434
1708440974.442039,-2.1413073539733887,-1.3335702580264588,-2.527710739766256,6.109993445664205,1.019364833831787,-3.0152233282672327
1708440974.4439936,-2.1413402557373047,-1.3335940104774018,-2.52767783800234,6.110015857010641,1.0193694829940796,-3.015542809163229
1708440974.4459574,-2.141357183456421,-1.3336607229760666,-2.527703348790304,6.11000810840682,1.0193289518356323,-3.0158568064319056
1708440974.447994,-2.141319751739502,-1.3336116981557389,-2.527689758931295,6.10999475696639,1.0192925930023193,-3.016238037739889
1708440974.4499717,-2.141319751739502,-1.3335776639035721,-2.527633015309469,6.110064732819357,1.0193179845809937,-3.016508165990011
1708440974.4519696,-2.141328811645508,-1.3335579198649903,-2.527649466191427,6.109998214035787,1.0192972421646118,-3.016916577016012
1708440974.4539938,-2.1413605213165283,-1.3335667562535782,-2.527674976979391,6.110039698868551,1.0192493200302124,-3.017254892979757
1708440974.4559627,-2.141310930252075,-1.333602936272957,-2.527642075215475,6.11007701137618,1.0192369222640991,-3.0175583998309534
1708440974.4580896,-2.141326665878296,-1.333602936272957,-2.527637545262472,6.11004267910079,1.0192039012908936,-3.017998997365133
1708440974.4600003,-2.141319751739502,-1.3335790050080796,-2.527642075215475,6.11008762100295,1.0192055702209473,-3.0183609167682093
1708440974.4620206,-2.141369342803955,-1.3336189550212403,-2.5275729338275355,6.110078799515524,1.0191513299942017,-3.01868445078005
1708440974.4640021,-2.141343593597412,-1.3336232912591477,-2.5275984446154993,6.110107052117147,1.0191574096679688,-3.0191031138049524
1708440974.4660668,-2.141352415084839,-1.3336232912591477,-2.527557913457052,6.1101101515586755,1.0191454887390137,-3.0193637053119105
1708440974.4680004,-2.141326665878296,-1.3336399656585236,-2.527566973363058,6.110142695694723,1.0191349983215332,-3.0197320620166224
1708440974.4700243,-2.141343593597412,-1.3335579198649903,-2.5275548140155237,6.110220658570089,1.019097089767456,-3.0201476255999964
1708440974.4720314,-2.141364812850952,-1.3335865896991272,-2.5275383631335657,6.110199916153707,1.0190643072128296,-3.020526711140768
1708440974.473985,-2.1413698196411133,-1.3336072725108643,-2.5275428930865687,6.1102322218711755,1.0190372467041016,-3.020902458821432
1708440974.4759483,-2.141383409500122,-1.3336366426995774,-2.5275145212756556,6.110243069916525,1.0190041065216064,-3.02130633989443
1708440974.4779663,-2.1413559913635254,-1.3335953515819092,-2.5274952093707483,6.110243069916525,1.0189874172210693,-3.0216880480395716
1708440974.4799488,-2.1413958072662354,-1.333602936272957,-2.527487341557638,6.110266911774435,1.0189815759658813,-3.0220850149737757
1708440974.4819517,-2.1413538455963135,-1.333602936272957,-2.527417246495382,6.110225426941671,1.0189365148544312,-3.0224748293506067
1708440974.4839888,-2.141432046890259,-1.3336277169040223,-2.52744704881777,6.110330807953634,1.0189123153686523,-3.022817913685934
1708440974.4860427,-2.141406297683716,-1.3336144250682374,-2.5274441877948206,6.110347497254171,1.0189049243927002,-3.0231967608081263
1708440974.4880555,-2.1414601802825928,-1.333602936272957,-2.5274155775653284,6.110334265023031,1.0188640356063843,-3.0236292521106165
1708440974.4899826,-2.141500949859619,-1.3336189550212403,-2.5273705164538782,6.110399830132284,1.0187997817993164,-3.0240777174579065
1708440974.4919508,-2.141484022140503,-1.3335865896991272,-2.527325455342428,6.110423671990194,1.0188043117523193,-3.0244408289538782
1708440974.4939911,-2.1414716243743896,-1.3335702580264588,-2.527308766041891,6.110452163010397,1.0187562704086304,-3.024855438862936
1708440974.495961,-2.1414990425109863,-1.3335909408381958,-2.527329985295431,6.110425817757406,1.0187153816223145,-3.025201384221212
1708440974.4979572,-2.141510486602783,-1.333608703022339,-2.5272865931140345,6.11049102523879,1.0186630487442017,-3.0256264845477503
1708440974.4999642,-2.1414856910705566,-1.3335997772267838,-2.5272746721850794,6.110539066582479,1.0186402797698975,-3.02610689798464
1708440974.501937,-2.141542434692383,-1.333602936272957,-2.527233902608053,6.1105923531349084,1.0186208486557007,-3.0265377203570765
1708440974.5039885,-2.1415839195251465,-1.3336311143687745,-2.527214590703146,6.110577809601583,1.0185502767562866,-3.0269158522235315
1708440974.5059574,-2.141533136367798,-1.3336072725108643,-2.527177397404806,6.110622751503744,1.0185561180114746,-3.0272825399981897
1708440974.508029,-2.141594409942627,-1.3335866046002884,-2.5272071997271937,6.110670316010275,1.0184496641159058,-3.027665440236227
1708440974.5099866,-2.141639471054077,-1.3336161387017746,-2.5271125475512903,6.110706317215719,1.0183849334716797,-3.028114620839254
1708440974.5120027,-2.141639471054077,-1.3336356443217774,-2.527163569127218,6.110767590790548,1.0183955430984497,-3.028490130101339
1708440974.513993,-2.1416590213775635,-1.3336321276477356,-2.527109448109762,6.110794412880697,1.0183217525482178,-3.0288620630847376
1708440974.5159588,-2.1417007446289062,-1.3335909259370347,-2.5270453135119837,6.110764848976888,1.0183277130126953,-3.029267136250631
1708440974.5179715,-2.14172101020813,-1.3335997772267838,-2.5270541349994105,6.110858666687765,1.0182421207427979,-3.0295634905444544
1708440974.5199845,-2.141690731048584,-1.3335623157075425,-2.5270467440234583,6.1108683226402185,1.0182242393493652,-3.029987875615255
1708440974.5220208,-2.1416985988616943,-1.3336029213717957,-2.527026955281393,6.110969531327047,1.018204689025879,-3.030400101338522
1708440974.5240304,-2.141768455505371,-1.3336189550212403,-2.5269294420825403,6.110935318260946,1.018072247505188,-3.030792538319723
1708440974.5259533,-2.1417462825775146,-1.3336072725108643,-2.526997152959005,6.111029255181112,1.0180256366729736,-3.0311790148364466
1708440974.5279748,-2.1417791843414307,-1.3336321276477356,-2.5269339720355433,6.111060845642843,1.018018364906311,-3.0315595308886927
1708440974.5299647,-2.1417534351348877,-1.3335490685752411,-2.526898209248678,6.111145484238424,1.0179369449615479,-3.031962219868795
1708440974.5319421,-2.1418278217315674,-1.3335790050080796,-2.526803795491354,6.111181604653158,1.0179431438446045,-3.0322890917407435
1708440974.5340307,-2.141805410385132,-1.3335790050080796,-2.5268054644214075,6.111187922745504,1.0178875923156738,-3.032724920903341
1708440974.5360246,-2.1418631076812744,-1.3336233061603089,-2.5268097559558313,6.111269461899557,1.0177973508834839,-3.0331247488604944
1708440974.5380304,-2.1418416500091553,-1.3336072725108643,-2.5267825762378138,6.111354696541586,1.0177536010742188,-3.033504072819845
1708440974.5399656,-2.1418778896331787,-1.3335801374963303,-2.5267513434039515,6.111314880638876,1.0176894664764404,-3.0338595549212855
1708440974.5419612,-2.1419222354888916,-1.3335667562535782,-2.5267513434039515,6.111359464913168,1.0176621675491333,-3.034238878880636
1708440974.5439425,-2.141921043395996,-1.33357127130542,-2.526731793080465,6.1114892838294885,1.0175570249557495,-3.0345774332629603
1708440974.5459824,-2.141995668411255,-1.333574579363205,-2.526710573826925,6.111459362297811,1.0175179243087769,-3.035018507634298
1708440974.547942,-2.141993761062622,-1.3336277169040223,-2.5266462008105677,6.11152063587264,1.0174728631973267,-3.0353737513171595
1708440974.5499632,-2.1419758796691895,-1.33357127130542,-2.5265818277942103,6.111560094147482,1.0174006223678589,-3.035697046910421
1708440974.551992,-2.1420207023620605,-1.3336250942996521,-2.526611868535177,6.111620890885153,1.0173856019973755,-3.0360801855670374
1708440974.5539503,-2.142061710357666,-1.333574579363205,-2.526599947606222,6.111610758095541,1.0173132419586182,-3.0364676157580774
1708440974.5559616,-2.142118215560913,-1.3336189550212403,-2.5265710989581507,6.111646878510275,1.0172200202941895,-3.0368641058551233
1708440974.558063,-2.1421432495117188,-1.3336072725108643,-2.5265517870532435,6.111698853760519,1.017193078994751,-3.037210766469137
1708440974.5599718,-2.1421570777893066,-1.3336117130569,-2.526515785847799,6.111742365151205,1.0171284675598145,-3.037616554890768
1708440974.5620737,-2.1421890258789062,-1.33357127130542,-2.52643329301943,6.1117944596107385,1.017087697982788,-3.037942711506979
1708440974.5639756,-2.142254590988159,-1.3336161387017746,-2.526470724736349,6.111804950028219,1.0169992446899414,-3.038265053425924
1708440974.565966,-2.1422410011291504,-1.3336232912591477,-2.5264151732074183,6.11190806606368,1.016951084136963,-3.038645092641012
1708440974.5679677,-2.14231014251709,-1.333587960605957,-2.526419703160421,6.111901867180624,1.0169541835784912,-3.0389934221850794
1708440974.5700722,-2.1422932147979736,-1.333574579363205,-2.526308838521139,6.11189745643691,1.0168473720550537,-3.0393570105182093
1708440974.5720222,-2.142401933670044,-1.3335953515819092,-2.5263267199145716,6.112036335259237,1.0168037414550781,-3.0396674315081995
1708440974.5739737,-2.1423885822296143,-1.3335834306529541,-2.5263357798205774,6.112026083260336,1.0167349576950073,-3.040067736302511
1708440974.5759819,-2.142397403717041,-1.3336366426995774,-2.52631646791567,6.112049925118246,1.0166746377944946,-3.0404518286334437
1708440974.5779688,-2.1424407958984375,-1.3336277318051835,-2.526209894810812,6.112081515579977,1.016652226448059,-3.0407591501819056
1708440974.579961,-2.1424849033355713,-1.3336232912591477,-2.5262473265277308,6.112063753395834,1.016570806503296,-3.0410738627063196
1708440974.5819583,-2.1425299644470215,-1.3335702580264588,-2.5261648336993616,6.112221944123068,1.0165483951568604,-3.0413697401629847
1708440974.5839696,-2.142533540725708,-1.3336072725108643,-2.5261781851397913,6.112204301148214,1.0165029764175415,-3.041770044957296
1708440974.5860393,-2.142542839050293,-1.3336072725108643,-2.526135031376974,6.112278330117025,1.0164356231689453,-3.0420032183276575
1708440974.588027,-2.1426005363464355,-1.3336072725108643,-2.5260987917529505,6.112308728485861,1.0163378715515137,-3.0423768202411097
1708440974.5900507,-2.142665147781372,-1.3335504096797486,-2.5261033217059534,6.112341630249777,1.0162944793701172,-3.042724672948019
1708440974.592,-2.142713785171509,-1.3336087477258225,-2.5260301272021692,6.112339961319723,1.0162311792373657,-3.0430527369128626
1708440974.5940514,-2.142700433731079,-1.3335834306529541,-2.5259907881366175,6.112376081734457,1.016211748123169,-3.043305222188131
1708440974.5960393,-2.1427109241485596,-1.3335623157075425,-2.5259459654437464,6.112410771637716,1.0161592960357666,-3.043654505406515
1708440974.5979974,-2.1427977085113525,-1.3335745644620438,-2.5259175936328333,6.112401950150289,1.0160326957702637,-3.043995205556051
1708440974.5999947,-2.142812490463257,-1.3335834306529541,-2.525968376790182,6.112483489304342,1.0159517526626587,-3.044269386922018
1708440974.601983,-2.1427876949310303,-1.3335549098304291,-2.525907103215353,6.112510788231649,1.0159411430358887,-3.0446422735797327
1708440974.6039722,-2.1428232192993164,-1.3336116981557389,-2.5259252230273646,6.112624037056722,1.015960931777954,-3.0448971430407923
1708440974.6059449,-2.1429214477539062,-1.333541528587677,-2.525839630757467,6.1126675484474084,1.0158705711364746,-3.045236412678854
1708440974.6080124,-2.142911434173584,-1.3335637909225007,-2.5258198420154017,6.112654435425558,1.0158133506774902,-3.0455625692950647
1708440974.610034,-2.142915725708008,-1.3335474294475098,-2.5257750193225306,6.112760174065389,1.0157651901245117,-3.0458276907550257
1708440974.6119912,-2.1429760456085205,-1.333574579363205,-2.5257464090930384,6.112730490952291,1.0157382488250732,-3.046094004307882
1708440974.614014,-2.1429600715637207,-1.3335984212211152,-2.525731388722555,6.112791645317831,1.0156663656234741,-3.046360794697897
1708440974.6159697,-2.1429741382598877,-1.3335834306529541,-2.525703016911642,6.112827408104696,1.0156044960021973,-3.0467069784747522
1708440974.6179724,-2.143064260482788,-1.3335745644620438,-2.5257092157946985,6.112812745362081,1.0155941247940063,-3.047006670628683
1708440974.6200144,-2.143068790435791,-1.333587960605957,-2.5256100336657923,6.1128084538276575,1.0155459642410278,-3.0472915808307093
1708440974.6220138,-2.143104076385498,-1.3335055720857163,-2.525593344365255,6.112955677300253,1.015493392944336,-3.047598902379171
1708440974.624491,-2.143152952194214,-1.3335129183581849,-2.5256040732013147,6.112905370980062,1.015433430671692,-3.0478819052325647
1708440974.626023,-2.143101215362549,-1.333566741352417,-2.5255470911609095,6.112917291909017,1.0153312683105469,-3.048145596181051
1708440974.6279771,-2.143150806427002,-1.3335834306529541,-2.5254972616778772,6.11293255069808,1.0153701305389404,-3.0484002272235315
1708440974.6299598,-2.143203020095825,-1.333620623951294,-2.52552301088442,6.113014209061422,1.0153145790100098,-3.048724953328268
1708440974.6319308,-2.1432278156280518,-1.333566741352417,-2.525437895451681,6.11301730850295,1.0152438879013062,-3.0490012804614466
1708440974.633965,-2.143209934234619,-1.3335953515819092,-2.5254722277270716,6.113103973656454,1.0151838064193726,-3.049267832432882
1708440974.6359622,-2.143258571624756,-1.3335834306529541,-2.5253971258746546,6.113102662354269,1.015173316001892,-3.0495763460742396
1708440974.6379516,-2.143303871154785,-1.3335415732911606,-2.5253894964801233,6.1131383059318445,1.015108585357666,-3.049830738698141
1708440974.6399736,-2.143270969390869,-1.3336294752410431,-2.52541953722109,6.113108742028036,1.0150845050811768,-3.050103489552633
1708440974.6419604,-2.1433026790618896,-1.333574579363205,-2.52537447610964,6.113218891411581,1.0150198936462402,-3.050382677708761
1708440974.6439633,-2.1433842182159424,-1.3335549098304291,-2.5253430048571985,6.113189327507772,1.0149840116500854,-3.0506179968463343
1708440974.6459477,-2.1433513164520264,-1.3335997772267838,-2.5254016558276575,6.113226520806112,1.0150049924850464,-3.0508788267718714
1708440974.647951,-2.143361806869507,-1.3336072725108643,-2.5253356138812464,6.113204228668966,1.0149521827697754,-3.0511050860034388
1708440974.6499455,-2.143422842025757,-1.333620623951294,-2.52525765100588,6.113232600479879,1.0149116516113281,-3.0513606707202356
1708440974.6519632,-2.14341402053833,-1.3335623157075425,-2.525291983281271,6.113235580712118,1.0148680210113525,-3.051591698323385
1708440974.653974,-2.143422842025757,-1.333587960605957,-2.5252800623523157,6.113177883415975,1.0148321390151978,-3.0519209543811243
1708440974.6559381,-2.143418550491333,-1.3335834306529541,-2.5252681414233606,6.113305675774374,1.0148365497589111,-3.0521493593799036
1708440974.658068,-2.1434476375579834,-1.3335757118514557,-2.5252726713763636,6.1133460877235315,1.0147838592529297,-3.0523679892169397
1708440974.6600018,-2.1433892250061035,-1.3335263592055817,-2.5252276102649134,6.113239991455831,1.0147974491119385,-3.0526121298419397
1708440974.6620495,-2.1434590816497803,-1.333586574797966,-2.5252397696124476,6.11318992355422,1.0147103071212769,-3.05287748972048
1708440974.6639693,-2.14342999458313,-1.333599792127945,-2.525215450917379,6.1133179543311975,1.014739990234375,-3.053033415471212
1708440974.6659808,-2.1434831619262695,-1.333587960605957,-2.525166098271505,6.113358008652487,1.0147135257720947,-3.0533104578601282
1708440974.6679614,-2.14349102973938,-1.3335519892028351,-2.525179688130514,6.113320934563436,1.0146849155426025,-3.0535593668567103
1708440974.6699686,-2.1434741020202637,-1.3335430038026352,-2.525187079106466,6.113329875260153,1.0146560668945312,-3.0538488070117396
1708440974.6720862,-2.1435227394104004,-1.3335623157075425,-2.52518874803652,6.113328444748678,1.0146695375442505,-3.054108206425802
1708440974.6739533,-2.1434695720672607,-1.333542988901474,-2.525196139012472,6.113369810372152,1.014603614807129,-3.054330889378683
1708440974.675946,-2.143495559692383,-1.3336087477258225,-2.525179688130514,6.11327480056838,1.0145959854125977,-3.054500404988424
1708440974.6779675,-2.1435024738311768,-1.333580107694008,-2.525121275578634,6.113353597908773,1.0145480632781982,-3.054789129887716
1708440974.6799402,-2.143465995788574,-1.3335923862508317,-2.525146786366598,6.1133625386054895,1.0145435333251953,-3.0549848715411585
1708440974.6819234,-2.1435093879699707,-1.3335953515819092,-2.5251346270190638,6.113325464516439,1.014502763748169,-3.055261198674337
1708440974.683956,-2.14347767829895,-1.33357127130542,-2.5251930395709437,6.113332855492391,1.014519453048706,-3.0554161707507532
1708440974.6860125,-2.143493413925171,-1.333566741352417,-2.5251556078540247,6.113365518837728,1.0145163536071777,-3.0556321779834192
1708440974.6880453,-2.143493413925171,-1.3335789901069184,-2.5251556078540247,6.113365518837728,1.0144835710525513,-3.055859629307882
1708440974.6899989,-2.1435394287109375,-1.333559350376465,-2.5251601378070276,6.113328444748678,1.0145331621170044,-3.056030337010519
1708440974.6919706,-2.143497943878174,-1.3335834306529541,-2.525151077901022,6.113332855492391,1.014545202255249,-3.0562809149371546
1708440974.6939764,-2.1435396671295166,-1.333559350376465,-2.5251813570605677,6.113332855492391,1.0145330429077148,-3.056455914174215
1708440974.695968,-2.143493413925171,-1.3335352700999756,-2.5251196066485804,6.113365518837728,1.0145072937011719,-3.056699816380636
1708440974.6979742,-2.143497943878174,-1.3335923862508317,-2.525208059941427,6.113283502846517,1.014523983001709,-3.056870762501852
1708440974.6999567,-2.1435227394104004,-1.3335503947785874,-2.5251269976245325,6.11334918716506,1.0145163536071777,-3.057063404713766
1708440974.701951,-2.143517255783081,-1.333629534845688,-2.5251527468310755,6.113341676979818,1.0145118236541748,-3.0572906176196497
1708440974.7039735,-2.1435093879699707,-1.3335968267968674,-2.5251813570605677,6.113320934563436,1.014528512954712,-3.0574541727649134
1708440974.7059703,-2.143489122390747,-1.3335218739560624,-2.5251315275775355,6.113316523819723,1.014540672302246,-3.057694737111227
1708440974.7080479,-2.143493413925171,-1.3336058121970673,-2.5251482168780726,6.113296854286947,1.014528512954712,-3.0578494707690638
1708440974.7099917,-2.1435024738311768,-1.3335712564042588,-2.5251813570605677,6.113291370659628,1.0145375728607178,-3.0580111185656946
1708440974.7119966,-2.14349365234375,-1.3335953515819092,-2.5251391569720667,6.113305675774374,1.014528512954712,-3.0582452456103724
1708440974.713996,-2.14347767829895,-1.33357127130542,-2.525151077901022,6.113280522614279,1.014523983001709,-3.05843693414797
1708440974.715965,-2.143465280532837,-1.3335789901069184,-2.5251269976245325,6.11330126503066,1.014561653137207,-3.058664862309591
1708440974.7180212,-2.1434481143951416,-1.3335430038026352,-2.5251813570605677,6.113214957505026,1.0145779848098755,-3.05881911913027
1708440974.7199724,-2.1434526443481445,-1.3335667562535782,-2.525146547948019,6.113247501641073,1.014540672302246,-3.059040609990255
1708440974.7220187,-2.1434741020202637,-1.3335218888572236,-2.5251391569720667,6.1132686016853235,1.0145270824432373,-3.059183184300558
1708440974.724034,-2.143495559692383,-1.3335549098304291,-2.525179688130514,6.113208758621969,1.0145105123519897,-3.0593865553485315
1708440974.725974,-2.143421173095703,-1.3335623157075425,-2.525179688130514,6.113210189133444,1.0145812034606934,-3.0595744291888636
1708440974.7279637,-2.1434457302093506,-1.333566741352417,-2.525200668965475,6.1131805060203455,1.0145857334136963,-3.059763256703512
1708440974.7299733,-2.1434545516967773,-1.3335504692843934,-2.525151077901022,6.113165247231283,1.0146005153656006,-3.0599713961230677
1708440974.731944,-2.1434309482574463,-1.3336205792478104,-2.525179688130514,6.113178479462423,1.0146172046661377,-3.0601301828967493
1708440974.7339778,-2.143409490585327,-1.3335128289512177,-2.5252366701709192,6.113105642586508,1.0146293640136719,-3.060331169758932
1708440974.7359505,-2.14341402053833,-1.3335459244302292,-2.525224510823385,6.1130562899406335,1.014636754989624,-3.0604687372790735
1708440974.7379818,-2.143406867980957,-1.3335834306529541,-2.5252109209643763,6.113031136780538,1.0146740674972534,-3.060657564793722
1708440974.7399426,-2.143346071243286,-1.3335834306529541,-2.525224272404806,6.112974393158712,1.014653205871582,-3.060861651097433
1708440974.7419317,-2.143285036087036,-1.3335712862065812,-2.5252488295184534,6.112990724831381,1.0147136449813843,-3.0610294977771204
1708440974.743948,-2.1433424949645996,-1.3336042773774643,-2.5252652804004114,6.112951981812277,1.0147045850753784,-3.061209265385763
1708440974.7459447,-2.1432859897613525,-1.3335623306087037,-2.525291983281271,6.11293255069808,1.0147209167480469,-3.0613721052752894
1708440974.7479625,-2.1432573795318604,-1.3335745644620438,-2.525275532399313,6.11284755447463,1.0147571563720703,-3.061615292225973
1708440974.7499683,-2.143221378326416,-1.3335745495608826,-2.5252636114703577,6.112784254341879,1.014797329902649,-3.0618022123919886
1708440974.7519248,-2.143225908279419,-1.3336233061603089,-2.5253282229052942,6.1127943871314905,1.0148260593414307,-3.0619660059558313
1708440974.7539341,-2.1431734561920166,-1.3336116981557389,-2.525332752858297,6.11273359039382,1.0148200988769531,-3.062183205281393
1708440974.7559266,-2.1431331634521484,-1.3336444360068818,-2.5253475348102015,6.112694489746847,1.0149240493774414,-3.0623539129840296
1708440974.7580178,-2.143143653869629,-1.3336029213717957,-2.5253310839282435,6.112610804825582,1.0148515701293945,-3.062517229710714
1708440974.75999,-2.1430490016937256,-1.3336519759944458,-2.525400225316183,6.1125128147895715,1.0149420499801636,-3.062697235737936
1708440974.7620194,-2.1430695056915283,-1.3336399656585236,-2.525362555180685,6.11246012428359,1.0149656534194946,-3.06287652650942
1708440974.7639635,-2.143031597137451,-1.3336072725108643,-2.525403086339132,6.112404930382528,1.0149776935577393,-3.063019339238302
1708440974.7659826,-2.142946720123291,-1.3336144399693985,-2.5254343191729944,6.112379181175985,1.015018343925476,-3.0632363001452845
1708440974.7679834,-2.1429193019866943,-1.3336399656585236,-2.5254557768451136,6.112307655602255,1.0150845050811768,-3.063416067753927
1708440974.7700322,-2.142887592315674,-1.333659366970398,-2.5254676977740687,6.11227165439681,1.0150905847549438,-3.0636006037341517
1708440974.7720313,-2.142799139022827,-1.3336252582124253,-2.525536600743429,6.112147438317098,1.0150964260101318,-3.063810412083761
1708440974.7739701,-2.1427175998687744,-1.3337043237737198,-2.525498930607931,6.112063753395834,1.0151461362838745,-3.063960377370016
1708440974.7759566,-2.142672061920166,-1.3336953830770035,-2.5255380312549036,6.112008440285482,1.015219807624817,-3.0641446749316614
1708440974.7779727,-2.142591714859009,-1.3336549562266846,-2.5256248156176966,6.111895072251119,1.0152630805969238,-3.064244810734884
1708440974.779993,-2.1425135135650635,-1.333732621078827,-2.525669876729147,6.111746060639181,1.015290379524231,-3.0644999186145228
1708440974.7819345,-2.1424431800842285,-1.3336984527162095,-2.5256972948657435,6.111745464592733,1.0152814388275146,-3.064672056828634
1708440974.7839892,-2.1423704624176025,-1.3337267202189942,-2.5257046858416956,6.1115842936332605,1.0153955221176147,-3.0647931734668177
1708440974.7859967,-2.142259359359741,-1.333767221575119,-2.525735918675558,6.111476409226217,1.0154560804367065,-3.0650015513049524
1708440974.7880738,-2.1421754360198975,-1.333807335501053,-2.5257719198810022,6.111430156021871,1.0155160427093506,-3.0651865641223353
1708440974.7900167,-2.1420507431030273,-1.333790974026062,-2.5258243719684046,6.111285197525778,1.0156017541885376,-3.0653298536883753
1708440974.7920454,-2.141984701156616,-1.3338682514480134,-2.525827471409933,6.1112087843711755,1.0155985355377197,-3.065484348927633
1708440974.7940588,-2.1418533325195312,-1.333874673848488,-2.5258708635913294,6.111035334854879,1.0157008171081543,-3.0656610170947474
1708440974.7960386,-2.141740083694458,-1.333849461083748,-2.525923554097311,6.110898363381185,1.0157967805862427,-3.065857235585348
1708440974.7980626,-2.141606330871582,-1.333864541058876,-2.525944534932272,6.110754716187277,1.0158494710922241,-3.066040102635519
1708440974.8000052,-2.141491651535034,-1.3339357537082215,-2.5259953180896204,6.11058138588027,1.0159144401550293,-3.066253964100973
1708440974.8019836,-2.14136004447937,-1.3339417737773438,-2.526088539754049,6.110454427986898,1.015960931777954,-3.0663800875293177
1708440974.8040056,-2.141228437423706,-1.3339407306960602,-2.5260987917529505,6.110331642418661,1.0160568952560425,-3.066601578389303
1708440974.805975,-2.141113519668579,-1.3340018403581162,-2.526160542164938,6.110176431923666,1.0160751342773438,-3.066702667866842
1708440974.8079805,-2.1409220695495605,-1.3340745729259034,-2.5262413660632532,6.109951841622152,1.0161757469177246,-3.0669453779803675
1708440974.8099973,-2.140775442123413,-1.3340821278146286,-2.526284996663229,6.109731066017904,1.0162882804870605,-3.06718093553652
1708440974.8120344,-2.140540599822998,-1.334068925385811,-2.5262864271747034,6.1095934984977625,1.0164058208465576,-3.067308012639181
1708440974.8139749,-2.1404061317443848,-1.3341657233289261,-2.526421372090475,6.109408008843221,1.0164868831634521,-3.0675039927112024
1708440974.8160026,-2.1402385234832764,-1.3341656935266037,-2.5264392534839075,6.109191167145529,1.0165860652923584,-3.0676704088794153
1708440974.8179948,-2.1400272846221924,-1.3342379045537491,-2.526574198399679,6.10893880107955,1.0166912078857422,-3.067932907735006
1708440974.8199906,-2.1398394107818604,-1.3342616719058533,-2.526646439229147,6.108723270684042,1.0167709589004517,-3.0681689421283167
1708440974.821971,-2.1396520137786865,-1.3342679750970383,-2.5266929308520716,6.108447420388021,1.01688814163208,-3.068310085927145
1708440974.823987,-2.139403820037842,-1.3343619269183655,-2.526769224797384,6.108249413758077,1.016955852508545,-3.0684903303729456
1708440974.826078,-2.1392014026641846,-1.3343886596015473,-2.52688175836672,6.108010518341818,1.0170758962631226,-3.06865364709963
1708440974.8279974,-2.13895320892334,-1.334370107655861,-2.5269041697131556,6.107750284462728,1.0171796083450317,-3.068861786519186
1708440974.829976,-2.1387364864349365,-1.334481419329979,-2.5269928614245813,6.107472169190206,1.0173043012619019,-3.0690324942218226
1708440974.8319783,-2.138469934463501,-1.3345202815583725,-2.527055803929464,6.107225405960836,1.0173795223236084,-3.0692783037768763
1708440974.833944,-2.138202428817749,-1.3345280450633545,-2.527165238057272,6.10694574096755,1.0175371170043945,-3.069510285054342
1708440974.8359566,-2.1379761695861816,-1.3345801097205658,-2.5272443930255335,6.106718766480245,1.0176498889923096,-3.0696409384356897
1708440974.8379517,-2.1376521587371826,-1.3346681606820603,-2.5273435751544397,6.106363761215963,1.0177942514419556,-3.0698474089251917
1708440974.8399436,-2.137322425842285,-1.3347114485553284,-2.5274441877948206,6.106031524925985,1.0178813934326172,-3.0701175371753138
1708440974.8419552,-2.1370692253112793,-1.3347684902003785,-2.5275772253619593,6.1056896326835535,1.0180588960647583,-3.070336643849508
1708440974.8439555,-2.136777400970459,-1.3348148626140137,-2.527687374745504,6.105390178948202,1.018129587173462,-3.0705373922931116
1708440974.845944,-2.136399507522583,-1.334887908106186,-2.5277560392962855,6.104981529503622,1.0182136297225952,-3.0707035700427454
1708440974.8479445,-2.1361427307128906,-1.3349608790925522,-2.527915064488546,6.1045733568962,1.018329381942749,-3.070960823689596
1708440974.8499439,-2.1358349323272705,-1.3349508357099076,-2.527952019368307,6.10431848743514,1.0184706449508667,-3.071183983479635
1708440974.8519557,-2.135524272918701,-1.3350912940553208,-2.5280228296863,6.103913891106405,1.0186058282852173,-3.071390930806295
1708440974.8539383,-2.1351869106292725,-1.3350975674441834,-2.528172794972555,6.103617536812582,1.0187546014785767,-3.071611229573385
1708440974.8559566,-2.134885787963867,-1.3351213794997712,-2.528297487889425,6.1031603691871545,1.0189080238342285,-3.071815315877096
1708440974.8579624,-2.1344969272613525,-1.3352301579764863,-2.528438393269674,6.102691519051351,1.01904296875,-3.072076145802633
1708440974.8599727,-2.1341185569763184,-1.3352855902961274,-2.528569046651022,6.102405059128561,1.0191799402236938,-3.072331968938009
1708440974.8620007,-2.1337380409240723,-1.3353749078563233,-2.5286932627307337,6.101976501732626,1.0193315744400024,-3.0725463072406214
1708440974.8640409,-2.13342022895813,-1.3354780983975907,-2.528808657323019,6.101456630020895,1.0195300579071045,-3.0728278795825403
1708440974.8659787,-2.132997512817383,-1.3355383437922974,-2.5289574305163782,6.101067650109091,1.0196939706802368,-3.0730417410479944
1708440974.8679626,-2.13254451751709,-1.3356171560338517,-2.5291386286364954,6.100584375649252,1.0198427438735962,-3.07324463525881
1708440974.8699987,-2.1321496963500977,-1.335718424325325,-2.5292542616473597,6.100130307465353,1.0199944972991943,-3.073547665272848
1708440974.8719692,-2.131701946258545,-1.3357650202563782,-2.529393498097555,6.099577533989706,1.0201579332351685,-3.0738261381732386
1708440974.8740351,-2.131242513656616,-1.3358488243869324,-2.5296035448657435,6.0990275023277185,1.0203553438186646,-3.0740869680987757
1708440974.87599,-2.1308138370513916,-1.3359535050443192,-2.5297251383410853,6.09853874424056,1.020527958869934,-3.074304167424337
1708440974.8779602,-2.130309820175171,-1.336052195434906,-2.5298779646502894,6.0980450985725305,1.0206620693206787,-3.0745933691607874
1708440974.8799446,-2.129887819290161,-1.336131514315941,-2.530078713093893,6.097423541336813,1.0208885669708252,-3.074864451085226
1708440974.8819366,-2.1293704509735107,-1.3361942035010834,-2.5301645437823694,6.096833812981405,1.0210976600646973,-3.075174872075216
1708440974.8839707,-2.12888765335083,-1.3362976026586075,-2.5303202311145228,6.096308338433065,1.0213228464126587,-3.0754132906543177
1708440974.8859873,-2.128392457962036,-1.3364389848760148,-2.5304837862597864,6.095780002861776,1.0214776992797852,-3.075676981602804
1708440974.88802,-2.1279773712158203,-1.3364859533360978,-2.5306740442859095,6.0951682207878015,1.0216822624206543,-3.0760138670550745
1708440974.890048,-2.1274399757385254,-1.3366216731122513,-2.5308499971972864,6.094630944519796,1.0218534469604492,-3.076263729725973
1708440974.8919978,-2.126917839050293,-1.3367219132236023,-2.531001154576437,6.093999373703756,1.0220533609390259,-3.076597277318136
1708440974.8939595,-2.1263625621795654,-1.3368100684932251,-2.5311809221850794,6.093381392746725,1.0222969055175781,-3.076866690312521
1708440974.896006,-2.1258606910705566,-1.336896837954857,-2.531391207371847,6.0926939127738855,1.0224924087524414,-3.077205244694845
1708440974.897979,-2.1252708435058594,-1.3369967949441453,-2.531536642705099,6.091975199967184,1.0227346420288086,-3.0774791876422327
1708440974.8999996,-2.1247153282165527,-1.3371384602836152,-2.5317614714251917,6.091328251152792,1.0229299068450928,-3.077759329472677
1708440974.9019573,-2.1241273880004883,-1.3371759516051789,-2.531933848057882,6.090724575310507,1.0231417417526245,-3.0780754725085657
1708440974.903961,-2.123548984527588,-1.3373045337251206,-2.532125775014059,6.090009200363912,1.0233173370361328,-3.0783544222461146
1708440974.90596,-2.1229937076568604,-1.3374524426511307,-2.5323177019702356,6.089289057045736,1.0235295295715332,-3.078660313283102
1708440974.9079537,-2.122382879257202,-1.3374694001725693,-2.5325143972979944,6.088591801911154,1.0237082242965698,-3.078985039387838
1708440974.9099884,-2.1217641830444336,-1.3376555454782029,-2.532722298298971,6.08786295631484,1.0239546298980713,-3.079371515904562
1708440974.9119804,-2.121182680130005,-1.337734804754593,-2.5329130331622522,6.087102162628927,1.0241830348968506,-3.079686705266134
1708440974.9140291,-2.120506525039673,-1.3378175360015412,-2.533133570347921,6.086312997132101,1.0244687795639038,-3.0800419489489954
1708440974.9159718,-2.1198551654815674,-1.337959648375847,-2.533407990132467,6.085489976197042,1.024739146232605,-3.08036977449526
1708440974.9179728,-2.1192333698272705,-1.3380824339440842,-2.5335174242602747,6.084699976235189,1.024954080581665,-3.080712858830587
1708440974.9199772,-2.1185715198516846,-1.338210867052414,-2.533790175114767,6.083895075112142,1.0251734256744385,-3.0811339060412806
1708440974.9219625,-2.117908239364624,-1.3383467209390183,-2.533961359654562,6.083142626076498,1.025394320487976,-3.081484619771139
1708440974.9239905,-2.1171557903289795,-1.3384949129870911,-2.534193817769186,6.082276093750753,1.0256606340408325,-3.081799332295553
1708440974.9259992,-2.116490364074707,-1.3385558438352128,-2.534421745930807,6.081431615143575,1.0259084701538086,-3.082135025654928
1708440974.9279675,-2.1157195568084717,-1.3387130808881302,-2.5346360842334192,6.080647933274069,1.0261443853378296,-3.0825181643115442
1708440974.9299693,-2.1150102615356445,-1.3388192069581528,-2.534893814717428,6.07968162277297,1.026388168334961,-3.0829439798938196
1708440974.9319415,-2.1142425537109375,-1.338949204688408,-2.5351503531085413,6.078811633377828,1.0266282558441162,-3.083299700413839
1708440974.934017,-2.1134891510009766,-1.3391359758428116,-2.5353334585772913,6.077987658768453,1.0268359184265137,-3.0836976210223597
1708440974.9359584,-2.1127631664276123,-1.3392255467227479,-2.5355899969684046,6.07708619812087,1.0271496772766113,-3.084123436604635
1708440974.9379733,-2.112018346786499,-1.3393691045096894,-2.5358105341540735,6.076172935753622,1.0274070501327515,-3.084511105214254
1708440974.9399781,-2.111238718032837,-1.3394888949445267,-2.536078755055563,6.0752601502235315,1.0276381969451904,-3.0848520437823694
1708440974.9419444,-2.1104655265808105,-1.3396201592734833,-2.536227051411764,6.074350821762838,1.02793288230896,-3.085325066243307
1708440974.943955,-2.1096417903900146,-1.3397727024606247,-2.5364773909198206,6.073441731720724,1.0281809568405151,-3.0857625643359583
1708440974.9459345,-2.1088545322418213,-1.3399043393186112,-2.5367491880999964,6.072456824570455,1.0284528732299805,-3.086219612752096
1708440974.9479623,-2.1080687046051025,-1.3401256513646622,-2.5369845072375696,6.071406948357382,1.0287457704544067,-3.086663786564962
1708440974.949949,-2.1072134971618652,-1.340239406829216,-2.5372827688800257,6.070405709534445,1.0290946960449219,-3.087064806615011
1708440974.9519496,-2.1063878536224365,-1.3403735917857666,-2.5374930540667933,6.069443213730612,1.0293374061584473,-3.087446991597311
1708440974.9539907,-2.1055779457092285,-1.3404929500869294,-2.5377402941333216,6.068463670998373,1.0296708345413208,-3.0879486242877405
1708440974.9559772,-2.104759931564331,-1.3406742078116913,-2.538039271031515,6.0673913834388635,1.0299265384674072,-3.088379208241598
1708440974.9579897,-2.103905439376831,-1.340857819919922,-2.538260523472921,6.066499817162313,1.0301622152328491,-3.088837448750631
1708440974.9600258,-2.103095769882202,-1.3409641844085236,-2.5385170618640345,6.065497386246481,1.0304807424545288,-3.089273516331808
1708440974.9619768,-2.102278709411621,-1.3411434155753632,-2.5388065020190638,6.064522611885824,1.0307362079620361,-3.089713160191671
1708440974.964036,-2.1014201641082764,-1.3412779730609437,-2.539004389439718,6.06353114822463,1.0310499668121338,-3.09023362794985
1708440974.9659603,-2.100623607635498,-1.3414543134025116,-2.5393014589892786,6.062471973686971,1.0313048362731934,-3.0906744639026087
1708440974.9682035,-2.099666118621826,-1.3416589361480256,-2.5395668188678187,6.061528670578756,1.0316437482833862,-3.091109100972311
1708440974.9699917,-2.0988504886627197,-1.3418416243842621,-2.5397959391223353,6.060485231667318,1.0319278240203857,-3.0915725866900843
1708440974.9719968,-2.0979466438293457,-1.3420013648322602,-2.5400481859790247,6.059396016388693,1.0322328805923462,-3.092043940220968
1708440974.974023,-2.097074031829834,-1.342205987577774,-2.540382687245504,6.0583382723625085,1.0325050354003906,-3.092515532170431
1708440974.9759674,-2.0962324142456055,-1.342352495794632,-2.5405851046191614,6.057212221413412,1.032784342765808,-3.092942778264181
1708440974.9779701,-2.0953054428100586,-1.3424826127341767,-2.54087740579714,6.056216943054952,1.0331188440322876,-3.0934396425830286
1708440974.979966,-2.0944173336029053,-1.3427084696343918,-2.5411081949817103,6.055218922882833,1.0333502292633057,-3.0938614050494593
1708440974.9819446,-2.093535900115967,-1.3428668540767212,-2.541379753743307,6.0540175316627405,1.0336554050445557,-3.0943217913257044
1708440974.983955,-2.0926573276519775,-1.3430203956416626,-2.5416856447802942,6.053007352143087,1.0339421033859253,-3.0948222319232386
1708440974.985962,-2.09169340133667,-1.3432421845248719,-2.54197341600527,6.051933395653524,1.0343252420425415,-3.095304075871603
1708440974.9880536,-2.0907912254333496,-1.34339593470607,-2.5422404448138636,6.050746905594625,1.0346260070800781,-3.0958409945117396
1708440974.9899926,-2.089860200881958,-1.3436198842576523,-2.5425451437579554,6.049632060318746,1.0349177122116089,-3.0963407198535364
1708440974.9919991,-2.0889410972595215,-1.3437693280032654,-2.5428417364703577,6.04853247383193,1.0352137088775635,-3.09686786333193
1708440974.9940784,-2.0880706310272217,-1.3439623576453705,-2.5430849234210413,6.047384726792135,1.0355476140975952,-3.097396198903219
1708440974.9960163,-2.087148427963257,-1.3441732686809083,-2.543339554463522,6.046370255738058,1.035801649093628,-3.097858254109518
1708440974.998108,-2.0862388610839844,-1.3443807822516938,-2.5436771551715296,6.0452473042304895,1.036136507987976,-3.0983944574939173
1708440975.0000572,-2.0853171348571777,-1.3445588213256379,-2.543915573750631,6.044216143875875,1.0364086627960205,-3.0988157431231897
1708440975.002078,-2.084378242492676,-1.34479175627742,-2.5442290941821497,6.043135988503256,1.0367497205734253,-3.0994043985949915
1708440975.004015,-2.08341383934021,-1.3449861866286774,-2.5444873015033167,6.041962969094076,1.0370415449142456,-3.099903408681051
1708440975.0059836,-2.082484483718872,-1.3452268999866028,-2.5448363463031214,6.0408517000968835,1.0373421907424927,-3.1004582087146204
1708440975.00798,-2.0814735889434814,-1.3453852397254487,-2.545136276875631,6.039692389756002,1.0376803874969482,-3.101046387349264
1708440975.0100343,-2.0805530548095703,-1.3456199330142518,-2.54543644586672,6.038605320244589,1.038041114807129,-3.101605478917257
1708440975.0120845,-2.0795490741729736,-1.3458651316216965,-2.5457361380206507,6.037511336594381,1.038368821144104,-3.1021769682513636
1708440975.0139768,-2.0786538124084473,-1.3460757297328492,-2.5460122267352503,6.036430942803182,1.0386408567428589,-3.102638546620504
1708440975.0160112,-2.0776846408843994,-1.3462789964726944,-2.5463314692126673,6.035277831345358,1.0389606952667236,-3.1032596270190638
1708440975.018001,-2.076697826385498,-1.3464853030494233,-2.5466764608966272,6.034192549973287,1.039306402206421,-3.1037774721728724
1708440975.0199738,-2.0756990909576416,-1.3466751885465165,-2.5469747225390833,6.033181774407186,1.0396026372909546,-3.104288641606466
1708440975.0219674,-2.074758529663086,-1.346961037521698,-2.547333304082052,6.032027590065756,1.039960265159607,-3.104879919682638
1708440975.0239968,-2.073744773864746,-1.3471877139857789,-2.5476720968829554,6.030865895539083,1.0402922630310059,-3.1053910891162317
1708440975.0260363,-2.072744607925415,-1.3473687928966065,-2.547993008290426,6.029725420265951,1.040614128112793,-3.1059890429126185
1708440975.027997,-2.0717709064483643,-1.3477365237525483,-2.548312489186422,6.028616893082418,1.0409177541732788,-3.1065192858325403
1708440975.0299582,-2.070749282836914,-1.3478815269521256,-2.5486229101764124,6.02754973152236,1.0412676334381104,-3.107053820286886
1708440975.0319517,-2.0697803497314453,-1.348132775431015,-2.5489843527423304,6.026382434159078,1.041588306427002,-3.107727591191427
1708440975.03399,-2.0687830448150635,-1.3483714622310181,-2.5493159929858606,6.025397050171652,1.0418872833251953,-3.108283344899313
1708440975.0359373,-2.0677566528320312,-1.348636196260788,-2.5496647993670862,6.024281251221456,1.0422449111938477,-3.108844820653097
1708440975.038226,-2.066767930984497,-1.3488618743470688,-2.5500083605395716,6.02308355548934,1.0425200462341309,-3.1094535032855433
1708440975.0399492,-2.0657432079315186,-1.349157677297928,-2.55035645166506,6.021918642311849,1.042913556098938,-3.1100385824786585
1708440975.0419402,-2.064695358276367,-1.3493850392154236,-2.550713364277975,6.02081178405837,1.0433039665222168,-3.1106515566455286
1708440975.0440047,-2.0636894702911377,-1.3496931803277512,-2.551035467778341,6.019684541016378,1.0436561107635498,-3.111249033604757
1708440975.0459588,-2.062713623046875,-1.3499188137105484,-2.5513926188098353,6.018454897194662,1.0440049171447754,-3.11184531847109
1708440975.047989,-2.0617218017578125,-1.350165308719017,-2.5517223517047327,6.017346966057577,1.0443819761276245,-3.1124277750598353
1708440975.050024,-2.0606701374053955,-1.3504765343717118,-2.552091185246603,6.016238438874044,1.0446736812591553,-3.1130998770343226
1708440975.0519636,-2.0597009658813477,-1.350793184047081,-2.552451197301046,6.015224206238546,1.0450389385223389,-3.1136532465564173
1708440975.0539672,-2.0586800575256348,-1.3511040073684235,-2.5528512636767786,6.014114248543539,1.0454024076461792,-3.114260498677389
1708440975.055962,-2.0576419830322266,-1.3513986629298707,-2.553244415913717,6.013025629311361,1.0457677841186523,-3.114934031163351
1708440975.0579855,-2.056647300720215,-1.3517452788404007,-2.5535710493670862,6.011902439385214,1.046144962310791,-3.115551773701803
1708440975.0600288,-2.055546998977661,-1.3520232898047944,-2.553929630910055,6.010760175972738,1.046529769897461,-3.116199318562643
1708440975.0619676,-2.0545129776000977,-1.3523384046605607,-2.55434757867922,6.009593832283773,1.0468525886535645,-3.1168394724475306
1708440975.063995,-2.053478956222534,-1.3527227652123948,-2.5547149817096155,6.008455025940695,1.047196865081787,-3.117535654698507
1708440975.0659852,-2.052467107772827,-1.3530156773379822,-2.555127207432882,6.007396328240194,1.04757559299469,-3.1182664076434534
1708440975.067987,-2.051405429840088,-1.3533684474280854,-2.5555155912982386,6.006238329201498,1.0479438304901123,-3.118903462086813
1708440975.0700328,-2.050344705581665,-1.3537168961814423,-2.5559237639056605,6.005187856941976,1.048375129699707,-3.1195252577411097
1708440975.0720036,-2.049283027648926,-1.354046956901886,-2.5563390890704554,6.004011142044821,1.0487611293792725,-3.1202662626849573
1708440975.0739856,-2.0482418537139893,-1.3544554126313706,-2.556739632283346,6.0028995154197595,1.0492448806762695,-3.1209047476397913
1708440975.0759676,-2.0471460819244385,-1.3547761005214234,-2.557138744984762,6.001798736840048,1.0496402978897095,-3.1215933004962366
1708440975.0779936,-2.046147584915161,-1.3550961774638672,-2.5575740973102015,6.000648605614462,1.0499801635742188,-3.1222215334521692
1708440975.0799873,-2.045055627822876,-1.3554563981345673,-2.55799371400942,5.999596822052755,1.0503499507904053,-3.1228659788714808
1708440975.0819585,-2.044001579284668,-1.355860100393631,-2.558402125035421,5.998528110771932,1.0506322383880615,-3.123542372380392
1708440975.083981,-2.042919874191284,-1.3562310349992295,-2.55882174173464,5.997426616936483,1.0509239435195923,-3.1241710821734827
1708440975.0859547,-2.041940212249756,-1.3566176158240815,-2.55922514597048,5.9963639853294275,1.051274061203003,-3.124739948903219
1708440975.0880117,-2.040842056274414,-1.3569946599057694,-2.5596538225757044,5.995231139450826,1.051655650138855,-3.125434223805563
1708440975.0900333,-2.039793014526367,-1.3573557150414963,-2.5600648562060755,5.994204747467794,1.0520437955856323,-3.126040522252218
1708440975.0919778,-2.038735866546631,-1.357697994714119,-2.5605340639697474,5.993112790375509,1.0524779558181763,-3.1266630331622522
1708440975.0939848,-2.037625551223755,-1.358108864431717,-2.5609827677356165,5.992082464485922,1.0529241561889648,-3.127383534108297
1708440975.095942,-2.0365118980407715,-1.3584425163320084,-2.5614548365222376,5.991013276367941,1.0533721446990967,-3.1280182043658655
1708440975.0979707,-2.035465717315674,-1.3588071030429383,-2.5618704001056116,5.9898507473762415,1.0538829565048218,-3.1287062803851526
1708440975.0999606,-2.0343425273895264,-1.3592199397138138,-2.562362257634298,5.988788354187765,1.054359793663025,-3.1293373743640345
1708440975.1019511,-2.0332677364349365,-1.359593541627266,-2.562810484563009,5.987683522492208,1.0547575950622559,-3.1299832502948206
1708440975.1039865,-2.032196521759033,-1.3599896293929596,-2.563279692326681,5.986641752510824,1.0551787614822388,-3.130688492451803
1708440975.105959,-2.0311238765716553,-1.3603646022132416,-2.5637028853045862,5.985578882485189,1.0555754899978638,-3.1313021818744105
1708440975.1079636,-2.0300161838531494,-1.3608145427754899,-2.5641916433917444,5.984563338547506,1.0560322999954224,-3.1319480578051966
1708440975.1100361,-2.028933048248291,-1.3611733478358765,-2.564662758504049,5.983506905823507,1.0564906597137451,-3.132624689732687
1708440975.11199,-2.0278067588806152,-1.361662359242775,-2.5651424566852015,5.9825936434562585,1.056947946548462,-3.1333046595202845
1708440975.1139727,-2.026703357696533,-1.362083689575531,-2.565674606953756,5.981478321343221,1.0574088096618652,-3.1340048948871058
1708440975.1162114,-2.0255179405212402,-1.3624678415111084,-2.5661664644824427,5.980415332108297,1.0577969551086426,-3.1345961729632776
1708440975.1216736,-2.0244131088256836,-1.3630183649114151,-2.566627089177267,5.97934507110671,1.0582282543182373,-3.135319534932272
1708440975.1219895,-2.022165536880493,-1.3638166052154084,-2.5677605311023157,5.977172839432516,1.059118628501892,-3.1366525332080286
1708440975.1239858,-2.0210580825805664,-1.364246980553009,-2.5682554880725306,5.976187574654379,1.0595401525497437,-3.1373494307147425
1708440975.126016,-2.0198745727539062,-1.3646589380553742,-2.5687952677356165,5.975126492768087,1.0599969625473022,-3.137989107762472
1708440975.1279774,-2.0187222957611084,-1.3652615410140534,-2.569327418004171,5.9739980576331995,1.0604827404022217,-3.138650957738058
1708440975.1299598,-2.0174920558929443,-1.3657036137631913,-2.5699036757098597,5.97290991523818,1.0609723329544067,-3.1393397490130823
1708440975.1319652,-2.016313076019287,-1.3661194008639832,-2.570396963750021,5.971865165024557,1.061456322669983,-3.1400473753558558
1708440975.1340225,-2.015123128890991,-1.3666349363378067,-2.5710204283343714,5.9708324549491785,1.0619747638702393,-3.1407058874713343
1708440975.135994,-2.013909339904785,-1.3670970511487504,-2.571561876927511,5.969828235894003,1.0624433755874634,-3.1413841883288782
1708440975.1379702,-2.0127646923065186,-1.367588387136795,-2.572163168584005,5.968737470894613,1.0629082918167114,-3.1420467535602015
1708440975.1400099,-2.0115585327148438,-1.368074433212616,-2.5726898352252405,5.967719542771139,1.0633351802825928,-3.1427562872516077
1708440975.141956,-2.010331153869629,-1.3685891193202515,-2.5732749144183558,5.966635453491964,1.063832402229309,-3.143454615269796
1708440975.14397,-2.0090909004211426,-1.3691121351769944,-2.5738750139819544,5.965596067696371,1.064346432685852,-3.1441195646869105
1708440975.1459677,-2.0078117847442627,-1.3696667414954682,-2.5744908491717737,5.96443926075057,1.0648467540740967,-3.144806687031881
1708440975.1479611,-2.006619453430176,-1.3701508206180115,-2.575087849293844,5.963398682862081,1.0654090642929077,-3.1455379168139856
1708440975.149985,-2.0053277015686035,-1.3706742090037842,-2.5757203737842005,5.9622734663780115,1.0659754276275635,-3.146301809941427
1708440975.1519663,-2.004024028778076,-1.3712206494859238,-2.5762904326068323,5.961134540825643,1.0665361881256104,-3.14700156847109
1708440975.1539857,-2.0027785301208496,-1.371693642144539,-2.576944176350729,5.960060226708212,1.0670932531356812,-3.147696081792013
1708440975.155948,-2.00152587890625,-1.3722613018802186,-2.5775471369372767,5.958968746453085,1.0676530599594116,-3.1483736673938196
1708440975.15795,-2.000274419784546,-1.3728080105832596,-2.5782082716571253,5.957893955498495,1.068266749382019,-3.1491013208972376
1708440975.1599603,-1.9989897012710571,-1.373365507727005,-2.578832213078634,5.956802475243368,1.068777322769165,-3.1498833338366907
1708440975.1619973,-1.997694730758667,-1.373887227182724,-2.5794478098498743,5.955734956055441,1.069326639175415,-3.150579277669088
1708440975.1639655,-1.9964118003845215,-1.374426470404007,-2.5801518599139612,5.954603540688314,1.069892168045044,-3.1512702147113245
1708440975.1659791,-1.9951058626174927,-1.374952034359314,-2.5807696024524134,5.9535409090812585,1.0704060792922974,-3.152041260396139
1708440975.167939,-1.9937938451766968,-1.3755599868348618,-2.58144194284548,5.952466237335958,1.07099187374115,-3.152762238179342
1708440975.1699703,-1.9925079345703125,-1.376181737785675,-2.5820677916156214,5.9513910887535,1.0715609788894653,-3.1534279028521937
1708440975.1719482,-1.9911469221115112,-1.3767340344241639,-2.5828333536731165,5.950246798783102,1.0721139907836914,-3.1540985743152063
1708440975.1740365,-1.989769458770752,-1.3773463827422638,-2.583479706441061,5.949099290161886,1.0726664066314697,-3.1548262278186243
1708440975.1759763,-1.9884355068206787,-1.3779301208308716,-2.5841811339007776,5.9479325888450525,1.0732353925704956,-3.1555102507220667
1708440975.1779628,-1.9870705604553223,-1.3784619730762024,-2.584905449544088,5.946863043099203,1.0738446712493896,-3.1561365763293665
1708440975.1799595,-1.9857211112976074,-1.3791085642627259,-2.5855849424945276,5.94579707363204,1.0743839740753174,-3.1568782965289515
1708440975.1819556,-1.9843735694885254,-1.3796400737813492,-2.586374823247091,5.9446565983589075,1.0749928951263428,-3.15753680864443
1708440975.184007,-1.9830070734024048,-1.3803512913039704,-2.5870652834521692,5.943548548012533,1.075569987297058,-3.1582651774035853
1708440975.185967,-1.9815289974212646,-1.3808993262103577,-2.5878236929522913,5.942366468697347,1.0761826038360596,-3.158861223851339
1708440975.1880558,-1.9801609516143799,-1.3815635603717347,-2.5885635058032435,5.941081630974569,1.0767916440963745,-3.159609619771139
1708440975.1900656,-1.9786806106567383,-1.3821790677360077,-2.589306418095724,5.940000045090475,1.0774238109588623,-3.1603251139270228
1708440975.1920238,-1.9773485660552979,-1.3827939492515107,-2.5901053587542933,5.938853013306417,1.0780800580978394,-3.161039177571432
1708440975.194078,-1.9758504629135132,-1.38345559061084,-2.5908733049975794,5.937665331154623,1.0786594152450562,-3.16170841852297
1708440975.1960526,-1.9744296073913574,-1.384164111023285,-2.591606680546896,5.936473476677694,1.0792641639709473,-3.1625011602984827
