Eg3-git/Classifiers/Data Collection/u7/u7xyz3_ur3e_joint_states.csv
time,elbow_joint,shoulder_lift_joint,shoulder_pan_joint,wrist_1_joint,wrist_2_joint,wrist_3_joint
1708441312.3570175,-2.14261531829834,-1.3335372370532532,-2.5264151732074183,6.112092363625326,1.0172075033187866,-3.2581451574908655
1708441312.3590264,-2.14263916015625,-1.3336232912591477,-2.5264151732074183,6.112101304322042,1.0171703100204468,-3.2581735293017786
1708441312.3610423,-2.1426243782043457,-1.333620623951294,-2.5264809767352503,6.112002360611715,1.0171581506729126,-3.2580700556384485
1708441312.3630764,-2.142612934112549,-1.333574579363205,-2.5264559427844446,6.11201428154067,1.0171256065368652,-3.2581236998187464
1708441312.3650336,-2.1425836086273193,-1.3336339902928849,-2.526473585759298,6.112024771958151,1.0171703100204468,-3.258141581212179
1708441312.3670988,-2.1425914764404297,-1.3336029213717957,-2.5264063517199915,6.111971127777853,1.0171462297439575,-3.2581661383258265
1708441312.3690486,-2.142608404159546,-1.3335702580264588,-2.5264559427844446,6.111942994385519,1.0171092748641968,-3.2580984274493616
1708441312.3711956,-2.1426219940185547,-1.3336189550212403,-2.5263856093036097,6.112009870796957,1.0171256065368652,-3.2581406275378626
1708441312.373029,-2.1426174640655518,-1.3336454939893265,-2.5264273325549524,6.111983167916097,1.0171093940734863,-3.2581661383258265
1708441312.3750348,-2.142592668533325,-1.333586574797966,-2.526452604924337,6.111917245178976,1.0171093940734863,-3.2581542173968714
1708441312.3770728,-2.142597198486328,-1.3335263294032593,-2.5264228026019495,6.11194263675765,1.0171375274658203,-3.2581871191607874
1708441312.3790376,-2.142544984817505,-1.3335923713496705,-2.5264437834369105,6.111879694252767,1.0171093940734863,-3.2580998579608362
1708441312.381014,-2.142568826675415,-1.3335879457047959,-2.5264273325549524,6.1118695614631555,1.017129898071289,-3.2581542173968714
1708441312.383047,-2.1425564289093018,-1.3335790050080796,-2.5264151732074183,6.111865150719442,1.0171136856079102,-3.2581825892077845
1708441312.385022,-2.142540454864502,-1.3335967820933838,-2.5264106432544153,6.111883032112875,1.017080545425415,-3.2581191698657435
1708441312.3870215,-2.142535924911499,-1.3335846227458497,-2.526452604924337,6.111787068634786,1.0171537399291992,-3.2581191698657435
1708441312.389028,-2.142547369003296,-1.3335173589042206,-2.526452604924337,6.111808168679037,1.0171256065368652,-3.2580743471728724
1708441312.391032,-2.142540454864502,-1.3335504096797486,-2.5264437834369105,6.111806380539694,1.0171834230422974,-3.2581616083728235
1708441312.3930213,-2.142533540725708,-1.3335879457047959,-2.5263825098620813,6.111773955612936,1.0171093940734863,-3.2581542173968714
1708441312.3950517,-2.1424953937530518,-1.3335474294475098,-2.5264228026019495,6.111739384918966,1.017128825187683,-3.2581236998187464
1708441312.397011,-2.1425087451934814,-1.3335519594005127,-2.5264230410205286,6.111783015518942,1.0171256065368652,-3.2581990400897425
1708441312.3990557,-2.1424667835235596,-1.3335430038026352,-2.5264318625079554,6.11169599273757,1.0171136856079102,-3.2581570784198206
1708441312.4010224,-2.1424713134765625,-1.3335727018168946,-2.5264018217669886,6.111773955612936,1.0171093940734863,-3.2581616083728235
1708441312.4030375,-2.1424384117126465,-1.3335549247315903,-2.526419464741842,6.11167203167037,1.017118215560913,-3.2581897417651575
1708441312.4050438,-2.1424927711486816,-1.3335263145020981,-2.526419703160421,6.111729013710775,1.017129898071289,-3.2581809202777308
1708441312.407048,-2.1424975395202637,-1.3335504096797486,-2.5264106432544153,6.111713874131002,1.0171136856079102,-3.258204762135641
1708441312.409042,-2.1424317359924316,-1.3335233491710206,-2.5264063517199915,6.111694562226095,1.017118215560913,-3.258204762135641
1708441312.4110587,-2.142461061477661,-1.3335277748158951,-2.526456896458761,6.111715423851766,1.017118215560913,-3.258203093205587
1708441312.4130592,-2.142476797103882,-1.3335637760213395,-2.5264151732074183,6.111699092179098,1.0171375274658203,-3.2582410017596644
1708441312.4150486,-2.142456531524658,-1.3334909838489075,-2.526423994694845,6.111649858742513,1.0171093940734863,-3.2582245508777063
1708441312.4170806,-2.142415761947632,-1.3335607808879395,-2.526419464741842,6.111637937813558,1.0171494483947754,-3.2583215872394007
1708441312.4190545,-2.142454147338867,-1.3335277748158951,-2.5263944307910364,6.111594426422872,1.0171623229980469,-3.258338514958517
1708441312.4210536,-2.142406940460205,-1.3335530024817963,-2.5264063517199915,6.111577737122335,1.0170924663543701,-3.2583487669574183
1708441312.4230692,-2.142408847808838,-1.333518923526146,-2.5263944307910364,6.111577737122335,1.0171136856079102,-3.2584009806262415
1708441312.425047,-2.142432689666748,-1.3334980768016358,-2.526440683995382,6.111556875496664,1.0171136856079102,-3.2584415117846888
1708441312.4270685,-2.142397403717041,-1.3334909838489075,-2.5264304319964808,6.111533510475912,1.0170924663543701,-3.258498255406515
1708441312.4290764,-2.1423704624176025,-1.333518923526146,-2.5263779799090784,6.111583697586813,1.017118215560913,-3.2585302034961146
1708441312.431051,-2.1423635482788086,-1.333507002597191,-2.5264318625079554,6.111561286240377,1.0171418190002441,-3.258544985448019
1708441312.4330695,-2.1423840522766113,-1.333536611204483,-2.5263825098620813,6.111539113312521,1.0171418190002441,-3.258622948323385
1708441312.4350486,-2.142401933670044,-1.3335189086249848,-2.526423994694845,6.111522662430563,1.0171213150024414,-3.2586198488818567
1708441312.437047,-2.142401933670044,-1.3335202795318146,-2.5263660589801233,6.11152862289504,1.0171581506729126,-3.258660141621725
1708441312.4390724,-2.1423521041870117,-1.333548442726471,-2.5264318625079554,6.111431467324056,1.017118215560913,-3.258787457142965
1708441312.4410324,-2.1423885822296143,-1.333518923526146,-2.5264151732074183,6.111474740296163,1.0171549320220947,-3.258789364491598
1708441312.4430242,-2.142385959625244,-1.3335070323995133,-2.526386801396505,6.11140917518691,1.017104983329773,-3.258836809788839
1708441312.445022,-2.142331838607788,-1.333518923526146,-2.5263989607440394,6.111427056580343,1.0171213150024414,-3.258908812199728
1708441312.4470236,-2.142320394515991,-1.3334909838489075,-2.526403252278463,6.111431467324056,1.017129898071289,-3.2590020338641565
1708441312.449029,-2.1423161029815674,-1.3334875863841553,-2.5264559427844446,6.111398446350851,1.0170924663543701,-3.259078327809469
1708441312.45103,-2.142324924468994,-1.3334997457316895,-2.5264151732074183,6.111395466118612,1.0170881748199463,-3.259169880543844
1708441312.453036,-2.142336368560791,-1.3334579777768631,-2.5264318625079554,6.111361253052511,1.017080545425415,-3.2592292467700403
1708441312.4550774,-2.1423532962799072,-1.3335202497294922,-2.5263944307910364,6.111341583519735,1.017150640487671,-3.2593117395984095
1708441312.4570231,-2.142259120941162,-1.3334997457316895,-2.5264273325549524,6.1113881943519495,1.017096757888794,-3.2594216505633753
1708441312.4590685,-2.142320394515991,-1.3335114282420655,-2.5263899008380335,6.111380803375997,1.0171136856079102,-3.259526316319601
1708441312.4610329,-2.1422922611236572,-1.3334964525750657,-2.5263825098620813,6.111310469895162,1.017080545425415,-3.2596102396594446
1708441312.4631028,-2.1422841548919678,-1.3334875863841553,-2.526423994694845,6.111380684166708,1.0170719623565674,-3.2597418467151087
1708441312.465053,-2.142322540283203,-1.3335454624942322,-2.526456896458761,6.111331212311544,1.0171136856079102,-3.2598703543292444
1708441312.4670415,-2.142305612564087,-1.3335157644799729,-2.5263779799090784,6.111295449524679,1.017122507095337,-3.2599733511554163
1708441312.4690523,-2.142268180847168,-1.3334997457316895,-2.5263825098620813,6.11129258850173,1.017134428024292,-3.2600730101214808
1708441312.4710646,-2.1423144340515137,-1.3334593039802094,-2.5263825098620813,6.111283528595724,1.0171136856079102,-3.260188404713766
1708441312.4730535,-2.14231014251709,-1.3335069876960297,-2.526407782231466,6.111243116646566,1.017085075378418,-3.2603285948382776
1708441312.4750366,-2.1422886848449707,-1.3334712249091645,-2.5263989607440394,6.111209976464071,1.0171136856079102,-3.260432545338766
1708441312.477028,-2.142277240753174,-1.3334875863841553,-2.5263989607440394,6.111218917160787,1.017096757888794,-3.260568682347433
1708441312.4790807,-2.142240285873413,-1.3334712249091645,-2.526428524647848,6.111192452698507,1.0171012878417969,-3.260733429585592
1708441312.4810388,-2.142265796661377,-1.3334593188813706,-2.5263987223254603,6.111187922745504,1.0170936584472656,-3.2608397642718714
1708441312.4830449,-2.1422278881073,-1.3334964376739045,-2.526403252278463,6.11119698265151,1.0171267986297607,-3.261012140904562
1708441312.485014,-2.1422903537750244,-1.3334637445262452,-2.526379410420553,6.11119698265151,1.017114281654358,-3.261139694844381
1708441312.4870589,-2.1422860622406006,-1.3334681701711197,-2.526391331349508,6.111192452698507,1.017080545425415,-3.2612550894366663
1708441312.4890354,-2.1422250270843506,-1.3334845167449494,-2.526419703160421,6.111126291542806,1.017096757888794,-3.2614525000201624
1708441312.491036,-2.1422364711761475,-1.3335321110538025,-2.5263779799090784,6.111144292145529,1.0171055793762207,-3.2615378538714808
1708441312.4930024,-2.142204761505127,-1.333456353550293,-2.5263498465167444,6.111118781357565,1.0171387195587158,-3.261740032826559
1708441312.495029,-2.142249822616577,-1.3334503185800095,-2.5263989607440394,6.111083137779989,1.017073154449463,-3.2618706862079065
1708441312.4970279,-2.142254590988159,-1.3334473979524155,-2.526423994694845,6.111078727036276,1.017122507095337,-3.2620232740985315
1708441312.4990115,-2.142184257507324,-1.3334593188813706,-2.526395861302511,6.111078727036276,1.017118215560913,-3.262174669896261
1708441312.5010405,-2.1422455310821533,-1.3335380566171189,-2.5263541380511683,6.1110890982444666,1.017080545425415,-3.2624035517321985
1708441312.5030274,-2.1422455310821533,-1.333454893236496,-2.526403252278463,6.111084568291464,1.0170612335205078,-3.26251465479006
1708441312.5051,-2.142200231552124,-1.3334307235530396,-2.5263825098620813,6.1110890982444666,1.0170936584472656,-3.2627065817462366
1708441312.5070655,-2.1422181129455566,-1.3334307086518784,-2.526428524647848,6.111101019173422,1.0170774459838867,-3.262869898472921
1708441312.509027,-2.142188787460327,-1.3334637445262452,-2.526403252278463,6.110999452858724,1.0171023607254028,-3.2630298773394983
1708441312.5110087,-2.1422431468963623,-1.3334351491979142,-2.526404682789938,6.1110278246696375,1.017080545425415,-3.2631810347186487
1708441312.513095,-2.1422271728515625,-1.3334844571403046,-2.526386801396505,6.111102568894186,1.0171012878417969,-3.2633743921863
1708441312.5150485,-2.1422271728515625,-1.333508701329567,-2.5263825098620813,6.1110113737876794,1.0170936584472656,-3.263531748448507
1708441312.5170476,-2.1422135829925537,-1.3334563386491318,-2.5263944307910364,6.111053097039022,1.0171012878417969,-3.2637622992144983
1708441312.519049,-2.1422317028045654,-1.3334321838668366,-2.5263541380511683,6.111003982811727,1.0170817375183105,-3.26394492784609
1708441312.5210352,-2.142186403274536,-1.3334410053542634,-2.526400152836935,6.1109962342079065,1.0170893669128418,-3.2641728560077112
1708441312.5230505,-2.1422317028045654,-1.3334188026240845,-2.526400152836935,6.111038195877828,1.017114281654358,-3.264404837285177
1708441312.5250292,-2.1421730518341064,-1.3334726852229615,-2.5263705889331263,6.110977041512289,1.0170979499816895,-3.264608685170309
1708441312.5270607,-2.14216947555542,-1.333460734491684,-2.526416603718893,6.110999572068014,1.017086148262024,-3.264803473149435
1708441312.5290408,-2.14214825630188,-1.333409921532013,-2.526428524647848,6.11091576793746,1.017068862915039,-3.2650144735919397
1708441312.531029,-2.142195224761963,-1.3334934425405045,-2.526379410420553,6.110965239792623,1.0170742273330688,-3.2652888933764856
1708441312.5330362,-2.142143726348877,-1.3334263128093262,-2.526391331349508,6.110965239792623,1.0170446634292603,-3.2654743830310267
1708441312.5350437,-2.142197847366333,-1.333409921532013,-2.5263498465167444,6.110932218819418,1.0170817375183105,-3.2657440344439905
1708441312.537011,-2.1421782970428467,-1.333386407499649,-2.526367489491598,6.110970961838522,1.0170533657073975,-3.265995804463522
1708441312.5390365,-2.1421616077423096,-1.3334771406701584,-2.526400152836935,6.11097418048934,1.0170817375183105,-3.266226832066671
1708441312.5410516,-2.142195224761963,-1.3333865118077775,-2.526400152836935,6.11091576793746,1.0170817375183105,-3.266458813344137
1708441312.543036,-2.1421172618865967,-1.333436520104744,-2.526372019444601,6.110863673477926,1.0170533657073975,-3.2667058149920862
1708441312.5450408,-2.1421658992767334,-1.3334069711020966,-2.52638823190798,6.110863792687216,1.0170655250549316,-3.2669740358935755
1708441312.5470228,-2.14216947555542,-1.333456353550293,-2.526358668004171,6.110826003342428,1.0170533657073975,-3.2671971956836146
1708441312.5490136,-2.142134189605713,-1.333456353550293,-2.526383701954977,6.1108261225517175,1.0170403718948364,-3.2674370447741907
1708441312.5510488,-2.142112970352173,-1.3334321838668366,-2.526407782231466,6.110893118172445,1.0170774459838867,-3.2677140871631067
1708441312.5530334,-2.1421172618865967,-1.3334321838668366,-2.5263927618609827,6.110821592598715,1.017068862915039,-3.2680750528918665
1708441312.5550337,-2.142112970352173,-1.3334086698344727,-2.52638823190798,6.1108529446418665,1.0170576572418213,-3.268313709889547
1708441312.5570135,-2.1421127319335938,-1.3334187877229233,-2.526416603718893,6.110836612969198,1.017048954963684,-3.268590513859884
1708441312.5590558,-2.142174005508423,-1.333375633960106,-2.5264092127429407,6.110803472786703,1.0170576572418213,-3.26884371439089
1708441312.5610452,-2.1420958042144775,-1.3334158223918458,-2.5263763109790247,6.110795962601461,1.0169956684112549,-3.269172970448629
1708441312.5631566,-2.1421139240264893,-1.3334277433208008,-2.526386801396505,6.110812413483419,1.0170655250549316,-3.2694230715381067
1708441312.5650706,-2.142112970352173,-1.3334201735309144,-2.5263598600970667,6.110787141114034,1.0170414447784424,-3.2697559038745325
1708441312.5670462,-2.142138719558716,-1.3333874952844162,-2.5263553301440638,6.110779630928793,1.017069935798645,-3.2700510660754603
1708441312.5690587,-2.1421592235565186,-1.333423302774765,-2.526350800191061,6.110805022507467,1.017082929611206,-3.270378653203146
1708441312.5710485,-2.1421139240264893,-1.3334290844253083,-2.526317898427145,6.1107826111610315,1.017048954963684,-3.2707038561450403
1708441312.5730295,-2.1420810222625732,-1.3333874654820939,-2.526285235081808,6.110784160881796,1.0170414447784424,-3.271045986806051
1708441312.5750694,-2.1421477794647217,-1.3333831292441864,-2.5264137426959437,6.110793101578512,1.0170371532440186,-3.2713993231402796
1708441312.5771096,-2.1421139240264893,-1.33341138184581,-2.526350800191061,6.1107767699058435,1.0170501470565796,-3.2717343012439173
1708441312.5790462,-2.142064332962036,-1.3333998036435624,-2.5263927618609827,6.11078559139327,1.0170620679855347,-3.2720850149737757
1708441312.581055,-2.1421263217926025,-1.3333623719266434,-2.526404682789938,6.110769259720602,1.0169920921325684,-3.2724087874041956
1708441312.583019,-2.1421093940734863,-1.3333592873862763,-2.526337448750631,6.110715257912435,1.0170173645019531,-3.272764031087057
1708441312.5850577,-2.1420810222625732,-1.3333756190589447,-2.5263224283801478,6.110736477165975,1.0170248746871948,-3.2731085459338587
1708441312.5870287,-2.1421093940734863,-1.3334008318236847,-2.5263763109790247,6.110732066422262,1.017033576965332,-3.27350098291506
1708441312.589061,-2.1420810222625732,-1.3333964210799714,-2.526313606892721,6.110721337586202,1.0170130729675293,-3.2738519350634974
1708441312.591053,-2.1420934200286865,-1.3334365052035828,-2.5263267199145716,6.11067961433486,1.0169802904129028,-3.2741990725146692
1708441312.593019,-2.142118215560913,-1.3334201735309144,-2.5263808409320276,6.110691416054525,1.0170130729675293,-3.274672571812765
1708441312.5950615,-2.142094373703003,-1.3333592873862763,-2.5263927618609827,6.110758888512411,1.017005205154419,-3.275076691304342
1708441312.5970297,-2.14206862449646,-1.3333844256452103,-2.526372019444601,6.110724198609152,1.017033576965332,-3.2753945032702845
1708441312.5990338,-2.1421024799346924,-1.3333637428334733,-2.5263386408435267,6.110695946007528,1.017033576965332,-3.275835100804464
1708441312.601038,-2.142098903656006,-1.3333756190589447,-2.5263386408435267,6.110631930619039,1.0170422792434692,-3.276249710713522
1708441312.603024,-2.142106771469116,-1.3333337914994736,-2.5263193289386194,6.110627519875326,1.0169932842254639,-3.2766903082477015
1708441312.605057,-2.1421070098876953,-1.3334130954793473,-2.5263519922839563,6.11068223693923,1.0169233083724976,-3.277076546345846
1708441312.6070726,-2.1420528888702393,-1.333424688582756,-2.5263267199145716,6.11060785034255,1.0169932842254639,-3.2774904409991663
1708441312.6090603,-2.142090082168579,-1.3333337169936677,-2.526404682789938,6.110628711968221,1.016923427581787,-3.2779515425311487
1708441312.6110425,-2.142066240310669,-1.333424673681595,-2.5263643900500696,6.1106454012687585,1.016977071762085,-3.2783923784839075
1708441312.6130762,-2.142127275466919,-1.333371104007103,-2.5263357798205774,6.110646593361654,1.0169857740402222,-3.2788148562060755
1708441312.6220496,-2.142111301422119,-1.3333648455194016,-2.5263059774981897,6.110610949784078,1.0169901847839355,-3.279254738484518
1708441312.623055,-2.142073154449463,-1.333359272485115,-2.5263028780566614,6.1106018898780725,1.0169482231140137,-3.2810285727130335
1708441312.6250343,-2.1420414447784424,-1.3333770793727417,-2.526344601308004,6.11063181140975,1.0169482231140137,-3.2815046946154993
1708441312.6270542,-2.142002820968628,-1.333400846724846,-2.526300017033712,6.110564338951864,1.0169289112091064,-3.2819586435901087
1708441312.6290514,-2.1420798301696777,-1.3333681535771866,-2.5263074080096644,6.110582220345297,1.016924500465393,-3.2824140230761927
1708441312.6310995,-2.142068386077881,-1.333384485249855,-2.5263074080096644,6.110586869507589,1.016973614692688,-3.282951895390646
1708441312.6330907,-2.142011880874634,-1.3333637130311509,-2.5263074080096644,6.110598552017965,1.0169408321380615,-3.283339802418844
1708441312.6350849,-2.141995906829834,-1.3334291291287919,-2.5262580553637903,6.110500323563375,1.016884207725525,-3.2838171164142054
1708441312.6370544,-2.142037868499756,-1.333342583184578,-2.5263400713550013,6.110537636071005,1.016958236694336,-3.2843244711505335
1708441312.63908,-2.1420300006866455,-1.3334219765714188,-2.5262909571277063,6.110562550812521,1.016921043395996,-3.284828011189596
1708441312.6410174,-2.142063856124878,-1.3334008020213624,-2.5262296835528772,6.110548126488485,1.0169332027435303,-3.2852864901172083
1708441312.6430478,-2.1420209407806396,-1.333364800815918,-2.5262413660632532,6.110468733101644,1.016958236694336,-3.2858851591693323
1708441312.6450412,-2.142000436782837,-1.3333890301040192,-2.526259247456686,6.110480654030599,1.0169004201889038,-3.286351744328634
1708441312.6470363,-2.1420254707336426,-1.333388940697052,-2.52627140680422,6.110540735512533,1.0169297456741333,-3.286870066319601
1708441312.649035,-2.1419758796691895,-1.333323286180832,-2.526254717503683,6.110456931381979,1.0169376134872437,-3.2874348799334925
1708441312.651021,-2.1420254707336426,-1.3333726686290284,-2.52627140680422,6.110474812775411,1.0169297456741333,-3.287952725087301
1708441312.653015,-2.1420388221740723,-1.333309845333435,-2.526245896016256,6.1104047177131555,1.0169461965560913,-3.2885149160968226
1708441312.655038,-2.1420342922210693,-1.333336503510811,-2.526259247456686,6.110458123474874,1.016909122467041,-3.2891035715686243
1708441312.6570134,-2.1420559883117676,-1.3333770793727417,-2.526243034993307,6.110459553986349,1.016892910003662,-3.2896044890033167
1708441312.6590092,-2.142000436782837,-1.3333529245904465,-2.526296679173605,6.110414850502767,1.0168884992599487,-3.2901442686664026
1708441312.6609998,-2.1420185565948486,-1.3333440583995362,-2.5262745062457483,6.110393988877096,1.016921043395996,-3.2907243410693567
1708441312.6631012,-2.141993761062622,-1.3333320629647751,-2.526280228291647,6.110386597901144,1.0168850421905518,-3.2912803331958216
1708441312.665129,-2.1420228481292725,-1.3333035123399277,-2.5262354055987757,6.11039565780715,1.0168850421905518,-3.291828457509176
1708441312.6670482,-2.141989231109619,-1.3332757365754624,-2.526238505040304,6.110341655998983,1.0168522596359253,-3.292442862187521
1708441312.6690824,-2.141998052597046,-1.3333410781672974,-2.5262473265277308,6.110304105072775,1.0169016122817993,-3.292985741292135
1708441312.6710722,-2.141993761062622,-1.3333068651011963,-2.526242796574728,6.110380399018087,1.0168850421905518,-3.2935789267169397
1708441312.6730392,-2.1419644355773926,-1.333320216541626,-2.5262067953692835,6.110338675766744,1.0168522596359253,-3.2941623369800013
1708441312.67505,-2.1420071125030518,-1.3333410632661362,-2.526210133229391,6.110264289170065,1.0168894529342651,-3.2947760264026087
1708441312.677054,-2.141989231109619,-1.3332711917212983,-2.5262518564807337,6.110310423165121,1.0168684720993042,-3.295311991368429
1708441312.6790438,-2.1419451236724854,-1.33333212256942,-2.5262680689441126,6.110311972885885,1.0169068574905396,-3.2959376017199915
1708441312.681142,-2.141958475112915,-1.333280013208725,-2.5262606779681605,6.110229718476095,1.0168728828430176,-3.296565357838766
1708441312.6830842,-2.141925573348999,-1.333316833978035,-2.5262234846698206,6.110234129219808,1.0168695449829102,-3.2971680800067347
1708441312.6850364,-2.141949415206909,-1.333308072095253,-2.5261829535113733,6.1102263806159876,1.0168609619140625,-3.2978461424456995
1708441312.6870625,-2.141963005065918,-1.3333113652518769,-2.5262771288501185,6.11019395568923,1.016874074935913,-3.2984440962420862
1708441312.6890779,-2.141921043395996,-1.3333454740098496,-2.5262280146228235,6.11018322685317,1.0168119668960571,-3.299100701008932
1708441312.6910362,-2.141921043395996,-1.333259255891182,-2.5262518564807337,6.110114443093099,1.0168577432632446,-3.299727741871969
1708441312.6930423,-2.1419177055358887,-1.3332934391549607,-2.5261827150927942,6.110171305924215,1.0168328285217285,-3.3003984133349817
1708441312.695031,-2.141946315765381,-1.3332756918719788,-2.5262158552752894,6.11007713058547,1.0169111490249634,-3.3010757605182093
1708441312.697009,-2.141946315765381,-1.3333211851171036,-2.5262280146228235,6.110095131188192,1.0168119668960571,-3.30171782175173
1708441312.699004,-2.1419265270233154,-1.3333052408746262,-2.526214663182394,6.1101486561592,1.016845941543579,-3.3023653666125696
1708441312.7010047,-2.141914129257202,-1.3332514774850388,-2.5262158552752894,6.110050427704611,1.0167843103408813,-3.303131405507223
1708441312.7030098,-2.1418964862823486,-1.333247036939003,-2.526253048573629,6.110080110817709,1.016800880432129,-3.303765122090475
1708441312.705085,-2.141836404800415,-1.3332736802152176,-2.526220146809713,6.110015857010641,1.0168293714523315,-3.304441754017965
1708441312.7071176,-2.1419267654418945,-1.3332514625838776,-2.5261858145343226,6.109982716828146,1.016796588897705,-3.3051493803607386
1708441312.7094693,-2.141857624053955,-1.333230660562851,-2.5262561480151575,6.110086190491476,1.0167843103408813,-3.305882517491476
1708441312.7110574,-2.141841411590576,-1.3332306903651734,-2.5261946360217493,6.10990987995223,1.016850233078003,-3.3066299597369593
1708441312.7131567,-2.1418256759643555,-1.3332394820502778,-2.5262442270862024,6.1099188206489465,1.016800880432129,-3.3073845545398157
1708441312.7150514,-2.1418328285217285,-1.3332815331271668,-2.5262113253222864,6.109910952835836,1.0168259143829346,-3.3081114927874964
1708441312.7170725,-2.1418256759643555,-1.3332725328258057,-2.5262487570392054,6.10984085777358,1.0167638063430786,-3.3089121023761194
1708441312.7190578,-2.1418347358703613,-1.3332484674504776,-2.5262158552752894,6.109829056053915,1.0167648792266846,-3.309561793004171
1708441312.7210717,-2.141792058944702,-1.3332440269044419,-2.5261903444873255,6.109902131348409,1.0167887210845947,-3.3103583494769495
1708441312.7230763,-2.1418099403381348,-1.3332365316203614,-2.526207987462179,6.109876739769735,1.0167561769485474,-3.311075035725729
1708441312.7250733,-2.141859531402588,-1.333232046370842,-2.526224676762716,6.10980652549819,1.0167529582977295,-3.311803166066305
1708441312.7270815,-2.1418278217315674,-1.3332365465215226,-2.5261829535113733,6.109828936844625,1.0167274475097656,-3.3125174681292933
1708441312.7315838,-2.1418190002441406,-1.333224595790245,-2.5261991659747522,6.109787094383993,1.0167317390441895,-3.313260857258932
1708441312.7330384,-2.141798496246338,-1.3331915897182007,-2.5261784235583704,6.109744059830465,1.016740083694458,-3.314719263707296
1708441312.7350593,-2.141787052154541,-1.3332124662450333,-2.526187245045797,6.109728801041403,1.0167274475097656,-3.315472427998678
1708441312.7370212,-2.1417791843414307,-1.3332826507142563,-2.526212517415182,6.109721290856161,1.0167617797851562,-3.3162644545184534
1708441312.739067,-2.1417553424835205,-1.3332005602172394,-2.526159111653463,6.109660017281332,1.0167405605316162,-3.3169999758349817
1708441312.7410731,-2.1417124271392822,-1.3332212281278153,-2.526159111653463,6.109664428025045,1.016732931137085,-3.3178568522082728
1708441312.743056,-2.1417338848114014,-1.3332256090692063,-2.526188675557272,6.109607922821798,1.0167036056518555,-3.3186283747302454
1708441312.7450445,-2.141773223876953,-1.3331755858710785,-2.526142660771505,6.109600412636556,1.01674485206604,-3.3193426767932337
1708441312.7470398,-2.1417031288146973,-1.3331636798432847,-2.526175324116842,6.10955976226882,1.0167535543441772,-3.3201234976397913
1708441312.7490172,-2.1416773796081543,-1.333169088964798,-2.526146952305929,6.109556662827291,1.0167210102081299,-3.3208075205432337
1708441312.751025,-2.141690731048584,-1.3332093071988602,-2.526146952305929,6.109497177391805,1.0167211294174194,-3.3216729799853724
1708441312.7530289,-2.14169979095459,-1.3332021993449708,-2.526179615651266,6.109452116280355,1.0167092084884644,-3.3224335352527063
1708441312.7550604,-2.1417088508605957,-1.333234579568245,-2.52616793314089,6.10953580120162,1.0166969299316406,-3.323195759450094
1708441312.7570348,-2.1416757106781006,-1.3331932437470932,-2.526184145604269,6.109362709313192,1.0167211294174194,-3.3240538279162806
1708441312.7590487,-2.1416218280792236,-1.3331558418324967,-2.526179854069845,6.10939251163558,1.0167460441589355,-3.324766461049215
1708441312.761029,-2.1415719985961914,-1.3332111698440094,-2.526118342076437,6.109390842705526,1.0166882276535034,-3.325540606175558
1708441312.7630858,-2.1416146755218506,-1.3331814420274277,-2.526151482258932,6.1093506691749475,1.0166566371917725,-3.326379362736837
1708441312.7650647,-2.1416351795196533,-1.3332022589496155,-2.526113812123434,6.109375941544332,1.016676425933838,-3.327085081730978
1708441312.7670605,-2.1415810585021973,-1.3331932437470932,-2.526109282170431,6.109244453697958,1.0166598558425903,-3.3278642336474817
1708441312.769029,-2.1415696144104004,-1.3331484508565445,-2.5260899702655237,6.109196650772848,1.0166194438934326,-3.3286777178393763
1708441312.771043,-2.1416079998016357,-1.3331241768649598,-2.5261557737933558,6.109189259796896,1.0166728496551514,-3.329461161290304
1708441312.7730417,-2.1415581703186035,-1.3331408959678193,-2.5261767546283167,6.1091980812843225,1.0166032314300537,-3.330271069203512
1708441312.7750387,-2.1415581703186035,-1.333182544713356,-2.5261271635638636,6.109150159149923,1.0166610479354858,-3.331104580556051
1708441312.7770875,-2.1415183544158936,-1.3331661832383652,-2.5261767546283167,6.109147178917684,1.016640067100525,-3.331846300755636
1708441312.7790601,-2.141530752182007,-1.333161787395813,-2.5261226336108606,6.10906087139205,1.016635775566101,-3.3326261679278772
1708441312.7810464,-2.1414742469787598,-1.3331212115338822,-2.5260987917529505,6.109087574272909,1.0166194438934326,-3.3334007898913782
1708441312.783016,-2.1414661407470703,-1.333161787395813,-2.52613073984255,6.109030711441793,1.0166696310043335,-3.334217373524801
1708441312.7850487,-2.1414990425109863,-1.3331781488708039,-2.5261064211474817,6.108999240189352,1.0166653394699097,-3.335114304219381
1708441312.7870152,-2.1414921283721924,-1.3330796968987961,-2.5261152426349085,6.109008180886068,1.016607642173767,-3.3358433882342737
1708441312.7890592,-2.14144229888916,-1.3331049245646973,-2.5261240641223353,6.108897554665365,1.0166163444519043,-3.3366881052600306
1708441312.7910497,-2.1414308547973633,-1.3331212860396882,-2.5260871092425745,6.108911025315084,1.0166325569152832,-3.337524477635519
1708441312.79302,-2.141435384750366,-1.3330960732749482,-2.5260825792895716,6.108912694245138,1.016611933708191,-3.3382983843432825
1708441312.7950566,-2.1414105892181396,-1.3330677461675187,-2.5261033217059534,6.10888837555007,1.016592264175415,-3.3391874472247522
1708441312.7970347,-2.14139461517334,-1.3331301522305985,-2.5261240641223353,6.108844029694357,1.016648769378662,-3.340067211781637
1708441312.7990274,-2.1414151191711426,-1.3330602806857605,-2.5260618368731897,6.108734833985128,1.0166206359863281,-3.3408787886248987
1708441312.8010607,-2.1413538455963135,-1.333072231417038,-2.526128594075338,6.10867332199172,1.0166250467300415,-3.341705862675802
1708441312.8030214,-2.141374349594116,-1.3331137907556077,-2.5260945002185267,6.108699071198263,1.0165878534317017,-3.3425169626819056
1708441312.8050668,-2.1413471698760986,-1.3330973994782944,-2.5261033217059534,6.10863887050704,1.0165711641311646,-3.343348805104391
1708441312.8070688,-2.141331195831299,-1.3330722612193604,-2.5261529127704065,6.10862289646224,1.0166009664535522,-3.344137493764059
1708441312.8090417,-2.141310930252075,-1.3330722165158768,-2.52614933649172,6.108529794007101,1.0166171789169312,-3.344978157673971
1708441312.8110745,-2.141319751739502,-1.3330153834870835,-2.526100222264425,6.1085641262824915,1.016608476638794,-3.3457732836352747
1708441312.8130507,-2.141303777694702,-1.3330825132182618,-2.5260749498950403,6.108565556793966,1.0165756940841675,-3.346567455922262
1708441312.8150914,-2.1413040161132812,-1.3330572259477158,-2.5260959307300013,6.1085466025169275,1.016605257987976,-3.34735352197756
1708441312.8170552,-2.1412596702575684,-1.333057240848877,-2.526104752217428,6.10850607135848,1.0165965557098389,-3.3481364885913294
1708441312.8190494,-2.141242742538452,-1.3330483895591279,-2.526067558919088,6.108391153603353,1.016608476638794,-3.349036518727438
1708441312.82106,-2.1412267684936523,-1.3330706369927903,-2.52611214319338,6.108371484070577,1.0165724754333496,-3.3498640696154993
1708441312.823073,-2.141197443008423,-1.3330168736032029,-2.5260749498950403,6.108368384629049,1.0165886878967285,-3.350671116505758
1708441312.8250642,-2.141240358352661,-1.3330409091762085,-2.5260871092425745,6.108353602677145,1.0165724754333496,-3.3515246550189417
1708441312.8270466,-2.14123797416687,-1.3329585653594513,-2.5261197725879114,6.108284818917074,1.0165603160858154,-3.3523176352130335
1708441312.8290846,-2.141162395477295,-1.3330498349717637,-2.5260871092425745,6.108262526779928,1.016559362411499,-3.3531840483294886
1708441312.831116,-2.1412243843078613,-1.3329959076694031,-2.526034657155172,6.108238327294149,1.0165681838989258,-3.353941027318136
1708441312.8330848,-2.1411545276641846,-1.3330375862172623,-2.526083771382467,6.108196365624227,1.0165646076202393,-3.3547330538379114
1708441312.8350685,-2.1410887241363525,-1.3330137592605134,-2.5260255972491663,6.108169901161947,1.0165811777114868,-3.35555607477297
1708441312.837044,-2.1411519050598145,-1.3329806935838242,-2.526084009801046,6.108114230423727,1.0165681838989258,-3.3563159147845667
1708441312.8391087,-2.1411449909210205,-1.3329885464957734,-2.52608830133547,6.108052003174581,1.0165603160858154,-3.357126299534933
1708441312.841048,-2.1411495208740234,-1.3329762530377884,-2.52608830133547,6.1080500958259485,1.016593098640442,-3.3579373995410364
1708441312.8430219,-2.1411287784576416,-1.3329763275435944,-2.526067558919088,6.108059036522665,1.0165483951568604,-3.3586981932269495
1708441312.8450332,-2.1411333084106445,-1.3329806935838242,-2.526050869618551,6.107966530113973,1.0165811777114868,-3.3595202604876917
1708441312.8470292,-2.1410679817199707,-1.3329780262759705,-2.526067558919088,6.1079304096992395,1.0165441036224365,-3.3602972666369837
1708441312.8490202,-2.14105486869812,-1.3329806935838242,-2.526034657155172,6.10788248756484,1.0165396928787231,-3.3610878626452845
1708441312.851055,-2.1410725116729736,-1.3330019277385254,-2.5260587374316614,6.107875096588888,1.0165308713912964,-3.3619142214404505
1708441312.8530228,-2.1410610675811768,-1.3330270510962983,-2.526059691105978,6.107805001526632,1.016515851020813,-3.362772528325216
1708441312.8550432,-2.14103627204895,-1.3330019426396866,-2.526072088872091,6.1078258631523035,1.0165321826934814,-3.363504711781637
1708441312.857046,-2.1409616470336914,-1.332977981572487,-2.526059691105978,6.10772870758132,1.0165278911590576,-3.36432391801943
1708441312.859039,-2.1409997940063477,-1.3330107045224686,-2.526072088872091,6.107795822411337,1.0165321826934814,-3.365087095891134
1708441312.8610535,-2.1409964561462402,-1.3330137592605134,-2.526050869618551,6.107734787255087,1.016545295715332,-3.365922753010885
1708441312.863063,-2.140984058380127,-1.3329705458930512,-2.526022497807638,6.107748138695516,1.0165855884552002,-3.3667615095721644
1708441312.8650446,-2.1409566402435303,-1.3329571795514603,-2.526055399571554,6.107697355538168,1.016540765762329,-3.3675017992602747
1708441312.8670647,-2.1409566402435303,-1.3328825545362015,-2.5260313192950647,6.107681023865499,1.0165483951568604,-3.3683109919177454
1708441312.8690643,-2.140915632247925,-1.3329616498998185,-2.526076380406515,6.107624041825094,1.0165483951568604,-3.369101111088888
1708441312.8710861,-2.140911340713501,-1.332982526426651,-2.526034657155172,6.107571589737692,1.0165245532989502,-3.3699467817889612
1708441312.8730423,-2.1409316062927246,-1.3329985749772568,-2.526050869618551,6.107573139458456,1.0165364742279053,-3.3707390467273157
1708441312.8750467,-2.1409409046173096,-1.332928643827774,-2.526055399571554,6.10746597030715,1.0165364742279053,-3.3715463320361536
1708441312.8770225,-2.1409215927124023,-1.3329316985658188,-2.526083771382467,6.107479321747579,1.0165233612060547,-3.372291390095846
1708441312.879082,-2.1409337520599365,-1.3329375696233292,-2.526072088872091,6.107459533005514,1.0165289640426636,-3.3731024901019495
1708441312.8810334,-2.1408772468566895,-1.3329661351493378,-2.526076380406515,6.107365476876058,1.0165071487426758,-3.373836342488424
1708441312.8830283,-2.1408772468566895,-1.3329691749862214,-2.5260136763202112,6.107465731888571,1.0165733098983765,-3.3745949904071253
1708441312.8850372,-2.140864849090576,-1.332949460749962,-2.526100222264425,6.107338654785909,1.016533374786377,-3.3753398100482386
1708441312.8870208,-2.1408908367156982,-1.3329839718392869,-2.526026789342062,6.1073893187339685,1.0165526866912842,-3.3760371843921106
1708441312.8890584,-2.140869379043579,-1.3329362136176606,-2.5260852018939417,6.107304203301229,1.0165364742279053,-3.3767834345446985
1708441312.891038,-2.140843391418457,-1.3329331141761322,-2.526048008595602,6.107251751213827,1.016561508178711,-3.3774684111224573
1708441312.8930082,-2.14083194732666,-1.332892583017685,-2.5260465780841272,6.1072847721870325,1.0165033340454102,-3.3781824747668665
1708441312.89505,-2.140841007232666,-1.3329048168710251,-2.526017967854635,6.107284891396322,1.0165202617645264,-3.3789342085467737
1708441312.897026,-2.14082407951355,-1.3329464358142395,-2.526017967854635,6.1072577116783044,1.0165396928787231,-3.3796923796283167
1708441312.8990169,-2.140850067138672,-1.332937554722168,-2.526017967854635,6.10726677158431,1.016484022140503,-3.380423132573263
1708441312.9010437,-2.1408207416534424,-1.3329034608653565,-2.526048008595602,6.107177364617147,1.016491413116455,-3.3810699621783655
1708441312.9030182,-2.1408252716064453,-1.3329582971385499,-2.526026789342062,6.107139813690939,1.0165526866912842,-3.3818214575396937
1708441312.9050517,-2.1407957077026367,-1.3329048615745087,-2.526039187108175,6.107157695084371,1.016545295715332,-3.3825309912311
1708441312.9070797,-2.140779972076416,-1.3328926128200074,-2.526026789342062,6.107121693878927,1.016507625579834,-3.383200709019796
1708441312.9090521,-2.1408138275146484,-1.3329048615745087,-2.526022497807638,6.107053148537435,1.016495943069458,-3.3838961760150355
1708441312.9110038,-2.140723466873169,-1.3329794120839615,-2.5260568300830286,6.107097852021017,1.016540765762329,-3.384618107472555
1708441312.9140544,-2.1407570838928223,-1.3329226535609742,-2.526055399571554,6.107002007752218,1.0165202617645264,-3.3853028456317347
1708441312.9150352,-2.1407222747802734,-1.3328806918910523,-2.526043478642599,6.107046949654379,1.0165033340454102,-3.385976854954855
1708441312.9170763,-2.1407525539398193,-1.3328643602183838,-2.526043478642599,6.107021558075704,1.0164990425109863,-3.3866878191577356
1708441312.9190857,-2.1407525539398193,-1.3328926128200074,-2.526076380406515,6.107033479004659,1.016515851020813,-3.387353483830587
1708441312.921042,-2.140768527984619,-1.3328643602183838,-2.525985304509298,6.106990086823263,1.0165245532989502,-3.3879905382739466
1708441312.9230664,-2.140712022781372,-1.3327871424010773,-2.5260642210589808,6.106976616173544,1.016545295715332,-3.3886802832232874
1708441312.9250534,-2.1407411098480225,-1.3328166765025635,-2.526026789342062,6.1070067761238,1.0165245532989502,-3.3892975489245813
1708441312.9270787,-2.1407535076141357,-1.3328493547490616,-2.526055399571554,6.107011306076803,1.0165202617645264,-3.390019241963522
1708441312.9290793,-2.140704870223999,-1.332833008175232,-2.526043478642599,6.106954562454977,1.0165570974349976,-3.390639607106344
1708441312.9310448,-2.140716314315796,-1.332837553029396,-2.526026789342062,6.106986987381735,1.016540765762329,-3.391371552144186
1708441312.9330714,-2.140713691711426,-1.332821176653244,-2.526067558919088,6.106917011528768,1.0165002346038818,-3.3919110933886927
1708441312.9350355,-2.140709400177002,-1.3328344535878678,-2.526043478642599,6.10693787315444,1.016507625579834,-3.392573658620016
1708441312.9370372,-2.1406679153442383,-1.3328299981406708,-2.526059691105978,6.106897699623861,1.0164990425109863,-3.3932066599475306
1708441312.939102,-2.140676736831665,-1.332792506819107,-2.526017967854635,6.106891381531515,1.0165245532989502,-3.393897358571188
1708441312.9410272,-2.140713691711426,-1.3328136664680024,-2.5260313192950647,6.106852638512411,1.016533374786377,-3.394519631062643
1708441312.9431036,-2.140711545944214,-1.332771749501564,-2.526039187108175,6.106881010323324,1.016507625579834,-3.395104710255758
1708441312.9450507,-2.1406686305999756,-1.3328300279429932,-2.526015106831686,6.10688995102004,1.0165290832519531,-3.3957553545581263
1708441312.9470432,-2.140652656555176,-1.3328508150628586,-2.526043478642599,6.10688995102004,1.0165290832519531,-3.396374050770895
1708441312.9490325,-2.1406731605529785,-1.3328014326146622,-2.526026789342062,6.1068869707878015,1.0165202617645264,-3.3969975153552454
1708441312.9510388,-2.1406683921813965,-1.3328434240869065,-2.526017967854635,6.1068869707878015,1.016495943069458,-3.397618357335226
1708441312.9530206,-2.1406776905059814,-1.3328463447145005,-2.526080910359518,6.10691117027358,1.0165364742279053,-3.398207489644186
1708441312.9550378,-2.1406617164611816,-1.3328300428441544,-2.526055399571554,6.106834876328268,1.0165164470672607,-3.398883883153097
1708441312.95703,-2.140632390975952,-1.332818092112877,-2.526017967854635,6.106851208000936,1.016512155532837,-3.3994668165790003
1708441312.9590726,-2.1406164169311523,-1.332785115843155,-2.526043478642599,6.1068259356315515,1.0165245532989502,-3.4000635782824915
1708441312.9610336,-2.1406280994415283,-1.3328256171992798,-2.52600604692568,6.106858718186178,1.0165159702301025,-3.4006174246417444
1708441312.9631119,-2.1406121253967285,-1.332773209815361,-2.5260356108294886,6.106854307442465,1.0165321826934814,-3.4012413660632532
1708441312.965111,-2.140636920928955,-1.3328211617520829,-2.526043478642599,6.106773483544149,1.0165821313858032,-3.4018479029284876
1708441312.9670877,-2.1406166553497314,-1.332850844865181,-2.526043478642599,6.106819736748495,1.016515851020813,-3.4024863878833216
1708441312.969102,-2.140634298324585,-1.3328419488719483,-2.526072088872091,6.106761681824484,1.016507625579834,-3.402991596852438
1708441312.971066,-2.140625476837158,-1.332809255724289,-2.5260523001300257,6.106815206795492,1.0165364742279053,-3.4035704771624964
1708441312.9731514,-2.1406209468841553,-1.3327806752971192,-2.526048008595602,6.10674678066329,1.0165245532989502,-3.404128138219015
1708441312.9750826,-2.140622854232788,-1.3328136515668412,-2.526010576878683,6.10678397396163,1.016545295715332,-3.4046626726733606
1708441312.9770236,-2.140559673309326,-1.3328180772117157,-2.526076380406515,6.1067436812217615,1.0165364742279053,-3.4051643053637903
1708441312.9790745,-2.1405892372131348,-1.3328389686397095,-2.526043478642599,6.106734859734335,1.0165451765060425,-3.405719820653097
1708441312.981057,-2.1406185626983643,-1.3328344535878678,-2.526055399571554,6.10672293880538,1.0164622068405151,-3.406213347111837
1708441312.98305,-2.1405892372131348,-1.3328583550504227,-2.526026789342062,6.106697428017416,1.0165526866912842,-3.4066670576678675
1708441312.985039,-2.140568733215332,-1.3328136217645188,-2.526022497807638,6.10669885852889,1.0165646076202393,-3.4071813265429896
1708441312.9870908,-2.1405279636383057,-1.3328508001616974,-2.526055399571554,6.106716739922323,1.0165115594863892,-3.4076483885394495
1708441312.9891543,-2.1405653953552246,-1.3327940267375489,-2.526050869618551,6.106682407646932,1.0165483951568604,-3.40816837946047
1708441312.9910212,-2.140521287918091,-1.332796962266304,-2.526050869618551,6.106670129090109,1.0165603160858154,-3.408671204243795
1708441312.9930167,-2.1405255794525146,-1.3328704845956345,-2.5260642210589808,6.106667268067159,1.0165483951568604,-3.4091623465167444
1708441312.9950266,-2.140570878982544,-1.3328539294055481,-2.526055399571554,6.106671678810873,1.0165646076202393,-3.4096789995776575
1708441312.9970734,-2.1405506134033203,-1.3328014028123398,-2.526092831288473,6.106647836952963,1.0165396928787231,-3.410132948552267
1708441312.9990487,-2.140493869781494,-1.332874984746315,-2.526050869618551,6.106615173607626,1.0165724754333496,-3.41062838235964
1708441313.0010264,-2.1404600143432617,-1.332846300011017,-2.5260465780841272,6.106586801796713,1.0165278911590576,-3.4111045042621058
1708441313.0030127,-2.140486001968384,-1.332818181519844,-2.526050869618551,6.106600272446432,1.0165724754333496,-3.4114494959460657
1708441313.0050287,-2.1404292583465576,-1.3328705442002793,-2.52611214319338,6.10651324966506,1.0165886878967285,-3.4119468371020716
1708441313.0070395,-2.1404054164886475,-1.332858295445778,-2.5261076132403772,6.106576192169943,1.0166206359863281,-3.4123685995685022
1708441313.009066,-2.140385150909424,-1.3328389388373871,-2.526083771382467,6.1065266011054895,1.016605257987976,-3.4128318468676966
1708441313.011063,-2.14034104347229,-1.3328419488719483,-2.5260825792895716,6.106540071755209,1.016621470451355,-3.413255039845602
1708441313.013076,-2.1403419971466064,-1.3328286868384858,-2.5261240641223353,6.106470095902242,1.0166206359863281,-3.4136908690081995
1708441313.0150633,-2.1402764320373535,-1.3328582805446167,-2.5260749498950403,6.106434094696798,1.016648769378662,-3.4141183535205286
1708441313.017086,-2.1402456760406494,-1.3328777116588135,-2.5261240641223353,6.106464135437765,1.0166479349136353,-3.414577309285299
1708441313.0190995,-2.140230655670166,-1.3328865331462403,-2.5261152426349085,6.10645209529952,1.0166566371917725,-3.4149346987353724
1708441313.021212,-2.140152931213379,-1.332845003609993,-2.5261603037463587,6.1063833115394495,1.016676425933838,-3.415403191243307
1708441313.02307,-2.140158176422119,-1.3329226535609742,-2.526135031376974,6.106347310334005,1.016716718673706,-3.4158077875720423
1708441313.025053,-2.140094518661499,-1.3329522621682663,-2.526175324116842,6.106299388199606,1.0167574882507324,-3.416182343159811
1708441313.027057,-2.140056610107422,-1.3328940731338044,-2.5261917749988,6.106292474060812,1.0167317390441895,-3.41656738916506
1708441313.0290785,-2.1400246620178223,-1.3328926128200074,-2.5261574427234095,6.106178509980001,1.0167930126190186,-3.416959349309103
1708441313.0310946,-2.139981508255005,-1.3329300594380875,-2.526220146809713,6.106245982437887,1.0167930126190186,-3.417306963597433
1708441313.0331256,-2.1399495601654053,-1.3329824966243287,-2.5261946360217493,6.1061442969139,1.0167921781539917,-3.4176369349109095
1708441313.0350797,-2.1399312019348145,-1.332977981572487,-2.526242796574728,6.106102335243978,1.0168371200561523,-3.4180200735675257
1708441313.0370665,-2.139829397201538,-1.3330433529666443,-2.526308838521139,6.106112825661459,1.0169024467468262,-3.4183500448810022
1708441313.0390816,-2.1397950649261475,-1.333100290303566,-2.526308838521139,6.106093156128683,1.016859769821167,-3.4187570253955286
1708441313.0410604,-2.13975191116333,-1.3330375415137787,-2.5263312498675745,6.106008159905233,1.0169222354888916,-3.419013802205221
1708441313.0430698,-2.1396589279174805,-1.3330153834870835,-2.5263386408435267,6.105972158699789,1.0169625282287598,-3.419393841420309
1708441313.0450485,-2.1395645141601562,-1.3330647361329575,-2.526400152836935,6.105924594193258,1.0169779062271118,-3.4197545687304896
1708441313.0470574,-2.139559268951416,-1.3330722165158768,-2.526423994694845,6.1058260081108,1.017005205154419,-3.4200740496264856
1708441313.0490336,-2.1394762992858887,-1.3331154149821778,-2.526436154042379,6.105743396073141,1.0170458555221558,-3.4203596750842493
1708441313.051047,-2.1393868923187256,-1.3331858676723023,-2.5264959971057337,6.105707871704855,1.0170786380767822,-3.420689407979147
1708441313.0530276,-2.1393189430236816,-1.333229125743248,-2.5264840761767786,6.105686652451315,1.0171310901641846,-3.4209919611560267
1708441313.0550141,-2.1392154693603516,-1.333200530414917,-2.526520077382223,6.105537402420797,1.017146110534668,-3.4213128725634974
1708441313.057053,-2.1391327381134033,-1.3333022755435486,-2.5265770594226282,6.105495440750875,1.017128825187683,-3.421541754399435
1708441313.0590205,-2.1390442848205566,-1.333281473522522,-2.5265756289111536,6.105378973274984,1.0171900987625122,-3.4218981901751917
1708441313.0610216,-2.13893985748291,-1.3332920384458085,-2.526656452809469,6.105237114220419,1.0172336101531982,-3.4222233931170862
1708441313.063055,-2.1388516426086426,-1.333418683414795,-2.5266686121570032,6.105124938278951,1.017290472984314,-3.422431770955221
1708441313.0650434,-2.138721227645874,-1.3333559793284913,-2.5266881624804896,6.105070817261495,1.0173307657241821,-3.4228223005877894
1708441313.0678947,-2.138608932495117,-1.3333681386760254,-2.526707712803976,6.104954349785604,1.0173377990722656,-3.423044506703512
1708441313.069078,-2.138423204421997,-1.3334695112756272,-2.526773516331808,6.1048587439353845,1.0174437761306763,-3.4232636133777063
1708441313.0710647,-2.1383087635040283,-1.333439664249756,-2.5268412272082728,6.10476433017806,1.0174750089645386,-3.4235764185534876
1708441313.0730357,-2.138148546218872,-1.3334875863841553,-2.5268471876727503,6.104586827545919,1.0175678730010986,-3.423781458531515
1708441313.075045,-2.1379785537719727,-1.3335563701442261,-2.5269127527820032,6.104450809746542,1.01760733127594,-3.4240451494800013
1708441313.0770862,-2.137873888015747,-1.3336056631854554,-2.526984993611471,6.104328143387594,1.0176677703857422,-3.4243584314929407
1708441313.079073,-2.137683868408203,-1.3336189550212403,-2.5270491282092493,6.104217278748312,1.0177159309387207,-3.424556080495016
1708441313.0810337,-2.137526035308838,-1.333644376402237,-2.5270572344409388,6.104057419091024,1.0177879333496094,-3.4248152414904993
1708441313.0830858,-2.137338399887085,-1.3336790365031739,-2.5271318594561976,6.10390197017745,1.0178238153457642,-3.4250646273242396
1708441313.0850346,-2.137155055999756,-1.3337073040059586,-2.5271843115436,6.103746402054586,1.0178874731063843,-3.4252854029284876
1708441313.0870812,-2.1369869709014893,-1.3338044595769425,-2.5272324720965784,6.103567230492391,1.0179519653320312,-3.425478760396139
1708441313.0890555,-2.1367757320404053,-1.3338182282498856,-2.52737003961672,6.103399503021993,1.0180566310882568,-3.425703827534811
1708441313.0910208,-2.136544704437256,-1.3339359921268006,-2.5273731390582483,6.103163468628683,1.018148422241211,-3.425955359135763
1708441313.0930185,-2.136345386505127,-1.3338764023831864,-2.5274198690997522,6.102963316231527,1.0182533264160156,-3.426081959401266
1708441313.0950217,-2.136120557785034,-1.3339495968869706,-2.527569595967428,6.102715241699972,1.0183007717132568,-3.4263020197497767
1708441313.0970337,-2.135878086090088,-1.3340713542750855,-2.527587954198019,6.1024969694908044,1.0184216499328613,-3.4264729658709925
1708441313.0990388,-2.1356377601623535,-1.3341106337359925,-2.5276644865619105,6.102231609612264,1.0184766054153442,-3.426636282597677
1708441313.1010675,-2.13539457321167,-1.3341213029674073,-2.527748409901754,6.102016675263204,1.0186010599136353,-3.4268279711352747
1708441313.1030366,-2.135122776031494,-1.3342522245696564,-2.5278683344470423,6.101761567383566,1.0186896324157715,-3.4269588629352015
1708441313.1050372,-2.1348958015441895,-1.3342290681651612,-2.5279205481158655,6.1016132710273645,1.0188381671905518,-3.4271681944476526
1708441313.1070619,-2.1346077919006348,-1.3343465787223359,-2.5279956499682825,6.101353275566854,1.0189135074615479,-3.427328411732809
1708441313.109062,-2.134402275085449,-1.3343694818070908,-2.528125826512472,6.101064789086141,1.019026279449463,-3.427490774785177
1708441313.1110284,-2.134072780609131,-1.3344944727471848,-2.5281758944140833,6.100777971535482,1.0191792249679565,-3.42760140100588
1708441313.1131916,-2.1338021755218506,-1.3344964993051072,-2.5282610098468226,6.100502836495199,1.0192874670028687,-3.427831474934713
1708441313.1150885,-2.133469581604004,-1.3345757287791749,-2.528360191975729,6.100161778717794,1.0193912982940674,-3.427946154271261
1708441313.117036,-2.133183240890503,-1.3347007048181077,-2.52846342722048,6.099910723954,1.0195319652557373,-3.428093973790304
1708441313.119071,-2.1329030990600586,-1.3348054599813004,-2.5285850206958216,6.099638688355245,1.0196524858474731,-3.4282708803759974
1708441313.1210794,-2.132564067840576,-1.3348073971322556,-2.5286927858935755,6.099420535355367,1.0197967290878296,-3.4283815065967005
1708441313.1230571,-2.1322999000549316,-1.3349530112794419,-2.5288010279284876,6.099001991539755,1.0199124813079834,-3.4285016695605677
1708441313.1250439,-2.1319940090179443,-1.3350485426238556,-2.5288999716388147,6.098744737892904,1.0200773477554321,-3.4286540190326136
1708441313.1270332,-2.1316208839416504,-1.3351150912097474,-2.529011313115255,6.098368632584371,1.0202140808105469,-3.4287667910205286
1708441313.1290507,-2.1312689781188965,-1.3352150631001969,-2.5291486422168177,6.098006117134847,1.020325779914856,-3.4288249651538294
1708441313.131032,-2.1308789253234863,-1.3352824610522767,-2.52931791940798,6.097643244057455,1.0204371213912964,-3.4289074579821985
1708441313.1330414,-2.130481719970703,-1.3353943538716813,-2.529470984135763,6.09722005107955,1.0206351280212402,-3.4290078322040003
1708441313.1350749,-2.1301109790802,-1.3354942363551636,-2.5295701662646692,6.096886622696676,1.0207955837249756,-3.4291370550738733
1708441313.1370716,-2.129733085632324,-1.3355441850474854,-2.5297096411334437,6.096511828690328,1.0208944082260132,-3.4291957060443323
1708441313.1390288,-2.129349708557129,-1.3356647354415436,-2.529886547719137,6.096117007523336,1.0210797786712646,-3.4293091932879847
1708441313.141122,-2.1289095878601074,-1.3358095002225419,-2.5299764315234583,6.095761406212606,1.0212199687957764,-3.429401938115255
1708441313.1430244,-2.1285440921783447,-1.3359324646047135,-2.530170265828268,6.095345127373495,1.0213673114776611,-3.4294727484332483
1708441313.1450844,-2.128072500228882,-1.3360402298024674,-2.530264441167013,6.094957220345297,1.0215851068496704,-3.4295156637774866
1708441313.1470525,-2.127617597579956,-1.3361850094846268,-2.5304411093341272,6.094471442490377,1.0217336416244507,-3.4296324888812464
1708441313.1490374,-2.127112627029419,-1.3363032054952164,-2.530592981969015,6.094022738724508,1.0219051837921143,-3.42965537706484
1708441313.1510344,-2.126704216003418,-1.3364401024631043,-2.5307775179492396,6.0935553191001794,1.0221303701400757,-3.4296627680407923
1708441313.1532354,-2.126227617263794,-1.3365225356868287,-2.5309091250049036,6.09315441825942,1.0222853422164917,-3.4297764937030237
1708441313.155026,-2.1257424354553223,-1.3366247725537796,-2.531060759221212,6.0926344273384,1.0224823951721191,-3.42979866663088
1708441313.1570375,-2.1252171993255615,-1.3367738288692017,-2.5312660376178187,6.092243778496542,1.0226880311965942,-3.4297974745379847
1708441313.1590323,-2.1247429847717285,-1.3369305294803162,-2.531433645878927,6.091693627625265,1.0229088068008423,-3.429866377507345
1708441313.1610184,-2.1242024898529053,-1.337089182143547,-2.531621519719259,6.091163146286764,1.0230921506881714,-3.429910961781637
1708441313.163054,-2.1236846446990967,-1.3372383278659363,-2.5317938963519495,6.090614425926962,1.0233700275421143,-3.4299801031695765
1708441313.1650715,-2.123141050338745,-1.3374219846776505,-2.5320187250720423,6.090085375099935,1.0236026048660278,-3.429929558430807
1708441313.1670654,-2.122602701187134,-1.3375492256930848,-2.5322256723987024,6.089547264366903,1.0238224267959595,-3.429936949406759
1708441313.1690638,-2.1220531463623047,-1.3376721006682892,-2.532377306615011,6.088937389641561,1.02399742603302,-3.430032555256979
1708441313.1711848,-2.121476888656616,-1.3378760081580658,-2.532597605382101,6.0884156105811975,1.0242056846618652,-3.4299808184253138
1708441313.1730533,-2.120898485183716,-1.3380330067924042,-2.53281814256777,6.087877857476034,1.0244343280792236,-3.429981533681051
1708441313.1750238,-2.1203038692474365,-1.3382032674602051,-2.5330010096179407,6.087230551033773,1.0246849060058594,-3.4299519697772425
1708441313.1770208,-2.1197006702423096,-1.3383216124824067,-2.5331676642047327,6.086656319886007,1.0248959064483643,-3.4299610296832483
1708441313.1790497,-2.1190812587738037,-1.338472456937172,-2.5334582964526575,6.086039292603292,1.0251362323760986,-3.429965321217672
1708441313.18101,-2.1184561252593994,-1.3386652630618592,-2.5336490313159388,6.0853967545326135,1.0253690481185913,-3.4299400488482874
1708441313.183041,-2.117828845977783,-1.3388687235168,-2.533909861241476,6.084729778557577,1.025649905204773,-3.4299772421466272
1708441313.1850312,-2.117157220840454,-1.3390880090049286,-2.534149710332052,6.084052789002218,1.0259547233581543,-3.429913345967428
1708441313.187226,-2.116497039794922,-1.3392512959292908,-2.5343852678882044,6.083423602371969,1.026181936264038,-3.429925266896383
1708441313.1890168,-2.11580491065979,-1.3394126159003754,-2.5345969835864466,6.082748520165243,1.0264103412628174,-3.4298856894122522
1708441313.1910424,-2.1151740550994873,-1.3396879446557541,-2.5348621050464075,6.082110631256857,1.026707649230957,-3.4298129717456263
1708441313.1930094,-2.1144468784332275,-1.3398296546987076,-2.535093132649557,6.081463086396017,1.0269765853881836,-3.4297812620746058
1708441313.1950164,-2.1137571334838867,-1.3400776249221344,-2.53532845178713,6.080693709641256,1.0272574424743652,-3.4297810236560267
1708441313.1970391,-2.1130053997039795,-1.3402645301869889,-2.5356090704547327,6.080016600876608,1.0274971723556519,-3.429742161427633
1708441313.1990283,-2.112267017364502,-1.3404260736754914,-2.535893503819601,6.079242336540975,1.02781081199646,-3.4296587149249476
1708441313.2010336,-2.1115262508392334,-1.3406857711127778,-2.5361531416522425,6.078541147499838,1.0280905961990356,-3.42965275446047
1708441313.2030334,-2.1107513904571533,-1.340938777928688,-2.5364423433886927,6.077832209854879,1.028464436531067,-3.4296332041369837
1708441313.205056,-2.110008716583252,-1.3411822629025956,-2.5366318861590784,6.07714461067275,1.0287563800811768,-3.4295759836779993
1708441313.2070553,-2.109266519546509,-1.3413677376559754,-2.5369659105883997,6.076359975128927,1.0290555953979492,-3.4295535723315638
1708441313.2090642,-2.1084723472595215,-1.3415827316096802,-2.537234131489889,6.075614082604208,1.029348611831665,-3.4295461813556116
1708441313.2110476,-2.1076443195343018,-1.3418550950339814,-2.537529770527975,6.0747800944145105,1.0296928882598877,-3.429502550755636
1708441313.2130353,-2.106807231903076,-1.3421387833407898,-2.5378297011004847,6.074013101845541,1.0300379991531372,-3.4294095675097864
1708441313.2150373,-2.1059887409210205,-1.342378245001175,-2.538158718739645,6.0730934021766565,1.0303822755813599,-3.4293740431415003
1708441313.217047,-2.1051344871520996,-1.3425797087005158,-2.538426462803976,6.072358476906576,1.030784249305725,-3.4292691389666956
1708441313.219059,-2.104271411895752,-1.342896656399109,-2.538708511983053,6.071490156441488,1.0310838222503662,-3.429213587437765
1708441313.2210817,-2.103426456451416,-1.3431014281562348,-2.539079491292135,6.070679652481832,1.0314446687698364,-3.429169003163473
1708441313.2230525,-2.1025118827819824,-1.343388245706894,-2.5393126646624964,6.06978319862441,1.0317976474761963,-3.42909819284548
1708441313.2250547,-2.1016502380371094,-1.343681351547577,-2.539629046116964,6.068859565048971,1.0321179628372192,-3.4290218989001673
1708441313.2270706,-2.1007559299468994,-1.3439893585494538,-2.539940897618429,6.068081486016073,1.032499074935913,-3.428891960774557
1708441313.2290692,-2.0998892784118652,-1.344203071003296,-2.5402525107013147,6.067275035172262,1.0328561067581177,-3.428849522267477
1708441313.2310567,-2.0989830493927,-1.3444721561721344,-2.540560309086935,6.06647418716506,1.0331922769546509,-3.428753677998678
1708441313.2330334,-2.098142385482788,-1.3448219758323212,-2.5408886114703577,6.065545069962301,1.0335419178009033,-3.4286609331714075
1708441313.2350647,-2.0972347259521484,-1.345107303266861,-2.5412333647357386,6.0646917698676965,1.0339014530181885,-3.4285948912249964
1708441313.2370262,-2.096301555633545,-1.3453690272620697,-2.5416229406939905,6.063710558205404,1.0343165397644043,-3.428441111241476
1708441313.239029,-2.0953311920166016,-1.3456631165793915,-2.541994873677389,6.062796938210287,1.0346882343292236,-3.428312126790182
1708441313.2410486,-2.094369888305664,-1.34591896951709,-2.5423055330859583,6.061901318817892,1.035121202468872,-3.428295437489645
1708441313.2430189,-2.093416213989258,-1.3462730807117005,-2.5426297823535364,6.0609402535255334,1.0355348587036133,-3.4280932585345667
1708441313.2450438,-2.0924506187438965,-1.3465704780868073,-2.5429654757129114,6.060037243157186,1.0358577966690063,-3.42798883119692
1708441313.2470458,-2.0915017127990723,-1.346833960419037,-2.543262783681051,6.059149610787191,1.0362390279769897,-3.4279313723193567
1708441313.2490225,-2.090562582015991,-1.3471745711616059,-2.5436154047595423,6.058157789498129,1.0365920066833496,-3.427826706563131
1708441313.251031,-2.0895588397979736,-1.347431631093361,-2.543988291417257,6.057179200440206,1.0370134115219116,-3.427690092717306
1708441313.2530327,-2.08858060836792,-1.3477662366679688,-2.5443976561175745,6.056206452637472,1.0374101400375366,-3.4275289217578333
1708441313.2550776,-2.087524652481079,-1.3480816048434754,-2.54480225244631,6.055226671486654,1.0377938747406006,-3.427462879811422
1708441313.2570457,-2.08646297454834,-1.348457009797432,-2.5451787153827112,6.054099309235372,1.038321614265442,-3.427297894154684
1708441313.2590318,-2.0854296684265137,-1.3487963539412995,-2.5455458799945276,6.053073394089498,1.0387294292449951,-3.4272034803973597
1708441313.2610571,-2.0844218730926514,-1.3491473954967041,-2.5459254423724573,6.052026378899374,1.0391656160354614,-3.427047316228048
1708441313.2630224,-2.083320140838623,-1.3495226067355652,-2.546276871358053,6.050979006081381,1.0395864248275757,-3.4269028345691126
1708441313.2650414,-2.082244873046875,-1.3498201829246064,-2.5467382113086146,6.0498870489890955,1.0399504899978638,-3.4267988840686243
1708441313.267037,-2.0811262130737305,-1.3502054971507569,-2.5470638910876673,6.048858392029562,1.0404131412506104,-3.426638905202047
1708441313.2690418,-2.080066442489624,-1.3505792182734986,-2.547497097645895,6.047827589302816,1.040772795677185,-3.4264817873584192
1708441313.2710886,-2.0789647102355957,-1.3508349818042298,-2.547891680394308,6.046721088677206,1.0412296056747437,-3.426359001790182
1708441313.2730155,-2.0778000354766846,-1.3512950402549286,-2.5483699480639856,6.0456769345100305,1.041752815246582,-3.4262388388263147
1708441313.275042,-2.0766801834106445,-1.3517121535590668,-2.5487855116473597,6.044548022537985,1.042229413986206,-3.4261191526996058
1708441313.2770164,-2.0754778385162354,-1.352053002720215,-2.54917556444277,6.043415057450094,1.0426651239395142,-3.4259970823871058
1708441313.2790413,-2.074326276779175,-1.3524446946433564,-2.5496893564807337,6.042217004090109,1.0430735349655151,-3.4258537928210657
1708441313.2810738,-2.0730931758880615,-1.3528049153140564,-2.5500803629504603,6.041084873467245,1.043506383895874,-3.4256818930255335
1708441313.2830641,-2.0719592571258545,-1.3532055479339142,-2.5505006949054163,6.040022361069479,1.0439848899841309,-3.425521437321798
1708441313.285076,-2.0708117485046387,-1.353661225443222,-2.5509606043445032,6.038847195893087,1.0444412231445312,-3.425415102635519
1708441313.2870436,-2.0695455074310303,-1.3540724378875275,-2.5513973871814173,6.037668573647299,1.0448493957519531,-3.425201479588644
1708441313.2890313,-2.068371057510376,-1.3544741433909913,-2.5518680254565638,6.0364805338676355,1.0453180074691772,-3.4250128904925745
1708441313.291052,-2.067035675048828,-1.3548884254745026,-2.552340571080343,6.035262095719137,1.045864462852478,-3.4249146620379847
1708441313.2930284,-2.06577467918396,-1.3553398710540314,-2.5528038183795374,6.034013139992513,1.0463696718215942,-3.4246977011310022
1708441313.2950547,-2.0645923614501953,-1.3557567161372681,-2.5532596747027796,6.03278015831069,1.0468660593032837,-3.424558703099386
1708441313.2970245,-2.063295602798462,-1.3562320929816742,-2.553755585347311,6.031573283463278,1.0473545789718628,-3.4243863264666956
1708441313.299028,-2.062047243118286,-1.3566507560065766,-2.554187599812643,6.030360924988546,1.0478429794311523,-3.4242096582995813
1708441313.3010576,-2.060781717300415,-1.3570962411216279,-2.5547123591052454,6.02906762340621,1.048279047012329,-3.4240594545947474
1708441313.303037,-2.059457778930664,-1.3575189274600525,-2.5551231543170374,6.02777789810256,1.0487403869628906,-3.4238958994494837
1708441313.30505,-2.058075428009033,-1.3579971951297303,-2.555636231099264,6.026481616287985,1.0492136478424072,-3.42371637025942
1708441313.3070438,-2.056762933731079,-1.3584352296641846,-2.556119982396261,6.025141823082723,1.0497316122055054,-3.4234493414508265
1708441313.3090563,-2.055363655090332,-1.3589224231294175,-2.556619469319479,6.023724067002096,1.0503350496292114,-3.423319403325216
1708441313.311072,-2.053982973098755,-1.3594512802413483,-2.557107750569479,6.02233515956954,1.0509272813796997,-3.423135582600729
1708441313.3130364,-2.0526270866394043,-1.3598923248103638,-2.5576260725604456,6.02097378948287,1.0514508485794067,-3.422943655644552
1708441313.315062,-2.051240921020508,-1.3603408497622986,-2.5581093470202845,6.019550311356344,1.0519880056381226,-3.422826115285055
1708441313.3170466,-2.0498464107513428,-1.3608161073974152,-2.55863863626589,6.018152105599203,1.0524448156356812,-3.422518316899435
1708441313.319045,-2.0485048294067383,-1.3612618309310456,-2.5591183344470423,6.016792881279745,1.0529866218566895,-3.4223814646350306
1708441313.3210614,-2.047067880630493,-1.3616979581168671,-2.5596419016467493,6.0153400776679895,1.0534623861312866,-3.422180954610006
1708441313.323051,-2.0455620288848877,-1.3622440260699769,-2.560154740010397,6.013981449394979,1.0540776252746582,-3.4219327608691614
1708441313.325049,-2.0441009998321533,-1.3627669972232361,-2.5606539885150355,6.01244484165267,1.0546294450759888,-3.421760384236471
1708441313.3270388,-2.0426197052001953,-1.3632752162269135,-2.5612383524524134,6.010956632881918,1.0551743507385254,-3.421504084263937
1708441313.3290205,-2.041138172149658,-1.363832787876465,-2.5617719332324427,6.009432542115011,1.0557677745819092,-3.421317164097921
1708441313.331106,-2.0396499633789062,-1.3643046778491517,-2.5622544924365442,6.007939803391256,1.0563406944274902,-3.421077076588766
1708441313.3330512,-2.0382018089294434,-1.364799754028656,-2.562782589589254,6.0064560053642175,1.0568368434906006,-3.420866076146261
1708441313.3350756,-2.0366709232330322,-1.3652928334525605,-2.5633655230151575,6.0049524185951135,1.0573415756225586,-3.420644823704855
1708441313.3370268,-2.0352249145507812,-1.3657996517470856,-2.5638800303088587,6.003429877548971,1.0578882694244385,-3.420490328465597
1708441313.339022,-2.0336852073669434,-1.366272197370865,-2.5643957296954554,6.001982557564535,1.0584206581115723,-3.4202783743487757
1708441313.3410368,-2.0321245193481445,-1.366795153622963,-2.564917866383688,6.000401961594381,1.058977484703064,-3.4200430552112024
1708441313.3430421,-2.030714273452759,-1.3672899168780823,-2.5654340426074427,5.998908984452047,1.059551477432251,-3.4198599497424524
1708441313.345024,-2.0291755199432373,-1.3678324085525055,-2.5660019556628626,5.997345554619589,1.0601012706756592,-3.4196890036212366
1708441313.347039,-2.0275967121124268,-1.3683840197375794,-2.5666073004352015,5.995757686882772,1.0606619119644165,-3.419419590626852
1708441313.3490226,-2.025998592376709,-1.3689251107028504,-2.567141596470968,5.994150626450338,1.0612151622772217,-3.419220511113302
1708441313.3510227,-2.0244197845458984,-1.3694390517524262,-2.567706886922018,5.992581236153402,1.0617717504501343,-3.419013325368063
1708441313.353035,-2.022836685180664,-1.3699366015246888,-2.5682335535632532,5.990878450661459,1.0623364448547363,-3.4187844435321253
1708441313.355047,-2.021228313446045,-1.3704464894584198,-2.568756643925802,5.989255893021383,1.0628777742385864,-3.418560806904928
1708441313.3570347,-2.0197184085845947,-1.3709325355342408,-2.56932503381838,5.987580048828878,1.063436508178711,-3.4183617273913782
1708441313.3590248,-2.018105983734131,-1.3714915078929444,-2.5699384848224085,5.985938179283895,1.0639772415161133,-3.4180906454669397
1708441313.3610291,-2.016477584838867,-1.371989057665207,-2.570493523274557,5.98425458648757,1.0644842386245728,-3.417866055165426
1708441313.3630288,-2.0148258209228516,-1.3725812298110505,-2.571070973073141,5.9826286909873865,1.065085530281067,-3.417659107838766
1708441313.365029,-2.013129949569702,-1.3731292647174378,-2.571618143712179,5.980903374939718,1.0657336711883545,-3.417398993168966
1708441313.367095,-2.011439561843872,-1.3736096781543274,-2.5722015539752405,5.979165661125936,1.0662524700164795,-3.417126480733053
1708441313.3690314,-2.009756326675415,-1.3741856080344697,-2.5727654139148157,5.977391707688131,1.066764235496521,-3.4169443289386194
1708441313.3710487,-2.0081052780151367,-1.3747337025455018,-2.5733545462237757,5.975664603501119,1.0673495531082153,-3.4166961351977747
1708441313.3730404,-2.0063886642456055,-1.3752772373012085,-2.5739169756518763,5.973950731545248,1.067873239517212,-3.4164324442492884
1708441313.3750436,-2.0047359466552734,-1.3758654755404969,-2.574440066014425,5.972275960236349,1.068450689315796,-3.416212860737936
1708441313.3770406,-2.003013849258423,-1.376414881353714,-2.5750113169299524,5.970556485443868,1.0689705610275269,-3.416001860295431
1708441313.3790388,-2.0012893676757812,-1.3769607853940506,-2.575658146535055,5.968806135445394,1.0695151090621948,-3.4156721274005335
1708441313.381065,-1.9995310306549072,-1.3775692892125626,-2.5761755148517054,5.96697877624587,1.0701040029525757,-3.415485207234518
1708441313.3830323,-1.9977610111236572,-1.3781083536199112,-2.5767980257617396,5.965118396073141,1.0706108808517456,-3.415196959172384
1708441313.3850644,-1.9960118532180786,-1.378666715031006,-2.577372137700216,5.963286745339193,1.07124924659729,-3.4150148073779505
1708441313.3870685,-1.9942479133605957,-1.3791971069625397,-2.5779758135425013,5.961526262551107,1.0718300342559814,-3.4147704283343714
1708441313.3890514,-1.9924304485321045,-1.3797972214272995,-2.5785606543170374,5.959714162140646,1.072373867034912,-3.414527956639425
1708441313.3910394,-1.9906920194625854,-1.3803768318942566,-2.579123322163717,5.957860576897421,1.0729100704193115,-3.4142356554614466
1708441313.3930502,-1.9888715744018555,-1.3808994752219697,-2.5797203222857874,5.955937254219808,1.07350754737854,-3.4140411059008997
1708441313.3950293,-1.9870820045471191,-1.381432981496193,-2.5803242365466517,5.95391999462203,1.074109435081482,-3.413809363042013
1708441313.3970404,-1.985206961631775,-1.3820571464351197,-2.580935541783468,5.952059137612142,1.0747146606445312,-3.413443628941671
1708441313.3990455,-1.9833647012710571,-1.382653073673584,-2.5815075079547327,5.950103747635641,1.0752733945846558,-3.41323692003359
1708441313.4010265,-1.9815007448196411,-1.383211926822998,-2.5821192900287073,5.948154556542196,1.0758004188537598,-3.413022581730978
1708441313.40302,-1.97966468334198,-1.3838512164405365,-2.5827069918261927,5.946190345078268,1.0763485431671143,-3.412757221852438
1708441313.4050176,-1.9777905941009521,-1.3844632071307679,-2.58328086534609,5.944248425751486,1.0768660306930542,-3.4124773184405726
1708441313.407097,-1.9759657382965088,-1.3849725735238572,-2.583900276814596,5.94233654716567,1.0774140357971191,-3.412229839955465
1708441313.4090607,-1.9741008281707764,-1.3855803173831482,-2.584496800099508,5.940346467285909,1.077962040901184,-3.4120026270495813
1708441313.4110582,-1.9721670150756836,-1.386204556827881,-2.5850866476642054,5.938373076706686,1.0784626007080078,-3.4117019812213343
1708441313.4130466,-1.9702625274658203,-1.3867902916720887,-2.5856903235064905,5.936310517578878,1.0790115594863892,-3.4114542643176478
1708441313.4150524,-1.9683382511138916,-1.3873349887183686,-2.586374584828512,5.934347378998556,1.0795804262161255,-3.41119629541506
1708441313.417062,-1.9664154052734375,-1.3879594516805192,-2.5869866053210657,5.932283627777853,1.0800806283950806,-3.4109564463244837
1708441313.4190478,-1.9643933773040771,-1.3885944944671174,-2.58763033548464,5.930109727173605,1.0806089639663696,-3.4107077757464808
1708441313.4210293,-1.9624545574188232,-1.3892097783139725,-2.5881860891925257,5.92801462390975,1.0811612606048584,-3.410436455403463
1708441313.423094,-1.9605088233947754,-1.389778421526291,-2.588757101689474,5.9259716151054285,1.0816491842269897,-3.4101722876178187
1708441313.4250562,-1.9585390090942383,-1.3904283505729218,-2.589348379765646,5.9238933203514,1.0821616649627686,-3.40995437303652
1708441313.4271026,-1.956539273262024,-1.3909434837153931,-2.5900211969958704,5.921678054123678,1.0827275514602661,-3.409644905720846
1708441313.4290626,-1.9545550346374512,-1.3915888530066987,-2.590611759816305,5.91953598239974,1.0831985473632812,-3.4094212690936487
1708441313.4310687,-1.9525835514068604,-1.3921713841012497,-2.5912111441241663,5.91746615150527,1.0837597846984863,-3.4091513792621058
1708441313.4330287,-1.9505685567855835,-1.3927924048951645,-2.591835085545675,5.9152493355567834,1.0843132734298706,-3.4089399019824427
1708441313.4350533,-1.9485102891921997,-1.3933927875808259,-2.5924115816699427,5.91303168514327,1.0848525762557983,-3.4086182753192347
1708441313.4370441,-1.946401596069336,-1.394021750693657,-2.59299880663027,5.910845863610067,1.0854300260543823,-3.4084118048297327
1708441313.4390674,-1.9443851709365845,-1.3947041940740128,-2.593635384236471,5.908665048867025,1.0859099626541138,-3.4081361929522913
1708441313.441052,-1.9423552751541138,-1.3952507388642807,-2.5942798296557825,5.906522023468771,1.0864298343658447,-3.4078591505633753
1708441313.443029,-1.9402953386306763,-1.39581352592025,-2.5948129335986536,5.9043816206748865,1.0869178771972656,-3.407595459614889
1708441313.4450676,-1.9382575750350952,-1.3964140576175232,-2.595452133809225,5.902252900391378,1.0874100923538208,-3.407409731541769
1708441313.4470434,-1.9361566305160522,-1.3970415455153962,-2.5960844198810022,5.899982797890463,1.0879145860671997,-3.4071226755725306
1708441313.4490194,-1.9340044260025024,-1.3976284724524994,-2.5966785589801233,5.897742378502645,1.0884195566177368,-3.406858269368307
1708441313.4510508,-1.9318689107894897,-1.3983006340316315,-2.5973063150988978,5.895442831307211,1.0890086889266968,-3.4066386858569544
1708441313.4530323,-1.929693341255188,-1.3988252741149445,-2.5979509989367884,5.893049585610189,1.0894962549209595,-3.4064162413226526
1708441313.455082,-1.9276368618011475,-1.3994774979403992,-2.5985315481769007,5.8907519457633875,1.0899966955184937,-3.406140152608053
1708441313.4570663,-1.925514578819275,-1.40009559810672,-2.599114481602804,5.888481843262472,1.0904850959777832,-3.4059208075152796
1708441313.4590611,-1.9233874082565308,-1.4006976050189515,-2.5996931234942835,5.886201727181234,1.0908958911895752,-3.4056337515460413
1708441313.4610333,-1.9212605953216553,-1.4012641322663804,-2.600316826497213,5.88391803482131,1.0913755893707275,-3.4053948561297815
1708441313.4630437,-1.9191316366195679,-1.4019096207669755,-2.600973669682638,5.881683337479391,1.0918967723846436,-3.4051883856402796
1708441313.465033,-1.9170539379119873,-1.4024136674455185,-2.601490322743551,5.87944124916152,1.0923488140106201,-3.4049065748797815
1708441313.4670599,-1.9149107933044434,-1.4030125451138993,-2.60213810602297,5.877203929215231,1.0928740501403809,-3.4046767393695276
1708441313.4690473,-1.9128015041351318,-1.4036330592683335,-2.6027184168445032,5.874947297364034,1.0933181047439575,-3.4044416586505335
1708441313.4710956,-1.9105799198150635,-1.4042233240655442,-2.6033054033862513,5.872643577843466,1.093794345855713,-3.404200855885641
1708441313.4730303,-1.9084217548370361,-1.404828817849495,-2.6039090792285364,5.870271909027853,1.0941979885101318,-3.4039459864245813
1708441313.4750702,-1.906224012374878,-1.405502588754036,-2.6045289675342005,5.86791883686141,1.0946335792541504,-3.4037473837481897
1708441313.4790268,-1.9019408226013184,-1.4066021603396912,-2.605661455784933,5.863238203316488,1.0955712795257568,-3.403259817753927
1708441313.481056,-1.8997641801834106,-1.4072787922671814,-2.606191937123434,5.860874402313986,1.0960289239883423,-3.403069798146383
1708441313.483034,-1.8976033926010132,-1.4078240555575867,-2.606760088597433,5.858593094139852,1.0964001417160034,-3.4028263727771204
1708441313.4850554,-1.8954360485076904,-1.408448950653412,-2.6073675791369837,5.856299745827474,1.0968445539474487,-3.402597967778341
1708441313.4870822,-1.8932380676269531,-1.40904754519973,-2.6079066435443323,5.853938567429342,1.0972932577133179,-3.402374331151144
1708441313.489038,-1.8910006284713745,-1.4096367818168183,-2.608513418828146,5.851511466294088,1.0978063344955444,-3.402109686528341
1708441313.4910824,-1.8887627124786377,-1.4102482807687302,-2.609100405369894,5.84911988952712,1.0983411073684692,-3.4019489924060267
1708441313.4930315,-1.886572241783142,-1.4108798664859314,-2.6096516291247767,5.846770512848654,1.0987106561660767,-3.4017370382892054
1708441313.4950523,-1.8843541145324707,-1.4114550066045304,-2.610192600880758,5.844464289933004,1.0990986824035645,-3.4015141169177454
1708441313.49703,-1.8821437358856201,-1.4120627355626603,-2.610840384160177,5.842128979950704,1.099540114402771,-3.401317898427145
1708441313.4990354,-1.8799306154251099,-1.412628636961319,-2.611323658620016,5.839835989266195,1.0999197959899902,-3.4011147657977503
1708441313.5010724,-1.877811074256897,-1.4132146698287507,-2.612009112034933,5.837569582253256,1.100304126739502,-3.4009068647967737
1708441313.5030413,-1.8756049871444702,-1.4138360929540177,-2.6125062147723597,5.835267889290609,1.1007615327835083,-3.4007230440722864
1708441313.5088074,-1.8733659982681274,-1.4144260299256821,-2.6130529085742396,5.832890736847677,1.1010721921920776,-3.400498930607931
1708441313.5110579,-1.8667618036270142,-1.4161460858634491,-2.614755932484762,5.82583640792922,1.102128267288208,-3.3999536673175257
1708441313.5130363,-1.8645650148391724,-1.4167240274003525,-2.6153438727008265,5.82349585273818,1.1025336980819702,-3.399778668080465
1708441313.5150425,-1.862326979637146,-1.417368308906891,-2.615962568913595,5.821105587273397,1.1028616428375244,-3.3995915094958704
1708441313.5170465,-1.8600876331329346,-1.4179386508515854,-2.6164725462542933,5.818741905480184,1.1032425165176392,-3.399432961140768
1708441313.5190578,-1.8579308986663818,-1.418517993097641,-2.61705190340151,5.816434132843771,1.1035616397857666,-3.399280850087301
1708441313.5210466,-1.855707049369812,-1.4191004198840638,-2.6175957361804407,5.814075815468588,1.1038771867752075,-3.3990770022021692
1708441313.523065,-1.8535897731781006,-1.419597105388977,-2.6181183497058313,5.8117819903190515,1.1042307615280151,-3.398872677479879
1708441313.5250542,-1.8513199090957642,-1.4202083510211487,-2.618718687688009,5.809468972473898,1.1045506000518799,-3.3987134138690394
1708441313.527043,-1.8491710424423218,-1.4208492648652573,-2.619236771260397,5.807134139328756,1.104923963546753,-3.3985586802112024
1708441313.5290534,-1.8469533920288086,-1.42144067705188,-2.6198068300830286,5.804817902832784,1.1052680015563965,-3.398402516041891
1708441313.5310261,-1.8447566032409668,-1.422018663292267,-2.6203063170062464,5.802453505783834,1.1056084632873535,-3.398210350667135
1708441313.5331075,-1.8425911664962769,-1.4225937885097046,-2.620840851460592,5.800070392876425,1.1059033870697021,-3.3981245199786585
1708441313.5350213,-1.8404101133346558,-1.4231476497701188,-2.6213844458209437,5.797714936524191,1.1062530279159546,-3.3980053106891077
1708441313.537068,-1.8382152318954468,-1.4237829011729737,-2.6218789259540003,5.795349705010214,1.106605052947998,-3.397865597401754
1708441313.53903,-1.8359788656234741,-1.4242575776628037,-2.622467104588644,5.7930874703224084,1.1068971157073975,-3.3977065722094935
1708441313.541025,-1.8337790966033936,-1.4249026340297242,-2.6229291597949427,5.790761697083273,1.107273817062378,-3.3975217978106897
1708441313.5430574,-1.8316189050674438,-1.4254238617471238,-2.6235035101519983,5.788414108544149,1.107569694519043,-3.39738113084902
1708441313.545023,-1.8293880224227905,-1.4260275822928925,-2.624007527028219,5.786118018418112,1.1078251600265503,-3.397332493458883
1708441313.5470266,-1.827252745628357,-1.4266848278096695,-2.624505106602804,5.783742654114523,1.1081256866455078,-3.3971594015704554
1708441313.5490193,-1.825009822845459,-1.4271892470172425,-2.6250627676593226,5.78147171714858,1.1083928346633911,-3.39702278772463
1708441313.551058,-1.8227660655975342,-1.4277804654887696,-2.625495258961813,5.7792913792426965,1.1086691617965698,-3.3968845049487513
1708441313.5530274,-1.820603847503662,-1.4284002494863053,-2.626019541417257,5.77698706367568,1.1089619398117065,-3.39677340189089
1708441313.5550282,-1.8183715343475342,-1.4290040296367188,-2.6265750567065638,5.77477906921462,1.1092544794082642,-3.396644417439596
1708441313.5570107,-1.8161675930023193,-1.4295860540917893,-2.627066198979513,5.772460090904989,1.1095397472381592,-3.3965371290790003
1708441313.559038,-1.8139660358428955,-1.4301477384618302,-2.6275163332568567,5.7701183436210535,1.1097948551177979,-3.3963637987719935
1708441313.5610297,-1.811779499053955,-1.4307467204383393,-2.628080193196432,5.767864692002096,1.109981894493103,-3.3962414900409144
1708441313.563012,-1.8096203804016113,-1.431299553518631,-2.6285346190081995,5.765555965691366,1.1102145910263062,-3.3961854616748255
1708441313.5650039,-1.8073670864105225,-1.4318654102138062,-2.6290956179248255,5.763264405518331,1.1104707717895508,-3.3961146513568323
1708441313.5670626,-1.8052350282669067,-1.4324003619006653,-2.6295858065234583,5.760950553208151,1.1108208894729614,-3.396020237599508
1708441313.569086,-1.8030287027359009,-1.4330084037831803,-2.6300843397723597,5.75870560386733,1.111014485359192,-3.3958502451526087
1708441313.571092,-1.80081307888031,-1.4335758251002808,-2.630632464085714,5.756392943650045,1.111327886581421,-3.395771328602926
1708441313.5730617,-1.7986538410186768,-1.4341628414443512,-2.6310837904559534,5.754069077759542,1.1115882396697998,-3.3956874052630823
1708441313.5750365,-1.7964173555374146,-1.434737579231598,-2.6315749327289026,5.751724231034078,1.1117548942565918,-3.3955677191363733
1708441313.5770836,-1.7941954135894775,-1.4352674198201676,-2.63208252588381,5.749548780709066,1.1119428873062134,-3.39549690881838
1708441313.5790586,-1.792062520980835,-1.435879723434784,-2.6325553099261683,5.747271525650778,1.1121522188186646,-3.3954041639911097
1708441313.5810728,-1.7898786067962646,-1.4364672911218186,-2.6330085436450403,5.74500738361434,1.1123685836791992,-3.395374123250143
1708441313.5831165,-1.7876273393630981,-1.437024326329567,-2.6335323492633265,5.742769467621603,1.112605333328247,-3.3952580134021204
1708441313.5850532,-1.785394549369812,-1.4376102846911927,-2.6339669863330286,5.740567314415731,1.1128129959106445,-3.3951621691333216
1708441313.5870478,-1.7831721305847168,-1.438060851102211,-2.6344149748431605,5.738338696747579,1.1130213737487793,-3.395028893147604
1708441313.589051,-1.7810251712799072,-1.438699559574463,-2.634930435811178,5.736015307694235,1.1131633520126343,-3.394952360783712
1708441313.5910196,-1.7788023948669434,-1.4392716449550171,-2.635357443486349,5.733738052635946,1.1133317947387695,-3.394881788884298
1708441313.5930164,-1.7766720056533813,-1.4398494523814698,-2.635791842137472,5.731615292816915,1.1135045289993286,-3.394797388707296
1708441313.5950255,-1.7744293212890625,-1.4404010784677048,-2.636312786732809,5.72929202297286,1.113741397857666,-3.3948031107531946
1708441313.5970488,-1.7722615003585815,-1.4409384441426774,-2.636779848729269,5.727092730789938,1.1139332056045532,-3.3946684042560022
1708441313.599053,-1.770073413848877,-1.441511095767357,-2.6372562090503138,5.724776971131124,1.114141583442688,-3.394590441380636
1708441313.6010318,-1.7678416967391968,-1.4421026420644303,-2.6376493612872522,5.7226141569908044,1.1143254041671753,-3.394550625477926
1708441313.6030111,-1.7656282186508179,-1.4426375788501282,-2.6381338278399866,5.7203359482581995,1.1145501136779785,-3.394506041203634
1708441313.6050012,-1.7634382247924805,-1.443200947051384,-2.6385772863971155,5.71815966346816,1.1147053241729736,-3.394451681767599
1708441313.607045,-1.7612450122833252,-1.4438171696713944,-2.6390085856067103,5.716012584954061,1.1148616075515747,-3.3944736162768763
1708441313.6090536,-1.7589970827102661,-1.4443532836488266,-2.6394715944873255,5.713824498444357,1.1150624752044678,-3.3943558374988
1708441313.6110566,-1.7568405866622925,-1.4449167859605332,-2.6399558226214808,5.711625265866079,1.1152218580245972,-3.3943284193622034
1708441313.6130393,-1.7545883655548096,-1.4454334688237687,-2.640324656163351,5.709415244847097,1.1154433488845825,-3.3942888418780726
1708441313.6150296,-1.752365231513977,-1.4460384410670777,-2.640769068394796,5.70725570896224,1.1155121326446533,-3.3942812124835413
1708441313.6171327,-1.7502145767211914,-1.446616881792881,-2.641240898762838,5.705012368946829,1.1156322956085205,-3.394216601048605
1708441313.6190298,-1.7479746341705322,-1.447159395819046,-2.641750160847799,5.702794062882223,1.1157691478729248,-3.3942223230945032
1708441313.6210296,-1.7458240985870361,-1.4477106046727677,-2.642172161732809,5.7007120726402185,1.1159708499908447,-3.394160811101095
1708441313.623053,-1.743618130683899,-1.4483652946404,-2.64258581796755,5.698594319611349,1.1160823106765747,-3.3941238562213343
1708441313.6250212,-1.7413989305496216,-1.4489091348699112,-2.643099371586935,5.696366715222158,1.1161574125289917,-3.3941219488727015
1708441313.6270466,-1.7392501831054688,-1.4494738069227715,-2.643545691167013,5.694155025273123,1.116289496421814,-3.3941026369677942
1708441313.629052,-1.7370033264160156,-1.4500402000597497,-2.643916193638937,5.692020582943716,1.116403341293335,-3.3940604368792933
1708441313.631025,-1.7347978353500366,-1.4506077703884621,-2.6442983786212366,5.689800667553701,1.1164741516113281,-3.3940826098071497
1708441313.6330209,-1.732609510421753,-1.4511585918119927,-2.644726339970724,5.687612581043997,1.1165540218353271,-3.3940380255328577
1708441313.6350462,-1.730473518371582,-1.4517589297941704,-2.645149056111471,5.685509192734518,1.1166425943374634,-3.3940544764148157
1708441313.6370478,-1.728320837020874,-1.4523347330144425,-2.6455488840686243,5.683406638890066,1.1167833805084229,-3.393984858189718
1708441313.6390395,-1.7261362075805664,-1.4528696474483986,-2.645989243184225,5.681323098927297,1.1169042587280273,-3.3940206209765833
1708441313.6410623,-1.723983645439148,-1.4534196269563218,-2.6464129129992884,5.679199921875753,1.1170158386230469,-3.3940826098071497
1708441313.643015,-1.721821904182434,-1.453999513094761,-2.646829430256979,5.677123296051779,1.1170837879180908,-3.394090716038839
1708441313.6450117,-1.7197006940841675,-1.4545936745456238,-2.6471999327289026,5.675047683506765,1.1171631813049316,-3.394013230000631
1708441313.6470532,-1.7174776792526245,-1.4551507842591782,-2.6475938002215784,5.672889518528738,1.1172071695327759,-3.394106928502218
1708441313.6490464,-1.7153453826904297,-1.4557717528990288,-2.647982184086935,5.670809197216787,1.1172537803649902,-3.3941026369677942
1708441313.65106,-1.7131767272949219,-1.4563249436071892,-2.6483727137195032,5.668715405255117,1.117322564125061,-3.3941190878497522
1708441313.6530368,-1.7111233472824097,-1.4568384078196068,-2.648806873952047,5.666643011360922,1.1174068450927734,-3.3941708246814173
1708441313.6550832,-1.7090091705322266,-1.4573768463781853,-2.6491811911212366,5.6646214602287195,1.1173980236053467,-3.394141499196188
1708441313.6570842,-1.7068737745285034,-1.4579894927195092,-2.6495443026172083,5.662545430451193,1.1174384355545044,-3.394160811101095
1708441313.659029,-1.704742431640625,-1.4585936155966301,-2.6498575846301478,5.660563874035635,1.117498517036438,-3.3941929976092737
1708441313.6611023,-1.7026541233062744,-1.4590993535569687,-2.650290314351217,5.6585526941116235,1.1175507307052612,-3.3942342440234583
1708441313.6630416,-1.700562834739685,-1.4596679520658036,-2.650687042866842,5.656552779465475,1.1175823211669922,-3.394310537968771
1708441313.665067,-1.6985194683074951,-1.4601409968784829,-2.6509929339038294,5.654727208405294,1.1176187992095947,-3.394289795552389
1708441313.667065,-1.6964237689971924,-1.4607251969030877,-2.651376549397604,5.6527894017990015,1.1175856590270996,-3.394313160573141
1708441313.669047,-1.6943190097808838,-1.461276651625969,-2.6517208258258265,5.650778996735372,1.1176546812057495,-3.3943327108966272
1708441313.671073,-1.6922335624694824,-1.4618557032993813,-2.652125422154562,5.648829746037283,1.1176599264144897,-3.3943703810321253
1708441313.6730402,-1.6901286840438843,-1.4623047199896355,-2.652471367512838,5.646843600064077,1.1175893545150757,-3.3944059054004114
1708441313.6750555,-1.6880853176116943,-1.4628668290427704,-2.652844254170553,5.644975948124685,1.117638111114502,-3.394412342702047
1708441313.6770427,-1.6860357522964478,-1.4634016391685982,-2.6531453768359583,5.643006670265951,1.1176056861877441,-3.394486729298727
1708441313.6790273,-1.6839853525161743,-1.4639589425972481,-2.653534714375631,5.641115295677938,1.1175084114074707,-3.394491974507467
1708441313.6810596,-1.6820048093795776,-1.4644815710238,-2.653846565877096,5.6391950128372095,1.1174768209457397,-3.3945325056659144
1708441313.6830292,-1.6799345016479492,-1.464964286690094,-2.654172960911886,5.6373488185699365,1.1174942255020142,-3.394625727330343
1708441313.6855936,-1.6779532432556152,-1.4655245927027245,-2.6545234362231653,5.635450649052419,1.1174286603927612,-3.3946896235095423
1708441313.687094,-1.6758477687835693,-1.4660769563964386,-2.6547935644732874,5.633548426419058,1.117449164390564,-3.39466363588442
1708441313.689041,-1.673807144165039,-1.4666005459478875,-2.655158583317892,5.631576585560598,1.1174167394638062,-3.3947561422931116
1708441313.6910803,-1.6717394590377808,-1.4671275702169915,-2.6554701964007776,5.6296772239501855,1.1174254417419434,-3.39478308359255
1708441313.6930325,-1.6696867942810059,-1.4676080507091065,-2.6558101812945765,5.627721476345815,1.117405652999878,-3.3948596159564417
1708441313.6950617,-1.6676561832427979,-1.4681702193668862,-2.656142536793844,5.625938224583425,1.1173609495162964,-3.394965473805563
1708441313.697028,-1.6656577587127686,-1.4686149594238778,-2.656391684209005,5.6241023419196985,1.1172921657562256,-3.39506179491152
1708441313.6990297,-1.66359543800354,-1.4692168992808838,-2.6567538420306605,5.6223376272018335,1.1172451972961426,-3.395104710255758
1708441313.701062,-1.6615612506866455,-1.4696244981935997,-2.6570120493518274,5.6204906580741785,1.117188572883606,-3.39518911043276
1708441313.7030265,-1.6595295667648315,-1.4701891404441376,-2.657327715550558,5.6186861274536035,1.1171119213104248,-3.3952491919146937
1708441313.7050657,-1.6574281454086304,-1.4707983967712899,-2.6576600710498255,5.616813766747274,1.117027759552002,-3.395266834889547
1708441313.7070312,-1.6553375720977783,-1.4712771636298676,-2.657992426549093,5.614962863713064,1.116987705230713,-3.3953827063189905
1708441313.7090616,-1.6532888412475586,-1.4718089562705536,-2.658217732106344,5.613129901676931,1.1169121265411377,-3.395426098500387
1708441313.7110698,-1.6513240337371826,-1.472289727335312,-2.6585751215564173,5.611284899502554,1.116811752319336,-3.395599667225973
1708441313.713054,-1.6492379903793335,-1.4728605312160035,-2.658809010182516,5.60948138216094,1.1166579723358154,-3.3956435362445276
1708441313.7150435,-1.6472088098526,-1.4732979100993653,-2.6591180006610315,5.6076533673103235,1.1165997982025146,-3.395803991948263
1708441313.7170448,-1.6451599597930908,-1.4738345083645363,-2.65938908258547,5.605906832009115,1.116499662399292,-3.395846668873922
1708441313.7191103,-1.643070101737976,-1.4743542310646554,-2.6596885363208216,5.604057538300314,1.1163499355316162,-3.395966116582052
1708441313.721134,-1.6409903764724731,-1.4748796460083504,-2.659992520009176,5.602210569172659,1.1162866353988647,-3.3960538546191614
1708441313.7230356,-1.638910174369812,-1.4753979381969948,-2.6602709929095667,5.6003785012061975,1.1161798238754272,-3.396128002797262
1708441313.7250643,-1.6368098258972168,-1.4759509351900597,-2.660511080418722,5.598562466889181,1.1160593032836914,-3.3962412516223353
1708441313.7270646,-1.634682536125183,-1.4764995139888306,-2.6607864538775843,5.596674430161276,1.1158291101455688,-3.396402184163229
1708441313.7290306,-1.6326029300689697,-1.4769729685834427,-2.661045853291647,5.594903754978933,1.115681529045105,-3.396517578755514
1708441313.7310932,-1.6305384635925293,-1.4775538754514237,-2.6613169352160853,5.59318761804656,1.1155409812927246,-3.396604601536886
1708441313.7330644,-1.628527045249939,-1.4780393925360222,-2.6615806261645716,5.59147326925353,1.1153160333633423,-3.396674935017721
1708441313.7350807,-1.6264009475708008,-1.4786040794900437,-2.6618860403644007,5.589644658356466,1.115172028541565,-3.3968146483050745
1708441313.7370305,-1.6242824792861938,-1.4791646611741562,-2.662071768437521,5.58778082111434,1.1150166988372803,-3.397008244191305
1708441313.7390406,-1.6221354007720947,-1.4796289888075371,-2.6623342672931116,5.585972773819723,1.1148451566696167,-3.397100035344259
1708441313.7410629,-1.619982123374939,-1.4802177560380478,-2.6626275221454065,5.5841184733207605,1.1147185564041138,-3.397247616444723
1708441313.7430174,-1.6178498268127441,-1.48072054356847,-2.6628790537463587,5.582258093148031,1.1145089864730835,-3.3973382155047815
1708441313.7450323,-1.6157444715499878,-1.4812814381769677,-2.663135353718893,5.580481397896566,1.1142797470092773,-3.397553030644552
1708441313.7470345,-1.61361825466156,-1.4817952674678345,-2.663366142903463,5.578634309559622,1.114083170890808,-3.397597853337423
1708441313.7490098,-1.6114767789840698,-1.4823597160032769,-2.6636350790606897,5.57674806097106,1.1138345003128052,-3.397730890904562
1708441313.751036,-1.6093623638153076,-1.4829202753356476,-2.6638694445239466,5.575027215271749,1.1136510372161865,-3.397869888936178
1708441313.753021,-1.607201099395752,-1.483430640106537,-2.6640642325030726,5.573168921261587,1.1135003566741943,-3.3979972044574183
1708441313.7550595,-1.6049960851669312,-1.4840060335448761,-2.6643739382373255,5.571359562664785,1.113259196281433,-3.3980918566333216
1708441313.7570384,-1.6027960777282715,-1.4845322158983727,-2.6646090189563196,5.569550263672628,1.113011360168457,-3.3982396761523646
1708441313.7590156,-1.6005820035934448,-1.485139900153019,-2.6648247877704065,5.567606913834371,1.1127654314041138,-3.398428980504171
1708441313.7610893,-1.5983333587646484,-1.4856703218868752,-2.6650646368609827,5.565745699196615,1.1125657558441162,-3.398536268864767
1708441313.7630446,-1.5961753129959106,-1.486198292379715,-2.6653087774859827,5.5639808652694605,1.1123372316360474,-3.398658339177267
1708441313.7650437,-1.5940073728561401,-1.4867252570441742,-2.665461842213766,5.5621527312095544,1.1121430397033691,-3.398799482976095
1708441313.7670577,-1.5918771028518677,-1.4873230841806908,-2.665677611027853,5.5603352067764185,1.1118453741073608,-3.3989384810077112
1708441313.7690609,-1.5897269248962402,-1.4877949219993134,-2.665933911000387,5.5585887906844995,1.111617922782898,-3.3990939299212855
1708441313.7710395,-1.5875247716903687,-1.4883316320231934,-2.6661418120013636,5.556719767838278,1.111332893371582,-3.3992953936206263
1708441313.7730541,-1.585389494895935,-1.4888123881867905,-2.6663993040667933,5.554948019772329,1.1110767126083374,-3.3993895689593714
1708441313.7750516,-1.5832189321517944,-1.4894053947976609,-2.666586701069967,5.553188073426046,1.110795497894287,-3.3995326201068323
1708441313.7770436,-1.581062912940979,-1.4899331343225022,-2.6667516867267054,5.551340627461233,1.1105760335922241,-3.3996766249286097
1708441313.7790387,-1.5788425207138062,-1.4905379575541993,-2.666955534611837,5.549403297692098,1.110332727432251,-3.3998807112323206
1708441313.78104,-1.5766165256500244,-1.4910489481738587,-2.667187515889303,5.547543394356527,1.1100434064865112,-3.3999910990344446
1708441313.783087,-1.574410319328308,-1.491574839954712,-2.6673718134509485,5.545804786473074,1.10978364944458,-3.4001928011523646
1708441313.7850523,-1.5722086429595947,-1.4921439376524468,-2.667551581059591,5.544004428177633,1.1094874143600464,-3.400299374257223
1708441313.7870393,-1.570031762123108,-1.4926491242698212,-2.667767349873678,5.542244720249929,1.1092442274093628,-3.4004789034472864
1708441313.789034,-1.5678114891052246,-1.49323824167762,-2.6679917017566126,5.540523040085592,1.1089144945144653,-3.400602165852682
1708441313.791052,-1.5655851364135742,-1.4937409919551392,-2.668180290852682,5.53874288776473,1.1086065769195557,-3.400756899510519
1708441313.793013,-1.5633690357208252,-1.494349167948105,-2.668375317250387,5.536980438023367,1.108297348022461,-3.4009204546557825
1708441313.7950282,-1.5612210035324097,-1.4948476192406197,-2.6685190836535853,5.535205411701956,1.1079403162002563,-3.4011128584491175
1708441313.7970126,-1.559040904045105,-1.4953712460449715,-2.6686647574054163,5.533435869007864,1.1076326370239258,-3.401236359273092
1708441313.7990303,-1.5568211078643799,-1.495853380565979,-2.6688817183123987,5.531663763314047,1.1073684692382812,-3.401485029851095
1708441313.8010314,-1.5546690225601196,-1.496446744804718,-2.669070307408468,5.529981243401327,1.107031226158142,-3.4015665690051478
1708441313.8030095,-1.5525155067443848,-1.4969697159579773,-2.669215981160299,5.528117942601003,1.1067395210266113,-3.4017797152148646
1708441313.8050318,-1.5502429008483887,-1.497496710424759,-2.669385019932882,5.5263386247451685,1.106480598449707,-3.401931349431173
1708441313.8070524,-1.5480382442474365,-1.4979984623244782,-2.6696139017688196,5.524526762753286,1.1061235666275024,-3.402091089879171
1708441313.809035,-1.5458297729492188,-1.4985762772015114,-2.669760767613546,5.522794949799337,1.105844259262085,-3.4022708574878138
1708441313.8110294,-1.543566346168518,-1.4990771871856232,-2.6699076334582728,5.521108019142904,1.1055113077163696,-3.402466360722677
1708441313.8130522,-1.5413528680801392,-1.4996149253896256,-2.670080010090963,5.519363271981039,1.1052194833755493,-3.40259296098818
1708441313.8151026,-1.5390923023223877,-1.5001508680037041,-2.6702478567706507,5.517649280815878,1.1049028635025024,-3.402743403111593
1708441313.8170722,-1.5369327068328857,-1.500659243469574,-2.6703994909869593,5.515879440098562,1.1045011281967163,-3.4029489199267786
1708441313.8190303,-1.5347391366958618,-1.5012049537948151,-2.670579973851339,5.514202224999227,1.1041932106018066,-3.403127733861105
1708441313.8210483,-1.5325815677642822,-1.5016221490553399,-2.670706335698263,5.512430000096121,1.1038686037063599,-3.4032509962665003
1708441313.8230288,-1.530377984046936,-1.5022347283414383,-2.6708741823779505,5.510760652809896,1.1035207509994507,-3.4034794012652796
1708441313.8250213,-1.5281965732574463,-1.502807394867279,-2.6710265318499964,5.509005474835195,1.1031440496444702,-3.4035895506488245
1708441313.8270574,-1.5260101556777954,-1.503336713915207,-2.671190325413839,5.507302748947897,1.1028251647949219,-3.4037731329547327
1708441313.8290372,-1.523821473121643,-1.5038245928338547,-2.6713698546039026,5.50555049160079,1.1024805307388306,-3.403968397771017
1708441313.831064,-1.521600604057312,-1.5043161672404786,-2.671530071889059,5.503764438420095,1.1021032333374023,-3.404149595891134
1708441313.8330817,-1.5194330215454102,-1.5048528474620362,-2.671678129826681,5.501969861775198,1.1017425060272217,-3.4043007532702845
1708441313.8350465,-1.5172193050384521,-1.505359136765339,-2.671881977711813,5.5002662418182275,1.101459264755249,-3.4044516722308558
1708441313.837078,-1.515002727508545,-1.5059151288918038,-2.672025744115011,5.498510646611013,1.1010171175003052,-3.404624048863546
1708441313.8391516,-1.5128540992736816,-1.5064529788545151,-2.6721771399127405,5.496841358929434,1.1007508039474487,-3.4048314730273646
1708441313.8410583,-1.5106158256530762,-1.5069705855897446,-2.672316614781515,5.495133924275198,1.1004431247711182,-3.404963556920187
1708441313.8430808,-1.5083420276641846,-1.5074908298305054,-2.672476832066671,5.493404793530264,1.1001064777374268,-3.4051340262042444
1708441313.8450358,-1.5061354637145996,-1.5080554869822045,-2.6726205984698694,5.491765308171072,1.099774718284607,-3.4053338209735315
1708441313.847034,-1.5039345026016235,-1.5084910441986104,-2.672767702733175,5.490023958473959,1.0994054079055786,-3.40548545518984
1708441313.8490303,-1.501689076423645,-1.5090981920114537,-2.672908131276266,5.488372075348654,1.0990574359893799,-3.4056440035449427
1708441313.8510356,-1.4995572566986084,-1.509662476634123,-2.6730921904193323,5.486639010697164,1.0987244844436646,-3.405799690877096
1708441313.853066,-1.4973405599594116,-1.5101592664471646,-2.673243824635641,5.48488615730361,1.0983686447143555,-3.405983034764425
1708441313.8550212,-1.4950997829437256,-1.5106335294297715,-2.6733787695514124,5.483177888184347,1.098036527633667,-3.4061391989337366
1708441313.857182,-1.492949366569519,-1.511170608257391,-2.6735432783709925,5.481442677765646,1.0976554155349731,-3.406330172215597
1708441313.85901,-1.490718960762024,-1.511720349346735,-2.6736441294299524,5.479832637100973,1.09734308719635,-3.4065232912646692
1708441313.8610077,-1.488505482673645,-1.5122403104654332,-2.673814360295431,5.478154647141256,1.0969547033309937,-3.4066415468799036
