Eg3-git/Classifiers/Data Collection/u7/u7xyz4_ur3e_joint_states.csv
time,elbow_joint,shoulder_lift_joint,shoulder_pan_joint,wrist_1_joint,wrist_2_joint,wrist_3_joint
1708441349.819162,-2.149796724319458,-1.336233304148056,-2.527707640324728,6.13149510601119,1.0194053649902344,-2.915971819554464
1708441349.8211496,-2.149834632873535,-1.3362302047065278,-2.52769118944277,6.131490576058187,1.0193935632705688,-2.915971819554464
1708441349.823175,-2.1498303413391113,-1.336213932638504,-2.527710739766256,6.131499516754904,1.0194098949432373,-2.9159844557391565
1708441349.82514,-2.149768352508545,-1.3362258237651368,-2.527698818837301,6.131480204849996,1.019385814666748,-2.9159801642047327
1708441349.8271472,-2.149862051010132,-1.336209551697113,-2.527756992970602,6.131490576058187,1.0194309949874878,-2.9159801642047327
1708441349.8291335,-2.1498260498046875,-1.3362586957267304,-2.527719561253683,6.131469833641805,1.0194143056869507,-2.915987793599264
1708441349.831166,-2.1498215198516846,-1.3362170618823548,-2.5276945273028772,6.131490576058187,1.0194098949432373,-2.9159963766681116
1708441349.8331485,-2.149839162826538,-1.3362007600120087,-2.5276811758624476,6.131449091225424,1.0194098949432373,-2.916004006062643
1708441349.8352172,-2.149862051010132,-1.3362586808255692,-2.527682606373922,6.1315815327461145,1.0194220542907715,-2.9159837404834192
1708441349.8371599,-2.149854898452759,-1.3362345409444352,-2.5277119318591517,6.131523597031393,1.0193935632705688,-2.916004006062643
1708441349.8391836,-2.149834632873535,-1.3362421107343216,-2.5276411215411585,6.1315369484718225,1.0194143056869507,-2.9159801642047327
1708441349.8411906,-2.149850606918335,-1.3362051856568833,-2.52769118944277,6.131560790329733,1.0194188356399536,-2.9160082975970667
1708441349.8431776,-2.1498091220855713,-1.3362543445876618,-2.527686897908346,6.1315191862876794,1.0193812847137451,-2.9160166422473353
1708441349.8451426,-2.149822235107422,-1.3362332892468949,-2.527719561253683,6.131544458657064,1.0194355249404907,-2.9159801642047327
1708441349.8471959,-2.149846076965332,-1.3362301898053666,-2.527710739766256,6.131499516754904,1.0194098949432373,-2.915975872670309
1708441349.8492153,-2.1497879028320312,-1.336225838666298,-2.527703110371725,6.131519305496969,1.0194143056869507,-2.9159675280200403
1708441349.8511732,-2.149854898452759,-1.3362543296865006,-2.5277393499957483,6.1315191862876794,1.0193979740142822,-2.915992085133688
1708441349.8531766,-2.149792432785034,-1.3362749379924317,-2.52773625055422,6.131532537728109,1.019389033317566,-2.9159801642047327
1708441349.8551662,-2.149850606918335,-1.336205245261528,-2.527698818837301,6.13155626037673,1.0194143056869507,-2.9159556070910853
1708441349.8571424,-2.149822235107422,-1.3361889284900208,-2.5277393499957483,6.131506907730856,1.0194355249404907,-2.9159963766681116
1708441349.85915,-2.149785280227661,-1.3362464916757126,-2.527752701436178,6.131568181305685,1.0193694829940796,-2.915987793599264
1708441349.861169,-2.149854898452759,-1.33626181006942,-2.5276780764209192,6.131472933083334,1.019417643547058,-2.9160166422473353
1708441349.8631666,-2.149796724319458,-1.3362258237651368,-2.5277276674853724,6.1315311072166345,1.0194098949432373,-2.915975872670309
1708441349.8651936,-2.149817943572998,-1.3362455380013962,-2.5277062098132532,6.131466853409567,1.0193935632705688,-2.9160082975970667
1708441349.867143,-2.149796724319458,-1.3362333339503785,-2.52773625055422,6.131548869400778,1.0193979740142822,-2.9160361925708216
1708441349.869193,-2.149839162826538,-1.3361889582923432,-2.52773625055422,6.131528126984396,1.019389033317566,-2.916048828755514
1708441349.8711486,-2.149813652038574,-1.3362345856479187,-2.5276780764209192,6.13149510601119,1.0194098949432373,-2.9160123507129114
1708441349.8731356,-2.1498055458068848,-1.3362630766681214,-2.527698818837301,6.131503927498617,1.0194355249404907,-2.9160404841052454
1708441349.875182,-2.1498303413391113,-1.336221457724907,-2.527707640324728,6.131541359215536,1.0194265842437744,-2.916004006062643
1708441349.8771374,-2.1498091220855713,-1.3362052303603669,-2.527682606373922,6.131465422898092,1.0194265842437744,-2.915992085133688
1708441349.8791459,-2.149839162826538,-1.3362749528935929,-2.527686897908346,6.131535517960348,1.0194309949874878,-2.9160285631762903
1708441349.8812182,-2.1498303413391113,-1.3362007600120087,-2.527707640324728,6.131502496987142,1.0194429159164429,-2.915999714528219
1708441349.883251,-2.149854898452759,-1.336233304148056,-2.527670685444967,6.131569611817159,1.0194098949432373,-2.916020218526022
1708441349.8852327,-2.1498303413391113,-1.3362434220365067,-2.527740780507223,6.131535517960348,1.019417643547058,-2.916011635457174
1708441349.887166,-2.1498260498046875,-1.3362288785031815,-2.5276737848864954,6.131474244385519,1.0193965435028076,-2.916004006062643
1708441349.8891742,-2.149839162826538,-1.3362332743457337,-2.5276780764209192,6.1315311072166345,1.0194295644760132,-2.9159837404834192
1708441349.8911846,-2.1498260498046875,-1.336209536795952,-2.527731959019796,6.13155626037673,1.0194637775421143,-2.9159837404834192
1708441349.893161,-2.1498260498046875,-1.3362052303603669,-2.52771503130068,6.131568181305685,1.019396424293518,-2.916060749684469
1708441349.8952081,-2.1498329639434814,-1.3361898374608536,-2.5276780764209192,6.13149510601119,1.0194295644760132,-2.9160149733172815
1708441349.8971756,-2.149817943572998,-1.3362464767745514,-2.527682367955343,6.131568181305685,1.0194132328033447,-2.916032139454977
1708441349.8992312,-2.1497809886932373,-1.3362051856568833,-2.5277276674853724,6.131523597031393,1.0194132328033447,-2.9160361925708216
1708441349.9011674,-2.1498303413391113,-1.3362761747888108,-2.527719561253683,6.131577122002401,1.01946222782135,-2.916011635457174
1708441349.9031565,-2.1498260498046875,-1.3362126511386414,-2.52771503130068,6.131563770561971,1.0194666385650635,-2.9160319010363978
1708441349.9051733,-2.149834632873535,-1.33620077491317,-2.5277732054339808,6.131539928704061,1.019450306892395,-2.9160073439227503
1708441349.9071457,-2.149857521057129,-1.3362126511386414,-2.5276899973498743,6.131565201073446,1.0194295644760132,-2.9160361925708216
1708441349.9091783,-2.1498329639434814,-1.3361843985370179,-2.5276945273028772,6.13155626037673,1.0194578170776367,-2.9160319010363978
1708441349.9111452,-2.1498091220855713,-1.3362289381078263,-2.527752701436178,6.131486165314474,1.0194414854049683,-2.9160574118243616
1708441349.9131923,-2.149854898452759,-1.3361845326474686,-2.5277276674853724,6.131568181305685,1.01946222782135,-2.916056458150045
1708441349.91519,-2.149862051010132,-1.3362170171788712,-2.527710739766256,6.131551849633016,1.0194339752197266,-2.916011635457174
1708441349.91717,-2.149834632873535,-1.336261824970581,-2.527682606373922,6.131565201073446,1.0194578170776367,-2.916015926991598
1708441349.9191594,-2.149839162826538,-1.336221457724907,-2.5276945273028772,6.131535517960348,1.0194748640060425,-2.9160319010363978
1708441349.9211392,-2.149839162826538,-1.336209536795952,-2.5276618639575403,6.131526696472921,1.0194710493087769,-2.9160073439227503
1708441349.9231515,-2.1498303413391113,-1.3362083298018952,-2.5277438799487513,6.131569611817159,1.0194623470306396,-2.9160447756396692
1708441349.9251597,-2.149834632873535,-1.336263046865799,-2.527666155491964,6.131560790329733,1.019502878189087,-2.916081253682272
1708441349.9271502,-2.1497809886932373,-1.3362246018699189,-2.52771503130068,6.131510364800253,1.019474744796753,-2.916011635457174
1708441349.9291523,-2.1498048305511475,-1.3362007302096863,-2.5277062098132532,6.131514775543966,1.01947021484375,-2.9160760084735315
1708441349.931144,-2.1498098373413086,-1.336245523100235,-2.527764622365133,6.1315191862876794,1.0194323062896729,-2.9160760084735315
1708441349.9331603,-2.149862051010132,-1.3362543445876618,-2.5277438799487513,6.131535517960348,1.01946222782135,-2.916072432194845
1708441349.9351878,-2.1498708724975586,-1.3362465065768738,-2.5277276674853724,6.131474244385519,1.0194865465164185,-2.9160810152636927
1708441349.9371703,-2.149822235107422,-1.3362543445876618,-2.5277188459979456,6.131535517960348,1.0194777250289917,-2.9160640875445765
1708441349.9392135,-2.1498374938964844,-1.3362139028361817,-2.5277276674853724,6.131523597031393,1.0194487571716309,-2.916072432194845
1708441349.9411712,-2.149826765060425,-1.3362837147763749,-2.5276945273028772,6.131526696472921,1.0194658041000366,-2.916039530430929
1708441349.9431703,-2.1498303413391113,-1.3362301898053666,-2.5276811758624476,6.131544458657064,1.01947021484375,-2.916055742894308
1708441349.9451954,-2.1497726440429688,-1.336172268991806,-2.527698818837301,6.131576049118795,1.0194748640060425,-2.916116778050558
1708441349.9471934,-2.149792432785034,-1.3362421107343216,-2.5277143160449427,6.131559359818258,1.0194658041000366,-2.916010920201437
1708441349.9491727,-2.149834632873535,-1.3362586808255692,-2.5277231375323694,6.13155626037673,1.0194578170776367,-2.916072432194845
1708441349.9511514,-2.1498055458068848,-1.3362214875272294,-2.5276899973498743,6.1315311072166345,1.0194569826126099,-2.916067663823263
1708441349.953142,-2.1498260498046875,-1.3362082701972504,-2.527764622365133,6.1315191862876794,1.0194865465164185,-2.9160521666156214
1708441349.955204,-2.1498048305511475,-1.3361964535764237,-2.5276899973498743,6.13154302814559,1.0194748640060425,-2.916055742894308
1708441349.9571512,-2.149839162826538,-1.3362455380013962,-2.5277231375323694,6.131493675499716,1.019498586654663,-2.9161201159106653
1708441349.9591794,-2.149801254272461,-1.3362214875272294,-2.5277019182788294,6.131535517960348,1.0195105075836182,-2.9160803000079554
1708441349.9611661,-2.149839162826538,-1.3362587106278916,-2.5277019182788294,6.131523597031393,1.019482135772705,-2.9160402456866663
1708441349.963215,-2.1498303413391113,-1.3361889135888596,-2.5277019182788294,6.1314817545707605,1.0194851160049438,-2.9161160627948206
1708441349.9651842,-2.149789810180664,-1.3362289381078263,-2.527764622365133,6.131465422898092,1.0194851160049438,-2.9160717169391077
1708441349.9671404,-2.149850606918335,-1.3362126362374802,-2.527731959019796,6.131569611817159,1.0194940567016602,-2.916055742894308
1708441349.969157,-2.149846315383911,-1.3362006855062027,-2.5277019182788294,6.1315191862876794,1.0194984674453735,-2.9160760084735315
1708441349.9712088,-2.149834632873535,-1.3362258684686203,-2.527731959019796,6.131514775543966,1.0195103883743286,-2.916051451359884
1708441349.9731514,-2.1498303413391113,-1.3362019968083878,-2.527768913899557,6.131493675499716,1.0194851160049438,-2.916055742894308
1708441349.9751852,-2.149789810180664,-1.3362301749042054,-2.5276857058154505,6.131514775543966,1.019531488418579,-2.916055742894308
1708441349.977173,-2.1498913764953613,-1.336254359488823,-2.5276976267444056,6.131539928704061,1.0194733142852783,-2.916100565587179
1708441349.9791806,-2.1498594284057617,-1.336221457724907,-2.5277558008777063,6.131534087448873,1.019547939300537,-2.9161081949817103
1708441349.9811735,-2.149785280227661,-1.33625082791362,-2.5277262369738978,6.1315191862876794,1.0195059776306152,-2.9160803000079554
1708441349.983216,-2.1498665809631348,-1.3362780970386048,-2.5276857058154505,6.131535517960348,1.0194895267486572,-2.916112486516134
1708441349.9852989,-2.149854898452759,-1.3362368208220978,-2.5277515093432825,6.131532537728109,1.0195523500442505,-2.916039530430929
1708441349.9872165,-2.149794101715088,-1.3362575334361573,-2.52776009241213,6.131572592049398,1.019513726234436,-2.9160998503314417
1708441349.9892268,-2.1497721672058105,-1.3362420809319993,-2.5277231375323694,6.131565320282736,1.0194940567016602,-2.9161081949817103
1708441349.9912066,-2.149768352508545,-1.336209551697113,-2.527710739766256,6.131515848427572,1.0195103883743286,-2.916111771260397
1708441349.9931993,-2.1497726440429688,-1.336205170755722,-2.5277720133410853,6.131551849633016,1.0194807052612305,-2.916079584752218
1708441349.995197,-2.149813652038574,-1.3362390410951157,-2.527710739766256,6.131493675499716,1.019531488418579,-2.9161081949817103
1708441349.9971623,-2.149826765060425,-1.336254359488823,-2.5277350584613245,6.13149510601119,1.019531488418579,-2.9161041418658655
1708441349.9991727,-2.1497514247894287,-1.3362543445876618,-2.5277062098132532,6.131563770561971,1.0195226669311523,-2.9160311857806605
1708441350.001167,-2.149839162826538,-1.3362661612084885,-2.5277062098132532,6.131528126984396,1.019497036933899,-2.916063372288839
1708441350.0032125,-2.1498312950134277,-1.336188943391182,-2.5277512709247034,6.131493675499716,1.0195419788360596,-2.9160803000079554
1708441350.0052068,-2.1497650146484375,-1.3362464767745514,-2.5277393499957483,6.131511437683859,1.0195181369781494,-2.916100565587179
1708441350.007193,-2.1497859954833984,-1.3362749528935929,-2.52771503130068,6.131548988610067,1.0195256471633911,-2.9160717169391077
1708441350.0091746,-2.149789810180664,-1.3362390112927933,-2.5277307669269007,6.13155626037673,1.019546389579773,-2.9160597960101526
1708441350.011198,-2.149794101715088,-1.3361888986876984,-2.5277062098132532,6.131506907730856,1.0195226669311523,-2.9160879294024866
1708441350.013195,-2.149739980697632,-1.3362586957267304,-2.5277558008777063,6.131454574852743,1.0195797681808472,-2.9161041418658655
1708441350.0151713,-2.1498188972473145,-1.3362332743457337,-2.5277350584613245,6.13145004489974,1.0195300579071045,-2.916055742894308
1708441350.0171556,-2.1497297286987305,-1.3361603629640122,-2.5276976267444056,6.13147126415328,1.0195509195327759,-2.916096274052755
1708441350.0191462,-2.149724245071411,-1.3362630766681214,-2.5277143160449427,6.131492006569662,1.0195256471633911,-2.9160597960101526
1708441350.0211704,-2.1498074531555176,-1.3361963343671341,-2.5276976267444056,6.131454574852743,1.0195389986038208,-2.916067663823263
1708441350.0231647,-2.1497535705566406,-1.3361843985370179,-2.5277393499957483,6.1314605353172205,1.019492506980896,-2.916096274052755
1708441350.0251374,-2.1497623920440674,-1.3362214875272294,-2.5276976267444056,6.131414162903585,1.0195590257644653,-2.9160879294024866
1708441350.027183,-2.1497490406036377,-1.3361677688411255,-2.5277062098132532,6.131418573647299,1.0195256471633911,-2.9160879294024866
1708441350.029161,-2.149766683578491,-1.3362587106278916,-2.5277677218066614,6.131469476013937,1.019572377204895,-2.9160478750811976
1708441350.0311868,-2.1497421264648438,-1.336172343497612,-2.5277231375323694,6.1312811253364465,1.0195543766021729,-2.916100565587179
1708441350.0331414,-2.1497552394866943,-1.3362332892468949,-2.5277558008777063,6.131355750351705,1.0195590257644653,-2.916067663823263
1708441350.0352604,-2.149725914001465,-1.336193249826767,-2.5277188459979456,6.131282675057211,1.019537329673767,-2.9160922209369105
1708441350.037192,-2.1497128009796143,-1.3362377297929307,-2.5277469793902796,6.131234752922811,1.0195419788360596,-2.9160149733172815
1708441350.0392008,-2.149764060974121,-1.3362674427083512,-2.5277188459979456,6.131226885109701,1.019566297531128,-2.916006628667013
1708441350.041188,-2.1497347354888916,-1.3362052005580445,-2.5277188459979456,6.13120316246108,1.0195543766021729,-2.9160192648517054
1708441350.0431864,-2.1496667861938477,-1.3362007153085251,-2.527705732976095,6.131162631302633,1.019537329673767,-2.916072432194845
1708441350.0451787,-2.149690866470337,-1.3362271052649994,-2.5277426878558558,6.131085383683004,1.0195329189300537,-2.916065041218893
1708441350.0471823,-2.149690628051758,-1.3362052154592057,-2.5277188459979456,6.131144392281332,1.0195574760437012,-2.9160972277270716
1708441350.0491724,-2.149653673171997,-1.3361602884582062,-2.5277276674853724,6.131083357125082,1.0195329189300537,-2.9159794489489954
1708441350.0512264,-2.1496756076812744,-1.336176649933197,-2.5277350584613245,6.1310473559196375,1.019537329673767,-2.9160242716418665
1708441350.0532048,-2.149662494659424,-1.336218224172928,-2.5277188459979456,6.131020295410909,1.019546389579773,-2.916011635457174
1708441350.0551922,-2.1496429443359375,-1.3361766797355195,-2.5277019182788294,6.130966651230612,1.0195209980010986,-2.9159801642047327
1708441350.0572143,-2.1496474742889404,-1.3362270456603547,-2.5277143160449427,6.130989062577047,1.0195543766021729,-2.9159885088550013
1708441350.0591657,-2.1496148109436035,-1.3362258088639756,-2.527710024510519,6.130874025612631,1.0195618867874146,-2.9159520308123987
1708441350.0611343,-2.1496024131774902,-1.3361898225596924,-2.5277631918536585,6.130916940956869,1.019537329673767,-2.9159885088550013
1708441350.063215,-2.1495978832244873,-1.336209551697113,-2.5277558008777063,6.130827176361837,1.0195300579071045,-2.9159563223468226
1708441350.0651875,-2.149587392807007,-1.3361898225596924,-2.5277558008777063,6.130816685944357,1.0195046663284302,-2.915952984486715
1708441350.0671961,-2.1495628356933594,-1.3362238866141816,-2.5277307669269007,6.130735742836752,1.0195543766021729,-2.915898863469259
1708441350.06915,-2.1495466232299805,-1.3361543279937287,-2.5277720133410853,6.1307283518608,1.0195543766021729,-2.9158557097064417
1708441350.0711918,-2.1494927406311035,-1.3361735355905076,-2.5277393499957483,6.130695569306173,1.019537329673767,-2.9158387819873255
1708441350.0731456,-2.149506092071533,-1.3361499321511765,-2.5277262369738978,6.130611765175619,1.0195543766021729,-2.915847365056173
1708441350.075162,-2.149523973464966,-1.3361333322576066,-2.5277350584613245,6.1305593130882166,1.0195329189300537,-2.9158228079425257
1708441350.0771391,-2.1494202613830566,-1.3361127835563202,-2.5277350584613245,6.130523192673483,1.0195753574371338,-2.915799919758932
1708441350.0792105,-2.1494832038879395,-1.3361051243594666,-2.5277393499957483,6.130467879563131,1.0195419788360596,-2.9157641569720667
1708441350.081143,-2.149458408355713,-1.3361063760570069,-2.5277231375323694,6.130407678871908,1.0194835662841797,-2.9157236258136194
1708441350.0832036,-2.1494534015655518,-1.336064801817276,-2.527731959019796,6.130397307663717,1.019513726234436,-2.915760342274801
1708441350.085223,-2.1493947505950928,-1.3361139309457322,-2.5277062098132532,6.130262481957235,1.0195508003234863,-2.915720287953512
1708441350.0871887,-2.1493701934814453,-1.3360647571137925,-2.5277231375323694,6.130219089775839,1.0195300579071045,-2.915614906941549
1708441350.0891674,-2.149378776550293,-1.336077944641449,-2.5276945273028772,6.130175697594442,1.0195014476776123,-2.915611807500021
1708441350.0912163,-2.1492526531219482,-1.3360540878823777,-2.527731959019796,6.1301365969474695,1.0195634365081787,-2.915595595036642
1708441350.0931914,-2.1492834091186523,-1.3360421818545838,-2.5277262369738978,6.130027401238241,1.0195508003234863,-2.9155717531787317
1708441350.0951853,-2.1492676734924316,-1.3360421669534226,-2.5277262369738978,6.129954206734457,1.0194687843322754,-2.9154747168170374
1708441350.0972128,-2.1492719650268555,-1.3360584539226075,-2.527710739766256,6.129894125252523,1.0195149183273315,-2.9155035654651087
1708441350.0991938,-2.149181842803955,-1.3360271465829392,-2.527710739766256,6.129880654602804,1.0195105075836182,-2.9154508749591272
1708441350.101204,-2.149228811264038,-1.3360597056201478,-2.5277143160449427,6.129846083908834,1.019482135772705,-2.9154110590564173
1708441350.1031787,-2.1491880416870117,-1.336006076341011,-2.527707640324728,6.129810321121969,1.0194658041000366,-2.915387217198507
1708441350.1051538,-2.1491315364837646,-1.3359942448190232,-2.527780834828512,6.129681575089254,1.0194487571716309,-2.9153788725482386
1708441350.1071548,-2.1491193771362305,-1.3359779578498383,-2.5277276674853724,6.129572737007894,1.0194748640060425,-2.9153440634356897
1708441350.109172,-2.1490681171417236,-1.3359494370273133,-2.527776543294088,6.12952600696639,1.0194792747497559,-2.9152830282794397
1708441350.1111453,-2.1490726470947266,-1.3359450709870835,-2.527666155491964,6.129401671677389,1.0194205045700073,-2.9153040091144007
1708441350.113148,-2.1489956378936768,-1.3359303635409852,-2.5277438799487513,6.129358160286703,1.019450306892395,-2.9152236620532435
1708441350.1151776,-2.149024724960327,-1.3359581542066117,-2.527682606373922,6.12924479225234,1.019417643547058,-2.915199581776754
1708441350.1171336,-2.1489548683166504,-1.335971252327301,-2.527731959019796,6.129194605141439,1.0194265842437744,-2.9152079264270228
1708441350.1191547,-2.148959159851074,-1.335934655075409,-2.527748171483175,6.129069316178121,1.019389033317566,-2.9151926676379603
1708441350.121155,-2.1489005088806152,-1.3359390062144776,-2.5276618639575403,6.1289734719093225,1.0194355249404907,-2.9151199499713343
1708441350.1231616,-2.1488921642303467,-1.3359390062144776,-2.5276618639575403,6.128938782006063,1.0193935632705688,-2.9150434176074427
1708441350.1252005,-2.1488561630249023,-1.3358747971108933,-2.527682606373922,6.128818857460775,1.0193572044372559,-2.9150272051440638
1708441350.1271574,-2.1488234996795654,-1.335919277077057,-2.5276618639575403,6.128664958267965,1.0193527936935425,-2.9149840513812464
1708441350.129184,-2.148791551589966,-1.3358910840800782,-2.527707640324728,6.128643500595846,1.0193947553634644,-2.9149559179889124
1708441350.131163,-2.1487977504730225,-1.3358419102481385,-2.5277119318591517,6.128510582237997,1.0193378925323486,-2.914919678364889
1708441350.1331668,-2.1487526893615723,-1.3358181577971955,-2.527703110371725,6.12844334819869,1.0193212032318115,-2.9149208704577845
1708441350.1352348,-2.148711919784546,-1.335867003803589,-2.5276837984668177,6.128305661469259,1.0192927122116089,-2.914819065724508
1708441350.1371634,-2.1486687660217285,-1.3358062368682404,-2.5276060740100306,6.128230559616842,1.0192523002624512,-2.914799515401022
1708441350.139191,-2.148632526397705,-1.3358800870231171,-2.5276599566089075,6.128159749298849,1.019277572631836,-2.914750878010885
1708441350.1411865,-2.148573398590088,-1.3357495677522202,-2.5276227633105677,6.128035771637716,1.019277572631836,-2.9146950880633753
1708441350.1431801,-2.148515224456787,-1.3358117651990433,-2.527619187031881,6.127890813141622,1.0192326307296753,-2.914679829274313
1708441350.1452272,-2.1484851837158203,-1.3357833188823243,-2.527595345173971,6.127845036774435,1.0192745923995972,-2.914646927510397
1708441350.1471763,-2.148482322692871,-1.335759477024414,-2.527616087590353,6.127679455071249,1.0192537307739258,-2.9146230856524866
1708441350.1492157,-2.148425817489624,-1.335747556095459,-2.5275865236865442,6.1276446459587,1.0191848278045654,-2.914600197468893
1708441350.1511626,-2.1483330726623535,-1.335719348197319,-2.527595345173971,6.127413379936971,1.019226312637329,-2.9145596663104456
1708441350.153197,-2.148301362991333,-1.3356701743653794,-2.527538601552145,6.12734733799056,1.0191725492477417,-2.9145191351519983
1708441350.155158,-2.148244619369507,-1.3356745404056092,-2.527587954198019,6.127319085388937,1.0191514492034912,-2.9145200888263147
1708441350.1571379,-2.1481926441192627,-1.3357086789659043,-2.527538601552145,6.127099859505453,1.0191693305969238,-2.9144557158099573
1708441350.1592207,-2.1481573581695557,-1.3356312972358246,-2.5275266806231897,6.126996624260702,1.0191737413406372,-2.9144352118121546
1708441350.1611629,-2.148085832595825,-1.3355952215245743,-2.5275428930865687,6.126860368042745,1.0191243886947632,-2.914358917866842
1708441350.1631591,-2.1480166912078857,-1.335599572663643,-2.5275757948504847,6.1268136380012415,1.0191006660461426,-2.914335076008932
1708441350.1651764,-2.1479861736297607,-1.3356281083873291,-2.5275352636920374,6.1266119358833215,1.0191094875335693,-2.9143317381488245
1708441350.1671576,-2.147953987121582,-1.3355964732221146,-2.5275471846209925,6.126557457237997,1.0190807580947876,-2.914295498524801
1708441350.169169,-2.1478772163391113,-1.3356008392623444,-2.527522150670187,6.126380789070883,1.0190688371658325,-2.9142478148089808
1708441350.1711528,-2.147834062576294,-1.3355516505292435,-2.5274909178363245,6.126265513687887,1.019052505493164,-2.914281193410055
1708441350.173174,-2.147815704345703,-1.3354833287051697,-2.5275428930865687,6.126132356911459,1.0190491676330566,-2.914194647465841
1708441350.175173,-2.1477062702178955,-1.3354670417359848,-2.5274820963488978,6.125968444138326,1.0189741849899292,-2.914163414631979
1708441350.1771717,-2.1476457118988037,-1.3355250370553513,-2.5275352636920374,6.1259310124214075,1.0189920663833618,-2.9141269365893763
1708441350.1791852,-2.1476433277130127,-1.3354516935399552,-2.5275147596942347,6.125776636391439,1.0190551280975342,-2.9141483942614954
1708441350.1811588,-2.147594451904297,-1.3354442131570359,-2.5274820963488978,6.12568365314559,1.0189727544784546,-2.914083782826559
1708441350.1832068,-2.147538900375366,-1.3354605001262208,-2.5275071302997034,6.125522005348959,1.0189608335494995,-2.914071861897604
1708441350.185234,-2.147463083267212,-1.3354942363551636,-2.5274489561664026,6.12534378746108,1.0189608335494995,-2.91404372850527
1708441350.1871793,-2.1474549770355225,-1.3354084503701706,-2.5275278727160853,6.125187623291769,1.0189365148544312,-2.9139912764178675
1708441350.1892123,-2.147420644760132,-1.3353342723897477,-2.52751595178713,6.125098097115316,1.0189409255981445,-2.913971726094381
1708441350.1911874,-2.1473190784454346,-1.3353223514607926,-2.5274909178363245,6.124991643219747,1.0188915729522705,-2.913992230092184
1708441350.1931736,-2.1472837924957275,-1.3353280288032074,-2.527504030858175,6.1248347637946985,1.0189049243927002,-2.91396409669985
1708441350.1951678,-2.147219181060791,-1.3352997613004227,-2.52747089067568,6.124690878182211,1.0189212560653687,-2.9139226118670862
1708441350.1971686,-2.1471760272979736,-1.3353084784797211,-2.5274632612811487,6.1245800135429285,1.0188930034637451,-2.9139888922320765
1708441350.1991653,-2.147139549255371,-1.3353410524180909,-2.527491633092062,6.124422657280721,1.0189228057861328,-2.9139440695392054
1708441350.2011664,-2.147076368331909,-1.335284323697426,-2.527454678212301,6.1243042824561975,1.0188640356063843,-2.9139567057238978
1708441350.2031806,-2.147064685821533,-1.3352474731257935,-2.527426306401388,6.12406479099349,1.0188857316970825,-2.913980309163229
1708441350.2051823,-2.1469762325286865,-1.3352780950120469,-2.5274177233325403,6.123974787979879,1.0188567638397217,-2.913947884236471
1708441350.207202,-2.146953582763672,-1.3352495741895218,-2.527454678212301,6.123887765198507,1.01884925365448,-2.91396409669985
1708441350.2091973,-2.1468968391418457,-1.3352213513902207,-2.5274558703051966,6.123744237213888,1.018853783607483,-2.9139567057238978
1708441350.2111826,-2.1467678546905518,-1.335164950495102,-2.5274558703051966,6.123600709229269,1.018811821937561,-2.9139607588397425
1708441350.2131827,-2.146747350692749,-1.335227222447731,-2.5274513403521937,6.123525726586141,1.018784761428833,-2.91392690340151
1708441350.2152064,-2.1466681957244873,-1.3351617616466065,-2.5273948351489466,6.123308169632711,1.0187427997589111,-2.913980309163229
1708441350.2172148,-2.1465911865234375,-1.3351213944009324,-2.5274067560779017,6.1231329319770715,1.0187636613845825,-2.913992230092184
1708441350.2191627,-2.146552324295044,-1.335113839512207,-2.5274110476123255,6.122966873436727,1.0187232494354248,-2.9139836470233362
1708441350.2211673,-2.146538257598877,-1.335097612147667,-2.5274022261248987,6.122897970467367,1.018735408782959,-2.914004151021139
1708441350.2231777,-2.146486282348633,-1.3351094138673325,-2.5273903051959437,6.1227255938346765,1.0187487602233887,-2.914048496876852
1708441350.2251782,-2.1463959217071533,-1.3350408238223572,-2.5273457209216517,6.122631299286642,1.0187366008758545,-2.9140237013446253
1708441350.227153,-2.1463332176208496,-1.3350420755198975,-2.5274046103106897,6.122474062233724,1.0187532901763916,-2.91401178041567
1708441350.2291515,-2.1462981700897217,-1.335038961177208,-2.5273707548724573,6.122384297638693,1.0187499523162842,-2.9140525499926966
1708441350.2311516,-2.146249294281006,-1.3350346100381394,-2.5273826758014124,6.122201549797811,1.018705129623413,-2.9140642325030726
1708441350.2331378,-2.1462149620056152,-1.3349615049413224,-2.527383867894308,6.122053730278768,1.0186794996261597,-2.914071861897604
1708441350.235154,-2.146139144897461,-1.3349912774613877,-2.52733022371401,6.121914255409994,1.0186645984649658,-2.9141443411456507
1708441350.2371557,-2.1461026668548584,-1.3349824708751221,-2.527330462132589,6.121824848442831,1.0186809301376343,-2.914119545613424
1708441350.2391474,-2.1459827423095703,-1.3349464696696778,-2.527339045201437,6.121680128365316,1.0186479091644287,-2.9141646067248743
1708441350.241162,-2.1459383964538574,-1.3350000095418473,-2.5273214022265833,6.121524560242452,1.0186569690704346,-2.9141796270953577
1708441350.2431633,-2.1459033489227295,-1.3348766428283234,-2.5273552576648157,6.121430384903707,1.0186691284179688,-2.914241377507345
1708441350.2451518,-2.1458590030670166,-1.3349267554334183,-2.5273597876178187,6.121244656830587,1.0185985565185547,-2.9142444769488733
1708441350.2471685,-2.1457715034484863,-1.3348627847484131,-2.5273106733905237,6.121093857079305,1.0186030864715576,-2.914251152669088
1708441350.2491555,-2.145735502243042,-1.33486162245784,-2.5272942225085657,6.120982038765707,1.0186283588409424,-2.9143369833575647
1708441350.2511618,-2.1456754207611084,-1.3348747056773682,-2.5272987524615687,6.120802509575643,1.0186253786087036,-2.9143436590777796
1708441350.2531404,-2.145655870437622,-1.334855319266655,-2.5272823015796106,6.1207395670707605,1.0186164379119873,-2.9143999258624476
1708441350.2551863,-2.1455912590026855,-1.3348267835429688,-2.5273357073413294,6.120546686440267,1.0186001062393188,-2.9144395033465784
1708441350.2571387,-2.145535469055176,-1.3348267835429688,-2.527278010045187,6.120454537659445,1.018575668334961,-2.9144633452044886
1708441350.2591774,-2.145528793334961,-1.3347660166076203,-2.5272792021380823,6.120252477913656,1.0186012983322144,-2.914511505757467
1708441350.2611594,-2.1454358100891113,-1.334781975751259,-2.5272749106036585,6.1201655743415735,1.0185471773147583,-2.914645496998922
1708441350.2631898,-2.1454243659973145,-1.3348148626140137,-2.5272911230670374,6.12005506733016,1.0185441970825195,-2.9146927038775843
1708441350.265166,-2.1453235149383545,-1.334742249255516,-2.5272792021380823,6.11994885185317,1.0185099840164185,-2.914707962666647
1708441350.2671678,-2.145313024520874,-1.3347508919290085,-2.5272629896747034,6.119763600617208,1.018527865409851,-2.914856735860006
1708441350.269151,-2.1452813148498535,-1.3347847175649186,-2.5272746721850794,6.119673955231466,1.0184826850891113,-2.914892021809713
1708441350.2711673,-2.14522647857666,-1.334731177692749,-2.527336899434225,6.119474756508627,1.0185457468032837,-2.9150095621692103
1708441350.2731562,-2.1451823711395264,-1.3347223711064835,-2.527276102696554,6.119425880699911,1.0184869766235352,-2.915048424397604
1708441350.2751765,-2.145139217376709,-1.3346820038608094,-2.527288023625509,6.119235741883077,1.0185004472732544,-2.915173117314474
1708441350.27714,-2.145019769668579,-1.3347026419690629,-2.527280394230978,6.119110572129049,1.0184632539749146,-2.91523248354067
1708441350.2791789,-2.1450138092041016,-1.3346875321916123,-2.5272133986102503,6.119047391205587,1.0185294151306152,-2.91534930864443
1708441350.2811515,-2.1449334621429443,-1.3346344095519562,-2.52722675005068,6.118897783547201,1.0184510946273804,-2.9154492060290735
1708441350.283165,-2.144859790802002,-1.3347126257470627,-2.527288023625509,6.1187922833259485,1.018468976020813,-2.9155765215503138
1708441350.285188,-2.1448326110839844,-1.3346026849797745,-2.527250353490011,6.118697869568624,1.01846444606781,-2.9157100359546106
1708441350.2871747,-2.1448006629943848,-1.3346192848733445,-2.527242962514059,6.118481027870931,1.01848566532135,-2.915781323109762
1708441350.2891448,-2.1447699069976807,-1.334644378428795,-2.527214829121725,6.118445265084066,1.0184555053710938,-2.915908400212423
1708441350.2911663,-2.1447434425354004,-1.3345744770816346,-2.527206007634298,6.1183451292808435,1.018419623374939,-2.9160574118243616
1708441350.2931411,-2.144685983657837,-1.3345907640508194,-2.527247492467062,6.118270265847006,1.0184403657913208,-2.9161413351642054
1708441350.2951505,-2.144585371017456,-1.3345681738904496,-2.527182165776388,6.118113624840536,1.0183910131454468,-2.916265074406759
1708441350.2971637,-2.1445465087890625,-1.3345388037017365,-2.5272398630725306,6.118043052941122,1.0184403657913208,-2.91640550294985
1708441350.2991827,-2.1444897651672363,-1.334547520881035,-2.5271788279162806,6.117905366211691,1.0184403657913208,-2.9165216127978724
1708441350.3012102,-2.1445155143737793,-1.3345638078502198,-2.5272071997271937,6.1177888987358,1.0184118747711182,-2.916645113621847
1708441350.3031652,-2.1444802284240723,-1.3345149618438263,-2.5272191206561487,6.117756235390463,1.0183910131454468,-2.916801993046896
1708441350.3051772,-2.144423484802246,-1.3344788712314148,-2.527137104664938,6.1175914881523035,1.0183924436569214,-2.9169657866107386
1708441350.3071475,-2.144329786300659,-1.3344788712314148,-2.5271621386157435,6.117561805039205,1.018399953842163,-2.9170780817614954
1708441350.309152,-2.1442947387695312,-1.3344594699195405,-2.5271998087512415,6.117404806404867,1.0183792114257812,-2.917196575795309
1708441350.3111339,-2.1442954540252686,-1.3344594699195405,-2.527208391820089,6.117321240692892,1.0183836221694946,-2.917406145726339
1708441350.3131304,-2.144263744354248,-1.334426910882332,-2.5271666685687464,6.117177593498983,1.0183383226394653,-2.9175058046924036
1708441350.315175,-2.144221305847168,-1.3344725680402298,-2.5271502176867884,6.117081987648763,1.0183383226394653,-2.917694870625631
1708441350.3171327,-2.1441471576690674,-1.3344159138253708,-2.5271382967578333,6.11692355850295,1.0183684825897217,-2.9178414980517786
1708441350.319165,-2.1441164016723633,-1.3344127249768754,-2.5271876494037073,6.116890656739034,1.0183354616165161,-2.9179771582232874
1708441350.321147,-2.1440844535827637,-1.3343504530242463,-2.527159039174215,6.116738068848409,1.0183113813400269,-2.9181938807116907
1708441350.3231428,-2.1440563201904297,-1.3344409328750153,-2.5271547476397913,6.1167276976402185,1.0182905197143555,-2.9183502832995813
1708441350.3251653,-2.144012928009033,-1.3344541055015107,-2.527159039174215,6.11660789230422,1.0182740688323975,-2.918497625981466
1708441350.3271642,-2.14400053024292,-1.3343798232129593,-2.52714711824526,6.116483676224508,1.0183444023132324,-2.9186607042895716
1708441350.3291945,-2.1439695358276367,-1.3343635511449357,-2.527175251637594,6.11646448352889,1.0183038711547852,-2.9188841024981897
1708441350.331161,-2.1439740657806396,-1.3343520325473328,-2.527130905781881,6.116253840714254,1.0183202028274536,-2.9190648237811487
1708441350.3331714,-2.1439380645751953,-1.3343810004046937,-2.527139488850729,6.116188156395712,1.01829195022583,-2.919206444417135
1708441350.3351886,-2.1438558101654053,-1.3343235117248078,-2.5271220842944544,6.116137134819784,1.0182831287384033,-2.919462029133932
1708441350.3371549,-2.143836259841919,-1.3344095212272187,-2.527163569127218,6.115987884789266,1.0183038711547852,-2.919635597859518
1708441350.3391829,-2.1438205242156982,-1.3343040210059662,-2.527139488850729,6.115929233818807,1.0182468891143799,-2.9198039213763636
1708441350.3411615,-2.1437647342681885,-1.334308387046196,-2.527139488850729,6.1158861992652795,1.01829195022583,-2.9200735727893274
1708441350.3431618,-2.1437771320343018,-1.334291787152626,-2.527118746434347,6.115748870163717,1.01829195022583,-2.920211378728048
1708441350.3451824,-2.143765687942505,-1.3343378466418763,-2.527106825505392,6.115685689240255,1.0182965993881226,-2.9204533735858362
1708441350.3471596,-2.143758773803711,-1.3342930388501664,-2.527118746434347,6.115655886917867,1.0182468891143799,-2.920603338872091
1708441350.3492057,-2.143709182739258,-1.334268019800522,-2.5271032492267054,6.1155093787010095,1.0182585716247559,-2.920791212712423
1708441350.3511553,-2.143676519393921,-1.3343259257129212,-2.5270827452289026,6.115479337960043,1.0182557106018066,-2.9210079352008265
1708441350.3531382,-2.1436657905578613,-1.3342560988715668,-2.5270989576922815,6.11536585071639,1.0182019472122192,-2.9211838881122034
1708441350.35516,-2.143625259399414,-1.3342235398343583,-2.5270705858813685,6.115303027420797,1.0182690620422363,-2.9214208761798304
1708441350.357145,-2.1436383724212646,-1.334261642103531,-2.527090136204855,6.115310656815328,1.0182063579559326,-2.9216485659228724
1708441350.359196,-2.1436383724212646,-1.3342779141715546,-2.5271032492267054,6.115234362870016,1.0182242393493652,-2.9218571821795862
1708441350.3611774,-2.1435861587524414,-1.3342203360847016,-2.5271032492267054,6.115100014000692,1.0181866884231567,-2.922105852757589
1708441350.363165,-2.143500566482544,-1.334245355134346,-2.5270870367633265,6.115053522377767,1.0181822776794434,-2.9222682158099573
1708441350.3651917,-2.143543004989624,-1.3342378747514267,-2.527079407368795,6.114960896759786,1.018195629119873,-2.9225507418261927
1708441350.367148,-2.143489122390747,-1.3341561418822785,-2.527055565510885,6.1149412272270105,1.0181912183761597,-2.922725502644674
1708441350.369171,-2.1434526443481445,-1.3341724139503022,-2.5270872751819056,6.114927518158712,1.018195629119873,-2.9229498545276087
1708441350.3711555,-2.1434459686279297,-1.3341811460307618,-2.527026955281393,6.114809620171346,1.0181626081466675,-2.9231448809253138
1708441350.3731616,-2.1434412002563477,-1.3341191124967118,-2.5270350615130823,6.114757525711813,1.0181626081466675,-2.92338997522463
1708441350.3751786,-2.143373489379883,-1.334165708427765,-2.527039353047506,6.114768016129293,1.0181552171707153,-2.9235451857196253
1708441350.3771656,-2.143299102783203,-1.3341692251018067,-2.52706748643984,6.114604937821188,1.0181715488433838,-2.92377740541567
1708441350.3791637,-2.1433637142181396,-1.334124819641449,-2.5270524660693567,6.114597546845236,1.0181552171707153,-2.923997942601339
1708441350.3811545,-2.1433637142181396,-1.334124819641449,-2.527060095463888,6.114583956986227,1.0181474685668945,-2.9242220560656946
1708441350.3831537,-2.1432859897613525,-1.3341334623149415,-2.52702242532839,6.114524352341451,1.0181552171707153,-2.924441639577047
1708441350.3852017,-2.1432905197143555,-1.334113748078682,-2.5270031134234827,6.114459740906515,1.0181474685668945,-2.9246442953692835
1708441350.3871999,-2.143270969390869,-1.3341093820384522,-2.526978079472677,6.114374744683065,1.0181307792663574,-2.9248531500445765
1708441350.3891861,-2.1432347297668457,-1.3340602082065125,-2.5270074049579065,6.114374744683065,1.0181564092636108,-2.9250674883471888
1708441350.3911834,-2.143218994140625,-1.334142268901207,-2.527043883000509,6.114262330323019,1.0180903673171997,-2.925337616597311
1708441350.3931496,-2.1431736946105957,-1.334113748078682,-2.5269737879382532,6.114273059159078,1.018144130706787,-2.9255736509906214
1708441350.3951805,-2.1431736946105957,-1.3340526533177872,-2.526986900960104,6.114216434746542,1.0180696249008179,-2.925817076359884
1708441350.3971663,-2.143162250518799,-1.334089995627739,-2.5270357767688196,6.114165532379904,1.0181233882904053,-2.926076952611105
1708441350.3991778,-2.143146514892578,-1.3340733808330079,-2.5270074049579065,6.114072906761923,1.0181114673614502,-2.926264826451437
1708441350.4012322,-2.143143653869629,-1.3340658259442826,-2.526970450078146,6.114107358246603,1.0180829763412476,-2.926508967076437
1708441350.403177,-2.1431527137756348,-1.3340363663486023,-2.5270000139819544,6.114029395371237,1.0180543661117554,-2.926791254674093
1708441350.4051702,-2.1431074142456055,-1.3340538156083603,-2.526961867009298,6.11396216133193,1.0181338787078857,-2.9269610087024134
1708441350.407187,-2.1430580615997314,-1.3340246391347428,-2.5269420782672327,6.113942968636312,1.0180466175079346,-2.927160088215963
1708441350.4091678,-2.14302659034729,-1.3340495389750977,-2.5270043055163782,6.11386655548171,1.018034815788269,-2.9273973147021692
1708441350.4111652,-2.1430439949035645,-1.3340093356421967,-2.5269954840289515,6.113837945252218,1.0180302858352661,-2.9276328722583216
1708441350.4131594,-2.1429972648620605,-1.3339885038188477,-2.526961628590719,6.1137874005134485,1.018022894859314,-2.9278951326953333
1708441350.4151628,-2.1429903507232666,-1.3339766275933762,-2.5269671122180384,6.113734948426046,1.0180644989013672,-2.9281144777881067
1708441350.4171727,-2.143003463745117,-1.3340062660029908,-2.5269628206836146,6.113711106568136,1.018022894859314,-2.9283409754382532
1708441350.4191973,-2.1430280208587646,-1.3339766275933762,-2.527008835469381,6.113634931832113,1.0180153846740723,-2.928561512623922
1708441350.4211638,-2.143012046813965,-1.3339899343303223,-2.5269628206836146,6.113622891693868,1.0180065631866455,-2.928789202366964
1708441350.4231594,-2.14294695854187,-1.333965854053833,-2.52696401277651,6.113570558815756,1.018003225326538,-2.9289665857898157
1708441350.4251614,-2.1429872512817383,-1.3339732450297852,-2.526992384587423,6.113506185799398,1.0179775953292847,-2.9292903582202356
1708441350.4271605,-2.1429803371429443,-1.333982230429985,-2.526943031941549,6.113453733711996,1.0180120468139648,-2.929480854664938
1708441350.4291685,-2.142951250076294,-1.333965854053833,-2.526980225239889,6.113434660225668,1.017991065979004,-2.929697100316183
1708441350.431157,-2.1428935527801514,-1.3339094084552308,-2.5269387404071253,6.113348948746481,1.0180000066757202,-2.929981533681051
1708441350.4332008,-2.142869710922241,-1.333937258725502,-2.526959482823507,6.11333595493392,1.0180000066757202,-2.9302144686328333
1708441350.4351697,-2.1428990364074707,-1.333937258725502,-2.52692681947817,6.113295542984762,1.0180288553237915,-2.930448595677511
1708441350.4371612,-2.142871856689453,-1.3338973832181473,-2.526910368596212,6.1132415411765955,1.0179791450500488,-2.930694882069723
1708441350.439154,-2.14288330078125,-1.3339257550290604,-2.526914660130636,6.113287913590231,1.017971396446228,-2.93095833459963
1708441350.4411616,-2.1428680419921875,-1.3339627844146271,-2.5269880930529993,6.113256442337789,1.0179880857467651,-2.9312196413623255
1708441350.4431713,-2.1428558826446533,-1.3339137446931382,-2.52692681947817,6.113192307740011,1.0179550647735596,-2.931417767201559
1708441350.445147,-2.142810821533203,-1.3339461249164124,-2.52692681947817,6.113151776581564,1.017959475517273,-2.931653086339132
1708441350.4472177,-2.1428399085998535,-1.3339461100152512,-2.526935640965597,6.113108622818746,1.017926812171936,-2.9319024721728724
1708441350.4491646,-2.142775535583496,-1.3339137446931382,-2.5269115606891077,6.1130398390586755,1.0179188251495361,-2.9321275393115442
1708441350.4511867,-2.1427390575408936,-1.3339107793620606,-2.526939932500021,6.113024580269613,1.0179475545883179,-2.932321850453512
1708441350.453155,-2.14280104637146,-1.3339062494090577,-2.526914660130636,6.112989294319906,1.0179475545883179,-2.9324870745288294
1708441350.4551475,-2.1427524089813232,-1.3339062494090577,-2.526935640965597,6.112936723023214,1.0179232358932495,-2.9327426592456263
1708441350.4571416,-2.1427524089813232,-1.3338910353234787,-2.5268896261798304,6.112914311676779,1.0179566144943237,-2.932957951222555
1708441350.4591484,-2.1427197456359863,-1.3338851493648072,-2.526919190083639,6.112865078240194,1.0178816318511963,-2.933162275944845
1708441350.4611733,-2.142695903778076,-1.3338807386210938,-2.526907269154684,6.112890469818868,1.0179312229156494,-2.933378044758932
1708441350.4631448,-2.1426966190338135,-1.3338238161853333,-2.526943031941549,6.112817156105795,1.017878532409668,-2.933582131062643
1708441350.4651427,-2.1426808834075928,-1.333901808863022,-2.526931111012594,6.112810957222738,1.017894983291626,-2.9337618986712855
1708441350.467149,-2.1426358222961426,-1.3338821691325684,-2.526939932500021,6.112725960999288,1.0179113149642944,-2.93400222459902
1708441350.469159,-2.1426048278808594,-1.3338895750096817,-2.526914660130636,6.112662899285116,1.0179024934768677,-2.934197250996725
1708441350.4711552,-2.1425607204437256,-1.333886594777443,-2.52690297762026,6.1126407263572595,1.0179039239883423,-2.9343846479998987
1708441350.4731455,-2.142590045928955,-1.3339196008494874,-2.526890579854147,6.112597334175863,1.0178484916687012,-2.934617582951681
1708441350.4751625,-2.1425607204437256,-1.3339137446931382,-2.5269060770617884,6.11256884315566,1.0179083347320557,-2.934873882924215
1708441350.4771657,-2.1424927711486816,-1.3338613969138642,-2.5269115606891077,6.11254237869338,1.0178742408752441,-2.9350956122027796
1708441350.479159,-2.142456531524658,-1.3338702482036133,-2.526939932500021,6.112494337349691,1.017857551574707,-2.935307327901022
1708441350.481199,-2.142456531524658,-1.3338777434876938,-2.526886288319723,6.112467396050253,1.017857551574707,-2.935432020817892
1708441350.4831755,-2.1424131393432617,-1.333849475984909,-2.52690297762026,6.11241506317214,1.017883062362671,-2.9356866518603724
1708441350.4852378,-2.142393112182617,-1.333840550189354,-2.52690297762026,6.112343060761251,1.0178875923156738,-2.935906235371725
1708441350.487242,-2.1423611640930176,-1.333873213534691,-2.5269442240344446,6.112315165787496,1.017857551574707,-2.9360695520984095
1708441350.4892168,-2.1422746181488037,-1.3338628423265,-2.526919190083639,6.112222063332357,1.0179157257080078,-2.9362691084491175
1708441350.492032,-2.142277240753174,-1.3338941049626847,-2.5269179979907435,6.112199890404501,1.0178245306015015,-2.9365440050708216
1708441350.4931803,-2.1422946453094482,-1.3338568967631836,-2.526935640965597,6.112156379013815,1.017953634262085,-2.9366965929614466
1708441350.49517,-2.142195701599121,-1.3338940900615235,-2.526919190083639,6.112104284554281,1.0178663730621338,-2.9369187990771692
1708441350.4971726,-2.142165184020996,-1.333927111034729,-2.526943031941549,6.112065303116598,1.0178619623184204,-2.937113348637716
1708441350.4991853,-2.142136812210083,-1.333901823764183,-2.52692681947817,6.111963617592611,1.017906904220581,-2.937284533177511
1708441350.5012267,-2.142118215560913,-1.333874673848488,-2.5269387404071253,6.111933696060934,1.0178619623184204,-2.9374852816211146
1708441350.5031629,-2.1420164108276367,-1.3339240711978455,-2.526943031941549,6.1118154404456995,1.017883062362671,-2.9376943747149866
1708441350.505172,-2.141922950744629,-1.3338895601085206,-2.527008597050802,6.1117437956626794,1.0179142951965332,-2.937862221394674
1708441350.507161,-2.1419284343719482,-1.3339225959828873,-2.5269671122180384,6.111688363343038,1.0179188251495361,-2.9380210081683558
1708441350.5091867,-2.1418330669403076,-1.3339062494090577,-2.5270031134234827,6.111616718560018,1.0178934335708618,-2.938213888798849
1708441350.5111787,-2.1417853832244873,-1.3339226108840485,-2.5269954840289515,6.1115243313606165,1.0179566144943237,-2.9384334723102015
1708441350.5131476,-2.141732931137085,-1.333901808863022,-2.526970450078146,6.1114446995551965,1.017926812171936,-2.9386587778674524
1708441350.5151508,-2.1417171955108643,-1.3338806939176102,-2.5270524660693567,6.1113566038902185,1.0179097652435303,-2.9388054052936
1708441350.5171602,-2.1416263580322266,-1.3339911711267014,-2.5270851294146937,6.111335742264547,1.0179848670959473,-2.938976828251974
1708441350.5191457,-2.141488552093506,-1.3339328181794663,-2.527092758809225,6.111144292145529,1.017971396446228,-2.9391968886004847
1708441350.521202,-2.141417980194092,-1.333950550561287,-2.5270870367633265,6.111127841263571,1.018025517463684,-2.9393649736987513
1708441350.5231497,-2.141284465789795,-1.333982215528824,-2.5271440188037317,6.110963809281149,1.0180407762527466,-2.939596716557638
1708441350.5251637,-2.1411890983581543,-1.3340018552592774,-2.5271974245654505,6.110830533295431,1.0180480480194092,-2.9397838751422327
1708441350.5271633,-2.1411006450653076,-1.3340378564647217,-2.527184073125021,6.110677945404806,1.0180643796920776,-2.9399426619159144
1708441350.5291762,-2.14103627204895,-1.3340256971171875,-2.5271874109851282,6.110604870110311,1.018088936805725,-2.940087858830587
1708441350.5311556,-2.14094877243042,-1.334016965036728,-2.5272279421435755,6.110462653427877,1.0181293487548828,-2.940277640019552
1708441350.5331597,-2.1407535076141357,-1.3340495389750977,-2.527198378239767,6.110290276795187,1.018099308013916,-2.94047981897463
1708441350.535231,-2.1406466960906982,-1.3340495389750977,-2.5272515455829065,6.110163914948263,1.0181686878204346,-2.9406147638904017
1708441350.5371568,-2.140547752380371,-1.3341343861869355,-2.527254883443014,6.110062229424276,1.0181307792663574,-2.9408531824695032
1708441350.5391748,-2.140388011932373,-1.3341168475202103,-2.5272868315326136,6.1098153469856165,1.0181596279144287,-2.940995756779806
1708441350.5411615,-2.1402201652526855,-1.334108219747879,-2.527339045201437,6.109696018486776,1.018195629119873,-2.9412103335009974
1708441350.5431745,-2.140108585357666,-1.334222526555397,-2.5274210611926478,6.109441745072164,1.0182242393493652,-2.9413438479052942
1708441350.5451796,-2.1398849487304688,-1.3342137199691315,-2.52739125887026,6.109201180725851,1.0182271003723145,-2.941566054021017
1708441350.5471606,-2.13977313041687,-1.3342704486897965,-2.5274644533740442,6.109136569290914,1.0183098316192627,-2.9416964689837855
1708441350.5491781,-2.139599323272705,-1.3342497211745759,-2.5275333563434046,6.108867513924398,1.018324613571167,-2.941885058079855
1708441350.5511708,-2.1394131183624268,-1.3342898351005097,-2.527524773274557,6.108668792038717,1.018377423286438,-2.942051951085226
1708441350.5531473,-2.139225482940674,-1.3343136769584198,-2.5275147596942347,6.10841320732192,1.018388032913208,-2.942282501851217
1708441350.555174,-2.139037847518921,-1.3342755001834412,-2.5276041666613978,6.108211385994711,1.018468976020813,-2.942474667225973
1708441350.5571494,-2.1388678550720215,-1.3344138872674485,-2.5276477972613733,6.1078317044074915,1.0184885263442993,-2.942580048237936
1708441350.5591736,-2.1386523246765137,-1.3343520325473328,-2.527668539677755,6.107627260475912,1.0185693502426147,-2.94281512895693
1708441350.561174,-2.1384077072143555,-1.3344575327685853,-2.527707640324728,6.107342707901754,1.0185878276824951,-2.942941490803854
1708441350.5631564,-2.1381664276123047,-1.3344356280616303,-2.5277438799487513,6.107076513558187,1.0186868906021118,-2.943076197301046
1708441350.565193,-2.1379387378692627,-1.3345139485648652,-2.52781588235964,6.106780993729391,1.0186512470245361,-2.943291250859396
1708441350.5671604,-2.137709140777588,-1.33452461779628,-2.5278101603137415,6.106496679573812,1.0187785625457764,-2.94346267381777
1708441350.5691779,-2.1374599933624268,-1.3345487278750916,-2.5279606024371546,6.106231081276693,1.0188430547714233,-2.94362980524172
1708441350.5711598,-2.137181520462036,-1.3345550757697602,-2.5279467741595667,6.105861651688375,1.0189034938812256,-2.9438098112689417
1708441350.57315,-2.136946678161621,-1.3346281063607712,-2.528019730244772,6.10554467418746,1.0189423561096191,-2.9439614454852503
1708441350.5751672,-2.136629819869995,-1.3346724969199677,-2.5280588308917444,6.105173814087667,1.0189906358718872,-2.94415790239443
1708441350.5771515,-2.1362879276275635,-1.3347289127162476,-2.5281482378589075,6.104769098549642,1.0190507173538208,-2.944312397633688
1708441350.5791721,-2.1359829902648926,-1.3346939247897645,-2.528236691151754,6.104372727661886,1.0191104412078857,-2.944555107747213
1708441350.5811427,-2.1357178688049316,-1.3348082315972825,-2.528287951146261,6.104010927468099,1.0191618204116821,-2.944685761128561
1708441350.5831616,-2.135364532470703,-1.3348116737655182,-2.5283806959735315,6.103686439781942,1.019230842590332,-2.9448049704181116
1708441350.5851955,-2.1350581645965576,-1.3347572845271607,-2.528445068989889,6.103296625405111,1.0192986726760864,-2.944989267979757
1708441350.587191,-2.1347429752349854,-1.3348627847484131,-2.5284677187549036,6.10287224033431,1.01935875415802,-2.9451525847064417
1708441350.58919,-2.13442063331604,-1.3348852556994935,-2.5285773913012903,6.102489101677694,1.01946222782135,-2.945366684590475
1708441350.5911794,-2.134028911590576,-1.3349092167666932,-2.5286322275744837,6.102131473809042,1.0195508003234863,-2.9454858938800257
1708441350.5931554,-2.1337175369262695,-1.334998757844307,-2.528731886540548,6.101635205536642,1.0196443796157837,-2.9456611315356653
1708441350.5951793,-2.1333394050598145,-1.335095615392067,-2.5288081804858606,6.101160394936361,1.019716501235962,-2.9457605520831507
1708441350.597157,-2.1329147815704346,-1.335113839512207,-2.5288801828967493,6.100642788201132,1.0198317766189575,-2.9459946791278284
1708441350.5991867,-2.1325154304504395,-1.3352118742517014,-2.5289674440967005,6.100157129555502,1.019928216934204,-2.9461820761310022
1708441350.6011903,-2.1321003437042236,-1.3352256429246445,-2.529055658970968,6.099633681565084,1.0200005769729614,-2.9463210741626185
1708441350.603187,-2.1317036151885986,-1.3353150349906464,-2.5291438738452356,6.099118101387777,1.0200726985931396,-2.94646126428713
1708441350.6052113,-2.131284713745117,-1.335330383186676,-2.529231373463766,6.098634946137228,1.0201689004898071,-2.9466496149646204
1708441350.6071723,-2.13086199760437,-1.3353943538716813,-2.5293687025653284,6.09811412075118,1.02025306224823,-2.946818176900045
1708441350.6091776,-2.130410671234131,-1.335479201083519,-2.5294321219073694,6.097512709885397,1.0203609466552734,-2.94700533548464
1708441350.6111732,-2.129901647567749,-1.335485504274704,-2.5295313040362757,6.096981036454,1.020445466041565,-2.9471736590014856
1708441350.613161,-2.1295013427734375,-1.3355901700309296,-2.5296524206744593,6.096373665123739,1.020607590675354,-2.947333637868063
1708441350.6151814,-2.129051446914673,-1.3356369149735947,-2.529809538518087,6.095743047982015,1.020687222480774,-2.9475272337542933
1708441350.6171865,-2.128502368927002,-1.3356472563794632,-2.5298922697650355,6.0951764462287805,1.0207743644714355,-2.94766074815859
1708441350.619161,-2.128032922744751,-1.3357606393149872,-2.5299792925464075,6.094503867417135,1.0208615064620972,-2.947833840047018
1708441350.6211786,-2.127495527267456,-1.3358205717853089,-2.5300796667682093,6.093844997673788,1.020918607711792,-2.948026720677511
1708441350.6231697,-2.127018690109253,-1.3359402579120179,-2.5302284399615687,6.093153941422262,1.020993709564209,-2.948153559361593
1708441350.6252117,-2.1264665126800537,-1.335999773149826,-2.5303078333484095,6.092542636185446,1.021115779876709,-2.9483957926379603
1708441350.6271682,-2.1259565353393555,-1.3360997450402756,-2.5304320494281214,6.091806995659628,1.0211995840072632,-2.9485550562488
1708441350.6291656,-2.125349521636963,-1.3361520630172272,-2.5305891672717493,6.091049539833822,1.0213359594345093,-2.9487183729754847
1708441350.63115,-2.1247880458831787,-1.3362519902041932,-2.5306974093066614,6.0903241513069055,1.0214146375656128,-2.9488700071917933
1708441350.633148,-2.1242125034332275,-1.3363194924644013,-2.530759398137228,6.0895259259040735,1.0215436220169067,-2.9490330854998987
1708441350.63516,-2.1236000061035156,-1.3363706034472962,-2.5309372583972376,6.088751661568441,1.021675944328308,-2.949263397847311
1708441350.6371534,-2.1230480670928955,-1.3364466440728684,-2.5310068766223353,6.088005769043722,1.0217843055725098,-2.9494004885302942
1708441350.639167,-2.1224045753479004,-1.33652916670356,-2.531163994465963,6.087221133499899,1.0218684673309326,-2.9496098200427454
1708441350.6411972,-2.12172532081604,-1.3366747957519074,-2.5312228838550013,6.086393344193258,1.0220096111297607,-2.9498074690448206
1708441350.6431782,-2.1211187839508057,-1.3366529208472748,-2.531380001698629,6.085521924286642,1.0221223831176758,-2.9499905745135706
1708441350.6452377,-2.1204030513763428,-1.3367682856372376,-2.5315077940570276,6.084655749588766,1.0222381353378296,-2.9501493612872522
1708441350.6471922,-2.1197657585144043,-1.3368727278760453,-2.5316479841815394,6.083760845452108,1.022349238395691,-2.950411621724264
1708441350.6491718,-2.1190130710601807,-1.336969406609871,-2.5317891279803675,6.082818972855367,1.0224876403808594,-2.950592104588644
1708441350.6512144,-2.118312120437622,-1.3370327663472672,-2.531912151967184,6.081876742630758,1.0226317644119263,-2.9508288542376917
1708441350.6532242,-2.117622137069702,-1.3371848923018952,-2.5320726076709192,6.080900180130758,1.0227011442184448,-2.9509671370135706
1708441350.6551485,-2.116854667663574,-1.3372327548316498,-2.5322209040271204,6.079911100655355,1.0228434801101685,-2.9511800448047083
1708441350.657157,-2.116140127182007,-1.337282658820488,-2.532311026250021,6.078938233643331,1.0229355096817017,-2.9513912836657923
1708441350.6591587,-2.115398645401001,-1.337386892443039,-2.532431427632467,6.078059184342184,1.0230555534362793,-2.951529566441671
1708441350.6611602,-2.1146292686462402,-1.3375150722316285,-2.5325425306903284,6.077069747238912,1.0231728553771973,-2.951766316090719
1708441350.66316,-2.1138949394226074,-1.3376392138055344,-2.5326831976519983,6.0759819624717615,1.023272156715393,-2.951909605656759
1708441350.6651523,-2.112974166870117,-1.3376784038594742,-2.5328765551196497,6.074890005379476,1.023363709449768,-2.9522178808795374
1708441350.66718,-2.112152338027954,-1.3377413910678406,-2.53298002878298,6.073744046479025,1.0235049724578857,-2.9523382822619837
1708441350.6691606,-2.1113357543945312,-1.3378822070411225,-2.533172670994894,6.072673785477438,1.0236492156982422,-2.9525464216815394
1708441350.6711543,-2.1105079650878906,-1.337986798291542,-2.533272091542379,6.07160102108077,1.0236992835998535,-2.9528167883502405
1708441350.6731424,-2.109649181365967,-1.3380660277656098,-2.5334251562701624,6.070518719940939,1.0238085985183716,-2.9529956022845667
1708441350.6751428,-2.1087663173675537,-1.3382062774947663,-2.533567730580465,6.0693585751350305,1.0239617824554443,-2.953212563191549
1708441350.6771648,-2.10793399810791,-1.338321567778923,-2.5336878935443323,6.068239319115438,1.0240206718444824,-2.9533749262439173
1708441350.6791472,-2.10701847076416,-1.3384022873691102,-2.533839289342062,6.066992509156027,1.0241329669952393,-2.9536615053759974
1708441350.6811929,-2.106145143508911,-1.3384964031032105,-2.534024778996603,6.065854418068685,1.0243078470230103,-2.953878704701559
1708441350.6831634,-2.1052491664886475,-1.3385997128537674,-2.534152332936422,6.064636814385214,1.0243736505508423,-2.954118553792135
1708441350.6851776,-2.104309320449829,-1.3387146157077332,-2.5342546145068567,6.063439118653097,1.0244476795196533,-2.9543443361865442
1708441350.687195,-2.103317975997925,-1.3388101321509858,-2.534476343785421,6.062211739807882,1.0246052742004395,-2.9545372168170374
1708441350.6892166,-2.1024420261383057,-1.338929833178856,-2.5345874468432825,6.061014640122213,1.0247013568878174,-2.9547954241382044
1708441350.6912122,-2.101466655731201,-1.339016468530037,-2.534715000783102,6.059684741287985,1.0248034000396729,-2.9550614992724817
1708441350.6931665,-2.1005313396453857,-1.339166135793068,-2.534842554722921,6.058403718262472,1.0248982906341553,-2.9552467505084437
1708441350.6951876,-2.0994913578033447,-1.3392526817372818,-2.5349987188922327,6.057122337609091,1.0249898433685303,-2.955512587224142
1708441350.697164,-2.098505973815918,-1.3393528175405045,-2.535154406224386,6.055807935982504,1.0251147747039795,-2.9557977358447474
1708441350.6991746,-2.097503900527954,-1.339475379591324,-2.5353389422046106,6.054486024170675,1.0252017974853516,-2.9560042063342493
1708441350.7011905,-2.096437692642212,-1.3395501238158722,-2.5354750792132776,6.053035485535421,1.025335669517517,-2.9562564531909388
1708441350.7032015,-2.095379114151001,-1.3397141856006165,-2.535635534917013,6.051597940712728,1.0254318714141846,-2.956496779118673
1708441350.705153,-2.0944108963012695,-1.339875967507698,-2.5357707182513636,6.050185429840841,1.0255519151687622,-2.9567819277392786
1708441350.707133,-2.0934104919433594,-1.340030164723732,-2.5359683672534388,6.0487712500389,1.0256123542785645,-2.9570284525500696
1708441350.709161,-2.0923194885253906,-1.3400701445392151,-2.5361109415637415,6.047412144928732,1.0257291793823242,-2.9572718779193323
1708441350.7111492,-2.0912740230560303,-1.3402644854835053,-2.5362351576434534,6.046061265259542,1.0258378982543945,-2.957576100026266
1708441350.71314,-2.090252637863159,-1.3403169822743912,-2.5363336245166224,6.044624435692587,1.0259003639221191,-2.9578076044665735
1708441350.7151837,-2.08917236328125,-1.340440885429718,-2.5364819208728235,6.04314278343276,1.026001214981079,-2.958042923604147
1708441350.717162,-2.088097333908081,-1.3405812096646805,-2.53664213815798,6.041728961258688,1.026085376739502,-2.9583056608783167
1708441350.7191765,-2.0869901180267334,-1.340729222898819,-2.536806885396139,6.0402448056037805,1.0261802673339844,-2.9586203734027308
1708441350.7211602,-2.0858893394470215,-1.3407891702703019,-2.5369911829577845,6.038662302284994,1.0262644290924072,-2.9589083830462855
1708441350.723158,-2.0847654342651367,-1.340987966661789,-2.537121836339132,6.037121999054708,1.0263980627059937,-2.959140125905172
1708441350.7251837,-2.083650588989258,-1.3411599111608048,-2.537283484135763,6.035633313446798,1.0264731645584106,-2.959477249776022
1708441350.7271557,-2.0825209617614746,-1.3412958842566987,-2.5374155680285853,6.034212577133932,1.026594877243042,-2.9597330729113978
1708441350.7291772,-2.0814127922058105,-1.3414510798505326,-2.537595335637228,6.0327796814735315,1.0266493558883667,-2.9600473085986536
1708441350.731157,-2.080291509628296,-1.341595010166504,-2.5377066771136683,6.031322109490194,1.0266915559768677,-2.9602437655078333
1708441350.733157,-2.07914662361145,-1.3416920018247147,-2.5378506819354456,6.029843795090475,1.0267964601516724,-2.96059495607485
1708441350.7351859,-2.0780136585235596,-1.341899813418724,-2.5380199591266077,6.028287040978231,1.0268895626068115,-2.9608503023730677
1708441350.7372155,-2.076875686645508,-1.3420072805932541,-2.5381503740893763,6.02668987491683,1.02700674533844,-2.961154047642843
1708441350.7391956,-2.075678825378418,-1.342190997009613,-2.5382989088641565,6.025134432106771,1.027050495147705,-2.961416546498434
1708441350.7412035,-2.074505567550659,-1.3423345696977158,-2.5384798685656946,6.023569333344259,1.0271257162094116,-2.9617016951190394
1708441350.7431731,-2.073289155960083,-1.3425110143474122,-2.5385900179492396,6.021967398911276,1.0272636413574219,-2.9619925657855433
1708441350.7451828,-2.0721347332000732,-1.3426994991353531,-2.5386980215655726,6.02028917053298,1.0272985696792603,-2.9622977415667933
1708441350.7471762,-2.0709166526794434,-1.3428025406650086,-2.538898531590597,6.01875005939559,1.027382731437683,-2.962630573903219
1708441350.7492132,-2.0697596073150635,-1.3429444891265412,-2.539034668599264,6.017127501755514,1.02744722366333,-2.9629066626178187
1708441350.7511895,-2.0685014724731445,-1.3431447458318253,-2.5391743818866175,6.015568363457479,1.0275061130523682,-2.963254753743307
1708441350.7531655,-2.067277193069458,-1.343288169508316,-2.539354387913839,6.013956773072042,1.027594804763794,-2.9635821024524134
1708441350.7551556,-2.0660271644592285,-1.3434584897807618,-2.539456907902853,6.0122707960899255,1.0276877880096436,-2.963860336934225
1708441350.757175,-2.0647504329681396,-1.3436470192721863,-2.539650265370504,6.010578858643331,1.027665376663208,-2.9642189184771937
1708441350.7591956,-2.063477039337158,-1.3438759309104462,-2.5398104826556605,6.00884889343337,1.0278409719467163,-2.964532200490133
1708441350.7611487,-2.062263250350952,-1.3440506768277665,-2.5399914423571985,6.007181393891134,1.0278754234313965,-2.964874331151144
1708441350.7631903,-2.060997724533081,-1.344152496462204,-2.540098253880636,6.005521404534139,1.0278983116149902,-2.9651342074023646
1708441350.765179,-2.059739112854004,-1.3443390440991898,-2.5402334372149866,6.0037832138831995,1.0279791355133057,-2.9654584566699427
1708441350.7671404,-2.0584633350372314,-1.34455260754142,-2.5404179731952112,6.002169120102682,1.0280033349990845,-2.965752188359396
1708441350.7691562,-2.0571517944335938,-1.344711424117424,-2.5405705610858362,6.0004992363746545,1.0280919075012207,-2.9660945574389856
1708441350.7711418,-2.0558478832244873,-1.3449279230884095,-2.5406859556781214,5.998730647354879,1.0281519889831543,-2.966424290333883
1708441350.773151,-2.0545172691345215,-1.3450981241515656,-2.540870253239767,5.9969555018241785,1.0282361507415771,-2.966710631047384
1708441350.775173,-2.053264856338501,-1.3453375560096283,-2.5409937540637415,5.995252477913656,1.0282844305038452,-2.9670382181750696
1708441350.777158,-2.0518646240234375,-1.3455199015191575,-2.5411704222308558,5.993516075402059,1.02835214138031,-2.9673424402820032
1708441350.7792041,-2.0505778789520264,-1.345691667204239,-2.5412967840777796,5.991780626564779,1.0284076929092407,-2.967712942753927
1708441350.7811491,-2.0492770671844482,-1.3459818822196503,-2.5414450804339808,5.990059006005087,1.0284438133239746,-2.9680491129504603
1708441350.7831366,-2.047945261001587,-1.3461595934680481,-2.5415967146502894,5.988305079727926,1.028520107269287,-2.9683304468738
1708441350.7851717,-2.0465543270111084,-1.3463882964900513,-2.541736427937643,5.986562716751852,1.0285311937332153,-2.9686577955829065
1708441350.7871995,-2.0451667308807373,-1.3465780180743714,-2.5419707934008997,5.98475609996871,1.028571605682373,-2.9690192381488245
1708441350.7892218,-2.0437629222869873,-1.3468126219562073,-2.542088572178976,5.9828998921211145,1.028648018836975,-2.969337526951925
1708441350.7912076,-2.0423531532287598,-1.347077415590622,-2.542253319417135,5.981045353203573,1.0287007093429565,-2.969698492680685
1708441350.793195,-2.0409839153289795,-1.3472925287536164,-2.542422358189718,5.979264962464132,1.0287774801254272,-2.9700759092914026
1708441350.7951705,-2.0395588874816895,-1.3474853050759812,-2.542586151753561,5.977408277779379,1.0287715196609497,-2.9703853766070765
1708441350.797139,-2.0381853580474854,-1.347748265867569,-2.5427332560168665,5.9755698321159265,1.0288238525390625,-2.9707308451281946
1708441350.799161,-2.0368292331695557,-1.3480265599540253,-2.5428813139544886,5.973726498871603,1.0288931131362915,-2.9710245768176478
1708441350.8011994,-2.0353965759277344,-1.3481997561505814,-2.543021027241842,5.971917736321249,1.0289411544799805,-2.9714484850512903
1708441350.8031793,-2.033996343612671,-1.3484957081130524,-2.543168369923727,5.970123159676351,1.029001235961914,-2.971778933201925
1708441350.8052483,-2.0325076580047607,-1.3488077086261292,-2.543377939854757,5.96834813335494,1.029032826423645,-2.9720988909350794
1708441350.8071604,-2.0311367511749268,-1.3490620118430634,-2.5435131231891077,5.966459500580587,1.0291335582733154,-2.972409788762228
1708441350.8092184,-2.029668092727661,-1.3493072253516694,-2.543685261403219,5.964633691101827,1.0291366577148438,-2.9727981726275843
1708441350.8111925,-2.0282435417175293,-1.3496150982430954,-2.5438368956195276,5.962791907578268,1.0291683673858643,-2.9731786886798304
1708441350.813162,-2.0267601013183594,-1.3498706978610535,-2.544009033833639,5.960960495262899,1.0292818546295166,-2.9735363165484827
1708441350.815177,-2.025333881378174,-1.3501949918321152,-2.544161860142843,5.959085333138265,1.029289722442627,-2.9738970438586634
1708441350.817229,-2.023900270462036,-1.3504493695548554,-2.544304911290304,5.957285630493917,1.0293418169021606,-2.9741771856891077
1708441350.819171,-2.022416591644287,-1.3507032853415986,-2.5445504824267786,5.95537160614089,1.029402256011963,-2.9745829741107386
1708441350.8211823,-2.020925283432007,-1.3510261339000245,-2.544652763997213,5.953464019089498,1.0294535160064697,-2.974889580403463
1708441350.8231995,-2.0194852352142334,-1.3513821375421067,-2.5448742548571985,5.951663243561544,1.0295181274414062,-2.975274626408712
1708441350.825156,-2.017972946166992,-1.3516733211329957,-2.545025889073507,5.949758755951681,1.029557228088379,-2.9756057898150843
1708441350.8271499,-2.01651930809021,-1.3519887787154694,-2.545172993336813,5.947944986611166,1.0295977592468262,-2.9759355227099817
1708441350.8291626,-2.0149359703063965,-1.3523074251464386,-2.5453322569476526,5.946028578072347,1.0296337604522705,-2.9763198534594935
1708441350.8311596,-2.0134432315826416,-1.3526387971690674,-2.545569960271017,5.944060194283285,1.029714822769165,-2.9766505400287073
1708441350.8331738,-2.011824607849121,-1.3529856962016602,-2.5457292238818567,5.942153203278341,1.0297836065292358,-2.9769936243640345
1708441350.8351386,-2.010317802429199,-1.35330122828994,-2.5458884874926966,5.940302955895223,1.0298274755477905,-2.9773338476764124
1708441350.8371685,-2.008866786956787,-1.3536313337138672,-2.546065155659811,5.938454735070028,1.0298787355422974,-2.9777308146106165
1708441350.8391614,-2.0073113441467285,-1.3539827030948182,-2.546269957219259,5.9366211769874475,1.0298779010772705,-2.977985445653097
1708441350.8411415,-2.0058505535125732,-1.354271264081337,-2.5463879744159144,5.9348065731819055,1.0299674272537231,-2.978344742451803
1708441350.8431575,-2.0042805671691895,-1.354685054426529,-2.546588722859518,5.932949292450704,1.029966115951538,-2.97866398492922
1708441350.8451724,-2.0026350021362305,-1.3550724250129242,-2.5468176046954554,5.93094419220046,1.0300108194351196,-2.9790683428393763
1708441350.8471775,-2.0010626316070557,-1.3553757828525086,-2.547009531651632,5.929008948593893,1.030096173286438,-2.979363505040304
1708441350.8491504,-1.9995311498641968,-1.3557764154723664,-2.5471928755389612,5.927070963173666,1.030155062675476,-2.9796786944018763
1708441350.851165,-1.9980090856552124,-1.3561137926629563,-2.54739219347109,5.92518566825942,1.0302395820617676,-2.9800100962268274
1708441350.8532076,-1.9963973760604858,-1.3565057081035157,-2.5475931803332728,5.923250305443563,1.0303248167037964,-2.980366293584005
1708441350.8551438,-1.9948643445968628,-1.356892780666687,-2.5477479139911097,5.9213552353675745,1.0303162336349487,-2.980705801640646
1708441350.8571737,-1.9932565689086914,-1.3572468918612977,-2.547993246709005,5.919418084412374,1.0303802490234375,-2.9810312430011194
1708441350.8591616,-1.9916468858718872,-1.357599915271141,-2.5481353441821497,5.917536484986105,1.0304319858551025,-2.981342617665426
1708441350.8611462,-1.9899749755859375,-1.3580511969378968,-2.548434082661764,5.915545928269186,1.0305489301681519,-2.981706682835714
1708441350.8631678,-1.9883341789245605,-1.358515815143921,-2.548539702092306,5.913509595185079,1.0306450128555298,-2.982070271168844
1708441350.8651576,-1.9867442846298218,-1.3588836801103135,-2.548816744481222,5.911551224976339,1.0306931734085083,-2.982394282017843
1708441350.867181,-1.9850448369979858,-1.3593244713595887,-2.5489967505084437,5.9095953581626794,1.0307892560958862,-2.982725207005636
1708441350.8691537,-1.9833569526672363,-1.3597386938384552,-2.5492332617389124,5.9076706049735925,1.0308243036270142,-2.983027521763937
1708441350.8711796,-1.9817848205566406,-1.3601903033307572,-2.5494089762317103,5.905759084015646,1.0309009552001953,-2.9833391348468226
1708441350.8731463,-1.980088233947754,-1.3606159848025818,-2.549596373234884,5.903778898506918,1.0309606790542603,-2.9836624304400843
1708441350.8751702,-1.9784008264541626,-1.360989586716034,-2.549807850514547,5.901952612191,1.0310614109039307,-2.984015766774313
1708441350.877158,-1.9766966104507446,-1.3614246857217331,-2.550004307423727,5.899985778122701,1.0310930013656616,-2.9843018690692347
1708441350.8791575,-1.9750028848648071,-1.3619536769441147,-2.550195280705587,5.897961127548971,1.031226634979248,-2.9846089521991175
1708441350.8811655,-1.9732304811477661,-1.3623410922339936,-2.550431791936056,5.895958649903097,1.0312657356262207,-2.9849866072284144
1708441350.8831673,-1.9714255332946777,-1.3628568661263962,-2.5506566206561487,5.893921363144674,1.0313620567321777,-2.98527962366213
1708441350.8852048,-1.9696953296661377,-1.363302083020546,-2.550900999699728,5.891832458763876,1.0315030813217163,-2.985631052647726
1708441350.8871987,-1.9679383039474487,-1.3637394619039078,-2.551107947026388,5.889817583351888,1.0316153764724731,-2.9859471956836146
1708441350.8891902,-1.9661946296691895,-1.3642272812179108,-2.551344696675436,5.887802469521322,1.0316952466964722,-2.9862220923053187
1708441350.89116,-1.9644182920455933,-1.364712954764702,-2.5515323320971888,5.885803091316976,1.0317869186401367,-2.986591641102926
1708441350.8931718,-1.9626739025115967,-1.3652142149261017,-2.551796261464254,5.883804785996237,1.0318714380264282,-2.986824337636129
1708441350.8952537,-1.9607720375061035,-1.3657368284514924,-2.552039448414938,5.881739842682638,1.032003402709961,-2.987152878438131
1708441350.897186,-1.9588738679885864,-1.3661926251700898,-2.5522761980639856,5.8796143410499475,1.0321204662322998,-2.987459961568014
1708441350.8991861,-1.957047939300537,-1.3667728465846558,-2.55255633989443,5.877454626351156,1.0322198867797852,-2.9877646605121058
1708441350.9011605,-1.955184817314148,-1.3672520381263276,-2.5527470747577112,5.875386583596029,1.0323610305786133,-2.988088671361105
1708441350.903206,-1.9532830715179443,-1.3678201896003266,-2.5530481974231165,5.873309123307028,1.0324561595916748,-2.9883671442614954
1708441350.9052372,-1.9514501094818115,-1.3683184695294877,-2.553283754979269,5.871244656830587,1.032577633857727,-2.9886143843280237
1708441350.9071527,-1.9495457410812378,-1.3688562375358124,-2.553568188344137,5.869173037796774,1.0326439142227173,-2.9889383951770228
1708441350.9091868,-1.9476855993270874,-1.3693991613439103,-2.5537832419024866,5.867083894997396,1.0328102111816406,-2.9892004171954554
1708441350.9111466,-1.9457026720046997,-1.3699903649142762,-2.554023090993063,5.864987599640646,1.032893419265747,-2.989494864140646
1708441350.9131553,-1.9437689781188965,-1.370503620510437,-2.554328266774313,5.862786400109091,1.0330740213394165,-2.989755694066183
1708441350.9151733,-1.9417606592178345,-1.3710942280343552,-2.554525915776388,5.860618102341451,1.0331699848175049,-2.9900787512408655
1708441350.9171636,-1.9397703409194946,-1.3717291516116639,-2.554863754902975,5.858356940537252,1.0333142280578613,-2.990380350743429
1708441350.9192383,-1.937774658203125,-1.3721744430116196,-2.5551603476153772,5.856214391976156,1.0334880352020264,-2.9905715624438685
1708441350.9211762,-1.935799479484558,-1.3728124809316178,-2.5553951899157923,5.8539795754249475,1.0336401462554932,-2.990922276173727
1708441350.9231596,-1.9338481426239014,-1.3734886956265946,-2.5557153860675257,5.851781832962789,1.0337843894958496,-2.9911888281451624
1708441350.9251857,-1.931823492050171,-1.3740165692618866,-2.5559750239001673,5.849645840912618,1.0339241027832031,-2.9915033022509974
1708441350.9271488,-1.9297653436660767,-1.3746320617249985,-2.556283775960104,5.847452389984884,1.0341355800628662,-2.99178129831423
1708441350.9291894,-1.9277007579803467,-1.3752505642226716,-2.5565999189959925,5.8452303288276575,1.0342621803283691,-2.9920313994037073
1708441350.931194,-1.9256110191345215,-1.3758895558169861,-2.5568509737597864,5.843009817391195,1.0343811511993408,-2.9922760168658655
1708441350.9331706,-1.9234797954559326,-1.3765621048263093,-2.557159725819723,5.840851890831747,1.0346077680587769,-2.992509190236227
1708441350.9351683,-1.9213615655899048,-1.3772206169417878,-2.557474199925558,5.838596927910604,1.0347310304641724,-2.992851797734396
1708441350.9371932,-1.9192177057266235,-1.377857894902565,-2.5577459971057337,5.836352216988363,1.0348502397537231,-2.9930241743670862
1708441350.939172,-1.9171372652053833,-1.378498153095581,-2.5581193606006067,5.834113824158468,1.0350512266159058,-2.993290964757101
1708441350.9411733,-1.9149469137191772,-1.379144863491394,-2.558354441319601,5.831776487618246,1.035203218460083,-2.993523422871725
1708441350.9431503,-1.9128104448318481,-1.3797511917403718,-2.558662001286642,5.829565036087789,1.0353583097457886,-2.993866030369894
1708441350.9451668,-1.9106600284576416,-1.3804200154593964,-2.5589826742755335,5.827249157219686,1.0355473756790161,-2.994103733693258
1708441350.9471488,-1.9085232019424438,-1.3810764712146302,-2.559319082890646,5.82506691196517,1.035772681236267,-2.9943602720843714
1708441350.9491751,-1.9064290523529053,-1.3817351919463654,-2.5595701376544397,5.822814810066976,1.0358991622924805,-2.994531218205587
1708441350.951168,-1.9042842388153076,-1.3823696982911606,-2.559950892125265,5.820512521057882,1.0361049175262451,-2.994770590459005
1708441350.9531522,-1.9020847082138062,-1.383126215343811,-2.5601607004748743,5.818163502007284,1.0362775325775146,-2.9949539343463343
1708441350.955157,-1.8998222351074219,-1.3838377606919785,-2.5606070200549524,5.815852868347921,1.0364524126052856,-2.9952011744128626
1708441350.9571717,-1.8976233005523682,-1.3845489186099549,-2.5608986059771937,5.813460695534506,1.036720633506775,-2.9953752199756067
1708441350.9591794,-1.8953927755355835,-1.3852010828307648,-2.561246697102682,5.811216461449423,1.0369150638580322,-2.9956420103656214
1708441350.961192,-1.893202781677246,-1.3859155041030427,-2.561547819768087,5.808977710991659,1.037131667137146,-2.9957621733294886
1708441350.963169,-1.8910152912139893,-1.386590452199318,-2.561842981969015,5.806706416397848,1.0373072624206543,-2.996035639439718
1708441350.9651914,-1.8887789249420166,-1.387335167532303,-2.5621300379382532,5.804491865425863,1.0374969244003296,-2.996211115513937
1708441350.9671423,-1.8865489959716797,-1.3880341810039063,-2.562495295201437,5.802313434868612,1.0376156568527222,-2.9964352289782923
1708441350.9691658,-1.8842992782592773,-1.3887272340110322,-2.5627551714526575,5.799985158234396,1.0378739833831787,-2.9965208212481897
1708441350.9711425,-1.882111668586731,-1.389401377444603,-2.5630820433246058,5.797773349076071,1.0381262302398682,-2.9967952410327356
1708441350.9731643,-1.8798983097076416,-1.3901779514602204,-2.5634682814227503,5.795523750572958,1.0383710861206055,-2.9969750086413782
1708441350.9751663,-1.8777563571929932,-1.3908686649850388,-2.5637224356280726,5.7932448265846155,1.0385620594024658,-2.9971471468554896
1708441350.9771464,-1.8755298852920532,-1.3915886890939255,-2.5640419165240687,5.7909947512443445,1.0387938022613525,-2.997289244328634
1708441350.979171,-1.873403787612915,-1.3922702980092545,-2.5643821398364466,5.788724052696981,1.0389816761016846,-2.99743897119631
1708441350.9811373,-1.8711668252944946,-1.3930087697556992,-2.5647388140307825,5.786452281266012,1.0392279624938965,-2.997598711644308
1708441350.9831793,-1.869001865386963,-1.3936541986516495,-2.5650506655322474,5.78418909290389,1.039465308189392,-2.9977923075305384
1708441350.9851801,-1.8668020963668823,-1.3944147688201447,-2.5653539339648646,5.781992900162496,1.0396654605865479,-2.997939173375265
1708441350.9871817,-1.8645868301391602,-1.3950917434743424,-2.5657225290881556,5.779811131745138,1.0398155450820923,-2.9981518427478235
1708441350.9892135,-1.8623756170272827,-1.395777554517128,-2.5660746733294886,5.777568924217977,1.0400454998016357,-2.9982624689685267
1708441350.9911833,-1.860171914100647,-1.3965289455703278,-2.5663374106036585,5.7753662941749475,1.0401885509490967,-2.9984257856952112
1708441350.9931831,-1.8579844236373901,-1.3972395074418564,-2.5666735808001917,5.773173081665792,1.0404046773910522,-2.998622004185812
1708441350.995162,-1.855745553970337,-1.3979288798621674,-2.567021433507101,5.770985352783956,1.0406345129013062,-2.9988279978381556
1708441350.9972064,-1.8536025285720825,-1.3986272674850007,-2.5673704783069056,5.768725740700521,1.0408360958099365,-2.9989500681506556
1708441350.9992137,-1.851404070854187,-1.3993518066457291,-2.5676942507373255,5.766523349076071,1.0410195589065552,-2.99915057817568
1708441351.0011935,-1.8491747379302979,-1.4000368428281327,-2.5680061022387903,5.764268982201376,1.0412598848342896,-2.9992809931384485
1708441351.0032387,-1.8470289707183838,-1.4007276010564347,-2.5683303515063685,5.762016999512472,1.0414677858352661,-2.999456230794088
1708441351.005185,-1.844781756401062,-1.4014940124801178,-2.568652931843893,5.75984154918746,1.0417331457138062,-2.999640766774313
1708441351.0071955,-1.8426567316055298,-1.4020717603019257,-2.568988863621847,5.757602798729696,1.04194974899292,-2.999824825917379
1708441351.0091884,-1.8404691219329834,-1.4028195601752778,-2.569345299397604,5.755282032280721,1.0421587228775024,-2.999996010457174
1708441351.0111883,-1.8382943868637085,-1.4035117042115708,-2.5696571508990687,5.75302945354537,1.042378306388855,-3.000159565602438
1708441351.0131736,-1.8360954523086548,-1.4042229515365143,-2.5699694792376917,5.750855791359701,1.0425539016723633,-3.000299040471212
1708441351.0152116,-1.8338901996612549,-1.4048606169274827,-2.570244375859396,5.748683559685507,1.042790174484253,-3.000495497380392
1708441351.0171535,-1.8316774368286133,-1.4056203377297898,-2.5706053415881556,5.746520507126608,1.042974829673767,-3.000688378010885
1708441351.0191686,-1.8294867277145386,-1.4062768083861847,-2.570936981831686,5.744249570160665,1.0432031154632568,-3.00083834329714
1708441351.021164,-1.8272199630737305,-1.407047064309456,-2.5712652842151087,5.74207495430068,1.0434030294418335,-3.0010181109057825
1708441351.0231698,-1.8250280618667603,-1.4077026706985016,-2.5716174284564417,5.739860403328695,1.043562412261963,-3.0012269655810755
1708441351.0251503,-1.822827935218811,-1.4084147077849885,-2.5719171206103724,5.737654197006979,1.0438085794448853,-3.001315418873922
1708441351.02717,-1.8205780982971191,-1.4091087889722367,-2.572195116673605,5.735416996269979,1.0439956188201904,-3.0015252272235315
1708441351.029165,-1.8183720111846924,-1.4097659450820466,-2.5725160280810755,5.733124601631918,1.044213056564331,-3.001693073903219
1708441351.031146,-1.8161324262619019,-1.4105029118112107,-2.5728519598590296,5.730969655304708,1.0444296598434448,-3.0018697420703333
1708441351.0331612,-1.8139442205429077,-1.4111198794892807,-2.573221747075216,5.7287268517311,1.0446535348892212,-3.0020347277270716
1708441351.0351582,-1.811757206916809,-1.411826492553093,-2.57351261774172,5.72646056392745,1.0448790788650513,-3.002155605946676
1708441351.037149,-1.8095731735229492,-1.412518010740616,-2.573865000401632,5.7242705700691126,1.0450339317321777,-3.002281729375021
1708441351.039206,-1.807306170463562,-1.4131759417108078,-2.5741432348834437,5.722002494126119,1.0452457666397095,-3.002462689076559
1708441351.0411553,-1.8051791191101074,-1.4139292550138016,-2.574496571217672,5.719796883850851,1.0454918146133423,-3.0026500860797327
1708441351.043184,-1.8030157089233398,-1.4146304440549393,-2.5747745672809046,5.717630135803976,1.0456712245941162,-3.002798382435934
1708441351.0451741,-1.8007820844650269,-1.4153215301087876,-2.57516056696047,5.715380775719442,1.0459084510803223,-3.0029826799975794
1708441351.0471895,-1.7985774278640747,-1.4160251927426835,-2.575473133717672,5.713231313019552,1.0461128950119019,-3.003166977559225
1708441351.049165,-1.7963578701019287,-1.4167387795499344,-2.575813118611471,5.710997211724081,1.0462960004806519,-3.0033207575427454
1708441351.0511758,-1.7941266298294067,-1.4174486857703705,-2.576050583516256,5.70879219749526,1.0465410947799683,-3.0035539309131067
1708441351.05315,-1.7919002771377563,-1.4181818229011078,-2.576427761708395,5.706595170288839,1.0467498302459717,-3.003676954899923
1708441351.0551448,-1.7897047996520996,-1.4188175958446045,-2.576714817677633,5.704424547940054,1.0469915866851807,-3.0038579146014612
1708441351.0571563,-1.7874863147735596,-1.419602097277977,-2.5770226160632532,5.70219777801589,1.0472246408462524,-3.0039873758899134
1708441351.0591764,-1.7852647304534912,-1.4202681344798584,-2.577354971562521,5.699949610024252,1.047379732131958,-3.00419527689089
1708441351.0611792,-1.7831058502197266,-1.4209700685790558,-2.577675167714254,5.697775828629293,1.0476692914962769,-3.0043721834765833
1708441351.0631504,-1.7809118032455444,-1.4217068266919632,-2.577954117451803,5.695481645851888,1.0479099750518799,-3.004528347645895
1708441351.0651703,-1.7787383794784546,-1.4224335712245484,-2.5783143679248255,5.693265068321981,1.048097848892212,-3.0047288576709192
1708441351.0671628,-1.7765506505966187,-1.4231561732343216,-2.57864219347109,5.69097380617217,1.0483143329620361,-3.0048421064959925
1708441351.0691502,-1.774375081062317,-1.4238475573113938,-2.57900315919985,5.688757109432974,1.048563838005066,-3.00511342683901
1708441351.071185,-1.7721436023712158,-1.4245784145644684,-2.579306189213888,5.686438011914053,1.048828125,-3.0052483717547815
1708441351.0731337,-1.7700271606445312,-1.4252066773227234,-2.5796585718738,5.684309887676992,1.0489983558654785,-3.005394999180929
1708441351.0751436,-1.7678382396697998,-1.426007406120636,-2.579965893422262,5.682046878128805,1.0492222309112549,-3.0055790583239954
1708441351.0771427,-1.7656155824661255,-1.4267689448646088,-2.5803261438952845,5.6797958491142175,1.0494189262390137,-3.005676809941427
1708441351.0791526,-1.763405203819275,-1.4273834240487595,-2.5805931727038782,5.677577304631033,1.049599528312683,-3.0059359709369105
1708441351.0811386,-1.76121985912323,-1.4280813944390793,-2.5809791723834437,5.675371157913961,1.0497380495071411,-3.0060837904559534
1708441351.0831282,-1.7589927911758423,-1.4288222801736374,-2.5812376181231897,5.673098194390096,1.049940586090088,-3.0062547365771692
1708441351.0851462,-1.7568292617797852,-1.429551587705948,-2.581557337437765,5.670890140324392,1.0500881671905518,-3.0063634554492396
1708441351.0871525,-1.7546658515930176,-1.430300460462906,-2.581831757222311,5.668707120209493,1.0502891540527344,-3.00658089319338
1708441351.0891852,-1.7524620294570923,-1.4310079675963898,-2.5821598211871546,5.666461336403646,1.050541877746582,-3.0067203680621546
1708441351.0911891,-1.7502970695495605,-1.4316764187863846,-2.582536760960714,5.664241838246145,1.0506861209869385,-3.006908957158224
1708441351.0931702,-1.748119592666626,-1.4324132067016144,-2.582844082509176,5.661963569908895,1.0509101152420044,-3.0070560614215296
1708441351.0952,-1.7458739280700684,-1.4331088376096268,-2.583212200795309,5.65977172830657,1.0510977506637573,-3.007230822240011
1708441351.0971704,-1.7436939477920532,-1.4337308269790192,-2.5835564772235315,5.6575368521507166,1.0513548851013184,-3.0074241797076624
1708441351.0991635,-1.7414860725402832,-1.4344271582416077,-2.583801809941427,5.655378806381979,1.0515592098236084,-3.0075209776507776
1708441351.1011732,-1.739266276359558,-1.4351226550391694,-2.5841546694384974,5.6531943557556055,1.0518370866775513,-3.007747475300924
1708441351.1031566,-1.7371243238449097,-1.4358199697783967,-2.5845094362842005,5.6509894011314294,1.0520164966583252,-3.0079031626330774
1708441351.1052103,-1.734878659248352,-1.4365628820708771,-2.5847964922534388,5.64881061294631,1.0522865056991577,-3.008083168660299
1708441351.1071975,-1.73268461227417,-1.437305138712265,-2.5851452986346644,5.6466107843215845,1.0524851083755493,-3.0082672278033655
1708441351.1095593,-1.7304601669311523,-1.4380113047412415,-2.5854771772967737,5.644420015602865,1.0526882410049438,-3.0083981196032923
1708441351.1111789,-1.7282474040985107,-1.4386618298343201,-2.585780445729391,5.6421790001686,1.0529640913009644,-3.0085952917682093
1708441351.1131594,-1.7260326147079468,-1.4394014042666932,-2.5860963503467005,5.639975178032675,1.0530489683151245,-3.008770529423849
1708441351.1152315,-1.72381591796875,-1.4400141549161454,-2.586407725011007,5.637706327229299,1.0533323287963867,-3.0089502970324915
1708441351.1171677,-1.721642255783081,-1.4406556648067017,-2.586698357258932,5.635541188507833,1.0534905195236206,-3.009141985570089
1708441351.1191792,-1.7194414138793945,-1.4414470952800293,-2.5870590845691126,5.633313286095419,1.0537313222885132,-3.0093098322497767
1708441351.1211755,-1.717264175415039,-1.4421262008002778,-2.587385956441061,5.63099484422759,1.0539891719818115,-3.0094321409808558
1708441351.1231573,-1.7150013446807861,-1.4427916568568726,-2.5877135435687464,5.628764676838674,1.054181694984436,-3.0096352736102503
1708441351.1251705,-1.712794542312622,-1.4434890312007447,-2.5879958311664026,5.62648622968749,1.0543321371078491,-3.0097838083850306
1708441351.1271555,-1.7106314897537231,-1.444165752535202,-2.5883684794055384,5.62428246715621,1.0545848608016968,-3.009984556828634
1708441351.129164,-1.7084550857543945,-1.444848821764328,-2.5886758009540003,5.622129249363699,1.054819107055664,-3.0101240316974085
1708441351.1311855,-1.70622718334198,-1.4455493849566956,-2.5889621416675013,5.6198638556297205,1.0550428628921509,-3.010228459035055
1708441351.1331565,-1.7039729356765747,-1.446298972969391,-2.5893476645099085,5.61767594793395,1.0552338361740112,-3.0104427973376673
1708441351.1351693,-1.7017942667007446,-1.4470007506063958,-2.589675013219015,5.615477847843923,1.0555371046066284,-3.01058537164797
1708441351.1371722,-1.69955575466156,-1.4476702821305771,-2.5900345484363,5.613281714707174,1.0556998252868652,-3.010749642048971
1708441351.1392004,-1.697338342666626,-1.4484611761621018,-2.590342108403341,5.611044156342306,1.0559598207473755,-3.010909620915548
1708441351.1411526,-1.6951125860214233,-1.4490750891021271,-2.590641800557272,5.608794677048483,1.0561314821243286,-3.0110800901996058
1708441351.1431797,-1.692920446395874,-1.4497512739947815,-2.59095269838442,5.606614398747244,1.0563338994979858,-3.0112527052508753
1708441351.145203,-1.6906970739364624,-1.4505115908435364,-2.5912681261645716,5.604391979962148,1.056533694267273,-3.0114625136004847
1708441351.147181,-1.6885679960250854,-1.4511934083751221,-2.591616932545797,5.602145778923788,1.0566842555999756,-3.011646572743551
1708441351.1491785,-1.686335563659668,-1.4519300696304818,-2.5919275919543665,5.599841761379995,1.0568515062332153,-3.011735264454977
1708441351.1511526,-1.6841530799865723,-1.4526404601386567,-2.5922673384295862,5.597631084709921,1.0571426153182983,-3.011892859135763
1708441351.1531832,-1.6819815635681152,-1.4533696633628388,-2.5925331751452845,5.595423686295309,1.057342290878296,-3.0120907465564173
1708441351.1551814,-1.679813265800476,-1.4540097576430817,-2.592898432408468,5.593203353672781,1.0575870275497437,-3.0122950712787073
1708441351.1571364,-1.6776472330093384,-1.4546996367028733,-2.5932465235339563,5.5910324333007715,1.0578126907348633,-3.0124884287463587
1708441351.1591852,-1.675491213798523,-1.4554860082319756,-2.593515698109762,5.58882616737441,1.058024525642395,-3.012634579335348
1708441351.161149,-1.6732394695281982,-1.4561618503979226,-2.593855683003561,5.586595403939047,1.0582081079483032,-3.012831513081686
1708441351.1631432,-1.6710706949234009,-1.4568237003735085,-2.594217363988058,5.584387707501211,1.05845308303833,-3.012986723576681
1708441351.165196,-1.6688501834869385,-1.4575520989349862,-2.594569508229391,5.582128512650289,1.058681607246399,-3.0131242910968226
1708441351.1671655,-1.666689157485962,-1.4583016720465203,-2.594867769871847,5.579917359143057,1.0588362216949463,-3.013357702885763
1708441351.1691692,-1.6644208431243896,-1.4590025928667565,-2.5951910654651087,5.57774709442214,1.0591022968292236,-3.013550106679098
1708441351.1711628,-1.662199854850769,-1.4597164329937478,-2.5954702536212366,5.575462984829702,1.0593321323394775,-3.0136845747577112
1708441351.1731465,-1.6600382328033447,-1.4604609695127984,-2.595830504094259,5.573244797974386,1.059535026550293,-3.0138285795794886
1708441351.1751676,-1.657809853553772,-1.4610815730741997,-2.5961082617389124,5.57105706909255,1.0597470998764038,-3.014029089604513
1708441351.1771576,-1.6556414365768433,-1.4618094202927132,-2.596400562916891,5.568744706898489,1.0599138736724854,-3.0141761938678187
1708441351.1791706,-1.6534777879714966,-1.4625322756222268,-2.5968056360827845,5.566516685276785,1.0601723194122314,-3.0143190065967005
1708441351.181145,-1.6513028144836426,-1.463244968359806,-2.5971201101886194,5.564283358841696,1.0603928565979004,-3.014531675969259
1708441351.183143,-1.6490744352340698,-1.4639262047461052,-2.5974438826190394,5.562041151314535,1.0606094598770142,-3.014657799397604
1708441351.185184,-1.646975040435791,-1.4646989193609734,-2.5977469126330774,5.559825706272878,1.0608289241790771,-3.0148094336139124
1708441351.1871526,-1.6447473764419556,-1.4652955320528527,-2.5981226603137415,5.557656156807699,1.0610302686691284,-3.0150113741504114
1708441351.189184,-1.6424822807312012,-1.4660432648709794,-2.59839374223818,5.55543481090621,1.0612186193466187,-3.015141550694601
1708441351.1911733,-1.6402634382247925,-1.4667784062078972,-2.598729435597555,5.553241002350607,1.0614358186721802,-3.0153682867633265
1708441351.1931584,-1.6380035877227783,-1.4674916428378602,-2.599070135747091,5.551043557911672,1.0615986585617065,-3.0155025164233606
1708441351.1951642,-1.6358230113983154,-1.4681416985443612,-2.5993850866900843,5.5488237021263025,1.0618077516555786,-3.015723530446188
1708441351.1971502,-1.6335690021514893,-1.468892903333046,-2.5996881167041224,5.546596336155691,1.0619655847549438,-3.0158541838275355
1708441351.1991498,-1.6313828229904175,-1.4695919689587136,-2.6000364462481897,5.544377553253927,1.062204122543335,-3.016001288090841
1708441351.2011442,-1.6292299032211304,-1.4702521425536652,-2.6003645102130335,5.542175042420187,1.0624821186065674,-3.016171995793478
1708441351.203155,-1.6269514560699463,-1.471043736939766,-2.600649897252218,5.539953458100118,1.0626775026321411,-3.016327206288473
1708441351.2052038,-1.624835729598999,-1.4717181485942383,-2.600969139729635,5.537693369179525,1.0628609657287598,-3.016540590916769
1708441351.207156,-1.62262761592865,-1.4724156421474,-2.601358954106466,5.535449790745535,1.063126802444458,-3.016724173222677
1708441351.20922,-1.6204456090927124,-1.4730818581632157,-2.601638142262594,5.533171999245443,1.0632864236831665,-3.0168796221362513
1708441351.211173,-1.6182087659835815,-1.4737397295287629,-2.6019981543170374,5.531004416733541,1.0634772777557373,-3.0170884768115442
1708441351.213177,-1.6160703897476196,-1.474481613641121,-2.6023293177234095,5.528854954033651,1.06373131275177,-3.0171693007098597
1708441351.215169,-1.613821268081665,-1.475195826297142,-2.6026199499713343,5.526585447579183,1.0639610290527344,-3.01737887064089
1708441351.2171662,-1.6116611957550049,-1.475877658729889,-2.60296875635256,5.524447607785024,1.0641731023788452,-3.0175257364856165
1708441351.2191794,-1.6094510555267334,-1.4765773576549073,-2.603267494832174,5.5222030756767175,1.064405918121338,-3.017667595540182
1708441351.2211897,-1.6072105169296265,-1.4772304457477112,-2.6035552660571497,5.520070183068075,1.0645594596862793,-3.0178688208209437
1708441351.2231805,-1.605035662651062,-1.4779555362514039,-2.6038828531848353,5.5177944777305505,1.0647799968719482,-3.0179954210864466
1708441351.2251565,-1.6027652025222778,-1.4787238997272034,-2.6042519251452845,5.515532958298483,1.065034031867981,-3.01823336282839
1708441351.2271566,-1.600598692893982,-1.4794548910907288,-2.604562584553854,5.513339864998617,1.065238356590271,-3.018430296574728
1708441351.229147,-1.5983786582946777,-1.4801035982421418,-2.604878012334005,5.511170136719503,1.065474510192871,-3.01854378381838
1708441351.2311506,-1.5962276458740234,-1.4808316093734284,-2.605168406163351,5.508935439377584,1.0656862258911133,-3.0187087694751185
1708441351.2331471,-1.5939791202545166,-1.4815374475768586,-2.605521265660421,5.506645607739248,1.0659071207046509,-3.018863026295797
1708441351.2351425,-1.5918127298355103,-1.4822471153787156,-2.605778519307272,5.504329132824697,1.066063642501831,-3.0190637747394007
1708441351.2371647,-1.589648962020874,-1.4829170566848298,-2.6061478296863,5.502096402436056,1.0662841796875,-3.019209686909811
1708441351.2391777,-1.587446928024292,-1.4835834142616768,-2.6064475218402308,5.499864029675283,1.0664591789245605,-3.0194245020495813
1708441351.2411735,-1.5852832794189453,-1.4842709389379998,-2.6067338625537317,5.497605728894033,1.0667054653167725,-3.0195708910571497
1708441351.2431817,-1.5831232070922852,-1.4850423869541665,-2.6070738474475306,5.4954460737998865,1.0668929815292358,-3.0197752157794397
1708441351.2451987,-1.5809012651443481,-1.4857871767929574,-2.6074464956866663,5.493278372078695,1.0670804977416992,-3.0199301878558558
1708441351.2471755,-1.5786820650100708,-1.486476646070816,-2.6077361742602747,5.4909769771392725,1.0672967433929443,-3.0200815836535853
1708441351.2491617,-1.5764843225479126,-1.4871829462102433,-2.6080971399890345,5.488829242974081,1.0675983428955078,-3.0202539602862757
1708441351.2511675,-1.5743006467819214,-1.4878639739802857,-2.608391825352804,5.486608195095815,1.067805528640747,-3.0203915278064173
1708441351.253217,-1.5720689296722412,-1.4885544043830414,-2.6087122599231165,5.48435931184844,1.067964792251587,-3.020533625279562
1708441351.255161,-1.5698031187057495,-1.489276723270752,-2.608985487614767,5.482145058899679,1.068181037902832,-3.0207675139056605
1708441351.2571666,-1.5676798820495605,-1.4899372619441529,-2.6092897097217005,5.479962098389425,1.0683821439743042,-3.0209155718432825
1708441351.25916,-1.565459966659546,-1.4906113904765625,-2.60968262354006,5.4777623293693445,1.0685728788375854,-3.02112847963442
1708441351.2611947,-1.563236117362976,-1.4913367492011567,-2.609989945088522,5.475525486260214,1.068805456161499,-3.0212839285479944
1708441351.263164,-1.5610665082931519,-1.4920317393592377,-2.6103463808642786,5.4732276675994775,1.0690953731536865,-3.021423403416769
1708441351.2652225,-1.5588338375091553,-1.4927344185164948,-2.6106281916247767,5.470981347351827,1.0693235397338867,-3.021557394658224
1708441351.2671692,-1.5566737651824951,-1.4933622416904946,-2.6110051313983362,5.468830811768331,1.0695918798446655,-3.021794382725851
1708441351.2691827,-1.554451823234558,-1.4941034478000184,-2.611311737691061,5.4666656134422205,1.0697991847991943,-3.0219460169421595
1708441351.2711833,-1.5522793531417847,-1.4947942060283204,-2.611697260533468,5.464424121170797,1.0700066089630127,-3.022125784550802
1708441351.2731495,-1.5500596761703491,-1.495514528160431,-2.611987892781393,5.462183165341177,1.070215106010437,-3.022266213093893
1708441351.2751775,-1.5478671789169312,-1.4961486619761963,-2.612310234700338,5.460009145527639,1.0703953504562378,-3.022486750279562
1708441351.2771766,-1.5456655025482178,-1.4968750935843964,-2.6126022974597376,5.457787024765768,1.0706204175949097,-3.02263313928713
1708441351.279261,-1.5434597730636597,-1.497583584194519,-2.612889830266134,5.455607938557424,1.0707423686981201,-3.0228081385241907
1708441351.28116,-1.5411860942840576,-1.4982654017261048,-2.6132167021380823,5.453274118691244,1.0709151029586792,-3.022964064274923
1708441351.2831647,-1.5389912128448486,-1.4990400236896058,-2.613532606755392,5.451078939228811,1.0710713863372803,-3.023130480443136
1708441351.2851748,-1.5367496013641357,-1.4997003835490723,-2.6138601938830774,5.448887693672933,1.071251630783081,-3.0233116785632532
1708441351.287154,-1.5346136093139648,-1.5003763002208252,-2.614192549382345,5.446698772698202,1.0714807510375977,-3.02342659631838
1708441351.289219,-1.532431960105896,-1.5010812741569062,-2.614523951207296,5.44446616151885,1.071692705154419,-3.023672882710592
1708441351.2911804,-1.5302454233169556,-1.5018693891218682,-2.6148503462420862,5.442222225456991,1.0718681812286377,-3.0238364378558558
1708441351.2931721,-1.5280468463897705,-1.5025196087411423,-2.615222994481222,5.439969944744863,1.0720770359039307,-3.024020020161764
1708441351.2951865,-1.5258475542068481,-1.5032022532871743,-2.6155181566821497,5.4376816032226465,1.0723545551300049,-3.02415901819338
1708441351.2971616,-1.52366042137146,-1.5039150726846238,-2.615852181111471,5.435507583409109,1.0725785493850708,-3.0243552366839808
1708441351.2991886,-1.5214987993240356,-1.5046069634011765,-2.6161847750293177,5.433347332268514,1.0728024244308472,-3.0245021025287073
1708441351.301155,-1.5193336009979248,-1.505355865960457,-2.6165528933154505,5.431105243950643,1.0730541944503784,-3.024669949208395
1708441351.3031986,-1.5170999765396118,-1.5060415130904694,-2.6168232599841517,5.428869533329763,1.073360562324524,-3.024835173283712
1708441351.3052123,-1.5148804187774658,-1.5067450863173981,-2.617171589528219,5.426657783776083,1.0736080408096313,-3.025043312703268
1708441351.3072076,-1.5126951932907104,-1.5074426096728821,-2.617401663457052,5.424419808178701,1.0737868547439575,-3.0252133051501673
1708441351.3091805,-1.510487675666809,-1.5081554514220734,-2.617758099232809,5.422166573792257,1.0739986896514893,-3.0253871122943323
