Eg3-git/Classifiers/Data Collection/u7/u7xyz1_ur3e_joint_states.csv
time,elbow_joint,shoulder_lift_joint,shoulder_pan_joint,wrist_1_joint,wrist_2_joint,wrist_3_joint
1708441186.246626,-2.142186164855957,-1.333459497695305,-2.5263138453113,6.111035454064169,1.0169377326965332,-3.0684664885150355
1708441186.2486448,-2.142152786254883,-1.3334875863841553,-2.52635103860964,6.111076938896932,1.0169495344161987,-3.068460766469137
1708441186.250621,-2.142165184020996,-1.3334875863841553,-2.5263312498675745,6.111052024155416,1.0169451236724854,-3.0684781710254114
1708441186.2526124,-2.1421613693237305,-1.3334475469640275,-2.5263879934894007,6.111027943878927,1.0169451236724854,-3.0685158411609095
1708441186.254619,-2.1421213150024414,-1.333398000603058,-2.5263431707965296,6.111069428711691,1.0169165134429932,-3.0685113112079065
1708441186.2566023,-2.1421256065368652,-1.3335199368051072,-2.5263553301440638,6.11104844787673,1.0169377326965332,-3.06852895418276
1708441186.2586136,-2.142117500305176,-1.333524153833725,-2.5263553301440638,6.111008393555441,1.0169165134429932,-3.0684619585620325
1708441186.2606008,-2.1421456336975098,-1.333500326876976,-2.5263641516314905,6.111007201462545,1.0169466733932495,-3.0685246626483362
1708441186.2625964,-2.142186164855957,-1.3334799271873017,-2.5263269583331507,6.1110607264335535,1.016921043395996,-3.068408791218893
1708441186.2646122,-2.14216947555542,-1.3334475618651886,-2.5263431707965296,6.111057150154867,1.0169451236724854,-3.068479363118307
1708441186.2666225,-2.1421456336975098,-1.3334268045476456,-2.52635103860964,6.111016022949972,1.0169495344161987,-3.0684383551227015
1708441186.268615,-2.142148494720459,-1.3334875863841553,-2.5263431707965296,6.111032235413351,1.0169315338134766,-3.0684145132647913
1708441186.2706053,-2.1421170234680176,-1.33347141862426,-2.5263553301440638,6.1110408184821985,1.0169541835784912,-3.068458859120504
1708441186.2726026,-2.1421456336975098,-1.333500401382782,-2.5263925234424036,6.111029016762533,1.0169047117233276,-3.068458859120504
1708441186.2746136,-2.142165184020996,-1.3334310960820694,-2.5263553301440638,6.11102460601882,1.0169075727462769,-3.068467442189352
1708441186.2766025,-2.1421046257019043,-1.3334714335254212,-2.5263388792621058,6.1109996912773035,1.016928791999817,-3.0685001055346888
1708441186.278633,-2.1422019004821777,-1.3334714037230988,-2.5263596216784876,6.111027943878927,1.016928791999817,-3.068418804799215
1708441186.2806163,-2.1421780586242676,-1.3334680211595078,-2.526367489491598,6.110939848213949,1.0169119834899902,-3.068463150654928
1708441186.2826176,-2.142141342163086,-1.3334552359632035,-2.526383701954977,6.11102460601882,1.0169495344161987,-3.068435017262594
1708441186.2846048,-2.142152786254883,-1.3334714037230988,-2.5263553301440638,6.111037599831381,1.016913652420044,-3.06840688387026
1708441186.2866247,-2.1421456336975098,-1.333496094947197,-2.526383701954977,6.110980260163107,1.0169377326965332,-3.0684426466571253
1708441186.288609,-2.1421170234680176,-1.3335126054337998,-2.5263705889331263,6.1109564183051965,1.0169165134429932,-3.0684836546527308
1708441186.290632,-2.142137050628662,-1.3335003566792984,-2.526395622883932,6.111013519554891,1.0169750452041626,-3.068435017262594
1708441186.2926064,-2.142134189605713,-1.333488480453827,-2.5263598600970667,6.110927927284994,1.0169422626495361,-3.068418804799215
1708441186.294615,-2.1421570777893066,-1.3334098768285294,-2.526395622883932,6.110920417099752,1.0169119834899902,-3.0684436003314417
1708441186.2966003,-2.142113208770752,-1.333475650554039,-2.5263641516314905,6.110961663513937,1.0169614553451538,-3.068423096333639
1708441186.2986696,-2.1421823501586914,-1.3334225577167054,-2.5263925234424036,6.110945331841268,1.0169165134429932,-3.0684436003314417
1708441186.3006308,-2.142117500305176,-1.3335403215936203,-2.526367489491598,6.110895144730367,1.016921043395996,-3.068415705357687
1708441186.302609,-2.142113208770752,-1.333439053302147,-2.526371781026022,6.110912549286642,1.0168956518173218,-3.068423096333639
1708441186.3046188,-2.1421780586242676,-1.33347141862426,-2.526318136845724,6.110920417099752,1.0169360637664795,-3.068471972142355
1708441186.3067086,-2.1421780586242676,-1.33345519125972,-2.5263763109790247,6.110916840821066,1.016921043395996,-3.0684319178210657
1708441186.3087258,-2.142134189605713,-1.333439053302147,-2.52635103860964,6.110929834633627,1.0169659852981567,-3.0684025923358362
1708441186.3106344,-2.1421499252319336,-1.3335284006646653,-2.5263388792621058,6.110868441849508,1.0169614553451538,-3.068439308797018
1708441186.3126187,-2.142129898071289,-1.3334918332150956,-2.5263763109790247,6.110859739571371,1.0169495344161987,-3.068373743687765
1708441186.3146074,-2.1421656608581543,-1.3334268045476456,-2.5263312498675745,6.110884415894308,1.0170040130615234,-3.0683780352221888
1708441186.3165905,-2.1421384811401367,-1.333488480453827,-2.526371781026022,6.110917913704672,1.016940712928772,-3.0684099833117884
1708441186.3186126,-2.1421613693237305,-1.3334670674851914,-2.526371781026022,6.110860454827108,1.016928791999817,-3.0683987776385706
1708441186.3205986,-2.1421217918395996,-1.3334310960820694,-2.5263925234424036,6.110916840821066,1.0169659852981567,-3.06838566461672
1708441186.322591,-2.1421093940734863,-1.333431066279747,-2.5263925234424036,6.110885727196493,1.0169119834899902,-3.0684030691729944
1708441186.3245864,-2.1421499252319336,-1.3334799271873017,-2.5263763109790247,6.110844242363729,1.016924262046814,-3.0683825651751917
1708441186.3265858,-2.142117500305176,-1.3335003566792984,-2.5263763109790247,6.110819446831503,1.0169614553451538,-3.0683825651751917
1708441186.3286111,-2.142174482345581,-1.3334268045476456,-2.526372019444601,6.110856163292684,1.0169377326965332,-3.06840688387026
1708441186.3305848,-2.142134189605713,-1.333537147646286,-2.5263999144183558,6.1109059927757166,1.016924262046814,-3.06840688387026
1708441186.332612,-2.1421048641204834,-1.3334561598351975,-2.5263925234424036,6.110904919892111,1.0169360637664795,-3.0684030691729944
1708441186.3346262,-2.1421430110931396,-1.3334594827941437,-2.5264044443713587,6.11091028431014,1.0169165134429932,-3.0684199968921106
1708441186.3365986,-2.142084836959839,-1.333483250146248,-2.526310745869772,6.110917913704672,1.0169000625610352,-3.068427387868063
1708441186.3386066,-2.1421384811401367,-1.3334594827941437,-2.52635103860964,6.110832440644064,1.0169286727905273,-3.0684073607074183
1708441186.3406065,-2.1421005725860596,-1.3334353280118485,-2.5263925234424036,6.110872733383932,1.0169377326965332,-3.06840688387026
1708441186.3426085,-2.142178773880005,-1.33343060434375,-2.5263431707965296,6.110860454827108,1.016978144645691,-3.068366352711813
1708441186.3446105,-2.1421093940734863,-1.3334353280118485,-2.526318136845724,6.110843169480123,1.016921043395996,-3.0683868567096155
1708441186.3466103,-2.1421048641204834,-1.3334509295276185,-2.5263224283801478,6.11089442947463,1.0169254541397095,-3.0683868567096155
1708441186.3486483,-2.142080545425415,-1.3334140491536637,-2.5263388792621058,6.110827910691061,1.016940712928772,-3.0683942476855677
1708441186.3506207,-2.1421217918395996,-1.3334637445262452,-2.5263968149768274,6.110885727196493,1.0169541835784912,-3.068415705357687
1708441186.352605,-2.1421384811401367,-1.3334799271873017,-2.5263224283801478,6.110841023712911,1.0169614553451538,-3.068415705357687
1708441186.354608,-2.1420645713806152,-1.333439053302147,-2.5263312498675745,6.1108237383659265,1.0169451236724854,-3.0684030691729944
1708441186.3565931,-2.1420891284942627,-1.33345182359729,-2.52635103860964,6.1108518717582605,1.0169570446014404,-3.068369213734762
1708441186.3585994,-2.1421005725860596,-1.3334885251573105,-2.5263806025134485,6.110877859383383,1.0169405937194824,-3.0683987776385706
1708441186.3606172,-2.142134189605713,-1.3335041415742417,-2.5263596216784876,6.110877859383383,1.0169495344161987,-3.068357531224386
1708441186.3626053,-2.1420602798461914,-1.3334637445262452,-2.5263806025134485,6.110829102783956,1.0169451236724854,-3.0683987776385706
1708441186.3646133,-2.1420936584472656,-1.3334637445262452,-2.5263431707965296,6.1108648655708215,1.0169705152511597,-3.0683749357806605
1708441186.3665962,-2.1420812606811523,-1.333484174018242,-2.5263224283801478,6.110885727196493,1.0169405937194824,-3.0683987776385706
1708441186.3686173,-2.1421022415161133,-1.3334714037230988,-2.526334349309103,6.110869157105245,1.0169451236724854,-3.0684481302844446
1708441186.3706017,-2.1420812606811523,-1.3335211885026474,-2.5263224283801478,6.110839950829305,1.0169782638549805,-3.0684199968921106
1708441186.3726008,-2.1421263217926025,-1.3334799271873017,-2.526318136845724,6.1108367321784876,1.0169451236724854,-3.068389956151144
1708441186.3746166,-2.1420936584472656,-1.3334475618651886,-2.526334349309103,6.110832440644064,1.0169826745986938,-3.0683868567096155
1708441186.3765862,-2.1420557498931885,-1.3334305447391053,-2.5263596216784876,6.110854136734762,1.016925573348999,-3.0683942476855677
1708441186.3785949,-2.142117977142334,-1.33345082521949,-2.5263312498675745,6.110845315247335,1.016940712928772,-3.06840688387026
1708441186.3806026,-2.1421005725860596,-1.3334353280118485,-2.5263553301440638,6.110882270127096,1.0169614553451538,-3.06838566461672
1708441186.3826067,-2.1421093940734863,-1.333463729625084,-2.5263553301440638,6.11085723617629,1.016928791999817,-3.0683987776385706
1708441186.384626,-2.1420724391937256,-1.3334885251573105,-2.526346747075216,6.110841023712911,1.0169615745544434,-3.068415705357687
1708441186.3866441,-2.14211368560791,-1.333439664249756,-2.5263684431659144,6.110885727196493,1.0169496536254883,-3.068427387868063
1708441186.3886392,-2.1421048641204834,-1.3334723722985764,-2.5263641516314905,6.1108248112495325,1.0169451236724854,-3.068423096333639
1708441186.3906574,-2.14211368560791,-1.333431066279747,-2.526367489491598,6.1108367321784876,1.0169075727462769,-3.068455521260397
1708441186.3926425,-2.1421093940734863,-1.333484174018242,-2.526371781026022,6.110858428269186,1.0169659852981567,-3.06840688387026
1708441186.3946269,-2.1421217918395996,-1.3334875863841553,-2.52635103860964,6.110849725991049,1.016928791999817,-3.068411175404684
1708441186.3966055,-2.1421022415161133,-1.3335003566792984,-2.5263431707965296,6.110861527710714,1.016928791999817,-3.068451229725973
1708441186.3986614,-2.1420769691467285,-1.3334561598351975,-2.526379410420553,6.1107919094856165,1.016928791999817,-3.0684881846057337
1708441186.4006236,-2.142106533050537,-1.3334790778211136,-2.5263925234424036,6.110854017525472,1.0169315338134766,-3.0684502760516565
1708441186.4026928,-2.142106533050537,-1.3334561896375199,-2.5263806025134485,6.110854017525472,1.0169659852981567,-3.0684827009784144
1708441186.4046233,-2.142068862915039,-1.3334927719882508,-2.526379410420553,6.110854136734762,1.0169495344161987,-3.0685039202319544
1708441186.4067478,-2.142073154449463,-1.3334885996631165,-2.5263596216784876,6.110821234970846,1.0169360637664795,-3.068490807210104
1708441186.408708,-2.1420400142669678,-1.333419145350792,-2.52635103860964,6.11082552650527,1.0169525146484375,-3.068510119115011
1708441186.4107933,-2.1420645713806152,-1.3334756654552002,-2.526342217122213,6.110845315247335,1.016928791999817,-3.068538490925924
1708441186.4127371,-2.1420724391937256,-1.333460421567299,-2.5263763109790247,6.110788810044088,1.0169496536254883,-3.0685461203204554
1708441186.4147348,-2.142033100128174,-1.3334927719882508,-2.5264087359057825,6.1108378050620935,1.0169614553451538,-3.0686147848712366
1708441186.4167125,-2.142068862915039,-1.3334756952575226,-2.5263763109790247,6.110874640732565,1.0169692039489746,-3.068622414265768
1708441186.418649,-2.142068862915039,-1.33345182359729,-2.526334349309103,6.110776889115133,1.0169495344161987,-3.068700138722555
1708441186.4206276,-2.142029285430908,-1.3334508848241349,-2.5263925234424036,6.110787617951193,1.0169451236724854,-3.068732563649313
1708441186.422621,-2.142094135284424,-1.3334756654552002,-2.52635628381838,6.11079632022933,1.0169495344161987,-3.0687063376056116
1708441186.4246137,-2.1420416831970215,-1.333431066279747,-2.526350800191061,6.110842215805807,1.0169405937194824,-3.06870943704714
1708441186.4266107,-2.1420488357543945,-1.3334799271873017,-2.52635103860964,6.110809314041891,1.0169075727462769,-3.068779532109396
1708441186.4286027,-2.1420459747314453,-1.3334679913571854,-2.526318136845724,6.110829102783956,1.0169705152511597,-3.0687859694110315
1708441186.4305933,-2.142061710357666,-1.3334637445262452,-2.5263925234424036,6.110768186836996,1.0169737339019775,-3.068850342427389
1708441186.432597,-2.1420531272888184,-1.3334475618651886,-2.526334349309103,6.110760557442465,1.0169405937194824,-3.068866554890768
1708441186.4346287,-2.1420416831970215,-1.3334799271873017,-2.5264087359057825,6.110809314041891,1.0169769525527954,-3.068894688283102
1708441186.4366515,-2.1420531272888184,-1.33345182359729,-2.5263224283801478,6.110793101578512,1.0169315338134766,-3.0689550081836146
1708441186.4386194,-2.142122268676758,-1.333431066279747,-2.5263641516314905,6.110813605576315,1.016940712928772,-3.068998161946432
1708441186.4406314,-2.1420531272888184,-1.3334766042283555,-2.5263224283801478,6.110805022507467,1.0169525146484375,-3.069059435521261
1708441186.4426148,-2.1420373916625977,-1.3334756654552002,-2.5263224283801478,6.11077247837142,1.0169315338134766,-3.069143835698263
1708441186.4446092,-2.1420531272888184,-1.3334799271873017,-2.5263763109790247,6.11077247837142,1.0169451236724854,-3.069139067326681
1708441186.4465935,-2.142122268676758,-1.3334680062583466,-2.5263553301440638,6.110818016320028,1.0169360637664795,-3.06920296350588
1708441186.4486053,-2.142094135284424,-1.3334268045476456,-2.5263474623309534,6.110822307854452,1.0169405937194824,-3.069238011037008
1708441186.4506395,-2.1420459747314453,-1.333472342496254,-2.526346747075216,6.110793101578512,1.0169737339019775,-3.0693677107440394
1708441186.4526126,-2.142061710357666,-1.333472342496254,-2.5263641516314905,6.110829937248983,1.016940712928772,-3.069369618092672
1708441186.454598,-2.142106533050537,-1.333484174018242,-2.5263968149768274,6.1107637760932825,1.016940712928772,-3.0694428125964563
1708441186.4566019,-2.1421194076538086,-1.333496094947197,-2.526367489491598,6.110789882927694,1.0168983936309814,-3.0694854895221155
1708441186.4585934,-2.1421239376068115,-1.333460421567299,-2.52635103860964,6.110788810044088,1.0169614553451538,-3.069610659276144
1708441186.4606621,-2.142094135284424,-1.3334106516889115,-2.5263431707965296,6.11077247837142,1.0169451236724854,-3.069674555455343
1708441186.4625971,-2.1420774459838867,-1.3334148836186905,-2.5263224283801478,6.110753047257223,1.0169451236724854,-3.06972581544985
1708441186.4645941,-2.142057418823242,-1.3334106367877503,-2.526346508656637,6.110760676651754,1.0169615745544434,-3.069777313862936
1708441186.4665968,-2.1420817375183105,-1.3334268045476456,-2.526371781026022,6.110806095391073,1.0169659852981567,-3.069902483616964
1708441186.468592,-2.1420373916625977,-1.3334927719882508,-2.5264163653003138,6.110784399300375,1.0169360637664795,-3.070035998021261
1708441186.4705944,-2.142094135284424,-1.3335046929172059,-2.5263596216784876,6.110801803856649,1.0169451236724854,-3.07009464899172
1708441186.472592,-2.1420249938964844,-1.33345182359729,-2.526363197957174,6.110813724785604,1.0169525146484375,-3.070141617451803
1708441186.4746394,-2.1420817375183105,-1.333431066279747,-2.526334349309103,6.110794174462118,1.0169570446014404,-3.070233170186178
1708441186.4766061,-2.142008066177368,-1.333472342496254,-2.526372734700338,6.1108059761817834,1.0169360637664795,-3.0703302065478724
1708441186.478618,-2.142061710357666,-1.3334268045476456,-2.5263431707965296,6.110785472183981,1.0169659852981567,-3.0703936258899134
1708441186.4806166,-2.142057418823242,-1.3334234815886994,-2.526371781026022,6.1107909558113,1.0169614553451538,-3.070468012486593
1708441186.4826264,-2.1420459747314453,-1.3334766042283555,-2.5263553301440638,6.110764968186178,1.0169737339019775,-3.0705650488482874
1708441186.4846509,-2.1420860290527344,-1.33345182359729,-2.526318136845724,6.110728847771444,1.0169496536254883,-3.0707343260394495
1708441186.486636,-2.1420702934265137,-1.3334927719882508,-2.5263431707965296,6.110777961998739,1.0169904232025146,-3.070838753377096
1708441186.488615,-2.1421239376068115,-1.3333987158587952,-2.5263589064227503,6.110798585205831,1.0169451236724854,-3.070958201085226
1708441186.490637,-2.14206600189209,-1.3334637445262452,-2.5263806025134485,6.110757338791647,1.0169525146484375,-3.071024719868795
1708441186.4926193,-2.1420774459838867,-1.3334481728127976,-2.5263431707965296,6.1107367155845544,1.0169737339019775,-3.071178738270895
1708441186.4946496,-2.142042398452759,-1.3334277433208008,-2.526371781026022,6.110766041069784,1.0169904232025146,-3.0712290445910853
1708441186.4966314,-2.142061710357666,-1.3334433150342484,-2.5263596216784876,6.110777961998739,1.0170023441314697,-3.071373526250021
1708441186.498646,-2.1420249938964844,-1.33345182359729,-2.526346508656637,6.110687720566549,1.0169949531555176,-3.071465078984396
1708441186.500618,-2.1420373916625977,-1.33345182359729,-2.5263553301440638,6.110786664276876,1.0169451236724854,-3.0715940634356897
1708441186.5026352,-2.142029285430908,-1.3334320050529023,-2.526330057774679,6.110741126328268,1.0169782638549805,-3.0717011133777063
1708441186.504606,-2.1420459747314453,-1.3334552359632035,-2.5263388792621058,6.110761630326071,1.0169360637664795,-3.071841303502218
1708441186.5067608,-2.142050266265869,-1.333451808696129,-2.52629000345339,6.110703933029928,1.0169659852981567,-3.0719648043261927
1708441186.5086906,-2.142054557800293,-1.3334030222943802,-2.5263138453113,6.110779034882345,1.0169813632965088,-3.0721126238452356
1708441186.5106747,-2.142033576965332,-1.3334679913571854,-2.5263095537768763,6.110687720566549,1.0169479846954346,-3.0722199122058313
1708441186.512662,-2.142050266265869,-1.333431066279747,-2.5263138453113,6.110712635308065,1.0169601440429688,-3.072380606328146
1708441186.5146294,-2.142012357711792,-1.3334148836186905,-2.5263474623309534,6.110708343773641,1.0169782638549805,-3.072501007710592
1708441186.516621,-2.142061710357666,-1.3334475767663498,-2.5263763109790247,6.110741960793295,1.0169570446014404,-3.0726445356952112
1708441186.5186257,-2.1420984268188477,-1.333472342496254,-2.526371781026022,6.110749828606405,1.0170308351516724,-3.072785202656881
1708441186.5206087,-2.1419966220855713,-1.3334680062583466,-2.526346747075216,6.110709416657247,1.0169646739959717,-3.0729005972491663
1708441186.5226314,-2.1420249938964844,-1.3334637147239228,-2.526379410420553,6.110680091172018,1.0170186758041382,-3.073052231465475
1708441186.5246067,-2.1419951915740967,-1.3333914589932938,-2.5263684431659144,6.110802876740255,1.0169813632965088,-3.073167387639181
1708441186.5265949,-2.142016649246216,-1.3334970337203522,-2.5263388792621058,6.110761630326071,1.0169601440429688,-3.073319737111227
1708441186.5286033,-2.142033100128174,-1.3333987158587952,-2.526334349309103,6.110725629120626,1.0169645547866821,-3.0734599272357386
1708441186.5306232,-2.142008066177368,-1.3334637445262452,-2.526371781026022,6.110659229546346,1.0169737339019775,-3.073623243962423
1708441186.5325956,-2.142068862915039,-1.3334353280118485,-2.5263388792621058,6.110783445626058,1.0169434547424316,-3.0738001505481165
1708441186.5346,-2.14206600189209,-1.3334561598351975,-2.5263388792621058,6.110774743347921,1.0169932842254639,-3.073939386998312
1708441186.536607,-2.142029285430908,-1.3334353280118485,-2.526367489491598,6.110701906472006,1.0169601440429688,-3.0741079489337366
1708441186.5386095,-2.1420860290527344,-1.3334353280118485,-2.526346747075216,6.110717046051779,1.0170096158981323,-3.0742550531970423
1708441186.54062,-2.1420860290527344,-1.3334885251573105,-2.5263474623309534,6.110685336380758,1.0169601440429688,-3.0744109789477747
1708441186.5426097,-2.1420459747314453,-1.333472342496254,-2.5263596216784876,6.110728847771444,1.017005205154419,-3.0745790640460413
1708441186.5446053,-2.142059087753296,-1.3334723126939316,-2.5263138453113,6.110696303635397,1.016988754272461,-3.0747061411487024
1708441186.5466132,-2.1420531272888184,-1.333431066279747,-2.5263138453113,6.110758530884542,1.0169888734817505,-3.0749223867999476
1708441186.5486293,-2.1420860290527344,-1.3334439259818573,-2.5263925234424036,6.110721337586202,1.017005205154419,-3.07507831255068
1708441186.5506368,-2.142054557800293,-1.3334637445262452,-2.5263999144183558,6.110709416657247,1.0169888734817505,-3.0752742926227015
1708441186.5525959,-2.1419756412506104,-1.333472342496254,-2.526383701954977,6.110717046051779,1.017005205154419,-3.0754345099078577
1708441186.554603,-2.142029285430908,-1.3334756654552002,-2.5263388792621058,6.110737550049581,1.017005205154419,-3.0756054560290735
1708441186.5566168,-2.1420249938964844,-1.3334234815886994,-2.526379410420553,6.110684501915731,1.0170141458511353,-3.0757692495929163
1708441186.5586088,-2.142029285430908,-1.3334808510592957,-2.52638823190798,6.1107462523277185,1.016996145248413,-3.0760226885425013
1708441186.5606484,-2.1419923305511475,-1.3334148836186905,-2.5263641516314905,6.110697495728292,1.0170308351516724,-3.0761404673205774
1708441186.562604,-2.142008066177368,-1.333439664249756,-2.526325766240255,6.110795366555013,1.0170550346374512,-3.076336447392599
1708441186.5646005,-2.1420459747314453,-1.3334482175162812,-2.526379410420553,6.110660421639242,1.017038345336914,-3.076524798070089
1708441186.5666294,-2.142016649246216,-1.3334603768638154,-2.526371781026022,6.1107332585151575,1.0170550346374512,-3.076709572468893
1708441186.5686145,-2.142029285430908,-1.3334766042283555,-2.52635103860964,6.110689627915182,1.0170336961746216,-3.0769217650042933
1708441186.5706193,-2.1420209407806396,-1.333484174018242,-2.526334349309103,6.110701906472006,1.0170336961746216,-3.0770559946643274
1708441186.5725904,-2.142061710357666,-1.333431066279747,-2.526379410420553,6.110770451813497,1.0170550346374512,-3.077251974736349
1708441186.5746076,-2.142033576965332,-1.333439664249756,-2.526342217122213,6.110697495728292,1.0170668363571167,-3.0774243513690394
1708441186.5766149,-2.142029285430908,-1.3334268045476456,-2.5263596216784876,6.110697495728292,1.0170202255249023,-3.0775955359088343
1708441186.5786037,-2.1420254707336426,-1.3334475618651886,-2.5264087359057825,6.110693204193868,1.0170578956604004,-3.0777915159808558
1708441186.5805986,-2.1420702934265137,-1.3334396940520783,-2.5264087359057825,6.110741841584005,1.0169992446899414,-3.0779786745654505
1708441186.5826194,-2.142059087753296,-1.3334561598351975,-2.5263388792621058,6.110712635308065,1.0170713663101196,-3.078174893056051
1708441186.5846279,-2.1420774459838867,-1.3334475618651886,-2.526346747075216,6.1107462523277185,1.0170202255249023,-3.078411881123678
1708441186.5866296,-2.142029285430908,-1.3334277433208008,-2.5263388792621058,6.11066364029006,1.0170505046844482,-3.0786035696612757
1708441186.588621,-2.142037868499756,-1.3334353280118485,-2.526371781026022,6.110709416657247,1.0170247554779053,-3.0787909666644495
1708441186.5906053,-2.142057418823242,-1.3334106367877503,-2.5264087359057825,6.110693204193868,1.0170505046844482,-3.078954521809713
1708441186.592611,-2.142037868499756,-1.3334148836186905,-2.526325766240255,6.110717046051779,1.0169872045516968,-3.079223696385519
1708441186.5946105,-2.1420254707336426,-1.333419145350792,-2.526379410420553,6.110725629120626,1.0170038938522339,-3.0793946425067347
1708441186.5966244,-2.142016649246216,-1.333419145350792,-2.5263388792621058,6.110750663071432,1.0170414447784424,-3.0796263853656214
1708441186.5986392,-2.142061710357666,-1.333439664249756,-2.5264087359057825,6.110628235131063,1.0170247554779053,-3.079843346272604
1708441186.6006348,-2.1420183181762695,-1.3334439557841797,-2.5263925234424036,6.110709416657247,1.0170791149139404,-3.0800626913653772
1708441186.602631,-2.14206600189209,-1.3334523451379319,-2.526346747075216,6.1107181189353845,1.0170323848724365,-3.08018929163088
1708441186.604609,-2.1420209407806396,-1.3334353131106873,-2.526379410420553,6.110692012100973,1.0170533657073975,-3.080405060444967
1708441186.60671,-2.142050266265869,-1.3334353280118485,-2.5264325777636927,6.110741841584005,1.0170323848724365,-3.0806129614459437
1708441186.6087396,-2.14206600189209,-1.3334970337203522,-2.526371781026022,6.110758530884542,1.0170323848724365,-3.0808127562152308
1708441186.610845,-2.14206600189209,-1.333472342496254,-2.526342217122213,6.110675799637594,1.0170745849609375,-3.0810325781451624
1708441186.6127396,-2.1420254707336426,-1.3334594827941437,-2.5264044443713587,6.110713708191671,1.0170533657073975,-3.081273619328634
1708441186.6147604,-2.1420209407806396,-1.333431066279747,-2.526383701954977,6.110725629120626,1.0170533657073975,-3.081494156514303
1708441186.6166756,-2.142059087753296,-1.3334353578141709,-2.5264163653003138,6.110680925637045,1.0170624256134033,-3.0816193262683313
1708441186.6186645,-2.1420860290527344,-1.333439664249756,-2.5264325777636927,6.110709416657247,1.0170700550079346,-3.081851307545797
1708441186.6206188,-2.1420791149139404,-1.3334234815886994,-2.526407543812887,6.110717046051779,1.0170655250549316,-3.082022015248434
1708441186.6225982,-2.142016649246216,-1.333460421567299,-2.526383701954977,6.1107462523277185,1.017098307609558,-3.0822792688952845
1708441186.6246257,-2.1420459747314453,-1.3334353280118485,-2.5264535585986536,6.110713708191671,1.0170565843582153,-3.0824785868274134
1708441186.6266243,-2.1420466899871826,-1.3334688407233735,-2.526407543812887,6.110676634102621,1.0170655250549316,-3.082674566899435
1708441186.6286047,-2.142050266265869,-1.3334475618651886,-2.5263662973987024,6.110680925637045,1.0170611143112183,-3.0829394499408167
1708441186.6305976,-2.142042398452759,-1.3334115606597443,-2.526383701954977,6.110737550049581,1.0170818567276,-3.083107296620504
1708441186.6326,-2.142000913619995,-1.3334029626897355,-2.5263989607440394,6.110734331398763,1.0170730352401733,-3.0833428541766565
1708441186.6346405,-2.14206600189209,-1.3334234815886994,-2.5264087359057825,6.110684501915731,1.0170849561691284,-3.0835183302508753
1708441186.636606,-2.1420297622680664,-1.3334353280118485,-2.526342217122213,6.110667931824484,1.017127275466919,-3.0837343374835413
1708441186.6386335,-2.142037868499756,-1.3334277880242844,-2.526379410420553,6.110741960793295,1.0170685052871704,-3.083909575139181
1708441186.640617,-2.142005205154419,-1.3333957207253953,-2.526391331349508,6.110779034882345,1.0170893669128418,-3.0841787497149866
1708441186.6426685,-2.1420209407806396,-1.3334893596223374,-2.5263705889331263,6.110685336380758,1.017098307609558,-3.0843942801104944
1708441186.6446364,-2.141984224319458,-1.33348502338443,-2.5263825098620813,6.110709416657247,1.0171056985855103,-3.0845523516284388
1708441186.6466167,-2.1419923305511475,-1.3334885251573105,-2.5264316240893763,6.110675799637594,1.0171146392822266,-3.084789816533224
1708441186.6486208,-2.1420209407806396,-1.3335003566792984,-2.5263589064227503,6.11072992065505,1.0171056985855103,-3.0850167910205286
1708441186.650624,-2.1420209407806396,-1.3334594827941437,-2.526383701954977,6.1107462523277185,1.017134666442871,-3.085233275090353
1708441186.6526034,-2.1419763565063477,-1.3334106367877503,-2.526428286229269,6.110721337586202,1.0171012878417969,-3.085407797490255
1708441186.6546457,-2.1420209407806396,-1.3334278178266068,-2.526375118886129,6.110684501915731,1.0171047449111938,-3.085595671330587
1708441186.656612,-2.1420209407806396,-1.3334041398814698,-2.526357714329855,6.110696422844686,1.017151117324829,-3.085787598286764
1708441186.6586065,-2.142050266265869,-1.33348502338443,-2.526407543812887,6.110709416657247,1.0171136856079102,-3.0860398451434534
1708441186.6606934,-2.142037868499756,-1.3334439259818573,-2.5263989607440394,6.110680091172018,1.0171183347702026,-3.0861991087542933
1708441186.6625986,-2.1420183181762695,-1.333431066279747,-2.52641207376589,6.1107332585151575,1.0171136856079102,-3.0864246527301233
1708441186.6646366,-2.1420466899871826,-1.3334680062583466,-2.5264490286456507,6.110697495728292,1.0171136856079102,-3.086611572896139
1708441186.6666098,-2.1420059204101562,-1.333472342496254,-2.5263662973987024,6.1107332585151575,1.0171464681625366,-3.086794678364889
1708441186.668641,-2.1420509815216064,-1.3334361624768754,-2.5264151732074183,6.1107181189353845,1.0171538591384888,-3.0870145002948206
1708441186.670608,-2.1420748233795166,-1.333407313828804,-2.5264490286456507,6.110737550049581,1.0171750783920288,-3.0872061888324183
1708441186.6726377,-2.1420466899871826,-1.3334481728127976,-2.5263944307910364,6.1107462523277185,1.0171211957931519,-3.087365452443258
1708441186.6746125,-2.1420340538024902,-1.33345182359729,-2.526403252278463,6.110710608750143,1.0171375274658203,-3.087585751210348
1708441186.6766071,-2.142009735107422,-1.333431066279747,-2.5263989607440394,6.110758530884542,1.0171494483947754,-3.0877698103534144
1708441186.6786087,-2.142054557800293,-1.3334481728127976,-2.5264316240893763,6.110725629120626,1.0171375274658203,-3.0879865328418177
1708441186.6806002,-2.1420466899871826,-1.3334680062583466,-2.5264151732074183,6.110741841584005,1.017144799232483,-3.08816105524172
1708441186.682622,-2.142037868499756,-1.3334115606597443,-2.5264063517199915,6.110680091172018,1.0171538591384888,-3.088336769734518
1708441186.684649,-2.1419930458068848,-1.3334646832994004,-2.5264108816729944,6.110667931824484,1.017112135887146,-3.0885446707354944
1708441186.6866252,-2.1420209407806396,-1.33345182359729,-2.5264108816729944,6.110774743347921,1.0171915292739868,-3.088703695927755
1708441186.6886423,-2.1419930458068848,-1.33345182359729,-2.5264020601855677,6.1107462523277185,1.017133116722107,-3.0889201799975794
1708441186.6906455,-2.1419718265533447,-1.3335046929172059,-2.5264349619494837,6.110725629120626,1.017116665840149,-3.08909255663027
1708441186.692617,-2.142037868499756,-1.333431066279747,-2.5264435450183313,6.1107061980064294,1.0171449184417725,-3.089308802281515
1708441186.6946368,-2.142059087753296,-1.3334234815886994,-2.5264676252948206,6.110717046051779,1.0171284675598145,-3.089508835469381
1708441186.696612,-2.1420254707336426,-1.3334234815886994,-2.5264557043658655,6.110774743347921,1.017124056816101,-3.0895894209491175
1708441186.6986203,-2.1420748233795166,-1.3334481728127976,-2.5264435450183313,6.110728847771444,1.0171616077423096,-3.089855972920553
1708441186.7006226,-2.142037868499756,-1.3334566813758393,-2.5264230410205286,6.110762822418966,1.0171571969985962,-3.0899949709521692
1708441186.7026114,-2.142009735107422,-1.333439664249756,-2.526418749486105,6.110680091172018,1.017140507698059,-3.0902121702777308
1708441186.7046094,-2.1420209407806396,-1.3334277433208008,-2.52643067041506,6.1107462523277185,1.0171525478363037,-3.090405050908224
1708441186.7066135,-2.1420209407806396,-1.3334234815886994,-2.5264557043658655,6.1107332585151575,1.0171735286712646,-3.090444866810934
1708441186.7086756,-2.1419806480407715,-1.3334158223918458,-2.526463333760397,6.110684501915731,1.017112135887146,-3.0906663576709192
1708441186.7106562,-2.1420254707336426,-1.3333957207253953,-2.5264840761767786,6.110754120140829,1.0171688795089722,-3.0909035841571253
1708441186.7126305,-2.1420140266418457,-1.3334158223918458,-2.5264676252948206,6.110712635308065,1.0172021389007568,-3.0909574667560022
1708441186.7145998,-2.1420254707336426,-1.3334235113910218,-2.5265124479876917,6.1107008335884,1.0172233581542969,-3.0911815802203577
1708441186.716589,-2.1420340538024902,-1.3334396493485947,-2.526426140462057,6.110741841584005,1.017214298248291,-3.0913336912738245
1708441186.71859,-2.1420183181762695,-1.3334481877139588,-2.5265286604510706,6.110725629120626,1.017193078994751,-3.0915027300464075
1708441186.7205849,-2.1419930458068848,-1.33345182359729,-2.5265002886401575,6.1107332585151575,1.017214298248291,-3.091625515614645
1708441186.7225938,-2.142038345336914,-1.333439664249756,-2.526466671620504,6.110713708191671,1.017214298248291,-3.0918052832232874
1708441186.7245927,-2.142038345336914,-1.3334029626897355,-2.526470963154928,6.110708343773641,1.0172053575515747,-3.091952625905172
1708441186.726585,-2.1420183181762695,-1.3334396493485947,-2.5265124479876917,6.110745417862692,1.0172053575515747,-3.0920844713794153
1708441186.7286007,-2.1419973373413086,-1.3334234815886994,-2.5264959971057337,6.110696422844686,1.0172171592712402,-3.0922980944262903
1708441186.7305973,-2.1420340538024902,-1.3334073436311265,-2.526466671620504,6.110656010895529,1.0172743797302246,-3.092407766972677
1708441186.732596,-2.142038345336914,-1.3334310364774247,-2.5264950434314173,6.110734331398763,1.0172576904296875,-3.092588488255636
1708441186.7345893,-2.14194917678833,-1.3333914589932938,-2.52647835413088,6.1107008335884,1.0172290802001953,-3.0927026907550257
1708441186.7366,-2.1419763565063477,-1.333472342496254,-2.526560370122091,6.1107462523277185,1.0172667503356934,-3.092846933995382
1708441186.7386541,-2.1419718265533447,-1.333460421567299,-2.526527706776754,6.110754954605856,1.0172154903411865,-3.093057696019308
1708441186.740604,-2.1420226097106934,-1.3334029626897355,-2.526560370122091,6.110709416657247,1.0173357725143433,-3.0931885878192347
1708441186.7425954,-2.1420183181762695,-1.33345182359729,-2.5265234152423304,6.110713708191671,1.0172817707061768,-3.0933244864093226
1708441186.7445922,-2.1419734954833984,-1.3334277433208008,-2.5264819304095667,6.110667931824484,1.0172441005706787,-3.0934439341174524
1708441186.746595,-2.1420226097106934,-1.3334277433208008,-2.526560370122091,6.110697495728292,1.0172772407531738,-3.0936031977282923
1708441186.7486134,-2.142014503479004,-1.3334439259818573,-2.5265234152423304,6.110664713173666,1.0173512697219849,-3.0937841574298304
1708441186.7506442,-2.141964912414551,-1.333439664249756,-2.5265515486346644,6.110713708191671,1.0173041820526123,-3.093853775654928
1708441186.752619,-2.1419286727905273,-1.333407313828804,-2.5265591780291956,6.110667931824484,1.0173929929733276,-3.094027105961935
1708441186.7546318,-2.1420226097106934,-1.333431066279747,-2.526517931615011,6.110709416657247,1.0173087120056152,-3.0941012541400355
1708441186.756609,-2.1419577598571777,-1.333439664249756,-2.5265396277057093,6.110713708191671,1.0173494815826416,-3.094261709843771
1708441186.7586174,-2.141970634460449,-1.333439664249756,-2.526526753102438,6.110693204193868,1.0173540115356445,-3.094438616429464
1708441186.7606392,-2.1419620513916016,-1.3334523451379319,-2.526550356541769,6.110672342568197,1.0173795223236084,-3.094529692326681
1708441186.762587,-2.1419169902801514,-1.333431066279747,-2.5265384356128138,6.1107061980064294,1.0173733234405518,-3.094694201146261
1708441186.7645936,-2.141934394836426,-1.3334277433208008,-2.526554886494772,6.110673415451803,1.0173733234405518,-3.094773832951681
1708441186.766601,-2.141974925994873,-1.3334353280118485,-2.5265591780291956,6.110686409264364,1.0174154043197632,-3.0949016253100794
1708441186.7686038,-2.1419460773468018,-1.3333957207253953,-2.526546065007345,6.1106440899665735,1.01737642288208,-3.0950287024127405
1708441186.770598,-2.1419496536254883,-1.333439664249756,-2.5266366640674036,6.1106440899665735,1.017380952835083,-3.095123593007223
1708441186.7725878,-2.1419286727905273,-1.3333914589932938,-2.526578966771261,6.110681998520651,1.0174140930175781,-3.0953055063830774
1708441186.7745876,-2.141925573348999,-1.3334029626897355,-2.526599709187643,6.110670196800985,1.0174140930175781,-3.09546143213381
1708441186.7765834,-2.141892194747925,-1.3334277433208008,-2.5266693274127405,6.110670196800985,1.017421841621399,-3.0955281893359583
1708441186.778621,-2.14186954498291,-1.3334561598351975,-2.5265865961657923,6.110654222756185,1.0174620151519775,-3.095656458531515
1708441186.7806017,-2.1418895721435547,-1.3333914589932938,-2.526635471974508,6.1106170294578455,1.017487645149231,-3.0957639853106897
1708441186.7826183,-2.141880989074707,-1.333407313828804,-2.5265780130969446,6.110606300621786,1.0174741744995117,-3.095835034047262
1708441186.784635,-2.141885280609131,-1.333460421567299,-2.5265899340258997,6.1105984328086755,1.0174908638000488,-3.0959513823138636
1708441186.7866619,-2.14186692237854,-1.333419145350792,-2.526647392903463,6.1105865118797205,1.017498254776001,-3.096030060444967
1708441186.7886105,-2.1418373584747314,-1.3334353280118485,-2.5266431013690394,6.110607015877523,1.017510175704956,-3.096170727406637
1708441186.7906344,-2.141829013824463,-1.3334646832994004,-2.526662890111105,6.110492932587423,1.0175269842147827,-3.0963287989245813
1708441186.792613,-2.141862630844116,-1.3334885251573105,-2.5266714731799524,6.110550749092855,1.0175206661224365,-3.0963922182666224
1708441186.7946088,-2.1418373584747314,-1.3334561598351975,-2.5266836325274866,6.110485422402181,1.0175795555114746,-3.0964954535113733
1708441186.7966177,-2.1418585777282715,-1.33345182359729,-2.526686731969015,6.110485422402181,1.0175824165344238,-3.096623484288351
1708441186.7986243,-2.1418542861938477,-1.3334439259818573,-2.526743475590841,6.110465991287985,1.0175704956054688,-3.096665684376852
1708441186.8006198,-2.1418585777282715,-1.3334106367877503,-2.5267043749438685,6.110486495285787,1.017594337463379,-3.096811834965841
1708441186.8026187,-2.141850471496582,-1.3334115606597443,-2.526686731969015,6.1104702828224084,1.0175689458847046,-3.0969401041613978
1708441186.804623,-2.141846179962158,-1.3334688407233735,-2.526740376149313,6.110487568169393,1.017589807510376,-3.097043577824728
1708441186.806613,-2.141822338104248,-1.3334115606597443,-2.526703182850973,6.110433089524069,1.0175974369049072,-3.0971394220935267
1708441186.8087268,-2.141805648803711,-1.3334234666875382,-2.526773277913229,6.110450494080343,1.0176830291748047,-3.0971811453448694
1708441186.8106852,-2.141787052154541,-1.3334567260793229,-2.526743475590841,6.110385405808248,1.0176756381988525,-3.0972941557513636
1708441186.8126304,-2.1417696475982666,-1.3334029626897355,-2.5267229715930384,6.110418307572164,1.0176620483398438,-3.0973783175097864
1708441186.8146272,-2.141801357269287,-1.3334310364774247,-2.5267556349383753,6.110377895623007,1.017687439918518,-3.09749418893923
1708441186.8166358,-2.1417784690856934,-1.3334927719882508,-2.526738230382101,6.110395300179281,1.0176948308944702,-3.097565476094381
1708441186.818643,-2.141753673553467,-1.333431066279747,-2.526771847401754,6.1103505966956995,1.017723798751831,-3.0977144877063196
1708441186.8206291,-2.141753673553467,-1.333431066279747,-2.526742760335104,6.110308992653646,1.0177805423736572,-3.0977371374713343
1708441186.822619,-2.1417622566223145,-1.333400012259819,-2.526816431676046,6.110334384232321,1.0177717208862305,-3.097861115132467
1708441186.824628,-2.1417295932769775,-1.3334234815886994,-2.526820246373312,6.110314833908834,1.0178258419036865,-3.0979576746570032
1708441186.8266287,-2.1417129039764404,-1.3334439259818573,-2.526790205632345,6.1102943299110315,1.0178033113479614,-3.098020378743307
1708441186.8286748,-2.141726016998291,-1.3334234815886994,-2.526827637349264,6.110245334893026,1.017836093902588,-3.098071877156393
1708441186.8306217,-2.141751289367676,-1.3333792102387925,-2.5268026033984583,6.1103083966071985,1.0178316831588745,-3.0981600920306605
1708441186.8326402,-2.141718864440918,-1.3334396940520783,-2.526794497166769,6.110275614052572,1.0178227424621582,-3.098276440297262
1708441186.8346279,-2.141707420349121,-1.3334361624768754,-2.5268753210650843,6.110291826515951,1.0178512334823608,-3.0983648935901087
1708441186.8366282,-2.141707420349121,-1.33348502338443,-2.526863400136129,6.110222208290853,1.0178663730621338,-3.0984368960009974
1708441186.8386214,-2.1417031288146973,-1.333358795647957,-2.526863400136129,6.110203015595236,1.0178618431091309,-3.098501269017355
1708441186.8406138,-2.1416544914245605,-1.3334277135184784,-2.5268831888781946,6.110203015595236,1.0178741216659546,-3.0985758940326136
1708441186.8425999,-2.141662359237671,-1.3334561598351975,-2.526896301900045,6.110195386200704,1.0179024934768677,-3.0986598173724573
1708441186.84465,-2.1416289806365967,-1.3334030222943802,-2.526863400136129,6.110150682717123,1.0179638862609863,-3.098764244710104
1708441186.846619,-2.1416711807250977,-1.3334396493485947,-2.5268622080432337,6.110171305924215,1.017926812171936,-3.098787848149435
1708441186.848611,-2.1415982246398926,-1.3334439259818573,-2.5268951098071497,6.110171305924215,1.0179669857025146,-3.09892446199526
1708441186.8506234,-2.1416378021240234,-1.3334561449340363,-2.526878897343771,6.110107171326437,1.0179624557495117,-3.0989890734301966
1708441186.8526096,-2.1416025161743164,-1.3334320199540635,-2.5269604364978235,6.110090958863058,1.018007755279541,-3.09904390970339
1708441186.8546252,-2.141561269760132,-1.333419145350792,-2.526886288319723,6.110066997795858,1.0179986953735352,-3.0990946928607386
1708441186.8566036,-2.1415743827819824,-1.3334310960820694,-2.526910368596212,6.110029923706808,1.0180244445800781,-3.099219624196188
1708441186.8585913,-2.1415786743164062,-1.3334148687175293,-2.526980225239889,6.11008762100295,1.0180436372756958,-3.0992918650256556
1708441186.8606265,-2.141566038131714,-1.3333871227553864,-2.526968304310934,6.11009310463027,1.018034815788269,-3.099262539540426
1708441186.862617,-2.1415493488311768,-1.3334353280118485,-2.5269835630999964,6.1099984524543665,1.0180302858352661,-3.0993831793414515
1708441186.8645775,-2.141538143157959,-1.33351685226474,-2.5269466082202356,6.110011565476217,1.0180678367614746,-3.099409882222311
1708441186.8666024,-2.1415352821350098,-1.3335012060454865,-2.526975933705465,6.110020267754354,1.0180799961090088,-3.0994861761676233
1708441186.868602,-2.1415228843688965,-1.333419145350792,-2.5270043055163782,6.110000479012289,1.0181082487106323,-3.099598232899801
1708441186.8706033,-2.1415352821350098,-1.3334439110806962,-2.5269792715655726,6.110000479012289,1.0181368589401245,-3.099658791218893
1708441186.8726141,-2.1415185928344727,-1.3334396493485947,-2.5270043055163782,6.1099517224128626,1.018157720565796,-3.0996940771686
1708441186.8746173,-2.141510486602783,-1.3334277433208008,-2.5269749800311487,6.109927761345663,1.0181564092636108,-3.09974176088442
1708441186.8765864,-2.141507625579834,-1.333407313828804,-2.5269911924945276,6.109883057862081,1.0181353092193604,-3.099801842366354
1708441186.8785923,-2.141519069671631,-1.3334481877139588,-2.526994291936056,6.1099398014839075,1.0181384086608887,-3.0998414198504847
1708441186.880581,-2.1414384841918945,-1.3334234964898606,-2.527039353047506,6.109948384552755,1.018200159072876,-3.0999138990985315
1708441186.8825924,-2.1414427757263184,-1.333467961554863,-2.527039353047506,6.109887468605795,1.0181671380996704,-3.099999014531271
1708441186.8846495,-2.141500473022461,-1.3334353429130097,-2.527072016392843,6.109855043679037,1.018200159072876,-3.1000667254077356
1708441186.8866055,-2.141447067260742,-1.3334235113910218,-2.5270512739764612,6.109789716988363,1.0181866884231567,-3.1000526587115687
1708441186.8886025,-2.141447067260742,-1.3333914887956162,-2.5269857088672083,6.109814870148458,1.0182197093963623,-3.100100819264547
1708441186.8906355,-2.141402244567871,-1.3333957505277176,-2.5270631949054163,6.10987554767684,1.0182287693023682,-3.1002183596240442
1708441186.892617,-2.141444206237793,-1.333419145350792,-2.527033869420187,6.109857189446249,1.0182557106018066,-3.100302282963888
1708441186.8946216,-2.141439914703369,-1.3334073585322876,-2.527100149785177,6.10980378368453,1.0182106494903564,-3.100292507802145
1708441186.8966572,-2.1414239406585693,-1.3334320199540635,-2.5270426909076136,6.109738695412435,1.018272042274475,-3.100356403981344
1708441186.8985946,-2.141432523727417,-1.3334679913571854,-2.527079407368795,6.1098211882408044,1.0182557106018066,-3.1004250685321253
1708441186.9006267,-2.1413824558258057,-1.3334277284196396,-2.527079407368795,6.109792697220602,1.0182795524597168,-3.1004560629474085
1708441186.9026124,-2.1413588523864746,-1.333439664249756,-2.5271032492267054,6.109748589783468,1.0182377099990845,-3.1005285421954554
1708441186.9046192,-2.1413912773132324,-1.3334353429130097,-2.5270989576922815,6.10970817783431,1.0182874202728271,-3.100592915211813
1708441186.9066174,-2.1414170265197754,-1.333472342496254,-2.5270827452289026,6.109728801041403,1.0183130502700806,-3.1006491819964808
1708441186.9086368,-2.141383171081543,-1.333451808696129,-2.5270870367633265,6.109744298249044,1.0183202028274536,-3.100663963948385
1708441186.9106514,-2.1413516998291016,-1.3334765446237107,-2.5270946661578577,6.109696376114645,1.0183366537094116,-3.100692097340719
1708441186.9126282,-2.1413474082946777,-1.3334234815886994,-2.5270989576922815,6.109691965370931,1.0183366537094116,-3.1007490793811243
1708441186.9146254,-2.141322612762451,-1.3333957654288788,-2.5271032492267054,6.10971366146163,1.018356204032898,-3.1008575598346155
1708441186.916611,-2.141331195831299,-1.3334310513785859,-2.5270989576922815,6.109664666443624,1.0183608531951904,-3.1008241812335413
1708441186.918651,-2.141343593597412,-1.3334722977927704,-2.527135197316305,6.109632122307577,1.0183594226837158,-3.1009205023394983
1708441186.9206166,-2.1413073539733887,-1.333451808696129,-2.527102533970968,6.109690654068746,1.0183382034301758,-3.100936237965719
1708441186.92264,-2.141364574432373,-1.3334310513785859,-2.527106825505392,6.109624492913046,1.0183851718902588,-3.100988213215963
1708441186.9246128,-2.141298532485962,-1.3334268045476456,-2.527139488850729,6.109592067986288,1.0183806419372559,-3.1009910742389124
1708441186.9265885,-2.141324281692505,-1.3334439259818573,-2.5271483103381556,6.109645116120138,1.0183594226837158,-3.1010268370257776
1708441186.928599,-2.1412861347198486,-1.3333915334990998,-2.5271645228015345,6.109646189003744,1.0184088945388794,-3.1011365095721644
1708441186.9306028,-2.141324281692505,-1.3334235113910218,-2.527106825505392,6.109588491707601,1.0184016227722168,-3.101163689290182
1708441186.932601,-2.1412878036499023,-1.3334320050529023,-2.527118746434347,6.109576570778646,1.0184088945388794,-3.1012044588672083
1708441186.9346466,-2.141303539276123,-1.333427758221962,-2.527123037968771,6.109601604729452,1.018388032913208,-3.1012595335589808
1708441186.9366045,-2.14132022857666,-1.3334439259818573,-2.527139488850729,6.109654891281881,1.018404483795166,-3.101311985646383
1708441186.938632,-2.1412792205810547,-1.3334277433208008,-2.527114216481344,6.109601485520162,1.0183671712875366,-3.10136062303652
1708441186.940629,-2.141267776489258,-1.333407313828804,-2.527163330708639,6.1095852730567834,1.0184162855148315,-3.1013968626605433
1708441186.942613,-2.1412343978881836,-1.3334481579116364,-2.527118746434347,6.109561192780294,1.018388032913208,-3.1014273802386683
1708441186.9446933,-2.141324520111084,-1.3334234964898606,-2.5271263758288782,6.109531867295065,1.018399953842163,-3.1014724413501185
1708441186.9466825,-2.1412835121154785,-1.3334481579116364,-2.52710992494692,6.109553444176473,1.018399953842163,-3.1014469305621546
1708441186.948628,-2.1412806510925293,-1.3334234964898606,-2.527106825505392,6.109544980316915,1.0184162855148315,-3.1015360991107386
1708441186.9506366,-2.1412429809570312,-1.3334041696837922,-2.527151409779684,6.109557854920187,1.0184118747711182,-3.1014984289752405
1708441186.9526074,-2.1412272453308105,-1.3334723275950928,-2.527114454899923,6.1095462916191,1.0183910131454468,-3.1015918890582483
1708441186.954599,-2.1412510871887207,-1.3334115904620667,-2.5271602312671106,6.109544980316915,1.0184029340744019,-3.1015995184527796
1708441186.956606,-2.141207218170166,-1.3334115606597443,-2.527167860661642,6.109526502877035,1.0184162855148315,-3.101557795201437
1708441186.9586027,-2.141247272491455,-1.3334723126939316,-2.527081553136007,6.109504806786337,1.0183955430984497,-3.1016510168658655
1708441186.9606216,-2.1412386894226074,-1.3334158223918458,-2.527139488850729,6.109447467118063,1.0184073448181152,-3.101731840764181
1708441186.9626064,-2.1412763595581055,-1.333407313828804,-2.527179781590597,6.109538781433859,1.0183504819869995,-3.101706329976217
1708441186.9646113,-2.1412158012390137,-1.3334277284196396,-2.527106825505392,6.109439480095663,1.0184285640716553,-3.1017544905291956
1708441186.9666061,-2.141284942626953,-1.333484099512436,-2.5270937124835413,6.109535205155172,1.0183836221694946,-3.1018028895007532
1708441186.9686007,-2.1412806510925293,-1.3334353280118485,-2.527130905781881,6.10948537567214,1.0184043645858765,-3.1018150488482874
1708441186.9705963,-2.141268253326416,-1.3333786737969895,-2.527135197316305,6.10948537567214,1.0183908939361572,-3.1018264929400843
1708441186.9725938,-2.1412315368652344,-1.3333545488170166,-2.5271721521960657,6.1094363806541345,1.018419623374939,-3.1019235293017786
1708441186.9746115,-2.14127254486084,-1.3334807765534897,-2.527135197316305,6.109473454743185,1.0184162855148315,-3.1018784681903284
1708441186.976602,-2.141251564025879,-1.3334396344474335,-2.527167860661642,6.109484302788534,1.0184314250946045,-3.101950470601217
1708441186.978627,-2.1412315368652344,-1.3334030222943802,-2.5271263758288782,6.1094655869300745,1.0184285640716553,-3.10197097459902
1708441186.9806077,-2.1411936283111572,-1.3334561449340363,-2.5271440188037317,6.109461176186361,1.0184028148651123,-3.10199481645693
1708441186.982612,-2.1411750316619873,-1.3334234815886994,-2.52714711824526,6.109415638237753,1.018399953842163,-3.1020589510547083
1708441186.9846408,-2.14127254486084,-1.3334115606597443,-2.527139488850729,6.10942434051589,1.0183745622634888,-3.102091137562887
1708441186.986641,-2.1411936283111572,-1.3334200543216248,-2.52710992494692,6.109487283020773,1.0184208154678345,-3.102062527333395
1708441186.988634,-2.1412065029144287,-1.333439664249756,-2.527184073125021,6.109462249069967,1.0183864831924438,-3.1021354834186
1708441186.9906478,-2.1412158012390137,-1.3333914887956162,-2.527151409779684,6.109477746277609,1.0184073448181152,-3.102171007786886
1708441186.9926202,-2.141240119934082,-1.3334808510592957,-2.527151409779684,6.1094655869300745,1.0184330940246582,-3.1021669546710413
1708441186.9946535,-2.1411750316619873,-1.3334191304496308,-2.527106825505392,6.109474289208212,1.0184240341186523,-3.1022031942950647
1708441186.997814,-2.1412110328674316,-1.3335003566792984,-2.527118746434347,6.109409200936117,1.0183955430984497,-3.102210823689596
1708441186.998623,-2.141186475753784,-1.3334235113910218,-2.5271645228015345,6.109478461533346,1.018399953842163,-3.1022711435901087
1708441187.0006468,-2.1411707401275635,-1.3334029626897355,-2.527135197316305,6.1094257710273645,1.0184403657913208,-3.102213446293966
1708441187.0026813,-2.1411995887756348,-1.333403007393219,-2.527102533970968,6.109430062561788,1.018388032913208,-3.1023109594928187
1708441187.0046344,-2.141233205795288,-1.33345182359729,-2.527196232472555,6.109410273819723,1.0184240341186523,-3.102269951497213
1708441187.006626,-2.141244649887085,-1.3334072989276429,-2.527114454899923,6.109430062561788,1.0184162855148315,-3.102330509816305
1708441187.0087185,-2.141183853149414,-1.3334073585322876,-2.527114216481344,6.109377491265096,1.0184285640716553,-3.1023381392108362
1708441187.0107038,-2.1411757469177246,-1.3334433150342484,-2.5271385351764124,6.109392988472738,1.0184285640716553,-3.102349583302633
1708441187.0127048,-2.141188144683838,-1.333439664249756,-2.5271721521960657,6.1093493578727625,1.0184285640716553,-3.102353874837057
1708441187.0147257,-2.1412081718444824,-1.3334722828916092,-2.5271721521960657,6.10933397987441,1.0183908939361572,-3.10242206255068
1708441187.0167155,-2.141167640686035,-1.3334073287299653,-2.5270937124835413,6.10932086685256,1.018388032913208,-3.1024296919452112
1708441187.018712,-2.141225576400757,-1.3334235411933442,-2.527123037968771,6.109346139221945,1.0184285640716553,-3.102474037800924
1708441187.0206409,-2.14113187789917,-1.3334396493485947,-2.527114454899923,6.109310376435079,1.0183790922164917,-3.1024611631976526
1708441187.022627,-2.1411561965942383,-1.3334808510592957,-2.5271883646594446,6.109354841500082,1.0184285640716553,-3.1025334040271204
1708441187.0246222,-2.141167640686035,-1.3334234964898606,-2.527118746434347,6.109302866249838,1.0183790922164917,-3.1025012175189417
1708441187.026615,-2.141111373901367,-1.3334234815886994,-2.527081553136007,6.109270083695211,1.0184073448181152,-3.102565590535299
1708441187.028611,-2.141115665435791,-1.3334595274976273,-2.5271437803851526,6.109236466675558,1.0184088945388794,-3.1025570074664515
1708441187.030628,-2.1410677433013916,-1.3334310811809083,-2.5270894209491175,6.109253752022543,1.01837158203125,-3.1025570074664515
1708441187.0326116,-2.141108274459839,-1.333451808696129,-2.527151409779684,6.109238374024191,1.0183836221694946,-3.102588478718893
1708441187.0346377,-2.14107608795166,-1.3334235113910218,-2.5271557013141077,6.109223234444418,1.018399953842163,-3.1026247183429163
1708441187.0366118,-2.1410160064697266,-1.3334234964898606,-2.527114454899923,6.1091863987739465,1.0183836221694946,-3.1027055422412317
1708441187.038647,-2.1410653591156006,-1.3334884953549881,-2.527090374623434,6.1091134426887415,1.0184375047683716,-3.102657143269674
1708441187.0406125,-2.1410202980041504,-1.3334234815886994,-2.5271056334124964,6.109145986824789,1.0183627605438232,-3.1026809851275843
1708441187.0426514,-2.1409597396850586,-1.3334603917649765,-2.527151409779684,6.109093653946676,1.0184375047683716,-3.1027005354510706
1708441187.0446484,-2.1409926414489746,-1.3334439259818573,-2.5271557013141077,6.109054672508993,1.0183924436569214,-3.102769200001852
1708441187.0466273,-2.140899419784546,-1.3334310811809083,-2.527135197316305,6.109051453858175,1.0184088945388794,-3.1027775446521204
1708441187.0486298,-2.1409125328063965,-1.333423451786377,-2.5271557013141077,6.1089786169822595,1.018399953842163,-3.1027725378619593
1708441187.050612,-2.1408519744873047,-1.3335327220014115,-2.5271599928485315,6.108991610794821,1.018388032913208,-3.102788750325338
1708441187.0526328,-2.140852451324463,-1.333434672360756,-2.52714711824526,6.108918773918905,1.018399953842163,-3.102787796651022
1708441187.0546427,-2.140841007232666,-1.3334918481162568,-2.527167860661642,6.108890640526571,1.0184208154678345,-3.102804485951559
1708441187.0566013,-2.140824794769287,-1.3334997606328507,-2.527114216481344,6.108876573830404,1.0183836221694946,-3.102860752736227
1708441187.0585988,-2.1407322883605957,-1.3335083288005372,-2.527184073125021,6.10884844043807,1.0183954238891602,-3.1028769651996058
1708441187.0606236,-2.1407408714294434,-1.333491937523224,-2.5271382967578333,6.108791458397665,1.0183836221694946,-3.102888886128561
1708441187.0626037,-2.1406474113464355,-1.3334466975978394,-2.527179781590597,6.108764755516805,1.0184297561645508,-3.1029089132892054
1708441187.0646074,-2.1406493186950684,-1.333504081969597,-2.5271883646594446,6.10874496677474,1.0183836221694946,-3.1029608885394495
1708441187.0666056,-2.140580654144287,-1.3334827286056061,-2.527175251637594,6.108695852547445,1.0184375047683716,-3.102936331425802
1708441187.0686085,-2.140556573867798,-1.3335191172412415,-2.527196232472555,6.108611333161154,1.0183671712875366,-3.102997366582052
1708441187.0706015,-2.1404764652252197,-1.3334870052388688,-2.527175251637594,6.10858832576827,1.0184043645858765,-3.103037182484762
1708441187.0726075,-2.140453338623047,-1.33348702014003,-2.527186457310812,6.108535039215841,1.0183955430984497,-3.103004042302267
1708441187.074593,-2.140347719192505,-1.3335679781487961,-2.527242962514059,6.1084927199180505,1.0183955430984497,-3.1030567328082483
1708441187.0766358,-2.1403160095214844,-1.3335517954877396,-2.5272114912616175,6.108480918198385,1.018388032913208,-3.1031015555011194
1708441187.0786402,-2.140272617340088,-1.3335877519897004,-2.527238670979635,6.10846112945632,1.0184073448181152,-3.1030800978290003
1708441187.0806015,-2.1402008533477783,-1.3335712564042588,-2.5272637049304407,6.108364331513204,1.0184330940246582,-3.103128735219137
1708441187.0825973,-2.140174388885498,-1.3336030852845688,-2.5273118654834192,6.108320820122518,1.0184253454208374,-3.103152577077047
1708441187.0846293,-2.140106201171875,-1.3336268675378342,-2.527323547993795,6.10824071147994,1.0184285640716553,-3.1031397024737757
1708441187.0866394,-2.1400020122528076,-1.333659217958786,-2.5273521582232874,6.1081732390220544,1.0184403657913208,-3.1032126585589808
1708441187.088621,-2.1398983001708984,-1.3336961430362244,-2.527375046406881,6.108065950661459,1.0184028148651123,-3.1032126585589808
1708441187.0906491,-2.1397807598114014,-1.3336909723332901,-2.527432982121603,6.107956516533651,1.01846444606781,-3.103224579487936
1708441187.0926049,-2.1397345066070557,-1.3337028634599228,-2.5274482409106653,6.107868897705831,1.0184857845306396,-3.1032684485064905
1708441187.0946348,-2.139625310897827,-1.3337267351201554,-2.5274763743029993,6.107785093575277,1.018484115600586,-3.1032922903644007
1708441187.0966372,-2.13952898979187,-1.3337428730777283,-2.5274739901172083,6.10773395279006,1.0184465646743774,-3.1033085028277796
1708441187.0985997,-2.1394224166870117,-1.3337865781835099,-2.527572218571798,6.107561218529501,1.0185428857803345,-3.1033323446856897
1708441187.1006243,-2.139327049255371,-1.333854616885521,-2.5275548140155237,6.107444989472189,1.0185322761535645,-3.103396479283468
1708441187.102624,-2.139207124710083,-1.3338462126306077,-2.5276148954974573,6.1073471186454675,1.0185728073120117,-3.1033838430987757
1708441187.1045973,-2.139063835144043,-1.33389067769561,-2.5276313463794153,6.1071826098258875,1.018613576889038,-3.1034610907184046
1708441187.1066089,-2.138943910598755,-1.3338745099357148,-2.5276792685138147,6.107047903328695,1.0186192989349365,-3.103464428578512
1708441187.108646,-2.1388447284698486,-1.3339502078345795,-2.527703110371725,6.106932985573568,1.018631100654602,-3.1035247484790247
1708441187.1106286,-2.138701915740967,-1.3339374375394364,-2.5277143160449427,6.106817590981283,1.0187005996704102,-3.1034958998309534
1708441187.112597,-2.1385412216186523,-1.3339734238437195,-2.5277631918536585,6.106682765274801,1.0187832117080688,-3.103506867085592
1708441187.1146047,-2.138430595397949,-1.3339856725982209,-2.527782980595724,6.106469619065084,1.0187938213348389,-3.1035881678210657
1708441187.1166027,-2.138230323791504,-1.3340664368918915,-2.5278471151935022,6.106302130013265,1.0188298225402832,-3.103628222142355
1708441187.1186228,-2.138038158416748,-1.3340817999890824,-2.5278669039355677,6.106090295105734,1.0188730955123901,-3.1036883036242884
1708441187.1206093,-2.1378462314605713,-1.3341467392495652,-2.527923647557394,6.105916368752279,1.0189348459243774,-3.1036842505084437
1708441187.122592,-2.137634515762329,-1.3341178011945267,-2.5279386679278772,6.105663049011984,1.0189077854156494,-3.10374099413027
1708441187.124668,-2.1374387741088867,-1.3341570657542725,-2.5280523935901087,6.105407345085897,1.0190266370773315,-3.1037357489215296
1708441187.1265912,-2.1372554302215576,-1.3341570508531113,-2.5280523935901087,6.1052706120307825,1.0190417766571045,-3.1037595907794397
1708441187.128609,-2.13706111907959,-1.334201456313469,-2.5281406084643763,6.105006444245138,1.019089698791504,-3.103839937840597
1708441187.1306095,-2.136835813522339,-1.3342487078956147,-2.528158966694967,6.10471390464858,1.0191500186920166,-3.103868071232931
1708441187.1325824,-2.1365766525268555,-1.3343012940934678,-2.5281627813922327,6.1044877646263025,1.019181489944458,-3.1039045492755335
1708441187.1346202,-2.136322259902954,-1.3343407970717927,-2.528255049382345,6.104171502381124,1.0192863941192627,-3.103907887135641
1708441187.1366103,-2.1360702514648438,-1.3343606752208252,-2.5282791296588343,6.1038890955741785,1.0193604230880737,-3.1039469877826136
1708441187.1386197,-2.1358025074005127,-1.3344244819930573,-2.5284255186664026,6.103524791985311,1.0193873643875122,-3.104015652333395
1708441187.1406217,-2.135490894317627,-1.3344604831985016,-2.5284438768969935,6.103266942292013,1.019417643547058,-3.104055706654684
1708441187.1426356,-2.1352760791778564,-1.334496335392334,-2.5285070578204554,6.102927553444662,1.019498586654663,-3.1040757338153284
1708441187.144614,-2.134969472885132,-1.334604488020279,-2.5286172072040003,6.102584230690756,1.019546389579773,-3.104147259389059
1708441187.1466515,-2.1346235275268555,-1.3346283298781891,-2.528661076222555,6.102236377983846,1.0196354389190674,-3.104236427937643
1708441187.1486118,-2.1344027519226074,-1.334680126314499,-2.528679434453146,6.102020251541891,1.0196951627731323,-3.10425573984255
1708441187.1506329,-2.134082317352295,-1.3347155165723343,-2.5287886301623743,6.101619708329,1.0197827816009521,-3.10429555574526
1708441187.1526382,-2.1337883472442627,-1.3347841811231156,-2.528851572667257,6.101300465851583,1.0198519229888916,-3.1043432394610804
1708441187.154603,-2.133521318435669,-1.3347918105176468,-2.5289443174945276,6.10092173793868,1.0199450254440308,-3.104431215916769
1708441187.1566105,-2.133153200149536,-1.33491204798732,-2.5290165583239954,6.1005380032356165,1.0200124979019165,-3.104471985493795
1708441187.1586072,-2.1328020095825195,-1.3349675995162507,-2.5291081110583704,6.100079643517294,1.020055890083313,-3.1045032183276575
1708441187.1606078,-2.132467031478882,-1.3350144487670441,-2.529130760823385,6.099730598717489,1.0201445817947388,-3.1045549551593226
1708441187.1625912,-2.132056713104248,-1.3350263398936768,-2.5292442480670374,6.099266278534689,1.0202409029006958,-3.1046603361712855
1708441187.1646254,-2.1316866874694824,-1.3350941997817536,-2.5293360392199915,6.098880159645834,1.0203583240509033,-3.104655090962545
1708441187.166597,-2.13136887550354,-1.3351334792426606,-2.5294037500964563,6.098497497826376,1.020421028137207,-3.104727093373434
1708441187.168607,-2.1309587955474854,-1.335262046461441,-2.5294876734363,6.098084556847372,1.0205568075180054,-3.1047380606280726
1708441187.1706042,-2.130603313446045,-1.3352939647487183,-2.5295878092395228,6.097551810532369,1.020589828491211,-3.1048391501056116
1708441187.1725984,-2.1301004886627197,-1.3353859347156067,-2.5297046343432825,6.097020137100973,1.0206859111785889,-3.1048789660083216
1708441187.1746035,-2.1297099590301514,-1.3354782176068802,-2.5297918955432337,6.096612679749288,1.0207998752593994,-3.1049638430224817
1708441187.176593,-2.1292636394500732,-1.3355502051166077,-2.5298758188830774,6.096077430039205,1.020913004875183,-3.105023209248678
1708441187.1785936,-2.1288487911224365,-1.3355808866075058,-2.5300045649157923,6.095562445908346,1.0210282802581787,-3.1050995031939905
1708441187.1806076,-2.1283974647521973,-1.335649238233902,-2.530116860066549,6.094939100533285,1.0210989713668823,-3.1051340738879603
1708441187.1825955,-2.1279609203338623,-1.3356715601733704,-2.530203882847921,6.0944087384040735,1.0211622714996338,-3.105202023183004
1708441187.1846535,-2.127439498901367,-1.3358123910478135,-2.530332867299215,6.093919622689047,1.0212512016296387,-3.105212990437643
1708441187.1866138,-2.126948118209839,-1.3359206181815644,-2.530407969151632,6.093324887543478,1.0213607549667358,-3.105363194142477
1708441187.1886172,-2.126408576965332,-1.335951716904976,-2.53054124513735,6.092779266625204,1.021443247795105,-3.1054258982287806
1708441187.190626,-2.1259186267852783,-1.3360189509442826,-2.5305913130389612,6.092148411064901,1.0215482711791992,-3.1055145899402063
1708441187.1926293,-2.1254119873046875,-1.3361429286054154,-2.5307439009295862,6.091517913132467,1.0217095613479614,-3.105579201375143
1708441187.1946194,-2.1248254776000977,-1.3362188649228592,-2.530889097844259,6.090845095902242,1.0218220949172974,-3.105658833180563
1708441187.196608,-2.1243276596069336,-1.3362940859845658,-2.5309763590442103,6.090201842575826,1.0219379663467407,-3.1057263056384485
1708441187.1986187,-2.1237399578094482,-1.3363862198642273,-2.5311124960528772,6.089584934502401,1.0220251083374023,-3.105863396321432
1708441187.2006254,-2.1232094764709473,-1.3364496541074296,-2.5312042872058313,6.0888826725776575,1.022170901298523,-3.10587722459902
1708441187.2026315,-2.1225972175598145,-1.336617798810341,-2.5312872568713587,6.088228332787313,1.0222489833831787,-3.1059449354754847
1708441187.2045958,-2.122055768966675,-1.3366649609855195,-2.531447474156515,6.087490427284994,1.0223314762115479,-3.1060407797442835
1708441187.2066135,-2.1213834285736084,-1.336768851881363,-2.531567160283224,6.086728799134054,1.0225027799606323,-3.106194798146383
1708441187.2086341,-2.120744466781616,-1.336912379865982,-2.53170353571047,6.085991251259603,1.0226351022720337,-3.106278721486227
1708441187.210614,-2.120090961456299,-1.3369558465531846,-2.531807247792379,6.085202085762777,1.022729754447937,-3.106361452733175
1708441187.2126138,-2.1194980144500732,-1.3371044856360932,-2.531968657170431,6.084360468178549,1.0228573083877563,-3.106473747883932
1708441187.2146215,-2.118821382522583,-1.3371789169362565,-2.5321083704577845,6.083628284722128,1.022953748703003,-3.1065412203418177
1708441187.2166085,-2.118175745010376,-1.3373315793326874,-2.532259766255514,6.082790481835165,1.0231118202209473,-3.106645647679464
1708441187.2186499,-2.1175084114074707,-1.3374228936484833,-2.5323265234576624,6.081945049553671,1.0232152938842773,-3.1067402998553675
1708441187.2206388,-2.1167728900909424,-1.3375023764422913,-2.5325282255755823,6.081091749459066,1.0233848094940186,-3.106881920491354
1708441187.2226372,-2.116102933883667,-1.3375895631364365,-2.532585922871725,6.08019374588088,1.0234934091567993,-3.106936279927389
1708441187.2246034,-2.1153852939605713,-1.3377212595990677,-2.5328126589404505,6.0792968151863,1.023604154586792,-3.107081715260641
1708441187.2266085,-2.1146340370178223,-1.3379191619208832,-2.532935921345846,6.078419673233785,1.0237038135528564,-3.107185188923971
1708441187.2286084,-2.1138722896575928,-1.3380236637643357,-2.5330637137042444,6.077578174858846,1.0238615274429321,-3.107248369847433
1708441187.2306015,-2.1130902767181396,-1.3381017309478302,-2.533175055180685,6.07668303230361,1.0239983797073364,-3.1074000040637415
1708441187.2326229,-2.112274646759033,-1.3382240992835541,-2.53341252008547,6.075688230782308,1.0241544246673584,-3.1074588934527796
1708441187.2346067,-2.111518144607544,-1.338369072680809,-2.5334792772876185,6.07469521740035,1.0242177248001099,-3.1076322237597864
1708441187.2366314,-2.1107559204101562,-1.338476837878563,-2.533630911503927,6.0737719414527795,1.024300217628479,-3.1077402273761194
1708441187.2386007,-2.109905242919922,-1.338624821310379,-2.5338359514819544,6.072790252953329,1.0244489908218384,-3.1078184286700647
1708441187.2406077,-2.1090805530548096,-1.3387476068786164,-2.5339353720294397,6.071834313660421,1.0246026515960693,-3.1079588572131556
1708441187.2426083,-2.1082346439361572,-1.3388462227633973,-2.5340986887561243,6.070773350983419,1.0247060060501099,-3.108062807713644
1708441187.2446005,-2.107417583465576,-1.3390687269023438,-2.5343125502215784,6.0696918843086145,1.024888277053833,-3.1082518736468714
1708441187.2466002,-2.1065030097961426,-1.3391542446664353,-2.5344718138324183,6.068637597351827,1.0249944925308228,-3.108342711125509
1708441187.2486067,-2.1056296825408936,-1.3392615479281922,-2.5346482435809534,6.067595350533285,1.0251222848892212,-3.108478609715597
1708441187.2506635,-2.1047627925872803,-1.339376912718155,-2.534783665333883,6.0664734719093225,1.0252264738082886,-3.108619515095846
1708441187.252601,-2.1038756370544434,-1.339520053272583,-2.5349841753589075,6.065485465317526,1.025425910949707,-3.108767334614889
1708441187.2546494,-2.1030235290527344,-1.3397175532630463,-2.535161081944601,6.064465868263998,1.0254592895507812,-3.1088574568377894
1708441187.2566035,-2.102083444595337,-1.339848832493164,-2.5352917353259485,6.063458311348715,1.0255717039108276,-3.108997170125143
1708441187.2586017,-2.101198196411133,-1.3399671775153656,-2.535407368336813,6.062361347466268,1.0257248878479004,-3.109128777180807
1708441187.260599,-2.1002838611602783,-1.3401537400535126,-2.535578791295187,6.061271655350485,1.0258526802062988,-3.109269682561056
1708441187.2626188,-2.099390983581543,-1.3402168911746521,-2.53577167192568,6.060162651329794,1.0259684324264526,-3.109450642262594
1708441187.2646008,-2.098426103591919,-1.3403930079988022,-2.535914723073141,6.059110986977377,1.026142954826355,-3.1095247904406946
1708441187.2665997,-2.097449779510498,-1.3405900460532685,-2.536103073750631,6.05796109417037,1.0261881351470947,-3.1096726099597376
1708441187.2685957,-2.0965158939361572,-1.3407008957913895,-2.5362473169909876,6.056714403420248,1.0263426303863525,-3.1098371187793177
1708441187.270597,-2.0955376625061035,-1.3408982169679184,-2.536497179661886,6.055564510613241,1.0264002084732056,-3.1099563280688685
1708441187.2725937,-2.094560146331787,-1.3410355907729645,-2.536607090626852,6.054396378784933,1.026583194732666,-3.110145394002096
1708441187.2746055,-2.0935707092285156,-1.3412404966405411,-2.5367749373065394,6.053195464401998,1.0266613960266113,-3.110251251851217
1708441187.2766042,-2.092644453048706,-1.3413914901069184,-2.536935631428854,6.052035558014669,1.0267908573150635,-3.1104159990893763
1708441187.278601,-2.0916550159454346,-1.341596097951271,-2.537091318761007,6.050812470703878,1.0269014835357666,-3.1105714480029505
1708441187.2806022,-2.090599775314331,-1.3417009127191086,-2.537254873906271,6.049553143769064,1.0270684957504272,-3.1107242743121546
1708441187.2826366,-2.0895743370056152,-1.3418771189502259,-2.537431780491964,6.04830156543807,1.0271589756011963,-3.1109166781054896
1708441187.284612,-2.088557720184326,-1.3421088022044678,-2.537570063267843,6.047015297203817,1.027321219444275,-3.1110520998584192
1708441187.2866173,-2.0874738693237305,-1.3422882419875641,-2.5378122965442103,6.045842158585348,1.0274323225021362,-3.1112151781665247
1708441187.288604,-2.0865061283111572,-1.342528687124588,-2.5379303137408655,6.044512259751119,1.027579426765442,-3.111396137868063
1708441187.2906053,-2.0854403972625732,-1.3426829141429444,-2.538114372883932,6.043161856919088,1.027687907218933,-3.1115594545947474
1708441187.2926354,-2.0843780040740967,-1.3428488236716767,-2.5382748285876673,6.041947829514303,1.0277868509292603,-3.1116488615619105
1708441187.2946262,-2.083308696746826,-1.3430787932923813,-2.538450543080465,6.040689456253805,1.0279209613800049,-3.111854139958517
1708441187.2966063,-2.082244634628296,-1.3432898086360474,-2.538614813481466,6.039314257889547,1.0280197858810425,-3.1120381991015833
1708441187.2986236,-2.081123113632202,-1.3435212981751938,-2.538762156163351,6.0379700539405725,1.0281251668930054,-3.112222496663229
1708441187.3006287,-2.080033302307129,-1.343703643684723,-2.538987700139181,6.036674606591024,1.0282816886901855,-3.1123860518084925
1708441187.3026001,-2.078887462615967,-1.343906970029213,-2.5391176382647913,6.035318004875936,1.028377652168274,-3.112586323414938
1708441187.304596,-2.0777955055236816,-1.344171331529953,-2.539309565220968,6.033959495812216,1.028490424156189,-3.1127055327044886
1708441187.3066068,-2.0766775608062744,-1.344394014482834,-2.53945237794985,6.032630431443014,1.0286513566970825,-3.1128440538989466
1708441187.3086233,-2.075568675994873,-1.3445361715606232,-2.539722744618551,6.031289446144857,1.028690218925476,-3.1130617300616663
1708441187.3106234,-2.074474334716797,-1.3447515231421967,-2.5398746172534388,6.029973971634664,1.0288147926330566,-3.113176170979635
1708441187.3126276,-2.073338747024536,-1.345047490005829,-2.5400870482074183,6.028670298844137,1.028902292251587,-3.1133764425860804
1708441187.3146229,-2.0721473693847656,-1.3451683086207886,-2.5402138868915003,6.0272337076957605,1.0289486646652222,-3.1135852972613733
1708441187.3166203,-2.0709447860717773,-1.345482499604561,-2.540389362965719,6.025873768120565,1.0290658473968506,-3.1137078444110315
1708441187.3186064,-2.0697031021118164,-1.345682681804039,-2.5406139532672327,6.024422395020284,1.029166340827942,-3.1139124075519007
1708441187.3206115,-2.0684733390808105,-1.345991463666298,-2.5407822767840784,6.023018348007955,1.0292788743972778,-3.114046637211935
1708441187.3226314,-2.0673305988311768,-1.3461902302554627,-2.540990177785055,6.0215948698814294,1.0294526815414429,-3.1142426172839563
1708441187.3246152,-2.066028594970703,-1.3464044791511078,-2.541165892277853,6.020125615387716,1.029466986656189,-3.11440617242922
1708441187.3266075,-2.064831495285034,-1.3465873462012787,-2.5413532892810267,6.018713938980856,1.0295748710632324,-3.1145902315722864
1708441187.3286226,-2.06360125541687,-1.346829817896225,-2.5415177981006067,6.017271268158712,1.0296382904052734,-3.1148069540606897
1708441187.3306172,-2.062347412109375,-1.3471145045808335,-2.541745964680807,6.015795218735494,1.0297346115112305,-3.1149662176715296
1708441187.3325872,-2.061067581176758,-1.3473448020270844,-2.5419707934008997,6.014362919121542,1.0298396348953247,-3.1151588598834437
1708441187.3346372,-2.0597825050354004,-1.3475756806186219,-2.542100493107931,6.01287733295516,1.0299400091171265,-3.115338389073507
1708441187.3366258,-2.0584888458251953,-1.3478425306132813,-2.5422804991351526,6.011383640557089,1.0300331115722656,-3.1155129114734095
1708441187.3386488,-2.057236433029175,-1.3481352043202897,-2.542574946080343,6.009794938355245,1.0301204919815063,-3.115725342427389
1708441187.3406532,-2.0559287071228027,-1.3483936053565522,-2.542783323918478,6.008313762932577,1.030184030532837,-3.1159425417529505
1708441187.3426466,-2.0545918941497803,-1.3486561936191102,-2.54294997850527,6.0068328259284876,1.0302886962890625,-3.116040293370382
1708441187.3446085,-2.053288698196411,-1.3489274245551606,-2.5431299845324915,6.005199420243063,1.0303356647491455,-3.1162849108325403
1708441187.3466227,-2.0519304275512695,-1.3492392760566254,-2.5433219114886683,6.003728973656454,1.0304689407348633,-3.1164849440204065
1708441187.348621,-2.0506198406219482,-1.3495567303946991,-2.5435498396502894,6.002162802010336,1.0305534601211548,-3.1166439692126673
1708441187.3506334,-2.0492560863494873,-1.3498738420060654,-2.5437658468829554,6.0006152270133875,1.0306570529937744,-3.116830650960104
1708441187.3526416,-2.0478920936584473,-1.350209803586342,-2.5439494291888636,5.998996007233419,1.0307204723358154,-3.1170271078692835
1708441187.3546174,-2.0465469360351562,-1.350507752304413,-2.544178311024801,5.997463214188375,1.0308165550231934,-3.117305103932516
1708441187.356609,-2.045140266418457,-1.3507941675237198,-2.544382158909933,5.995884406357565,1.030909776687622,-3.1174352804767054
1708441187.358619,-2.0437164306640625,-1.351193682556488,-2.544659439717428,5.9943119166191,1.0310355424880981,-3.1175857226001185
1708441187.360596,-2.0423450469970703,-1.351491705780365,-2.5447848478900355,5.992677676468649,1.031085729598999,-3.117793623601095
1708441187.3626637,-2.0409679412841797,-1.351855845456459,-2.545074526463644,5.991082894593038,1.0311949253082275,-3.117978874837057
1708441187.3646421,-2.0395736694335938,-1.3521690529635926,-2.545286242161886,5.989442693978109,1.0313001871109009,-3.118154589329855
1708441187.3665926,-2.0381429195404053,-1.3524713677218934,-2.5455053488360804,5.987818944245138,1.031272292137146,-3.118316952382223
1708441187.3686163,-2.0367002487182617,-1.3528622847846528,-2.5457451979266565,5.986103403359213,1.0313937664031982,-3.118509833012716
1708441187.3706,-2.035181760787964,-1.3532505941442032,-2.5459449926959437,5.98441361167983,1.0314745903015137,-3.118696991597311
1708441187.3726583,-2.0337424278259277,-1.3536527317813416,-2.546152416859762,5.982722747116842,1.0315831899642944,-3.1188975016223353
1708441187.3746033,-2.0323097705841064,-1.3540419203094025,-2.546380345021383,5.981092321663656,1.0317074060440063,-3.119000021611349
1708441187.3766124,-2.0308446884155273,-1.3543820542148133,-2.546678129826681,5.979394423752584,1.031750202178955,-3.1192436853991907
1708441187.378595,-2.029423713684082,-1.3547432881644745,-2.5469310919391077,5.9776978371436975,1.031874656677246,-3.119465414677755
1708441187.3805895,-2.027939558029175,-1.3551441144994278,-2.547112766896383,5.976048934250631,1.0319676399230957,-3.119632069264547
1708441187.3825884,-2.026468276977539,-1.3555277299932023,-2.547328774129049,5.974307882576742,1.0320355892181396,-3.119807545338766
1708441187.3846126,-2.025010824203491,-1.3558134895614167,-2.547626558934347,5.9726542113120935,1.0321109294891357,-3.12002402940859
1708441187.3866365,-2.0235185623168945,-1.3561958831599732,-2.5478416124926966,5.9709826586540125,1.032265305519104,-3.120199505482809
1708441187.3886127,-2.022047281265259,-1.3566909742406388,-2.548048798237936,5.9693734524543665,1.032307744026184,-3.120338741933004
1708441187.390633,-2.020502805709839,-1.3570640993169327,-2.5483134428607386,5.967713701515951,1.0324156284332275,-3.120551649724142
1708441187.3926754,-2.019035577774048,-1.357519970541336,-2.54854923883547,5.965948450356283,1.0324549674987793,-3.1207357088672083
1708441187.3946137,-2.017472982406616,-1.357959197168686,-2.548832718526022,5.9642828581626794,1.0325556993484497,-3.120885435734884
1708441187.3966,-2.01591157913208,-1.3583200138858338,-2.5490532557116907,5.962580907135763,1.0326595306396484,-3.121066395436422
1708441187.39861,-2.014410972595215,-1.3586902034333725,-2.549305025731222,5.960894453316488,1.0327895879745483,-3.121275011693136
1708441187.4006135,-2.0127954483032227,-1.3591138285449524,-2.549561325703756,5.959285366326132,1.0328421592712402,-3.1214378515826624
1708441187.4026375,-2.0112898349761963,-1.359556407933571,-2.5497968832599085,5.957503068238058,1.0328980684280396,-3.1215809027301233
1708441187.4045887,-2.0096609592437744,-1.3598811787417908,-2.5499802271472376,5.955808985024252,1.0329372882843018,-3.1217482725726526
1708441187.4066017,-2.008023738861084,-1.360410289173462,-2.550321404133932,5.954033124237814,1.0330289602279663,-3.121911589299337
1708441187.4086192,-2.0064096450805664,-1.36082016051326,-2.5505321661578577,5.952229845314779,1.0331673622131348,-3.122103277836935
1708441187.4106827,-2.0047974586486816,-1.3612091404250641,-2.5508087317096155,5.950487005501547,1.0332947969436646,-3.122308079396383
1708441187.4126832,-2.0031607151031494,-1.361671344642975,-2.551101032887594,5.948720681458273,1.0333582162857056,-3.1224759260760706
1708441187.4146957,-2.0015480518341064,-1.3621076208404084,-2.551368538533346,5.946984755783834,1.0334738492965698,-3.122594420109884
1708441187.4166894,-1.9999393224716187,-1.3625154954246064,-2.5516651312457483,5.945135819702902,1.0335098505020142,-3.122803036366598
1708441187.4187093,-1.9982433319091797,-1.362987608914711,-2.551880184804098,5.943405854492941,1.0336886644363403,-3.12291390100588
1708441187.4206846,-1.9966074228286743,-1.3634345692447205,-2.552221123372213,5.941630112915792,1.033705472946167,-3.1231024901019495
1708441187.4226418,-1.995018482208252,-1.363869698052742,-2.5525081793414515,5.939817893296041,1.0338433980941772,-3.12331468263735
1708441187.4246166,-1.9933027029037476,-1.3643588882735749,-2.5528374353991907,5.938091265946188,1.0339276790618896,-3.1234825293170374
1708441187.4266317,-1.9915398359298706,-1.364848868255951,-2.5531132856952112,5.936291801720419,1.034077525138855,-3.1235697905169886
1708441187.4286282,-1.9898412227630615,-1.3653568488410492,-2.553425375615255,5.934451687126913,1.0341439247131348,-3.1237288157092493
1708441187.4305995,-1.988128662109375,-1.3658217799714585,-2.55370003381838,5.932556378632345,1.0342881679534912,-3.123974625264303
1708441187.4326036,-1.9864163398742676,-1.3663253349116822,-2.5540128389941614,5.9307981608207605,1.034424901008606,-3.1241100470172327
1708441187.4346163,-1.984695553779602,-1.3667708498290558,-2.5542760531054896,5.928952443390646,1.0345364809036255,-3.124200407658712
1708441187.4366288,-1.9829944372177124,-1.3672133845141907,-2.5546117464648646,5.927052366524496,1.0346250534057617,-3.1243682543383997
1708441187.4386234,-1.981294870376587,-1.3677169245532532,-2.554936472569601,5.925215470581808,1.0347018241882324,-3.124552551900045
1708441187.4406626,-1.9794776439666748,-1.368193970327713,-2.555244032536642,5.923338997154989,1.034838318824768,-3.124699656163351
1708441187.4426155,-1.9776651859283447,-1.3687946808389206,-2.5555558840381067,5.921414005547323,1.0349918603897095,-3.12490421930422
1708441187.4446204,-1.9759196043014526,-1.3693116319230576,-2.5559526125537317,5.919496404915609,1.0351148843765259,-3.1250646750079554
1708441187.446622,-1.9740859270095825,-1.3698362720063706,-2.556272331868307,5.917531478195944,1.0353280305862427,-3.1252368132220667
1708441187.4486113,-1.9722695350646973,-1.3703849029592057,-2.5565877596484583,5.915739285736837,1.035427451133728,-3.1253421942340296
1708441187.4506178,-1.9704371690750122,-1.3708604139140625,-2.5568910280810755,5.913731801300802,1.035576343536377,-3.1255393663989466
1708441187.4526062,-1.9686782360076904,-1.3713792723468323,-2.557239834462301,5.911786424904623,1.0356109142303467,-3.125641647969381
1708441187.4546225,-1.9668583869934082,-1.371897743349411,-2.557563130055563,5.909920561104574,1.0357387065887451,-3.1258464495288294
1708441187.4566092,-1.9649548530578613,-1.372398318057396,-2.5579147974597376,5.908004629402914,1.0359128713607788,-3.125990692769186
1708441187.4586132,-1.9630985260009766,-1.3729918015054245,-2.558296028767721,5.9061012146766565,1.0361095666885376,-3.1261497179614466
1708441187.460608,-1.961177110671997,-1.373582051401474,-2.5586188475238245,5.904185402184286,1.0362898111343384,-3.126309935246603
1708441187.462615,-1.9592320919036865,-1.3741642844728013,-2.5589829126941126,5.90219663360671,1.0364428758621216,-3.126514259968893
1708441187.4646313,-1.957305908203125,-1.3747469049743195,-2.559342686329977,5.900186168938436,1.0365771055221558,-3.126669232045309
1708441187.4666004,-1.9553344249725342,-1.375322864656784,-2.5597267786609095,5.898205983429708,1.0367575883865356,-3.1268449465381067
1708441187.4686022,-1.9534236192703247,-1.375887469654419,-2.5600865522967737,5.896198498993673,1.036944031715393,-3.1270085016833704
1708441187.4706137,-1.9515156745910645,-1.3763937664083024,-2.5603774229632776,5.894263374596395,1.0370628833770752,-3.1271851698504847
1708441187.4726024,-1.9496411085128784,-1.3769657474807282,-2.5608184973346155,5.892283308296957,1.0372565984725952,-3.1273325125323694
1708441187.474618,-1.947562575340271,-1.377585456972458,-2.5611775557147425,5.8902132389839075,1.0373917818069458,-3.127476517354147
1708441187.4765973,-1.9455528259277344,-1.3782005620053788,-2.561551872883932,5.888157832413473,1.0375556945800781,-3.1276853720294397
1708441187.4792569,-1.9434983730316162,-1.3787627083114167,-2.562044684086935,5.886066901474752,1.0377615690231323,-3.1277998129474085
1708441187.4806027,-1.9414676427841187,-1.3793987047723313,-2.5624080340014856,5.883951651840963,1.0379613637924194,-3.1279643217669886
1708441187.482598,-1.939466118812561,-1.3798957926085968,-2.5628531614886683,5.881878721504965,1.0381296873092651,-3.1281560103045862
1708441187.484602,-1.9373763799667358,-1.3805479121259232,-2.5632193724261683,5.879726636200704,1.0382894277572632,-3.128307644520895
1708441187.4866307,-1.9353201389312744,-1.3811351519874115,-2.563631598149435,5.8777410862739465,1.0384618043899536,-3.128451172505514
1708441187.48864,-1.9332504272460938,-1.3817583185485383,-2.5640602747546595,5.875587689667501,1.0386919975280762,-3.1286309401141565
1708441187.4906282,-1.9312207698822021,-1.382365347152092,-2.5645368734942835,5.873630392342367,1.0388346910476685,-3.128814999257223
1708441187.4926198,-1.9291411638259888,-1.3830089134028931,-2.5649481455432337,5.87153576591567,1.039076805114746,-3.128946129475729
1708441187.4946191,-1.926918625831604,-1.3836809259704133,-2.5654051939593714,5.869384515076437,1.0392600297927856,-3.129150692616598
1708441187.496602,-1.9247857332229614,-1.3843310338309784,-2.565838877354757,5.867178189545431,1.0394402742385864,-3.1292687098132532
1708441187.4986134,-1.922584891319275,-1.384945736532547,-2.566308323537008,5.8650176403816126,1.0396491289138794,-3.1294620672809046
1708441187.5006254,-1.9204527139663696,-1.3856246036342164,-2.566807572041647,5.862869131356039,1.0398610830307007,-3.1296375433551233
1708441187.5026314,-1.9183034896850586,-1.3862422716668625,-2.5672109762774866,5.860733496933737,1.0400984287261963,-3.1297934691058558
1708441187.5046272,-1.9160823822021484,-1.3869020503810425,-2.5677650610553187,5.85850619056777,1.0402218103408813,-3.1300059000598353
1708441187.5066292,-1.9139617681503296,-1.3875571352294465,-2.568195883427755,5.856473195343771,1.0403931140899658,-3.1301398913012903
1708441187.5086422,-1.911790132522583,-1.3882324260524292,-2.568615738545553,5.85428677776412,1.040647029876709,-3.130329434071676
1708441187.5107064,-1.9096721410751343,-1.388826922779419,-2.5690913836108606,5.852176177292623,1.0408754348754883,-3.130460564290182
1708441187.5126665,-1.907488465309143,-1.389469475751259,-2.569538656865255,5.849975573807516,1.0410709381103516,-3.1306758562671106
1708441187.5146344,-1.9052765369415283,-1.3900990945151825,-2.5700505415545862,5.847825276642599,1.0413037538528442,-3.13086444536318
1708441187.5166163,-1.9030735492706299,-1.3907984507134934,-2.5704460779773157,5.845671522408285,1.0416271686553955,-3.130986754094259
1708441187.518609,-1.9009108543395996,-1.391498164539673,-2.570974413548605,5.843474018364706,1.0418450832366943,-3.1312363783465784
1708441187.520618,-1.8986388444900513,-1.3921443235925217,-2.5714219252215784,5.8413346884544275,1.0421276092529297,-3.1313751379596155
1708441187.5226424,-1.8964979648590088,-1.3927904975465317,-2.5719178358661097,5.839178788452902,1.0423846244812012,-3.131542984639303
1708441187.524623,-1.8943712711334229,-1.3934245866588135,-2.572426144276754,5.837128388672628,1.042608380317688,-3.1317477861987513
1708441187.5265899,-1.8921236991882324,-1.3941166561893006,-2.5728493372546595,5.8349764225776575,1.042811393737793,-3.131869379674093
1708441187.5285926,-1.8898921012878418,-1.3947016310742875,-2.57332951227297,5.8328131316001794,1.0430489778518677,-3.1320059935199183
1708441187.5305836,-1.8876793384552002,-1.395446093087532,-2.573850695286886,5.830593216210165,1.0432517528533936,-3.132216993962423
1708441187.5326002,-1.88546621799469,-1.3960930120996018,-2.5743349234210413,5.828514325409689,1.0435055494308472,-3.1323967615710657
1708441187.5346425,-1.8832294940948486,-1.3967329573682328,-2.574765745793478,5.826400506287374,1.04377019405365,-3.1326335112201136
1708441187.5366297,-1.8810619115829468,-1.3974412691644211,-2.575291458760397,5.824300396233358,1.0440181493759155,-3.1327737013446253
1708441187.5386121,-1.8789135217666626,-1.3981120449355622,-2.575733248387472,5.822154629021444,1.044265866279602,-3.132913414631979
1708441187.5406268,-1.8767194747924805,-1.3987306964448472,-2.5762205759631556,5.819999205857076,1.0445070266723633,-3.133099619542257
1708441187.5426052,-1.874552845954895,-1.3993737560561677,-2.576786820088522,5.817849623947897,1.0447230339050293,-3.1333206335650843
1708441187.5446157,-1.8723102807998657,-1.3999755543521424,-2.5772293249713343,5.81568597534255,1.0450282096862793,-3.1335046927081507
1708441187.5466208,-1.8701190948486328,-1.4006779205850144,-2.577745501195089,5.813553559571066,1.045304775238037,-3.133672539387838
1708441187.5486102,-1.8679382801055908,-1.4013200116208573,-2.5782654921161097,5.811476337700643,1.0455286502838135,-3.133843723927633
1708441187.5506496,-1.8656978607177734,-1.4020405423692246,-2.5788381735431116,5.809428798943319,1.0457570552825928,-3.134031120930807
1708441187.5526228,-1.8635717630386353,-1.4027041059783478,-2.5793426672564905,5.807321774750509,1.0460184812545776,-3.1342151800738733
1708441187.554596,-1.8612968921661377,-1.4033538115075608,-2.5798161665545862,5.8051737425620935,1.0462967157363892,-3.134418789540426
1708441187.5565972,-1.8590596914291382,-1.4039481741240998,-2.580348793660299,5.8030221340949915,1.0465115308761597,-3.1345985571490687
1708441187.5586073,-1.8568512201309204,-1.4046515685370942,-2.5807912985431116,5.800999033242025,1.0467593669891357,-3.134758774434225
1708441187.5605946,-1.8546620607376099,-1.4053225827268143,-2.5813029448138636,5.798825728684225,1.0470001697540283,-3.1350279490100306
1708441187.5625958,-1.8524589538574219,-1.4059125047973176,-2.5818479696856897,5.796737539559164,1.047162413597107,-3.1351872126208704
1708441187.5646403,-1.850247859954834,-1.4065387409976502,-2.582331720982687,5.794625389366903,1.0474706888198853,-3.1353419462787073
1708441187.566612,-1.8480509519577026,-1.4072180104306717,-2.5828221479998987,5.792461383133688,1.0477511882781982,-3.135549847279684
1708441187.5685968,-1.8458671569824219,-1.4078639459661026,-2.5833621660815638,5.790418493538656,1.0479782819747925,-3.1356888453113
1708441187.5706048,-1.8436567783355713,-1.4085319352201005,-2.583930555974142,5.788287031441488,1.0482499599456787,-3.135929886494772
1708441187.572606,-1.8415013551712036,-1.409218893652298,-2.5844083468066614,5.786130654602804,1.048543095588684,-3.1361287275897425
1708441187.574608,-1.839295506477356,-1.4098496598056336,-2.5849323908435267,5.784088957100668,1.0488109588623047,-3.1362772623645228
1708441187.5766015,-1.837112307548523,-1.41048880041156,-2.585391108189718,5.7819415209587,1.0490134954452515,-3.136411253605978
1708441187.5786116,-1.834907054901123,-1.4111580115607758,-2.5858898798571985,5.779904353409567,1.0492961406707764,-3.1366313139544886
1708441187.5806003,-1.8327540159225464,-1.4117750090411683,-2.586437765751974,5.777828800469198,1.0495048761367798,-3.136791531239645
1708441187.5825992,-1.83053457736969,-1.4124086660197754,-2.5869410673724573,5.775649058609762,1.0496958494186401,-3.137003723775045
1708441187.5846722,-1.8282893896102905,-1.4130806487849732,-2.5874603430377405,5.773601758271017,1.0499545335769653,-3.1371336619006556
1708441187.5866282,-1.8260307312011719,-1.4137067210725327,-2.5879433790790003,5.771553146630087,1.0501993894577026,-3.1373265425311487
1708441187.5886152,-1.8238788843154907,-1.4143581849387665,-2.5884347597705286,5.769493329315939,1.0504307746887207,-3.13747746149172
1708441187.5906389,-1.821667194366455,-1.415023849611618,-2.58893329301943,5.767334091454305,1.0506998300552368,-3.1377185026751917
1708441187.5926135,-1.8194295167922974,-1.415662260060646,-2.589438025151388,5.765221822052755,1.050845742225647,-3.1378658453570765
1708441187.5946298,-1.81722092628479,-1.4163881999305268,-2.5900138060199183,5.763120281487264,1.0510950088500977,-3.138078037892477
1708441187.5966008,-1.8150471448898315,-1.416956217294075,-2.5904508272754114,5.761044847756185,1.0514061450958252,-3.138261143361227
1708441187.5986092,-1.8128459453582764,-1.417640284901001,-2.5909717718707483,5.7589725134666345,1.0516539812088013,-3.1384788195239466
1708441187.60063,-1.8106306791305542,-1.418282763367035,-2.5915022532092493,5.756799328118124,1.0518614053726196,-3.1386573950396937
1708441187.6025977,-1.8084160089492798,-1.4189817321351548,-2.5920193831073206,5.75465868690566,1.0520434379577637,-3.1388371626483362
1708441187.6046374,-1.806189775466919,-1.4195750069669266,-2.5924564043628138,5.752539503365316,1.0523289442062378,-3.139016930256979
1708441187.6065946,-1.8040618896484375,-1.4202635747245331,-2.5930374304400843,5.7504145977790735,1.0526117086410522,-3.1392086187945765
1708441187.6085975,-1.8018460273742676,-1.4209338438561936,-2.5935476461993616,5.748316633492269,1.0529078245162964,-3.139411751423971
1708441187.6106386,-1.7996834516525269,-1.421572597031929,-2.5940309206592005,5.746206033020773,1.053167700767517,-3.139550749455587
1708441187.612776,-1.7974817752838135,-1.422263817196228,-2.5945549646960657,5.74415014961318,1.0534725189208984,-3.1397555510150355
1708441187.6147614,-1.795241355895996,-1.422929973607399,-2.595025364552633,5.74203513839797,1.0537947416305542,-3.1399672667132776
1708441187.616719,-1.7930597066879272,-1.4235740912011643,-2.5955048243152063,5.7398953316505334,1.0540260076522827,-3.14010197321047
1708441187.618723,-1.7908101081848145,-1.4241746825030823,-2.5960214773761194,5.737798678665914,1.0542783737182617,-3.140298906956808
1708441187.6207023,-1.7885854244232178,-1.424858183865883,-2.596471134816305,5.735686170845785,1.0545457601547241,-3.140515152608053
1708441187.6227086,-1.7863916158676147,-1.4255777311376114,-2.5970116297351282,5.7335208533103845,1.0548028945922852,-3.1406455675708216
1708441187.624698,-1.7842389345169067,-1.4262447667172928,-2.5974658171283167,5.731489646225729,1.0550596714019775,-3.1408451239215296
1708441187.6266456,-1.7820868492126465,-1.4268590670875092,-2.597973410283224,5.7293786881263635,1.0553768873214722,-3.141041103993551
1708441187.6286414,-1.7798725366592407,-1.4275176686099549,-2.5984767119037073,5.727292406349935,1.0556116104125977,-3.1412370840655726
1708441187.6306117,-1.777706265449524,-1.4282007974437256,-2.598945919667379,5.725084173470297,1.0558264255523682,-3.14140493074526
1708441187.6328373,-1.7755506038665771,-1.4288437974504014,-2.5995035807238978,5.722910630493917,1.0560848712921143,-3.1416454950915735
1708441187.6346118,-1.7733430862426758,-1.4295440328172226,-2.5999372641192835,5.7208701250846765,1.056296706199646,-3.1418326536761683
1708441187.636608,-1.7711325883865356,-1.4301904153874894,-2.6005190054522913,5.718705642014303,1.0565460920333862,-3.141968075429098
1708441187.63867,-1.768976092338562,-1.4308700275472184,-2.601025168095724,5.7167184231574915,1.056807518005371,-3.1421194712268274
1708441187.6406353,-1.7667790651321411,-1.431511403327324,-2.6015244166003626,5.714588153153219,1.057030200958252,-3.142315689717428
1708441187.6426725,-1.7645620107650757,-1.4322062593749543,-2.601999107991354,5.71248089054183,1.057324767112732,-3.1424747149096888
1708441187.6446266,-1.7623741626739502,-1.4328247767737885,-2.602563206349508,5.710456836014547,1.0575274229049683,-3.142700258885519
1708441187.6466146,-1.760145664215088,-1.433533952837326,-2.6030142943011683,5.70823763588027,1.0577259063720703,-3.1429274717914026
1708441187.6486275,-1.7579693794250488,-1.4341259461692353,-2.6035175959216517,5.706165599613943,1.0579605102539062,-3.1430748144732874
1708441187.6506178,-1.755724549293518,-1.4348028016141434,-2.60399300256838,5.704148220806875,1.0582460165023804,-3.143242661152975
1708441187.6526988,-1.753570318222046,-1.4353878659060975,-2.60451585451235,5.701974677830496,1.0584367513656616,-3.14340049425234
1708441187.6546054,-1.7512937784194946,-1.4360712182572861,-2.6049984137164515,5.6999366758163355,1.058719277381897,-3.1436126867877405
1708441187.656612,-1.7491157054901123,-1.4367378813079377,-2.6055060068713587,5.697898316174307,1.0590201616287231,-3.143838707600729
1708441187.658607,-1.7469604015350342,-1.437389464383461,-2.606054131184713,5.695730972080984,1.0592440366744995,-3.1440098921405237
1708441187.6605933,-1.7447788715362549,-1.4379869562438508,-2.606528345738546,5.693609642773428,1.0594888925552368,-3.1442297140704554
1708441187.6626773,-1.7425315380096436,-1.4386223566583176,-2.6070736090289515,5.6915562627609155,1.0597127676010132,-3.144372526799337
1708441187.6646092,-1.7403522729873657,-1.439270244245865,-2.6075735727893274,5.68935792425231,1.0599231719970703,-3.144543711339132
1708441187.6666064,-1.738099217414856,-1.4399423164180298,-2.6080389658557337,5.68717651346282,1.0602463483810425,-3.1447561422931116
1708441187.6686172,-1.7359318733215332,-1.4405809205821534,-2.6085332075702112,5.6851528761680505,1.0604541301727295,-3.1449974218951624
1708441187.6706505,-1.733717441558838,-1.441264585857727,-2.6090856234179896,5.683064806252279,1.0607587099075317,-3.1451121012317103
1708441187.6726742,-1.7314956188201904,-1.4418704819730301,-2.609609905873434,5.6810011742408655,1.0609735250473022,-3.145291868840353
1708441187.674606,-1.7292786836624146,-1.4425471884063263,-2.6100268999682825,5.678881752281942,1.0612354278564453,-3.1454997698413294
1708441187.6778295,-1.7270580530166626,-1.4432317179492493,-2.6106086413012903,5.676735925465383,1.0614638328552246,-3.1456874052630823
1708441187.6785994,-1.7248454093933105,-1.4438419055989762,-2.61110765138735,5.674602854042806,1.0617417097091675,-3.1458666960345667
1708441187.6805904,-1.7226829528808594,-1.4444860529950638,-2.611637894307272,5.672523367195883,1.0620062351226807,-3.1460538546191614
1708441187.6826031,-1.7204813957214355,-1.4451197993806382,-2.612091843281881,5.670450496464529,1.062278389930725,-3.146221701298849
1708441187.6845841,-1.7183032035827637,-1.4457848978093644,-2.6126118342029017,5.66841750124053,1.062535047531128,-3.1464102903949183
1708441187.6867452,-1.7160876989364624,-1.446399138574936,-2.61305815378298,5.666266786843099,1.0627126693725586,-3.1465933958636683
1708441187.6886847,-1.7139122486114502,-1.4470539477518578,-2.6136072317706507,5.664135384350576,1.0629709959030151,-3.1468053499804896
1708441187.6906452,-1.7117400169372559,-1.4476719734123726,-2.614094320927755,5.662000524788656,1.0632282495498657,-3.146973196660177
1708441187.692628,-1.7094595432281494,-1.448406183426716,-2.614612881337301,5.659929084568777,1.0634881258010864,-3.147100035344259
1708441187.6946135,-1.707287311553955,-1.4490357723883172,-2.61520225206484,5.6578155038650415,1.0638138055801392,-3.1473284403430384
1708441187.696607,-1.7050806283950806,-1.4497486886433144,-2.615659538899557,5.655721652298727,1.0639914274215698,-3.1475370565997522
1708441187.6986437,-1.702933669090271,-1.4503872257522126,-2.616206947957174,5.653604733734884,1.0642443895339966,-3.147679154072897
1708441187.7006488,-1.7007205486297607,-1.4510130298188706,-2.616645399724142,5.651539015560903,1.0645219087600708,-3.1478965918170374
1708441187.7026324,-1.69850492477417,-1.4516346764615555,-2.6172221342669886,5.649451660900869,1.0647501945495605,-3.148092571889059
1708441187.704593,-1.6962847709655762,-1.4523037907532235,-2.6177101770984095,5.647406148701467,1.0650001764297485,-3.1482682863818567
1708441187.7066174,-1.6939973831176758,-1.452978478079178,-2.6181474367724817,5.645288455277242,1.0652297735214233,-3.148459498082296
1708441187.708609,-1.6918154954910278,-1.4536480170539399,-2.6186755339251917,5.643189596920767,1.0654749870300293,-3.148642603551046
1708441187.7106128,-1.689642071723938,-1.4543860268643876,-2.6191583315478724,5.64110820272521,1.0657695531845093,-3.1488269011126917
1708441187.712754,-1.687436580657959,-1.4550358963063736,-2.619692627583639,5.63900254943923,1.0659828186035156,-3.1490066687213343
1708441187.7147048,-1.6852452754974365,-1.4556742397001763,-2.6201961676227015,5.636881696968832,1.066298246383667,-3.149234120045797
1708441187.7166262,-1.6830284595489502,-1.4562799048474808,-2.620643440877096,5.634680080204763,1.066516637802124,-3.149369541798727
1708441187.718627,-1.6809558868408203,-1.4569401827505608,-2.6211703459369105,5.6325299618537805,1.0667855739593506,-3.149684015904562
1708441187.7205913,-1.6786772012710571,-1.4576439273408432,-2.6217027346240442,5.630439269333639,1.067004680633545,-3.1497812906848353
1708441187.7226286,-1.6765353679656982,-1.4582702082446595,-2.62218147913088,5.6281898496444605,1.0673224925994873,-3.149939839039938
1708441187.7246299,-1.6743502616882324,-1.4589758899858971,-2.622699801121847,5.626121032028951,1.0675371885299683,-3.1501529852496546
1708441187.72662,-1.6721470355987549,-1.4595988106778641,-2.6232157389270228,5.623995113163748,1.0678435564041138,-3.1503472963916224
1708441187.7286024,-1.6700084209442139,-1.46024243653331,-2.623672072087423,5.621938872128286,1.0680341720581055,-3.1505325476275843
1708441187.7306,-1.6678051948547363,-1.4609949377230187,-2.6242242495166224,5.619894134789266,1.0682579278945923,-3.1507285276996058
1708441187.7326105,-1.6655972003936768,-1.4615919229439278,-2.6247685591327112,5.617791104107656,1.0685762166976929,-3.150867287312643
1708441187.7346497,-1.6633819341659546,-1.4622511577657242,-2.625235621129171,5.615657555847921,1.0687909126281738,-3.1511033217059534
1708441187.736651,-1.6611788272857666,-1.4628517788699646,-2.6257506052600306,5.613507735520162,1.0690685510635376,-3.151254717503683
