Eg3-git/Classifiers/Data Collection/u7/u7xyz5_ur3e_joint_states.csv
time,elbow_joint,shoulder_lift_joint,shoulder_pan_joint,wrist_1_joint,wrist_2_joint,wrist_3_joint
1708442302.9334652,-2.142338514328003,-1.33380280554805,-2.527273480092184,6.112099754601278,1.0186437368392944,-3.0458770434008997
1708442302.935474,-2.142327070236206,-1.3337299984744568,-2.5272672812091272,6.112030851631918,1.018676519393921,-3.046148125325338
1708442302.937487,-2.142305612564087,-1.3337376427701493,-2.5272911230670374,6.112044322281637,1.0186314582824707,-3.046439234410421
1708442302.939471,-2.142301082611084,-1.3337505620769043,-2.5273118654834192,6.11204885223464,1.0186940431594849,-3.0467477480517786
1708442302.941481,-2.1422815322875977,-1.3337386560491105,-2.5273030439959925,6.112063634186544,1.0186690092086792,-3.047072950993673
1708442302.9434764,-2.1422860622406006,-1.3337505620769043,-2.5273030439959925,6.112020242005148,1.0186151266098022,-3.0473948160754603
1708442302.9454966,-2.1422975063323975,-1.3337548834136506,-2.5272911230670374,6.112050163536825,1.0186821222305298,-3.0477071444140833
1708442302.9474657,-2.1422905921936035,-1.333840788607933,-2.5272911230670374,6.112003910332479,1.018635869026184,-3.048027578984396
1708442302.9494727,-2.142207384109497,-1.3337917935899277,-2.527304474507467,6.111968147545614,1.0186480283737183,-3.0483177343951624
1708442302.9514868,-2.142265796661377,-1.3336986017278214,-2.5273073355304163,6.111926305084982,1.0186446905136108,-3.0486159960376185
1708442302.9534638,-2.1422135829925537,-1.3337591153434296,-2.5272823015796106,6.111948716431417,1.0186283588409424,-3.048887554799215
1708442302.9554634,-2.1422321796417236,-1.333714799290039,-2.5272703806506556,6.111944305687704,1.0186524391174316,-3.049198929463522
1708442302.957475,-2.142254590988159,-1.333760069017746,-2.5272672812091272,6.111924636154928,1.0186734199523926,-3.0495289007769983
1708442302.9594843,-2.1422836780548096,-1.3336823743632813,-2.5272584597217005,6.111917245178976,1.0186445713043213,-3.049814764653341
1708442302.9614873,-2.142184257507324,-1.3336661917022248,-2.527299944554464,6.111851680069723,1.018635869026184,-3.0500858465777796
1708442302.963493,-2.14220929145813,-1.333734319811203,-2.5273030439959925,6.111900555878439,1.0186445713043213,-3.050392214451925
1708442302.965496,-2.1422250270843506,-1.3336661917022248,-2.5272496382342737,6.111872660904684,1.0186283588409424,-3.0507410208331507
1708442302.9674957,-2.1421682834625244,-1.3337352734855195,-2.5272942225085657,6.111878621369161,1.0186121463775635,-3.0509985128985804
1708442302.969504,-2.142188787460327,-1.3336824041656037,-2.5272911230670374,6.1118740914161584,1.0186045169830322,-3.0512784163104456
1708442302.9714906,-2.142188787460327,-1.333726705317833,-2.5272746721850794,6.111857402115621,1.0185871124267578,-3.0515876452075403
1708442302.9734728,-2.142164945602417,-1.333690957432129,-2.5272746721850794,6.111817109375753,1.0186002254486084,-3.051866118107931
1708442302.975483,-2.142202377319336,-1.3337190759233017,-2.5272911230670374,6.111830699234762,1.0185638666152954,-3.0521214644061487
1708442302.977475,-2.1421570777893066,-1.3336986017278214,-2.5272911230670374,6.111840951233663,1.0186001062393188,-3.05239707628359
1708442302.9794824,-2.142213821411133,-1.3336704832366486,-2.527299944554464,6.111817109375753,1.0186002254486084,-3.0526846090899866
1708442302.9814644,-2.14220929145813,-1.3337472093156357,-2.5272672812091272,6.111781227379598,1.018592357635498,-3.052959982548849
1708442302.9834719,-2.1421773433685303,-1.3336619597724457,-2.5272792021380823,6.1117766974265955,1.018592357635498,-3.0532401243792933
1708442302.9854946,-2.142202138900757,-1.333726705317833,-2.527254883443014,6.111793029099264,1.018563985824585,-3.0535112063037317
1708442302.9874933,-2.142181873321533,-1.3337114316276093,-2.5272327105151575,6.111729013710775,1.0185682773590088,-3.0538037459002894
1708442302.9894807,-2.1421773433685303,-1.3336996001056214,-2.5272672812091272,6.111700284271993,1.0185517072677612,-3.054058615361349
1708442302.9914634,-2.1421616077423096,-1.3336985868266602,-2.527292553578512,6.111745345383444,1.018559455871582,-3.0543630758868616
1708442302.9934912,-2.1421570777893066,-1.333690957432129,-2.5272672812091272,6.111747014313497,1.0185682773590088,-3.0546305815326136
1708442302.9954886,-2.142164945602417,-1.333742917781212,-2.527229611073629,6.111742484360494,1.0185147523880005,-3.0549474398242396
1708442302.9974906,-2.1421782970428467,-1.3336866807988663,-2.5272629896747034,6.111739623337545,1.0185604095458984,-3.055189911519186
1708442302.999472,-2.142136812210083,-1.3337437671474,-2.5272133986102503,6.11158965805129,1.0185726881027222,-3.0554497877704065
1708442303.0014727,-2.14212965965271,-1.333690033560135,-2.527292553578512,6.1117228148277185,1.0185160636901855,-3.055729691182272
1708442303.0034885,-2.1421456336975098,-1.33369433999572,-2.527222220097677,6.111711013108053,1.0185484886169434,-3.055964533482687
1708442303.0054848,-2.1421172618865967,-1.3337514859488984,-2.527247492467062,6.111739504128256,1.0185528993606567,-3.0562430063830774
1708442303.0074885,-2.1420960426330566,-1.3337113720229645,-2.527259174977438,6.1116912243659876,1.0184828042984009,-3.0564845244037073
1708442303.0095108,-2.14213228225708,-1.3337081384709855,-2.527259413396017,6.111685502320089,1.0185484886169434,-3.056739155446188
1708442303.0115018,-2.14212965965271,-1.3336747747710724,-2.527250353490011,6.111649858742513,1.0184664726257324,-3.0570336023913782
1708442303.0134807,-2.1421661376953125,-1.333690957432129,-2.527242962514059,6.111633527069845,1.0185366868972778,-3.0572553316699427
1708442303.0154757,-2.1421525478363037,-1.3336824041656037,-2.527226511632101,6.111625659256735,1.0184468030929565,-3.05757719675173
1708442303.0174785,-2.1421525478363037,-1.3336952340653916,-2.527259413396017,6.111613857537069,1.018479824066162,-3.057758156453268
1708442303.0195131,-2.14212965965271,-1.3336539280465622,-2.5272727648364466,6.111642348557272,1.0185465812683105,-3.058047119771139
1708442303.0214887,-2.14212965965271,-1.3336582344821473,-2.527181927357809,6.111656892090597,1.0185047388076782,-3.0583153406726282
1708442303.023477,-2.1420958042144775,-1.3337395650199433,-2.527144257222311,6.111581074982443,1.018446922302246,-3.0585010687457483
1708442303.0255048,-2.1421263217926025,-1.3337071549943467,-2.5271576086627405,6.111633527069845,1.0184643268585205,-3.0587294737445276
1708442303.0274713,-2.14212965965271,-1.33366251111541,-2.5272071997271937,6.111588465958395,1.0184721946716309,-3.0589523951159876
1708442303.029501,-2.1421456336975098,-1.3337081682733078,-2.5271785894977015,6.111580955773153,1.018452525138855,-3.0591564814196985
1708442303.0314753,-2.142134189605713,-1.3336139929345627,-2.527191940938131,6.111621129303732,1.018485426902771,-3.0594428221331995
1708442303.0334852,-2.1420798301696777,-1.3336463582566758,-2.5271876494037073,6.111597406655111,1.0184438228607178,-3.0595746676074427
1708442303.0355067,-2.1421127319335938,-1.3336582493833085,-2.5271411577807825,6.111597406655111,1.0184153318405151,-3.0598154703723353
1708442303.0374906,-2.142138719558716,-1.3336301159909745,-2.527201000844137,6.1116018173988245,1.01845121383667,-3.060035530720846
1708442303.039475,-2.1420843601226807,-1.333690957432129,-2.5271998087512415,6.111634599953451,1.0184569358825684,-3.0602849165545862
1708442303.0414903,-2.1421003341674805,-1.3336225611022492,-2.527159039174215,6.111571895867147,1.0184643268585205,-3.060467545186178
1708442303.0434623,-2.1421172618865967,-1.3336301159909745,-2.52714711824526,6.111636388092794,1.0184271335601807,-3.06069261232485
1708442303.0455017,-2.1420843601226807,-1.333662526016571,-2.5271382967578333,6.1116559384162805,1.0184153318405151,-3.060878101979391
1708442303.0474775,-2.1421637535095215,-1.3336834025434037,-2.527191940938131,6.111598956375875,1.0184481143951416,-3.0610862413989466
1708442303.0494642,-2.1420888900756836,-1.3336790365031739,-2.527191940938131,6.111627208977499,1.018431544303894,-3.0613158384906214
1708442303.0515058,-2.1421263217926025,-1.3336344820312043,-2.5271664301501673,6.111573207169332,1.0184153318405151,-3.061535898839132
1708442303.053486,-2.1421048641204834,-1.3336507242969056,-2.527151409779684,6.111568677216329,1.0184153318405151,-3.061702076588766
1708442303.0555055,-2.1420888900756836,-1.333646373157837,-2.527118508015768,6.11156581619338,1.0184446573257446,-3.061918322240011
1708442303.0574996,-2.1420719623565674,-1.3336790365031739,-2.527142588292257,6.111577737122335,1.0184447765350342,-3.062108818684713
1708442303.0594933,-2.1420934200286865,-1.333690957432129,-2.527191940938131,6.11156593540267,1.0184240341186523,-3.062361542378561
1708442303.0615275,-2.1420843601226807,-1.333653987651207,-2.527142588292257,6.111570346146383,1.0184569358825684,-3.0625911394702356
1708442303.0634859,-2.1421093940734863,-1.3336539727500458,-2.527175251637594,6.111561286240377,1.0184359550476074,-3.0627194086657923
1708442303.0655017,-2.142118453979492,-1.333691955809929,-2.527142588292257,6.111598956375875,1.0184240341186523,-3.062910858784811
1708442303.06749,-2.14212965965271,-1.3336344820312043,-2.5271547476397913,6.111556875496664,1.0184074640274048,-3.0631242434131067
1708442303.0695083,-2.1421520709991455,-1.333646298652031,-2.5271382967578333,6.1116078970725916,1.0184074640274048,-3.063317600880758
1708442303.0715227,-2.1420674324035645,-1.333720014696457,-2.5271337668048304,6.111603486328878,1.0184359550476074,-3.0635083357440394
1708442303.0735161,-2.1420843601226807,-1.3336344969323655,-2.527179781590597,6.111570346146383,1.0184118747711182,-3.0637388865100306
1708442303.0755162,-2.1420888900756836,-1.333720089202263,-2.527179781590597,6.1115866778190515,1.0184074640274048,-3.0638840834247034
1708442303.0775087,-2.1421544551849365,-1.33366251111541,-2.527142588292257,6.111546742707052,1.0184074640274048,-3.064019028340475
1708442303.079495,-2.1421003341674805,-1.333711401825287,-2.527175251637594,6.11156593540267,1.0184731483459473,-3.064218346272604
1708442303.0815544,-2.1420979499816895,-1.333715797667839,-2.5271502176867884,6.111521231919088,1.0184402465820312,-3.0643771330462855
1708442303.0834894,-2.1420979499816895,-1.3336711537889023,-2.5271952787982386,6.111513602524557,1.0184481143951416,-3.064561192189352
1708442303.0855038,-2.142106771469116,-1.3336355102113266,-2.527159039174215,6.111586797028341,1.0184613466262817,-3.0647664705859583
1708442303.0874953,-2.1421093940734863,-1.3337157231620331,-2.52717096010317,6.111619818001547,1.0184438228607178,-3.064941708241598
1708442303.089484,-2.1420767307281494,-1.3336549562266846,-2.52717096010317,6.11151813247756,1.0184568166732788,-3.065089289342062
1708442303.0915058,-2.1420843601226807,-1.3336952340653916,-2.527142588292257,6.111645090370931,1.0183912515640259,-3.065310780202047
1708442303.093482,-2.1421217918395996,-1.3336549562266846,-2.5271173159228724,6.111544835358419,1.0184643268585205,-3.0654876867877405
1708442303.095516,-2.1420719623565674,-1.3337071549943467,-2.5271664301501673,6.1115912077720544,1.0183943510055542,-3.065580193196432
1708442303.0974987,-2.142118215560913,-1.3337071549943467,-2.5271664301501673,6.111553895264425,1.0184481143951416,-3.0657809416400355
1708442303.0994902,-2.1420934200286865,-1.3337243807366868,-2.5271664301501673,6.111556875496664,1.0184438228607178,-3.0659263769732874
1708442303.1014862,-2.1420767307281494,-1.3336747598699112,-2.52717096010317,6.111544954567709,1.018477439880371,-3.0661240259753626
1708442303.1035,-2.142134189605713,-1.3336995852044602,-2.5271831194507044,6.1116078970725916,1.018467903137207,-3.0663529078113
1708442303.1055505,-2.142073154449463,-1.3336420816234131,-2.527196470891134,6.111598956375875,1.0184810161590576,-3.0664642492877405
1708442303.1074882,-2.1420934200286865,-1.3336539280465622,-2.5272205511676233,6.111585485726156,1.01845121383667,-3.066598717366354
1708442303.109494,-2.1421139240264893,-1.3336704832366486,-2.5271998087512415,6.111553895264425,1.0184928178787231,-3.0667672793017786
1708442303.1115,-2.1421046257019043,-1.333691955809929,-2.5271664301501673,6.111570346146383,1.0184634923934937,-3.066944185887472
1708442303.1134915,-2.142106771469116,-1.333691955809929,-2.5271619001971644,6.111627208977499,1.0185455083847046,-3.067141834889547
1708442303.1155064,-2.142077684402466,-1.33366251111541,-2.5271785894977015,6.111634599953451,1.018532395362854,-3.067267719899313
1708442303.1174815,-2.1420888900756836,-1.3336668771556397,-2.5271785894977015,6.111540424614706,1.0185322761535645,-3.067411486302511
1708442303.119505,-2.1420979499816895,-1.333727554684021,-2.5271530787097376,6.111573207169332,1.0184742212295532,-3.067580763493673
1708442303.1214888,-2.1421093940734863,-1.3336668771556397,-2.527182165776388,6.111619818001547,1.0185770988464355,-3.0676613489734095
1708442303.123512,-2.1421070098876953,-1.3336866807988663,-2.5271831194507044,6.111622798233785,1.0185354948043823,-3.067824904118673
1708442303.1254942,-2.142118215560913,-1.3336463284543534,-2.5272160212146204,6.111577737122335,1.0185604095458984,-3.067956511174337
1708442303.1274748,-2.142106771469116,-1.3336995852044602,-2.5272517840014856,6.111610758095541,1.018613338470459,-3.0681377092944544
1708442303.1294754,-2.142115592956543,-1.3336876642755051,-2.5272117296801966,6.111619818001547,1.018592357635498,-3.068265501652853
1708442303.1314845,-2.142064332962036,-1.33366251111541,-2.5271998087512415,6.1116301892097376,1.0186489820480347,-3.0684590975390833
1708442303.1334958,-2.142085552215576,-1.3336876791766663,-2.5272398630725306,6.111651408463278,1.0186326503753662,-3.0685725847827356
1708442303.1354945,-2.1420888900756836,-1.333715782766678,-2.52718955675234,6.111639129906454,1.0186196565628052,-3.068650547658102
1708442303.1374726,-2.142073154449463,-1.3336258244565506,-2.527205769215719,6.111628997116842,1.0186645984649658,-3.068873707448141
1708442303.1394694,-2.1421024799346924,-1.3336539578488846,-2.5272517840014856,6.111672270088949,1.0186928510665894,-3.068960491810934
1708442303.1414828,-2.142057180404663,-1.3336952340653916,-2.52727181116213,6.111604678421774,1.0186840295791626,-3.0690718332873743
1708442303.1434805,-2.142059803009033,-1.333653987651207,-2.5273073355304163,6.111642348557272,1.0187082290649414,-3.0692368189441126
1708442303.1455503,-2.1420979499816895,-1.333690957432129,-2.527304474507467,6.11165868022994,1.0187125205993652,-3.0693755785571497
1708442303.14747,-2.142085552215576,-1.3337600392154236,-2.5272837320910853,6.11165879943923,1.0187695026397705,-3.0695043245898646
1708442303.149488,-2.1420483589172363,-1.3336539578488846,-2.5273314158069056,6.1116454479988,1.0187606811523438,-3.069648329411642
1708442303.1514802,-2.1420438289642334,-1.3336952042630692,-2.5273612181292933,6.111686694412985,1.0187934637069702,-3.069756333027975
1708442303.153482,-2.142073154449463,-1.3336463135531922,-2.5273223559008997,6.111665951996603,1.0187922716140747,-3.069933001195089
1708442303.1555026,-2.1420979499816895,-1.333658219580986,-2.527355496083395,6.111652362137594,1.018829584121704,-3.0700305143939417
1708442303.1574776,-2.142085552215576,-1.3337071549943467,-2.527339045201437,6.111636388092794,1.0188286304473877,-3.0702317396747034
1708442303.1594756,-2.142057180404663,-1.3336995255998154,-2.527334515248434,6.111677872925558,1.0188899040222168,-3.0702348391162317
1708442303.1615016,-2.142066240310669,-1.3336995554021378,-2.5273869673358362,6.111731874733724,1.0188523530960083,-3.070420567189352
1708442303.1634746,-2.142111301422119,-1.3336866807988663,-2.527395788823263,6.1117515442665,1.0189136266708374,-3.0704367796527308
1708442303.1655302,-2.142007350921631,-1.3336952191642304,-2.5273574034320276,6.1117515442665,1.0188798904418945,-3.070594374333517
1708442303.16748,-2.14206862449646,-1.3336781722358246,-2.5274153391467493,6.111713874131002,1.0189540386199951,-3.0706902186023157
1708442303.1694915,-2.1421315670013428,-1.3336668622544785,-2.5274198690997522,6.111718404084005,1.0189452171325684,-3.0708499590503138
1708442303.1715083,-2.142024517059326,-1.3337038618377228,-2.5273662249194544,6.1117215035255334,1.018957257270813,-3.070979420338766
1708442303.1734865,-2.1421070098876953,-1.3336867106011887,-2.5274365584002894,6.1117379544074915,1.018977165222168,-3.0710914770709437
1708442303.1755238,-2.142073154449463,-1.333633468752243,-2.5274439493762415,6.1117515442665,1.0190504789352417,-3.0712230841266077
1708442303.1774993,-2.1420819759368896,-1.3337275993875046,-2.5274232069598597,6.1117498753364465,1.0190372467041016,-3.0713463465320032
1708442303.1794856,-2.142054796218872,-1.3336834025434037,-2.5274351278888147,6.111773955612936,1.0191057920455933,-3.071474854146139
1708442303.1815012,-2.1420094966888428,-1.3336866658977051,-2.527463499699728,6.111770736962118,1.0190820693969727,-3.071595017110006
1708442303.1835299,-2.142033338546753,-1.3337233376554032,-2.5274797121631067,6.1117498753364465,1.019118309020996,-3.071632687245504
1708442303.1855032,-2.142075300216675,-1.3336377304843445,-2.527482811604635,6.111733543663778,1.019149899482727,-3.0717583338366907
1708442303.1874669,-2.1420164108276367,-1.3336985868266602,-2.527491633092062,6.111729013710775,1.0191007852554321,-3.0718331972705286
1708442303.18947,-2.142054796218872,-1.3336834025434037,-2.527478281651632,6.111773955612936,1.0191859006881714,-3.071970049534933
1708442303.191471,-2.1419928073883057,-1.3336747747710724,-2.52751595178713,6.111770736962118,1.0191649198532104,-3.072035853062765
1708442303.1934748,-2.1420469284057617,-1.333690957432129,-2.527478281651632,6.111736404686727,1.0192261934280396,-3.0721452871905726
1708442303.1954918,-2.142050266265869,-1.333702878361084,-2.5274983088122767,6.111790048867025,1.0192174911499023,-3.072249952946798
1708442303.1975033,-2.142054796218872,-1.3336866807988663,-2.5275724569903772,6.111769544869222,1.0192625522613525,-3.072325054799215
1708442303.1994922,-2.142068386077881,-1.3336824190667649,-2.5275309721576136,6.111769544869222,1.0192656517028809,-3.072411839162008
1708442303.2014956,-2.1419928073883057,-1.333683432345726,-2.52760893503298,6.111736404686727,1.0192612409591675,-3.072519604359762
1708442303.2034938,-2.1420185565948486,-1.3336866807988663,-2.5275593439685267,6.111765134125509,1.0192818641662598,-3.0726125876056116
1708442303.2055166,-2.1419804096221924,-1.333702878361084,-2.527587954198019,6.111773955612936,1.0193257331848145,-3.0726800600634974
1708442303.207489,-2.1419801712036133,-1.333702878361084,-2.52759558359255,6.111745464592733,1.019321322441101,-3.072784964238302
1708442303.2094853,-2.1420388221740723,-1.3336704683354874,-2.5276029745685022,6.111773955612936,1.0193660259246826,-3.0728581587420862
1708442303.2114894,-2.1419732570648193,-1.3336942952922364,-2.527579132710592,6.1117111323173425,1.0193901062011719,-3.0729673544513147
1708442303.213486,-2.1419880390167236,-1.3337438267520447,-2.5275822321521204,6.111790048867025,1.0194112062454224,-3.0730231443988245
1708442303.2154787,-2.141984701156616,-1.3337557178786774,-2.52759558359255,6.111811029701986,1.0194470882415771,-3.073185984288351
1708442303.2175083,-2.1419732570648193,-1.333747149710991,-2.5276358763324183,6.111785638123312,1.0194220542907715,-3.0731785933123987
1708442303.2194736,-2.1419572830200195,-1.3336249154857178,-2.5276852289782923,6.1117766974265955,1.0194545984268188,-3.0732839743243616
1708442303.2214708,-2.141989231109619,-1.3337148290923615,-2.5276270548449915,6.111813890724935,1.0194790363311768,-3.0733841101275843
1708442303.2234738,-2.142010450363159,-1.3337353032878418,-2.5276182333575647,6.111793029099264,1.019486427307129,-3.073430840169088
1708442303.2254653,-2.1419777870178223,-1.3337028634599228,-2.5276523272143763,6.111806380539694,1.0194897651672363,-3.0735355059253138
1708442303.2274659,-2.141928195953369,-1.3337190759233017,-2.5276225248919886,6.111756074219503,1.01953125,-3.0736003557788294
1708442303.2294707,-2.141937017440796,-1.33369433999572,-2.5276837984668177,6.1117766974265955,1.0195300579071045,-3.073634449635641
1708442303.2314851,-2.141975164413452,-1.3337428879788895,-2.5276389757739466,6.111813890724935,1.0195631980895996,-3.0737391153918665
1708442303.23349,-2.141921043395996,-1.3336704832366486,-2.5277121702777308,6.1117766974265955,1.0195589065551758,-3.073811117802755
1708442303.2355049,-2.141953945159912,-1.3337352585843583,-2.527658526097433,6.1117931483085535,1.019607663154602,-3.073843065892355
1708442303.237483,-2.14190411567688,-1.3337190610221406,-2.527666155491964,6.111783969193258,1.0195705890655518,-3.0739596525775355
1708442303.239469,-2.141930103302002,-1.3337275993875046,-2.527670685444967,6.111818420677938,1.0195988416671753,-3.0740118662463587
1708442303.2414777,-2.1419177055358887,-1.3336497259191056,-2.527703348790304,6.111797559052267,1.0195331573486328,-3.0740793387042444
1708442303.2434835,-2.141921043395996,-1.3336704832366486,-2.527748409901754,6.1117766974265955,1.019562005996704,-3.0741141478167933
1708442303.2454762,-2.141875743865967,-1.3336942952922364,-2.527769390736715,6.111769544869222,1.0195368528366089,-3.0741408506976526
1708442303.2474692,-2.1418962478637695,-1.333739535217621,-2.5277097860919397,6.111822831421652,1.0196396112442017,-3.074209992085592
1708442303.2495,-2.1418893337249756,-1.3337267202189942,-2.5277515093432825,6.11180208900527,1.0195695161819458,-3.0742650667773646
1708442303.251498,-2.1418848037719727,-1.3337275993875046,-2.5277262369738978,6.111748325615682,1.019590139389038,-3.0743849913226526
1708442303.2534769,-2.141918420791626,-1.333714799290039,-2.5277305285083216,6.1117766974265955,1.0195814371109009,-3.0743489901172083
1708442303.255501,-2.1419265270233154,-1.3337471795133133,-2.5277143160449427,6.111761796265402,1.0196022987365723,-3.0744016806231897
1708442303.257525,-2.1418938636779785,-1.3337505173734208,-2.527738157902853,6.1117989895637415,1.0195980072021484,-3.0744662920581263
1708442303.2594984,-2.1418585777282715,-1.3337071400931855,-2.5277767817126673,6.1117334244544885,1.0196067094802856,-3.0745227972613733
1708442303.2614985,-2.1418416500091553,-1.3337394905141373,-2.5277708212481897,6.1117663262184045,1.019630789756775,-3.07454497018923
1708442303.263479,-2.1419003009796143,-1.3337275993875046,-2.5277634302722376,6.1117498753364465,1.0196142196655273,-3.0745604673968714
1708442303.265491,-2.1418676376342773,-1.3336619895747681,-2.5277469793902796,6.111712682038107,1.0196142196655273,-3.0746334234820765
1708442303.2675142,-2.1418302059173584,-1.3336824190667649,-2.5277589003192347,6.1117215035255334,1.0196470022201538,-3.0746288935290735
1708442303.2694824,-2.141846179962158,-1.3337105375579377,-2.5278096834765833,6.111747014313497,1.019593596458435,-3.0747674147235315
1708442303.2714853,-2.1418302059173584,-1.3337309968522568,-2.5277424494372767,6.111709344177999,1.0196470022201538,-3.0747011343585413
1708442303.273481,-2.1417691707611084,-1.333702878361084,-2.5277143160449427,6.111697423249044,1.0196220874786377,-3.0747864882098597
1708442303.2754703,-2.141817808151245,-1.3337437969497223,-2.527754608784811,6.111718404084005,1.019630789756775,-3.074764076863424
1708442303.2774928,-2.141801118850708,-1.3337019991925736,-2.5277589003192347,6.111681091576376,1.019671082496643,-3.0747879187213343
1708442303.2794843,-2.1418402194976807,-1.3336411875537415,-2.5277231375323694,6.11165879943923,1.0196263790130615,-3.0748212973224085
1708442303.2814844,-2.141765832901001,-1.3336823743632813,-2.5277751127826136,6.111654269486227,1.0196425914764404,-3.0748570601092737
1708442303.2834818,-2.141777992248535,-1.3336900484612961,-2.5277589003192347,6.111654269486227,1.0196382999420166,-3.0748851935016077
1708442303.2854748,-2.1418073177337646,-1.3337190312198182,-2.5277424494372767,6.1116301892097376,1.0196055173873901,-3.074871842061178
1708442303.2874773,-2.1417489051818848,-1.3337591153434296,-2.5277469793902796,6.111585485726156,1.0196055173873901,-3.074838940297262
1708442303.289528,-2.1417534351348877,-1.3336866658977051,-2.5277918020831507,6.111571895867147,1.019663691520691,-3.074838940297262
1708442303.2915022,-2.1417746543884277,-1.3337190610221406,-2.5277589003192347,6.111585485726156,1.0196055173873901,-3.074843470250265
1708442303.2934794,-2.1417248249053955,-1.333714784388878,-2.5277469793902796,6.111556756287374,1.0195980072021484,-3.074843470250265
1708442303.295484,-2.1417622566223145,-1.3336866807988663,-2.5277634302722376,6.111533391266622,1.019593596458435,-3.074848000203268
1708442303.2975066,-2.1417338848114014,-1.3336900782636185,-2.5277424494372767,6.111555802613058,1.0196439027786255,-3.074871842061178
1708442303.299495,-2.1417462825775146,-1.333653987651207,-2.5277677218066614,6.111595618515768,1.0196009874343872,-3.074867312108175
1708442303.301482,-2.1417462825775146,-1.333726705317833,-2.5277918020831507,6.1115198014076135,1.019593596458435,-3.074880901967184
1708442303.3034706,-2.1417462825775146,-1.333727629189827,-2.5277305285083216,6.111495601921835,1.0196142196655273,-3.0748241583453577
1708442303.305483,-2.141735076904297,-1.3336986017278214,-2.5276928583728235,6.111465799599447,1.0195980072021484,-3.0748570601092737
1708442303.3074753,-2.141716957092285,-1.3337105524590989,-2.5277722517596644,6.1115198014076135,1.0196350812911987,-3.0747697989093226
1708442303.3095078,-2.141710042953491,-1.3336943548968812,-2.5277469793902796,6.111389386444845,1.0195980072021484,-3.0747879187213343
1708442303.3114815,-2.1417553424835205,-1.3337224882892151,-2.527781073247091,6.111393916397848,1.0195857286453247,-3.0747178236590784
1708442303.3134863,-2.141712188720703,-1.3336619597724457,-2.5277019182788294,6.111407506256857,1.0195980072021484,-3.074740235005514
1708442303.315485,-2.141686201095581,-1.3336867106011887,-2.5277097860919397,6.111347663193502,1.0196022987365723,-3.0746739546405237
1708442303.3174796,-2.141727924346924,-1.3337233376554032,-2.5277515093432825,6.111370074539938,1.0195813179016113,-3.074728314076559
1708442303.319502,-2.1417076587677,-1.3336858016303559,-2.5277305285083216,6.111290919571676,1.0196022987365723,-3.0746756235705774
1708442303.3214757,-2.141690731048584,-1.3336377304843445,-2.5277262369738978,6.111242997437277,1.019560694694519,-3.0746472517596644
1708442303.323506,-2.141686201095581,-1.3336909872344513,-2.5277424494372767,6.111200916558065,1.0196067094802856,-3.074549976979391
1708442303.3254962,-2.141666889190674,-1.3336496514132996,-2.5276811758624476,6.111169922142782,1.019566297531128,-3.0745514074908655
1708442303.3274844,-2.1416239738464355,-1.3336867106011887,-2.5277515093432825,6.111183512001791,1.0195705890655518,-3.074527088795797
1708442303.3294811,-2.1416831016540527,-1.333702878361084,-2.5277231375323694,6.111135232239523,1.0195138454437256,-3.07457405725588
1708442303.3314831,-2.1416873931884766,-1.333755762582161,-2.527731959019796,6.111077415734091,1.0195300579071045,-3.0745256582843226
1708442303.3334844,-2.1416783332824707,-1.333714799290039,-2.5277603308307093,6.11109088638381,1.0194809436798096,-3.0744555632220667
1708442303.335503,-2.1416306495666504,-1.3336866807988663,-2.5276973883258265,6.111059295922079,1.019498348236084,-3.074440304433004
1708442303.3374794,-2.1416544914245605,-1.3337071400931855,-2.5277231375323694,6.111060845642843,1.0194734334945679,-3.0743911902057093
1708442303.3394864,-2.1416215896606445,-1.3336866957000275,-2.5276945273028772,6.110994922905721,1.0194615125656128,-3.0743382612811487
1708442303.3415,-2.1416261196136475,-1.333702878361084,-2.5276899973498743,6.110998141556539,1.0194369554519653,-3.0742953459369105
1708442303.343482,-2.1416397094726562,-1.3337514412454148,-2.52771503130068,6.110951769142904,1.0194339752197266,-3.074275795613424
1708442303.3454654,-2.141585350036621,-1.333720014696457,-2.5277276674853724,6.110953080445089,1.0194177627563477,-3.0742440859424036
1708442303.3474748,-2.1415979862213135,-1.3336662364057084,-2.527666155491964,6.110877978592672,1.0194010734558105,-3.0742037932025355
1708442303.349468,-2.1416146755218506,-1.333707110290863,-2.5277283827411097,6.110851394921102,1.0193979740142822,-3.074167553578512
1708442303.3514862,-2.1416068077087402,-1.33369433999572,-2.52761680284609,6.110839593201437,1.0193650722503662,-3.0741334597217005
1708442303.353484,-2.141611337661743,-1.3337071400931855,-2.527666155491964,6.1108590243156335,1.0193367004394531,-3.074085299168722
1708442303.3555048,-2.1416068077087402,-1.3336790365031739,-2.527691427861349,6.110786902695455,1.019321322441101,-3.0739339033709925
1708442303.3574903,-2.1416282653808594,-1.3337482076934357,-2.527658526097433,6.110838162689962,1.0193047523498535,-3.073904339467184
1708442303.359472,-2.141615629196167,-1.333711416726448,-2.527613703404562,6.110790121346273,1.0193222761154175,-3.0738263765918177
1708442303.3614907,-2.141632556915283,-1.3337071698955079,-2.5276389757739466,6.110724198609152,1.0192230939865112,-3.0737858454333704
1708442303.363485,-2.141592025756836,-1.3337352734855195,-2.5275896231280726,6.1107122776801965,1.0192862749099731,-3.073754612599508
1708442303.3654912,-2.1415536403656006,-1.3336952191642304,-2.5275777021991175,6.110718476563253,1.019249439239502,-3.0735939184771937
1708442303.3674986,-2.14159893989563,-1.3336952489665528,-2.5276194254504603,6.110652553826132,1.0192087888717651,-3.0735369364367884
1708442303.3694863,-2.1415672302246094,-1.3337157380631943,-2.527545992528097,6.110616671829977,1.0192217826843262,-3.073397699986593
1708442303.371489,-2.141566038131714,-1.3337276887944718,-2.527562443410055,6.110609280854025,1.0192055702209473,-3.0734053293811243
1708442303.3735118,-2.1415421962738037,-1.333690957432129,-2.5275748411761683,6.1105627892311,1.0191683769226074,-3.0732887426959437
1708442303.3755033,-2.141526222229004,-1.3337038469365616,-2.5275548140155237,6.110549199372091,1.019181489944458,-3.0731213728534144
1708442303.3774915,-2.1415467262268066,-1.3336463284543534,-2.5275681654559534,6.110570418625631,1.0191411972045898,-3.073092047368185
1708442303.3794932,-2.1415884494781494,-1.3336496663144608,-2.527522150670187,6.110544669419088,1.0191214084625244,-3.073016945515768
1708442303.381479,-2.141533136367798,-1.3337071549943467,-2.527505699788229,6.110516655236044,1.019055724143982,-3.0728758017169397
1708442303.3834743,-2.141526460647583,-1.3336952340653916,-2.5275636355029505,6.110506045609274,1.0190526247024536,-3.072759215031759
1708442303.3855112,-2.1415646076202393,-1.3336582046798249,-2.527538601552145,6.110489594727316,1.0191113948822021,-3.072684113179342
1708442303.3874907,-2.1415627002716064,-1.3336506497910996,-2.5275278727160853,6.110437142639913,1.018987774848938,-3.0725792090045374
1708442303.3894868,-2.1415443420410156,-1.3336754006198426,-2.5274651686297815,6.110455024033346,1.0190088748931885,-3.0724836031543177
1708442303.3914862,-2.1415646076202393,-1.3336344969323655,-2.527475420628683,6.110389458924093,1.0190010070800781,-3.0723729769336146
1708442303.3935015,-2.1415441036224365,-1.3336747896722336,-2.5274997393237513,6.110364067345419,1.0189814567565918,-3.072272602711813
1708442303.3955293,-2.1415228843688965,-1.333638758664467,-2.527445618306295,6.110379206925192,1.0189203023910522,-3.0721777121173304
1708442303.3975108,-2.1415059566497803,-1.3337200295976182,-2.527445618306295,6.110329735070028,1.0188755989074707,-3.0720117727862757
1708442303.3995118,-2.1414856910705566,-1.3336430352977295,-2.5274558703051966,6.1103083966071985,1.0188723802566528,-3.0718703905688685
1708442303.401544,-2.1415398120880127,-1.333692045216896,-2.527458969746725,6.110312926560201,1.0188274383544922,-3.0717554728137415
1708442303.4034824,-2.141469717025757,-1.333646298652031,-2.5274439493762415,6.110234129219808,1.0188405513763428,-3.0717104117022913
1708442303.405522,-2.141523838043213,-1.3336060655168076,-2.52736479440798,6.1102415201957605,1.0187629461288452,-3.0715184847461146
1708442303.4074788,-2.1414875984191895,-1.3336840134910126,-2.5274022261248987,6.110247599869528,1.0187804698944092,-3.071401659642355
1708442303.4094937,-2.1414663791656494,-1.3336711388877411,-2.5273662249194544,6.110253321915426,1.018784761428833,-3.071280304585592
1708442303.4114847,-2.1414875984191895,-1.3336473119309922,-2.527391497288839,6.110264050751486,1.0187112092971802,-3.071181599293844
1708442303.4134734,-2.1414663791656494,-1.3336919260076066,-2.5273707548724573,6.110223281174459,1.018691897392273,-3.0710657278644007
1708442303.4154925,-2.1414875984191895,-1.3336139035275956,-2.5273330847369593,6.110178696900167,1.0187156200408936,-3.0709388891803187
1708442303.4174783,-2.141475200653076,-1.3336430352977295,-2.527367655430929,6.110112654953756,1.0187212228775024,-3.0707901159869593
1708442303.4194784,-2.141479730606079,-1.3335663092187424,-2.5273435751544397,6.110166775971212,1.0186808109283447,-3.0706988016711634
1708442303.4214742,-2.1415035724639893,-1.3335739535144349,-2.527346436177389,6.110147225647726,1.0186645984649658,-3.070526425038473
1708442303.4235163,-2.141451358795166,-1.3336060655168076,-2.527355496083395,6.110095011978903,1.018579363822937,-3.070423428212301
1708442303.4254932,-2.1414716243743896,-1.3336030852845688,-2.5272942225085657,6.110069739609518,1.0186164379119873,-3.0702508131610315
1708442303.42748,-2.141488552093506,-1.3335974526456376,-2.527301613484518,6.11008762100295,1.0186207294464111,-3.0701149145709437
1708442303.4295154,-2.141427516937256,-1.3336396676352997,-2.5273268858539026,6.110045897751608,1.0185682773590088,-3.0699825922595423
1708442303.4314928,-2.14139461517334,-1.3336354953101655,-2.527339045201437,6.109997856407919,1.0185517072677612,-3.0697932879077356
1708442303.4334967,-2.1414151191711426,-1.3336678457311173,-2.5273104349719446,6.110032307892599,1.0185528993606567,-3.0695927778827112
1708442303.4354937,-2.14139461517334,-1.3336558800986786,-2.527306143437521,6.109921681671896,1.0185322761535645,-3.0694895426379603
1708442303.4374905,-2.1413347721099854,-1.3336231124452134,-2.527299944554464,6.109942543297567,1.0185455083847046,-3.0692933241473597
1708442303.4394765,-2.1413629055023193,-1.3336189699224015,-2.5273030439959925,6.109964954644003,1.0184885263442993,-3.06917912164797
1708442303.4414704,-2.141371965408325,-1.3336030852845688,-2.5273268858539026,6.109887230187216,1.0184513330459595,-3.069007460271017
1708442303.4434764,-2.1413514614105225,-1.3336145889810105,-2.5272672812091272,6.109920012741842,1.0184272527694702,-3.0688708464251917
1708442303.4454777,-2.141265392303467,-1.3336072725108643,-2.5273073355304163,6.109867799073019,1.0184153318405151,-3.068702999745504
1708442303.4474928,-2.141258716583252,-1.3336354506066819,-2.527320925389425,6.1098153469856165,1.0184481143951416,-3.068554941807882
1708442303.44948,-2.1413333415985107,-1.3336558055928727,-2.5273030439959925,6.109800565033712,1.0184402465820312,-3.0683959166156214
1708442303.451501,-2.1412508487701416,-1.3336472672275086,-2.5272868315326136,6.109866487770834,1.0184118747711182,-3.0682230631457728
1708442303.4534862,-2.1412270069122314,-1.3336482656053086,-2.5272792021380823,6.109752881317892,1.018452525138855,-3.0680342356311243
1708442303.455493,-2.1411712169647217,-1.3336030852845688,-2.5273118654834192,6.109736192017355,1.018432855606079,-3.0678473154651087
1708442303.4574776,-2.1411802768707275,-1.3335944724133988,-2.5272868315326136,6.1096792099769495,1.0184086561203003,-3.0677033106433313
1708442303.4594727,-2.141113519668579,-1.3336072725108643,-2.5272629896747034,6.109714019089498,1.0184118747711182,-3.0675445238696497
1708442303.461504,-2.141111135482788,-1.3336225312999268,-2.527320686970846,6.10967646816329,1.0183805227279663,-3.067327324544088
1708442303.4634783,-2.1410579681396484,-1.3336635690978547,-2.527229611073629,6.109613883286276,1.0184086561203003,-3.067261282597677
1708442303.4654791,-2.1410679817199707,-1.3336635094932099,-2.527259174977438,6.1095971939857385,1.0183639526367188,-3.0670188109027308
1708442303.467482,-2.14103627204895,-1.3336834174445649,-2.5272777716266077,6.109573352127828,1.018404245376587,-3.066871945058004
1708442303.4694822,-2.1409354209899902,-1.3336354357055207,-2.5272956530200403,6.109516846924581,1.018371820449829,-3.066654984151022
1708442303.471496,-2.140906810760498,-1.3336225760034104,-2.5272911230670374,6.109517919808187,1.0183509588241577,-3.0665655771838587
1708442303.4734845,-2.1409451961517334,-1.3336711388877411,-2.5272911230670374,6.109403240471639,1.0183923244476318,-3.0664029757129114
1708442303.4755123,-2.1408772468566895,-1.3336473119309922,-2.527316395436422,6.109330999642172,1.0183342695236206,-3.0662017504321497
1708442303.4775114,-2.1407980918884277,-1.333650679593422,-2.5273030439959925,6.109337198525228,1.0183508396148682,-3.06602651277651
1708442303.4794784,-2.1407675743103027,-1.333643065100052,-2.5273402372943323,6.109292495041647,1.0183517932891846,-3.0658167044269007
1708442303.4815264,-2.1407434940338135,-1.3336877089789887,-2.5272956530200403,6.109298455506124,1.0184011459350586,-3.065662447606222
1708442303.4834664,-2.140672445297241,-1.3337039661458512,-2.5273194948779505,6.109193670540609,1.0184204578399658,-3.0654872099505823
1708442303.4854922,-2.1406006813049316,-1.3337233823588868,-2.5273478666888636,6.109199631005087,1.018399953842163,-3.065277401600973
1708442303.4874763,-2.140547275543213,-1.333747313623764,-2.527318064366476,6.109057891159811,1.0184284448623657,-3.0651429335223597
1708442303.4894762,-2.1405131816864014,-1.3336738359979172,-2.5273764769183558,6.108990180283346,1.0183911323547363,-3.0649126211749476
1708442303.491492,-2.140441656112671,-1.333718166952469,-2.527371946965353,6.10888563373641,1.0184403657913208,-3.0647500197040003
1708442303.4934664,-2.14034104347229,-1.3337918382934113,-2.527391497288839,6.10892008522109,1.0184197425842285,-3.0646122137652796
1708442303.4954689,-2.140305757522583,-1.3337907952121277,-2.5273781458484095,6.108808028488912,1.0184284448623657,-3.064395014439718
1708442303.4974828,-2.140195846557617,-1.3337865781835099,-2.5273991266833704,6.108692991524496,1.0184766054153442,-3.0641866366015833
1708442303.4995236,-2.1400907039642334,-1.333810643558838,-2.5274232069598597,6.108646499901571,1.018479824066162,-3.064060990010397
1708442303.501515,-2.140068769454956,-1.3338950884393235,-2.527458969746725,6.108522403031149,1.0185322761535645,-3.063803021107809
1708442303.5035193,-2.139915704727173,-1.333869294529297,-2.527504030858175,6.10841320732192,1.0185236930847168,-3.0636680761920374
1708442303.5054803,-2.139840841293335,-1.3339191985181351,-2.5275562445269983,6.108266818314352,1.018630862236023,-3.063496176396505
1708442303.5074801,-2.139754295349121,-1.3339744967273255,-2.5275309721576136,6.108173715859213,1.0185967683792114,-3.063279692326681
1708442303.5094872,-2.1395933628082275,-1.3340642762235184,-2.527566973363058,6.108075368195333,1.0186370611190796,-3.0630715529071253
1708442303.5114777,-2.13950514793396,-1.3340147745660325,-2.527616326008932,6.10796474197463,1.018595814704895,-3.062920157109396
1708442303.5134838,-2.1394152641296387,-1.3339856576970597,-2.527661148701803,6.107819902687826,1.018635869026184,-3.0627358595477503
1708442303.5154793,-2.1392862796783447,-1.3340818297914048,-2.5276764074908655,6.10772584655837,1.01870596408844,-3.0625441710101526
1708442303.5174882,-2.139146566390991,-1.3340983253768464,-2.527642313634054,6.107594120293417,1.0187662839889526,-3.062357012425558
1708442303.51951,-2.138975143432617,-1.3340813231519242,-2.527698818837301,6.107382046967306,1.018781304359436,-3.062186066304342
1708442303.5214942,-2.138789415359497,-1.334186316733696,-2.5277276674853724,6.10716329792098,1.018846035003662,-3.0620227495776575
1708442303.5234954,-2.138622760772705,-1.3341607612422486,-2.527832333241598,6.107009875565328,1.0188729763031006,-3.061791006718771
1708442303.5254939,-2.1384387016296387,-1.3342256856015702,-2.5278473536120813,6.106797444611349,1.0189508199691772,-3.061577383671896
1708442303.5275233,-2.138296127319336,-1.3342606139234086,-2.527870241795675,6.106614935189047,1.019005298614502,-3.0614176432238978
1708442303.529479,-2.1381280422210693,-1.3342886728099366,-2.5279510656939905,6.106468546181478,1.0190534591674805,-3.061242167149679
1708442303.531496,-2.1379082202911377,-1.3343042445233841,-2.5280242601977747,6.106263506203451,1.0190894603729248,-3.0610669294940394
1708442303.5335166,-2.137709379196167,-1.3343892854503174,-2.5280752817737024,6.106060492783346,1.0191574096679688,-3.0609126726733606
1708442303.5354822,-2.137481689453125,-1.3344322007945557,-2.528160635625021,6.105861532479086,1.0192174911499023,-3.0607102552997034
1708442303.537498,-2.1372342109680176,-1.334537149672844,-2.5282161871539515,6.1055911658103845,1.0193301439285278,-3.0605066458331507
1708442303.5395026,-2.1369495391845703,-1.3345808398774643,-2.528304640446798,6.105293619423666,1.0194308757781982,-3.0603025595294397
1708442303.541518,-2.1366989612579346,-1.3345791858485718,-2.528421703969137,6.105002391129293,1.0195636749267578,-3.060139242802755
1708442303.5435011,-2.1364476680755615,-1.3346970838359375,-2.528447214757101,6.10471652725295,1.0196481943130493,-3.059976879750387
1708442303.545477,-2.136155128479004,-1.3347523373416443,-2.5285688082324427,6.104468452721395,1.019768476486206,-3.0597718397723597
1708442303.5475023,-2.1359310150146484,-1.3348077100566407,-2.5286689440356653,6.104181277542867,1.019848108291626,-3.059584442769186
1708442303.5494835,-2.135592460632324,-1.3348763448050995,-2.5287814776050013,6.1038691876228235,1.0200144052505493,-3.059359852467672
1708442303.5514894,-2.1352789402008057,-1.3349036139300843,-2.5288472811328333,6.1035969136054895,1.0201377868652344,-3.059204165135519
1708442303.5534945,-2.1349682807922363,-1.3349464696696778,-2.52898079553713,6.103220450669088,1.0202044248580933,-3.059028927479879
1708442303.5555012,-2.134553909301758,-1.3350701493075867,-2.529072109852926,6.102833258896627,1.0204111337661743,-3.0588327089892786
1708442303.55748,-2.134214162826538,-1.3351749938777466,-2.5291834513293665,6.102469670563497,1.020546555519104,-3.058645550404684
1708442303.559477,-2.133901596069336,-1.3351974946311493,-2.5293408075915735,6.102103459625997,1.0206209421157837,-3.058448616658346
1708442303.5614798,-2.1335244178771973,-1.3352939945510407,-2.5294485727893274,6.101671325951376,1.0208308696746826,-3.0582929293261927
1708442303.5634742,-2.1331589221954346,-1.335349516277649,-2.52959114709963,6.101297962456503,1.0209838151931763,-3.0581474939929407
1708442303.5654962,-2.1327550411224365,-1.3354689639857789,-2.52972919145693,6.100849377899923,1.0211358070373535,-3.0579541365252894
1708442303.5674896,-2.1323421001434326,-1.3355851930430909,-2.5298927466021937,6.1004605171974084,1.021242618560791,-3.057793919240133
1708442303.5694737,-2.131904363632202,-1.3356728714755555,-2.5300291220294397,6.0999806998069666,1.0214736461639404,-3.0576022307025355
1708442303.5715196,-2.1315758228302,-1.3357483309558411,-2.5301433245288294,6.099526273995199,1.021641731262207,-3.0574961344348353
1708442303.5734904,-2.1311240196228027,-1.3358839315227051,-2.5303171316729944,6.099119770317831,1.021834135055542,-3.057248894368307
1708442303.5754857,-2.1306962966918945,-1.3359475445798417,-2.5304442087756556,6.0986366150672815,1.0219786167144775,-3.057103459035055
1708442303.5774846,-2.1302504539489746,-1.336088166838028,-2.5306244532214563,6.098146903305807,1.022179126739502,-3.056934181843893
1708442303.5794835,-2.1297667026519775,-1.3362034124187012,-2.530759636555807,6.097587573319235,1.0223501920700073,-3.0567999521838587
1708442303.5815158,-2.129263401031494,-1.3362941306880494,-2.5309601465808313,6.097077476769247,1.0225094556808472,-3.0565786997424524
1708442303.5834818,-2.128772497177124,-1.3364296418479462,-2.5311206022845667,6.096523034363546,1.0227066278457642,-3.056403462086813
1708442303.5854738,-2.1282565593719482,-1.3365896505168458,-2.531315628682272,6.096025454788961,1.022915244102478,-3.0563345591174524
1708442303.5874693,-2.127786159515381,-1.3366811138442536,-2.531472984944479,6.095474231034078,1.023099660873413,-3.0561023394214075
1708442303.5894773,-2.127296209335327,-1.336797074680664,-2.5317142645465296,6.094875919609823,1.023313283920288,-3.055929962788717
1708442303.591498,-2.1267333030700684,-1.3369492155364533,-2.5318616072284144,6.094255316048422,1.023488163948059,-3.0558374563800257
1708442303.5934744,-2.1261258125305176,-1.3370244067958375,-2.532053534184591,6.093649971276083,1.0237666368484497,-3.0556560198413294
1708442303.5954738,-2.125572443008423,-1.337244601254799,-2.532278124486105,6.0929908631141565,1.0239828824996948,-3.055488173161642
1708442303.5975468,-2.1249892711639404,-1.337298647766449,-2.53243595758547,6.092327344208517,1.024222493171692,-3.0553739706622522
1708442303.599507,-2.124344825744629,-1.3374701899341126,-2.532684628163473,6.091622578888693,1.0244554281234741,-3.0552378336535853
1708442303.601502,-2.1237599849700928,-1.337614284162857,-2.5329187552081507,6.090968119889059,1.0247328281402588,-3.0550323168383997
1708442303.6034732,-2.1230998039245605,-1.337745727305748,-2.5330970923053187,6.090306269913473,1.0249360799789429,-3.054924551640646
1708442303.605479,-2.122457265853882,-1.3379336458495636,-2.533328358327047,6.089596140175619,1.025152564048767,-3.0547805468188685
1708442303.60748,-2.1218113899230957,-1.3380858314088364,-2.5335617701159876,6.088848817139425,1.0253926515579224,-3.054629151021139
1708442303.6094656,-2.121082305908203,-1.338257761006691,-2.5337985197650355,6.088047253876486,1.0256705284118652,-3.0545392672168177
1708442303.6114833,-2.120342254638672,-1.3384248924306412,-2.5340057055102747,6.087266194611349,1.0259186029434204,-3.05440336862673
1708442303.613482,-2.1196506023406982,-1.3385315847447892,-2.534278456364767,6.086356031685629,1.0261996984481812,-3.0542710463153284
1708442303.6154912,-2.118870496749878,-1.3387357902577897,-2.534518305455343,6.08557282665328,1.0264719724655151,-3.0541186968432825
1708442303.6175156,-2.1181530952453613,-1.3388987493566056,-2.5348153750049036,6.084704625397482,1.0267484188079834,-3.0540149847613733
1708442303.6194882,-2.117387056350708,-1.3390824508718033,-2.535041634236471,6.083819019585409,1.0270291566848755,-3.0538340250598353
1708442303.6214895,-2.1165807247161865,-1.3392140728286286,-2.5352774302112024,6.0829589245613,1.0273056030273438,-3.053722922001974
1708442303.6234927,-2.1158573627471924,-1.3393814277699967,-2.5355172793017786,6.082090842514791,1.0275496244430542,-3.053626839314596
1708442303.6255176,-2.1149425506591797,-1.339606524710991,-2.53577691713442,6.0811089155967615,1.0278464555740356,-3.0535159746753138
1708442303.6274905,-2.114130735397339,-1.3397193414023896,-2.5360334555255335,6.0801124451454065,1.0281352996826172,-3.0533836523639124
1708442303.6294878,-2.1132709980010986,-1.3399587285569687,-2.5363178888904017,6.079129445343771,1.0284929275512695,-3.0532386938678187
1708442303.631503,-2.112372636795044,-1.3401023310473938,-2.5365849176989954,6.0781476376350305,1.0287638902664185,-3.0531681219684046
1708442303.6334932,-2.1115026473999023,-1.3403426122716446,-2.5368695894824427,6.07718442657546,1.029083251953125,-3.0530648867236536
1708442303.635482,-2.1105809211730957,-1.3405045133880158,-2.537177387868063,6.076179730683126,1.0294089317321777,-3.053001944218771
1708442303.6374993,-2.1095967292785645,-1.340695635681488,-2.53742486635317,6.075088965683737,1.0297867059707642,-3.05288535753359
1708442303.6394968,-2.108699083328247,-1.340977431540825,-2.537745539342062,6.074170458107748,1.0300981998443604,-3.0527804533587855
1708442303.6414776,-2.1077375411987305,-1.3411435943892975,-2.5380499998675745,6.0729607222373865,1.03041410446167,-3.0526891390429896
1708442303.6434991,-2.1067724227905273,-1.3414065849832078,-2.5382960478412073,6.071827161103048,1.0307798385620117,-3.0525859037982386
1708442303.6454947,-2.1057615280151367,-1.3416337978890915,-2.538649861012594,6.070644128113546,1.0311040878295898,-3.0524399916278284
1708442303.6474848,-2.1047608852386475,-1.3418903362802048,-2.538945023213522,6.069467294007101,1.0314691066741943,-3.052384678517477
1708442303.6495109,-2.103722095489502,-1.3421448928168793,-2.5392912069903772,6.068333613663473,1.0318100452423096,-3.0523296038257044
1708442303.651503,-2.102696657180786,-1.34231552601371,-2.5395777861224573,6.067026364594259,1.0321879386901855,-3.0521674791919153
1708442303.6534972,-2.1016292572021484,-1.3426037293723603,-2.5399301687823694,6.065891372948446,1.0325192213058472,-3.0521209875689905
1708442303.655497,-2.1005687713623047,-1.3428412836841126,-2.5402091185199183,6.064688908844747,1.032880425453186,-3.052058521901266
1708442303.6574824,-2.0994863510131836,-1.3430566799691697,-2.5405612627612513,6.0635098097618005,1.0332657098770142,-3.0519610087024134
1708442303.6594775,-2.098416805267334,-1.343319983487465,-2.540840450917379,6.062294113426962,1.0336511135101318,-3.051878277455465
1708442303.661497,-2.097299337387085,-1.343582959180214,-2.5412092844592493,6.0609731552894495,1.034010648727417,-3.0518508593188685
1708442303.6634946,-2.0961408615112305,-1.3439047199538727,-2.5415495077716272,6.0596808073814294,1.034379243850708,-3.0517430941211146
1708442303.665806,-2.0949602127075195,-1.344121129517891,-2.5418484846698206,6.058308470040121,1.0348056554794312,-3.05160099664797
1708442303.667493,-2.0937552452087402,-1.3443677139333268,-2.542257610951559,6.056930887490072,1.0351978540420532,-3.051582638417379
1708442303.6694882,-2.092556953430176,-1.3446393472007294,-2.542596403752462,6.055582392006674,1.0355901718139648,-3.0514941851245325
1708442303.6715415,-2.0913584232330322,-1.3449026507190247,-2.5429816881762903,6.054134595185079,1.0360032320022583,-3.0514183680163782
1708442303.6734924,-2.0901596546173096,-1.3451775473407288,-2.5432968775378626,6.052686798363485,1.0363880395889282,-3.0513463656054896
1708442303.6756887,-2.088928461074829,-1.3454165917686005,-2.543673340474264,6.051282870560446,1.036793828010559,-3.051307026539938
1708442303.6775,-2.08762264251709,-1.345691279774048,-2.544042174016134,6.0497768996055505,1.0371818542480469,-3.0512266794787806
1708442303.6794808,-2.0863499641418457,-1.345980168586113,-2.5444005171405237,6.048230635910787,1.0375916957855225,-3.0511918703662317
1708442303.6814992,-2.0850718021392822,-1.3462619942477723,-2.5447800795184534,6.046756374626913,1.038048505783081,-3.0511472860919397
1708442303.683489,-2.0837371349334717,-1.3465362948230286,-2.5451608339892786,6.04517542102889,1.0384893417358398,-3.051042381917135
1708442303.6855004,-2.0824246406555176,-1.3468804520419617,-2.545577589665548,6.0436792252357385,1.0389301776885986,-3.05106765428652
1708442303.68749,-2.0810656547546387,-1.3471232068589707,-2.545973602925436,6.042036878853597,1.0393548011779785,-3.0509868303882044
1708442303.6894875,-2.0796687602996826,-1.3473897141269227,-2.5462992827044886,6.040481912880697,1.0397711992263794,-3.0509310404406946
1708442303.6914883,-2.0783536434173584,-1.3477341842702408,-2.546725098286764,6.038868653565206,1.0401220321655273,-3.0509281794177454
1708442303.693489,-2.0769572257995605,-1.347955883746483,-2.5471459070788782,6.0372609970863245,1.0405844449996948,-3.050896946583883
1708442303.6954908,-2.0756144523620605,-1.3482387226871033,-2.547582213078634,6.035764086037435,1.0410144329071045,-3.050898615513937
1708442303.697528,-2.0742173194885254,-1.3485376995852967,-2.5479453245746058,6.0341542837913416,1.0414186716079712,-3.0508413950549524
1708442303.699513,-2.0728306770324707,-1.3488951188376923,-2.548290793095724,6.032555568009176,1.0418757200241089,-3.050760332738058
1708442303.7014961,-2.071349620819092,-1.3491354149631043,-2.5487986246692103,6.030975091248312,1.0423212051391602,-3.0507290999041956
1708442303.7035165,-2.069929361343384,-1.3494626742652436,-2.5491719881640833,6.029297816544332,1.042757511138916,-3.0506838003741663
1708442303.7054942,-2.068439245223999,-1.3497939121774216,-2.549645487462179,6.0275549767311,1.043218970298767,-3.050624195729391
1708442303.7075021,-2.066943645477295,-1.3501376074603577,-2.550044600163595,6.025910961418905,1.0436025857925415,-3.0507198015796106
1708442303.7094898,-2.065467119216919,-1.3504126828959961,-2.550480906163351,6.024233329087057,1.0440393686294556,-3.0506015459643763
1708442303.7115095,-2.064007520675659,-1.3506822896054764,-2.5508514086352747,6.02249168136672,1.0444157123565674,-3.050573174153463
1708442303.7135084,-2.0625011920928955,-1.3510259848884125,-2.5512593428241175,6.020821797638693,1.0448530912399292,-3.050589625035421
1708442303.7155423,-2.0609915256500244,-1.3513690394214173,-2.5516751448260706,6.019063699036398,1.045318841934204,-3.050537411366598
1708442303.7175188,-2.0594656467437744,-1.3517116171172638,-2.5521560351001185,6.01723729351119,1.0457513332366943,-3.0505345503436487
1708442303.7194865,-2.057936429977417,-1.352050856953003,-2.5525835196124476,6.015413152962484,1.0462167263031006,-3.0504847208606165
1708442303.721529,-2.0563101768493652,-1.3524298083833237,-2.5530079046832483,6.013603675156393,1.0467174053192139,-3.0504608790027063
1708442303.723518,-2.0547494888305664,-1.3527563375285645,-2.5534516016589563,6.0117071745689294,1.0472062826156616,-3.0504117647754114
1708442303.7254982,-2.053142547607422,-1.3530952048352738,-2.55388313928713,6.009851920395651,1.0477285385131836,-3.050458017979757
1708442303.727493,-2.0515475273132324,-1.3534704607776185,-2.554319683705465,6.007980096131124,1.0481231212615967,-3.0504217783557337
1708442303.7295058,-2.0499327182769775,-1.353845403795578,-2.5547216574298304,6.006098973542013,1.0485877990722656,-3.050450627003805
1708442303.7314959,-2.0484113693237305,-1.3541549307158967,-2.5552073160754603,6.0041847107704065,1.0490124225616455,-3.0503562132464808
1708442303.733504,-2.0468225479125977,-1.354490117435791,-2.555570189152853,6.002326833992758,1.049397587776184,-3.05039626756777
1708442303.7354867,-2.0451488494873047,-1.3548769068768998,-2.556038204823629,6.000392901688375,1.049856185913086,-3.0503934065448206
1708442303.7374876,-2.0435361862182617,-1.3553281289390107,-2.556507174168722,5.998543846398153,1.0503448247909546,-3.0504351297961634
1708442303.7394803,-2.0418238639831543,-1.3556826424649735,-2.556963030491964,5.9964942810829065,1.0508291721343994,-3.050434176121847
1708442303.7414894,-2.0401084423065186,-1.3560891461423417,-2.5574422518359583,5.994536626129904,1.0513756275177002,-3.0503934065448206
1708442303.7434812,-2.038419246673584,-1.3564471018365403,-2.5578447023974817,5.992567884712972,1.0518312454223633,-3.0503650347339075
1708442303.7454882,-2.036733865737915,-1.3568739008954545,-2.5583255926715296,5.990543234139242,1.0522799491882324,-3.0503562132464808
1708442303.7474911,-2.035034656524658,-1.3572889131358643,-2.558789078389303,5.98860131481246,1.0526635646820068,-3.0504141489612024
1708442303.749512,-2.0333690643310547,-1.3576434266618271,-2.559253517781393,5.986532318383016,1.0531859397888184,-3.0504007975207728
1708442303.7515113,-2.0315768718719482,-1.3580747556737442,-2.5597007910357874,5.984485018044271,1.053650975227356,-3.0504217783557337
1708442303.75348,-2.0298047065734863,-1.3584893506816407,-2.5601285139666956,5.982384907990255,1.0541718006134033,-3.0503979364978235
1708442303.7554843,-2.028048276901245,-1.3588963758996506,-2.56059176126589,5.980211007386007,1.0547187328338623,-3.0503650347339075
1708442303.7574892,-2.026226758956909,-1.3592945051244278,-2.561068360005514,5.978147017746725,1.055198311805725,-3.0503905455218714
1708442303.7595034,-2.0244622230529785,-1.359651358132698,-2.561517063771383,5.975966441422262,1.0556824207305908,-3.0504053274737757
1708442303.761488,-2.0226693153381348,-1.3600874257138749,-2.5620058218585413,5.973864900856771,1.0562126636505127,-3.0503576437579554
1708442303.7634778,-2.0208399295806885,-1.3605058652213593,-2.562442127858297,5.971653568535604,1.0566400289535522,-3.0503695646869105
1708442303.765481,-2.019033193588257,-1.3608795714429398,-2.5629223028766077,5.969577419548788,1.0571712255477905,-3.0503695646869105
1708442303.7674708,-2.0172102451324463,-1.361286075120308,-2.563373629246847,5.967555510788717,1.057642936706543,-3.0503860155688685
1708442303.7694833,-2.0154097080230713,-1.361814485197403,-2.563854757939474,5.965488540917196,1.058140516281128,-3.0503740946399134
1708442303.7714894,-2.0134968757629395,-1.3621962380460282,-2.5643296877490442,5.9632911560829065,1.0585801601409912,-3.0503860155688685
1708442303.7734861,-2.0115272998809814,-1.3626171362451096,-2.5648425261126917,5.961074816971578,1.0590684413909912,-3.0503061453448694
1708442303.7755084,-2.009568452835083,-1.363072709446289,-2.56525689760317,5.9588448880012415,1.0595704317092896,-3.0503531138049524
1708442303.7774973,-2.0075995922088623,-1.3635024440339585,-2.565789524708883,5.956599223404684,1.060075044631958,-3.0503411928759974
1708442303.77948,-2.0057082176208496,-1.3639538896134873,-2.5662809054004114,5.954349028855123,1.060572624206543,-3.0503621737109583
1708442303.7814927,-2.0038015842437744,-1.3643030685237427,-2.566732708607809,5.952188002854147,1.061036229133606,-3.050328556691305
1708442303.783462,-2.0018224716186523,-1.3648310613683243,-2.5672171751605433,5.94999788978652,1.0615464448928833,-3.050307814274923
1708442303.7854862,-1.9999159574508667,-1.3652324241450806,-2.5677338282214563,5.947671282082357,1.0619704723358154,-3.0503667036639612
1708442303.7874956,-1.9978861808776855,-1.3656421166709443,-2.568216864262716,5.945288646012106,1.0624140501022339,-3.050330464039938
1708442303.7894933,-1.9958356618881226,-1.366142289047577,-2.5687416235553187,5.942900526314535,1.0629289150238037,-3.050321404133932
1708442303.7915184,-1.9938679933547974,-1.366572455768921,-2.569249216710226,5.940666663437643,1.0634145736694336,-3.0502761046039026
1708442303.793479,-1.9918212890625,-1.3670539271882554,-2.5697315374957483,5.938283073693075,1.0639033317565918,-3.0503483454333704
1708442303.7955081,-1.9897961616516113,-1.367524803881981,-2.5702982584582728,5.936022865563192,1.0643510818481445,-3.0502598921405237
1708442303.7974944,-1.9877955913543701,-1.3679834020188828,-2.570712153111593,5.933747875481405,1.064815640449524,-3.050232474003927
1708442303.7995095,-1.9856963157653809,-1.3685123336366196,-2.5711994806872767,5.931510317116537,1.065272331237793,-3.0503268877612513
1708442303.8015566,-1.9837541580200195,-1.3689578038505097,-2.5716915766345423,5.9291067002113245,1.0657588243484497,-3.0502806345569056
1708442303.8035023,-1.9816306829452515,-1.3693659764579316,-2.5721970240222376,5.92674611785964,1.066247582435608,-3.0502026716815394
1708442303.805487,-1.979538917541504,-1.369877190595009,-2.572733227406637,5.92430471160964,1.066780686378479,-3.050208632146017
1708442303.807486,-1.9773887395858765,-1.3703586471131821,-2.5731762091266077,5.921788441925802,1.067252278327942,-3.050229612980978
1708442303.809505,-1.975292444229126,-1.3708578062108536,-2.5736878553973597,5.919355261116781,1.0678143501281738,-3.050195042287008
1708442303.8114913,-1.973162293434143,-1.3713881981423874,-2.574200455342428,5.916922914772787,1.0682686567306519,-3.05021316209902
1708442303.8134944,-1.9711003303527832,-1.3718705934337159,-2.574627939854757,5.91440104225234,1.068781852722168,-3.050180260335104
1708442303.8154857,-1.9690172672271729,-1.3723416787436982,-2.575052801762716,5.911963331490316,1.0692387819290161,-3.0501728693591517
1708442303.8174784,-1.9669362306594849,-1.3728149396232148,-2.5755892435656946,5.909574496537008,1.0696979761123657,-3.0501981417285364
1708442303.8194788,-1.9648245573043823,-1.3733133983663102,-2.5760746637927454,5.9071600315864465,1.070183515548706,-3.0501728693591517
1708442303.8214867,-1.9627598524093628,-1.3738363248160859,-2.5766282717334192,5.904852854996481,1.0706918239593506,-3.0501530806170862
1708442303.8234968,-1.9606695175170898,-1.3742726308158417,-2.577082935963766,5.90252040603713,1.071146845817566,-3.0502029101001185
1708442303.82549,-1.9585882425308228,-1.374865473513939,-2.577587668095724,5.900106060295858,1.0715913772583008,-3.05012017885317
1708442303.8274832,-1.9563590288162231,-1.375433624987938,-2.578038994465963,5.8976091025169275,1.0720527172088623,-3.050100866948263
1708442303.8294861,-1.9542099237442017,-1.3758539718440552,-2.578550640736715,5.895076620369711,1.0724836587905884,-3.0501425901996058
1708442303.8314772,-1.9520238637924194,-1.3764475596002121,-2.5790589491473597,5.892543303757467,1.07302987575531,-3.0500317255603235
1708442303.833499,-1.949784755706787,-1.3769490134767075,-2.579545799885885,5.890100347786703,1.0735141038894653,-3.0500980059253138
1708442303.835478,-1.9476368427276611,-1.3775085818818589,-2.5800653139697474,5.887700903206625,1.0740503072738647,-3.0500786940204065
1708442303.8374772,-1.9455103874206543,-1.3780311060002823,-2.5805588404284876,5.885223853379049,1.074554681777954,-3.0500081221209925
1708442303.8394756,-1.9433451890945435,-1.37848153830085,-2.581021849309103,5.882780778198995,1.0749454498291016,-3.050030533467428
1708442303.8414698,-1.9411444664001465,-1.379038156276085,-2.581456009541647,5.880151498108663,1.0754034519195557,-3.049990479146139
1708442303.843496,-1.9389623403549194,-1.379568026666977,-2.5819528738604944,5.877654659539022,1.075827717781067,-3.0499685446368616
1708442303.845483,-1.9367533922195435,-1.3801196676543732,-2.582411829625265,5.875145065575399,1.0762767791748047,-3.0499241987811487
1708442303.8474772,-1.9345721006393433,-1.3806475710919877,-2.5829313437091272,5.872654306679525,1.0767242908477783,-3.0499194304095667
1708442303.8494744,-1.9324097633361816,-1.3812442284873505,-2.5834313074695032,5.87019561508254,1.0771973133087158,-3.0499256292926233
1708442303.8514757,-1.9301977157592773,-1.3817169082215806,-2.5839629809008997,5.867685663491049,1.0776407718658447,-3.0499420801745813
1708442303.8534667,-1.928001880645752,-1.3822442305139084,-2.584426228200094,5.865287768631735,1.0780445337295532,-3.0499256292926233
1708442303.8554935,-1.925842523574829,-1.3828167927316208,-2.5848637262927454,5.862716305046835,1.0784331560134888,-3.0498490969287317
1708442303.8574798,-1.9236167669296265,-1.383310155277588,-2.5853520075427454,5.860235917359152,1.0788382291793823,-3.049840037022726
1708442303.8595169,-1.9214178323745728,-1.3839273911765595,-2.5858362356769007,5.857772815018453,1.0792497396469116,-3.049799982701437
1708442303.8614888,-1.919203519821167,-1.38447758675132,-2.586355749760763,5.855326401978292,1.0797566175460815,-3.0498133341418665
1708442303.863477,-1.9169938564300537,-1.384935052399971,-2.586782757435934,5.852825033455648,1.080135464668274,-3.0498269240008753
1708442303.865512,-1.9147396087646484,-1.3855272394469758,-2.5872321764575403,5.8503514406974695,1.0805227756500244,-3.049753252659933
1708442303.867477,-1.9125920534133911,-1.3860620868257065,-2.587761942540304,5.847812521248617,1.0809553861618042,-3.04971152940859
1708442303.8695633,-1.9103325605392456,-1.3865806323340912,-2.588208262120382,5.845303761750021,1.081384301185608,-3.0497055689441126
1708442303.8714797,-1.9081823825836182,-1.387143613105156,-2.5886922518359583,5.842948543816366,1.0818167924880981,-3.04969293275942
1708442303.8735025,-1.9060115814208984,-1.38772468388591,-2.5890894571887415,5.84062825420455,1.0822298526763916,-3.0496647993670862
1708442303.8754911,-1.903808832168579,-1.3882313829711457,-2.5896151701556605,5.838155853539266,1.0826048851013184,-3.049685780202047
1708442303.8774846,-1.9016027450561523,-1.388764814739563,-2.5900660196887415,5.835681068688192,1.0829522609710693,-3.049685780202047
1708442303.8794892,-1.8994501829147339,-1.389287607078888,-2.5904839674579065,5.833248722344198,1.0833814144134521,-3.049645487462179
1708442303.881537,-1.8972071409225464,-1.3898505580476304,-2.5909438768969935,5.830752837448873,1.0837583541870117,-3.0496090094195765
1708442303.883484,-1.8950108289718628,-1.3904301089099427,-2.5914395491229456,5.828254806786337,1.0841875076293945,-3.0495927969561976
1708442303.8854825,-1.8927643299102783,-1.3909820330194016,-2.591919008885519,5.825836884766378,1.0845587253570557,-3.0495689550982874
1708442303.887497,-1.8905630111694336,-1.391524390583374,-2.592369620000021,5.823390233307638,1.0850027799606323,-3.0495124498950403
1708442303.8895166,-1.8883713483810425,-1.3920265895179291,-2.5928507486926478,5.820826995163717,1.0854237079620361,-3.049499813710348
1708442303.8915012,-1.886143684387207,-1.3926063787988205,-2.593313519154684,5.818342196732321,1.0858436822891235,-3.04948336282839
1708442303.8934782,-1.8839112520217896,-1.3931495708278199,-2.59373122850527,5.815899836808004,1.0862979888916016,-3.049534861241476
1708442303.8954742,-1.8817178010940552,-1.3937446785024186,-2.5941837469684046,5.813396203308859,1.0866365432739258,-3.0495224634753626
1708442303.8974917,-1.8795359134674072,-1.3942354035428544,-2.5946794191943567,5.811030256539144,1.0870599746704102,-3.0495105425464075
1708442303.899546,-1.8774313926696777,-1.3947533530047913,-2.595081154500143,5.8086233017738245,1.0874890089035034,-3.0494867006884974
1708442303.901582,-1.875198483467102,-1.3952999872020264,-2.5956483522998255,5.8061935780342,1.0879422426223755,-3.049479071293966
1708442303.903509,-1.8729573488235474,-1.3958146286061783,-2.5960503260241907,5.803727257042684,1.0882974863052368,-3.049368445073263
1708442303.905493,-1.8707448244094849,-1.3964303147843857,-2.596520487462179,5.801293360977926,1.088670015335083,-3.049372975026266
1708442303.9075062,-1.8685532808303833,-1.3969488751939316,-2.5969517866717737,5.798736560135641,1.0891073942184448,-3.0493245760547083
1708442303.909497,-1.8663839101791382,-1.3974799525788804,-2.5974281469928187,5.796251165657797,1.0894629955291748,-3.0493291060077112
1708442303.9115067,-1.864107370376587,-1.3979987514070054,-2.597861353551046,5.793871152191915,1.0898748636245728,-3.049305264149801
1708442303.9135222,-1.8619420528411865,-1.39863874137912,-2.598309103642599,5.791374194412985,1.0902832746505737,-3.049272600804464
1708442303.9155157,-1.859745740890503,-1.399105192427971,-2.598747793828146,5.788849818497457,1.0906919240951538,-3.0492950121508997
1708442303.9174912,-1.8574914932250977,-1.3997130256942292,-2.5992210547076624,5.786377417832174,1.0911732912063599,-3.0492785612689417
1708442303.919476,-1.8553684949874878,-1.4002174598029633,-2.5996061007129114,5.783892619400778,1.0915720462799072,-3.0492122809039515
1708442303.9214802,-1.8531675338745117,-1.400743992333748,-2.6001082102404993,5.781499373703756,1.0919195413589478,-3.04920202890505
1708442303.9234881,-1.850978970527649,-1.4013247203877945,-2.6005941073047083,5.779096114426412,1.0923802852630615,-3.049211088811056
1708442303.92549,-1.848767876625061,-1.401839481001236,-2.6010287443744105,5.776713478356161,1.0928410291671753,-3.049166266118185
1708442303.9274874,-1.8465869426727295,-1.4023579520038147,-2.601481262837545,5.774249779969015,1.093204140663147,-3.049182717000143
1708442303.9295013,-1.8443853855133057,-1.4028930378011246,-2.601957146321432,5.771905052452841,1.0936371088027954,-3.049203697835104
1708442303.9315386,-1.8421956300735474,-1.403422774081566,-2.602392021809713,5.769412266999044,1.0940051078796387,-3.0491464773761194
1708442303.9334872,-1.8399953842163086,-1.4039677691510697,-2.6028440634356897,5.766995656281271,1.0944180488586426,-3.0491345564471644
1708442303.9355197,-1.8377712965011597,-1.40449012935672,-2.603311363850729,5.764471280365743,1.0948227643966675,-3.049065891896383
1708442303.9374912,-1.8355556726455688,-1.4050295811942597,-2.60372502008547,5.76210235336379,1.0952531099319458,-3.0490625540362757
1708442303.9394822,-1.8333498239517212,-1.4056203973344346,-2.6042047182666224,5.7596075413520715,1.095607876777649,-3.0490625540362757
1708442303.9414861,-1.8311132192611694,-1.4060984265855332,-2.604664150868551,5.757072078972616,1.0960075855255127,-3.0490475336657923
1708442303.943487,-1.8288804292678833,-1.4066334825805207,-2.605152432118551,5.754518496781149,1.0964419841766357,-3.04896051088442
1708442303.9455214,-1.826743483543396,-1.4072632056525727,-2.6055832544909876,5.752140271454611,1.0967717170715332,-3.0489864985095423
1708442303.947489,-1.8244909048080444,-1.40775220215831,-2.606013838444845,5.749617802887716,1.097212553024292,-3.048945728932516
1708442303.9494927,-1.8223023414611816,-1.4083206367543717,-2.60652739206423,5.747297870903768,1.0976179838180542,-3.048889223729269
1708442303.9515195,-1.8201014995574951,-1.4088298243335267,-2.60697848001589,5.744851815491476,1.0980174541473389,-3.0489235560046595
1708442303.953499,-1.8179787397384644,-1.409352333550789,-2.607379976903097,5.742398845940389,1.098406434059143,-3.0489371458636683
1708442303.9555135,-1.815739631652832,-1.4098873150399704,-2.6078558603869837,5.739923465042867,1.098777413368225,-3.0488737265216272
1708442303.9575288,-1.8134827613830566,-1.4104516071132203,-2.608356777821676,5.737471329956808,1.0991992950439453,-3.0489042440997522
1708442303.959488,-1.811302661895752,-1.4109860819629212,-2.6087504068957728,5.7349364636238,1.0996077060699463,-3.0487642923938196
1708442303.961529,-1.8091400861740112,-1.4115416568568726,-2.60923415819277,5.732502329140463,1.1000488996505737,-3.048818651829855
1708442303.9634893,-1.8069897890090942,-1.4120434385589142,-2.6096861998187464,5.730039107590475,1.1004499197006226,-3.048758570347921
1708442303.965521,-1.8047430515289307,-1.4126076412251969,-2.6101656595813196,5.727639782219686,1.1008045673370361,-3.04879600206484
1708442303.9675303,-1.8025410175323486,-1.4131141018918534,-2.6106448809253138,5.7250274298484705,1.101212978363037,-3.048746649418966
1708442303.9694982,-1.800369143486023,-1.4137597245028992,-2.6110764185534876,5.722576010018148,1.1017107963562012,-3.04877216020693
1708442303.9715433,-1.798164963722229,-1.414199875002243,-2.6114755312549036,5.7201212523277185,1.1020939350128174,-3.0486703554736536
1708442303.9734771,-1.7959669828414917,-1.414860875611641,-2.612018410359518,5.717730629235067,1.1025145053863525,-3.0486531893359583
1708442303.9755132,-1.7938175201416016,-1.415380061869957,-2.6125016848193567,5.715280759125509,1.1029316186904907,-3.048662010823385
1708442303.977488,-1.7916254997253418,-1.4159421783736725,-2.612957541142599,5.71285496929244,1.1032823324203491,-3.0486095587359827
1708442303.9794965,-1.7893731594085693,-1.4164367479136963,-2.61338454881777,5.710416781693258,1.1036875247955322,-3.048651997243063
1708442303.9815066,-1.7871822118759155,-1.4170408856919785,-2.6138442198382776,5.708052623062887,1.1040477752685547,-3.0485692659961146
1708442303.9835029,-1.7849072217941284,-1.4175835412791749,-2.6142831484424036,5.7055255053337,1.1044679880142212,-3.0485575834857386
1708442303.9854994,-1.782757043838501,-1.418082134132721,-2.6147547403918665,5.703067648201742,1.1048883199691772,-3.0485456625567835
1708442303.987505,-1.780482530593872,-1.4186407637647171,-2.615213457738058,5.700696038990774,1.105338454246521,-3.0485306421863
1708442303.9894965,-1.7783634662628174,-1.4192083191922684,-2.61566406885256,5.698230552464285,1.1057627201080322,-3.0485318342791956
1708442303.9915178,-1.776207685470581,-1.4197830718806763,-2.6160860697375696,5.695834803372183,1.1061015129089355,-3.0485318342791956
1708442303.9934816,-1.7739717960357666,-1.4202988010695954,-2.6165178457843226,5.693318772106924,1.10648512840271,-3.0484989325152796
1708442303.995517,-1.7717646360397339,-1.4208205801299592,-2.6170387903796595,5.690797614842214,1.1069059371948242,-3.0484560171710413
1708442303.9974892,-1.7695609331130981,-1.4213359218886872,-2.617490832005636,5.688309418946066,1.1073633432388306,-3.048422400151388
1708442303.9995227,-1.7674323320388794,-1.4218944174102326,-2.6179617086993616,5.685885476856985,1.1077468395233154,-3.048426930104391
1708442304.001571,-1.7651649713516235,-1.422507421379425,-2.6183884779559534,5.683412480145254,1.1081833839416504,-3.0483585039721888
1708442304.0034895,-1.7630419731140137,-1.4230600905469437,-2.6188796202289026,5.680954623013296,1.1086288690567017,-3.0483999888049524
1708442304.0055034,-1.760813593864441,-1.4236010623029252,-2.619354788457052,5.678574788361349,1.109024167060852,-3.0483508745776575
1708442304.007507,-1.7586394548416138,-1.4240937990001221,-2.619772736226217,5.676021861820974,1.109404444694519,-3.04832369485964
1708442304.009483,-1.7564195394515991,-1.4246572715095063,-2.6202405134784144,5.673521625786581,1.109816551208496,-3.048265520726339
1708442304.011503,-1.7542210817337036,-1.425156758432724,-2.620704476033346,5.671071517258444,1.1101970672607422,-3.0482335726367396
1708442304.013502,-1.7519967555999756,-1.4257611495307465,-2.6211140791522425,5.668712544232168,1.1106008291244507,-3.048278872166769
1708442304.0154905,-1.7497776746749878,-1.4262439769557496,-2.6216111818896692,5.666246878891744,1.1110620498657227,-3.0482681433307093
1708442304.0175016,-1.7476048469543457,-1.4267771703055878,-2.622139279042379,5.66376672962264,1.111462116241455,-3.0482023398028772
1708442304.0194874,-1.7454396486282349,-1.4273386758616944,-2.6225531736956995,5.661272334843435,1.1118336915969849,-3.048192087803976
1708442304.0215032,-1.7431706190109253,-1.427929700618126,-2.6230250040637415,5.6587703106696985,1.1122506856918335,-3.0481377283679407
1708442304.0235143,-1.7410422563552856,-1.4283583921245118,-2.6234870592700403,5.656422424107351,1.1126066446304321,-3.0481348673449915
1708442304.0254958,-1.7388678789138794,-1.4289643478444596,-2.6239658037768763,5.6539918659027,1.1130162477493286,-3.0481019655810755
1708442304.0274978,-1.736618161201477,-1.429445670252182,-2.6243913809405726,5.65157030799941,1.113362193107605,-3.0481064955340784
1708442304.0295074,-1.7344534397125244,-1.4300496590188523,-2.6249006430255335,5.649192321091451,1.1137605905532837,-3.048120085393087
1708442304.0315177,-1.7322362661361694,-1.4305934619954606,-2.6253722349749964,5.646695661335745,1.1140717267990112,-3.048008982335226
1708442304.0335116,-1.7300561666488647,-1.4310410481742402,-2.6257813612567347,5.644246446877279,1.1144205331802368,-3.0480271021472376
1708442304.035512,-1.7278470993041992,-1.431598277097084,-2.6262531916247767,5.641822922020712,1.1147927045822144,-3.0480077902423304
1708442304.0375073,-1.725569248199463,-1.4321284008077164,-2.6267574469195765,5.639378535538473,1.1152620315551758,-3.0479698816882532
1708442304.039489,-1.7234277725219727,-1.4327401977828522,-2.6272626558886927,5.636954891472616,1.1156660318374634,-3.047962490712301
1708442304.0415032,-1.7211644649505615,-1.433226303463318,-2.6276567617999476,5.6344730136688135,1.1161718368530273,-3.047943178807394
1708442304.0435007,-1.718994379043579,-1.433725268845894,-2.628180805836813,5.631974565773763,1.1165831089019775,-3.047955099736349
1708442304.0455291,-1.7167890071868896,-1.4342806500247498,-2.628594223652975,5.62941853979186,1.1170809268951416,-3.0478859583484095
1708442304.0474844,-1.7145934104919434,-1.4348076295903702,-2.629021469746725,5.626928674965658,1.1174962520599365,-3.047904078160421
1708442304.0495157,-1.7123920917510986,-1.4353401076844712,-2.629517141972677,5.624515104084768,1.1179448366165161,-3.047847334538595
1708442304.0514917,-1.7101701498031616,-1.4359153521111985,-2.629955832158224,5.622051226883688,1.1183686256408691,-3.04783541360964
1708442304.0535104,-1.708011269569397,-1.436482311492302,-2.630418841038839,5.619677889138021,1.1188130378723145,-3.0478490034686487
1708442304.055493,-1.7058064937591553,-1.436996803884842,-2.630907122288839,5.617211091309347,1.119180679321289,-3.047823492680685
1708442304.0574899,-1.7036104202270508,-1.4375439298203965,-2.631371084843771,5.614701437741079,1.1196517944335938,-3.0478296915637415
1708442304.0594926,-1.7014045715332031,-1.4380832326463242,-2.631812874470846,5.612228023796835,1.1199649572372437,-3.0477634111987513
1708442304.0614963,-1.6991618871688843,-1.4386261266520997,-2.6322653929339808,5.609779405384817,1.1203534603118896,-3.04777700105776
1708442304.0635004,-1.6969596147537231,-1.439222366814949,-2.6327577272998255,5.607340442925253,1.1207913160324097,-3.047652546559469
1708442304.0655196,-1.6947505474090576,-1.4397204530290146,-2.6331520716296595,5.604892241745748,1.1211344003677368,-3.0477030912982386
1708442304.067491,-1.6925199031829834,-1.4403047871640702,-2.6336031595813196,5.602448868542471,1.1215590238571167,-3.0477004686938685
1708442304.0694926,-1.690353512763977,-1.4408795994571229,-2.6340299288379114,5.5999770043189905,1.1219595670700073,-3.0476437250720423
1708442304.0715196,-1.6881474256515503,-1.4414131057313462,-2.634498421345846,5.597476887493887,1.1224128007888794,-3.0476184527026575
1708442304.0734894,-1.6859824657440186,-1.441959799533226,-2.634937588368551,5.595040726452627,1.1228288412094116,-3.0476349035846155
1708442304.0754917,-1.6838245391845703,-1.4424616259387513,-2.63536507288088,5.592624532967367,1.1232407093048096,-3.047607485448019
1708442304.0774941,-1.6816585063934326,-1.4429822278073807,-2.6358500162707728,5.59022747257308,1.1236696243286133,-3.0475345293628138
1708442304.07949,-1.6794345378875732,-1.443594516520836,-2.636271301900045,5.587753581791677,1.1240694522857666,-3.047507111226217
1708442304.0815141,-1.6772956848144531,-1.4440923196128388,-2.636735502873556,5.585329699307241,1.1245025396347046,-3.0475271383868616
1708442304.0834892,-1.675107717514038,-1.4446838063052674,-2.637153450642721,5.582886802941122,1.1248621940612793,-3.047532622014181
1708442304.0855095,-1.6728812456130981,-1.4451783311418076,-2.637653891240255,5.580348837166586,1.1252824068069458,-3.04745060602297
1708442304.0875053,-1.6706544160842896,-1.4456967574409028,-2.6380727926837366,5.577901291638174,1.1256663799285889,-3.047475878392355
1708442304.0895061,-1.66840398311615,-1.44631793469701,-2.6385532061206263,5.575426745205679,1.126035213470459,-3.0474305788623255
1708442304.091523,-1.6662131547927856,-1.4468454283526917,-2.6389926115619105,5.5730153796966455,1.1264275312423706,-3.047415796910421
1708442304.0934896,-1.6640361547470093,-1.4474250462702294,-2.6394687334643763,5.570548283844747,1.12685227394104,-3.0473831335650843
1708442304.095536,-1.661870002746582,-1.4479765531471749,-2.6398709456073206,5.568058180599966,1.127276062965393,-3.047399346028463
1708442304.097494,-1.6596227884292603,-1.4485723984292527,-2.640296284352438,5.565524565964498,1.1277422904968262,-3.047304932271139
1708442304.099496,-1.6574503183364868,-1.4490614619902153,-2.6407762209521692,5.563123512059011,1.12810480594635,-3.0473817030536097
1708442304.1015635,-1.655240535736084,-1.4495691892555733,-2.6412318388568323,5.560705351620474,1.1285340785980225,-3.0473035017596644
1708442304.103524,-1.6531147956848145,-1.4501825732043763,-2.6417320410357874,5.558202850609579,1.1289335489273071,-3.0472872892962855
1708442304.1054974,-1.6509283781051636,-1.45065941781316,-2.642240587865011,5.555824267655172,1.1293463706970215,-3.0472269693957728
1708442304.1075106,-1.6487311124801636,-1.4512559709003945,-2.6426952520953577,5.553381550102987,1.1297086477279663,-3.0472570101367396
1708442304.1094787,-1.6465240716934204,-1.4517530885389824,-2.6431503931628626,5.550906646042623,1.130191445350647,-3.0472331682788294
1708442304.1115205,-1.644294261932373,-1.4523011681488533,-2.643592421208517,5.548432338028707,1.1305426359176636,-3.0471206347094935
1708442304.1134827,-1.6420655250549316,-1.4528003123453637,-2.6440818945514124,5.545953500061788,1.1309109926223755,-3.0471957365619105
1708442304.115503,-1.6398252248764038,-1.453384355907776,-2.644475046788351,5.543537843018331,1.131335973739624,-3.047152105961935
1708442304.117478,-1.6375912427902222,-1.4539160814932366,-2.6449480692492884,5.541089284210958,1.1317203044891357,-3.047114674245016
1708442304.11948,-1.635405421257019,-1.454405592089035,-2.6454184691058558,5.538646447449484,1.132096290588379,-3.0471418539630335
1708442304.1215043,-1.6332186460494995,-1.4549895015409966,-2.645881001149313,5.536137747555532,1.132483720779419,-3.0471389929400843
1708442304.1235025,-1.6309970617294312,-1.455517166560032,-2.646341149006979,5.533688771515646,1.1329413652420044,-3.0470755735980433
1708442304.1255057,-1.6287561655044556,-1.456092470591404,-2.6468337217914026,5.531244742661276,1.1333256959915161,-3.047077242528097
1708442304.12749,-1.6266067028045654,-1.456586853866913,-2.647297207509176,5.528852271824636,1.1337666511535645,-3.0470579306231897
1708442304.1295023,-1.6244394779205322,-1.457093523149826,-2.647785250340597,5.5264301774795435,1.1341382265090942,-3.0470035711871546
1708442304.1315029,-1.6222550868988037,-1.45769818246875,-2.6482508818255823,5.5240529654319666,1.1345762014389038,-3.046950880681173
1708442304.1334944,-1.6200474500656128,-1.4582220774940033,-2.6487155596362513,5.5215643523033044,1.1349595785140991,-3.04698354402651
1708442304.1355002,-1.617879033088684,-1.4587683168104668,-2.649116818104879,5.519110965519705,1.1353365182876587,-3.0469616095172327
1708442304.1375058,-1.6155799627304077,-1.4593114864877244,-2.649614159260885,5.516660320549764,1.1357203722000122,-3.0469077269183558
1708442304.1394813,-1.6134239435195923,-1.4598308143070717,-2.650031391774313,5.514130818634786,1.1361662149429321,-3.046907965336935
1708442304.141506,-1.611179232597351,-1.4603622046164055,-2.6505191961871546,5.511663305550375,1.1366264820098877,-3.0468788782702845
1708442304.1434877,-1.6089897155761719,-1.4609136444381257,-2.6510403792010706,5.50920062044219,1.1370782852172852,-3.04686409631838
1708442304.1454773,-1.606826901435852,-1.4614807528308411,-2.6514793078051966,5.506775545864858,1.137596607208252,-3.046861235295431
1708442304.1475,-1.6045273542404175,-1.4619833689979096,-2.6519137064563196,5.504232990532675,1.1380010843276978,-3.046820942555563
1708442304.1494892,-1.6023586988449097,-1.4624922585538407,-2.6523900667773646,5.501722025662222,1.1383675336837769,-3.0467994848834437
1708442304.151509,-1.6001871824264526,-1.463117891257145,-2.6527679602252405,5.499337661057272,1.1387519836425781,-3.0467310587512415
1708442304.153506,-1.5980304479599,-1.4635892000845452,-2.6532231012927454,5.4969133017356775,1.139151930809021,-3.0467472712146204
1708442304.1554854,-1.5957924127578735,-1.4641628575376053,-2.6536830107318323,5.494480180531301,1.1395286321640015,-3.046744410191671
1708442304.1575058,-1.5936105251312256,-1.4647147518447419,-2.6542039553271692,5.492078411370077,1.1399412155151367,-3.046703640614645
1708442304.1595037,-1.5914720296859741,-1.4652291995337983,-2.6546595732318323,5.489619660168447,1.1402889490127563,-3.0466471354113978
1708442304.1615167,-1.5892266035079956,-1.465747894053795,-2.655081812535421,5.487156915455618,1.1407133340835571,-3.0466724077807825
1708442304.1634948,-1.5870168209075928,-1.4662735623172303,-2.655529801045553,5.484693455487051,1.1411069631576538,-3.0466695467578333
1708442304.1655097,-1.584830403327942,-1.4668915656260033,-2.655938688908712,5.482180344849386,1.1414506435394287,-3.0466740767108362
1708442304.1675074,-1.582665205001831,-1.4674385425499459,-2.656419817601339,5.479761767178335,1.141927719116211,-3.0466366449939173
1708442304.1694946,-1.5805047750473022,-1.468001977806427,-2.656858746205465,5.47728722074584,1.1422829627990723,-3.046539370213644
1708442304.1715174,-1.5782917737960815,-1.468521573846676,-2.657346789036886,5.4747986672218225,1.142774224281311,-3.0465765635119837
1708442304.1735067,-1.5760588645935059,-1.4690762174180527,-2.657830301915304,5.47228770235137,1.1431649923324585,-3.0465403238879603
1708442304.17552,-1.5738637447357178,-1.4696478110602875,-2.658253018056051,5.4698665020759485,1.143580675125122,-3.046575371419088
1708442304.177516,-1.571675181388855,-1.4701887008598824,-2.658745829259054,5.467424440174856,1.1439729928970337,-3.0464778582202356
1708442304.1794977,-1.5694345235824585,-1.4707468760064621,-2.65918475786318,5.46501653173522,1.144423007965088,-3.046452347432272
1708442304.1815076,-1.5672838687896729,-1.4712736469558259,-2.65965181985964,5.462577390461721,1.144777774810791,-3.046441618596212
1708442304.1835494,-1.5651029348373413,-1.4717969459346314,-2.660130802785055,5.460169243603506,1.145146131515503,-3.0464161078082483
1708442304.1855292,-1.5628477334976196,-1.4723885369351883,-2.6605990568744105,5.457703280239858,1.1456156969070435,-3.046396795903341
1708442304.1875029,-1.5606632232666016,-1.4728874278119584,-2.661063257847921,5.455253946572103,1.1460164785385132,-3.046347681676046
1708442304.1894946,-1.5584791898727417,-1.4733903121999283,-2.6614719072925013,5.452810215740957,1.1463223695755005,-3.0463321844684046
1708442304.1915114,-1.5562381744384766,-1.4739061680487175,-2.661936108266012,5.4503264901931665,1.1467273235321045,-3.0463700930224817
1708442304.1935186,-1.5541335344314575,-1.4745187175324936,-2.662437979375021,5.447891223221578,1.147099494934082,-3.0463205019580286
1708442304.1955287,-1.551934003829956,-1.4750410851887246,-2.6628099123584192,5.445452677994528,1.1475540399551392,-3.0463083426104944
1708442304.1975148,-1.5496803522109985,-1.4756579634598275,-2.663281504307882,5.442926811962881,1.1480106115341187,-3.046310011540548
1708442304.199552,-1.5475068092346191,-1.4761941668442269,-2.6637771765338343,5.440452265530386,1.1484507322311401,-3.046272579823629
1708442304.2015262,-1.5452946424484253,-1.4766798478415986,-2.664286200200216,5.437950300961294,1.1488757133483887,-3.046236578618185
1708442304.2035105,-1.543066382408142,-1.4771998238614579,-2.6647053400622767,5.43551920631484,1.1492960453033447,-3.046187225972311
1708442304.205508,-1.540900468826294,-1.4777869296124955,-2.665103260670797,5.43309913852767,1.1496471166610718,-3.0462005774127405
1708442304.2074842,-1.5386685132980347,-1.4782642138055344,-2.665591303502218,5.430682050972738,1.150051236152649,-3.0462186972247522
1708442304.2094917,-1.536468505859375,-1.4788608488491555,-2.666062895451681,5.428268420487203,1.1504685878753662,-3.0461552778827112
1708442304.2114842,-1.5342835187911987,-1.4794113424471398,-2.6664696375476282,5.42578541019515,1.1509264707565308,-3.046070400868551
1708442304.2134748,-1.5320826768875122,-1.4799845975688477,-2.666900936757223,5.423358130245962,1.1512410640716553,-3.046088520680563
1708442304.2154934,-1.5298300981521606,-1.4804455053857346,-2.667380158101217,5.420900749951162,1.151674509048462,-3.0461018721209925
1708442304.217484,-1.5276674032211304,-1.4810173374465485,-2.667861048375265,5.418474185257711,1.1520131826400757,-3.0460684935199183
1708442304.2194755,-1.5254533290863037,-1.4815858465484162,-2.668288056050436,5.415978359967031,1.1524139642715454,-3.046049181615011
1708442304.221503,-1.5232514142990112,-1.4821207535317917,-2.6687315146075647,5.4135329006011865,1.1528267860412598,-3.046004597340719
1708442304.2235003,-1.5210962295532227,-1.4826803666404267,-2.6692145506488245,5.411009597569265,1.1532436609268188,-3.0459891001330774
1708442304.2255018,-1.5189262628555298,-1.4831495371511956,-2.669633213673727,5.4085519192512415,1.1536178588867188,-3.0459681192981165
1708442304.2275028,-1.5166735649108887,-1.4837671381286164,-2.6700640360461634,5.406103896885671,1.1540513038635254,-3.0459817091571253
1708442304.2295094,-1.514494776725769,-1.4842894536307831,-2.6705930868731897,5.403663384705343,1.1544469594955444,-3.045929495488302
1708442304.2314856,-1.5122648477554321,-1.4848239806345482,-2.6710107962237757,5.401218342572012,1.154911994934082,-3.0459097067462366
1708442304.233496,-1.510095238685608,-1.4854001936367531,-2.671511952077047,5.398807394295492,1.1553072929382324,-3.0458605925189417
1708442304.2355034,-1.5078493356704712,-1.4859964039972802,-2.6719377676593226,5.3963578818138025,1.155684232711792,-3.0458739439593714
1708442304.2374938,-1.5056710243225098,-1.4864866223982354,-2.6723817030536097,5.393883812218466,1.156137228012085,-3.0458784739123743
1708442304.2394922,-1.503420352935791,-1.487018109565117,-2.6729024092303675,5.39139341095046,1.156553864479065,-3.0458291212665003
1708442304.2415261,-1.501233696937561,-1.487516501252987,-2.6733251253711146,5.388880419522085,1.1569299697875977,-3.045838181172506
1708442304.2434902,-1.499030590057373,-1.4880928856185456,-2.673819605504171,5.386520731240072,1.1573185920715332,-3.045842711125509
1708442304.245501,-1.4968621730804443,-1.4886110362461586,-2.6743045488940638,5.384092497616567,1.1577839851379395,-3.0458183924304407
1708442304.2475107,-1.494713544845581,-1.4891866606524964,-2.674729887639181,5.381612884789266,1.1581599712371826,-3.0457616488086146
1708442304.2495112,-1.492458462715149,-1.489723117356636,-2.6752105394946497,5.379123258381643,1.1585808992385864,-3.0457335154162806
1708442304.251519,-1.490255355834961,-1.4902541872910042,-2.6756258646594446,5.376606750279226,1.1589727401733398,-3.045701567326681
1708442304.2534933,-1.4880775213241577,-1.4907281708768387,-2.6760721842395228,5.374193835049429,1.159377098083496,-3.045734469090597
1708442304.2555056,-1.4859179258346558,-1.4913252231529732,-2.676551644002096,5.371759342938223,1.1597813367843628,-3.045661513005392
1708442304.257518,-1.483695387840271,-1.4918471810272713,-2.67700702348818,5.3693023202712915,1.1602429151535034,-3.045624081288473
1708442304.2594948,-1.481567144393921,-1.492391162817814,-2.6775158087359827,5.3668797490890405,1.1606066226959229,-3.0455921331988733
1708442304.2614915,-1.479292869567871,-1.4929173451713105,-2.6779502073871058,5.364477920323171,1.1610805988311768,-3.045589272175924
1708442304.263484,-1.477076530456543,-1.4934488546899338,-2.67835504213442,5.3619664190109155,1.1614726781845093,-3.045590941105978
1708442304.2654965,-1.474883794784546,-1.4940217819860955,-2.678868118916647,5.359517383366384,1.16182279586792,-3.0455320517169397
1708442304.2674954,-1.4726684093475342,-1.494564601486065,-2.679302994404928,5.357053029328146,1.1622809171676636,-3.04557449022402
1708442304.2694767,-1.4704498052597046,-1.4951125618866463,-2.67977482477297,5.354603874474325,1.162619948387146,-3.0455098787890833
1708442304.2714937,-1.4682360887527466,-1.4956106406501313,-2.6802266279803675,5.352145957737722,1.1629712581634521,-3.045502487813131
1708442304.2734866,-1.4660640954971313,-1.4961823907545586,-2.6807151476489466,5.349706756859579,1.1634258031845093,-3.045419994984762
1708442304.275496,-1.4638673067092896,-1.4966609937003632,-2.681131903325216,5.347214627056875,1.1637804508209229,-3.045478645955221
1708442304.2775166,-1.4616562128067017,-1.49721264213834,-2.681657616292135,5.344728398114004,1.1642588376998901,-3.0454378763781946
1708442304.279488,-1.4595074653625488,-1.4977602449110528,-2.682132069264547,5.3423271653945825,1.1647075414657593,-3.0453761259662073
1708442304.2814956,-1.457335352897644,-1.4983243656209488,-2.6825180689441126,5.339923310070791,1.1650012731552124,-3.0454469362842005
1708442304.283519,-1.4551606178283691,-1.4988397371819993,-2.6830137411700647,5.3374817846115015,1.1654438972473145,-3.0454066435443323
1708442304.2855227,-1.452962875366211,-1.4994052809527894,-2.6834734121905726,5.334997403412618,1.1658316850662231,-3.0453506151782435
1708442304.2875016,-1.450714349746704,-1.4999282297543068,-2.683944288884298,5.332563030510702,1.1662410497665405,-3.0453713575946253
1708442304.289498,-1.4484587907791138,-1.5004491370967408,-2.6844030062304896,5.3301275847251794,1.1666406393051147,-3.0453015009509485
1708442304.2915173,-1.4462424516677856,-1.5010138687542458,-2.684895102177755,5.327652501850881,1.167025089263916,-3.0452776590930384
1708442304.293504,-1.444075345993042,-1.5015386131456872,-2.685338560734884,5.325186717301168,1.1674128770828247,-3.045286480580465
1708442304.2955225,-1.4418107271194458,-1.5021166142872353,-2.6857536474811,5.322739231377401,1.1678211688995361,-3.0452383200274866
1708442304.2975254,-1.4396106004714966,-1.502640226190426,-2.6862674395190638,5.32029144743041,1.1682180166244507,-3.0452383200274866
1708442304.2994893,-1.4374372959136963,-1.5032377702048798,-2.68669039407839,5.317824232369222,1.1686066389083862,-3.0452144781695765
1708442304.3015025,-1.435312271118164,-1.5037379202297707,-2.6871989409076136,5.315322088986196,1.1691163778305054,-3.0451810995685022
1708442304.303502,-1.4331061840057373,-1.5042287719300766,-2.6876218954669397,5.312865543156423,1.1694926023483276,-3.0451126734363
1708442304.3054948,-1.430903434753418,-1.504812368457653,-2.6880653540240687,5.310459959297933,1.1698963642120361,-3.045109812413351
1708442304.3074844,-1.4287497997283936,-1.5053284254721184,-2.6885440985309046,5.308032500534811,1.1703122854232788,-3.045034472142355
1708442304.309484,-1.4265624284744263,-1.5059128192118187,-2.6890278498279017,5.3055550930793665,1.1707415580749512,-3.0450778643237513
1708442304.311488,-1.4243903160095215,-1.5064537686160584,-2.689488236104147,5.303097057133474,1.1711782217025757,-3.045070473347799
1708442304.3135128,-1.4221335649490356,-1.5069936972907563,-2.689904514943258,5.300627934723654,1.1716448068618774,-3.045075003300802
1708442304.3155203,-1.4199084043502808,-1.5075676304152985,-2.690361801777975,5.298164117127218,1.1719372272491455,-3.0450719038592737
1708442304.3174937,-1.4177165031433105,-1.5080670279315491,-2.6908419767962855,5.295732188015737,1.172358751296997,-3.0450153986560267
1708442304.3194883,-1.415476679801941,-1.5086041402867814,-2.6913142840014856,5.293218838959493,1.172743320465088,-3.0449538866626185
1708442304.3215003,-1.4133082628250122,-1.509172399794199,-2.6917439142810267,5.2907829759414575,1.1731154918670654,-3.0449166933642786
1708442304.3235095,-1.4111216068267822,-1.5097706590643902,-2.6922276655780237,5.2883391855056665,1.1735728979110718,-3.044947926198141
1708442304.325524,-1.4088903665542603,-1.5102573421648522,-2.6926754156695765,5.285911905556478,1.1740379333496094,-3.0449145475970667
1708442304.327511,-1.406676173210144,-1.5108257097056885,-2.693125311528341,5.283460306912222,1.1744500398635864,-3.0448861757861536
1708442304.3295157,-1.4045097827911377,-1.5114196848920365,-2.6935699621783655,5.281022298126974,1.1747592687606812,-3.0448787848102015
1708442304.3315227,-1.4024007320404053,-1.5119313050857563,-2.693983856831686,5.278527784138479,1.175270915031433,-3.0448086897479456
1708442304.333506,-1.4001368284225464,-1.512447578167059,-2.694467369710104,5.276138770371237,1.1755943298339844,-3.044805113469259
1708442304.335524,-1.3979936838150024,-1.5130625565401097,-2.6949313322650355,5.273711788445272,1.1759581565856934,-3.0448265711413782
1708442304.3374949,-1.3957486152648926,-1.5135902737132092,-2.6953540484057825,5.271212804108419,1.1763064861297607,-3.0448036829577845
1708442304.3394873,-1.3935859203338623,-1.5141068075648327,-2.6958006064044397,5.268752801209249,1.1767562627792358,-3.0447874704944056
1708442304.3414962,-1.391351342201233,-1.5146785911968728,-2.6962853113757532,5.266286003380575,1.177124261856079,-3.0447166601764124
1708442304.3434885,-1.3891501426696777,-1.5151550334743042,-2.6967456976519983,5.2637773034866235,1.177507758140564,-3.044734779988424
1708442304.345517,-1.3869518041610718,-1.5157155220261593,-2.6971829573260706,5.261426853924551,1.1779457330703735,-3.044702116643087
1708442304.3474975,-1.38474702835083,-1.51630091786895,-2.6976056734668177,5.25891404131011,1.1783530712127686,-3.044682566319601
1708442304.349514,-1.382489800453186,-1.5168853488615532,-2.6981356779681605,5.256425428181448,1.1787898540496826,-3.0446046034442347
1708442304.3515313,-1.3802695274353027,-1.517386121009924,-2.6985133329974573,5.253946530609884,1.1792267560958862,-3.0446632544146937
1708442304.3534954,-1.378100872039795,-1.5179453578642388,-2.698993984852926,5.251444804459371,1.17965567111969,-3.0446298758136194
1708442304.355534,-1.3759435415267944,-1.518483006661274,-2.69947320619692,5.249039876251974,1.180078387260437,-3.044558588658468
1708442304.3575199,-1.3736965656280518,-1.5190688979676743,-2.6999126116382044,5.246609794884481,1.180536150932312,-3.044558588658468
1708442304.3595307,-1.3714951276779175,-1.5195404824665566,-2.700334612523214,5.244152354985037,1.180944561958313,-3.044583861027853
1708442304.3615105,-1.3693397045135498,-1.5200232875398179,-2.700810972844259,5.241760778218069,1.1813335418701172,-3.0445104281054896
1708442304.3635013,-1.3671730756759644,-1.5206222024611016,-2.701212469731466,5.23926072099761,1.181762933731079,-3.0444908777820032
1708442304.3655314,-1.3649611473083496,-1.521173646008112,-2.701693598424093,5.2368021486099146,1.182108759880066,-3.0445192495929163
1708442304.3675077,-1.3627926111221313,-1.5216903512230893,-2.702210013066427,5.2343084690864465,1.1825215816497803,-3.044471565877096
1708442304.3695445,-1.3605645895004272,-1.5222315576723595,-2.702669922505514,5.231904315739431,1.182909607887268,-3.0444217363940638
1708442304.3715296,-1.3583776950836182,-1.5227843348732968,-2.703087870274679,5.2294168947036646,1.1833264827728271,-3.0444145838366907
1708442304.3735,-1.3561667203903198,-1.5233044152012845,-2.703538958226339,5.226970243244924,1.1837358474731445,-3.0444896856891077
1708442304.375503,-1.353994607925415,-1.5238605302623291,-2.703994099293844,5.224542605667867,1.1841069459915161,-3.0444324652301233
1708442304.3775077,-1.3517787456512451,-1.5244019714048882,-2.704487387334005,5.222041356354513,1.184508204460144,-3.0443785826312464
1708442304.3795087,-1.3495417833328247,-1.5249810379794617,-2.704921547566549,5.219540047436514,1.1849571466445923,-3.044346872960226
1708442304.3815124,-1.3473502397537231,-1.5255137805691739,-2.7053712050067347,5.217110562115469,1.185335636138916,-3.044306818638937
1708442304.383495,-1.3451570272445679,-1.5260428872755547,-2.7058845202075403,5.2147055743034265,1.1857484579086304,-3.0443528334247034
1708442304.38551,-1.3429837226867676,-1.5265838106027623,-2.7062297503100794,5.212313163071432,1.1861612796783447,-3.0442538897143763
1708442304.3875031,-1.3408491611480713,-1.527115100329258,-2.706661049519674,5.210025089770117,1.1864691972732544,-3.044262949620382
1708442304.3894923,-1.3386571407318115,-1.527635534559824,-2.707137409840719,5.207659232407369,1.1867815256118774,-3.044258419667379
1708442304.3914983,-1.3364273309707642,-1.528185312902071,-2.707479778920309,5.205333399563589,1.1870571374893188,-3.04425555864443
1708442304.3934886,-1.3342986106872559,-1.5287758161178608,-2.707871739064352,5.203069108515539,1.1872797012329102,-3.0443015734301966
1708442304.395505,-1.3320645093917847,-1.5292934191278,-2.708259407673971,5.200787502318182,1.187601923942566,-3.044241968785421
1708442304.3975174,-1.3298496007919312,-1.5298066039434453,-2.7086218039142054,5.198561715870657,1.1878451108932495,-3.0442808310138147
1708442304.3994884,-1.3276540040969849,-1.5304244954935093,-2.7090349833117884,5.1963979480560205,1.1880111694335938,-3.044230286275045
1708442304.4015155,-1.3254061937332153,-1.5309966144016762,-2.7093525568591517,5.194226491242208,1.188330054283142,-3.044222895299093
1708442304.403531,-1.3231487274169922,-1.5314956468394776,-2.709719721470968,5.191991704493322,1.1884843111038208,-3.044276301060812
1708442304.40552,-1.3209627866744995,-1.5321179826608677,-2.710057799016134,5.189788567810812,1.1886558532714844,-3.0442808310138147
1708442304.4075048,-1.3186990022659302,-1.5326052841595192,-2.710377041493551,5.187729793577947,1.1888447999954224,-3.044276301060812
1708442304.409521,-1.3165067434310913,-1.5332472969642659,-2.710683886204855,5.185577469855108,1.188993215560913,-3.044201914464132
1708442304.4115312,-1.3143746852874756,-1.5337539960495015,-2.711036745701925,5.1835558889205835,1.1891164779663086,-3.044239107762472
1708442304.4134972,-1.3121452331542969,-1.5344164383462449,-2.7112663427936,5.181462216168203,1.1892576217651367,-3.044225517903463
1708442304.4155092,-1.3100165128707886,-1.534891252671816,-2.7115567366229456,5.179505693703451,1.189337134361267,-3.0442243258105677
1708442304.4175267,-1.3077524900436401,-1.5354391534677525,-2.7118502298938196,5.1774945733840845,1.189420223236084,-3.044272009526388
1708442304.4195015,-1.30556058883667,-1.5360449899784108,-2.712097231541769,5.175476896553793,1.1895281076431274,-3.044234816228048
1708442304.4215262,-1.3033918142318726,-1.5365170066109677,-2.712356154118673,5.173524963646688,1.1896047592163086,-3.0442965666400355
1708442304.4234903,-1.3011902570724487,-1.5371590678444882,-2.712583605443136,5.171566563635626,1.1896605491638184,-3.0442374388324183
