Eg3-git/Classifiers/Data Collection/u7/u7xyz2_ur3e_joint_states.csv
time,elbow_joint,shoulder_lift_joint,shoulder_pan_joint,wrist_1_joint,wrist_2_joint,wrist_3_joint
1708441256.794852,-2.1422295570373535,-1.3340147745660325,-2.527976099644796,6.112601864128866,1.0197527408599854,-2.7418013254748743
1708441256.7968676,-2.142245292663574,-1.3339744818261643,-2.5279105345355433,6.112636196404257,1.0198261737823486,-2.7417433897601526
1708441256.7988908,-2.142249822616577,-1.333937407737114,-2.5279341379748743,6.112610804825582,1.0198396444320679,-2.741710964833395
1708441256.8008473,-2.142258644104004,-1.3339496564916153,-2.5279911200152796,6.11259292343215,1.0198547840118408,-2.7417290846454065
1708441256.8028488,-2.1421959400177,-1.3339331311038514,-2.5279749075519007,6.112606394081869,1.0198907852172852,-2.7416961828814905
1708441256.804876,-2.1421914100646973,-1.3339701306870957,-2.527970616017477,6.112676608353414,1.0199116468429565,-2.74170953432192
1708441256.806924,-2.1422295570373535,-1.3340104979327698,-2.527978006993429,6.11268829086379,1.0199148654937744,-2.741678539906637
1708441256.808836,-2.142200231552124,-1.333945394759514,-2.527978006993429,6.112642276078024,1.0199270248413086,-2.741636101399557
1708441256.8108175,-2.14219331741333,-1.3339863133481522,-2.5280314127551478,6.112618315010824,1.019970417022705,-2.7416048685656946
1708441256.8128204,-2.142197608947754,-1.334029958849289,-2.528076235448019,6.112654316216268,1.0199960470199585,-2.7415438334094446
1708441256.8148458,-2.142209053039551,-1.333945394759514,-2.5280261675464075,6.112646806031027,1.0200364589691162,-2.7415574232684534
1708441256.8168232,-2.1422178745269775,-1.33399851739917,-2.5280264059649866,6.112630355149069,1.0200306177139282,-2.74148136774172
1708441256.8188603,-2.1422269344329834,-1.3339985024980088,-2.5280218760119837,6.112667667656698,1.0200728178024292,-2.741450373326437
1708441256.8208263,-2.1422266960144043,-1.3339648854783555,-2.5280588308917444,6.112646806031027,1.0201131105422974,-2.7414711157428187
1708441256.8228438,-2.142209053039551,-1.3339856576970597,-2.528045717869894,6.112643945008077,1.0201207399368286,-2.7414594332324427
1708441256.8248336,-2.142165184020996,-1.333994300370552,-2.5280948320971888,6.112642395287313,1.0200787782669067,-2.741411034260885
1708441256.826851,-2.142165184020996,-1.3339648854783555,-2.5280948320971888,6.1126513359840295,1.0201445817947388,-2.741403643284933
1708441256.828834,-2.14214825630188,-1.3339856576970597,-2.528090540562765,6.112617003708639,1.0201101303100586,-2.741359059010641
1708441256.8308482,-2.1421737670898438,-1.3340061169913788,-2.5281158129321497,6.112646806031027,1.0201435089111328,-2.7413798014270228
1708441256.8329432,-2.1421737670898438,-1.334018052821495,-2.5281394163714808,6.112625944405355,1.0201345682144165,-2.7413633505450647
1708441256.8348737,-2.1421210765838623,-1.334002823834755,-2.5281265417682093,6.112649786263265,1.0201629400253296,-2.7413435618029993
1708441256.836834,-2.1422019004821777,-1.3339856576970597,-2.528118912373678,6.112703549652853,1.0202003717422485,-2.7413435618029993
1708441256.8388495,-2.1421658992767334,-1.3340385419181366,-2.528158966694967,6.112630474358358,1.020179271697998,-2.741344992314474
1708441256.8408892,-2.1421167850494385,-1.333964855676033,-2.5281131903277796,6.112674820214071,1.0201836824417114,-2.7413035074817103
1708441256.8428314,-2.142117500305176,-1.3339933168939133,-2.5281265417682093,6.112674581795492,1.0202049016952515,-2.741300408040182
1708441256.8448598,-2.1421544551849365,-1.3339734238437195,-2.528184477482931,6.112691509514608,1.0202200412750244,-2.741272751485006
1708441256.846858,-2.1421658992767334,-1.3339453798583527,-2.5281758944140833,6.112642395287313,1.0202033519744873,-2.741272513066427
1708441256.8488233,-2.1421499252319336,-1.333997593527176,-2.5281670729266565,6.112679230957784,1.02023184299469,-2.74117881456484
1708441256.8508449,-2.142117500305176,-1.3339815002730866,-2.5281384626971644,6.112683641701498,1.0202395915985107,-2.741187636052267
1708441256.8528326,-2.142134189605713,-1.3339777749827881,-2.5281546751605433,6.112674820214071,1.0202229022979736,-2.7412012259112757
1708441256.8548656,-2.142112970352173,-1.3340137761882325,-2.5281546751605433,6.112654316216268,1.0202559232711792,-2.7411559263812464
1708441256.8568847,-2.1421217918395996,-1.3340018850615998,-2.5281832853900355,6.112679230957784,1.0202604532241821,-2.7410903612719935
1708441256.8588238,-2.1420936584472656,-1.3340426546386261,-2.5281713644610804,6.112600433617391,1.0202395915985107,-2.741086784993307
1708441256.8608363,-2.142117500305176,-1.3339976382306595,-2.5281789938556116,6.112622725754537,1.020263433456421,-2.7410910765277308
1708441256.8628268,-2.1421263217926025,-1.3339942705682297,-2.528192106877462,6.112665879517355,1.020275354385376,-2.7410503069507044
1708441256.8648684,-2.142091751098633,-1.3340172332576294,-2.5281789938556116,6.112663137703695,1.0202306509017944,-2.7410221735583704
1708441256.8668237,-2.142118215560913,-1.3340579730323334,-2.5282190481769007,6.112667667656698,1.0202797651290894,-2.7409940401660364
1708441256.8688793,-2.142118215560913,-1.3339976382306595,-2.5281789938556116,6.112691509514608,1.0202968120574951,-2.741002861653463
1708441256.8708515,-2.1421217918395996,-1.3340383631042023,-2.528174702321188,6.112720477371969,1.0202678442001343,-2.740962092076437
1708441256.8728013,-2.1420555114746094,-1.3340256971171875,-2.528186623250143,6.1126379845436,1.020263433456421,-2.7409637610064905
1708441256.8748217,-2.14211368560791,-1.3339976382306595,-2.5282114187823694,6.112658726959982,1.0202499628067017,-2.7408886591540735
1708441256.8768275,-2.1421306133270264,-1.3340421629003067,-2.528186623250143,6.112630474358358,1.0202842950820923,-2.74087363878359
1708441256.8788512,-2.1420767307281494,-1.3340299141458054,-2.5281909147845667,6.112612712174215,1.0202662944793701,-2.740850035344259
1708441256.8808193,-2.142064332962036,-1.3340222400477906,-2.5282395521747034,6.112645375519552,1.0202968120574951,-2.7409051100360315
1708441256.8828135,-2.1420936584472656,-1.3340548139861603,-2.5282157103167933,6.112691509514608,1.020263433456421,-2.7408011595355433
1708441256.8848548,-2.1420936584472656,-1.3339688342860718,-2.5281832853900355,6.112619983940878,1.0202968120574951,-2.740823809300558
1708441256.8868446,-2.14208984375,-1.3339890849641343,-2.528165880833761,6.112678873329916,1.0202678442001343,-2.740790907536642
1708441256.8888621,-2.142115354537964,-1.3339933913997193,-2.528165880833761,6.11265121677474,1.0202924013137817,-2.740750853215353
1708441256.8908591,-2.142085552215576,-1.3339934212020417,-2.52824837366213,6.112658726959982,1.0202678442001343,-2.7407849470721644
1708441256.8928413,-2.1420986652374268,-1.3340421629003067,-2.528198544179098,6.112691509514608,1.0202590227127075,-2.7407477537738245
1708441256.894859,-2.142085552215576,-1.3340222400477906,-2.5282190481769007,6.112704860955038,1.0203131437301636,-2.740711514149801
1708441256.896855,-2.142094373703003,-1.3339891147664567,-2.528174702321188,6.11265121677474,1.0202842950820923,-2.740659300480978
1708441256.898867,-2.1419875621795654,-1.3339607578567048,-2.5282352606402796,6.112646806031027,1.0203131437301636,-2.740675751362936
1708441256.9008477,-2.1420528888702393,-1.3339976382306595,-2.528202835713522,6.112604844361105,1.0202833414077759,-2.740636650715963
1708441256.902854,-2.1420371532440186,-1.3339934212020417,-2.5282235781299036,6.112707841187277,1.0202217102050781,-2.740641180668966
1708441256.9048736,-2.1420247554779053,-1.3339692217162629,-2.5281909147845667,6.112588512688436,1.0202096700668335,-2.740570370350973
1708441256.9068394,-2.142057418823242,-1.3339815002730866,-2.528214756642477,6.112643825798788,1.0202832221984863,-2.7405675093280237
1708441256.9088695,-2.142050266265869,-1.3340095591596146,-2.528182331715719,6.112627136498251,1.0202215909957886,-2.7405222097979944
1708441256.9108307,-2.142054557800293,-1.3339891147664567,-2.5281909147845667,6.112683760910787,1.020226240158081,-2.740495506917135
1708441256.9128237,-2.14206600189209,-1.3340095591596146,-2.5281789938556116,6.112633454590597,1.0202968120574951,-2.740424935017721
1708441256.9148605,-2.142059087753296,-1.3340060722878953,-2.528198544179098,6.11265121677474,1.020275354385376,-2.7404144446002405
1708441256.9168255,-2.1419920921325684,-1.334029958849289,-2.528202835713522,6.112610804825582,1.0202797651290894,-2.7404354254352015
1708441256.9189024,-2.142050266265869,-1.334018037920334,-2.528174702321188,6.1125783798988245,1.020263433456421,-2.7404025236712855
1708441256.9208355,-2.14206600189209,-1.3340464395335694,-2.5282397905932825,6.112585413246908,1.0202515125274658,-2.740408484135763
1708441256.9228435,-2.142063617706299,-1.3340342354825516,-2.528161589299337,6.1126394150550745,1.0202590227127075,-2.7403581778155726
1708441256.9248562,-2.1420254707336426,-1.3339899343303223,-2.528186623250143,6.1126675484474084,1.0202767848968506,-2.7402761618243616
1708441256.9268353,-2.1419849395751953,-1.3339649599841614,-2.5281909147845667,6.112610804825582,1.0202515125274658,-2.740274254475729
1708441256.9288647,-2.1420679092407227,-1.3340137761882325,-2.528165880833761,6.112586962967672,1.0202425718307495,-2.740262571965353
1708441256.9308627,-2.1420254707336426,-1.3339734685472031,-2.5282321611987513,6.112537848740377,1.0202229022979736,-2.7402225176440638
1708441256.9328952,-2.142009735107422,-1.3339985621026536,-2.5282040278064173,6.112582552223959,1.0202184915542603,-2.7402268091784876
1708441256.934932,-2.1420016288757324,-1.3340507757714768,-2.5281832853900355,6.1125539419944666,1.0202229022979736,-2.7401910463916224
1708441256.936904,-2.1420183181762695,-1.333997593527176,-2.5281878153430384,6.1125584719474695,1.0202679634094238,-2.740192238484518
1708441256.9389822,-2.1420016288757324,-1.3339367818883439,-2.5281789938556116,6.112604725151815,1.0202065706253052,-2.740142885838644
1708441256.940896,-2.1420059204101562,-1.333994285469391,-2.528154198323385,6.112501728325643,1.0202274322509766,-2.7401140371905726
1708441256.942891,-2.142038583755493,-1.3340018552592774,-2.5281503836261194,6.112567293434896,1.02023184299469,-2.7400525251971644
1708441256.9450223,-2.1419734954833984,-1.333994300370552,-2.5281832853900355,6.112477648049154,1.02017343044281,-2.740077797566549
1708441256.9469209,-2.1420140266418457,-1.334035263662674,-2.5281222502337855,6.112449276238241,1.0201658010482788,-2.740063015614645
1708441256.9489443,-2.1419761180877686,-1.3339933168939133,-2.5281503836261194,6.112528669625082,1.0202244520187378,-2.7400437037097376
1708441256.950927,-2.142005205154419,-1.3340352040580292,-2.528154198323385,6.1124762175376794,1.0202454328536987,-2.7399848143206995
1708441256.9528549,-2.1419849395751953,-1.3340137761882325,-2.5281832853900355,6.112422573357382,1.0201584100723267,-2.739962641392843
1708441256.9548476,-2.141953229904175,-1.3340594184449692,-2.5281458536731165,6.112397181778707,1.0201747417449951,-2.739967171345846
1708441256.95684,-2.1420059204101562,-1.3339486432126542,-2.5281103293048304,6.112443434983053,1.0201311111450195,-2.739983622227804
1708441256.9589226,-2.1419734954833984,-1.3340309870294114,-2.5281627813922327,6.112406241684713,1.0200937986373901,-2.7399852911578577
1708441256.960916,-2.141982078552246,-1.3340223294547577,-2.5281384626971644,6.11240171173171,1.020098328590393,-2.7399407068835657
1708441256.9628313,-2.1419408321380615,-1.3340385419181366,-2.5281501452075403,6.112407672196188,1.0201356410980225,-2.73983341852297
1708441256.9648767,-2.141982316970825,-1.3339400005391617,-2.5281057993518274,6.112395512848654,1.0200875997543335,-2.739866320286886
1708441256.966826,-2.142019033432007,-1.333994300370552,-2.528114620839254,6.112362730294027,1.0200668573379517,-2.7398090998279017
1708441256.9688318,-2.141970634460449,-1.33400613189254,-2.5281222502337855,6.112350809365072,1.0200304985046387,-2.7397988478290003
1708441256.970814,-2.141989231109619,-1.3340104979327698,-2.5280948320971888,6.112356412201681,1.0200141668319702,-2.7398017088519495
1708441256.972801,-2.1419241428375244,-1.3339899343303223,-2.528123203908102,6.112303244858541,1.0199931859970093,-2.739746634160177
1708441256.9748163,-2.1419496536254883,-1.3340342503837128,-2.528102699910299,6.112312066345968,1.0200275182724,-2.739758555089132
1708441256.9768019,-2.141986608505249,-1.3339453798583527,-2.5281036535846155,6.112287986069479,1.020043969154358,-2.739767614995138
1708441256.9788218,-2.141970634460449,-1.333977760081627,-2.5280991236316126,6.112217533379354,1.0200079679489136,-2.7397432963000696
1708441256.980817,-2.141975164413452,-1.3339615774205704,-2.528008762990133,6.112304317742147,1.0200079679489136,-2.7397194544421595
1708441256.9828093,-2.141990900039673,-1.3340223294547577,-2.528123203908102,6.112189280777731,1.019963026046753,-2.73970610300173
1708441256.984882,-2.141937255859375,-1.3339899343303223,-2.5280664602862757,6.112232553749838,1.0199675559997559,-2.739678684865133
1708441256.986843,-2.141979694366455,-1.3339820516160508,-2.5280750433551233,6.112179028778829,1.0199884176254272,-2.739704672490255
1708441256.9888873,-2.141932725906372,-1.3339985621026536,-2.5280054251300257,6.112192380219259,1.0199315547943115,-2.739678684865133
1708441256.9908435,-2.1419177055358887,-1.3340028536370774,-2.5280185381518763,6.112180459290304,1.0199027061462402,-2.739662233983175
1708441256.9928503,-2.141941547393799,-1.333941013818123,-2.5280349890338343,6.11214445808486,1.0198863744735718,-2.739654843007223
1708441256.9948742,-2.141900062561035,-1.3340309870294114,-2.5280423800097864,6.112095343857565,1.0198907852172852,-2.73965031305422
1708441256.9968596,-2.1419460773468018,-1.3339701306870957,-2.52806002298464,6.112113106041708,1.01987886428833,-2.7396050135241907
1708441256.99882,-2.1419503688812256,-1.333965854053833,-2.5280185381518763,6.112080085068502,1.0198547840118408,-2.7396424452411097
1708441257.0008206,-2.141934394836426,-1.333965854053833,-2.5280228296863,6.112060773163595,1.0198140144348145,-2.739659611378805
1708441257.0028734,-2.1418893337249756,-1.3339331311038514,-2.5280185381518763,6.112029182701864,1.0198261737823486,-2.739659372960226
1708441257.0048416,-2.1418850421905518,-1.3339813363603135,-2.5279749075519007,6.112003910332479,1.0197739601135254,-2.739645783101217
1708441257.0068347,-2.1419432163238525,-1.3339745265296479,-2.528010908757345,6.112008440285482,1.0197572708129883,-2.7396848837481897
1708441257.0088441,-2.1419177055358887,-1.3339985770038147,-2.527998749409811,6.1120009301002405,1.0197330713272095,-2.7396214644061487
1708441257.0108397,-2.1419432163238525,-1.3339735281518479,-2.527958695088522,6.111965167313375,1.0196881294250488,-2.7395721117602747
1708441257.0128145,-2.1418850421905518,-1.3339453500560303,-2.5280240217791956,6.1119247553642175,1.0196970701217651,-2.7396305243121546
1708441257.0148509,-2.1419010162353516,-1.3339786690524598,-2.5279868284808558,6.111891615181722,1.0196815729141235,-2.739663902913229
1708441257.0168147,-2.1419177055358887,-1.3339733940413971,-2.52793795267214,6.111913907318868,1.019686222076416,-2.739692274724142
1708441257.0188427,-2.1418910026550293,-1.3339417737773438,-2.5279105345355433,6.111913907318868,1.0197150707244873,-2.7396424452411097
1708441257.0208175,-2.141824245452881,-1.3339496415904541,-2.5279999415027063,6.1118860123451135,1.0196667909622192,-2.7396393457995813
1708441257.0228317,-2.141862392425537,-1.333965854053833,-2.5279386679278772,6.111845481186666,1.0196382999420166,-2.7396305243121546
1708441257.0248246,-2.1418824195861816,-1.3339096915772934,-2.527931038533346,6.111863481789388,1.019659399986267,-2.739633385335104
1708441257.0268614,-2.1418542861938477,-1.3339288991740723,-2.527926746998922,6.111826169281759,1.019593358039856,-2.7396050135241907
1708441257.028822,-2.141849994659424,-1.333937407737114,-2.5279060045825403,6.1117766974265955,1.0195484161376953,-2.7396376768695276
1708441257.0308528,-2.1418709754943848,-1.3339343231967469,-2.5279060045825403,6.1117721674735925,1.0196068286895752,-2.739662233983175
1708441257.0329142,-2.1418416500091553,-1.3339300912669678,-2.527902905141012,6.111724483757772,1.0195870399475098,-2.739663902913229
1708441257.0349307,-2.1418259143829346,-1.3339501929334183,-2.527907196675436,6.111778485565939,1.0195738077163696,-2.739663902913229
1708441257.0368524,-2.1418256759643555,-1.3339631122401734,-2.5279365221606653,6.1117215035255334,1.019520878791809,-2.739704672490255
1708441257.0388563,-2.1418259143829346,-1.333877058034279,-2.5278711954699915,6.111677872925558,1.019509196281433,-2.739671293889181
1708441257.0408912,-2.1418673992156982,-1.3338854324868699,-2.527846161519186,6.111682402878561,1.0194731950759888,-2.739662233983175
1708441257.042823,-2.1418135166168213,-1.3339149218848725,-2.5278876463519495,6.111682402878561,1.0195149183273315,-2.7397165934192103
1708441257.0448687,-2.1418886184692383,-1.3338897091201325,-2.5278833548175257,6.111613857537069,1.019482135772705,-2.739692274724142
1708441257.0468276,-2.141850471496582,-1.333873526459076,-2.527829710637228,6.11161087730483,1.019482135772705,-2.7397194544421595
1708441257.0488307,-2.1418347358703613,-1.3338375401547928,-2.5278921763049524,6.1116347191627405,1.0194487571716309,-2.7396777311908167
1708441257.0508182,-2.141822338104248,-1.3338669550469895,-2.5278385321246546,6.111573207169332,1.0194792747497559,-2.7397313753711146
1708441257.0528858,-2.141787052154541,-1.3338540506413956,-2.5278354326831263,6.111513602524557,1.0194339752197266,-2.7397013346301478
1708441257.0548897,-2.141761541366577,-1.3338375252536316,-2.5278309027301233,6.111533391266622,1.019417643547058,-2.739788595830099
1708441257.0568218,-2.141847848892212,-1.3338504147580643,-2.5278058687793177,6.111473190575399,1.0194220542907715,-2.739767614995138
1708441257.058848,-2.1418073177337646,-1.3338583272746583,-2.5278483072863978,6.111491071968832,1.0194025039672852,-2.739758555089132
1708441257.0608165,-2.141749143600464,-1.3338583421758194,-2.527823273335592,6.111491071968832,1.0193605422973633,-2.739840571080343
1708441257.062809,-2.14174485206604,-1.3338711273721238,-2.527782980595724,6.111437189369955,1.0193947553634644,-2.7398226896869105
1708441257.064814,-2.1417746543884277,-1.3337941479733963,-2.527815643941061,6.111397254257955,1.0193572044372559,-2.7398272196399134
1708441257.0668151,-2.141765832901001,-1.3338384491256257,-2.527774159108297,6.111410605698385,1.0193363428115845,-2.7399006525622767
1708441257.068815,-2.1417534351348877,-1.3338461977294465,-2.5277589003192347,6.111395466118612,1.01935875415802,-2.73989183107485
1708441257.0708153,-2.141782760620117,-1.3338097047856827,-2.5277677218066614,6.111386644631185,1.0193045139312744,-2.739899222050802
1708441257.0728216,-2.1417622566223145,-1.3338583719781418,-2.527745787297384,6.111320721894064,1.0193135738372803,-2.7399190107928675
1708441257.0748022,-2.1417341232299805,-1.3337856245091935,-2.5277589003192347,6.111239897995748,1.0193469524383545,-2.7399237791644495
1708441257.0768151,-2.141779899597168,-1.333809719686844,-2.5277720133410853,6.111261117249288,1.0192477703094482,-2.7399852911578577
1708441257.0788245,-2.141742706298828,-1.3338097643903275,-2.527788225804464,6.111259448319235,1.0192972421646118,-2.739971701298849
1708441257.080801,-2.1417596340179443,-1.3338555854609986,-2.527672831212179,6.111248957901754,1.0192686319351196,-2.7399655024157923
1708441257.082799,-2.141685724258423,-1.3338022244027634,-2.527792517338888,6.11123405674056,1.019261121749878,-2.7400243918048304
1708441257.0848103,-2.1417126655578613,-1.3338312071612854,-2.5277393499957483,6.1111745713050745,1.0192447900772095,-2.7400227228747767
1708441257.086819,-2.1417770385742188,-1.3338183772614975,-2.5276814142810267,6.111199843674459,1.0192700624465942,-2.7400749365436
1708441257.0888362,-2.1417348384857178,-1.333794118171074,-2.5277305285083216,6.1111594317253015,1.019277572631836,-2.740091387425558
1708441257.0908518,-2.141707420349121,-1.3337779355100174,-2.527710024510519,6.111156451493063,1.0193032026290894,-2.740120236073629
1708441257.0928702,-2.14168643951416,-1.3338236075690766,-2.5277732054339808,6.111071216851034,1.019192099571228,-2.7401939074145716
1708441257.094837,-2.141653537750244,-1.3337813925794144,-2.5277062098132532,6.111071216851034,1.0192294120788574,-2.7401965300189417
1708441257.096812,-2.141674041748047,-1.333770365720131,-2.527670685444967,6.111063825875082,1.0192055702209473,-2.7401955763446253
1708441257.098818,-2.1417040824890137,-1.3337865483811875,-2.5277238527881067,6.111014234810629,1.019196629524231,-2.7402685324298304
1708441257.1008327,-2.1417040824890137,-1.3337908250144501,-2.527670685444967,6.111036646157064,1.0192099809646606,-2.740312401448385
1708441257.1029124,-2.1416711807250977,-1.3337865781835099,-2.527686897908346,6.110973703652181,1.019202709197998,-2.740349594746725
1708441257.1048577,-2.1416871547698975,-1.3338278544000168,-2.52769118944277,6.1109503386314294,1.0191892385482788,-2.740347925816671
1708441257.1068075,-2.14162015914917,-1.3337541681579133,-2.5276511351214808,6.110993373184957,1.0192099809646606,-2.7403371969806116
1708441257.108824,-2.1416263580322266,-1.3337703806212922,-2.5276673475848597,6.110953080445089,1.019181489944458,-2.740441385899679
1708441257.1108217,-2.141606092453003,-1.3337505769780655,-2.527613941823141,6.110929238587179,1.0191484689712524,-2.7404280344592493
1708441257.1128125,-2.1415936946868896,-1.3337257218411942,-2.527654234563009,6.110859143524923,1.0191618204116821,-2.7405179182635706
1708441257.1148453,-2.1416103839874268,-1.3337951016477128,-2.5276718775378626,6.110900628357687,1.0191287994384766,-2.740502897893087
1708441257.116809,-2.1416025161743164,-1.3337713789990921,-2.5276718775378626,6.110927450447836,1.0191618204116821,-2.740552012120382
1708441257.1188233,-2.1415610313415527,-1.3337138009122391,-2.5276597181903284,6.110873806267538,1.0191377401351929,-2.740586821232931
1708441257.1208405,-2.1416068077087402,-1.3337875616601487,-2.527597490941183,6.110779630928793,1.0191333293914795,-2.7406864801989954
1708441257.1228344,-2.1415247917175293,-1.3337514859488984,-2.5276270548449915,6.11080943325118,1.0191377401351929,-2.740699593220846
1708441257.1248114,-2.1415088176727295,-1.3337376427701493,-2.5276182333575647,6.110724317818441,1.0191094875335693,-2.7407942453967493
1708441257.1268194,-2.141566038131714,-1.3336858016303559,-2.5276642481433313,6.110724198609152,1.0191094875335693,-2.7408457438098353
1708441257.1288216,-2.1415669918060303,-1.333754838710167,-2.5276313463794153,6.110721337586202,1.0190761089324951,-2.7408648172961634
1708441257.1308203,-2.1414973735809326,-1.3337353330901642,-2.5275943914996546,6.110716926842489,1.0190807580947876,-2.7409125010119837
1708441257.1328526,-2.1415061950683594,-1.3337224435857316,-2.5276313463794153,6.110648023873129,1.0191185474395752,-2.741014544163839
1708441257.1348963,-2.1415185928344727,-1.3336943548968812,-2.5275865236865442,6.110603320389547,1.0191104412078857,-2.741020981465475
1708441257.136864,-2.1415317058563232,-1.3337343645146866,-2.5276148954974573,6.110606419831075,1.0190479755401611,-2.7410720030414026
1708441257.1388767,-2.1414787769317627,-1.3336695593646546,-2.5276063124286097,6.110585200577535,1.0190776586532593,-2.741152826939718
1708441257.1408772,-2.1414663791656494,-1.3337353032878418,-2.5276313463794153,6.110533106118002,1.0190658569335938,-2.7411931196795862
1708441257.1429682,-2.1415164470672607,-1.3337105077556153,-2.527619187031881,6.110521304398336,1.0190328359603882,-2.7412412802325647
1708441257.1449385,-2.141507863998413,-1.3337556731751938,-2.527583424245016,6.110503065377035,1.0190658569335938,-2.74131423631777
1708441257.1469462,-2.141505002975464,-1.3337029230645676,-2.5275495688067835,6.11047779300765,1.0190658569335938,-2.741361443196432
1708441257.1488771,-2.1414144039154053,-1.3336909723332901,-2.5275865236865442,6.110479342728414,1.0190569162368774,-2.7413724104510706
1708441257.1508362,-2.1414055824279785,-1.3336986017278214,-2.5276041666613978,6.110462534218588,1.0190283060073853,-2.7414127031909388
1708441257.1528306,-2.1414310932159424,-1.3337158274701615,-2.5276203791247767,6.110398518830099,1.0190613269805908,-2.7415085474597376
1708441257.1548843,-2.1414644718170166,-1.3337105226567765,-2.527545992528097,6.110407459526815,1.0189920663833618,-2.741582695637838
1708441257.1570299,-2.141448736190796,-1.3337190759233017,-2.527529780064718,6.1103625176246545,1.019004225730896,-2.7415929476367396
1708441257.1589267,-2.141390562057495,-1.3336704832366486,-2.527534310017721,6.110280620842733,1.0190131664276123,-2.741718832646505
1708441257.1608546,-2.1414194107055664,-1.3336497259191056,-2.527607266102926,6.110305893212118,1.0189801454544067,-2.741757933293478
1708441257.1628432,-2.1414036750793457,-1.3336747896722336,-2.527529780064718,6.110302912979879,1.0189964771270752,-2.7418223063098353
1708441257.1648393,-2.1414284706115723,-1.333711416726448,-2.5275922457324427,6.110286581307211,1.0189636945724487,-2.741873327885763
1708441257.16682,-2.1414170265197754,-1.333702878361084,-2.5275548140155237,6.110218989640035,1.019004225730896,-2.7419336477862757
1708441257.1688414,-2.1414194107055664,-1.3336268377355118,-2.5275755564319056,6.110223400383749,1.018989086151123,-2.7420480887042444
1708441257.1708472,-2.141383171081543,-1.333767683511116,-2.527538601552145,6.110186445503988,1.0189862251281738,-2.742032829915182
1708441257.1728177,-2.141383171081543,-1.3336995554021378,-2.5275428930865687,6.110154974251547,1.0189608335494995,-2.7421467939959925
1708441257.1748383,-2.1413745880126953,-1.3336668771556397,-2.527505938206808,6.110093462258138,1.0189608335494995,-2.742168966923849
1708441257.1768103,-2.1413393020629883,-1.3336754155210038,-2.5275266806231897,6.110090601235189,1.018965244293213,-2.7421751658069056
1708441257.178841,-2.1413393020629883,-1.3336747896722336,-2.527527634297506,6.110069739609518,1.018965244293213,-2.742277208958761
1708441257.1808221,-2.1413393020629883,-1.3337201190045853,-2.5275352636920374,6.110075700073995,1.0189200639724731,-2.7423580328570765
1708441257.1831439,-2.1413848400115967,-1.333653987651207,-2.5275397936450403,6.1100560305412195,1.0189365148544312,-2.742378060017721
1708441257.1848676,-2.141319751739502,-1.3336711388877411,-2.5275028387652796,6.109994637757101,1.0189274549484253,-2.7424450556384485
1708441257.186824,-2.141324281692505,-1.3336711686900635,-2.52747351328005,6.109975683480062,1.0189290046691895,-2.7425010840045374
1708441257.1888433,-2.1413073539733887,-1.33366251111541,-2.5275560061084192,6.11000810840682,1.0189409255981445,-2.7425368467914026
1708441257.190839,-2.1413073539733887,-1.3336754155210038,-2.5275233427630823,6.109935152321615,1.0189318656921387,-2.742617909108297
1708441257.1928291,-2.141299247741699,-1.3336225611022492,-2.527527634297506,6.109976875572958,1.0189409255981445,-2.7426615397082728
1708441257.1948695,-2.1412835121154785,-1.3336421114257355,-2.5274820963488978,6.109902131348409,1.0188840627670288,-2.742668930684225
1708441257.1968455,-2.1412835121154785,-1.3336592477611084,-2.527527634297506,6.109953152924337,1.0189663171768188,-2.7427905241595667
1708441257.1988692,-2.1412763595581055,-1.3336962473443528,-2.52751595178713,6.109855878144064,1.0189005136489868,-2.742809836064474
1708441257.2009716,-2.1412553787231445,-1.3336507093957444,-2.5274997393237513,6.109876739769735,1.018907904624939,-2.7428537050830286
1708441257.2028878,-2.1412270069122314,-1.3336668622544785,-2.5274739901172083,6.109832155495443,1.0189168453216553,-2.7429309527026575
1708441257.204852,-2.1412243843078613,-1.3336059910110016,-2.527482811604635,6.1098365662391565,1.0189379453659058,-2.743006769810812
1708441257.2068233,-2.1412200927734375,-1.3336430352977295,-2.527478281651632,6.109776484757223,1.0189005136489868,-2.7430666128741663
1708441257.2088416,-2.141197681427002,-1.3336840283921738,-2.527482811604635,6.109792816429891,1.0189049243927002,-2.7430949846850794
1708441257.2108307,-2.141197681427002,-1.3335901957801362,-2.5274577776538294,6.109773862152853,1.0189183950424194,-2.7431677023517054
1708441257.2128115,-2.1412110328674316,-1.3336103570512314,-2.5274632612811487,6.109789836197653,1.0189335346221924,-2.7431541124926966
1708441257.2148397,-2.141167640686035,-1.3336231422475358,-2.527454678212301,6.109761941223898,1.0188796520233154,-2.7432215849505823
1708441257.2168145,-2.141166925430298,-1.3336115342429657,-2.5274997393237513,6.109728801041403,1.0188766717910767,-2.743340078984396
1708441257.2188365,-2.141179323196411,-1.3336072874120255,-2.527475182210104,6.109714019089498,1.0188841819763184,-2.743300978337423
1708441257.2208211,-2.141172170639038,-1.3336355102113266,-2.52747089067568,6.109660017281332,1.0188677310943604,-2.7433798948871058
1708441257.2228117,-2.1410908699035645,-1.3336189550212403,-2.5274632612811487,6.109706151276388,1.0188841819763184,-2.743389908467428
1708441257.2248242,-2.1411094665527344,-1.3335421991399308,-2.527475182210104,6.10959147193984,1.0189005136489868,-2.74349028268923
1708441257.226804,-2.1411404609680176,-1.3335507226041337,-2.5274620691882532,6.109600412636556,1.0188766717910767,-2.743469301854269
1708441257.22883,-2.141127109527588,-1.3335920733264466,-2.527482811604635,6.109634744911947,1.0188857316970825,-2.743521515523092
1708441257.23083,-2.1410927772521973,-1.3335953515819092,-2.527482811604635,6.10953580120162,1.0188766717910767,-2.7436404863940638
1708441257.2328358,-2.141101598739624,-1.3335636270097275,-2.527466599141256,6.109564411431112,1.0188432931900024,-2.7436886469470423
1708441257.234917,-2.141045093536377,-1.3335712564042588,-2.527487103139059,6.109594332962789,1.0188523530960083,-2.7436540762530726
1708441257.2368598,-2.141002655029297,-1.33357226968322,-2.527487103139059,6.109501588135519,1.0188523530960083,-2.74367338815798
1708441257.2388518,-2.141036033630371,-1.3335910749486466,-2.527454678212301,6.109443056374349,1.01888108253479,-2.743747059498922
1708441257.2408943,-2.141005277633667,-1.33357127130542,-2.527487103139059,6.109482276230612,1.0188820362091064,-2.743845049534933
1708441257.242864,-2.1409480571746826,-1.333559350376465,-2.527487103139059,6.109379040985861,1.018890142440796,-2.7438765207873743
1708441257.2448769,-2.140899181365967,-1.3335223507932206,-2.527482811604635,6.109446155815878,1.0188313722610474,-2.7438820044146937
1708441257.2468424,-2.1409363746643066,-1.3335464757731934,-2.5274794737445276,6.109422433167257,1.0188945531845093,-2.743985716496603
1708441257.2488623,-2.1409213542938232,-1.3335791391185303,-2.527466599141256,6.1093400595481775,1.0188730955123901,-2.7440336386310022
1708441257.2508411,-2.1408276557922363,-1.3336274486831208,-2.527487103139059,6.109315979271688,1.0188404321670532,-2.7440276781665247
1708441257.2528558,-2.1408321857452393,-1.3336115193418046,-2.5274415651904505,6.109260904579916,1.0188567638397217,-2.7441049257861536
1708441257.2549033,-2.1408417224884033,-1.3335583370975037,-2.5275126139270228,6.109233844071188,1.0188857316970825,-2.744093958531515
1708441257.2568467,-2.140789031982422,-1.3335749071887513,-2.52747089067568,6.109175669937887,1.0188360214233398,-2.744146172200338
1708441257.258853,-2.140714645385742,-1.3336115193418046,-2.5274785200702112,6.109165298729696,1.0188857316970825,-2.7441700140582483
1708441257.260821,-2.140676259994507,-1.333655835395195,-2.5274909178363245,6.10914562919692,1.0188567638397217,-2.74428898492922
1708441257.2628176,-2.140713691711426,-1.3336146038821717,-2.527487103139059,6.109096514969625,1.0188686847686768,-2.7442873159991663
1708441257.2648354,-2.1406123638153076,-1.3336145740798493,-2.5274952093707483,6.109160649567404,1.0189064741134644,-2.7443116346942347
1708441257.2668378,-2.1405718326568604,-1.3336840283921738,-2.5275114218341272,6.109054553299703,1.0188523530960083,-2.744298044835226
1708441257.2688806,-2.140556573867798,-1.3335944724133988,-2.52751595178713,6.109005319863119,1.0189138650894165,-2.7444165388690394
1708441257.2708304,-2.1404507160186768,-1.3336344820312043,-2.5274739901172083,6.108970868378439,1.0188640356063843,-2.7444520632373255
1708441257.2728324,-2.1404690742492676,-1.3336754155210038,-2.5274577776538294,6.108942615776815,1.0189049243927002,-2.744467560444967
1708441257.274855,-2.1403968334198,-1.3336258840611954,-2.5275679270373743,6.108882772713461,1.0189138650894165,-2.7444749514209192
1708441257.2768276,-2.1403844356536865,-1.3336790365031739,-2.5275147596942347,6.108830678253927,1.018902063369751,-2.744542900715963
1708441257.278855,-2.140324354171753,-1.333771900539734,-2.527572218571798,6.108754026680746,1.0189005136489868,-2.7445741335498255
1708441257.2808163,-2.140216112136841,-1.33370195448909,-2.527566973363058,6.10869454124526,1.0189379453659058,-2.7446568647967737
1708441257.2828126,-2.140188217163086,-1.333730013375618,-2.5275548140155237,6.10863887050704,1.0189290046691895,-2.7445979754077356
1708441257.2848444,-2.1400842666625977,-1.3338156205466767,-2.527611796055929,6.108550655632772,1.0189290046691895,-2.7447615305529993
1708441257.286827,-2.1400909423828125,-1.3337328743985672,-2.527607504521505,6.108507621079244,1.0189906358718872,-2.7447436491595667
1708441257.2888565,-2.1399571895599365,-1.333835483794548,-2.5276432673083704,6.108412015229025,1.0190143585205078,-2.744775358830587
1708441257.2908518,-2.139922618865967,-1.3338427257588883,-2.5276880900012415,6.108316051750936,1.0190294981002808,-2.74477988878359
1708441257.2928483,-2.1398227214813232,-1.3338659864715119,-2.527674976979391,6.108244645386495,1.0190702676773071,-2.7448654810534876
1708441257.2948856,-2.1397414207458496,-1.333886445765831,-2.527710739766256,6.108165371208944,1.019073247909546,-2.744908396397726
1708441257.296879,-2.1396617889404297,-1.3339062494090577,-2.5277589003192347,6.108093249588766,1.0191185474395752,-2.7449119726764124
1708441257.2988575,-2.139524221420288,-1.333914877181389,-2.5277872721301478,6.107981431275167,1.0190924406051636,-2.744901243840353
1708441257.3008509,-2.1395039558410645,-1.3339019578746338,-2.5277589003192347,6.107872235565939,1.0191094875335693,-2.7450173536883753
1708441257.30288,-2.139394521713257,-1.3339459610036393,-2.5278244654284876,6.107748019486227,1.0191916227340698,-2.7450531164752405
1708441257.3048866,-2.1392953395843506,-1.334023417239525,-2.5278757254229944,6.107755648880758,1.0191904306411743,-2.745079580937521
1708441257.306898,-2.139167308807373,-1.3340299290469666,-2.5278952757464808,6.107586729317465,1.0192099809646606,-2.7450786272632044
1708441257.3088338,-2.139035940170288,-1.3340256971171875,-2.5278824011432093,6.10742078998641,1.0192745923995972,-2.7451189200030726
1708441257.3108444,-2.1389269828796387,-1.3340741258910676,-2.52798039117922,6.107280361443319,1.0192656517028809,-2.745171133671896
1708441257.3128233,-2.138807773590088,-1.3340982657722016,-2.5279954115497034,6.107205498009481,1.0193347930908203,-2.7451773325549524
1708441257.3148823,-2.1387133598327637,-1.3340367537787934,-2.5280118624316614,6.107153165131368,1.0193424224853516,-2.745267931615011
1708441257.3168306,-2.1385815143585205,-1.3341420155814667,-2.52806002298464,6.106984245568075,1.0193991661071777,-2.7452827135669153
1708441257.3188329,-2.1384174823760986,-1.334100828771927,-2.5280633608447474,6.106833445816793,1.0194519758224487,-2.745352808629171
1708441257.3208349,-2.1382040977478027,-1.3341251027635117,-2.528074089680807,6.106646644860067,1.0195239782333374,-2.745364014302389
1708441257.3228617,-2.138036012649536,-1.3341888350299378,-2.5281384626971644,6.1064761755760095,1.0195708274841309,-2.745439592991964
1708441257.3248296,-2.1378650665283203,-1.334241808657982,-2.528186623250143,6.106353747635641,1.0196443796157837,-2.745497767125265
1708441257.326829,-2.1377222537994385,-1.3342852157405396,-2.528287951146261,6.106141316681661,1.0197120904922485,-2.745528523121969
1708441257.3288367,-2.1375222206115723,-1.334340826874115,-2.528332535420553,6.105962979584493,1.0197854042053223,-2.7455197016345423
1708441257.3308618,-2.137350559234619,-1.334316150551178,-2.528346840535299,6.105803596764364,1.0198396444320679,-2.7456215063678187
1708441257.3328373,-2.1371798515319824,-1.334396855240204,-2.528461281453268,6.105652320175924,1.0198547840118408,-2.7456725279437464
1708441257.3349195,-2.1369149684906006,-1.3344656240991135,-2.5284512678729456,6.105454194336691,1.0199731588363647,-2.745704237614767
1708441257.3368943,-2.1366920471191406,-1.3345328134349366,-2.5285802523242396,6.1052132723625085,1.0200034379959106,-2.7457028071032923
1708441257.338966,-2.1364641189575195,-1.334467114215233,-2.528607432042257,6.104954468994894,1.0201369524002075,-2.7458017508136194
1708441257.340907,-2.136259078979492,-1.3345399659923096,-2.5287163893329065,6.104715096741476,1.0202093124389648,-2.7458229700671595
1708441257.342957,-2.135958433151245,-1.33461149156604,-2.5287678877459925,6.104492175370016,1.020317554473877,-2.7458959261523646
1708441257.3449585,-2.1357293128967285,-1.3346678477576752,-2.5288308302508753,6.104220616608419,1.0204344987869263,-2.745930258427755
1708441257.3469768,-2.1354706287384033,-1.3347070974162598,-2.529001061116354,6.10394440868453,1.0205519199371338,-2.745983902608053
1708441257.3488908,-2.1352028846740723,-1.3347713959268113,-2.529031817113058,6.103690135269918,1.0206060409545898,-2.7460525671588343
1708441257.3509316,-2.1349565982818604,-1.3348436665586014,-2.5290995279895228,6.103417503624716,1.0207849740982056,-2.746117178593771
1708441257.3528874,-2.1346609592437744,-1.334895910029747,-2.5292323271380823,6.1031343815620325,1.0208629369735718,-2.7462106386767786
1708441257.354882,-2.134350538253784,-1.3349147152951737,-2.529377285634176,6.10282455661849,1.021020770072937,-2.746286932622091
1708441257.3569498,-2.1340129375457764,-1.3350391250899811,-2.5294438044177454,6.102478849678793,1.0211366415023804,-2.7463212648974817
1708441257.358912,-2.133694887161255,-1.3350866299918671,-2.5296366850482386,6.102205502777853,1.021255612373352,-2.7464104334460657
1708441257.360843,-2.133453369140625,-1.3351991486600419,-2.52971321741213,6.101889955788412,1.0214039087295532,-2.7464731375323694
1708441257.3628333,-2.1330554485321045,-1.3352586042932053,-2.529860321675436,6.10150574424819,1.0215771198272705,-2.746549669896261
1708441257.3648152,-2.1327576637268066,-1.3352659207633515,-2.529898707066671,6.101142394333639,1.021721363067627,-2.746596161519186
1708441257.3668094,-2.1323349475860596,-1.3353656393340607,-2.53005558649172,6.1007999060447595,1.0218443870544434,-2.7467387358294886
1708441257.3688147,-2.1320292949676514,-1.3354450923255463,-2.530228916798727,6.100436556130209,1.0220396518707275,-2.746753756199972
1708441257.3708098,-2.1316897869110107,-1.3355367195657273,-2.530377451573507,6.100007760315695,1.022194743156433,-2.746857229863302
1708441257.372825,-2.1312549114227295,-1.3356374514153977,-2.5305092970477503,6.099728572159567,1.0223510265350342,-2.7470040957080286
1708441257.3748314,-2.130868673324585,-1.335736484532692,-2.530579392110006,6.099277007370748,1.022536039352417,-2.7470415274249476
1708441257.3768153,-2.1304895877838135,-1.3357997846654435,-2.530785624180929,6.098901736527242,1.02266526222229,-2.7471335569964808
1708441257.378812,-2.1300048828125,-1.3359199625304718,-2.5309370199786585,6.098458039551534,1.022901177406311,-2.747274700795309
1708441257.3808262,-2.1296355724334717,-1.3360232275775452,-2.531027380620138,6.098146903305807,1.0230814218521118,-2.7473681608783167
1708441257.3828273,-2.129133701324463,-1.3361026507667084,-2.531212870274679,6.097666847496786,1.023195505142212,-2.7474594751941126
1708441257.3848143,-2.128713369369507,-1.3361704361489792,-2.531405750905172,6.097248422890463,1.0234299898147583,-2.747551504765646
1708441257.3868353,-2.1282317638397217,-1.3363956075957795,-2.5315662066089075,6.096706139832296,1.0236130952835083,-2.7476916948901575
1708441257.3888252,-2.1277527809143066,-1.336466522221901,-2.531728808079855,6.09635208824233,1.0238686800003052,-2.74778396288027
1708441257.3908956,-2.127263069152832,-1.3365896803191681,-2.531893555318014,6.095864403038778,1.024059534072876,-2.747920099888937
1708441257.392856,-2.126755952835083,-1.3366775971702118,-2.5320473353015345,6.095339286118307,1.0242849588394165,-2.748040501271383
1708441257.3948975,-2.126286029815674,-1.3367605668357392,-2.5322228113757532,6.094850647240438,1.0244848728179932,-2.7481799761401575
1708441257.3968573,-2.12575101852417,-1.3368921440890809,-2.5324443022357386,6.094393479615011,1.0247042179107666,-2.74831206003298
1708441257.3989296,-2.1251912117004395,-1.3369961839965363,-2.532689634953634,6.093853699951925,1.0249656438827515,-2.7484434286700647
1708441257.4008946,-2.124687910079956,-1.337123618727066,-2.532877031956808,6.093306529312887,1.0251566171646118,-2.748596970235006
1708441257.4028428,-2.1240954399108887,-1.3372590851834794,-2.5330570379840296,6.092759597092428,1.025368571281433,-2.7487342993365687
1708441257.404839,-2.123566150665283,-1.337386966948845,-2.533280674611227,6.092280137329855,1.025651216506958,-2.7488895098315638
1708441257.4068754,-2.1229591369628906,-1.3375716221383591,-2.5334604422198694,6.091597902565756,1.0259140729904175,-2.7490325609790247
1708441257.4088583,-2.1224005222320557,-1.3376625192216416,-2.5336840788470667,6.091070759087362,1.0262162685394287,-2.7492290178882044
1708441257.4108415,-2.1218514442443848,-1.337835968737938,-2.533883873616354,6.090529429703512,1.0264732837677002,-2.749430481587545
1708441257.4128163,-2.1212198734283447,-1.337979183798172,-2.5341041723834437,6.089994656830587,1.0267659425735474,-2.749577347432272
1708441257.4148324,-2.12062931060791,-1.3380901378444214,-2.5343807379352015,6.08933042266921,1.0270472764968872,-2.7497947851764124
1708441257.4168327,-2.120018243789673,-1.3382333529046555,-2.534579579030172,6.088835465698995,1.0272833108901978,-2.7499869505511683
1708441257.4188244,-2.1194283962249756,-1.3383811873248597,-2.5348249117480677,6.088220107346334,1.02750563621521,-2.75015098253359
1708441257.4208565,-2.118805170059204,-1.3385204088738938,-2.5350738207446497,6.087535249977865,1.0277867317199707,-2.7503283659564417
1708441257.4228277,-2.11818265914917,-1.3386347454837342,-2.535292927418844,6.086946356087484,1.0280733108520508,-2.7505443731891077
1708441257.4248295,-2.1175272464752197,-1.3388193857720871,-2.5354750792132776,6.086341368943014,1.0283863544464111,-2.750691000615255
1708441257.4268239,-2.11689829826355,-1.3390278232148667,-2.5357683340655726,6.085747825890341,1.0286827087402344,-2.750845734273092
1708441257.42882,-2.116217851638794,-1.3391378831914444,-2.535980288182394,6.085138070374288,1.0289422273635864,-2.7510996500598353
1708441257.4309063,-2.115551233291626,-1.3392651689103623,-2.5362570921527308,6.084455835610189,1.029266119003296,-2.7512829939471644
1708441257.432867,-2.114844560623169,-1.3394650232842942,-2.5364554564105433,6.083878624230184,1.0295706987380981,-2.751549784337179
1708441257.4349084,-2.1141343116760254,-1.3396529418281098,-2.5366910139666956,6.083126890450277,1.0298670530319214,-2.7517691294299524
1708441257.4368975,-2.1134345531463623,-1.3397672039321442,-2.536963764821188,6.082530367165365,1.0301709175109863,-2.7519968191729944
1708441257.4388244,-2.112745761871338,-1.3399346482804795,-2.537252728139059,6.081919896393575,1.0305086374282837,-2.752171818410055
1708441257.4409013,-2.1121113300323486,-1.3401551258615036,-2.5374541918383997,6.081257569580831,1.0308082103729248,-2.752436939870016
1708441257.4428923,-2.111361026763916,-1.3402488243630906,-2.5377641359912317,6.080582845001974,1.0311412811279297,-2.7526984850512903
1708441257.4448898,-2.1105899810791016,-1.3404533577016373,-2.538053337727682,6.0799386380012415,1.0314377546310425,-2.7529504934894007
1708441257.4468732,-2.1099534034729004,-1.3407139492085953,-2.5383203665362757,6.079227196961202,1.031802773475647,-2.753214661275045
1708441257.4488335,-2.1091692447662354,-1.3408685338548203,-2.538579765950338,6.078611004143514,1.0321646928787231,-2.7534378210650843
1708441257.4508505,-2.108447551727295,-1.3409990233233948,-2.538855854664938,6.077937233238973,1.032483696937561,-2.753751818333761
1708441257.452858,-2.107724905014038,-1.3412499290755768,-2.5391109625445765,6.077235090523519,1.032821536064148,-2.753991190587179
1708441257.45489,-2.1069955825805664,-1.3415109527162095,-2.539387051259176,6.076585519104757,1.0331424474716187,-2.7542882601367396
1708441257.4568603,-2.106208562850952,-1.3415958893350144,-2.5396586100207728,6.075823652535238,1.0334503650665283,-2.754517380391256
1708441257.458818,-2.1054584980010986,-1.341865138416626,-2.539971415196554,6.075127708702841,1.0337469577789307,-2.754887644444601
1708441257.4608154,-2.104665994644165,-1.3420653951219101,-2.5403009096728724,6.074405181198873,1.0341490507125854,-2.7551191488849085
1708441257.4628067,-2.1038777828216553,-1.3422273409417649,-2.5405429045306605,6.073711740761556,1.0345054864883423,-2.7554033438311976
1708441257.4648497,-2.103128433227539,-1.3424510222724457,-2.5408104101764124,6.073075520783224,1.0348584651947021,-2.7557459513293665
1708441257.4668362,-2.1023175716400146,-1.342702404861786,-2.5411394278155726,6.072255718498983,1.0352267026901245,-2.756057325993673
1708441257.468863,-2.1015100479125977,-1.342930720453598,-2.5414438883410853,6.071477997093954,1.0356173515319824,-2.7563369909869593
1708441257.4708853,-2.100651502609253,-1.3431251359036942,-2.541711155568258,6.0708186505134485,1.0359692573547363,-2.7566803137408655
1708441257.4728374,-2.099862575531006,-1.343340427880623,-2.5420668760882776,6.070113050728597,1.0363043546676636,-2.757031027470724
1708441257.4748368,-2.0990755558013916,-1.3435557198575516,-2.5423393885241907,6.0693551180656335,1.0367023944854736,-2.757425133381979
1708441257.4768286,-2.098299264907837,-1.343754456644394,-2.5426469484912317,6.068645226746359,1.0370142459869385,-2.7577112356769007
1708441257.4788458,-2.0974600315093994,-1.3440228563598176,-2.542988125477926,6.067916738777914,1.037358045578003,-2.7581055800067347
1708441257.4808164,-2.096622943878174,-1.3442208927920838,-2.543267552052633,6.067228424340048,1.0377534627914429,-2.7584808508502405
1708441257.4828131,-2.0957677364349365,-1.3444524121335526,-2.543583695088522,6.066475021630087,1.0381131172180176,-2.758857552205221
1708441257.4848387,-2.094909906387329,-1.3447521787932892,-2.543899122868673,6.065668809204855,1.0385260581970215,-2.759165112172262
1708441257.4868314,-2.094019651412964,-1.344958947306015,-2.5441954771624964,6.0649887202079675,1.0388823747634888,-2.759583059941427
1708441257.488912,-2.0932111740112305,-1.3451774281314393,-2.5445130507098597,6.064173567086019,1.0392621755599976,-2.7599547545062464
1708441257.4909186,-2.0923445224761963,-1.3453687888434906,-2.5448272863971155,6.0635061142738245,1.0396065711975098,-2.760336224232809
1708441257.4928381,-2.0914671421051025,-1.3456522536328812,-2.5451183954821985,6.062778937607565,1.0400168895721436,-2.7606797854052942
1708441257.4948947,-2.0906174182891846,-1.3458961707404633,-2.5454543272601526,6.0620261309440515,1.0404229164123535,-2.7610796133624476
1708441257.4968498,-2.089716672897339,-1.3461502951434632,-2.5457783381091517,6.061281072884359,1.0408029556274414,-2.7615628878222864
1708441257.498893,-2.088810682296753,-1.3463893693736573,-2.5461674372302454,6.060446965485372,1.0411845445632935,-2.7619169394122522
1708441257.50086,-2.0879063606262207,-1.3466967952302475,-2.5465078989612024,6.059662449150839,1.0415844917297363,-2.7623325029956263
1708441257.502856,-2.0869951248168945,-1.3469152760556717,-2.546868626271383,6.05888460853652,1.041933298110962,-2.762777630482809
1708441257.5048702,-2.0860769748687744,-1.347195179467537,-2.5471470991717737,6.058145868569174,1.0423011779785156,-2.7631657759295862
1708441257.5068636,-2.0852091312408447,-1.3474504065564652,-2.5475152174579065,6.05728696563796,1.0426214933395386,-2.7636054197894495
1708441257.5088482,-2.0842859745025635,-1.3476886612227936,-2.5478385130511683,6.056594836502828,1.0429660081863403,-2.7640541235553187
1708441257.510855,-2.0833654403686523,-1.3479765963605423,-2.548162285481588,6.0557691929634,1.0433056354522705,-2.764458243046896
1708441257.5128484,-2.0824501514434814,-1.3482231211713334,-2.548547093068258,6.054992544441976,1.0437321662902832,-2.7648618857013147
1708441257.5148544,-2.0814995765686035,-1.3485104602626343,-2.548904005681173,6.054171073227682,1.0441243648529053,-2.7653473059283655
1708441257.516826,-2.080538272857666,-1.3488211196712037,-2.5491655508624476,6.053421842842855,1.044513463973999,-2.7658289114581507
1708441257.5188394,-2.0795559883117676,-1.3491418224624177,-2.549525562916891,6.052584397583761,1.0449316501617432,-2.7663047949420374
1708441257.5208468,-2.0786924362182617,-1.3493714344552536,-2.549885098134176,6.051757204323568,1.0452333688735962,-2.7666950861560267
1708441257.5228605,-2.0777032375335693,-1.3496951025775452,-2.550279204045431,6.050946104317465,1.0455703735351562,-2.767176930104391
1708441257.5248284,-2.076775312423706,-1.3499499720386048,-2.550537649785177,6.050106274872579,1.045975685119629,-2.7676778475390833
1708441257.5268188,-2.075807809829712,-1.3502570551684876,-2.550861422215597,6.049321758538046,1.0463083982467651,-2.7681296507464808
1708441257.528834,-2.074882745742798,-1.350527049308159,-2.551229778920309,6.048578727036276,1.046694278717041,-2.7686343828784388
1708441257.5308335,-2.073862075805664,-1.3508669298938294,-2.5515287558185022,6.047788846283712,1.0470715761184692,-2.769090716038839
1708441257.532813,-2.0729482173919678,-1.351126031284668,-2.5518768469439905,6.0469915745551965,1.0474023818969727,-2.7695751825915735
1708441257.5348954,-2.0719594955444336,-1.351447494035103,-2.5522289911853235,6.046254503517904,1.0477584600448608,-2.770043436680929
1708441257.5368705,-2.0710628032684326,-1.3518205297044297,-2.5526021162616175,6.045406567841329,1.0481570959091187,-2.770527187977926
1708441257.5388956,-2.0700109004974365,-1.3520694088986893,-2.5529587904559534,6.044564354210653,1.0484813451766968,-2.771069351826803
1708441257.5409064,-2.0690860748291016,-1.3523803067258378,-2.553269688283102,6.043768274575033,1.0487879514694214,-2.77151328722109
1708441257.5429282,-2.0680766105651855,-1.3526987743428727,-2.5535922686206263,6.042920338898458,1.0491769313812256,-2.7720463911639612
1708441257.5448966,-2.067037343978882,-1.3530023109963913,-2.5538798014270228,6.042052614479818,1.0495754480361938,-2.772493902836935
1708441257.546931,-2.0660970211029053,-1.3533174109509964,-2.554256264363424,6.041272985726156,1.0499330759048462,-2.7729859987842005
1708441257.5488434,-2.0651562213897705,-1.3536964517882843,-2.5545838514911097,6.04048370102004,1.050210952758789,-2.773465935383932
1708441257.5508637,-2.0641655921936035,-1.3540441405824204,-2.5548840204821985,6.03972219207839,1.0505280494689941,-2.7739179770099085
1708441257.552834,-2.0631744861602783,-1.3543055367520829,-2.555195395146505,6.038802134781637,1.0509008169174194,-2.774480644856588
1708441257.5548728,-2.062147617340088,-1.354672686462738,-2.555551592503683,6.037924515991964,1.0512539148330688,-2.7749221960650843
1708441257.557002,-2.061105966567993,-1.355023668413498,-2.5559125582324427,6.0370380757148645,1.0516119003295898,-2.775431458150045
1708441257.5589104,-2.0600900650024414,-1.3553750228932877,-2.5562356154071253,6.036149489670553,1.0519332885742188,-2.7759855429278772
1708441257.5609026,-2.059152603149414,-1.3556968581727524,-2.55658466020693,6.0353280184562585,1.052348256111145,-2.776456896458761
1708441257.5628593,-2.0581154823303223,-1.3560433101705094,-2.5568910280810755,6.034527647286215,1.0526399612426758,-2.776968304310934
1708441257.5648806,-2.057098150253296,-1.3564238858274003,-2.557244364415304,6.033641683846273,1.052980899810791,-2.777465883885519
1708441257.5668252,-2.0560479164123535,-1.3568108540824433,-2.557570759450094,6.032796489983358,1.0533009767532349,-2.7779157797442835
1708441257.5688312,-2.0551135540008545,-1.3571155083230515,-2.5578470865832728,6.031930553704061,1.0536510944366455,-2.778438154851095
1708441257.5708427,-2.0540120601654053,-1.357470766907074,-2.5582152048694056,6.031024205475607,1.0539460182189941,-2.7788737455951136
1708441257.5728736,-2.0529286861419678,-1.3578660053065796,-2.558498207722799,6.030013549118795,1.054266095161438,-2.779436175023214
1708441257.5748436,-2.051847457885742,-1.3582730305245896,-2.558810297642843,6.029124843865194,1.054603934288025,-2.779928747807638
1708441257.5768113,-2.0507569313049316,-1.3586432498744507,-2.5591216723071497,6.028193700104513,1.0549168586730957,-2.7804065386401575
1708441257.5788348,-2.0497167110443115,-1.3589816403440018,-2.5594175497638147,6.02726303318099,1.0552006959915161,-2.780924145375387
1708441257.5808046,-2.0486996173858643,-1.3593606513789673,-2.559770647679464,6.026381718903341,1.0554382801055908,-2.7813878695117396
1708441257.5828025,-2.047621250152588,-1.3597272646478196,-2.560066048298971,6.025465118675985,1.0557613372802734,-2.7819700876819056
1708441257.5848432,-2.0464751720428467,-1.3600980204394837,-2.5604315439807337,6.024562823563375,1.0560004711151123,-2.782482449208395
1708441257.586819,-2.0454471111297607,-1.3604718905738373,-2.560669247304098,6.023543584137716,1.0562893152236938,-2.7829294840442103
1708441257.588846,-2.044285535812378,-1.3608512443355103,-2.560981337224142,6.022592294007101,1.0565446615219116,-2.783376757298605
1708441257.5908856,-2.0431838035583496,-1.3612666440061112,-2.561317745839254,6.021541821747579,1.0568660497665405,-2.7838857809649866
1708441257.592855,-2.042086124420166,-1.3616077911904831,-2.561590019856588,6.020497905998983,1.0571351051330566,-2.7843220869647425
1708441257.5948548,-2.0409586429595947,-1.361966685657837,-2.5619583765613,6.019432532578268,1.0574339628219604,-2.784790341054098
1708441257.5968642,-2.039790391921997,-1.3624106061509629,-2.562274758015768,6.018437135010519,1.057675838470459,-2.785337511693136
1708441257.5988667,-2.038652181625366,-1.3628254395774384,-2.5625696817981165,6.017445194512167,1.0579302310943604,-2.785722557698385
1708441257.6008296,-2.0375547409057617,-1.3631958973458786,-2.5628538767444056,6.016470181732931,1.0581496953964233,-2.7861276308642786
1708441257.602833,-2.036383867263794,-1.3635373276523133,-2.563158098851339,6.015431391983785,1.0584019422531128,-2.7866905371295374
1708441257.6048625,-2.0352165699005127,-1.3639406275800248,-2.563474957142965,6.01441906669692,1.0586302280426025,-2.787145439778463
1708441257.6069212,-2.033984422683716,-1.3643922817758103,-2.5637405554400843,6.013374674111166,1.0589113235473633,-2.7875850836383265
1708441257.608834,-2.032785654067993,-1.3648308229497452,-2.564089838658468,6.012301671295919,1.0590951442718506,-2.7879918257342737
1708441257.610856,-2.031583786010742,-1.36522430301223,-2.5643938223468226,6.011122214585104,1.0593518018722534,-2.788426462803976
1708441257.6128416,-2.0303287506103516,-1.3656884741834183,-2.5647135416613978,6.01004849651412,1.0595755577087402,-2.7888882795916956
1708441257.6148224,-2.0291666984558105,-1.3659895670465012,-2.5649893919574183,6.00894461849288,1.059804081916809,-2.789311234151022
1708441257.6168408,-2.027987480163574,-1.3663961303285141,-2.5652652422534388,6.007770287781515,1.0599877834320068,-2.7897093931781214
1708441257.6188567,-2.0267820358276367,-1.366770477300026,-2.5655325094806116,6.006613957672872,1.0602623224258423,-2.7901578585254114
1708441257.6208682,-2.025538921356201,-1.3671769064715882,-2.565841261540548,6.005426037102499,1.0604327917099,-2.7905903498279017
1708441257.6228426,-2.0242955684661865,-1.3676519703916092,-2.5661822001086634,6.0042022345359705,1.0606251955032349,-2.79096490541567
1708441257.624839,-2.0230212211608887,-1.36809957147155,-2.5664616266833704,6.003031480103292,1.060858130455017,-2.791360918675558
1708441257.626824,-2.0216739177703857,-1.3685952734998246,-2.566721264516012,6.001732575684347,1.0610865354537964,-2.7917893568622034
1708441257.6288247,-2.020444631576538,-1.368992270236351,-2.567028824483053,6.0005085346992395,1.0612906217575073,-2.7922006289111536
1708441257.6308365,-2.0191285610198975,-1.3694498997977753,-2.567267719899313,5.9992315647895715,1.0614738464355469,-2.7925267855273646
1708441257.632829,-2.017831325531006,-1.3698607248118897,-2.567524019871847,5.997978436737814,1.0616466999053955,-2.7929840723620813
1708441257.634853,-2.016519069671631,-1.3702531617930909,-2.5678368250476282,5.996744739800253,1.0618243217468262,-2.7933762709247034
1708441257.6369033,-2.015220880508423,-1.3707213264754792,-2.5680559317218226,5.995449292450704,1.0619759559631348,-2.7937591711627405
1708441257.6389148,-2.0138919353485107,-1.3712203812650223,-2.56834847131838,5.994181144028463,1.0621771812438965,-2.7940943876849573
1708441257.6409378,-2.0125656127929688,-1.3715688449195405,-2.568603817616598,5.992862927704611,1.062320351600647,-2.794471565877096
1708441257.6429417,-2.011131525039673,-1.3721217972091218,-2.568893019353048,5.991397487908163,1.0625168085098267,-2.794828478490011
1708441257.6448538,-2.009690046310425,-1.3725604873946686,-2.5691350142108362,5.990032064705648,1.0626239776611328,-2.795176092778341
1708441257.6468973,-2.0083372592926025,-1.3730173867991944,-2.5693956057177942,5.988635408669271,1.062846064567566,-2.7954846064196985
1708441257.6488407,-2.0069403648376465,-1.37347965062175,-2.5696802775012415,5.98718689659194,1.0629483461380005,-2.7958789507495325
1708441257.6508603,-2.0056021213531494,-1.3738688093474885,-2.56991154352297,5.985783803253927,1.0630762577056885,-2.7962194124804896
1708441257.652868,-2.0042059421539307,-1.3743695479682465,-2.5701382795916956,5.984458434372701,1.0632115602493286,-2.79649526277651
1708441257.6548803,-2.0028176307678223,-1.3747793448022385,-2.5704196135150355,5.983078586846151,1.063331961631775,-2.796823565159933
1708441257.6569536,-2.0014474391937256,-1.3752624702504654,-2.5706759134875696,5.981692421227255,1.0635344982147217,-2.797180239354269
1708441257.6588805,-2.0000619888305664,-1.3757060182145615,-2.5709028879748743,5.980261194496908,1.0635840892791748,-2.797504488621847
1708441257.6608386,-1.9985851049423218,-1.3762505066445847,-2.571212355290548,5.9787365076835535,1.0637179613113403,-2.7977619806872767
1708441257.6628401,-1.9971857070922852,-1.37668530762706,-2.5713663736926478,5.977395283966818,1.0638006925582886,-2.7981086413012903
1708441257.6648486,-1.9957252740859985,-1.377221481209137,-2.5715978781329554,5.9757882235343835,1.0639537572860718,-2.7984336058246058
1708441257.6668422,-1.9942433834075928,-1.3776517075351258,-2.5718300978290003,5.974203336029806,1.0640575885772705,-2.7986868063556116
1708441257.668849,-1.9927510023117065,-1.3781154614738007,-2.5720818678485315,5.972699034004965,1.0642077922821045,-2.7989822069751185
1708441257.6708813,-1.9912768602371216,-1.3786108952811738,-2.5723589102374476,5.971247064858236,1.0642859935760498,-2.7992549578296106
1708441257.6728325,-1.989880919456482,-1.3790206027081986,-2.5725658575641077,5.969696867256918,1.0644272565841675,-2.7995477358447474
1708441257.6748464,-1.98839271068573,-1.3795128178647538,-2.5727818647967737,5.968182909279623,1.0644947290420532,-2.7997573057757776
1708441257.6768217,-1.9869242906570435,-1.3799549651196976,-2.572989288960592,5.966621982842245,1.0645625591278076,-2.800046507512228
1708441257.6788423,-1.9854174852371216,-1.3805037897876282,-2.5732346216784876,5.965055095940389,1.0647008419036865,-2.8003361860858362
1708441257.6808264,-1.983837604522705,-1.38095377505336,-2.5734949747668665,5.963448869972982,1.0647187232971191,-2.8005572001086634
1708441257.6828384,-1.9822967052459717,-1.3814416241696854,-2.573648993168966,5.961809146195211,1.064798355102539,-2.800797764454977
1708441257.6848285,-1.980805516242981,-1.3819283706000824,-2.573885742818014,5.9600881216819666,1.0648828744888306,-2.801028315220968
1708441257.6868427,-1.979195237159729,-1.3824073535254975,-2.574146334324972,5.958435880928793,1.0649833679199219,-2.801260534917013
1708441257.6888206,-1.9776651859283447,-1.38289529204879,-2.5743470827685755,5.956710564881124,1.0650348663330078,-2.8014608065234583
1708441257.6908555,-1.976131796836853,-1.383340598349907,-2.574533526097433,5.9550726292426965,1.0650782585144043,-2.801716391240255
1708441257.692863,-1.9745773077011108,-1.3838447791389008,-2.574765745793478,5.953369247704305,1.0651264190673828,-2.8019126097308558
1708441257.6948683,-1.9730383157730103,-1.3843647253564377,-2.5749533812152308,5.951696622162618,1.0652072429656982,-2.8020578066455286
1708441257.6968656,-1.9714373350143433,-1.3848264676383515,-2.575142208729879,5.949977504998007,1.0652436017990112,-2.8022921721087855
1708441257.6988318,-1.9698036909103394,-1.3854000282338639,-2.5754385630237024,5.948261248856344,1.065273642539978,-2.802462879811422
1708441257.7008317,-1.968156337738037,-1.3858900678208848,-2.575596872960226,5.946472394257345,1.0653306245803833,-2.8026261965381067
1708441257.7028475,-1.9664849042892456,-1.3863934439471741,-2.575801674519674,5.944595682411947,1.0653514862060547,-2.8028231302844446
1708441257.7048697,-1.9648312330245972,-1.386879951958992,-2.5759897867785853,5.94276117065505,1.0653741359710693,-2.80300742784609
1708441257.7068536,-1.963235855102539,-1.3873623770526429,-2.5762468020068567,5.941025841027059,1.065434455871582,-2.8031538168536585
1708441257.708809,-1.9615434408187866,-1.3879069548896332,-2.576421324406759,5.939166295319357,1.0654553174972534,-2.803291622792379
1708441257.7108135,-1.959885835647583,-1.3883948040059586,-2.576632801686422,5.937376367836752,1.0654748678207397,-2.80346924463381
1708441257.7128043,-1.9581968784332275,-1.3889170301011582,-2.576813046132223,5.935452091484823,1.0655605792999268,-2.803591553364889
1708441257.7148333,-1.9564381837844849,-1.3894200933030625,-2.5770211855517786,5.933496105461874,1.0655680894851685,-2.80373722711672
1708441257.7168097,-1.9547396898269653,-1.3899547767690201,-2.5772462526904505,5.9315082905586145,1.0655579566955566,-2.8038507143603724
1708441257.7188222,-1.9529918432235718,-1.3905025285533448,-2.5773561636554163,5.929567324906149,1.0656194686889648,-2.803985897694723
1708441257.7208483,-1.9512666463851929,-1.390996904378273,-2.5775721708880823,5.927646505623617,1.0656521320343018,-2.8041284720050257
1708441257.7228253,-1.9494792222976685,-1.3915045869401474,-2.5777486006366175,5.925610530167379,1.0656224489212036,-2.804244343434469
1708441257.7248185,-1.9477523565292358,-1.3919619780829926,-2.5779529253589075,5.9236464379127405,1.0656431913375854,-2.804380242024557
1708441257.7268236,-1.9459997415542603,-1.3924731624177475,-2.5781119505511683,5.921628701477804,1.0655815601348877,-2.804495398198263
1708441257.7288203,-1.9441860914230347,-1.3930251461318512,-2.578336779271261,5.919675099640646,1.0656105279922485,-2.804591242467062
1708441257.7308362,-1.9423811435699463,-1.3935205799392243,-2.5784881750689905,5.917723047524252,1.0655608177185059,-2.8046215216266077
1708441257.732824,-1.940567970275879,-1.394018993978836,-2.578693215047018,5.915611374169149,1.0655906200408936,-2.8047500292407435
1708441257.7348452,-1.9386881589889526,-1.394590140586235,-2.578872028981344,5.913520562439718,1.0655938386917114,-2.8048673311816614
1708441257.736923,-1.9368340969085693,-1.395061121588089,-2.579092327748434,5.91135989406661,1.065626859664917,-2.8049379030810755
1708441257.7388833,-1.934967279434204,-1.3956008714488526,-2.5792513529406946,5.909337985306539,1.0655982494354248,-2.805051628743307
1708441257.740965,-1.9331810474395752,-1.3961442124894639,-2.5794151465045374,5.907222497254171,1.065611720085144,-2.8050997892962855
1708441257.7429416,-1.9312888383865356,-1.3965934377959748,-2.5796526114093226,5.905196654587545,1.0655546188354492,-2.8051865736590784
1708441257.744912,-1.9294610023498535,-1.3971367341331025,-2.5797794500934046,5.903069007187643,1.065464735031128,-2.805234972630636
1708441257.7469368,-1.9275099039077759,-1.3976517182639618,-2.579951826726095,5.900922643929281,1.0654782056808472,-2.8053486982928675
1708441257.7488773,-1.9255837202072144,-1.39815046012912,-2.580151144658224,5.8987512467201135,1.0654915571212769,-2.805399243031637
1708441257.7508614,-1.9236781597137451,-1.3987263900092621,-2.5802910963641565,5.896450269013204,1.0654418468475342,-2.8053975741015833
1708441257.7528348,-1.9217315912246704,-1.3992532950690766,-2.580503765736715,5.894197928696432,1.0654211044311523,-2.805417601262228
1708441257.7548385,-1.9198087453842163,-1.399771974687912,-2.5806759039508265,5.892019974976339,1.065438985824585,-2.8054900805102747
1708441257.756909,-1.9178364276885986,-1.4003173869899292,-2.5807862917529505,5.889802205353536,1.06533682346344,-2.805481259022848
1708441257.7589662,-1.9159106016159058,-1.4008279156735917,-2.5810192267047327,5.8875396130378626,1.0652720928192139,-2.80552584329714
1708441257.7609024,-1.9140050411224365,-1.401355342274048,-2.581135098134176,5.885374057083883,1.0653070211410522,-2.8055079619037073
1708441257.762863,-1.9120252132415771,-1.4018242818168183,-2.5812864939319056,5.883128869324484,1.065315842628479,-2.8056216875659388
1708441257.7648766,-1.9100472927093506,-1.40238972127948,-2.58148438135256,5.880852210312643,1.0652045011520386,-2.805612627659933
1708441257.76684,-1.9079965353012085,-1.4029406917146225,-2.5816147963153284,5.878446328430929,1.0652796030044556,-2.805640999470846
1708441257.768872,-1.9059202671051025,-1.4034765821746369,-2.5818198362933558,5.876116621285238,1.0652390718460083,-2.8056662718402308
1708441257.770907,-1.9038782119750977,-1.4040348094752808,-2.5819104353534144,5.873757707863607,1.065234661102295,-2.805652920399801
1708441257.7728367,-1.9018479585647583,-1.4046264749816437,-2.582146946583883,5.871380078583517,1.0652509927749634,-2.8056936899768274
1708441257.7748468,-1.8999345302581787,-1.4051251274398346,-2.582254473363058,5.869091379433431,1.0651277303695679,-2.805627409611837
1708441257.7768161,-1.8978317975997925,-1.4056842637113114,-2.582425657902853,5.866819965630331,1.0650873184204102,-2.8057428042041224
1708441257.778828,-1.8957184553146362,-1.4062119138291855,-2.5825772921191614,5.864423382073202,1.065096378326416,-2.8056474367724817
1708441257.780817,-1.893730878829956,-1.4067228895476838,-2.5827625433551233,5.862050878792562,1.0651097297668457,-2.805643860493795
1708441257.7828393,-1.8916387557983398,-1.407288835649826,-2.5829179922686976,5.859698641091146,1.065106749534607,-2.8056772390948694
1708441257.7848494,-1.8896123170852661,-1.4078113746694108,-2.583041254674093,5.857416140824117,1.0650079250335693,-2.8057027498828333
1708441257.7868106,-1.887620449066162,-1.40840336800132,-2.5832372347461146,5.85501657703475,1.0650303363800049,-2.805640999470846
1708441257.7888243,-1.8855456113815308,-1.408900724058487,-2.5833855311023157,5.852769005089559,1.0649402141571045,-2.8056908289538782
1708441257.790866,-1.8834465742111206,-1.4095268112472077,-2.5834999720202845,5.85030614116744,1.0649082660675049,-2.80567437807192
1708441257.7928493,-1.881340742111206,-1.4099622827819367,-2.5836437384234827,5.847812282830038,1.06477952003479,-2.805600706730978
1708441257.7948604,-1.8793455362319946,-1.4105349344066163,-2.5838123003589075,5.845461475640096,1.064759612083435,-2.805596415196554
1708441257.7968917,-1.8772711753845215,-1.411073998813965,-2.583975855504171,5.843147384911337,1.0647759437561035,-2.805600706730978
1708441257.798868,-1.8752378225326538,-1.4116340291551133,-2.584140125905172,5.8408663151557825,1.0647237300872803,-2.8056111971484583
1708441257.8008614,-1.873230218887329,-1.4121536326459427,-2.5842633883105677,5.838534939080038,1.0646096467971802,-2.805528704320089
1708441257.8028688,-1.8711142539978027,-1.412631706600525,-2.5843711535083216,5.836154687195577,1.064586877822876,-2.80554968515505
1708441257.8048496,-1.869077444076538,-1.4131945234588166,-2.584571663533346,5.8337756274040125,1.0645431280136108,-2.80552584329714
1708441257.8069901,-1.8669471740722656,-1.4136682611754914,-2.5846381823169153,5.831339823990621,1.0645042657852173,-2.8054476420031946
1708441257.8088531,-1.8648622035980225,-1.414298729305603,-2.5848475138293665,5.828892099648275,1.064409852027893,-2.8054328600512903
1708441257.8108544,-1.8627511262893677,-1.4147801262191315,-2.584970776234762,5.82643340805129,1.0643781423568726,-2.8054447809802454
1708441257.8128438,-1.8606618642807007,-1.4153540444425126,-2.5850654284106653,5.824074017792501,1.064404845237732,-2.805450979863302
1708441257.8148491,-1.8585480451583862,-1.4158289444497605,-2.585210386906759,5.821682917862692,1.0642894506454468,-2.805417601262228
1708441257.8168054,-1.8564684391021729,-1.4163778883269806,-2.585386578236715,5.819326627045431,1.0642231702804565,-2.805337731038229
1708441257.8188431,-1.8543288707733154,-1.4169723850539704,-2.5854976812945765,5.816853272705831,1.064141869544983,-2.8053603808032435
1708441257.8208725,-1.8522673845291138,-1.4174829584411164,-2.585580650960104,5.8145023463066,1.064071536064148,-2.8053203264819544
1708441257.8230095,-1.850050926208496,-1.418043003683426,-2.5857535044299524,5.812057006150045,1.0640066862106323,-2.805345598851339
1708441257.824839,-1.847898244857788,-1.4185579431108017,-2.585877243672506,5.809591281204977,1.0639376640319824,-2.8052964846240442
1708441257.8268256,-1.8457757234573364,-1.4191413980773468,-2.586053435002462,5.807155835419454,1.063901662826538,-2.805260245000021
1708441257.8288376,-1.8436062335968018,-1.4195899975350876,-2.5861807505237024,5.804704177170553,1.063825249671936,-2.8053017298327845
1708441257.8308225,-1.8414371013641357,-1.4201586556485672,-2.586287800465719,5.802250015526571,1.0637693405151367,-2.8052616755114954
1708441257.8328295,-1.8393831253051758,-1.420656443839409,-2.586411778126852,5.799800503044882,1.063718318939209,-2.805204455052511
1708441257.8348603,-1.8372666835784912,-1.4211722922376175,-2.586564366017477,5.79736744144515,1.0636131763458252,-2.805188004170553
1708441257.8369117,-1.8350796699523926,-1.421721027498581,-2.5867114702807825,5.794990885048666,1.0635769367218018,-2.805197064076559
1708441257.8389044,-1.8329037427902222,-1.4222666782191773,-2.586818043385641,5.79255377033309,1.0634971857070923,-2.8051777521716517
1708441257.8408828,-1.8307559490203857,-1.4228101682714005,-2.586987082158224,5.790032970696249,1.0634613037109375,-2.8050876299487513
1708441257.842875,-1.828528642654419,-1.4233776044896622,-2.5871427694903772,5.787527072220602,1.0634297132492065,-2.805092159901754
1708441257.8448923,-1.8263309001922607,-1.423875392680504,-2.587311569844381,5.78503309467391,1.0633529424667358,-2.8050804773913782
1708441257.8468502,-1.8241559267044067,-1.4244351249984284,-2.5873661676989954,5.782606231957235,1.0632929801940918,-2.805089298878805
1708441257.8488977,-1.8219865560531616,-1.4249143463424225,-2.5875707308398646,5.780200230866232,1.0631802082061768,-2.8050742785083216
1708441257.8508534,-1.819823145866394,-1.4254241001657029,-2.587698284779684,5.7777384398277185,1.063108205795288,-2.8050201574908655
1708441257.8528476,-1.8176677227020264,-1.4259553414634247,-2.5878148714648646,5.775330173760214,1.0630359649658203,-2.8050246874438685
1708441257.8548846,-1.8154714107513428,-1.4265240293792267,-2.5880239645587366,5.772905337601461,1.0630056858062744,-2.8050008455859583
1708441257.856911,-1.813259243965149,-1.4270291787436982,-2.5880492369281214,5.770450699120321,1.0629652738571167,-2.8049727121936243
1708441257.8588545,-1.8110606670379639,-1.4275855732015152,-2.5881691614734095,5.767976748734274,1.0628721714019775,-2.804981533681051
1708441257.8608253,-1.8088016510009766,-1.4281247419169922,-2.588281218205587,5.765482651978292,1.062856912612915,-2.804986063634054
1708441257.862833,-1.8066173791885376,-1.428676889543869,-2.5884249846087855,5.76309763172225,1.062775731086731,-2.8049607912646692
1708441257.8648615,-1.804444432258606,-1.4291255486062546,-2.5885077158557337,5.7607092736061,1.0627609491348267,-2.8049727121936243
1708441257.8668187,-1.802204966545105,-1.429718093281128,-2.5886645952807825,5.758307206421652,1.062720537185669,-2.804977003728048
1708441257.8688476,-1.8000558614730835,-1.4302778405002137,-2.588759247456686,5.755797970085897,1.0626028776168823,-2.804997984563009
1708441257.870889,-1.7977898120880127,-1.4307647508433838,-2.588961903248922,5.753285395890035,1.0625970363616943,-2.804948870335714
1708441257.8728244,-1.7955973148345947,-1.4312793624452134,-2.5890122095691126,5.750819074898519,1.0625563859939575,-2.804974142705099
1708441257.8748574,-1.7934244871139526,-1.4317693573287507,-2.5891123453723353,5.7484837649162195,1.0624754428863525,-2.804990355168478
1708441257.8768516,-1.791199803352356,-1.432357521062233,-2.5892518202411097,5.746030080109396,1.0624197721481323,-2.804993454610006
1708441257.8788736,-1.7889740467071533,-1.4328760665706177,-2.5893519560443323,5.743613350182333,1.0623434782028198,-2.8049243132220667
1708441257.8808322,-1.7867755889892578,-1.433410794740059,-2.5894556681262415,5.741229402809896,1.0623279809951782,-2.804981533681051
1708441257.8828142,-1.7845368385314941,-1.4339636725238343,-2.5895710627185267,5.738819706230917,1.0622559785842896,-2.8049278895007532
1708441257.8848555,-1.782376766204834,-1.4344461274198075,-2.5896831194507044,5.736408459931173,1.062186598777771,-2.804953161870138
1708441257.886848,-1.780234932899475,-1.434928835635521,-2.5898152033435267,5.733986246376791,1.0620726346969604,-2.8049607912646692
1708441257.888844,-1.778045654296875,-1.4354871076396485,-2.589919630681173,5.7316839573676965,1.0620757341384888,-2.804965082799093
1708441257.890887,-1.7758928537368774,-1.4360316705754776,-2.58999473253359,5.729266631394186,1.0620394945144653,-2.804986063634054
1708441257.8929133,-1.7737016677856445,-1.4364558470300217,-2.590119187031881,5.7268890021140955,1.0619462728500366,-2.8050008455859583
1708441257.8948705,-1.7714781761169434,-1.4371234339526673,-2.590271298085348,5.724466192513265,1.0618082284927368,-2.8050461451159876
1708441257.8969069,-1.769270420074463,-1.4376081091216584,-2.5903051535235804,5.7220531580741785,1.061785340309143,-2.8049917856799524
1708441257.8988674,-1.7670823335647583,-1.4381322425654908,-2.590503517781393,5.719654667168417,1.0617505311965942,-2.8049965540515345
1708441257.9008274,-1.7649415731430054,-1.4386520993760605,-2.590590778981344,5.717342245369711,1.061648964881897,-2.8050833384143274
1708441257.9028552,-1.7627028226852417,-1.4391465497067948,-2.5907309691058558,5.714880096703329,1.0615557432174683,-2.8049948851214808
1708441257.9048486,-1.7604773044586182,-1.4396370661309739,-2.590813938771383,5.712604152947225,1.061525583267212,-2.8050156275378626
1708441257.9069028,-1.7582999467849731,-1.4402381044677277,-2.5909133593188685,5.710240113526144,1.0614955425262451,-2.8050907293902796
1708441257.9088798,-1.7560406923294067,-1.4406796556762238,-2.5910666624652308,5.7078895447547815,1.0614054203033447,-2.805006806050436
1708441257.910843,-1.753854751586914,-1.4412363183549424,-2.591149393712179,5.705400573998251,1.0613662004470825,-2.8050699869738978
1708441257.9128318,-1.7516663074493408,-1.4416937840035935,-2.591217104588644,5.70306287983016,1.0612355470657349,-2.805093828831808
1708441257.9148445,-1.7494585514068604,-1.4421926897815247,-2.591377083455221,5.700794565468588,1.0612382888793945,-2.805126492177145
1708441257.9168198,-1.7472947835922241,-1.4427234095386048,-2.591440264378683,5.698426592140951,1.0611903667449951,-2.805089298878805
1708441257.9188766,-1.7450724840164185,-1.4432449054769059,-2.591564480458395,5.696095752507009,1.0610793828964233,-2.8050969282733362
1708441257.920849,-1.742896318435669,-1.4437773388675232,-2.5916593710528772,5.693687367230215,1.061082124710083,-2.805143419896261
1708441257.9228263,-1.7406723499298096,-1.444276050930359,-2.5918217341052454,5.691248941212454,1.0610429048538208,-2.805108610783712
1708441257.9248388,-1.7384616136550903,-1.4447882783463974,-2.591874901448385,5.688819038658895,1.0609197616577148,-2.8051040808307093
1708441257.9268284,-1.7362607717514038,-1.4452547591975708,-2.5920124689685267,5.686481702118673,1.0608763694763184,-2.8051374594317835
1708441257.9288452,-1.734053373336792,-1.4457743030837555,-2.5921321550952356,5.684104549675741,1.060808777809143,-2.8051613012896937
1708441257.9308228,-1.7318735122680664,-1.446304866378643,-2.5922637621508997,5.681685614376821,1.0606824159622192,-2.8051539103137415
1708441257.9328146,-1.7297152280807495,-1.4468204093030472,-2.592351023350851,5.67933480718688,1.0606193542480469,-2.8052058855639856
1708441257.934859,-1.7275029420852661,-1.4473759618452569,-2.5924187342273157,5.6769258854682825,1.0605952739715576,-2.805167261754171
1708441257.9368954,-1.725278377532959,-1.4478676703623314,-2.592599693928854,5.674494910031118,1.0605111122131348,-2.8051939646350306
1708441257.9388764,-1.7229869365692139,-1.4483990532210846,-2.592686716710226,5.672091710358419,1.060497522354126,-2.80526310602297
1708441257.9409776,-1.7208629846572876,-1.4489026826671143,-2.5928388277636927,5.669790255814352,1.060395359992981,-2.805242363606588
1708441257.9429908,-1.7186379432678223,-1.4493719276836892,-2.5929141680346888,5.667531537800588,1.0603231191635132,-2.8052168528186243
1708441257.9449031,-1.7164745330810547,-1.4499408689192315,-2.5930429140674036,5.66519724109725,1.0602705478668213,-2.8052125612842005
1708441257.9469802,-1.7142562866210938,-1.4504081693342705,-2.593220059071676,5.662818479328909,1.0601413249969482,-2.8052364031421106
1708441257.9489212,-1.7119884490966797,-1.4509634760073205,-2.5932989756213587,5.660358059197225,1.0601356029510498,-2.8052735964404505
1708441257.9508495,-1.7098146677017212,-1.4514623445323487,-2.5934022108661097,5.657975423126974,1.0600677728652954,-2.805305306111471
1708441257.9528317,-1.7076358795166016,-1.4519450974515458,-2.5934980551349085,5.65563993433074,1.0599987506866455,-2.805309836064474
1708441257.9548442,-1.7054250240325928,-1.4524858382395287,-2.5936430136310022,5.653282093792715,1.0599956512451172,-2.805309836064474
1708441257.9569952,-1.7032124996185303,-1.453033709233143,-2.5937345663653772,5.650857674866476,1.059902310371399,-2.805317227040426
1708441257.9589193,-1.7010287046432495,-1.4535480824163933,-2.5938347021686,5.648506629257955,1.0598182678222656,-2.8053084055529993
1708441257.9609165,-1.6987918615341187,-1.4540264543941994,-2.5939250628100794,5.646146762162008,1.059753656387329,-2.8053768316852015
1708441257.9629202,-1.6966047286987305,-1.454544485812523,-2.5939884821521204,5.643792259484091,1.0597102642059326,-2.8053932825671595
1708441257.964847,-1.6943892240524292,-1.4551495102098961,-2.594142023717062,5.64139215925292,1.0596739053726196,-2.8053813616382044
1708441257.9668636,-1.6921453475952148,-1.4556483638337632,-2.59422475496401,5.6390148279960535,1.059565782546997,-2.8053587118731897
1708441257.9688246,-1.6899645328521729,-1.4561999526670952,-2.594372812901632,5.636657404690542,1.0595101118087769,-2.805429999028341
1708441257.9708407,-1.687769889831543,-1.4567229610732575,-2.594501558934347,5.634249913483419,1.0594830513000488,-2.805441919957296
1708441257.9728353,-1.6855963468551636,-1.4572143417647858,-2.5945397059070032,5.631863045483389,1.059425950050354,-2.805467192326681
1708441257.974829,-1.6833754777908325,-1.4577820983580132,-2.5946877638446253,5.629480528622427,1.0593417882919312,-2.8055318037616175
1708441257.976821,-1.6812280416488647,-1.4583022233894845,-2.594762627278463,5.62702892997817,1.0592890977859497,-2.8054447809802454
1708441257.9788525,-1.6790400743484497,-1.4587584522417565,-2.594858709965841,5.624606418400564,1.0592290163040161,-2.8055182139026087
1708441257.9808176,-1.6768643856048584,-1.459310696726181,-2.59499174753298,5.622298586159506,1.059206485748291,-2.805485550557272
1708441257.9828107,-1.6747443675994873,-1.4598222386888047,-2.595123354588644,5.61986522653655,1.0591330528259277,-2.8055346647845667
1708441257.9848127,-1.6725252866744995,-1.460360938017704,-2.5952401796924036,5.617485689907827,1.0590325593948364,-2.805521313344137
1708441257.9868286,-1.6703071594238281,-1.4609252151897927,-2.5953391234027308,5.615110981255331,1.0590081214904785,-2.805528704320089
1708441257.988832,-1.6681253910064697,-1.46144803733144,-2.595393721257345,5.612752365856924,1.0589944124221802,-2.8055315653430384
1708441257.9908297,-1.6658928394317627,-1.4618952062777062,-2.5955844561206263,5.610342311650076,1.0588397979736328,-2.8055859247790735
1708441257.9928763,-1.6637288331985474,-1.4624453422478219,-2.5956910292254847,5.608005273133077,1.0587753057479858,-2.8056467215167444
1708441257.9948466,-1.6615227460861206,-1.4629924979856987,-2.5957258383380335,5.6056839702423,1.0587329864501953,-2.8056379000293177
1708441257.9968798,-1.659307837486267,-1.4635108348778267,-2.5958989302264612,5.603308248310842,1.0587178468704224,-2.805591885243551
1708441257.9988337,-1.6571180820465088,-1.4640259084156533,-2.5960026423083704,5.600956249028005,1.0585498809814453,-2.805652920399801
1708441258.0008295,-1.6548802852630615,-1.4645665076426049,-2.59609300294985,5.59857057312087,1.0585287809371948,-2.8056908289538782
1708441258.0028622,-1.6527236700057983,-1.4651020777276536,-2.5962258020984095,5.596146750241079,1.0584686994552612,-2.805648390446798
1708441258.0048795,-1.650564193725586,-1.4655440759709855,-2.5963173548327845,5.593830871372976,1.058424949645996,-2.8056815306292933
1708441258.0068908,-1.648313045501709,-1.4660842281631012,-2.5964043776141565,5.591474163323202,1.0583021640777588,-2.8057218233691614
1708441258.0088134,-1.6461219787597656,-1.4666283664158364,-2.596536461506979,5.58909552076415,1.0582432746887207,-2.8057249228106897
1708441258.0108323,-1.643900752067566,-1.4671354007771988,-2.5966649691211146,5.586664068489828,1.0581786632537842,-2.805744234715597
1708441258.0128305,-1.6416938304901123,-1.4676382851651688,-2.5967968145953577,5.584349679737844,1.0581471920013428,-2.805777613316671
1708441258.014841,-1.63948392868042,-1.4681444329074402,-2.5969329516040247,5.5819246647651575,1.0580990314483643,-2.805765692387716
1708441258.0168366,-1.6372215747833252,-1.4686894056252022,-2.5970080534564417,5.5795456049735925,1.0580389499664307,-2.805782143269674
1708441258.018839,-1.635053277015686,-1.4691477355412026,-2.597173515950338,5.577136802464285,1.0579502582550049,-2.805859390889303
1708441258.0208786,-1.632785677909851,-1.4696945783546944,-2.597269121800558,5.574930953770437,1.0579066276550293,-2.8057969252215784
1708441258.0228324,-1.6306567192077637,-1.4702307444861908,-2.5973599592791956,5.572461354523458,1.0578631162643433,-2.8058281580554407
1708441258.0248423,-1.6284180879592896,-1.4706467998078843,-2.597497049962179,5.570145952492513,1.05775785446167,-2.8058491388904017
1708441258.0268295,-1.6262054443359375,-1.4712538209608574,-2.597633186970846,5.567797350674429,1.0577095746994019,-2.805898729954855
1708441258.0288577,-1.6239879131317139,-1.4717771497419854,-2.5976997057544153,5.565347838192739,1.0576378107070923,-2.8058491388904017
1708441258.0308297,-1.6218012571334839,-1.4722894367626687,-2.597795550023214,5.562947737961569,1.057586669921875,-2.80591065088381
1708441258.0328372,-1.6196507215499878,-1.4726986971548577,-2.597964588795797,5.560585367470541,1.057533621788025,-2.8058927694903772
1708441258.0348327,-1.617430329322815,-1.4732393708876153,-2.5979819933520716,5.5581786511238,1.0574572086334229,-2.8059120813952845
1708441258.0368633,-1.6152572631835938,-1.473762960439064,-2.5981691519366663,5.555849540024557,1.0574227571487427,-2.8059373537646692
1708441258.0388966,-1.6130290031433105,-1.4743026506951828,-2.5982750097857874,5.553434657841482,1.0573879480361938,-2.8059750239001673
1708441258.0408752,-1.6108673810958862,-1.474760302608349,-2.5983544031726282,5.550975549011984,1.057330846786499,-2.8059194723712366
1708441258.042882,-1.608601689338684,-1.4753000673702736,-2.5985069910632532,5.548649596958914,1.0572466850280762,-2.8059619108783167
1708441258.0448601,-1.6064119338989258,-1.4757799592665215,-2.598619047795431,5.546221065312185,1.0571608543395996,-2.805972162877218
1708441258.0468698,-1.604197382926941,-1.4762573179653664,-2.5987194220172327,5.543910252838888,1.057072401046753,-2.806013886128561
1708441258.048894,-1.6020138263702393,-1.476814129655697,-2.5988271872149866,5.541576313763418,1.0570374727249146,-2.8059752623187464
1708441258.0508535,-1.5997930765151978,-1.4773545128158112,-2.59890586534609,5.539213347225942,1.056944489479065,-2.8060243765460413
1708441258.052849,-1.59763503074646,-1.4778894868544121,-2.5990551153766077,5.536782133370199,1.0568561553955078,-2.8060784975634974
1708441258.054871,-1.5954134464263916,-1.4784253400615235,-2.599109713231222,5.534393000393667,1.0568366050720215,-2.806088987980978
1708441258.0568697,-1.5931366682052612,-1.478891761308052,-2.5992379824267786,5.532032835274496,1.056719422340393,-2.8060978094684046
1708441258.058874,-1.590962529182434,-1.4794845071486016,-2.5993784109698694,5.529685485153951,1.0566760301589966,-2.8060770670520228
1708441258.0608542,-1.5887738466262817,-1.4799581256559868,-2.599478546773092,5.5274138925369165,1.0566037893295288,-2.806063715611593
1708441258.0628207,-1.58661687374115,-1.4804378387383004,-2.599565331135885,5.525059985905447,1.0565718412399292,-2.806070868168966
1708441258.0648363,-1.5844264030456543,-1.4809647065452118,-2.5997021834002894,5.522678482323446,1.0565117597579956,-2.8061376253711146
1708441258.0668223,-1.5822209119796753,-1.4815046724728127,-2.599783960972921,5.520237135678091,1.0565011501312256,-2.8061042467700403
1708441258.0740817,-1.58005952835083,-1.4819943246296425,-2.5999251047717493,5.517787146359243,1.0564574003219604,-2.8061166445361536
1708441258.0748434,-1.5734611749649048,-1.4836832147887726,-2.6002770105945032,5.510740089207449,1.0562474727630615,-2.8062015215503138
1708441258.0768468,-1.5712922811508179,-1.4841123160770913,-2.600372854863302,5.508396494179525,1.0561752319335938,-2.806234900151388
1708441258.0788643,-1.5690765380859375,-1.484676518743374,-2.6004918257342737,5.505914377957144,1.0560868978500366,-2.8062425295459192
1708441258.0808337,-1.5668128728866577,-1.4852150690606614,-2.6005755106555384,5.503501462727346,1.0559892654418945,-2.8062544504748743
1708441258.0828488,-1.5646356344223022,-1.485799716120102,-2.6006835142718714,5.501131939678945,1.0559754371643066,-2.8062661329852503
1708441258.084835,-1.562384843826294,-1.4862794888070603,-2.6007664839373987,5.498732852726736,1.0559197664260864,-2.8062244097339075
1708441258.0868332,-1.5602437257766724,-1.4867696401527901,-2.6008992830859583,5.49635140874938,1.0558592081069946,-2.806330744420187
1708441258.0888362,-1.5581049919128418,-1.4873255726746102,-2.6009777227984827,5.493987250119009,1.0557739734649658,-2.8062973658191126
1708441258.090812,-1.5559378862380981,-1.4877918076566239,-2.601180378590719,5.491584169655599,1.0557150840759277,-2.806305472050802
1708441258.0929182,-1.5537203550338745,-1.488307276075222,-2.6012306849109095,5.489225375443258,1.0556836128234863,-2.806305710469381
1708441258.0948806,-1.551493763923645,-1.4887454372695466,-2.6013339201556605,5.486864435463705,1.0556145906448364,-2.8063247839557093
1708441258.0968912,-1.5492959022521973,-1.4893673074296494,-2.601499382649557,5.484458076744833,1.0555634498596191,-2.8063531557666224
1708441258.0988746,-1.5471333265304565,-1.489841253762581,-2.601574722920553,5.482072818070211,1.0554821491241455,-2.8063486258136194
1708441258.1008615,-1.544931411743164,-1.4904221308282395,-2.6017072836505335,5.479741263180532,1.055389165878296,-2.8063398043261927
1708441258.1028507,-1.5426735877990723,-1.4908961069634934,-2.6017566362964075,5.477435338288107,1.0553576946258545,-2.8064022699939173
1708441258.1048944,-1.540474772453308,-1.4914112401059647,-2.6018851439105433,5.475003349571981,1.0552902221679688,-2.806401316319601
1708441258.1068995,-1.538293719291687,-1.491942935889103,-2.601980988179342,5.472612309246816,1.05525541305542,-2.806392256413595
1708441258.1088836,-1.5360208749771118,-1.492497981791832,-2.6020854155169886,5.470247912197866,1.055132508277893,-2.806425158177511
1708441258.1108477,-1.5338588953018188,-1.4929638814977189,-2.6022630373584192,5.467909204750814,1.055088758468628,-2.806420628224508
1708441258.1128385,-1.5316712856292725,-1.4935216394117852,-2.6023252646075647,5.465498733311453,1.0550405979156494,-2.806477133427755
1708441258.1148498,-1.529529094696045,-1.4939596739462395,-2.6024494806872767,5.46316288688735,1.0549894571304321,-2.8064563910113733
1708441258.1168358,-1.5273370742797852,-1.4945642438581963,-2.6025248209582728,5.460754382401266,1.0548722743988037,-2.8064592520343226
1708441258.118883,-1.5251739025115967,-1.4951007601669808,-2.602595631276266,5.458387481957235,1.054854154586792,-2.806488100682394
1708441258.1208572,-1.5229125022888184,-1.4955753919533272,-2.6028056780444544,5.456010150700369,1.054752230644226,-2.8065252939807337
1708441258.1228411,-1.520749568939209,-1.4960526388934632,-2.6028643290149134,5.453628885536947,1.0547202825546265,-2.806565586720602
1708441258.124869,-1.5185292959213257,-1.49655273676429,-2.602992121373312,5.451233315258779,1.0546362400054932,-2.80652100244631
1708441258.1268327,-1.516311526298523,-1.4971216332963486,-2.6031203905688685,5.448934483319082,1.0545835494995117,-2.806523863469259
1708441258.1288545,-1.5140918493270874,-1.497608372276165,-2.603204313908712,5.446552324085989,1.054565668106079,-2.8065901438342493
1708441258.130855,-1.511949062347412,-1.498119519358017,-2.603340450917379,5.444185721665182,1.0544770956039429,-2.80656868616213
1708441258.1328182,-1.5097421407699585,-1.4986537930420418,-2.603447500859396,5.4418176887329,1.0543628931045532,-2.8065550963031214
1708441258.1348574,-1.5075403451919556,-1.499161848132946,-2.603523556386129,5.439356195717611,1.054311752319336,-2.8066287676440638
1708441258.1368847,-1.5052688121795654,-1.499743030672409,-2.603647772465841,5.437050568848409,1.0542263984680176,-2.8066917101489466
1708441258.1389189,-1.5030968189239502,-1.500224420135357,-2.6037631670581263,5.434586512833395,1.054200530052185,-2.806624237691061
1708441258.1408834,-1.5008957386016846,-1.5006625962308426,-2.6038830916034144,5.432240474015035,1.0541523694992065,-2.806665007268087
1708441258.142939,-1.4986985921859741,-1.5012413796833535,-2.604007069264547,5.429920959263601,1.0540956258773804,-2.806690279637472
1708441258.1449263,-1.4964197874069214,-1.501692311172821,-2.604131285344259,5.42755554893569,1.0540441274642944,-2.8067050615893763
1708441258.146956,-1.4942967891693115,-1.5022581604174157,-2.604255501423971,5.425169157772817,1.053963303565979,-2.8066800276385706
1708441258.1489098,-1.4921072721481323,-1.5027431783131142,-2.604346815739767,5.422762262612142,1.0538501739501953,-2.8067050615893763
1708441258.150871,-1.4898126125335693,-1.5032599952868004,-2.604417864476339,5.420421945839681,1.0538382530212402,-2.8067126909839075
1708441258.1528518,-1.4876829385757446,-1.503785253768303,-2.604579273854391,5.418097662716665,1.053787112236023,-2.806711260472433
1708441258.1548429,-1.4855018854141235,-1.504293532376625,-2.6046457926379603,5.41568140962676,1.0537103414535522,-2.806760851536886
1708441258.15692,-1.483304738998413,-1.5047785502723237,-2.6047328154193323,5.41326396444396,1.0536425113677979,-2.80674392381777
1708441258.1589983,-1.4811406135559082,-1.5052472811988373,-2.604889694844381,5.410879242211141,1.053545355796814,-2.806826893483297
1708441258.1608942,-1.4788790941238403,-1.505796843474247,-2.605013910924093,5.408494877606191,1.0535391569137573,-2.8067761103259485
1708441258.1628532,-1.4766889810562134,-1.506349728708603,-2.605142418538229,5.4061152813728235,1.0534206628799438,-2.8068209330188196
1708441258.164857,-1.474448561668396,-1.5068755608848114,-2.605201069508688,5.403761374741354,1.0534231662750244,-2.8068416754352015
1708441258.1668515,-1.4722853899002075,-1.507331297998764,-2.6053221861468714,5.401396977692404,1.053375244140625,-2.806819264088766
1708441258.1688342,-1.470090627670288,-1.5078725528768082,-2.60537559190859,5.399058508663931,1.0532854795455933,-2.80685264268984
1708441258.1708574,-1.467904806137085,-1.5083450500718136,-2.6055529753314417,5.396635639458456,1.0532220602035522,-2.806823794041769
1708441258.1728497,-1.4656544923782349,-1.508886059080698,-2.605633560811178,5.394289958267965,1.0531530380249023,-2.8068600336657923
1708441258.1748505,-1.4634519815444946,-1.5093676720610638,-2.605814282094137,5.391807901650228,1.0531105995178223,-2.8068557421313685
1708441258.1768262,-1.4612691402435303,-1.5099116911045094,-2.6058276335345667,5.389493989735403,1.0530370473861694,-2.8068838755237024
1708441258.1788335,-1.4591059684753418,-1.510368475025036,-2.6060050169574183,5.387198674469747,1.0530025959014893,-2.8069077173816126
1708441258.1808164,-1.4569052457809448,-1.5109820675900956,-2.6060922781573694,5.384820449143209,1.052892804145813,-2.8068957964526575
1708441258.1828187,-1.45475172996521,-1.511510120039322,-2.6062079111682337,5.382422971516409,1.052828311920166,-2.8069618383990687
1708441258.1848547,-1.4524762630462646,-1.5120271903327485,-2.6063080469714563,5.38005684593276,1.0527515411376953,-2.806932036076681
1708441258.186824,-1.4502840042114258,-1.512617116128542,-2.6064558664904993,5.37761931398467,1.0526963472366333,-2.806981150303976
1708441258.1888373,-1.4480520486831665,-1.5130310107818623,-2.606539789830343,5.375252115517416,1.052607774734497,-2.806955877934591
1708441258.1908329,-1.4458574056625366,-1.5135924902609368,-2.6066654364215296,5.372875439911642,1.052544355392456,-2.806967798863546
1708441258.1929283,-1.443634271621704,-1.5141260524145146,-2.606739107762472,5.370613801270284,1.052479863166809,-2.8070126215564173
1708441258.1948586,-1.4414490461349487,-1.5146876250258465,-2.606875483189718,5.368125366955557,1.0524317026138306,-2.8070080916034144
1708441258.1969054,-1.4392096996307373,-1.5151916679790993,-2.606978956853048,5.365794110089102,1.0523923635482788,-2.8070858160602015
1708441258.198865,-1.4370462894439697,-1.5157317233136673,-2.607008759175436,5.363364267140188,1.0522949695587158,-2.807039801274435
1708441258.2008417,-1.4348678588867188,-1.516244852249958,-2.607231918965475,5.361077236920156,1.0522874593734741,-2.8070815245257776
1708441258.2028565,-1.4326894283294678,-1.5167619672468682,-2.6073558966266077,5.358600127487936,1.0522196292877197,-2.8070548216449183
1708441258.20487,-1.430496335029602,-1.517286480670311,-2.607394282017843,5.356219398766317,1.052114725112915,-2.8071373144732874
1708441258.2068985,-1.428358554840088,-1.5178560626557847,-2.6075096766101282,5.353957342892446,1.05207097530365,-2.8071401754962366
1708441258.2088518,-1.4261753559112549,-1.5183071878603478,-2.60764986673464,5.351519393711843,1.0520230531692505,-2.8071163336383265
1708441258.2108479,-1.4239628314971924,-1.5188323569348832,-2.607737127934591,5.349083351879873,1.0519882440567017,-2.8071282545672815
1708441258.2128217,-1.4217004776000977,-1.519364671116211,-2.607910458241598,5.3467270014579675,1.0519367456436157,-2.8071609179126185
1708441258.214847,-1.4195269346237183,-1.5198985946229477,-2.608001772557394,5.344301509648123,1.05179762840271,-2.807164017354147
1708441258.216844,-1.4173657894134521,-1.5204108294895669,-2.6080520788775843,5.341928946762838,1.0517747402191162,-2.80715519586672
1708441258.218897,-1.4151660203933716,-1.520975736235716,-2.6082339922534388,5.339620280056753,1.0517354011535645,-2.807147804890768
1708441258.220855,-1.4129480123519897,-1.521568876957037,-2.6083450953113,5.337196993618765,1.05161714553833,-2.8072131315814417
1708441258.2228482,-1.4107762575149536,-1.522052862947323,-2.608436648045675,5.334807503014364,1.0516245365142822,-2.8072360197650355
1708441258.2248425,-1.4086112976074219,-1.522520200615265,-2.6085694471942347,5.332508373051443,1.0515596866607666,-2.8072121779071253
1708441258.2268128,-1.4063687324523926,-1.5230865229717274,-2.608652178441183,5.330057906895437,1.0514788627624512,-2.807293955479757
1708441258.2289298,-1.404221534729004,-1.523554341202118,-2.6087272802936,5.3277256963546655,1.0514140129089355,-2.8072314898120325
1708441258.230832,-1.4020241498947144,-1.5241608631661911,-2.6088526884662073,5.3253944394882105,1.0513253211975098,-2.807251040135519
1708441258.2328274,-1.399804711341858,-1.524641116415598,-2.608980957661764,5.323093223362722,1.0512534379959106,-2.807321373616354
1708441258.2348328,-1.3976316452026367,-1.525119026457407,-2.60911733308901,5.32070808389739,1.0512218475341797,-2.807333532963888
1708441258.2368567,-1.3953917026519775,-1.5256039586714287,-2.6092076937304896,5.318291234761038,1.0511285066604614,-2.807336393986837
1708441258.238915,-1.3932088613510132,-1.5260930259576817,-2.6093114058123987,5.315872776299276,1.0510566234588623,-2.8073065916644495
1708441258.240879,-1.3909482955932617,-1.5266780902496357,-2.6093788782702845,5.313469159394064,1.0509934425354004,-2.8073676268206995
1708441258.2429001,-1.3887892961502075,-1.5271377947977562,-2.6095357576953333,5.311073410301962,1.0509452819824219,-2.8073928991900843
1708441258.2448862,-1.3865995407104492,-1.5277036999217053,-2.609643522893087,5.308719444065847,1.0508941411972046,-2.8073557058917444
1708441258.246884,-1.3844149112701416,-1.5281635721078892,-2.609817091618673,5.306360769062795,1.0507878065109253,-2.8073928991900843
1708441258.2488933,-1.3821852207183838,-1.5287088838270684,-2.6098461786853235,5.303946840554037,1.0507317781448364,-2.807391945515768
1708441258.2508495,-1.3799513578414917,-1.5292584125748654,-2.6099987665759485,5.301581072598257,1.0507214069366455,-2.8073795477496546
1708441258.252868,-1.3777110576629639,-1.5296610754779358,-2.6101065317737024,5.299191045552053,1.050661325454712,-2.807403866444723
1708441258.2549033,-1.3755329847335815,-1.5302164752832432,-2.6101892630206507,5.296817290573873,1.050577163696289,-2.807415787373678
1708441258.2569053,-1.3733437061309814,-1.530765787964203,-2.6103625933276575,5.294523763447561,1.0504707098007202,-2.807444159184591
1708441258.258935,-1.3711332082748413,-1.531233114456274,-2.6103854815112513,5.292181360512533,1.0504270792007446,-2.8075135389911097
1708441258.26083,-1.3689460754394531,-1.5317990568331261,-2.6105380694018763,5.289827811508932,1.0503965616226196,-2.8074515501605433
1708441258.2628486,-1.366754412651062,-1.5322230619243165,-2.6106165091144007,5.287473189621725,1.0503276586532593,-2.807520929967062
1708441258.264836,-1.364547610282898,-1.5327154111913224,-2.6107404867755335,5.2850727317626855,1.0502675771713257,-2.807532850896017
1708441258.2668142,-1.362305760383606,-1.5332975436798115,-2.6108983198748987,5.282616841584005,1.0502194166183472,-2.80750018755068
1708441258.2700827,-1.360143780708313,-1.5337782625905056,-2.6109398047076624,5.2802191255386255,1.0501559972763062,-2.807479445134298
1708441258.2708316,-1.3579233884811401,-1.5342746537974854,-2.6110685507403772,5.277878451138296,1.0500766038894653,-2.807519499455587
1708441258.2728243,-1.355757236480713,-1.5347843889943142,-2.6111884752856653,5.2755579231079,1.0499746799468994,-2.8075524012195032
1708441258.2748296,-1.3535510301589966,-1.5352764886668702,-2.6113484541522425,5.2731371996696375,1.0499309301376343,-2.8075721899615687
1708441258.276818,-1.3513298034667969,-1.535809901808836,-2.6114323774920862,5.270741331368246,1.0498720407485962,-2.807563368474142
1708441258.2788556,-1.3491452932357788,-1.5362697218409558,-2.6115642229663294,5.268335330277242,1.0497952699661255,-2.8076005617724817
1708441258.2808552,-1.3469092845916748,-1.5368114759079,-2.611652437840597,5.265966403275289,1.0497552156448364,-2.807563368474142
1708441258.2828498,-1.344738483428955,-1.5373245787671586,-2.611779753361837,5.2636358616645715,1.0496917963027954,-2.807640616093771
1708441258.2848399,-1.342530608177185,-1.5378297840109845,-2.611875597630636,5.261254536896505,1.049639105796814,-2.807624403630392
1708441258.28683,-1.3403339385986328,-1.5383048181286831,-2.611990992222921,5.25894587019042,1.049574613571167,-2.8076651732074183
