Eg3-git/Classifiers/Data Collection/u4/u4abc5_ur3e_joint_states.csv
time,elbow_joint,shoulder_lift_joint,shoulder_pan_joint,wrist_1_joint,wrist_2_joint,wrist_3_joint
1708436207.2467499,-2.142200231552124,-1.333448515539505,-2.5257063547717493,6.110805022507467,1.015671968460083,-2.6930154005633753
1708436207.248742,-2.1422295570373535,-1.333366797571518,-2.525768582020895,6.110747563629904,1.0156750679016113,-2.692965571080343
1708436207.2507465,-2.1422295570373535,-1.3334158223918458,-2.5257511774646204,6.110800730973043,1.0156869888305664,-2.6929855982409876
1708436207.252751,-2.1422226428985596,-1.3333623719266434,-2.525727097188131,6.110779988556661,1.0156707763671875,-2.6929972807513636
1708436207.2547626,-2.1421873569488525,-1.3334365052035828,-2.525735918675558,6.110808241158285,1.0156139135360718,-2.6929855982409876
1708436207.256745,-2.1422009468078613,-1.3334201586297532,-2.5257225672351282,6.110858428269186,1.0156545639038086,-2.692972962056295
1708436207.258744,-2.142209529876709,-1.333378718500473,-2.52574330965151,6.110812532692709,1.0156502723693848,-2.6929898897754114
1708436207.2607362,-2.1421916484832764,-1.3334528368762513,-2.525731388722555,6.110808241158285,1.0156750679016113,-2.6930182615863245
1708436207.2627509,-2.1421844959259033,-1.3334188026240845,-2.5257564226733606,6.110842215805807,1.0156794786453247,-2.692977492009298
1708436207.2647564,-2.1422338485717773,-1.3334365052035828,-2.525703255330221,6.110800730973043,1.0156588554382324,-2.6930273214923304
1708436207.2667863,-2.142249584197998,-1.3333998036435624,-2.5256944338427942,6.11085723617629,1.0156257152557373,-2.692972962056295
1708436207.2687936,-2.1422295570373535,-1.3334662032178421,-2.5256944338427942,6.110820400505819,1.0156588554382324,-2.6930199305163782
1708436207.2707634,-2.142204761505127,-1.3333919805339356,-2.525747601185934,6.11079632022933,1.0156588554382324,-2.6929944197284144
1708436207.2727616,-2.1422367095947266,-1.333424673681595,-2.5257063547717493,6.110820400505819,1.0156502723693848,-2.692965571080343
1708436207.2747614,-2.1422576904296875,-1.3334158223918458,-2.525698725377218,6.110829102783956,1.0156545639038086,-2.6929882208453577
1708436207.2767503,-2.142220973968506,-1.3334365052035828,-2.525731388722555,6.110797393112936,1.0156466960906982,-2.6929944197284144
1708436207.278754,-2.1422619819641113,-1.3333998036435624,-2.5257402102099817,6.110771405487814,1.015700101852417,-2.6929855982409876
1708436207.2807748,-2.1422786712646484,-1.3333998185447236,-2.525714937840597,6.11089442947463,1.0156676769256592,-2.6930063406573694
1708436207.2827668,-2.1422295570373535,-1.3334041398814698,-2.525747601185934,6.110849725991049,1.0156664848327637,-2.69300347963442
1708436207.2847607,-2.142216682434082,-1.3334041398814698,-2.525698725377218,6.110783445626058,1.0156989097595215,-2.692990843449728
1708436207.2867706,-2.1422743797302246,-1.3333953779986878,-2.5257120768176478,6.110841023712911,1.0156214237213135,-2.6929989496814173
1708436207.2887535,-2.1422367095947266,-1.3334041398814698,-2.5257402102099817,6.1108529446418665,1.0156664848327637,-2.6930270830737513
1708436207.2907565,-2.1422576904296875,-1.3334277433208008,-2.525727097188131,6.110861646920004,1.0156301259994507,-2.6930397192584437
1708436207.2927556,-2.1422410011291504,-1.3333919805339356,-2.5257402102099817,6.110861646920004,1.0156458616256714,-2.6930108706103724
1708436207.2947645,-2.1422576904296875,-1.3334365052035828,-2.525764290486471,6.110845315247335,1.0156664848327637,-2.6930108706103724
1708436207.29676,-2.142289876937866,-1.3333864522031327,-2.525714937840597,6.1108248112495325,1.0156676769256592,-2.6930318514453333
1708436207.2987862,-2.1422295570373535,-1.3333800596049805,-2.525710646306173,6.110816108971395,1.0156458616256714,-2.692972962056295
1708436207.3007686,-2.1422007083892822,-1.3334201586297532,-2.5257445017444056,6.110885727196493,1.0156750679016113,-2.692977492009298
1708436207.3027997,-2.1422367095947266,-1.3334410053542634,-2.5257609526263636,6.1108858464057825,1.0156545639038086,-2.6929855982409876
1708436207.304795,-2.1422324180603027,-1.3334158223918458,-2.525707546864645,6.110903131752767,1.015637993812561,-2.6929944197284144
1708436207.3067706,-2.14224910736084,-1.3333623719266434,-2.525731388722555,6.110861646920004,1.0156095027923584,-2.6929855982409876
1708436207.3087535,-2.142245054244995,-1.3334069711020966,-2.525747601185934,6.1108367321784876,1.0156422853469849,-2.693059031163351
1708436207.3107824,-2.142228364944458,-1.333424673681595,-2.525731388722555,6.1108367321784876,1.0156422853469849,-2.6929972807513636
1708436207.312743,-2.1422533988952637,-1.333445430999138,-2.5257194677936,6.1108529446418665,1.0156707763671875,-2.6930046717273157
1708436207.3147912,-2.1422324180603027,-1.3333623719266434,-2.525785032902853,6.110816228180685,1.0156301259994507,-2.6930561701404017
1708436207.3167834,-2.14224910736084,-1.333424673681595,-2.525727097188131,6.110845315247335,1.0156588554382324,-2.6929898897754114
1708436207.3187697,-2.1422410011291504,-1.3333742779544373,-2.525735918675558,6.11083351352767,1.0156707763671875,-2.6929855982409876
1708436207.3207772,-2.1422009468078613,-1.3334321689656754,-2.525735918675558,6.110890137940206,1.0156501531600952,-2.6929972807513636
1708436207.3227446,-2.1422367095947266,-1.3333504509976883,-2.525764290486471,6.11085723617629,1.0156095027923584,-2.6930363813983362
1708436207.324759,-2.1422324180603027,-1.333448515539505,-2.5257194677936,6.1108988402183435,1.0156466960906982,-2.6930063406573694
1708436207.3267655,-2.14224910736084,-1.333448515539505,-2.5257182757007044,6.11087046840743,1.0156588554382324,-2.692972962056295
1708436207.3287761,-2.1423099040985107,-1.333424673681595,-2.525752131138937,6.110808241158285,1.0156335830688477,-2.6930270830737513
1708436207.3307712,-2.142289876937866,-1.333440975551941,-2.5256944338427942,6.1108038304145715,1.0156502723693848,-2.6930018107043665
1708436207.3327448,-2.1422619819641113,-1.3334617775729676,-2.525731388722555,6.11083351352767,1.0157033205032349,-2.6930182615863245
1708436207.3347487,-2.1422619819641113,-1.333457351928093,-2.5257194677936,6.1108248112495325,1.015637993812561,-2.6929639021502894
1708436207.336749,-2.1422855854034424,-1.3334695112756272,-2.525735918675558,6.110844242363729,1.0156826972961426,-2.6930134932147425
1708436207.3387651,-2.1422576904296875,-1.3334440898946305,-2.525731388722555,6.110829102783956,1.0156632661819458,-2.6930092016803187
1708436207.3407652,-2.142213821411133,-1.3334410053542634,-2.525735918675558,6.11083351352767,1.0156632661819458,-2.6930270830737513
1708436207.3427525,-2.142228364944458,-1.3334440898946305,-2.5257194677936,6.11077247837142,1.0156588554382324,-2.693042580281393
1708436207.3447483,-2.1422324180603027,-1.3334158223918458,-2.525738779698507,6.11082552650527,1.0156632661819458,-2.69303805032839
1708436207.3467522,-2.14224910736084,-1.333420143728592,-2.525727097188131,6.110808241158285,1.0156466960906982,-2.6930063406573694
1708436207.3487797,-2.1421923637390137,-1.3334814471057435,-2.5257237593280237,6.110829102783956,1.0156707763671875,-2.6930227915393274
1708436207.3507583,-2.14229416847229,-1.3334201586297532,-2.5257402102099817,6.110816108971395,1.0156171321868896,-2.6930046717273157
1708436207.3527524,-2.142245292663574,-1.3334158223918458,-2.525710646306173,6.11085723617629,1.015637993812561,-2.6930182615863245
1708436207.3547661,-2.142220973968506,-1.3334528368762513,-2.5257402102099817,6.110805022507467,1.0156588554382324,-2.693030659352438
1708436207.3567572,-2.1422410011291504,-1.3333954078010102,-2.525727097188131,6.11079632022933,1.0156588554382324,-2.693021837865011
1708436207.3587568,-2.1422576904296875,-1.3334086549333115,-2.5257237593280237,6.110829102783956,1.0156632661819458,-2.6930607000934046
1708436207.3607671,-2.1422619819641113,-1.3334130507758637,-2.525710646306173,6.110845315247335,1.0156422853469849,-2.6930797735797327
1708436207.362741,-2.1422576904296875,-1.3334041398814698,-2.5257511774646204,6.1108378050620935,1.0156794786453247,-2.6930633226977747
1708436207.3647625,-2.1422576904296875,-1.3334321689656754,-2.525735918675558,6.11083351352767,1.0156052112579346,-2.6930697599994105
1708436207.3667736,-2.1422743797302246,-1.333439664249756,-2.525731388722555,6.110854017525472,1.0156912803649902,-2.6930633226977747
1708436207.3688226,-2.142265796661377,-1.3333547425321122,-2.5257554689990442,6.11085723617629,1.0156676769256592,-2.6930633226977747
1708436207.3708713,-2.1422533988952637,-1.3333697778037568,-2.5257063547717493,6.110816943436422,1.0156466960906982,-2.693030659352438
1708436207.3729005,-2.14224910736084,-1.333366797571518,-2.5257390181170862,6.110812532692709,1.0156545639038086,-2.693000141774313
1708436207.3748484,-2.1422901153564453,-1.3334277284196396,-2.5257018248187464,6.11080168464736,1.0156545639038086,-2.6930092016803187
1708436207.3768091,-2.142249584197998,-1.3333831292441864,-2.525714937840597,6.1108248112495325,1.0156502723693848,-2.6929762999164026
1708436207.3788214,-2.1422743797302246,-1.3334409606507798,-2.525747601185934,6.110800730973043,1.0156750679016113,-2.693012777959005
1708436207.3808236,-2.14229416847229,-1.3334290844253083,-2.525764290486471,6.110846507340231,1.0156337022781372,-2.693042580281393
1708436207.3828278,-2.142245292663574,-1.3334201586297532,-2.5258103052722376,6.1107637760932825,1.0157033205032349,-2.6930962244616907
1708436207.3848007,-2.1422786712646484,-1.333420143728592,-2.52574330965151,6.110812532692709,1.0156707763671875,-2.6929927507983606
1708436207.3868024,-2.1422533988952637,-1.3333998036435624,-2.52574330965151,6.110842215805807,1.0156956911087036,-2.6930442492114466
1708436207.3888245,-2.142289876937866,-1.3334528368762513,-2.52574330965151,6.110763895302572,1.0156458616256714,-2.6930134932147425
1708436207.3908203,-2.1422410011291504,-1.3333909672549744,-2.52574330965151,6.110854136734762,1.0156337022781372,-2.693033758793966
1708436207.3928282,-2.1422367095947266,-1.3334086549333115,-2.525747601185934,6.11082552650527,1.0156664848327637,-2.69303805032839
1708436207.3947952,-2.1422324180603027,-1.333386482005455,-2.525735918675558,6.110756265908041,1.0156989097595215,-2.693042580281393
1708436207.39681,-2.142216682434082,-1.3334201586297532,-2.5257511774646204,6.1108953831489465,1.0157363414764404,-2.6930797735797327
1708436207.3987982,-2.1422252655029297,-1.3333919656327744,-2.525752131138937,6.110772597580709,1.0156502723693848,-2.6929927507983606
1708436207.400802,-2.1422743797302246,-1.3334086698344727,-2.5257554689990442,6.110801803856649,1.0156707763671875,-2.6930046717273157
1708436207.4028037,-2.142265796661377,-1.333457351928093,-2.525759998952047,6.110776889115133,1.0156946182250977,-2.693021837865011
1708436207.4048078,-2.142249584197998,-1.3333919805339356,-2.525747601185934,6.110760557442465,1.0156337022781372,-2.6930137316333216
1708436207.406825,-2.1422743797302246,-1.3333998334458848,-2.5257225672351282,6.110818016320028,1.0157076120376587,-2.693000141774313
1708436207.4087818,-2.1422743797302246,-1.3334277284196396,-2.5257840792285364,6.110788810044088,1.0156869888305664,-2.693021837865011
1708436207.4107914,-2.142289876937866,-1.3334069711020966,-2.5257466475116175,6.110764968186178,1.0157241821289062,-2.693033520375387
1708436207.4128058,-2.1422786712646484,-1.3333831292441864,-2.5257554689990442,6.110772597580709,1.0156946182250977,-2.693059031163351
1708436207.414783,-2.1422786712646484,-1.333404154782631,-2.52578050294985,6.110789882927694,1.0156902074813843,-2.6930723826037806
1708436207.4168198,-2.1422533988952637,-1.3334113967469712,-2.52574330965151,6.110825645714559,1.0156621932983398,-2.693017307912008
1708436207.4187982,-2.1422743797302246,-1.3334201586297532,-2.5257554689990442,6.110788810044088,1.0156739950180054,-2.693049971257345
1708436207.4207695,-2.1422252655029297,-1.3334130358747025,-2.5257225672351282,6.110794174462118,1.0156664848327637,-2.693070952092306
1708436207.4228048,-2.1422533988952637,-1.333415837293007,-2.525771681462423,6.110769140511312,1.015653371810913,-2.693070713673727
1708436207.4248002,-2.1422126293182373,-1.3334158074906846,-2.5257225672351282,6.110744344979086,1.0156946182250977,-2.693033758793966
1708436207.4267936,-2.1422126293182373,-1.3334277433208008,-2.5257466475116175,6.110798585205831,1.0156869888305664,-2.693070952092306
1708436207.4287946,-2.14224910736084,-1.3333459806493302,-2.5257182757007044,6.110794174462118,1.0157233476638794,-2.693078343068258
1708436207.4307826,-2.1422576904296875,-1.3334113967469712,-2.525764290486471,6.110728847771444,1.0157233476638794,-2.693091694508688
1708436207.4327862,-2.14229416847229,-1.3333953779986878,-2.5257840792285364,6.1107051251228235,1.0157032012939453,-2.693059031163351
1708436207.4348054,-2.1422295570373535,-1.3333998036435624,-2.525710646306173,6.1107332585151575,1.015685796737671,-2.693042580281393
1708436207.4368038,-2.1422410011291504,-1.3334365052035828,-2.525792662297384,6.110717046051779,1.015718936920166,-2.693049971257345
1708436207.4387898,-2.1422576904296875,-1.3334114265492936,-2.525738779698507,6.110725748329916,1.015735149383545,-2.693070952092306
1708436207.4407897,-2.142249584197998,-1.3334277433208008,-2.5257554689990442,6.1107061980064294,1.0157146453857422,-2.693059031163351
1708436207.4428198,-2.142205238342285,-1.3334201288274308,-2.525771681462423,6.110701906472006,1.015718936920166,-2.693120781575338
1708436207.444791,-2.1422786712646484,-1.3333964210799714,-2.52574330965151,6.110677706986227,1.015685796737671,-2.69307524362673
1708436207.4467978,-2.1422367095947266,-1.3333592873862763,-2.52578050294985,6.11063979843215,1.0156739950180054,-2.69310433069338
1708436207.448784,-2.14224910736084,-1.3333800596049805,-2.5257707277881067,6.110701906472006,1.015730857849121,-2.693063561116354
1708436207.4508193,-2.1422252655029297,-1.333366797571518,-2.5257554689990442,6.110689627915182,1.0156902074813843,-2.6930998007403772
1708436207.4528248,-2.1422619819641113,-1.3334321689656754,-2.525747601185934,6.110620248108663,1.015669584274292,-2.693066422139303
1708436207.454803,-2.142220973968506,-1.3334157925895234,-2.5257511774646204,6.110645639687338,1.0157146453857422,-2.693073813115255
1708436207.4568286,-2.142216682434082,-1.3334681701711197,-2.5258002916919153,6.110621440201559,1.0157395601272583,-2.6931117216693323
1708436207.4587908,-2.142265796661377,-1.3333874654820939,-2.5258002916919153,6.110621320992269,1.0157277584075928,-2.6930528322802942
1708436207.460813,-2.1422576904296875,-1.3334277284196396,-2.525771681462423,6.110612737923422,1.0157352685928345,-2.6930199305163782
1708436207.4628236,-2.1422410011291504,-1.333440975551941,-2.525771681462423,6.110612737923422,1.015735149383545,-2.6930907408343714
1708436207.4647896,-2.1422410011291504,-1.3334365052035828,-2.5257344881640833,6.110665666847982,1.015730857849121,-2.6930981318103235
1708436207.4667933,-2.1422410011291504,-1.3334651750377198,-2.525771681462423,6.110686409264364,1.0157146453857422,-2.6930862108813685
1708436207.4688287,-2.1422743797302246,-1.3334410202554245,-2.5257795492755335,6.110654222756185,1.0157636404037476,-2.693082873021261
1708436207.4708512,-2.1422855854034424,-1.3334041398814698,-2.5257750193225306,6.110678899079122,1.0157636404037476,-2.69310433069338
1708436207.4728096,-2.1422338485717773,-1.3333919656327744,-2.5257673899279993,6.110641944199362,1.0157265663146973,-2.6931026617633265
1708436207.4747775,-2.1422410011291504,-1.3334277135184784,-2.5257628599749964,6.1106170294578455,1.0157146453857422,-2.6930983702289026
1708436207.4768276,-2.1422743797302246,-1.3334528070739289,-2.5257795492755335,6.110608446388998,1.0157102346420288,-2.6931236425982874
1708436207.4788015,-2.142220973968506,-1.333485872750618,-2.5257540384875696,6.11062906959609,1.0157636404037476,-2.6931117216693323
1708436207.4807446,-2.142213821411133,-1.3333874654820939,-2.525804583226339,6.110658633499899,1.0157636404037476,-2.6931281725512903
1708436207.4827828,-2.142266273498535,-1.333375633960106,-2.5257795492755335,6.1106300232704065,1.0157885551452637,-2.693153444920675
1708436207.4847498,-2.1421959400177,-1.3334041249803086,-2.5257466475116175,6.110576617508688,1.0158004760742188,-2.6931145826922815
1708436207.4867866,-2.142209529876709,-1.3334321689656754,-2.5257750193225306,6.110616910248556,1.0157755613327026,-2.6930819193469446
1708436207.488751,-2.142209529876709,-1.3334277284196396,-2.5257466475116175,6.110609519272604,1.0157593488693237,-2.6931071917163294
1708436207.4907575,-2.1422252655029297,-1.3333788228086014,-2.525749746953146,6.110654222756185,1.0157015323638916,-2.6931100527392786
1708436207.4928176,-2.1422786712646484,-1.3334291142276307,-2.5258122126208704,6.110646235733785,1.0157549381256104,-2.6931281725512903
1708436207.4947422,-2.1421844959259033,-1.3333919954350968,-2.5257883707629603,6.110584485321798,1.0157470703125,-2.6931234041797083
1708436207.4967694,-2.1422181129455566,-1.3333954078010102,-2.5257914702044886,6.110581028252401,1.0157798528671265,-2.6931310335742396
1708436207.4987416,-2.1421873569488525,-1.3333909970572968,-2.5258033911334437,6.110676038056173,1.0157679319381714,-2.6931145826922815
1708436207.5007448,-2.142245292663574,-1.3333787781051178,-2.5258079210864466,6.110643136292257,1.0157102346420288,-2.6930862108813685
1708436207.502743,-2.142209529876709,-1.3334335100701828,-2.5257869402514856,6.110643136292257,1.0157463550567627,-2.6931265036212366
1708436207.5047448,-2.1421959400177,-1.3334201884320755,-2.5258317629443567,6.110594141274252,1.0157506465911865,-2.6930952707873743
1708436207.5067668,-2.1422338485717773,-1.333378718500473,-2.525790278111593,6.110581028252401,1.0157668590545654,-2.6931145826922815
1708436207.5087514,-2.142254114151001,-1.3334246438792725,-2.52579909959902,6.110643136292257,1.0157830715179443,-2.6931100527392786
1708436207.510731,-2.1422338485717773,-1.3333623719266434,-2.525827471409933,6.110524642258444,1.0157743692398071,-2.6930862108813685
1708436207.5127673,-2.142242670059204,-1.3333711189082642,-2.525860373173849,6.110577809601583,1.0157830715179443,-2.6930816809283655
1708436207.514731,-2.142245292663574,-1.333457351928093,-2.52579909959902,6.110545027046957,1.015799641609192,-2.6931100527392786
1708436207.5167568,-2.1421959400177,-1.3334158223918458,-2.5258076826678675,6.110562312393942,1.0157909393310547,-2.6930981318103235
1708436207.518738,-2.142205238342285,-1.3333874654820939,-2.525790278111593,6.110509502678671,1.0158084630966187,-2.6930938402758997
1708436207.5207381,-2.1421959400177,-1.3334086549333115,-2.525806490574972,6.1105666039283655,1.0157593488693237,-2.6931100527392786
1708436207.5227594,-2.142213821411133,-1.333444060092308,-2.525848452244894,6.110485303192892,1.0157711505889893,-2.6931100527392786
1708436207.5247457,-2.142209529876709,-1.333374263053276,-2.525802199040548,6.110534417420187,1.015749454498291,-2.6930952707873743
1708436207.5267434,-2.1421759128570557,-1.3333919805339356,-2.5258317629443567,6.1105388281639,1.0157581567764282,-2.6931355635272425
1708436207.5287344,-2.142205238342285,-1.3333742928555985,-2.525832001362936,6.110506045609274,1.015815019607544,-2.6931026617633265
1708436207.530735,-2.142242670059204,-1.333420143728592,-2.525827471409933,6.110473501473226,1.0158039331436157,-2.6930938402758997
1708436207.532736,-2.1422312259674072,-1.3334086549333115,-2.5258196035968226,6.1105103371436975,1.015798807144165,-2.693073574696676
1708436207.5347507,-2.142164468765259,-1.3333667677691956,-2.525827471409933,6.110530125885763,1.0157779455184937,-2.6930998007403772
1708436207.5367596,-2.1422295570373535,-1.3333953332952042,-2.5258241335498255,6.110547530442037,1.0158443450927734,-2.6930602232562464
1708436207.5387616,-2.142200231552124,-1.3334158223918458,-2.5258079210864466,6.1105432389076135,1.0158237218856812,-2.6930862108813685
1708436207.5407825,-2.1422338485717773,-1.3333579462817688,-2.5258362928973597,6.110464918404379,1.015795350074768,-2.6931384245501917
1708436207.542745,-2.1422338485717773,-1.333457351928093,-2.5258033911334437,6.110452878266134,1.0157865285873413,-2.6931398550616663
1708436207.5447853,-2.142204761505127,-1.333457351928093,-2.525810782109396,6.110494124680319,1.0157909393310547,-2.6931071917163294
1708436207.5467484,-2.1421759128570557,-1.3334484559348603,-2.5258033911334437,6.11047779300765,1.0157865285873413,-2.6930771509753626
1708436207.5487483,-2.1422576904296875,-1.3334201586297532,-2.525832001362936,6.110498416214742,1.0158030986785889,-2.6930938402758997
1708436207.5507488,-2.1421916484832764,-1.3334410202554245,-2.525794569646017,6.110498416214742,1.0158237218856812,-2.6931265036212366
1708436207.5528214,-2.1421890258789062,-1.3333998036435624,-2.52584416071047,6.110465872078695,1.0158193111419678,-2.6931265036212366
1708436207.554762,-2.1422269344329834,-1.3334246289781113,-2.525810782109396,6.110494124680319,1.015798807144165,-2.6931353251086634
1708436207.55679,-2.1422383785247803,-1.3334201586297532,-2.5258076826678675,6.110498416214742,1.015815019607544,-2.6930938402758997
1708436207.558752,-2.1422512531280518,-1.3334484857371827,-2.525818649922506,6.110469090729513,1.0158064365386963,-2.6931355635272425
1708436207.560785,-2.1422226428985596,-1.3334440749934693,-2.525810782109396,6.110556232720175,1.0157865285873413,-2.6930773893939417
1708436207.5627499,-2.142242670059204,-1.333413080578186,-2.525855843220846,6.110513913422384,1.0157743692398071,-2.6931191126452845
1708436207.5647485,-2.142242670059204,-1.333424673681595,-2.5258033911334437,6.110494124680319,1.0158355236053467,-2.6930907408343714
1708436207.5667431,-2.1422269344329834,-1.3334041696837922,-2.525773827229635,6.110485422402181,1.0157945156097412,-2.693073574696676
1708436207.568778,-2.142242670059204,-1.3333919656327744,-2.5258362928973597,6.110498535424032,1.0158474445343018,-2.693073813115255
1708436207.5707874,-2.142246961593628,-1.333415837293007,-2.5258033911334437,6.110514747887411,1.0157822370529175,-2.6931310335742396
1708436207.572788,-2.1421687602996826,-1.33338317394767,-2.525855843220846,6.110453712731161,1.0158030986785889,-2.69310433069338
1708436207.57479,-2.1421959400177,-1.3333865118077775,-2.5258153120623987,6.110457289009847,1.0158443450927734,-2.6930981318103235
1708436207.576781,-2.1421959400177,-1.3334158074906846,-2.5258153120623987,6.110445010453024,1.0157986879348755,-2.6930816809283655
1708436207.57875,-2.142204761505127,-1.333439664249756,-2.52582294145693,6.110461580544271,1.0158226490020752,-2.6930981318103235
1708436207.5807536,-2.1421890258789062,-1.333424673681595,-2.525848452244894,6.110494124680319,1.0158193111419678,-2.6931472460376185
1708436207.5827816,-2.1422226428985596,-1.3333998036435624,-2.525823179875509,6.110519039421835,1.0157779455184937,-2.6931265036212366
1708436207.5847518,-2.1422383785247803,-1.3334158074906846,-2.525851551686422,6.110490906029501,1.01576566696167,-2.6931071917163294
1708436207.5867589,-2.1422312259674072,-1.3334069711020966,-2.525782648717062,6.110486495285787,1.015777826309204,-2.6931145826922815
1708436207.5887487,-2.142186164855957,-1.3333624613336106,-2.525832001362936,6.110445010453024,1.0158107280731201,-2.6930692831622522
1708436207.5907521,-2.1421802043914795,-1.3333711338094254,-2.525818649922506,6.1105103371436975,1.015761375427246,-2.6930862108813685
1708436207.5927405,-2.1421802043914795,-1.3333381426385422,-2.525823179875509,6.110424506455221,1.015798807144165,-2.6930938402758997
1708436207.5947435,-2.142209053039551,-1.3334114265492936,-2.5258527437793177,6.110494124680319,1.0157822370529175,-2.6931353251086634
1708436207.5967534,-2.142209053039551,-1.3334321540645142,-2.5258317629443567,6.110453712731161,1.0157865285873413,-2.6931310335742396
1708436207.5987546,-2.142197608947754,-1.3334365052035828,-2.525848452244894,6.110465991287985,1.0158443450927734,-2.6931353251086634
1708436207.6007512,-2.1421732902526855,-1.333457351928093,-2.525740925465719,6.110502826958456,1.0158727169036865,-2.6931310335742396
1708436207.6027606,-2.1421608924865723,-1.3334188026240845,-2.5258317629443567,6.1104822037513635,1.015815019607544,-2.6931398550616663
1708436207.6047583,-2.142197608947754,-1.333448515539505,-2.525860373173849,6.110457289009847,1.0158312320709229,-2.6931265036212366
1708436207.606772,-2.1421566009521484,-1.3333711189082642,-2.5258405844317835,6.110424387245931,1.015815019607544,-2.6931517759906214
1708436207.6087534,-2.1421284675598145,-1.3333998334458848,-2.52579909959902,6.110486495285787,1.0158193111419678,-2.6931219736682337
1708436207.6107576,-2.1422512531280518,-1.3334247183850785,-2.525818649922506,6.110555159836569,1.0158355236053467,-2.6931384245501917
1708436207.6127799,-2.1422269344329834,-1.333375633960106,-2.525782648717062,6.1104692099388025,1.0158193111419678,-2.6931265036212366
1708436207.6147609,-2.1422061920166016,-1.3334351491979142,-2.5258153120623987,6.1105313179786584,1.0158182382583618,-2.6931265036212366
1708436207.6167533,-2.142165184020996,-1.3334454608014603,-2.525790278111593,6.110465991287985,1.0158107280731201,-2.6931100527392786
1708436207.6187613,-2.1421520709991455,-1.3334233176759263,-2.5258317629443567,6.110502826958456,1.0158075094223022,-2.6931265036212366
1708436207.620761,-2.1421890258789062,-1.3333953779986878,-2.525839630757467,6.1105313179786584,1.0158226490020752,-2.6931174437152308
1708436207.6227965,-2.142209053039551,-1.333457351928093,-2.525790278111593,6.110461580544271,1.015826940536499,-2.6931100527392786
1708436207.624749,-2.142209053039551,-1.3333998185447236,-2.525806490574972,6.110465991287985,1.015843152999878,-2.6931265036212366
1708436207.62677,-2.142165184020996,-1.3333998036435624,-2.525802199040548,6.1105103371436975,1.0158518552780151,-2.6930981318103235
1708436207.62879,-2.1421844959259033,-1.3333831590465088,-2.5257814566241663,6.1104702828224084,1.0158226490020752,-2.693105761204855
1708436207.6307485,-2.14219331741333,-1.3334277433208008,-2.5258153120623987,6.1104407189186,1.0157943964004517,-2.6931563059436243
1708436207.63277,-2.1422312259674072,-1.3333954078010102,-2.5257933775531214,6.110519039421835,1.015815019607544,-2.6931384245501917
1708436207.6347697,-2.1422176361083984,-1.3334158074906846,-2.525790278111593,6.110490906029501,1.0158475637435913,-2.693171803151266
1708436207.636745,-2.142209053039551,-1.3334114265492936,-2.5258527437793177,6.110489833145895,1.0157865285873413,-2.6931474844561976
1708436207.6387835,-2.142209053039551,-1.3334113967469712,-2.525843922291891,6.110494124680319,1.015838861465454,-2.6931429545031946
1708436207.6407564,-2.1422269344329834,-1.3334410053542634,-2.5258646647082728,6.110486495285787,1.015798807144165,-2.6931174437152308
1708436207.64279,-2.142235517501831,-1.3334695112756272,-2.525823179875509,6.110490906029501,1.0158107280731201,-2.6931474844561976
1708436207.644775,-2.1421775817871094,-1.3334114414504548,-2.525827471409933,6.110485422402181,1.0158064365386963,-2.6931219736682337
1708436207.646755,-2.142181873321533,-1.3333711487105866,-2.5258317629443567,6.110498416214742,1.015815019607544,-2.693159882222311
1708436207.6487513,-2.14219331741333,-1.333392010336258,-2.525790278111593,6.110433208733358,1.0158226490020752,-2.693159882222311
1708436207.6507504,-2.14219331741333,-1.3333743524602433,-2.5258353392230433,6.110457289009847,1.0158474445343018,-2.693103853856222
1708436207.6527486,-2.14219331741333,-1.3334321540645142,-2.5258317629443567,6.1105103371436975,1.015826940536499,-2.6931429545031946
1708436207.6547813,-2.1421775817871094,-1.3334484857371827,-2.52579909959902,6.110494124680319,1.015838861465454,-2.69309646288027
1708436207.656759,-2.1421284675598145,-1.3334573817304154,-2.525860373173849,6.110457289009847,1.0158138275146484,-2.6931219736682337
1708436207.6587534,-2.1422133445739746,-1.3334086698344727,-2.5258153120623987,6.110489833145895,1.0158597230911255,-2.6931961218463343
1708436207.6607602,-2.142197608947754,-1.3334086251309891,-2.525827471409933,6.110494124680319,1.015843152999878,-2.693129364644186
1708436207.6627464,-2.142197608947754,-1.3333998185447236,-2.525818649922506,6.110502826958456,1.0158182382583618,-2.6931429545031946
1708436207.66477,-2.14216947555542,-1.333391011958458,-2.5258353392230433,6.110514747887411,1.0158226490020752,-2.6931174437152308
1708436207.666754,-2.1421775817871094,-1.3333998185447236,-2.525843922291891,6.110494124680319,1.015826940536499,-2.6931384245501917
1708436207.6688266,-2.1421687602996826,-1.3334528070739289,-2.5258734861956995,6.1105432389076135,1.015843152999878,-2.6931429545031946
1708436207.6708138,-2.1422176361083984,-1.3334233176759263,-2.5258033911334437,6.110465991287985,1.0158344507217407,-2.6931429545031946
1708436207.6727965,-2.1422219276428223,-1.3334246438792725,-2.525811020527975,6.11050163486556,1.0157856941223145,-2.693124596272604
1708436207.6747425,-2.1422061920166016,-1.333404154782631,-2.525860373173849,6.110494124680319,1.015826940536499,-2.693171803151266
1708436207.6767597,-2.142181873321533,-1.333407000904419,-2.525872294102804,6.110522615700521,1.0158510208129883,-2.6931265036212366
1708436207.6787586,-2.142197608947754,-1.3334410053542634,-2.525806490574972,6.110563862114706,1.015802025794983,-2.693217102681295
1708436207.6807427,-2.142181873321533,-1.333448515539505,-2.525827471409933,6.110498416214742,1.0158107280731201,-2.6931915918933313
1708436207.682791,-2.142204761505127,-1.3334069562009354,-2.525806490574972,6.110514747887411,1.0158344507217407,-2.693146292363302
1708436207.6847608,-2.142186164855957,-1.3334201586297532,-2.5258317629443567,6.11050163486556,1.0158432722091675,-2.6931327025042933
1708436207.6867473,-2.1421566009521484,-1.333392010336258,-2.525843922291891,6.110485303192892,1.0158597230911255,-2.6932078043567103
1708436207.6887708,-2.1421732902526855,-1.3334440749934693,-2.5258353392230433,6.1105103371436975,1.0158510208129883,-2.6931825319873255
1708436207.6907551,-2.1421732902526855,-1.3334246587804337,-2.525811020527975,6.110506045609274,1.0158554315567017,-2.6932335535632532
1708436207.6927705,-2.1422019004821777,-1.3334130060723801,-2.525848452244894,6.11053894737319,1.015838861465454,-2.693200651799337
1708436207.6947517,-2.142235517501831,-1.333436520104744,-2.525802199040548,6.110543119698324,1.0158344507217407,-2.6931751410113733
1708436207.69679,-2.142190456390381,-1.3334485304406662,-2.525823179875509,6.1105313179786584,1.015838861465454,-2.6931617895709437
1708436207.6987607,-2.142209053039551,-1.333424673681595,-2.525851551686422,6.1105313179786584,1.0158064365386963,-2.6931663195239466
1708436207.7007632,-2.1421775817871094,-1.3333919507316132,-2.525811020527975,6.110525834351339,1.0158554315567017,-2.6931706110583704
1708436207.7028005,-2.14219331741333,-1.3334484559348603,-2.5258353392230433,6.110550749092855,1.0158312320709229,-2.6931870619403284
1708436207.7047698,-2.1421353816986084,-1.3333998185447236,-2.5258153120623987,6.110521542816915,1.015892505645752,-2.693169180546896
1708436207.7067833,-2.1421608924865723,-1.3333743822625657,-2.525860373173849,6.110558020859518,1.0158138275146484,-2.6932182947741907
1708436207.7087593,-2.1421241760253906,-1.3334290397218247,-2.525851551686422,6.110558020859518,1.0158554315567017,-2.6932228247271937
1708436207.7107732,-2.142204761505127,-1.3333831292441864,-2.525818649922506,6.110530125885763,1.015802025794983,-2.6931899229632776
1708436207.7127612,-2.14219331741333,-1.3334114116481324,-2.52584416071047,6.110549318581381,1.0158675909042358,-2.693277184163229
1708436207.7147462,-2.142165184020996,-1.3333711189082642,-2.52584416071047,6.110525834351339,1.0158344507217407,-2.6932347456561487
1708436207.7167723,-2.1421775817871094,-1.3334201586297532,-2.52578574815859,6.110578882485189,1.0158554315567017,-2.693272654210226
1708436207.7187748,-2.142209053039551,-1.3333874505809327,-2.5258353392230433,6.110553729325094,1.0158344507217407,-2.6932852903949183
1708436207.720765,-2.1421775817871094,-1.3334440898946305,-2.525811020527975,6.110619294434347,1.0158300399780273,-2.693246666585104
1708436207.7227776,-2.1421737670898438,-1.3334158074906846,-2.525806490574972,6.110560405045309,1.0158675909042358,-2.693214003239767
1708436207.7247708,-2.1422312259674072,-1.333399848347046,-2.525848452244894,6.110574590950765,1.0158554315567017,-2.693242136632101
1708436207.726783,-2.14219331741333,-1.3333460849574585,-2.525851551686422,6.1105702994163416,1.0158182382583618,-2.6932762304889124
1708436207.7287552,-2.1421890258789062,-1.3333831888488312,-2.525848452244894,6.11063443401412,1.015876293182373,-2.693209234868185
1708436207.7307572,-2.1422219276428223,-1.3334201586297532,-2.525860373173849,6.110589730530538,1.0158257484436035,-2.6932511965381067
1708436207.7327642,-2.1421890258789062,-1.3333998185447236,-2.5258527437793177,6.110597598343649,1.0158182382583618,-2.693214003239767
1708436207.7347534,-2.1422133445739746,-1.333415837293007,-2.525893036519186,6.110649812012472,1.015846610069275,-2.69326359430422
1708436207.7367864,-2.142197608947754,-1.3334086698344727,-2.525823179875509,6.110670196800985,1.0158510208129883,-2.693259064351217
1708436207.738751,-2.142148494720459,-1.333413080578186,-2.5258265177356165,6.110664593964376,1.015892505645752,-2.693232838307516
1708436207.7407532,-2.1421520709991455,-1.333432213669159,-2.525860373173849,6.110685336380758,1.0158838033676147,-2.693237368260519
1708436207.7427778,-2.1421775817871094,-1.3333998036435624,-2.525810782109396,6.110680925637045,1.0158764123916626,-2.6932759920703333
1708436207.7447793,-2.142165184020996,-1.3334528070739289,-2.525843922291891,6.110669123917379,1.0158882141113281,-2.693232838307516
1708436207.7467804,-2.142209053039551,-1.3334086549333115,-2.5258308092700403,6.11074315288619,1.0158510208129883,-2.6932347456561487
1708436207.748748,-2.142144203186035,-1.3334651452353974,-2.525823179875509,6.110652792244711,1.015838861465454,-2.69326359430422
1708436207.7507517,-2.142186164855957,-1.3334277284196396,-2.5258317629443567,6.110718238144674,1.0158793926239014,-2.6932833830462855
1708436207.7527537,-2.14219331741333,-1.3334485006383439,-2.525851551686422,6.110673415451803,1.015838861465454,-2.6932833830462855
1708436207.7547464,-2.14219331741333,-1.3334441047957917,-2.525806490574972,6.110738742142477,1.0158554315567017,-2.693242136632101
1708436207.7567713,-2.14219331741333,-1.3334291142276307,-2.525839630757467,6.110722529679098,1.0158138275146484,-2.6932714621173304
1708436207.7587407,-2.1422176361083984,-1.333432139163353,-2.5258472601519983,6.110667931824484,1.015842318534851,-2.693242136632101
1708436207.7607346,-2.14219331741333,-1.3333998185447236,-2.525818649922506,6.110713708191671,1.0158138275146484,-2.693237368260519
1708436207.7627568,-2.142197608947754,-1.3333909970572968,-2.5258353392230433,6.110709416657247,1.0158300399780273,-2.693242136632101
1708436207.7647457,-2.1421399116516113,-1.3334041249803086,-2.525806490574972,6.110741960793295,1.0158300399780273,-2.693228546773092
1708436207.766772,-2.1421775817871094,-1.3334859323552628,-2.5258353392230433,6.1107061980064294,1.015846610069275,-2.693242136632101
1708436207.7687585,-2.142209053039551,-1.3333786886981507,-2.525806490574972,6.110734450608053,1.0158597230911255,-2.6932924429522913
1708436207.7708056,-2.1421775817871094,-1.333432139163353,-2.525818649922506,6.110697495728292,1.0158510208129883,-2.693242136632101
1708436207.772772,-2.142209053039551,-1.333390862946846,-2.525893036519186,6.110676514893331,1.0158226490020752,-2.693200174962179
1708436207.7747443,-2.142186164855957,-1.3333908927491684,-2.525855843220846,6.110737550049581,1.015826940536499,-2.6932511965381067
1708436207.7767704,-2.1421732902526855,-1.3334246438792725,-2.525827471409933,6.110741960793295,1.015826940536499,-2.693268124257223
1708436207.7787337,-2.1421732902526855,-1.3334041398814698,-2.525839630757467,6.110745417862692,1.015876293182373,-2.6932500044452112
1708436207.7807343,-2.142204761505127,-1.333439664249756,-2.525843922291891,6.110721337586202,1.0158720016479492,-2.6932972113238733
1708436207.7827508,-2.142209053039551,-1.3334454160979767,-2.5258362928973597,6.110749828606405,1.015838861465454,-2.6932714621173304
1708436207.7847378,-2.142197608947754,-1.3333756041577836,-2.525802199040548,6.110782372742452,1.0158344507217407,-2.6933134237872522
1708436207.7867396,-2.142209053039551,-1.3333980602077027,-2.525851551686422,6.11083863952712,1.0158138275146484,-2.6932924429522913
1708436207.7887487,-2.142235517501831,-1.3334364605000992,-2.5258472601519983,6.110764968186178,1.0158720016479492,-2.693225685750143
1708436207.7907746,-2.142204761505127,-1.33338317394767,-2.5258143583880823,6.110781180649557,1.0158720016479492,-2.693230215703146
1708436207.79276,-2.1422383785247803,-1.3333998036435624,-2.5258353392230433,6.110862839012899,1.015838861465454,-2.693232838307516
1708436207.794744,-2.14216947555542,-1.3334410351565857,-2.5258308092700403,6.110818016320028,1.015843152999878,-2.693254534398214
1708436207.796775,-2.1421520709991455,-1.3334770512631913,-2.5258317629443567,6.110793101578512,1.0158510208129883,-2.6932500044452112
1708436207.798748,-2.142204761505127,-1.3333786886981507,-2.5258317629443567,6.110800730973043,1.0158554315567017,-2.693237368260519
1708436207.800744,-2.1421844959259033,-1.3334233623794098,-2.5258153120623987,6.110787617951193,1.0158510208129883,-2.6932454744922083
1708436207.8027458,-2.1422019004821777,-1.3333909672549744,-2.525773827229635,6.110866057663717,1.015838861465454,-2.693259064351217
1708436207.8047862,-2.1422312259674072,-1.3334616732648392,-2.525867764149801,6.110885727196493,1.0158554315567017,-2.6932669321643274
1708436207.8067749,-2.1422512531280518,-1.3334770512631913,-2.525872294102804,6.110877859383383,1.015846610069275,-2.6932972113238733
1708436207.8087611,-2.142165184020996,-1.3334410053542634,-2.525848452244894,6.110877024918356,1.015826940536499,-2.6932807604419153
1708436207.8107474,-2.1421520709991455,-1.3334201586297532,-2.525860373173849,6.110816108971395,1.0158554315567017,-2.6932879129992884
1708436207.8127682,-2.142155885696411,-1.3334041249803086,-2.5258317629443567,6.110860454827108,1.0158882141113281,-2.693237368260519
1708436207.8147447,-2.142200231552124,-1.3333919805339356,-2.525839630757467,6.110808241158285,1.0158182382583618,-2.6933088938342493
1708436207.8167753,-2.1422133445739746,-1.3334024262479325,-2.525797669087545,6.110922324448385,1.0158182382583618,-2.693237368260519
1708436207.8187492,-2.1422061920166016,-1.3334086400321503,-2.525827471409933,6.110827910691061,1.0158182382583618,-2.6932511965381067
1708436207.8207557,-2.1421890258789062,-1.3333919805339356,-2.525843922291891,6.1108929989631555,1.0158064365386963,-2.693272654210226
1708436207.8227968,-2.1421890258789062,-1.3333998185447236,-2.525801960621969,6.110904919892111,1.0158226490020752,-2.693259064351217
1708436207.8247488,-2.1421890258789062,-1.3334114116481324,-2.5258308092700403,6.110852825432577,1.0158344507217407,-2.693254295979635
1708436207.8267815,-2.1421732902526855,-1.3333909076503296,-2.5258362928973597,6.110872733383932,1.0158344507217407,-2.693225685750143
1708436207.8287466,-2.142204761505127,-1.333427758221962,-2.5258196035968226,6.110872852593221,1.0158226490020752,-2.6932924429522913
1708436207.8307545,-2.1421687602996826,-1.3334158223918458,-2.525811020527975,6.110945451050558,1.0158518552780151,-2.693246666585104
1708436207.8327906,-2.1422226428985596,-1.333375633960106,-2.525806490574972,6.110887515335836,1.0158675909042358,-2.693254534398214
1708436207.8347647,-2.142197608947754,-1.3334410351565857,-2.525790278111593,6.110896336823263,1.0158597230911255,-2.6933253447162073
1708436207.8367617,-2.14219331741333,-1.3334441047957917,-2.525773827229635,6.110901701241293,1.015802025794983,-2.6932714621173304
1708436207.8387465,-2.142200231552124,-1.3333910268596192,-2.525860373173849,6.110909211426534,1.0158182382583618,-2.693237368260519
1708436207.8407435,-2.1421890258789062,-1.3334321838668366,-2.52584416071047,6.110872733383932,1.0158355236053467,-2.6932500044452112
1708436207.8427675,-2.1422181129455566,-1.3334158223918458,-2.525773827229635,6.110859739571371,1.0158720016479492,-2.693220917378561
1708436207.8447587,-2.1422226428985596,-1.3334041398814698,-2.525818649922506,6.110912549286642,1.015843152999878,-2.6932714621173304
1708436207.846789,-2.142249584197998,-1.3333415997079392,-2.525872294102804,6.110897409706869,1.0158064365386963,-2.693246666585104
1708436207.8487515,-2.142209053039551,-1.333441050057747,-2.525832001362936,6.110859739571371,1.0158807039260864,-2.6932669321643274
1708436207.8507395,-2.142200231552124,-1.3334440749934693,-2.5258033911334437,6.11082802990035,1.0158597230911255,-2.693232838307516
1708436207.8527527,-2.1422181129455566,-1.3334233325770875,-2.5258241335498255,6.110970365792074,1.0158193111419678,-2.693237368260519
1708436207.854746,-2.1422312259674072,-1.3334484857371827,-2.5258353392230433,6.110895025521078,1.0158554315567017,-2.693220917378561
1708436207.8567479,-2.1422626972198486,-1.3334113967469712,-2.5258317629443567,6.110945331841268,1.015843152999878,-2.693254534398214
1708436207.8587441,-2.1422181129455566,-1.3334440898946305,-2.525806490574972,6.110909211426534,1.0157945156097412,-2.6933041254626673
1708436207.8607514,-2.1421608924865723,-1.3334233176759263,-2.525843922291891,6.110916840821066,1.0158312320709229,-2.693237368260519
1708436207.862741,-2.1422181129455566,-1.3334158223918458,-2.52576190630068,6.1108929989631555,1.0158849954605103,-2.693259064351217
1708436207.8647425,-2.142245292663574,-1.333413080578186,-2.52584416071047,6.110896336823263,1.0158107280731201,-2.6932807604419153
1708436207.8667367,-2.1422312259674072,-1.3334350895932694,-2.5258241335498255,6.110958325653829,1.0158182382583618,-2.6932626406299036
1708436207.868784,-2.1422269344329834,-1.3333998334458848,-2.5258451143847864,6.1109081385429285,1.015826940536499,-2.6932807604419153
1708436207.87081,-2.142258405685425,-1.33341138184581,-2.5258405844317835,6.1109410403068445,1.015815019607544,-2.693263832722799
1708436207.8728414,-2.1422181129455566,-1.3333953332952042,-2.525811020527975,6.110903727799215,1.015798807144165,-2.6932807604419153
1708436207.874862,-2.142209053039551,-1.3334024262479325,-2.525827471409933,6.110920297890463,1.0158474445343018,-2.6932924429522913
1708436207.876764,-2.142209053039551,-1.3334859174541016,-2.5258196035968226,6.1109081385429285,1.0158312320709229,-2.69326359430422
1708436207.8787541,-2.1422338485717773,-1.3334321987679978,-2.5258033911334437,6.110896217613973,1.0157612562179565,-2.693254534398214
1708436207.8807602,-2.1422512531280518,-1.3334201735309144,-2.5258196035968226,6.110933410912313,1.0157822370529175,-2.6932833830462855
1708436207.8827603,-2.1422269344329834,-1.333436520104744,-2.52582294145693,6.110925423889913,1.0157822370529175,-2.693254295979635
1708436207.8847463,-2.1422312259674072,-1.333390937452652,-2.525832001362936,6.110903847008505,1.0158030986785889,-2.693232838307516
1708436207.8867662,-2.142164468765259,-1.3334948730519791,-2.525790278111593,6.110936629563131,1.0158281326293945,-2.693232838307516
1708436207.8887565,-2.142200231552124,-1.3334528815797348,-2.5258362928973597,6.110916840821066,1.015777826309204,-2.6932924429522913
1708436207.8907907,-2.1421959400177,-1.333378643994667,-2.525811020527975,6.110912549286642,1.0158281326293945,-2.69326359430422
1708436207.8927653,-2.142200231552124,-1.333386407499649,-2.525823179875509,6.110883223801412,1.0157943964004517,-2.693209234868185
1708436207.8947587,-2.1422410011291504,-1.333441050057747,-2.52579909959902,6.110974538117208,1.0158030986785889,-2.6932454744922083
1708436207.8967497,-2.142249584197998,-1.3334069711020966,-2.525811020527975,6.110933530121603,1.0157296657562256,-2.693225685750143
1708436207.898755,-2.1422829627990723,-1.3334607642940064,-2.525773827229635,6.110929119377889,1.0157865285873413,-2.6932972113238733
1708436207.9007628,-2.1421890258789062,-1.3334277433208008,-2.5258241335498255,6.110911595612325,1.0157909393310547,-2.693228546773092
1708436207.9027596,-2.1422252655029297,-1.333436520104744,-2.525773827229635,6.110957252770223,1.0158030986785889,-2.6932511965381067
1708436207.9047668,-2.1422410011291504,-1.3334321838668366,-2.525778357182638,6.11089180687026,1.015795350074768,-2.693268124257223
1708436207.9067552,-2.142245292663574,-1.333436520104744,-2.5258646647082728,6.110869991570272,1.0157581567764282,-2.6932924429522913
1708436207.9087787,-2.142254114151001,-1.3334440749934693,-2.5258153120623987,6.110932338028707,1.0158030986785889,-2.6932500044452112
1708436207.9108558,-2.1422252655029297,-1.333441050057747,-2.5258405844317835,6.110945331841268,1.0158119201660156,-2.693285051976339
1708436207.9127667,-2.1422252655029297,-1.3334321838668366,-2.5258076826678675,6.110916006356039,1.0158075094223022,-2.693259064351217
1708436207.91477,-2.1422252655029297,-1.333439664249756,-2.5258196035968226,6.110940921097555,1.0157462358474731,-2.693232838307516
1708436207.9167523,-2.1422295570373535,-1.333374248152115,-2.525782648717062,6.110961663513937,1.0157581567764282,-2.693259064351217
1708436207.9187574,-2.1422009468078613,-1.3334485304406662,-2.5257707277881067,6.110957252770223,1.0157743692398071,-2.6932500044452112
1708436207.920771,-2.142270803451538,-1.3334528815797348,-2.52579909959902,6.110916006356039,1.0157743692398071,-2.6933088938342493
1708436207.9227624,-2.1422786712646484,-1.3334440004876633,-2.5258241335498255,6.110916006356039,1.0157418251037598,-2.6932500044452112
1708436207.9247599,-2.142266273498535,-1.3334651750377198,-2.525790278111593,6.110916006356039,1.015798807144165,-2.6932626406299036
1708436207.9267657,-2.1422252655029297,-1.3333909076503296,-2.5257871786700647,6.110920417099752,1.0157874822616577,-2.693237368260519
1708436207.9287777,-2.1422367095947266,-1.3334233176759263,-2.5258317629443567,6.110926735192098,1.0157830715179443,-2.693242136632101
1708436207.9307654,-2.142216682434082,-1.3334529113820572,-2.525794569646017,6.1109529612358,1.0157787799835205,-2.69326359430422
1708436207.9327714,-2.1422410011291504,-1.3334069412997742,-2.525782648717062,6.110944139748373,1.0157711505889893,-2.69326359430422
1708436207.9347584,-2.1422576904296875,-1.3333953630975266,-2.52576190630068,6.11095284202651,1.0157712697982788,-2.693225685750143
1708436207.9367805,-2.1422338485717773,-1.333439664249756,-2.5258317629443567,6.110944139748373,1.0157636404037476,-2.69322115579714
1708436207.9387963,-2.1422743797302246,-1.3333743077567597,-2.5257707277881067,6.110936629563131,1.0157462358474731,-2.6932924429522913
1708436207.9407642,-2.1422533988952637,-1.333441050057747,-2.5257630983935755,6.110919225006857,1.0157636404037476,-2.6932852903949183
1708436207.942757,-2.1422576904296875,-1.333423302774765,-2.5257707277881067,6.1109564183051965,1.0157593488693237,-2.693254534398214
1708436207.9447432,-2.1421873569488525,-1.3333864522031327,-2.525794569646017,6.110927927284994,1.0157593488693237,-2.693301502858297
1708436207.9467578,-2.1422367095947266,-1.3334351491979142,-2.52579909959902,6.1109845516975305,1.0157221555709839,-2.6932788530932825
1708436207.948776,-2.1422901153564453,-1.333436520104744,-2.5257957617389124,6.1109856245811365,1.015730857849121,-2.693220917378561
1708436207.9507453,-2.14224910736084,-1.3334291291287919,-2.5257707277881067,6.111030089646139,1.0157514810562134,-2.69326359430422
1708436207.9527905,-2.1422324180603027,-1.333418832426407,-2.5258241335498255,6.110952007561483,1.0157233476638794,-2.693232838307516
1708436207.9547648,-2.1422533988952637,-1.3334069711020966,-2.5258405844317835,6.110993253975668,1.0157146453857422,-2.693225685750143
1708436207.9567919,-2.1422533988952637,-1.3333821457675477,-2.525782648717062,6.110968339234152,1.015735149383545,-2.6932759920703333
1708436207.958784,-2.142305612564087,-1.333432139163353,-2.525823179875509,6.111001956253805,1.015735149383545,-2.693246666585104
1708436207.9607475,-2.14224910736084,-1.333439664249756,-2.525766436253683,6.1109845516975305,1.0157111883163452,-2.6932714621173304
1708436207.962786,-2.142265796661377,-1.3333696883967896,-2.5257869402514856,6.11096070983962,1.0157146453857422,-2.6932714621173304
1708436207.9647536,-2.142228364944458,-1.333424688582756,-2.5258122126208704,6.111021387368002,1.0157146453857422,-2.6932759920703333
1708436207.9667866,-2.142245054244995,-1.3334233176759263,-2.5258076826678675,6.110980379372396,1.015730857849121,-2.6933041254626673
1708436207.9687526,-2.142245054244995,-1.3334158819964905,-2.525778357182638,6.111017095833578,1.015681505203247,-2.6932807604419153
1708436207.9707925,-2.1423139572143555,-1.3334528070739289,-2.5258241335498255,6.11100052574233,1.0157023668289185,-2.693289581929342
1708436207.9727983,-2.1423182487487793,-1.333469496374466,-2.5258196035968226,6.110975968628683,1.015718936920166,-2.6932511965381067
1708436207.974752,-2.14224910736084,-1.3334396493485947,-2.5257752577411097,6.110968339234152,1.0156936645507812,-2.6932833830462855
1708436207.9767573,-2.1422970294952393,-1.3334484857371827,-2.52579909959902,6.111036526947775,1.0157111883163452,-2.693232838307516
1708436207.9787722,-2.142301321029663,-1.333444060092308,-2.5257914702044886,6.110993253975668,1.0157233476638794,-2.6932972113238733
1708436207.9807606,-2.1422529220581055,-1.3334158223918458,-2.5258405844317835,6.111025798111715,1.015685796737671,-2.693259064351217
1708436207.9828024,-2.142240524291992,-1.3334528368762513,-2.52579909959902,6.11095284202651,1.015718936920166,-2.6932759920703333
1708436207.9847531,-2.1422929763793945,-1.3334175062230607,-2.5257707277881067,6.110951053887167,1.0156739950180054,-2.6932500044452112
1708436207.986754,-2.1423099040985107,-1.3334158521941681,-2.5258002916919153,6.111017095833578,1.0156902074813843,-2.6932924429522913
1708436207.988755,-2.1422712802886963,-1.333439664249756,-2.5257957617389124,6.110952007561483,1.0157601833343506,-2.69326359430422
1708436207.9907694,-2.142333507537842,-1.3334277135184784,-2.5257883707629603,6.111016022949972,1.0157067775726318,-2.693254534398214
1708436207.9927943,-2.142305612564087,-1.3334517639926453,-2.5257707277881067,6.110991823464193,1.0156902074813843,-2.693301502858297
1708436207.9947577,-2.1422641277313232,-1.3334277284196396,-2.5257466475116175,6.110988843231954,1.0156980752944946,-2.693220917378561
1708436207.996781,-2.142317771911621,-1.33339977384124,-2.5257883707629603,6.1109962342079065,1.015715479850769,-2.6932759920703333
1708436207.9987466,-2.142329216003418,-1.3334114116481324,-2.5257838408099573,6.11106156089858,1.015718936920166,-2.6932807604419153
1708436208.0007563,-2.142301082611084,-1.3334485304406662,-2.5258494059192103,6.1109715578849695,1.015718936920166,-2.693237368260519
1708436208.0027807,-2.142268419265747,-1.3334528815797348,-2.5257542769061487,6.11104844787673,1.0156664848327637,-2.6932807604419153
1708436208.0047786,-2.1422924995422363,-1.3334485304406662,-2.5257378260241907,6.111008393555441,1.015653371810913,-2.693259064351217
1708436208.006789,-2.14227557182312,-1.3334770959666749,-2.5257301966296595,6.111007201462545,1.0157067775726318,-2.6932714621173304
1708436208.0087612,-2.1423449516296387,-1.3334233176759263,-2.5257554689990442,6.111078130989828,1.0156946182250977,-2.6932581106769007
1708436208.0107787,-2.1422598361968994,-1.3334042143872757,-2.5257838408099573,6.11102460601882,1.0157023668289185,-2.693259064351217
1708436208.0128033,-2.1423580646514893,-1.3334233176759263,-2.5257299582110804,6.111077058106222,1.0157033205032349,-2.6932500044452112
1708436208.0148041,-2.142329216003418,-1.3334114414504548,-2.5257137457477015,6.111094343453207,1.015715479850769,-2.693254534398214
1708436208.0167866,-2.142361640930176,-1.3334351193955918,-2.5257423559771937,6.111044156342306,1.0157482624053955,-2.693216625844137
1708436208.0187767,-2.1423492431640625,-1.3333935600570221,-2.5257630983935755,6.111065137177267,1.015685796737671,-2.6932924429522913
1708436208.020773,-2.142317771911621,-1.3333908778480072,-2.525825325642721,6.11099539974288,1.0156989097595215,-2.6932924429522913
1708436208.0228088,-2.1423091888427734,-1.3333668124726792,-2.5257466475116175,6.11104844787673,1.0156902074813843,-2.6932924429522913
1708436208.0247567,-2.1423704624176025,-1.3334307235530396,-2.525776211415426,6.111044156342306,1.015687108039856,-2.693220917378561
1708436208.0267746,-2.1423449516296387,-1.333439664249756,-2.5257256666766565,6.111076938896932,1.015718936920166,-2.6932626406299036
1708436208.028795,-2.142333507537842,-1.33348901689563,-2.525752131138937,6.1110116122062585,1.015685796737671,-2.6932807604419153
1708436208.030765,-2.142324924468994,-1.3334042143872757,-2.52574330965151,6.111068236618795,1.0156989097595215,-2.6932924429522913
1708436208.0327792,-2.1423091888427734,-1.3334651750377198,-2.5257883707629603,6.11105631568984,1.0157023668289185,-2.693242136632101
1708436208.0347595,-2.1422839164733887,-1.3334396493485947,-2.525771681462423,6.111031043320455,1.0157439708709717,-2.6933088938342493
1708436208.036776,-2.142324924468994,-1.3334143918803711,-2.5257795492755335,6.111031043320455,1.015748381614685,-2.693237368260519
1708436208.0387585,-2.1423449516296387,-1.3334858578494568,-2.525747601185934,6.11105631568984,1.0157023668289185,-2.693259064351217
1708436208.0407846,-2.142300605773926,-1.3334563237479706,-2.5257883707629603,6.11105631568984,1.0156946182250977,-2.6933134237872522
1708436208.0427823,-2.1423048973083496,-1.333430678849556,-2.5257256666766565,6.111093151360311,1.0157067775726318,-2.693237368260519
1708436208.0447676,-2.1423163414001465,-1.333407000904419,-2.5257137457477015,6.111093270569601,1.0157067775726318,-2.693259064351217
1708436208.0467904,-2.1423120498657227,-1.3334113669446488,-2.5257511774646204,6.111093270569601,1.0156826972961426,-2.693268124257223
1708436208.0487645,-2.1423048973083496,-1.3334233474782486,-2.5257301966296595,6.1110713360603235,1.0156946182250977,-2.6932454744922083
1708436208.0507483,-2.142340660095215,-1.333472640519478,-2.5257182757007044,6.111096370011129,1.0157111883163452,-2.6932669321643274
1708436208.0528038,-2.142336368560791,-1.3334440898946305,-2.5257344881640833,6.11105631568984,1.0157407522201538,-2.6932833830462855
1708436208.054782,-2.1423206329345703,-1.3334025007537385,-2.5257795492755335,6.111108648567953,1.0156989097595215,-2.6932998339282435
1708436208.056776,-2.142340660095215,-1.3334563088468094,-2.5257511774646204,6.111108648567953,1.0157277584075928,-2.6932998339282435
1708436208.058751,-2.142340660095215,-1.3334485751441498,-2.525792662297384,6.111149418144979,1.0157277584075928,-2.69326359430422
1708436208.0607512,-2.1423206329345703,-1.3334306937507172,-2.525792662297384,6.111127841263571,1.0157233476638794,-2.6932500044452112
1708436208.0627778,-2.1423444747924805,-1.3334247779897233,-2.5257511774646204,6.111136424332418,1.0157233476638794,-2.69326359430422
1708436208.0647447,-2.1423487663269043,-1.3334396940520783,-2.525771681462423,6.111084449082174,1.0156989097595215,-2.6932700316058558
1708436208.0667658,-2.142374038696289,-1.3334365648082276,-2.52578050294985,6.111071455269613,1.0156989097595215,-2.693242136632101
1708436208.0687435,-2.142374038696289,-1.3334473979524155,-2.525776211415426,6.111120211869039,1.0157439708709717,-2.69326359430422
1708436208.0707753,-2.142396926879883,-1.3334651750377198,-2.525771681462423,6.111108648567953,1.0157277584075928,-2.6932924429522913
1708436208.0728116,-2.142374038696289,-1.333448515539505,-2.525764290486471,6.1111159203346155,1.0157023668289185,-2.69326359430422
1708436208.0748146,-2.142332077026367,-1.333439679150917,-2.5257466475116175,6.111079084664144,1.0156946182250977,-2.6932788530932825
1708436208.076854,-2.1423401832580566,-1.333502174620964,-2.5257630983935755,6.1111042378242395,1.0156980752944946,-2.6932454744922083
1708436208.078767,-2.1423654556274414,-1.333439679150917,-2.525776211415426,6.111083376198568,1.0157023668289185,-2.6932759920703333
1708436208.080752,-2.142396926879883,-1.3333696585944672,-2.5257390181170862,6.111079084664144,1.0156902074813843,-2.693214003239767
1708436208.0827894,-2.1423697471618652,-1.3334518384984513,-2.525752131138937,6.111079084664144,1.0156902074813843,-2.6932714621173304
1708436208.0847619,-2.1423487663269043,-1.3333909821561356,-2.5257554689990442,6.111145126610555,1.0156739950180054,-2.693254534398214
1708436208.086767,-2.14233136177063,-1.3334726852229615,-2.525727097188131,6.111139762192526,1.0156946182250977,-2.693259064351217
1708436208.088745,-2.1423234939575195,-1.3334233623794098,-2.5257344881640833,6.111070382386007,1.015718936920166,-2.693197552357809
1708436208.0907514,-2.14235258102417,-1.333439664249756,-2.5257673899279993,6.111111628800192,1.0157363414764404,-2.693209234868185
1708436208.0927842,-2.1423568725585938,-1.3334726852229615,-2.525771681462423,6.111132132797994,1.0157023668289185,-2.693272654210226
1708436208.0947633,-2.1423401832580566,-1.333439664249756,-2.525771681462423,6.111120211869039,1.0157513618469238,-2.693241898213522
1708436208.0967777,-2.1423568725585938,-1.333463729625084,-2.5257466475116175,6.1110912440116785,1.0156577825546265,-2.6932316462146204
1708436208.0987465,-2.1424105167388916,-1.3334233176759263,-2.5257466475116175,6.111107218056478,1.0156902074813843,-2.6931284109698694
1708436208.1007388,-2.142388343811035,-1.3334528368762513,-2.5257554689990442,6.111062872200765,1.0156902074813843,-2.693153683339254
1708436208.1027684,-2.1423840522766113,-1.3334188026240845,-2.5257554689990442,6.11115192154006,1.0157321691513062,-2.6931384245501917
1708436208.1047459,-2.142388343811035,-1.3334440898946305,-2.5257554689990442,6.111156332283773,1.0157067775726318,-2.6931145826922815
1708436208.106764,-2.142385482788086,-1.3334054809859772,-2.525792662297384,6.1110702631767175,1.0156946182250977,-2.6930618921863
1708436208.108745,-2.1423401832580566,-1.3335053634694596,-2.525764290486471,6.1110912440116785,1.015645980834961,-2.69310433069338
1708436208.1107404,-2.1423637866973877,-1.33348901689563,-2.5256975332843226,6.111123549729147,1.0157320499420166,-2.69307524362673
1708436208.1127849,-2.1424190998077393,-1.3334607642940064,-2.5257390181170862,6.111160623818197,1.0157146453857422,-2.6929808298694056
1708436208.114761,-2.142401933670044,-1.3334562939456482,-2.525813404713766,6.111152636795797,1.0157233476638794,-2.692949120198385
1708436208.1167817,-2.14235258102417,-1.3334890317967911,-2.525764290486471,6.111119138985433,1.015685796737671,-2.692962710057394
1708436208.1187565,-2.1423611640930176,-1.3334637445262452,-2.525776211415426,6.111082541733541,1.0156739950180054,-2.6928466002093714
1708436208.1207504,-2.1423611640930176,-1.3334528368762513,-2.525759760533468,6.111120211869039,1.0157067775726318,-2.6928826014148157
1708436208.1227977,-2.1423768997192383,-1.3334173125079651,-2.525821034108297,6.111163842469015,1.0156502723693848,-2.6928260962115687
1708436208.124749,-2.142388343811035,-1.3334800911000748,-2.5257554689990442,6.111164915352621,1.0157233476638794,-2.692735735570089
1708436208.126787,-2.14235258102417,-1.3334563386491318,-2.5257511774646204,6.111172544747152,1.0156980752944946,-2.6927343050586146
1708436208.1287525,-2.142388343811035,-1.3334607642940064,-2.5258002916919153,6.111131059914388,1.0157277584075928,-2.692584816609518
1708436208.1307504,-2.142396926879883,-1.3334726852229615,-2.5257838408099573,6.111184465676107,1.0156989097595215,-2.6926255861865442
1708436208.1327677,-2.142348051071167,-1.3334351491979142,-2.525771681462423,6.111169206887045,1.0156946182250977,-2.6925066153155726
1708436208.1347475,-2.1423726081848145,-1.333439679150917,-2.52578050294985,6.111172544747152,1.015718936920166,-2.69243032137026
1708436208.1367795,-2.1424062252044678,-1.3334517937949677,-2.5257628599749964,6.111156332283773,1.0157233476638794,-2.6923838297473353
1708436208.1387491,-2.142388343811035,-1.3334351193955918,-2.5257883707629603,6.111143219261923,1.0157103538513184,-2.692357365285055
1708436208.140747,-2.1423192024230957,-1.3334681701711197,-2.5257466475116175,6.111172663956442,1.015715479850769,-2.692228380833761
1708436208.1427743,-2.1423752307891846,-1.3334800911000748,-2.5257795492755335,6.111147630005636,1.0156610012054443,-2.6920812765704554
1708436208.1447558,-2.1423683166503906,-1.3334563386491318,-2.5257466475116175,6.111130940705099,1.015768051147461,-2.691998306904928
1708436208.1467695,-2.1423401832580566,-1.3334307235530396,-2.5257883707629603,6.111155140190878,1.015730857849121,-2.6918728987323206
1708436208.1487546,-2.142392635345459,-1.3334727150252839,-2.5257466475116175,6.111147630005636,1.0157711505889893,-2.6917365233050745
1708436208.1507387,-2.142441987991333,-1.3334351491979142,-2.525804583226339,6.111119138985433,1.0157470703125,-2.691603962575094
1708436208.1527374,-2.142388343811035,-1.3334800911000748,-2.5257871786700647,6.1111769554908655,1.0157470703125,-2.691474739705221
1708436208.1547697,-2.1423611640930176,-1.3334473979524155,-2.5257795492755335,6.111196744232931,1.0157724618911743,-2.6913228670703333
1708436208.1567507,-2.1423795223236084,-1.3334726852229615,-2.5258002916919153,6.111117946892538,1.0157593488693237,-2.6910956541644495
1708436208.1587512,-2.142359495162964,-1.33349201202903,-2.5257914702044886,6.111172544747152,1.0157755613327026,-2.690981928502218
1708436208.1607516,-2.142401933670044,-1.333405540590622,-2.5258196035968226,6.111201035767355,1.0157830715179443,-2.6907921473132532
1708436208.1627676,-2.142396926879883,-1.3334010255387803,-2.5257795492755335,6.111180054932394,1.0157831907272339,-2.6906357447253626
1708436208.1648052,-2.1423637866973877,-1.3334473979524155,-2.525782648717062,6.111184465676107,1.0157743692398071,-2.6904757658587855
1708436208.1667595,-2.1423840522766113,-1.3334637147239228,-2.5258241335498255,6.111168134003439,1.0157699584960938,-2.6902411619769495
1708436208.1687887,-2.142404556274414,-1.3334143918803711,-2.5258076826678675,6.111159550934591,1.015815019607544,-2.6900315920459192
1708436208.1707597,-2.142388343811035,-1.3334681403687973,-2.5258196035968226,6.111155140190878,1.0157943964004517,-2.6898439566241663
1708436208.1728015,-2.1423726081848145,-1.3334845167449494,-2.52584416071047,6.111168134003439,1.015826940536499,-2.6896439234363
1708436208.1747787,-2.142393112182617,-1.3334278178266068,-2.52578574815859,6.111201035767355,1.0158313512802124,-2.6893914381610315
1708436208.1767433,-2.1423726081848145,-1.3334297698787232,-2.5258527437793177,6.111138927727499,1.015826940536499,-2.6891656557666224
1708436208.1787517,-2.142335891723633,-1.3334593188813706,-2.525827471409933,6.111188876419821,1.0158597230911255,-2.688897673283712
1708436208.180748,-2.1423768997192383,-1.3334845167449494,-2.525843922291891,6.111171352654257,1.0158554315567017,-2.6886077562915247
1708436208.1827567,-2.1423401832580566,-1.3334593188813706,-2.52584416071047,6.111098515778341,1.0158588886260986,-2.6883588472949427
1708436208.1847486,-2.1423840522766113,-1.3335086864284058,-2.52582294145693,6.111184465676107,1.0158421993255615,-2.688061539326803
1708436208.1867533,-2.1423752307891846,-1.333426297908165,-2.5258353392230433,6.111168134003439,1.015894889831543,-2.6877933184253138
1708436208.18876,-2.1423795223236084,-1.3334351491979142,-2.52584416071047,6.111185538559713,1.0159122943878174,-2.687434975300924
1708436208.1907558,-2.1423726081848145,-1.3334473979524155,-2.525872294102804,6.111209738045492,1.0159354209899902,-2.687108103428976
1708436208.1927812,-2.1423840522766113,-1.3334307235530396,-2.5258427301989954,6.1111769554908655,1.0159311294555664,-2.686697546635763
1708436208.1947515,-2.1423487663269043,-1.3334845167449494,-2.5258546511279505,6.1111440537269495,1.0159430503845215,-2.6864572207080286
1708436208.1967783,-2.1423401832580566,-1.3334218871644516,-2.525888506566183,6.1111159203346155,1.0159964561462402,-2.686047140751974
1708436208.1987953,-2.1423683166503906,-1.3334263128093262,-2.5258830229388636,6.111160623818197,1.0160118341445923,-2.685643498097555
1708436208.200768,-2.142397403717041,-1.3335042607835312,-2.5258947054492396,6.111127841263571,1.016003131866455,-2.6853116194354456
1708436208.2027593,-2.142396926879883,-1.3334681701711197,-2.52599007288088,6.111111628800192,1.0160359144210815,-2.684917990361349
1708436208.20476,-2.142393112182617,-1.3334503930858155,-2.525902811680929,6.111092078476705,1.0160719156265259,-2.6844845453845423
1708436208.2067735,-2.1424062252044678,-1.3334800911000748,-2.5259323755847376,6.111108648567953,1.0161287784576416,-2.6839926878558558
1708436208.2088122,-2.1423487663269043,-1.3334307086518784,-2.525968138371603,6.1111007807548425,1.0161569118499756,-2.6835647265063685
1708436208.2107584,-2.1423611640930176,-1.333442972307541,-2.5259879271136683,6.11105095127181,1.0161069631576538,-2.683066193257467
1708436208.2127664,-2.1423192024230957,-1.3335335415652771,-2.525992218648092,6.111063945084371,1.0161595344543457,-2.682586733494894
1708436208.2147722,-2.142353057861328,-1.3334563386491318,-2.5259667078601282,6.111007201462545,1.0162410736083984,-2.6820481459247034
1708436208.2167625,-2.14235258102417,-1.333442972307541,-2.526008431111471,6.111081349640646,1.016223669052124,-2.681521717702047
1708436208.2187757,-2.142378330230713,-1.3334800911000748,-2.5260611216174524,6.111057150154867,1.0162599086761475,-2.6809709707843226
1708436208.2207842,-2.1423611640930176,-1.3334351491979142,-2.5260193983661097,6.111052858620443,1.0162599086761475,-2.680441204701559
1708436208.2227564,-2.1423163414001465,-1.3335053634694596,-2.526059691105978,6.110988843231954,1.0162749290466309,-2.679833714162008
1708436208.2247767,-2.142292022705078,-1.3334218871644516,-2.526018206273214,6.110936629563131,1.0163319110870361,-2.679314200078146
1708436208.2267683,-2.1422924995422363,-1.3334503930858155,-2.526120964680807,6.110994446068563,1.0163440704345703,-2.6787245909320276
1708436208.2287753,-2.142333507537842,-1.3334787350944062,-2.526100222264425,6.110868441849508,1.0164010524749756,-2.6781426111804407
1708436208.2307777,-2.14227557182312,-1.3334624481252213,-2.5260987917529505,6.110864150315084,1.0164010524749756,-2.6775193850146692
1708436208.232761,-2.1422529220581055,-1.3334712249091645,-2.5261645952807825,6.110807406693258,1.016404151916504,-2.6768601576434534
1708436208.2347598,-2.142277240753174,-1.3334964376739045,-2.5261767546283167,6.110829102783956,1.016444444656372,-2.6762271563159388
1708436208.2367585,-2.14227294921875,-1.3334727001241227,-2.526184145604269,6.1108038304145715,1.016480803489685,-2.6755290667163294
1708436208.2387633,-2.142205238342285,-1.3334756654552002,-2.526196066533224,6.110744344979086,1.0164926052093506,-2.6748507658587855
1708436208.2407577,-2.1422295570373535,-1.33349201202903,-2.5262280146228235,6.110703813820638,1.016574501991272,-2.6741166750537317
1708436208.2427657,-2.142164468765259,-1.3334845167449494,-2.526214663182394,6.1107051251228235,1.0165942907333374,-2.673365894948141
1708436208.2447643,-2.142190456390381,-1.3335053634694596,-2.526259247456686,6.11073003986434,1.0166140794754028,-2.672570292149679
1708436208.2467618,-2.1421456336975098,-1.3334637445262452,-2.52627140680422,6.110624658852377,1.016636848449707,-2.671790424977438
1708436208.2487855,-2.142129898071289,-1.3334800911000748,-2.526377264653341,6.110557186394491,1.016648769378662,-2.671037022267477
1708436208.2507613,-2.142080545425415,-1.3334385615638276,-2.5263519922839563,6.110594022064962,1.0167635679244995,-2.6702750364886683
1708436208.2527535,-2.142122268676758,-1.333446056847908,-2.526309315358297,6.110546338349142,1.0167179107666016,-2.6694770495044153
1708436208.2547715,-2.142061710357666,-1.3335130971721192,-2.526428286229269,6.110469090729513,1.0167405605316162,-2.6686351935016077
1708436208.256764,-2.1420249938964844,-1.3334340465119858,-2.5264063517199915,6.110425936966696,1.0167274475097656,-2.6679027716266077
1708436208.2587695,-2.142005205154419,-1.3334845167449494,-2.5264273325549524,6.110373484879293,1.0168170928955078,-2.6669862906085413
1708436208.260773,-2.1419849395751953,-1.33348901689563,-2.526442591344015,6.110333192139425,1.0168665647506714,-2.6661229769336146
1708436208.2627537,-2.1419200897216797,-1.3334681701711197,-2.526503864918844,6.1102943299110315,1.0169223546981812,-2.665260140095846
1708436208.26478,-2.141974925994873,-1.33345182359729,-2.526564900075094,6.110237586289205,1.0169581174850464,-2.664356533681051
1708436208.266762,-2.141934394836426,-1.3335086864284058,-2.5266009012805384,6.110170233040609,1.0169901847839355,-2.663388792668478
1708436208.2687714,-2.1418416500091553,-1.3334637445262452,-2.526595417653219,6.1101757166679285,1.017005205154419,-2.662478748952047
1708436208.2707741,-2.1418216228485107,-1.33349201202903,-2.526604239140646,6.110021221428671,1.0170905590057373,-2.661548439656393
1708436208.2728078,-2.1417741775512695,-1.3335335415652771,-2.5265942255603235,6.10994969585494,1.0171922445297241,-2.6605098883258265
1708436208.2747777,-2.14176607131958,-1.3335220378688355,-2.5266552607165735,6.109943020134725,1.0171616077423096,-2.65956694284548
1708436208.276753,-2.14172101020813,-1.3334800911000748,-2.526675049458639,6.109900462418356,1.0172216892242432,-2.6585689226733606
1708436208.2797964,-2.1416945457458496,-1.3334385615638276,-2.5266717115985315,6.109783994942465,1.0173438787460327,-2.6575565973864954
1708436208.2807775,-2.1416327953338623,-1.3335130971721192,-2.526764456425802,6.109711515694418,1.01741623878479,-2.6565006414996546
1708436208.2828054,-2.141568422317505,-1.3334756654552002,-2.526797119771139,6.109635221749105,1.017385721206665,-2.655382219945089
1708436208.2847657,-2.141545057296753,-1.3334429574063797,-2.5267632643329065,6.109610307007589,1.017478585243225,-2.6543057600604456
1708436208.2867672,-2.1415011882781982,-1.3334756654552002,-2.526790205632345,6.1094679711158655,1.0175713300704956,-2.6531437079059046
1708436208.288763,-2.141470432281494,-1.3334681701711197,-2.5268102327929896,6.109388696938314,1.0175986289978027,-2.6520355383502405
1708436208.2907853,-2.1413891315460205,-1.3334712398103257,-2.526896301900045,6.1093612788017175,1.0176349878311157,-2.6508739630328577
1708436208.292786,-2.1413867473602295,-1.3334845167449494,-2.526874367390768,6.109281885414877,1.0177159309387207,-2.6497181097613733
1708436208.294756,-2.141294002532959,-1.3334503930858155,-2.526923481618063,6.1091734049613855,1.0178000926971436,-2.648487393056051
1708436208.2967532,-2.141299247741699,-1.33349201202903,-2.5269880930529993,6.109098064690389,1.0178401470184326,-2.647241179143087
1708436208.2987635,-2.141202211380005,-1.333446056847908,-2.5270119349109095,6.109017836838522,1.0178709030151367,-2.646109167729513
1708436208.3007536,-2.1411304473876953,-1.3334875863841553,-2.527052704487936,6.108844744950094,1.017956256866455,-2.6448050181018274
1708436208.3027718,-2.1410939693450928,-1.33349201202903,-2.52710467973818,6.108834373741903,1.018024206161499,-2.6435838381396692
1708436208.3047726,-2.141084671020508,-1.3335130971721192,-2.527073923741476,6.108730900078573,1.0181090831756592,-2.642313305531637
1708436208.3067598,-2.1410317420959473,-1.3334429872087021,-2.5271547476397913,6.108642804413595,1.0181684494018555,-2.641029659901754
1708436208.3087635,-2.140976905822754,-1.3334845167449494,-2.5271876494037073,6.10852740982131,1.0182656049728394,-2.6398008505450647
1708436208.3107643,-2.1408872604370117,-1.3334263128093262,-2.5272679964648646,6.10841857173995,1.0182925462722778,-2.638580624257223
1708436208.3127685,-2.1408567428588867,-1.3334593188813706,-2.527341429387228,6.108380543976583,1.0184011459350586,-2.637210194264547
1708436208.3147917,-2.1407976150512695,-1.333454893236496,-2.5273149649249476,6.108325230866232,1.018477439880371,-2.6359005610095423
1708436208.3167503,-2.140723705291748,-1.3334307086518784,-2.527388397847311,6.108177649765768,1.0185484886169434,-2.634505812321798
1708436208.3187516,-2.1406126022338867,-1.3334593188813706,-2.5274277369128626,6.108044850617208,1.0186654329299927,-2.6331773439990442
1708436208.3207645,-2.140556573867798,-1.33345182359729,-2.527442757283346,6.107946026116171,1.0187287330627441,-2.6317723433123987
1708436208.3228123,-2.140509843826294,-1.3334934425405045,-2.5275114218341272,6.10783742645339,1.0188329219818115,-2.6303706804858606
1708436208.3247669,-2.1404547691345215,-1.3334218871644516,-2.5275636355029505,6.107714521675863,1.018897294998169,-2.6289289633380335
1708436208.326806,-2.1403088569641113,-1.3334262830070038,-2.527648989354269,6.107586014061727,1.0189933776855469,-2.62751275697817
1708436208.3287873,-2.14021635055542,-1.3334563386491318,-2.5276432673083704,6.107519733696737,1.0191187858581543,-2.6260622183429163
1708436208.3307812,-2.1401655673980713,-1.3334681701711197,-2.527703348790304,6.107428300171652,1.019166111946106,-2.6245270411120813
1708436208.3327885,-2.1400930881500244,-1.3334351491979142,-2.5277796427356165,6.107238399773397,1.0193692445755005,-2.622960392628805
1708436208.3347745,-2.1400585174560547,-1.3334263128093262,-2.527787510548727,6.107099044113912,1.019383430480957,-2.6214194933520716
1708436208.3367817,-2.1399409770965576,-1.333439664249756,-2.5278428236590784,6.107028472214498,1.0194545984268188,-2.6198485533343714
1708436208.3387544,-2.139854907989502,-1.3334351491979142,-2.5279398600207728,6.10689257362441,1.019547462463379,-2.6182521025287073
1708436208.3407767,-2.1397736072540283,-1.333430753355362,-2.5279510656939905,6.10675214508132,1.0196470022201538,-2.6166399160968226
1708436208.3428,-2.139718532562256,-1.3334474128535767,-2.5280776659594935,6.106604206352987,1.0198001861572266,-2.6150100866900843
1708436208.3447704,-2.1396381855010986,-1.3335008484176178,-2.5280962626086634,6.106546628266134,1.0198752880096436,-2.6134160200702112
1708436208.3467903,-2.139554262161255,-1.3334681701711197,-2.52818471590151,6.106447565346517,1.020020842552185,-2.6116913000689905
1708436208.3487628,-2.139463186264038,-1.3334099662354966,-2.5281670729266565,6.106234776764669,1.0200917720794678,-2.610025469456808
1708436208.3507705,-2.1393539905548096,-1.3334440898946305,-2.528238836918966,6.106073844223776,1.0202535390853882,-2.6083465258227747
1708436208.3527992,-2.1392674446105957,-1.333439664249756,-2.528302017842428,6.105939018517294,1.0203412771224976,-2.606680456792013
1708436208.35476,-2.1391632556915283,-1.3333953779986878,-2.528363052998678,6.105825054436483,1.0204819440841675,-2.604976002370016
1708436208.3567753,-2.139148712158203,-1.3334726852229615,-2.52846342722048,6.105651962548055,1.0205695629119873,-2.6032801310168665
1708436208.3587644,-2.1390039920806885,-1.3334485006383439,-2.528503958378927,6.105496275215902,1.020734429359436,-2.60164457956423
1708436208.3607776,-2.1389243602752686,-1.3334410053542634,-2.528595511113302,6.105312931328573,1.0208098888397217,-2.5999260584460657
1708436208.3627858,-2.138878345489502,-1.333427758221962,-2.5286880175219935,6.105173814087667,1.0209749937057495,-2.598222319279806
1708436208.3647625,-2.138756513595581,-1.3334201586297532,-2.528731886540548,6.105026948242941,1.0211070775985718,-2.5964320341693323
1708436208.36679,-2.138681173324585,-1.3334335100701828,-2.528770987187521,6.10483871677474,1.0212113857269287,-2.594602886830465
1708436208.3687592,-2.1385324001312256,-1.333378718500473,-2.5288923422442835,6.104663002281942,1.0213522911071777,-2.592855755482809
1708436208.37076,-2.138444185256958,-1.3334662479213257,-2.528947893773214,6.104499685555258,1.0215084552764893,-2.591012779866354
1708436208.37283,-2.138326406478882,-1.3334290844253083,-2.529015604649679,6.10439287403182,1.0216233730316162,-2.589127842579977
1708436208.3748167,-2.1382551193237305,-1.3334220510772248,-2.5291038195239466,6.104197490006246,1.0217772722244263,-2.5872157255755823
1708436208.3768702,-2.1381545066833496,-1.3333787035993119,-2.529156271611349,6.104046690254965,1.0219128131866455,-2.5853257814990442
1708436208.378783,-2.1380624771118164,-1.3333964061788102,-2.5292893091784876,6.103834378510275,1.0220364332199097,-2.5833008925067347
1708436208.3807647,-2.137955665588379,-1.333347038631775,-2.529311243687765,6.103749263077535,1.0221937894821167,-2.581524435673849
1708436208.382818,-2.1378426551818848,-1.3333681386760254,-2.5294156710254114,6.1034830687339685,1.0223129987716675,-2.5796478430377405
1708436208.3847854,-2.1377499103546143,-1.3333814901164551,-2.529496494923727,6.103344189911642,1.0224823951721191,-2.5778144041644495
1708436208.3867986,-2.1377010345458984,-1.3333217811635514,-2.529534641896383,6.103188740998068,1.0226342678070068,-2.5760186354266565
1708436208.388788,-2.1375696659088135,-1.33335596442733,-2.5296524206744593,6.103005873947897,1.0227634906768799,-2.5741291681872767
1708436208.3907645,-2.1374406814575195,-1.333339662556984,-2.529720131550924,6.102834093361654,1.0228989124298096,-2.5721853415118616
1708436208.392792,-2.137291669845581,-1.3332786870053788,-2.5298083464251917,6.102613436966696,1.0230265855789185,-2.570383135472433
1708436208.3947861,-2.137223720550537,-1.3333559942296525,-2.5298760573016565,6.102491366654196,1.023179531097412,-2.5684810320483606
1708436208.3967693,-2.137073516845703,-1.3333440583995362,-2.5299673716174524,6.102287399559774,1.0233403444290161,-2.5665999094592493
1708436208.3987749,-2.136956214904785,-1.3333692711642762,-2.5300305525409144,6.102132904320516,1.0235248804092407,-2.5646613279925745
1708436208.400762,-2.1368722915649414,-1.3333453995040436,-2.5301323572741907,6.101932751923361,1.023611307144165,-2.562711302434103
1708436208.40278,-2.136756658554077,-1.3332964044860383,-2.530186478291647,6.101700174599447,1.0238006114959717,-2.5606911818133753
1708436208.4047637,-2.1366336345672607,-1.3332920384458085,-2.5302916208850306,6.101532685547628,1.0239198207855225,-2.5587249437915247
1708436208.4067965,-2.1365294456481934,-1.3332593452981492,-2.530412737523214,6.101400124817648,1.0241053104400635,-2.5566566626178187
1708436208.4088035,-2.1364314556121826,-1.3332963746837159,-2.530459467564718,6.101171839028158,1.0242736339569092,-2.5546510855304163
1708436208.4107745,-2.1363141536712646,-1.3332888644984742,-2.5305641333209437,6.101032960205831,1.0244345664978027,-2.55257755914797
1708436208.4127955,-2.1362271308898926,-1.3332201403430481,-2.5306764284717005,6.100845324784078,1.0246268510818481,-2.550602976475851
1708436208.4147954,-2.1361236572265625,-1.333281473522522,-2.5307441393481653,6.100670563965597,1.0247547626495361,-2.5485342184649866
1708436208.4167826,-2.136000633239746,-1.3332113784602662,-2.5308683554278772,6.10049449184493,1.0248740911483765,-2.5465765635119837
1708436208.4187622,-2.135871410369873,-1.333162323837616,-2.530895773564474,6.100249993592062,1.0250587463378906,-2.544589344655172
1708436208.4207714,-2.1358652114868164,-1.3332079362920304,-2.531003777180807,6.100144731789388,1.0252685546875,-2.54264742532839
1708436208.4227948,-2.1356518268585205,-1.333215819006302,-2.531074349080221,6.0999159691627405,1.025408387184143,-2.540624205266134
1708436208.4247637,-2.1355650424957275,-1.3332092475942154,-2.5311582724200647,6.09970389583663,1.0255482196807861,-2.5385895411120813
1708436208.42677,-2.1354737281799316,-1.333221213226654,-2.5313003698932093,6.0995250819023035,1.0257197618484497,-2.536503855382101
1708436208.4287908,-2.135362148284912,-1.333130733375885,-2.531334940587179,6.099365937500753,1.0258630514144897,-2.5344885031329554
1708436208.4307868,-2.135181427001953,-1.3331725013307114,-2.531476084386007,6.099166977196493,1.0261263847351074,-2.5324609915362757
1708436208.4327931,-2.1350975036621094,-1.3331691783717652,-2.531571690236227,6.098922478943624,1.0262326002120972,-2.530412260686056
1708436208.4347715,-2.1349871158599854,-1.333132104282715,-2.531642738972799,6.09874318817214,1.0264379978179932,-2.528311077748434
1708436208.436792,-2.1348538398742676,-1.3331902486136933,-2.5317845980273646,6.09849642494277,1.0266063213348389,-2.5262182394610804
1708436208.4387636,-2.1347837448120117,-1.3331781488708039,-2.5318718592273157,6.098328935890951,1.0267744064331055,-2.5240402857409876
1708436208.4407623,-2.1346356868743896,-1.3331154149821778,-2.5319514910327356,6.098174440651693,1.02693510055542,-2.521848980580465
1708436208.4428005,-2.13450288772583,-1.3331124049476166,-2.5320683161364954,6.097950446396627,1.0270737409591675,-2.5197065512286585
1708436208.4447649,-2.1343891620635986,-1.333107904796936,-2.5321763197528284,6.097686517029562,1.0273078680038452,-2.5174878279315394
1708436208.4467869,-2.134288787841797,-1.3331903231194993,-2.5322590509997767,6.097532021790304,1.0275089740753174,-2.5154665152179163
1708436208.4488165,-2.1341288089752197,-1.3331079495004197,-2.5323637167560022,6.097356784134664,1.027693510055542,-2.51334792772402
1708436208.450775,-2.1340298652648926,-1.3330634546330948,-2.5324552694903772,6.0971776125724695,1.0278202295303345,-2.511303488408224
1708436208.4527802,-2.133881092071533,-1.3331498515656968,-2.532518450413839,6.096990692406454,1.0280085802078247,-2.509176556264059
1708436208.4547706,-2.1338307857513428,-1.333109290604927,-2.532623354588644,6.09681116321639,1.0281810760498047,-2.5070560614215296
1708436208.4567957,-2.1336262226104736,-1.3330930036357422,-2.5327637831317347,6.096615659981527,1.028409481048584,-2.5049424807177942
1708436208.458787,-2.1335504055023193,-1.3331138056567688,-2.532835070286886,6.096428501396932,1.0286389589309692,-2.5028186480151575
1708436208.4607894,-2.1334385871887207,-1.333125652079918,-2.5329352060901087,6.096212374954977,1.028843641281128,-2.500683371220724
1708436208.4627907,-2.1332907676696777,-1.3330528450063248,-2.532994095479147,6.096025335579672,1.0290147066116333,-2.4984458128558558
1708436208.4647925,-2.133216381072998,-1.333051548605301,-2.5331552664386194,6.095871078758993,1.0292186737060547,-2.4962461630450647
1708436208.4668508,-2.1330342292785645,-1.3330885779908677,-2.533238474522726,6.095646846085348,1.029431939125061,-2.493946139012472
1708436208.4687574,-2.1328983306884766,-1.3331225526383896,-2.5333312193499964,6.095446932106771,1.0295751094818115,-2.491795841847555
1708436208.4707556,-2.132835865020752,-1.3331345480731507,-2.5334838072406214,6.095268714218893,1.0297352075576782,-2.489563290272848
1708436208.4727993,-2.1326756477355957,-1.3330988150886078,-2.5335753599749964,6.095069634705343,1.0299477577209473,-2.4873233477221888
1708436208.4748223,-2.1325631141662598,-1.3330498349717637,-2.533675495778219,6.094872820168295,1.0301769971847534,-2.4850290457354944
1708436208.4768045,-2.132476806640625,-1.3330735874227067,-2.5337629953967493,6.094706404000082,1.0303491353988647,-2.482933584843771
1708436208.4787855,-2.1323492527008057,-1.3330528152040024,-2.533900562916891,6.0944574950035,1.030541181564331,-2.480722967778341
1708436208.480799,-2.132249355316162,-1.3330691319755097,-2.5339790026294153,6.094307529717245,1.0307382345199585,-2.4785519281970423
1708436208.4828112,-2.1320931911468506,-1.3330528152040024,-2.5341315905200403,6.094083893090048,1.030975103378296,-2.476393763219015
1708436208.484814,-2.1319854259490967,-1.333021269445755,-2.5341995398150843,6.093920576363363,1.0311424732208252,-2.47429067293276
1708436208.4867752,-2.131816864013672,-1.3330735576203843,-2.5342820326434534,6.093749868660726,1.0312989950180054,-2.4720686117755335
1708436208.4887981,-2.1317286491394043,-1.333091364508011,-2.5344107786761683,6.0936118243034265,1.0314749479293823,-2.4699745813952845
1708436208.4907746,-2.131617307662964,-1.3330780130675812,-2.5345309416400355,6.093288767128744,1.0316592454910278,-2.467799488698141
1708436208.4927857,-2.1314854621887207,-1.3329796207002182,-2.5346508661853235,6.093171465187826,1.0318516492843628,-2.4656551519977015
1708436208.494783,-2.1314313411712646,-1.3330498349717637,-2.53471810022463,6.093011724739828,1.0320323705673218,-2.4633315245257776
1708436208.4967904,-2.1312472820281982,-1.3330123287490387,-2.5348666349994105,6.092837798386373,1.0322281122207642,-2.4611335436450403
1708436208.49882,-2.131155252456665,-1.332970769410469,-2.5350001494037073,6.092661487847128,1.0324246883392334,-2.458886448537008
1708436208.50077,-2.1310973167419434,-1.3330376011184235,-2.535079542790548,6.092482316284933,1.0326128005981445,-2.4565792719470423
1708436208.502767,-2.1309001445770264,-1.3330004674247284,-2.5351784865008753,6.09226273277358,1.032822847366333,-2.4542997519122522
1708436208.5047739,-2.13079571723938,-1.333028645520546,-2.535273615513937,6.092102753907003,1.0329904556274414,-2.452256743107931
1708436208.5067713,-2.1306352615356445,-1.3330616664937516,-2.5353692213641565,6.091920125275411,1.0332350730895996,-2.450127426777975
1708436208.5087974,-2.1305530071258545,-1.3330542606166382,-2.535478417073385,6.091748463898458,1.0334067344665527,-2.448019806538717
1708436208.5107715,-2.13046932220459,-1.333033100967743,-2.5355778376208704,6.091580974846639,1.033660888671875,-2.4458914438830774
1708436208.512774,-2.1303205490112305,-1.3330122989467164,-2.535682503377096,6.091441857605734,1.0338243246078491,-2.44371205965151
1708436208.5147715,-2.130237102508545,-1.3330331605723877,-2.5357983748065394,6.091265785485067,1.033983826637268,-2.441657368336813
1708436208.516764,-2.13015079498291,-1.3330364686301728,-2.535882059727804,6.091106760292806,1.0341763496398926,-2.4394920508014124
1708436208.5187666,-2.130018949508667,-1.3330331605723877,-2.535940949116842,6.090984213143148,1.0343607664108276,-2.437281672154562
1708436208.5207717,-2.1299643516540527,-1.3330420565656205,-2.5360901991473597,6.090795862465658,1.0346139669418335,-2.4351332823382776
1708436208.522762,-2.1298396587371826,-1.333028645520546,-2.5362277666675013,6.09059618690566,1.034801959991455,-2.432889525090353
1708436208.5247679,-2.1297037601470947,-1.3330331605723877,-2.5362704435931605,6.090448128968038,1.0349783897399902,-2.4306679407702845
1708436208.526765,-2.129608392715454,-1.332979605799057,-2.5364065806018274,6.090313064842977,1.0351836681365967,-2.4284639994250696
1708436208.5287802,-2.129533290863037,-1.3330586713603516,-2.5364697615252894,6.090157735138693,1.0353343486785889,-2.426253143941061
1708436208.5307777,-2.12941575050354,-1.3330004674247284,-2.53656250635256,6.090026247292318,1.0355509519577026,-2.4240713755237024
1708436208.5327685,-2.1292836666107178,-1.3330616664937516,-2.536661688481466,6.089940297394552,1.0357728004455566,-2.421807114277975
1708436208.534782,-2.1292452812194824,-1.3330256652883072,-2.536794726048605,6.089744913368978,1.0359116792678833,-2.4197121302234095
1708436208.5367882,-2.129138469696045,-1.332938091163971,-2.536891047154562,6.089560019760885,1.0360966920852661,-2.4175756613360804
1708436208.5387821,-2.129005193710327,-1.332995982175209,-2.536957327519552,6.089429485588827,1.0362192392349243,-2.415473286305563
1708436208.540774,-2.1288607120513916,-1.3330661815455933,-2.537093702946798,6.089289295464315,1.0364407300949097,-2.413314167653219
1708436208.5427804,-2.128809690475464,-1.3330661815455933,-2.537182156239645,6.089154469757833,1.0365756750106812,-2.4112897554980677
1708436208.5447536,-2.1287128925323486,-1.3330419969609757,-2.537330452595846,6.088972794800558,1.0368376970291138,-2.409147326146261
1708436208.5467567,-2.128572463989258,-1.3330375862172623,-2.537401262913839,6.0888262865837,1.0369821786880493,-2.4071181456195276
1708436208.5487823,-2.12856388092041,-1.3330331605723877,-2.5375223795520228,6.088718640595236,1.0372157096862793,-2.4049652258502405
1708436208.5507724,-2.1283905506134033,-1.3330498349717637,-2.5375857988940638,6.088624107628622,1.0373386144638062,-2.402762476597921
1708436208.5528033,-2.128326654434204,-1.3330912751010437,-2.5377426783191126,6.088451850205221,1.0375022888183594,-2.4005253950702112
1708436208.554797,-2.1282384395599365,-1.333016813998558,-2.5377970377551478,6.088373768120565,1.0377273559570312,-2.3983283678637903
1708436208.5567844,-2.1281344890594482,-1.3330168587020417,-2.5379093329059046,6.088193642884054,1.0379239320755005,-2.396129910145895
1708436208.5588024,-2.1280715465545654,-1.333045319919922,-2.5380306879626673,6.08802496173934,1.0381035804748535,-2.3939717451678675
1708436208.560785,-2.1280243396759033,-1.333066151743271,-2.5381012598620813,6.087933766632833,1.0382884740829468,-2.391766611729757
1708436208.5628037,-2.1279854774475098,-1.332995967274048,-2.538222376500265,6.08783911445693,1.0384728908538818,-2.3896358648883265
1708436208.5647695,-2.1278069019317627,-1.3330331456712265,-2.538322989140646,6.0877020237739465,1.0386743545532227,-2.387599770222799
1708436208.5667696,-2.1277599334716797,-1.3330750328353425,-2.538410011922018,6.087635743408956,1.0388541221618652,-2.385455910359518
1708436208.5688198,-2.127668619155884,-1.3330375862172623,-2.5384774843799036,6.0874706385429285,1.0390628576278687,-2.3833254019366663
1708436208.5708091,-2.1276140213012695,-1.3330572110465546,-2.5385571161853235,6.08738802650527,1.0392431020736694,-2.381251398717062
1708436208.5727968,-2.127530097961426,-1.3330661368421097,-2.5386531988727015,6.087281334191122,1.0393823385238647,-2.3791969458209437
1708436208.5748148,-2.127424955368042,-1.333057240848877,-2.538774315510885,6.087144124298849,1.0395385026931763,-2.377065722142355
1708436208.576786,-2.1273295879364014,-1.333057240848877,-2.538849655781881,6.0870293257530115,1.039682149887085,-2.3750012556659144
1708436208.578777,-2.127241373062134,-1.3330484342626114,-2.5389707724200647,6.086942302971639,1.0399285554885864,-2.3728461901294153
1708436208.5807984,-2.1271746158599854,-1.333106280570366,-2.539041582738058,6.086907374649801,1.0400677919387817,-2.3706441561328333
1708436208.5827599,-2.127117395401001,-1.3330242496779938,-2.5391255060779017,6.086839902191915,1.040211796760559,-2.3685415426837366
1708436208.5847886,-2.1270599365234375,-1.3330988001874466,-2.5392540136920374,6.086719500809469,1.0404008626937866,-2.366310183201925
1708436208.5867653,-2.1269633769989014,-1.333057240848877,-2.5393086115466517,6.0865986225898645,1.040503978729248,-2.364135805760519
1708436208.5888247,-2.1269078254699707,-1.3331181716969986,-2.5394344965564173,6.086559283524313,1.0407214164733887,-2.3619046846972864
1708436208.5907774,-2.1267881393432617,-1.3330855083516617,-2.539492909108297,6.086432087212362,1.0408822298049927,-2.359821144734518
1708436208.5928133,-2.1267271041870117,-1.3331137907556077,-2.5396128336535853,6.086356150894918,1.0410383939743042,-2.3577333132373255
1708436208.5947785,-2.1266517639160156,-1.3330602806857605,-2.53971773782839,6.086293208390035,1.0412260293960571,-2.355635944996969
1708436208.5968168,-2.1265475749969482,-1.3330515337041398,-2.5398007074939173,6.086221086769857,1.0413705110549927,-2.353530232106344
1708436208.5987804,-2.126471757888794,-1.3330559593490143,-2.539905373250143,6.086124527245321,1.0415432453155518,-2.3515241781817835
1708436208.600788,-2.126420259475708,-1.3330395382693787,-2.5399730841266077,6.086049663811483,1.0416909456253052,-2.349473539982931
1708436208.602839,-2.126303195953369,-1.3330885928920289,-2.540021006261007,6.085981952935018,1.0418756008148193,-2.3473485151873987
1708436208.6047707,-2.126277446746826,-1.3330439788154145,-2.540173594151632,6.085868942528524,1.0420242547988892,-2.345295015965597
1708436208.6067681,-2.1262006759643555,-1.3330973994782944,-2.5402172247516077,6.085850703507223,1.0421639680862427,-2.343288246785299
1708436208.608798,-2.126124620437622,-1.3331375879100342,-2.5402758757220667,6.0857547400291345,1.0423368215560913,-2.341119114552633
1708436208.6107793,-2.1260488033294678,-1.333112434749939,-2.540351215993063,6.085654842644491,1.042509913444519,-2.3390381971942347
1708436208.6128092,-2.125997543334961,-1.333132104282715,-2.540485684071676,6.085603940277853,1.0426820516586304,-2.3368902842151087
1708436208.61478,-2.125991106033325,-1.3331528466990967,-2.5405991713153284,6.085554826050558,1.0428298711776733,-2.3348808924304407
1708436208.616796,-2.125913619995117,-1.333206595187523,-2.540644709263937,6.085496055870809,1.042953610420227,-2.332818571721212
1708436208.6187787,-2.1258575916290283,-1.3331647527268906,-2.5407004992114466,6.085439431458273,1.0431337356567383,-2.3307154814349573
1708436208.6207752,-2.125807285308838,-1.3331977737000962,-2.5407395998584192,6.085339534073629,1.0433149337768555,-2.3286729494677942
1708436208.622823,-2.1257386207580566,-1.3331932437470932,-2.540868345891134,6.085291969567098,1.04343843460083,-2.326663319264547
1708436208.6247869,-2.1256697177886963,-1.3332379025271912,-2.5409491697894495,6.085273253708639,1.0435500144958496,-2.3246668020831507
1708436208.626788,-2.1256589889526367,-1.333212436442711,-2.541041676198141,6.085200416832723,1.0436900854110718,-2.3226762453662317
1708436208.6287901,-2.1255943775177,-1.333216832285263,-2.5410974661456507,6.085189568787374,1.0438429117202759,-2.320703093205587
1708436208.6307847,-2.125518798828125,-1.3332365316203614,-2.5411770979510706,6.0851220963294885,1.0439951419830322,-2.3187547365771692
1708436208.6328042,-2.1254630088806152,-1.3332231801799317,-2.5412491003619593,6.0850950358207605,1.0441360473632812,-2.3168051878558558
1708436208.6347694,-2.125399589538574,-1.3332470816424866,-2.541312281285421,6.085017907410421,1.0442923307418823,-2.3148637453662317
1708436208.63681,-2.125358819961548,-1.3332770329764863,-2.541375462208883,6.084993827133932,1.044433355331421,-2.312814537678854
1708436208.6387734,-2.125356912612915,-1.333312378530838,-2.5414605776416224,6.084953772812643,1.0445359945297241,-2.310866419469015
1708436208.640797,-2.125290870666504,-1.333287553196289,-2.5415027777301233,6.084885108261862,1.0446267127990723,-2.3087948004352015
1708436208.6427932,-2.125227212905884,-1.3333158057979126,-2.541603390370504,6.084865438729086,1.0448006391525269,-2.3068209330188196
1708436208.644771,-2.125211238861084,-1.333320216541626,-2.5417049566852015,6.084810125618734,1.0449411869049072,-2.30479604402651
1708436208.6467812,-2.1251518726348877,-1.3333453697017212,-2.541748348866598,6.0847864029701135,1.045048475265503,-2.302830521260397
1708436208.6487758,-2.125113010406494,-1.3333396476558228,-2.5418739954577845,6.084745871811666,1.0451819896697998,-2.3007691542254847
1708436208.6507773,-2.125046968460083,-1.3333514791778107,-2.5419371763812464,6.084751713066854,1.0453349351882935,-2.2988670508014124
1708436208.6528065,-2.1250600814819336,-1.3334140938571473,-2.541971985493795,6.084731805115499,1.045413613319397,-2.2969093958484095
1708436208.6547701,-2.1250405311584473,-1.3333440583995362,-2.5420811812030237,6.084659087448873,1.0455087423324585,-2.2949944178210657
1708436208.6567886,-2.125,-1.333363727932312,-2.5421369711505335,6.0846677897270105,1.0456169843673706,-2.2931345144854944
1708436208.6587782,-2.124908447265625,-1.3333756637624283,-2.542184654866354,6.084627616196432,1.0457861423492432,-2.2912562529193323
1708436208.6607845,-2.124951124191284,-1.333341584806778,-2.5422313849078577,6.084669935494222,1.045894742012024,-2.2893129030810755
1708436208.6627936,-2.124828815460205,-1.3334379655173798,-2.5422917048083704,6.084631907730856,1.0460596084594727,-2.2875142733203333
1708436208.6647859,-2.1248416900634766,-1.3334130358747025,-2.5423885027514856,6.0845926878745935,1.046163558959961,-2.285574976597921
1708436208.6667898,-2.124748468399048,-1.3334114116481324,-2.542398277913229,6.084486233979025,1.0462673902511597,-2.2838149706469935
1708436208.6687846,-2.124770164489746,-1.3334440749934693,-2.542426649724142,6.084530699044027,1.04641592502594,-2.281919304524557
1708436208.6707644,-2.1247167587280273,-1.333415837293007,-2.5425313154803675,6.084507214813986,1.0465034246444702,-2.280053440724508
1708436208.6728015,-2.1246819496154785,-1.3334233325770875,-2.5426328817950647,6.084487306862631,1.0466487407684326,-2.2780898253070276
1708436208.6747825,-2.1246120929718018,-1.333460734491684,-2.5427127520190638,6.0844589350517175,1.0467560291290283,-2.276154343281881
1708436208.6768253,-2.124589443206787,-1.3334563386491318,-2.5427561442004603,6.084552275925436,1.0468478202819824,-2.2741788069354456
1708436208.6787665,-2.124555826187134,-1.3334954243949433,-2.5427714029895228,6.084549295693197,1.0469920635223389,-2.272283379231588
1708436208.680793,-2.1245052814483643,-1.3335246604732056,-2.5428226629840296,6.084491717606344,1.0470881462097168,-2.270363155995504
1708436208.6827843,-2.124502658843994,-1.3334981066039582,-2.542931858693258,6.0845245001609705,1.0472010374069214,-2.2684548536883753
1708436208.6847827,-2.1244821548461914,-1.3335519295981904,-2.5429752508746546,6.084487306862631,1.0472959280014038,-2.2665541807757776
1708436208.6867838,-2.1244144439697266,-1.3335519295981904,-2.543035332356588,6.0845035193260095,1.0473963022232056,-2.264773670827047
1708436208.6887636,-2.124410629272461,-1.333510012631752,-2.5430920759784144,6.084557997971334,1.0474926233291626,-2.262951676045553
1708436208.6907842,-2.124300718307495,-1.3335890036872406,-2.543201510106222,6.0844589350517175,1.047621488571167,-2.2611430327044886
1708436208.692812,-2.124330520629883,-1.3336277318051835,-2.5432239214526575,6.084467518120565,1.0477550029754639,-2.2592838446246546
1708436208.6947925,-2.12431001663208,-1.3335623455098649,-2.5432589689837855,6.084479796677389,1.0478183031082153,-2.2575185934649866
1708436208.6967967,-2.124279260635376,-1.333626703625061,-2.5433111826526087,6.084479796677389,1.0479024648666382,-2.255695645009176
1708436208.6987724,-2.1242377758026123,-1.3335776042989274,-2.543408457432882,6.084484088211813,1.0479735136032104,-2.2539337317096155
1708436208.7007737,-2.1241860389709473,-1.3336505603841324,-2.5434399286853235,6.084509002953329,1.048036813735962,-2.2520955244647425
1708436208.7028112,-2.124173402786255,-1.3337042790702363,-2.5434675852404993,6.084467518120565,1.048195242881775,-2.2503393332110804
1708436208.704778,-2.124174118041992,-1.3336923581412812,-2.5435314814196985,6.084442722588339,1.04830801486969,-2.248537842427389
1708436208.7067933,-2.1241414546966553,-1.3337325018695374,-2.543588463460104,6.084402310639181,1.048387885093689,-2.246619526539938
1708436208.7087948,-2.1241233348846436,-1.3336909425309678,-2.5436485449420374,6.084418761521139,1.0484468936920166,-2.244843308125631
1708436208.7107666,-2.1240742206573486,-1.3337637943080445,-2.54372483888735,6.0844318745429895,1.0485681295394897,-2.2429307142840784
1708436208.71281,-2.124042510986328,-1.3336896759322663,-2.5437594095813196,6.084406602173605,1.0486927032470703,-2.2410691420184534
1708436208.7148027,-2.124035358428955,-1.3337760430625458,-2.543807570134298,6.084448087006368,1.0487680435180664,-2.23917800584902
1708436208.7168136,-2.123932361602783,-1.3337223094752808,-2.5438688437091272,6.084443676262655,1.0489047765731812,-2.237384621297018
1708436208.71878,-2.1239795684814453,-1.333753914838173,-2.543915573750631,6.084387409477987,1.0489802360534668,-2.2355640570269983
1708436208.7207654,-2.1239190101623535,-1.3337658208659668,-2.5439427534686487,6.0844600079353235,1.0490763187408447,-2.233760182057516
1708436208.7227843,-2.123882532119751,-1.3338028949550171,-2.5440245310412806,6.084436166077413,1.0492055416107178,-2.2320202032672327
1708436208.7247548,-2.1238746643066406,-1.3338638109019776,-2.5440223852740687,6.084383117943563,1.0493144989013672,-2.2302263418780726
1708436208.7267683,-2.1238269805908203,-1.3338019114783783,-2.5440879503833216,6.084388482361593,1.0493812561035156,-2.2284725348102015
1708436208.7287614,-2.123807430267334,-1.333859310751297,-2.5441435019122522,6.084343898087301,1.0494903326034546,-2.226762119923727
1708436208.7307851,-2.1237473487854004,-1.3338759702495118,-2.544198815022604,6.084376323014059,1.0494918823242188,-2.225079361592428
1708436208.7327626,-2.12370228767395,-1.3339086186936875,-2.5442515055285853,6.08436547496871,1.0496052503585815,-2.22329551378359
1708436208.7347727,-2.1236910820007324,-1.3338954758695145,-2.5443277994738978,6.084291803627767,1.0496973991394043,-2.2215712706195276
1708436208.7367992,-2.1236109733581543,-1.3339073222926636,-2.5444043318377894,6.084270942002096,1.0497452020645142,-2.219860378895895
1708436208.7387657,-2.1235971450805664,-1.333889589910843,-2.5444236437426966,6.084243881493368,1.0498214960098267,-2.2181575934039515
