Eg3-git/Classifiers/Data Collection/u4/u4abc3_ur3e_joint_states.csv
time,elbow_joint,shoulder_lift_joint,shoulder_pan_joint,wrist_1_joint,wrist_2_joint,wrist_3_joint
1708436177.9685774,-2.145124912261963,-1.3346874427846451,-2.5269508997546595,6.119055616646566,1.0178635120391846,-2.6835225264178675
1708436177.9705646,-2.145047903060913,-1.3346185249141236,-2.5269222895251673,6.118952142983236,1.017813801765442,-2.6834519545184534
1708436177.9725957,-2.145045518875122,-1.3346844625524064,-2.526992384587423,6.1188236353691,1.017785668373108,-2.6834381262408655
1708436177.9745762,-2.1449332237243652,-1.334672213797905,-2.526947323475973,6.1187054989631555,1.017831563949585,-2.683368984852926
1708436177.9766064,-2.1449332237243652,-1.3346064996770401,-2.5269106070147913,6.118563997536459,1.0178018808364868,-2.6833491961108606
1708436177.9785626,-2.1449103355407715,-1.3345953089049836,-2.526939932500021,6.118496525078573,1.017852544784546,-2.6833344141589563
1708436177.980572,-2.1448323726654053,-1.3346322488835831,-2.526931111012594,6.118417250901022,1.0177944898605347,-2.683253351842062
1708436177.982626,-2.14485239982605,-1.3346594137004395,-2.5268898645984095,6.118273007660665,1.0178394317626953,-2.6832669417010706
1708436177.9845529,-2.1447699069976807,-1.3346242916635056,-2.5268986860858362,6.118194448738851,1.0177781581878662,-2.6832290331469935
1708436177.986591,-2.1447503566741943,-1.3345552694848557,-2.526898447667257,6.1181421158607385,1.0178403854370117,-2.6831615606891077
1708436177.9885478,-2.14469838142395,-1.334636540418007,-2.526939932500021,6.118083703308859,1.0178077220916748,-2.683136288319723
1708436177.9905562,-2.1446123123168945,-1.3346285384944458,-2.526914898549215,6.117984521179952,1.0178196430206299,-2.6830936113940638
1708436177.9925673,-2.1446142196655273,-1.3345953089049836,-2.526890818272726,6.117822634964742,1.0178241729736328,-2.683056418095724
1708436177.9945512,-2.14459490776062,-1.3345799905112763,-2.5268777052508753,6.11780737617568,1.0177748203277588,-2.683002773915426
1708436177.9965992,-2.144559621810913,-1.3345766079476853,-2.5268951098071497,6.117683398514547,1.0177781581878662,-2.682978932057516
1708436177.9985561,-2.1445155143737793,-1.3345195066979905,-2.526886526738302,6.117583381920614,1.0177748203277588,-2.6829808394061487
1708436178.0005612,-2.1444714069366455,-1.3345366728356858,-2.526881996785299,6.11744652965621,1.0178033113479614,-2.682894531880514
1708436178.0025752,-2.14443039894104,-1.3344910752824326,-2.5268831888781946,6.11741720417098,1.017798900604248,-2.682887379323141
1708436178.004549,-2.1444404125213623,-1.3344877821258088,-2.5269115606891077,6.117337929993429,1.0178123712539673,-2.682847325001852
1708436178.0065796,-2.1443705558776855,-1.3345280450633545,-2.5268994013415735,6.117257344513693,1.0177793502807617,-2.6827989260302942
1708436178.00858,-2.144303560256958,-1.3345323962024231,-2.5269082228290003,6.117124664574423,1.0177793502807617,-2.6828046480761927
1708436178.0105753,-2.144286632537842,-1.3344755333713074,-2.5268951098071497,6.117086875229635,1.0177340507507324,-2.6827927271472376
1708436178.0125744,-2.144263744354248,-1.3344724637321015,-2.526862446461813,6.117039549141683,1.0177507400512695,-2.6827479044543665
1708436178.0145555,-2.1442151069641113,-1.3344605428031464,-2.5268874804126185,6.116861569672384,1.0177507400512695,-2.6827414671527308
1708436178.0165935,-2.1442127227783203,-1.3344444346478959,-2.526874605809347,6.116872656136312,1.017767071723938,-2.6826708952533167
1708436178.0185685,-2.14422607421875,-1.3344074201634903,-2.5268710295306605,6.11674319484786,1.0177310705184937,-2.6826182047473353
1708436178.020557,-2.1441807746887207,-1.3344321709922333,-2.52690297762026,6.116678941040792,1.017747402191162,-2.6826780478106897
1708436178.0225759,-2.1441118717193604,-1.334424541597702,-2.5268548170672815,6.116607177048483,1.0177429914474487,-2.682582680379049
1708436178.024573,-2.144099473953247,-1.334383637910225,-2.5268221537219446,6.116580116539755,1.0176984071731567,-2.6825411955462855
1708436178.0265625,-2.144092321395874,-1.3344572496465226,-2.526896301900045,6.116530048638143,1.0177147388458252,-2.682542864476339
1708436178.0285642,-2.1440677642822266,-1.334392176275589,-2.5268994013415735,6.116387951164999,1.0176904201507568,-2.682511631642477
1708436178.0305507,-2.1440322399139404,-1.334408314233162,-2.526862446461813,6.116340982704916,1.01774001121521,-2.682453457509176
1708436178.032562,-2.144019842147827,-1.3343522262624283,-2.5268920103656214,6.116248357086935,1.0177444219589233,-2.6824713389026087
1708436178.0345685,-2.14402174949646,-1.3343765449574967,-2.5268266836749476,6.116209375649252,1.0176904201507568,-2.682380978261129
1708436178.0365722,-2.1439766883850098,-1.3343564879945298,-2.5268753210650843,6.116133320122518,1.0177236795425415,-2.6824479738818567
1708436178.038544,-2.143965244293213,-1.3343723577312012,-2.526841704045431,6.116119134217062,1.0176814794540405,-2.6823535601245325
1708436178.040561,-2.1438703536987305,-1.3343237948468705,-2.5268223921405237,6.11610375621871,1.0176368951797485,-2.6823247114764612
1708436178.0426273,-2.143925428390503,-1.3343444925597687,-2.5268591086017054,6.11594175079421,1.0176784992218018,-2.6823671499835413
1708436178.0446074,-2.1438229084014893,-1.3343160462430497,-2.5268386046039026,6.115870344429769,1.0176784992218018,-2.682326380406515
1708436178.0465643,-2.143873453140259,-1.33427249014888,-2.526878897343771,6.115854847222128,1.0176546573638916,-2.6822572390185755
1708436178.0485456,-2.1438653469085693,-1.3342682731202622,-2.5268591086017054,6.115795004158773,1.01765775680542,-2.6822779814349573
1708436178.0505614,-2.143768310546875,-1.3342886728099366,-2.526863400136129,6.115690815239706,1.0176458358764648,-2.682279650365011
1708436178.052649,-2.1437816619873047,-1.3342886728099366,-2.5268591086017054,6.115675675659933,1.01767098903656,-2.682246987019674
1708436178.0545795,-2.1437690258026123,-1.3342162680676957,-2.5268309752093714,6.115608203202047,1.017663598060608,-2.6821847597705286
1708436178.0565736,-2.143728256225586,-1.3342682284167786,-2.5268264452563685,6.115520226746359,1.0176335573196411,-2.6821864287005823
1708436178.0585465,-2.1437203884124756,-1.334296242599823,-2.5268145243274134,6.115464675217428,1.0176591873168945,-2.6821327845202845
1708436178.0605912,-2.1437158584594727,-1.3342571717551728,-2.5268102327929896,6.115379917412557,1.0176469087600708,-2.6820839087115687
1708436178.0625517,-2.1437153816223145,-1.3342162680676957,-2.526855770741598,6.115336525231161,1.0176335573196411,-2.6821098963366907
1708436178.0645614,-2.1436028480529785,-1.3342128855041047,-2.526844088231222,6.115305888443746,1.0176395177841187,-2.6821144262896937
1708436178.0665553,-2.1436500549316406,-1.3342214983752747,-2.5268147627459925,6.115205037384786,1.0176305770874023,-2.6821020285235804
1708436178.0685441,-2.143634080886841,-1.3342333298972626,-2.5268190542804163,6.115165698319235,1.0176094770431519,-2.6820080916034144
1708436178.070552,-2.143634080886841,-1.3341930669597168,-2.5268264452563685,6.115093219071188,1.017606496810913,-2.682046953831808
1708436178.0725713,-2.143601179122925,-1.334217147236206,-2.526773993168966,6.115095007210531,1.017626166343689,-2.682025972996847
1708436178.0745523,-2.1435205936431885,-1.334176943903305,-2.52682334581484,6.11495720127181,1.017655849456787,-2.681981865559713
1708436178.0765517,-2.1435658931732178,-1.334168256526329,-2.526815954838888,6.114928710251608,1.0175646543502808,-2.6819611231433313
1708436178.0785463,-2.1435704231262207,-1.334181160931923,-2.526843849812643,6.114934193878927,1.0176395177841187,-2.6819492022143763
1708436178.0805578,-2.143545627593994,-1.3342342984727402,-2.526815954838888,6.114899384766378,1.0176395177841187,-2.681934181843893
1708436178.0825505,-2.1435093879699707,-1.334213526254036,-2.5268364588366907,6.114823090821066,1.017593264579773,-2.6819053331958216
1708436178.0845468,-2.1435093879699707,-1.334141196017601,-2.526794497166769,6.114750492363729,1.0176154375076294,-2.6818600336657923
1708436178.08656,-2.1435000896453857,-1.3341453832438965,-2.5267913977252405,6.114695060044088,1.017594337463379,-2.681869093571798
1708436178.0885656,-2.143430233001709,-1.3341368448785325,-2.526799027119772,6.114635097771444,1.0176184177398682,-2.6818438212024134
1708436178.0905628,-2.1434545516967773,-1.33412920058284,-2.5267913977252405,6.114603388100424,1.0176602602005005,-2.6818960348712366
1708436178.092549,-2.1434309482574463,-1.334149644975998,-2.526766602193014,6.114542829781332,1.0175853967666626,-2.6818135420428675
1708436178.0945597,-2.1433911323547363,-1.334132583146431,-2.5268076101886194,6.11454056480483,1.0175691843032837,-2.6818271319018763
1708436178.0965571,-2.143402576446533,-1.33413781345401,-2.5268407503711146,6.114479768067159,1.017606496810913,-2.681835953389303
1708436178.098555,-2.1433732509613037,-1.3340727400830765,-2.5267959276782435,6.1144611714179895,1.0175405740737915,-2.6817410627948206
1708436178.1005697,-2.1433708667755127,-1.3340931993773957,-2.5268288294421595,6.114352452545919,1.017589807510376,-2.6817155520068567
1708436178.1025486,-2.1433558464050293,-1.33404857039962,-2.5268245379077356,6.114324199944296,1.0175824165344238,-2.681769911442892
1708436178.1045706,-2.14333438873291,-1.3340647530606766,-2.526762072240011,6.114289271622457,1.0176197290420532,-2.6817217508899134
1708436178.1065476,-2.1432859897613525,-1.3340898913196106,-2.5268076101886194,6.114224064141073,1.0175750255584717,-2.6817007700549524
1708436178.108583,-2.143270969390869,-1.3340690296939393,-2.52677828470339,6.114135014801779,1.0175628662109375,-2.681678120289938
1708436178.110571,-2.1432912349700928,-1.3340452325395127,-2.52677828470339,6.11416124084548,1.017537236213684,-2.6816447416888636
1708436178.1125565,-2.143237352371216,-1.3340537709048768,-2.5268245379077356,6.114162075310507,1.0175538063049316,-2.6816373507129114
1708436178.1145554,-2.1432673931121826,-1.3340537709048768,-2.526742760335104,6.114098059922018,1.0175750255584717,-2.6816075483905237
1708436178.116579,-2.1432347297668457,-1.3340495389750977,-2.5268033186541956,6.114017355232992,1.0175328254699707,-2.681646172200338
1708436178.1185877,-2.1431984901428223,-1.3340256971171875,-2.526770893727438,6.113978373795309,1.0175660848617554,-2.681617800389425
1708436178.1205595,-2.1431667804718018,-1.3340624880841752,-2.526771847401754,6.113926160126486,1.0175461769104004,-2.6815970579730433
1708436178.122558,-2.143113613128662,-1.334000827079155,-2.526742760335104,6.113908159523763,1.0175628662109375,-2.6815555731402796
1708436178.124577,-2.1431102752685547,-1.3339975339225312,-2.5267589727984827,6.1138590452964685,1.017600178718567,-2.6815736929522913
1708436178.1265523,-2.143122434616089,-1.333981306557991,-2.5267794767962855,6.113785850792684,1.017525315284729,-2.6814420858966272
1708436178.1285863,-2.1431100368499756,-1.3340430420688172,-2.5267794767962855,6.113779651909628,1.0175089836120605,-2.6815291086779993
1708436178.1305645,-2.1430490016937256,-1.3339986515096207,-2.5267632643329065,6.113690125733175,1.0175549983978271,-2.681493345891134
1708436178.132599,-2.1430907249450684,-1.3339408946088334,-2.5267589727984827,6.113724100380697,1.0175416469573975,-2.6814265886889856
1708436178.1345775,-2.1430623531341553,-1.3339986515096207,-2.5267675558673304,6.113602149277487,1.0175342559814453,-2.6814430395709437
1708436178.1365564,-2.1430230140686035,-1.3339571368745347,-2.526816431676046,6.113509046822347,1.0175716876983643,-2.6814401785479944
1708436178.1385677,-2.143007755279541,-1.3339701753905793,-2.526738230382101,6.11351095417098,1.0175628662109375,-2.681453529988424
1708436178.1405675,-2.143010139465332,-1.3339583289674302,-2.5267513434039515,6.113451111107626,1.0175268650054932,-2.6813531557666224
1708436178.1426096,-2.142990827560425,-1.333953933124878,-2.5267306009875696,6.113435137062826,1.0175135135650635,-2.681347195302145
1708436178.144605,-2.1430368423461914,-1.3339258593371888,-2.526770893727438,6.1134283421333215,1.017543077468872,-2.681347195302145
1708436178.1465652,-2.142955780029297,-1.3339214634946366,-2.5267794767962855,6.113376128464498,1.0175386667251587,-2.681330982838766
1708436178.148598,-2.1429567337036133,-1.3339625608972092,-2.5267675558673304,6.113291609078207,1.0175342559814453,-2.6813817659961146
1708436178.1505642,-2.1429431438446045,-1.3338976216367264,-2.5267720858203333,6.113276231079855,1.0175145864486694,-2.681335512791769
1708436178.15258,-2.142932891845703,-1.3339268875173111,-2.5267470518695276,6.113182532578268,1.017498254776001,-2.6813817659961146
1708436178.1545506,-2.142881155014038,-1.3339062494090577,-2.5267840067492884,6.11316333988265,1.0175268650054932,-2.6813035647021692
1708436178.1565866,-2.14286732673645,-1.3338976216367264,-2.5267348925219935,6.1131642935569666,1.0175386667251587,-2.681279246007101
1708436178.158561,-2.1428308486938477,-1.3338648241809388,-2.5267556349383753,6.11310766914443,1.0175179243087769,-2.681241814290182
1708436178.1605682,-2.142854928970337,-1.3338984113982697,-2.5267019907580774,6.113088238030233,1.0175145864486694,-2.6812718550311487
1708436178.16255,-2.1428894996643066,-1.3338907969048996,-2.526710812245504,6.11306523063735,1.017486333847046,-2.6812146345721644
1708436178.1645708,-2.1428184509277344,-1.3339192879251023,-2.5267391840564173,6.113037097245016,1.0175026655197144,-2.681199375783102
1708436178.1665614,-2.1427903175354004,-1.3339062494090577,-2.526715103779928,6.113009679108419,1.0174893140792847,-2.681187454854147
1708436178.1685624,-2.14281964302063,-1.3338366609862824,-2.526771847401754,6.11294578292922,1.0174729824066162,-2.6812360922442835
1708436178.1705735,-2.1427834033966064,-1.333849699502327,-2.5267391840564173,6.112892377167501,1.0174397230148315,-2.681124750767843
1708436178.1725621,-2.142796754837036,-1.333914966588356,-2.526710812245504,6.112882721215048,1.0174696445465088,-2.681142870579855
1708436178.1745555,-2.142771005630493,-1.3338864904693146,-2.526759926472799,6.11281298378066,1.017498254776001,-2.6811605135547083
1708436178.1765554,-2.14277982711792,-1.3338907969048996,-2.5267019907580774,6.112805473595419,1.0174819231033325,-2.6811099688159388
1708436178.1785595,-2.1427717208862305,-1.333895207648613,-2.5267556349383753,6.112785804062643,1.0175279378890991,-2.681073013936178
1708436178.1805565,-2.1427133083343506,-1.333854005937912,-2.526715103779928,6.112738001137533,1.0174697637557983,-2.6811233202563685
1708436178.1825788,-2.142731189727783,-1.3338907969048996,-2.526719395314352,6.112721907883444,1.0174620151519775,-2.6811233202563685
1708436178.1845782,-2.1427481174468994,-1.3338255298188706,-2.5267019907580774,6.112652885704794,1.0174574851989746,-2.681110922490255
1708436178.1865447,-2.142690420150757,-1.3338021051934739,-2.5267065207110804,6.1126220104988,1.0174620151519775,-2.681129042302267
1708436178.1885498,-2.142733097076416,-1.3338212084821244,-2.526710812245504,6.1126348851020715,1.0174530744552612,-2.6810300985919397
1708436178.19056,-2.1427128314971924,-1.3338547062924881,-2.5267019907580774,6.112586962967672,1.0174787044525146,-2.6810761133777063
1708436178.1925516,-2.142695903778076,-1.3338063222220917,-2.5266976992236536,6.112502085953512,1.0174574851989746,-2.6810315291034144
1708436178.194561,-2.142643928527832,-1.3338255447200318,-2.526710812245504,6.112502085953512,1.017466425895691,-2.6810315291034144
1708436178.1965642,-2.142672061920166,-1.333838478927948,-2.526727263127462,6.112478005677023,1.017433762550354,-2.680952850972311
1708436178.1985679,-2.1427102088928223,-1.333818332558014,-2.52673584619631,6.112442362099447,1.0174620151519775,-2.680962149296896
1708436178.2005632,-2.142606735229492,-1.3338504892638703,-2.5267065207110804,6.112411010056295,1.0174500942230225,-2.681011740361349
1708436178.2025511,-2.142604112625122,-1.333814026122429,-2.526715103779928,6.112423884659567,1.0174829959869385,-2.6810007731067103
1708436178.2045562,-2.142669439315796,-1.333846167927124,-2.526723925267355,6.112317073136129,1.0174425840377808,-2.6809797922717493
1708436178.2065566,-2.1426403522491455,-1.3338150394013901,-2.5267565886126917,6.112351166992941,1.0174174308776855,-2.6809263865100306
1708436178.2085922,-2.1426050662994385,-1.3338063222220917,-2.526743475590841,6.1122991917426965,1.017418622970581,-2.6809397379504603
1708436178.2105508,-2.1425633430480957,-1.3338150394013901,-2.526670519505636,6.112262952118673,1.0174633264541626,-2.680901829396383
1708436178.2125676,-2.1426050662994385,-1.3338312816670914,-2.526731554661886,6.112287986069479,1.017421841621399,-2.680898968373434
1708436178.2145598,-2.1425766944885254,-1.3337977838567276,-2.526707712803976,6.112228143006124,1.0174262523651123,-2.6808746496783655
1708436178.2165565,-2.142568826675415,-1.3337778461030503,-2.526703182850973,6.112171757012167,1.0174293518066406,-2.6809244791613978
1708436178.2185745,-2.142568826675415,-1.333810643558838,-2.526703182850973,6.112159597664633,1.0174174308776855,-2.6808701197253626
1708436178.22059,-2.1425607204437256,-1.3338150394013901,-2.526691261922018,6.1121476767356775,1.0174471139907837,-2.680898968373434
1708436178.2225661,-2.142551898956299,-1.3337778461030503,-2.526723925267355,6.112131345063009,1.0174589157104492,-2.6808701197253626
1708436178.224578,-2.142516613006592,-1.3337050539306183,-2.526691261922018,6.1120715019996545,1.0174425840377808,-2.6808419863330286
1708436178.2265549,-2.142516613006592,-1.3337908548167725,-2.526740376149313,6.112088191300192,1.0174274444580078,-2.6808834711657923
1708436178.2286088,-2.142483949661255,-1.333761603837349,-2.526679340993063,6.112084615021505,1.017397403717041,-2.6808293501483362
1708436178.230566,-2.1424803733825684,-1.33379519105468,-2.5267325083362024,6.112008440285482,1.0173856019973755,-2.680868689213888
1708436178.2325847,-2.1424713134765625,-1.3337418299964447,-2.5266671816455286,6.112008559494772,1.0174140930175781,-2.680743996297018
1708436178.2345817,-2.142463445663452,-1.3337703210166474,-2.5266998449908655,6.112017142563619,1.017397403717041,-2.68072754541506
1708436178.2365756,-2.142489194869995,-1.3337062013200303,-2.5266671816455286,6.111952173500814,1.0174306631088257,-2.6807783285724085
1708436178.2385526,-2.142456531524658,-1.3337386411479493,-2.526666227971212,6.111948954849996,1.017401933670044,-2.6807783285724085
1708436178.2405865,-2.1424813270568848,-1.333739699130394,-2.5266955534564417,6.1119738695915125,1.0174140930175781,-2.6807828585254114
1708436178.2426195,-2.1424238681793213,-1.3337093752673645,-2.5266714731799524,6.111929166107931,1.0173569917678833,-2.6807456652270716
1708436178.2446508,-2.142453908920288,-1.3337050539306183,-2.5266998449908655,6.11186848857955,1.017401933670044,-2.6807590166675013
1708436178.2465947,-2.142461061477661,-1.3337018501809617,-2.5266757647143763,6.111875760346212,1.0173615217208862,-2.6807499567614954
1708436178.2485635,-2.142437219619751,-1.333714799290039,-2.5266998449908655,6.111873972206869,1.0173659324645996,-2.680685583745138
1708436178.250575,-2.1424245834350586,-1.3337396693280716,-2.526675049458639,6.1118366596992395,1.0173569917678833,-2.680701796208517
1708436178.2525895,-2.142345905303955,-1.333702878361084,-2.5266836325274866,6.111804234772482,1.017415165901184,-2.680652920399801
1708436178.2545724,-2.1423795223236084,-1.3337353479913254,-2.526646677647726,6.111833560257711,1.0173496007919312,-2.6807082335101526
1708436178.2565556,-2.1423635482788086,-1.3336985570243378,-2.5266299883471888,6.11178885677413,1.0173406600952148,-2.6806276480304163
1708436178.2585545,-2.1423683166503906,-1.333714784388878,-2.5266714731799524,6.111729252129354,1.0173659324645996,-2.680657211934225
1708436178.2605717,-2.1423771381378174,-1.3337266755155106,-2.526642147694723,6.111684548645773,1.0173747539520264,-2.6806440989123743
1708436178.262573,-2.1423771381378174,-1.333714799290039,-2.526642147694723,6.111734735756674,1.0173332691192627,-2.68063193956484
1708436178.264552,-2.142320394515991,-1.3337071698955079,-2.526646677647726,6.111700761109152,1.0173043012619019,-2.680613104497091
1708436178.2665994,-2.1423442363739014,-1.3336581599763413,-2.526679340993063,6.111685740738668,1.0173043012619019,-2.680662218724386
1708436178.2685616,-2.142336368560791,-1.3336704087308426,-2.5266345183001917,6.111677872925558,1.0173466205596924,-2.68060547510256
1708436178.270551,-2.1423451900482178,-1.3336704087308426,-2.5266509691821497,6.111661660462179,1.0173420906066895,-2.680626455937521
1708436178.272561,-2.142366409301758,-1.3336747598699112,-2.526658598576681,6.111645686417379,1.017370343208313,-2.680556360875265
1708436178.2745547,-2.142266273498535,-1.3336823296597977,-2.526625696812765,6.111659753113546,1.0173429250717163,-2.680589262639181
1708436178.2765598,-2.1422922611236572,-1.333637611275055,-2.5266595522509974,6.111634480744161,1.0173133611679077,-2.6806145350085657
1708436178.2785528,-2.142272710800171,-1.3336661469987412,-2.5267086664782923,6.111605155258932,1.0173251628875732,-2.6805980841266077
1708436178.280555,-2.14229679107666,-1.333702878361084,-2.5266552607165735,6.111573564797201,1.0173540115356445,-2.680560890828268
1708436178.2825563,-2.1422524452209473,-1.333671198492386,-2.5266509691821497,6.111549722939291,1.0173133611679077,-2.6805980841266077
1708436178.2845697,-2.1422839164733887,-1.3336996746114274,-2.5266714731799524,6.111598837166586,1.0173251628875732,-2.680507485066549
1708436178.286579,-2.1422524452209473,-1.3336985868266602,-2.526663843785421,6.111554133683004,1.0173746347427368,-2.680566374455587
1708436178.2885673,-2.142244577407837,-1.333712638621666,-2.5266757647143763,6.111586558609762,1.0173341035842896,-2.680537525807516
1708436178.290565,-2.1423017978668213,-1.3337234270623703,-2.5266225973712366,6.111521589546957,1.0173332691192627,-2.6805418173419397
1708436178.292596,-2.1422746181488037,-1.3336704087308426,-2.5266149679767054,6.111538994103231,1.0173133611679077,-2.6805301348315638
1708436178.2945635,-2.14227032661438,-1.3336419028094788,-2.526663843785421,6.111477958946981,1.0173265933990479,-2.680492941533224
1708436178.2965891,-2.1422622203826904,-1.3337775629809876,-2.5266149679767054,6.111420142441549,1.0173510313034058,-2.680500332509176
1708436178.298591,-2.142249822616577,-1.3336704087308426,-2.5266431013690394,6.111449825554647,1.0173429250717163,-2.680553976689474
1708436178.300585,-2.14227032661438,-1.333675504927971,-2.526601854954855,6.111490952759542,1.0173265933990479,-2.6805301348315638
1708436178.3026066,-2.1422746181488037,-1.3336549562266846,-2.526663843785421,6.111454951554098,1.0173207521438599,-2.6804729143725794
1708436178.304558,-2.142184257507324,-1.33364191771064,-2.5266605059253138,6.111441957741537,1.0173311233520508,-2.6804819742785853
1708436178.3065784,-2.142200231552124,-1.3336877685836335,-2.526676956807272,6.111467230110922,1.0173265933990479,-2.6804400126086634
1708436178.3085637,-2.1421797275543213,-1.3336506348899384,-2.5266311804400843,6.11139856556014,1.017317771911621,-2.6804655233966272
1708436178.3105474,-2.142184257507324,-1.3336841476014634,-2.5265987555133265,6.111373770027914,1.0173133611679077,-2.6804898420916956
1708436178.3126106,-2.14219331741333,-1.3336398017457505,-2.526639763508932,6.111452090531149,1.0172851085662842,-2.6804564634906214
1708436178.314564,-2.142204761505127,-1.3336430352977295,-2.5266225973712366,6.111402976303854,1.0172443389892578,-2.6804564634906214
1708436178.3165836,-2.142141103744507,-1.3336430352977295,-2.526651684437887,6.111447679787435,1.0172654390335083,-2.680415693913595
1708436178.3187954,-2.142186403274536,-1.333598644738533,-2.526619259511129,6.111402976303854,1.0173265933990479,-2.680462662373678
1708436178.320576,-2.1421616077423096,-1.3336355102113266,-2.5266149679767054,6.111460673599996,1.0172772407531738,-2.680429283772604
1708436178.322589,-2.142152786254883,-1.3336274933866044,-2.5266106764422815,6.111371624260702,1.0173028707504272,-2.680423084889547
1708436178.3245785,-2.142143726348877,-1.3336268079331894,-2.5266311804400843,6.11137484291152,1.0172984600067139,-2.6804338137256067
1708436178.32657,-2.142120838165283,-1.3336679947427292,-2.5266431013690394,6.11132692077712,1.0172743797302246,-2.680392090474264
1708436178.3285532,-2.142136812210083,-1.3336386990598221,-2.5266149679767054,6.111278164177694,1.017290711402893,-2.680458370839254
1708436178.3305662,-2.1421501636505127,-1.333663524394371,-2.526635471974508,6.111339795380392,1.0172522068023682,-2.6804054419146937
1708436178.3325622,-2.1421570777893066,-1.3336224865964432,-2.5266311804400843,6.1112792370613,1.0172817707061768,-2.6804054419146937
1708436178.3345482,-2.142112970352173,-1.3336755645326157,-2.5265942255603235,6.1112792370613,1.0172817707061768,-2.6803765932666224
1708436178.3365762,-2.1421456336975098,-1.3335900169662018,-2.526591126118795,6.111283528595724,1.0172984600067139,-2.6804261843310755
1708436178.33856,-2.1421048641204834,-1.3336344075253983,-2.526623551045553,6.11127136924819,1.0172531604766846,-2.6804471651660364
1708436178.3405898,-2.1420958042144775,-1.3335824024728318,-2.526619259511129,6.1111944792564294,1.0172861814498901,-2.6804190317737024
1708436178.342615,-2.1421566009521484,-1.3336102229407807,-2.526616160069601,6.111211764603414,1.0173028707504272,-2.6803558508502405
1708436178.3446171,-2.1421217918395996,-1.3336473566344758,-2.5266268889056605,6.111227738648214,1.0172654390335083,-2.6804426352130335
1708436178.3466735,-2.1420979499816895,-1.3336232018521805,-2.5266311804400843,6.111227738648214,1.0172851085662842,-2.6804025808917444
1708436178.3485782,-2.1421048641204834,-1.3336059165051957,-2.526651684437887,6.1112204668815515,1.0172698497772217,-2.680378023778097
1708436178.3505793,-2.1421139240264893,-1.3336355102113266,-2.5265899340258997,6.111126649170675,1.0172654390335083,-2.6804025808917444
1708436178.352609,-2.1421024799346924,-1.3336145293763657,-2.526595417653219,6.111122238426962,1.0172576904296875,-2.680340830479757
1708436178.3545895,-2.1421093940734863,-1.3336592775634308,-2.526639763508932,6.111201035767355,1.017278790473938,-2.6803980509387415
1708436178.3565779,-2.1420392990112305,-1.3336030703834076,-2.526573721562521,6.111201035767355,1.0172158479690552,-2.6804071108447474
1708436178.3585596,-2.142122745513916,-1.3336231869510193,-2.526573721562521,6.111091363220968,1.0172861814498901,-2.68036920229067
1708436178.3605983,-2.1420483589172363,-1.3335953515819092,-2.526607338582174,6.111119138985433,1.017241358757019,-2.6803365389453333
1708436178.362569,-2.142106771469116,-1.3336646121791382,-2.526623551045553,6.1111159203346155,1.017311692237854,-2.680352751408712
1708436178.3645937,-2.142098903656006,-1.3335824620774765,-2.5265868345843714,6.1111289141471765,1.0172158479690552,-2.680378023778097
1708436178.3665936,-2.1420528888702393,-1.3336072874120255,-2.526574436818258,6.111043321877279,1.0173074007034302,-2.6803320089923304
1708436178.3685763,-2.1420528888702393,-1.3336030405810853,-2.526688877736227,6.11105631568984,1.0172531604766846,-2.680337969456808
1708436178.370562,-2.1420819759368896,-1.3336690080216904,-2.526628080998556,6.111072528153219,1.017224669456482,-2.6803365389453333
1708436178.3725638,-2.142011880874634,-1.3336317849210282,-2.526644293461935,6.110983121186056,1.0172576904296875,-2.6803000609027308
1708436178.3745768,-2.142037868499756,-1.3336030554822464,-2.5266485849963587,6.1110397455985925,1.0172487497329712,-2.6802831331836146
1708436178.3765604,-2.142037868499756,-1.333614559178688,-2.526639763508932,6.111044156342306,1.017278790473938,-2.6803045908557337
1708436178.3785584,-2.1420209407806396,-1.3335748475841065,-2.52663237253298,6.111040937691488,1.0172576904296875,-2.6802592913257044
1708436178.3805819,-2.142000436782837,-1.3336072725108643,-2.526635471974508,6.11103771904067,1.017278790473938,-2.6803470293628138
1708436178.3825777,-2.142050266265869,-1.333614559178688,-2.526599709187643,6.111004817276754,1.0172666311264038,-2.68030554453005
1708436178.384583,-2.1419880390167236,-1.3336189550212403,-2.526595417653219,6.110916006356039,1.0172743797302246,-2.6802921930896204
1708436178.3865442,-2.1420164108276367,-1.3335910600474854,-2.526591126118795,6.110957252770223,1.0172531604766846,-2.680272881184713
1708436178.3885562,-2.1420514583587646,-1.3335910600474854,-2.5265987555133265,6.110985743790426,1.0172191858291626,-2.6802220980273646
1708436178.3905678,-2.142043113708496,-1.3335463118604203,-2.5265823046313685,6.1109081385429285,1.0172487497329712,-2.6803012529956263
1708436178.3925629,-2.1419837474823,-1.3335878264955063,-2.526644293461935,6.110916840821066,1.017241358757019,-2.6802445093738
1708436178.3945975,-2.142043113708496,-1.3335878413966675,-2.526619259511129,6.110872733383932,1.0172817707061768,-2.6802237669574183
1708436178.396594,-2.1419689655303955,-1.333631844525673,-2.5265868345843714,6.110868441849508,1.0172743797302246,-2.680260960255758
1708436178.3985763,-2.1419575214385986,-1.3335625541261216,-2.526607338582174,6.1108929989631555,1.0172621011734009,-2.680216375981466
1708436178.4005585,-2.141993761062622,-1.3336318147233506,-2.526607338582174,6.110925423889913,1.017241358757019,-2.680194918309347
1708436178.402571,-2.1419777870178223,-1.333624617462494,-2.526616160069601,6.110869157105245,1.0172368288040161,-2.680274311696188
1708436178.4045634,-2.1419663429260254,-1.3335625541261216,-2.526616160069601,6.110877859383383,1.017278790473938,-2.6801868120776575
1708436178.4065552,-2.1419105529785156,-1.333624617462494,-2.526619259511129,6.1108988402183435,1.0172698497772217,-2.680237118397848
1708436178.4085622,-2.1419451236724854,-1.333620311026909,-2.526574436818258,6.110781180649557,1.0172621011734009,-2.6802127997027796
1708436178.4105692,-2.141958475112915,-1.3335910153440018,-2.5265579859363,6.110825645714559,1.017241358757019,-2.6801868120776575
1708436178.412571,-2.1419405937194824,-1.3335755926421662,-2.5265658537494105,6.110788810044088,1.017241358757019,-2.6802552382098597
1708436178.4145598,-2.141937017440796,-1.3336318147233506,-2.5266030470477503,6.110732424050131,1.0172502994537354,-2.6801748911487024
1708436178.4165525,-2.1419460773468018,-1.3335921478322526,-2.526591126118795,6.110747444420614,1.0172576904296875,-2.6801467577563685
1708436178.4185631,-2.141925573348999,-1.33356365681205,-2.526578966771261,6.110732424050131,1.0172666311264038,-2.6802049318896692
1708436178.4205842,-2.1419177055358887,-1.3336008501103898,-2.526611630116598,6.110720145493307,1.0172457695007324,-2.680197302495138
1708436178.4225512,-2.1419131755828857,-1.3335790944150467,-2.526611630116598,6.110785472183981,1.017224669456482,-2.6801393667804163
1708436178.4245634,-2.141921043395996,-1.3335798990777512,-2.526607338582174,6.11070071437911,1.0172666311264038,-2.680206362401144
1708436178.4265652,-2.1418964862823486,-1.333525763159134,-2.526595417653219,6.1107332585151575,1.017241358757019,-2.680120054875509
1708436178.428593,-2.141880512237549,-1.333551825290062,-2.526619259511129,6.110717046051779,1.017224669456482,-2.680145327244894
1708436178.4305654,-2.1419007778167725,-1.333612636928894,-2.5265579859363,6.110728847771444,1.0172172784805298,-2.6801164785968226
1708436178.4325755,-2.1419520378112793,-1.3335222464850922,-2.5266030470477503,6.110681998520651,1.017259120941162,-2.680120054875509
1708436178.434593,-2.1419434547424316,-1.3335431230119248,-2.52665621439089,6.110660421639242,1.0172743797302246,-2.6801591555224817
1708436178.4365914,-2.1419098377227783,-1.333510310654976,-2.5265780130969446,6.110690700798788,1.0172576904296875,-2.6801615397082728
1708436178.4385755,-2.141918420791626,-1.3335474294475098,-2.526591126118795,6.110673415451803,1.0172172784805298,-2.680138174687521
1708436178.4405806,-2.1419265270233154,-1.3335921180299302,-2.5266485849963587,6.110608327179708,1.0172666311264038,-2.680138174687521
1708436178.4425929,-2.1418893337249756,-1.333563671713211,-2.526595417653219,6.1106289503868005,1.0172457695007324,-2.6800385157214563
1708436178.4446452,-2.141862392425537,-1.3335842204144974,-2.526599709187643,6.110621440201559,1.0172502994537354,-2.680075709019796
1708436178.446614,-2.1418983936309814,-1.3335431081107636,-2.5265579859363,6.110612737923422,1.0172380208969116,-2.680105511342184
1708436178.4486153,-2.1418585777282715,-1.3335178208402176,-2.5265658537494105,6.110602843552389,1.017241358757019,-2.680092159901754
1708436178.4505813,-2.1418285369873047,-1.3335462671569367,-2.526590887700216,6.110594022064962,1.0172457695007324,-2.6800430456744593
1708436178.4526052,-2.1418709754943848,-1.333538756971695,-2.526574436818258,6.1105865118797205,1.0172666311264038,-2.680047337208883
1708436178.4545681,-2.1418540477752686,-1.3335593801787873,-2.5265701452838343,6.1105865118797205,1.0172502994537354,-2.680002037678854
1708436178.4565918,-2.1418304443359375,-1.333551825290062,-2.5266030470477503,6.110517132073202,1.0172290802001953,-2.680044476185934
1708436178.4585633,-2.1418888568878174,-1.3335474145463486,-2.526566807423727,6.110521542816915,1.0172216892242432,-2.680028263722555
1708436178.4606092,-2.1418676376342773,-1.3335518103889008,-2.526607338582174,6.110521542816915,1.0172380208969116,-2.6800416151629847
1708436178.4625618,-2.1418087482452393,-1.3335593205741425,-2.526583258305685,6.110534417420187,1.0172039270401,-2.6799917856799524
1708436178.464582,-2.141859531402588,-1.3336169880679627,-2.5266204516040247,6.110527026444235,1.0172502994537354,-2.6799748579608362
1708436178.4665768,-2.141785144805908,-1.3335308742574234,-2.526607338582174,6.1104363081748865,1.0172336101531982,-2.6799853483783167
1708436178.4685874,-2.1418392658233643,-1.333527685408928,-2.526583258305685,6.110458123474874,1.0172709226608276,-2.679962937031881
1708436178.4705615,-2.141859531402588,-1.3335668754628678,-2.5265701452838343,6.110511529236593,1.0172621011734009,-2.680014435444967
1708436178.4725611,-2.141817808151245,-1.3335232746652146,-2.526595417653219,6.110441911011495,1.017241358757019,-2.679952923451559
1708436178.474556,-2.141850709915161,-1.3335276556066056,-2.526611630116598,6.110438811569967,1.0172380208969116,-2.6798983255969446
1708436178.4765751,-2.141789674758911,-1.3335265529206772,-2.526541773472921,6.110381233483114,1.0172009468078613,-2.679896656666891
1708436178.478565,-2.141805410385132,-1.333514617090561,-2.5265710989581507,6.110386597901144,1.0172336101531982,-2.6799266974078577
1708436178.480588,-2.141831159591675,-1.3335233640721817,-2.526546065007345,6.110349404602804,1.0172502994537354,-2.6798790136920374
1708436178.4825768,-2.1418356895446777,-1.3335352700999756,-2.526607338582174,6.110419142037191,1.0172127485275269,-2.679862085972921
1708436178.4845943,-2.1417737007141113,-1.3335395765355607,-2.526550594960348,6.110366809159078,1.0172621011734009,-2.6798835436450403
1708436178.486564,-2.141803026199341,-1.3335233491710206,-2.526604239140646,6.1103625176246545,1.0172336101531982,-2.679862085972921
1708436178.488587,-2.141803026199341,-1.3335114282420655,-2.5265701452838343,6.1103625176246545,1.0172172784805298,-2.679892603551046
1708436178.490568,-2.141782522201538,-1.3335352700999756,-2.526611630116598,6.11032651641921,1.0172590017318726,-2.679854694996969
1708436178.492567,-2.141782522201538,-1.3335276705077668,-2.5266085306750696,6.110346305161276,1.017214298248291,-2.679897133504049
1708436178.4945822,-2.141770124435425,-1.3334912073663254,-2.526578966771261,6.110347258835592,1.0172172784805298,-2.6798608938800257
1708436178.496588,-2.1417746543884277,-1.3335318875363846,-2.5265710989581507,6.110302912979879,1.0172336101531982,-2.6798346678363245
1708436178.498577,-2.1417958736419678,-1.3334997457316895,-2.526591126118795,6.110339391022482,1.0172009468078613,-2.67985183397402
1708436178.5005815,-2.1417577266693115,-1.3334875863841553,-2.526591126118795,6.110298621445455,1.0172053575515747,-2.679856602345602
1708436178.5025613,-2.1417791843414307,-1.3334997457316895,-2.5265212694751185,6.110299694329061,1.017242431640625,-2.679856602345602
1708436178.5045714,-2.1417622566223145,-1.3335114282420655,-2.526599709187643,6.110216963082113,1.0172053575515747,-2.6798110643969935
1708436178.5065625,-2.1417622566223145,-1.3334789884141465,-2.526578966771261,6.11027883270339,1.0172053575515747,-2.6797991434680384
1708436178.5085838,-2.1417882442474365,-1.3334875863841553,-2.526583258305685,6.110185730248251,1.0172260999679565,-2.6797707716571253
1708436178.5105896,-2.1417622566223145,-1.3335156601718445,-2.526599709187643,6.1101651070411584,1.0172172784805298,-2.679840866719381
1708436178.5125573,-2.1417171955108643,-1.3335276556066056,-2.526578966771261,6.110205876618185,1.0172053575515747,-2.679779831563131
1708436178.514573,-2.1417171955108643,-1.333502860074379,-2.5265875498401087,6.110205876618185,1.0172053575515747,-2.6797810236560267
1708436178.5165663,-2.141721487045288,-1.3335041564754029,-2.526550356541769,6.110198724060812,1.017197608947754,-2.679755512868063
1708436178.5185664,-2.1416966915130615,-1.3334875863841553,-2.526578966771261,6.110210287361898,1.0172380208969116,-2.6797176043139856
1708436178.520574,-2.141751766204834,-1.3334955138019104,-2.5265658537494105,6.110141980438986,1.017209768295288,-2.6797600428210657
1708436178.5225935,-2.141714572906494,-1.3334746074727555,-2.5265920797931116,6.110171305924215,1.0172172784805298,-2.6797176043139856
1708436178.5245605,-2.141710042953491,-1.3335568618825455,-2.526562277470724,6.110171305924215,1.0171680450439453,-2.6797221342669886
1708436178.526579,-2.1417429447174072,-1.3334912371686478,-2.5265710989581507,6.110147225647726,1.0172502994537354,-2.6796982924090784
1708436178.528562,-2.141714572906494,-1.3335318875363846,-2.5266204516040247,6.110160219460287,1.0172260999679565,-2.6797600428210657
1708436178.530554,-2.1417057514190674,-1.333511383538582,-2.5265875498401087,6.110147225647726,1.0172216892242432,-2.679711882268087
1708436178.532757,-2.141726016998291,-1.333552525644638,-2.526599709187643,6.110163795738973,1.017242431640625,-2.679744545613424
1708436178.5345678,-2.1417348384857178,-1.3334961992553254,-2.526562277470724,6.110172498017111,1.0172216892242432,-2.679688040410177
1708436178.5365653,-2.1416738033294678,-1.333536298280098,-2.526562515889303,6.110123383789816,1.017242431640625,-2.6796627680407923
1708436178.5385642,-2.141669511795044,-1.3335276705077668,-2.526562277470724,6.1100865481193445,1.017209768295288,-2.679667059575216
1708436178.540564,-2.141669511795044,-1.3334997457316895,-2.5265875498401087,6.110148298531332,1.0172216892242432,-2.67969257036318
1708436178.5425947,-2.141632080078125,-1.3334507656148453,-2.526566807423727,6.110124456673422,1.0172053575515747,-2.67963678041567
1708436178.5446172,-2.1416783332824707,-1.3334389638951798,-2.526604239140646,6.110095250397482,1.0172009468078613,-2.6796544233905237
1708436178.5465882,-2.1416499614715576,-1.3334919077209015,-2.5265429655658167,6.110096323281088,1.017209768295288,-2.6796303431140345
1708436178.5485754,-2.141666889190674,-1.3334842932275315,-2.52653414407839,6.11006377914504,1.0172053575515747,-2.679671589528219
1708436178.55058,-2.14169979095459,-1.3334912073663254,-2.5265710989581507,6.11005591133193,1.0172380208969116,-2.6796897093402308
1708436178.5526228,-2.141608238220215,-1.3334962588599701,-2.5265710989581507,6.11005591133193,1.0172187089920044,-2.679680887852804
1708436178.5545716,-2.1416409015655518,-1.3334831905416031,-2.526595417653219,6.110113727837362,1.017242431640625,-2.6796394030200403
1708436178.5566077,-2.1416757106781006,-1.333540604715683,-2.5265710989581507,6.110011565476217,1.0172336101531982,-2.6796093622790735
1708436178.5585513,-2.1416172981262207,-1.3334962141564866,-2.526517931615011,6.110035407334127,1.017214298248291,-2.6796348730670374
1708436178.560557,-2.1416714191436768,-1.3334669482759018,-2.526566807423727,6.110064613610067,1.0172053575515747,-2.6796229521380823
1708436178.5625987,-2.1416544914245605,-1.333487556581833,-2.5266571680652063,6.110027777939596,1.0172260999679565,-2.6796348730670374
1708436178.5645673,-2.14164662361145,-1.3334843081286927,-2.526619259511129,6.109967100411215,1.017197608947754,-2.6795783678637903
1708436178.5665712,-2.1416172981262207,-1.3334432256272812,-2.526599709187643,6.110003697663107,1.0172172784805298,-2.679599110280172
1708436178.56857,-2.1415934562683105,-1.3334308725646515,-2.5265579859363,6.109996068268575,1.0172216892242432,-2.6796065012561243
1708436178.5705795,-2.141650915145874,-1.3334756654552002,-2.5265591780291956,6.110012280731954,1.017209768295288,-2.679612700139181
1708436178.5725648,-2.1415979862213135,-1.333459423189499,-2.526562277470724,6.109947311669149,1.0171645879745483,-2.67954928079714
1708436178.5745554,-2.1416261196136475,-1.3334388744882126,-2.5266204516040247,6.110012280731954,1.0171767473220825,-2.679570738469259
1708436178.576579,-2.14164662361145,-1.3334352684072037,-2.526583258305685,6.109963524132528,1.0172187089920044,-2.67959171930422
1708436178.578556,-2.14164400100708,-1.3334309470704575,-2.526566807423727,6.109914767533102,1.0172306299209595,-2.6795945803271692
1708436178.5805883,-2.1415696144104004,-1.3334432256272812,-2.526546065007345,6.109923469811239,1.0172187089920044,-2.679579798375265
1708436178.5825732,-2.1416192054748535,-1.3334482920220871,-2.5265920797931116,6.109923469811239,1.017197608947754,-2.679584328328268
1708436178.584561,-2.1416068077087402,-1.333504931335785,-2.526578966771261,6.1099398014839075,1.0172380208969116,-2.6795247236834925
1708436178.5865834,-2.1415855884552,-1.3334309470704575,-2.526554886494772,6.1098906872566126,1.0172065496444702,-2.679575268422262
1708436178.5885801,-2.141589879989624,-1.33345182359729,-2.526566807423727,6.109949576645651,1.0172380208969116,-2.67958909669985
1708436178.590567,-2.1415741443634033,-1.3334027838758011,-2.526554886494772,6.109916794091024,1.017214298248291,-2.6795719305621546
1708436178.592607,-2.141603469848633,-1.3334352684072037,-2.526550356541769,6.1099668619926355,1.017160177230835,-2.6795464197741907
1708436178.59458,-2.141620397567749,-1.3334234368852158,-2.526611630116598,6.109855043679037,1.0172187089920044,-2.6795554796801966
1708436178.5966108,-2.14158296585083,-1.3334345531514664,-2.5265875498401087,6.109815704613485,1.0172053575515747,-2.6795554796801966
1708436178.5985696,-2.141629219055176,-1.333435298209526,-2.526623551045553,6.109848487168112,1.017242431640625,-2.6795674006091517
1708436178.6005638,-2.1415750980377197,-1.3334637594274064,-2.5265920797931116,6.109848487168112,1.017214298248291,-2.6795554796801966
1708436178.6025686,-2.141566038131714,-1.3335405004075547,-2.526554886494772,6.109828698426046,1.0172187089920044,-2.6795311609851282
1708436178.6045456,-2.1415750980377197,-1.333427758221962,-2.526566807423727,6.109832274704733,1.017214298248291,-2.6795101801501673
1708436178.6066055,-2.141526460647583,-1.333472491507866,-2.526554886494772,6.109807002335348,1.0172260999679565,-2.6795101801501673
1708436178.6085792,-2.1415491104125977,-1.3333984327367325,-2.5265384356128138,6.109865891724386,1.017209768295288,-2.679535690938131
1708436178.610559,-2.14153790473938,-1.3334799420884629,-2.5265753904925745,6.109750377922811,1.017197608947754,-2.6794775168048304
1708436178.6125846,-2.14152193069458,-1.333475650554039,-2.526604239140646,6.109775292664327,1.017209768295288,-2.679544750844137
1708436178.6145587,-2.1415467262268066,-1.333411530857422,-2.5266040007220667,6.109767782479086,1.0172020196914673,-2.679519240056173
1708436178.6165822,-2.1415627002716064,-1.3334352684072037,-2.5265710989581507,6.109824406891622,1.017197608947754,-2.679502789174215
1708436178.6185875,-2.141571521759033,-1.33343097687278,-2.5265677610980433,6.109812485962667,1.0172053575515747,-2.6794937292682093
1708436178.620569,-2.1415627002716064,-1.3334190112403412,-2.526616160069601,6.109748589783468,1.0172020196914673,-2.679511849080221
1708436178.6226125,-2.1415352821350098,-1.3334234219840546,-2.526595417653219,6.1097320196922205,1.017209768295288,-2.679464880620138
1708436178.6245663,-2.1415016651153564,-1.333451808696129,-2.526554886494772,6.109785067826071,1.017214298248291,-2.679511849080221
1708436178.6265957,-2.1415669918060303,-1.3334115010550995,-2.526566807423727,6.109736311226644,1.017214298248291,-2.679486338292257
1708436178.6285758,-2.1415183544158936,-1.3334362667850037,-2.5266366640674036,6.109752881317892,1.0171767473220825,-2.6794737021075647
1708436178.6305752,-2.1415274143218994,-1.3334647876075287,-2.526599709187643,6.109715688019552,1.0172020196914673,-2.679478470479147
1708436178.6325772,-2.1415512561798096,-1.3334724468043824,-2.526583258305685,6.109727728157797,1.0172187089920044,-2.6794620195971888
1708436178.634569,-2.1414971351623535,-1.3334222745946427,-2.526616160069601,6.109687554627218,1.0171843767166138,-2.67944842973818
1708436178.6365757,-2.1415059566497803,-1.3334071946195145,-2.526541773472921,6.109764802246847,1.0171856880187988,-2.6794500986682337
1708436178.638588,-2.1415486335754395,-1.3334190112403412,-2.526554886494772,6.109728801041403,1.017214298248291,-2.6794665495501917
1708436178.640561,-2.1415529251098633,-1.3334277433208008,-2.526574436818258,6.1097168801124475,1.0172187089920044,-2.6794665495501917
1708436178.6425629,-2.141507863998413,-1.3334277433208008,-2.526554886494772,6.109729993134298,1.017214298248291,-2.6794307867633265
1708436178.6446018,-2.141515016555786,-1.3334440004876633,-2.526604239140646,6.109734284668722,1.0171767473220825,-2.6794799009906214
1708436178.6466124,-2.141507863998413,-1.3334562343410035,-2.526562277470724,6.109668957978048,1.017160177230835,-2.679433886204855
1708436178.648584,-2.1414787769317627,-1.333404154782631,-2.526604239140646,6.1096558449561975,1.017209768295288,-2.6794753710376185
1708436178.650571,-2.1414787769317627,-1.3334647876075287,-2.526562277470724,6.109738576203146,1.0172349214553833,-2.6794398466693323
1708436178.6525671,-2.1415228843688965,-1.3334680658629914,-2.5265920797931116,6.109632122307577,1.0171886682510376,-2.6794138590442103
1708436178.654555,-2.1414921283721924,-1.3334525537541886,-2.5266204516040247,6.109608280449667,1.017197608947754,-2.6794682184802454
1708436178.656557,-2.1414663791656494,-1.3334562194398423,-2.5265591780291956,6.109608280449667,1.017214298248291,-2.6794138590442103
1708436178.6585689,-2.1414291858673096,-1.3334561896375199,-2.5265710989581507,6.109584080963888,1.0172216892242432,-2.6794355551349085
1708436178.6605647,-2.1414337158203125,-1.3334518384984513,-2.5265920797931116,6.109616982727804,1.017209768295288,-2.679401938115255
1708436178.6625671,-2.141496419906616,-1.333439664249756,-2.526550356541769,6.109678733139791,1.0172216892242432,-2.6794491449939173
1708436178.6645653,-2.141453981399536,-1.3334115010550995,-2.526562277470724,6.1096006510551355,1.017214298248291,-2.6793974081622522
1708436178.6665573,-2.1414706707000732,-1.3333747249892731,-2.526604239140646,6.109584080963888,1.017214298248291,-2.679406468068258
1708436178.6685927,-2.1414921283721924,-1.3334320348552247,-2.526550356541769,6.109605896263876,1.0171886682510376,-2.6794138590442103
1708436178.670598,-2.14145827293396,-1.333460496073105,-2.5266006628619593,6.109573352127828,1.017242431640625,-2.679410998021261
1708436178.6725764,-2.1414265632629395,-1.3334767383388062,-2.5265920797931116,6.109614598542013,1.017193078994751,-2.6793928782092493
1708436178.6745737,-2.1414716243743896,-1.3333999079516907,-2.526541773472921,6.10951708534316,1.0172260999679565,-2.67942721048464
1708436178.6765714,-2.141496419906616,-1.3334439855865021,-2.5266128222094935,6.109491812973776,1.0171680450439453,-2.6793900171863
1708436178.6785753,-2.141446828842163,-1.3334396493485947,-2.526604239140646,6.109586345940389,1.017193078994751,-2.679406468068258
1708436178.6806214,-2.141435384750366,-1.333439664249756,-2.526554886494772,6.10951708534316,1.0171735286712646,-2.679413620625631
1708436178.682567,-2.141451358795166,-1.3334396493485947,-2.526611630116598,6.109549271851339,1.017209768295288,-2.679422918950216
1708436178.6845667,-2.141427516937256,-1.3334115010550995,-2.5266040007220667,6.109517800598898,1.0172306299209595,-2.679406468068258
1708436178.6865745,-2.141439914703369,-1.3333912652781983,-2.526566807423727,6.109497296601095,1.0172053575515747,-2.6794517675982874
1708436178.6885862,-2.1414761543273926,-1.3333999526551743,-2.526562277470724,6.109469043999471,1.017160177230835,-2.6793821493731897
1708436178.690576,-2.141439914703369,-1.333439664249756,-2.5265875498401087,6.109497296601095,1.0172349214553833,-2.679415527974264
1708436178.6925755,-2.141406297683716,-1.3333912801793595,-2.526611630116598,6.109464752465048,1.0171886682510376,-2.6793821493731897
1708436178.69457,-2.141435384750366,-1.3334277433208008,-2.5266204516040247,6.109461176186361,1.0171856880187988,-2.6793702284442347
1708436178.696578,-2.141453266143799,-1.333443970685341,-2.5265579859363,6.109482157021322,1.0172512531280518,-2.679436508809225
1708436178.698567,-2.1414151191711426,-1.3334735047868271,-2.526595417653219,6.109461176186361,1.017209768295288,-2.679406468068258
1708436178.7005994,-2.141427516937256,-1.3333999526551743,-2.5265920797931116,6.10940836647109,1.0172231197357178,-2.679399077092306
1708436178.7025855,-2.1414151191711426,-1.3334158223918458,-2.526595417653219,6.1094374535377405,1.0171812772750854,-2.679377619420187
1708436178.7046144,-2.1414363384246826,-1.3334071946195145,-2.5265753904925745,6.109417187958517,1.0171767473220825,-2.6793821493731897
1708436178.7065833,-2.141378879547119,-1.333379016523697,-2.5265701452838343,6.1094504473503015,1.017209768295288,-2.6793656984912317
1708436178.708577,-2.1414241790771484,-1.3333671551993866,-2.526546065007345,6.109462249069967,1.0172468423843384,-2.6793418566333216
1708436178.7105832,-2.1414287090301514,-1.3333551001599808,-2.526562277470724,6.109470951348104,1.017209768295288,-2.679415527974264
1708436178.7125854,-2.141400098800659,-1.333395616417267,-2.526607338582174,6.1094387648399255,1.017209768295288,-2.679399077092306
1708436178.7145724,-2.1414241790771484,-1.333367110495903,-2.5265753904925745,6.109398472100057,1.017209768295288,-2.6793656984912317
1708436178.7165642,-2.1413652896881104,-1.3334362369826813,-2.526578966771261,6.10938976982192,1.017214298248291,-2.6794288794146937
1708436178.7185633,-2.1414036750793457,-1.3333713871291657,-2.526578966771261,6.109368788986959,1.0171513557434082,-2.679420057927267
1708436178.7206233,-2.141383409500122,-1.3333713722280045,-2.5265579859363,6.10938190200881,1.017209768295288,-2.679333035145895
1708436178.722607,-2.1414196491241455,-1.3334200543216248,-2.526566807423727,6.10931562164382,1.0172260999679565,-2.6793866793261927
1708436178.7245886,-2.1413586139678955,-1.3333955568126221,-2.526583258305685,6.109432089119711,1.017193078994751,-2.6793792883502405
1708436178.7265654,-2.1413586139678955,-1.3333833527616044,-2.5266204516040247,6.109398472100057,1.0172053575515747,-2.679408136998312
1708436178.728584,-2.141387701034546,-1.333371327524521,-2.5266085306750696,6.109259474068441,1.0172187089920044,-2.6793656984912317
1708436178.730569,-2.141371965408325,-1.3333472621491929,-2.526578966771261,6.10932086685256,1.017197608947754,-2.6793656984912317
1708436178.7325623,-2.141364812850952,-1.3333638471416016,-2.5265799204455774,6.109355556755819,1.0172172784805298,-2.6793583075152796
1708436178.7345805,-2.1413538455963135,-1.3333550852588196,-2.526616160069601,6.109354841500082,1.0172260999679565,-2.6793866793261927
1708436178.736578,-2.1413674354553223,-1.3333681684783478,-2.526604239140646,6.109310376435079,1.0172216892242432,-2.679349486027853
1708436178.7385533,-2.141343593597412,-1.3333300066045304,-2.526599709187643,6.109289872437277,1.017209768295288,-2.6793909708606165
1708436178.740565,-2.1413514614105225,-1.3334041100791474,-2.526611630116598,6.1093753454978845,1.0172053575515747,-2.6793900171863
1708436178.7425716,-2.1413347721099854,-1.333362804060318,-2.5265875498401087,6.1093177674110315,1.017209768295288,-2.6793912092791956
1708436178.744596,-2.1413559913635254,-1.3333800596049805,-2.5265875498401087,6.1092941639717,1.0172260999679565,-2.6793583075152796
1708436178.7466438,-2.141317844390869,-1.3333725494197388,-2.526583258305685,6.109281885414877,1.0172260999679565,-2.679333035145895
1708436178.7486296,-2.1413021087646484,-1.3334200543216248,-2.5265579859363,6.109311449318685,1.0172260999679565,-2.679377619420187
1708436178.7505705,-2.1413021087646484,-1.3333800596049805,-2.5265875498401087,6.109274375229635,1.0172260999679565,-2.679361168538229
1708436178.7525685,-2.1413614749908447,-1.3333386194757004,-2.5265875498401087,6.109290587693014,1.0172512531280518,-2.6793211142169397
1708436178.7545595,-2.141331195831299,-1.3333725494197388,-2.526566807423727,6.109271156578817,1.0171812772750854,-2.6794000307666224
1708436178.756599,-2.141364812850952,-1.3333843809417267,-2.5266247431384485,6.109197127610006,1.0172380208969116,-2.679356638585226
1708436178.7585545,-2.141319751739502,-1.3333551448634644,-2.5265710989581507,6.109278666764059,1.0172053575515747,-2.6794169584857386
1708436178.7605505,-2.141298294067383,-1.3334157925895234,-2.5265875498401087,6.109250533371725,1.0172009468078613,-2.6793773810016077
1708436178.7625554,-2.14129376411438,-1.3333429408124466,-2.526627842579977,6.10923312881545,1.017209768295288,-2.6793790499316614
1708436178.7645578,-2.1413660049438477,-1.3333875846913834,-2.5265710989581507,6.109238374024191,1.0172290802001953,-2.679349486027853
1708436178.766549,-2.1413073539733887,-1.3333843660405655,-2.5265579859363,6.109176504402914,1.017242431640625,-2.6793866793261927
1708436178.768552,-2.1412813663482666,-1.3333962720683594,-2.526583258305685,6.109251367836752,1.0172380208969116,-2.679328266774313
1708436178.7705965,-2.14129376411438,-1.3333757382682343,-2.526599709187643,6.109182107239523,1.0172842741012573,-2.6793790499316614
1708436178.7725742,-2.1413028240203857,-1.3334050339511414,-2.526599709187643,6.109239446907797,1.0172172784805298,-2.6793790499316614
1708436178.7745786,-2.1413028240203857,-1.3333385449698945,-2.526566807423727,6.1092556593711755,1.017209768295288,-2.6793909708606165
1708436178.776604,-2.1412463188171387,-1.3333887916854401,-2.526595417653219,6.109226453095236,1.017209768295288,-2.6793537775622767
1708436178.7785783,-2.1412858963012695,-1.3334200543216248,-2.526607338582174,6.109149563103475,1.0172336101531982,-2.6793656984912317
1708436178.7805843,-2.141319751739502,-1.3333790314248581,-2.526566807423727,6.109194981842794,1.017224669456482,-2.6793583075152796
1708436178.7826195,-2.141324281692505,-1.3334127825549622,-2.5265963713275355,6.1092275259788416,1.0172290802001953,-2.6793463865863245
1708436178.7845643,-2.141324281692505,-1.333413617019989,-2.526578966771261,6.109199273377218,1.017242431640625,-2.6793211142169397
1708436178.7866085,-2.141324281692505,-1.3333681386760254,-2.526607338582174,6.109183060913839,1.0172336101531982,-2.6793256441699427
1708436178.7885768,-2.1412463188171387,-1.3333919656327744,-2.5266366640674036,6.10916684845046,1.0172216892242432,-2.6793628374682825
1708436178.7905815,-2.141254186630249,-1.3333429408124466,-2.526595417653219,6.109183060913839,1.0172590017318726,-2.6793790499316614
1708436178.7925851,-2.141303777694702,-1.333408535724022,-2.526550356541769,6.10915898063735,1.0172336101531982,-2.6793747583972376
1708436178.794584,-2.1412904262542725,-1.333405004148819,-2.526578966771261,6.109151351242819,1.017209768295288,-2.6793747583972376
1708436178.7965636,-2.1412675380706787,-1.3333843809417267,-2.5265710989581507,6.109150278359213,1.0172127485275269,-2.6792920271502894
1708436178.7985542,-2.141242027282715,-1.3333637726357956,-2.5265579859363,6.10915898063735,1.0172216892242432,-2.6793375650988978
1708436178.8005662,-2.141329526901245,-1.3333638173392792,-2.5266085306750696,6.109142768173971,1.0172290802001953,-2.6793835798846644
1708436178.8026214,-2.141324996948242,-1.3333472621491929,-2.52663237253298,6.109171259194174,1.0172547101974487,-2.6793792883502405
1708436178.8045647,-2.1412835121154785,-1.333412842159607,-2.526566807423727,6.109077799111166,1.0172216892242432,-2.679399077092306
1708436178.806557,-2.1412949562072754,-1.3333560091308136,-2.526599709187643,6.109155761986532,1.0172083377838135,-2.6793628374682825
1708436178.8085682,-2.1412880420684814,-1.3333757680705567,-2.5266030470477503,6.10913513877944,1.0172621011734009,-2.679328266774313
1708436178.8105557,-2.141317129135132,-1.3333887916854401,-2.5265579859363,6.109131920128622,1.0172247886657715,-2.679349486027853
1708436178.8125703,-2.141303777694702,-1.33338117719207,-2.5265546480761927,6.109142768173971,1.017196536064148,-2.6794169584857386
1708436178.8145542,-2.141268491744995,-1.3333725345185776,-2.526574436818258,6.10913513877944,1.0172009468078613,-2.6793492476092737
1708436178.8165631,-2.1412720680236816,-1.3333681535771866,-2.526583258305685,6.10915898063735,1.0172545909881592,-2.6793912092791956
1708436178.8185537,-2.1412642002105713,-1.3333724749139328,-2.526562277470724,6.109151351242819,1.0172172784805298,-2.679333035145895
1708436178.8205504,-2.1412339210510254,-1.3333757531693955,-2.526599709187643,6.109142768173971,1.0172621011734009,-2.6793463865863245
1708436178.8225713,-2.1412181854248047,-1.3333551001599808,-2.526578966771261,6.109139549523153,1.0172501802444458,-2.6793418566333216
1708436178.8245664,-2.1412384510040283,-1.3334170889905472,-2.526583258305685,6.109123337059774,1.0172576904296875,-2.6793299357043665
1708436178.8265836,-2.1412384510040283,-1.333351583485939,-2.5266085306750696,6.1091720936592,1.017290711402893,-2.6793955008136194
1708436178.8285842,-2.1412508487701416,-1.3333713424256821,-2.526604239140646,6.109106766968527,1.0172621011734009,-2.679333035145895
1708436178.8305511,-2.1412642002105713,-1.3334128570607682,-2.526611630116598,6.109093773155966,1.0172502994537354,-2.6793299357043665
1708436178.832562,-2.1412110328674316,-1.3333234947970887,-2.526627842579977,6.109102356224813,1.0171754360198975,-2.6793583075152796
1708436178.8345444,-2.1412642002105713,-1.3333440583995362,-2.526599709187643,6.109123337059774,1.0172665119171143,-2.6793375650988978
1708436178.8365724,-2.1412596702575684,-1.3333396923593064,-2.526591126118795,6.109118926316061,1.0172172784805298,-2.6793418566333216
1708436178.8385577,-2.141247272491455,-1.3333843660405655,-2.526566807423727,6.109118926316061,1.0172621011734009,-2.6793373266803187
1708436178.8405526,-2.1412339210510254,-1.3333725345185776,-2.526604239140646,6.109106766968527,1.0172501802444458,-2.6793463865863245
1708436178.8425848,-2.1412224769592285,-1.33335596442733,-2.526574436818258,6.109147059708395,1.0172202587127686,-2.6793747583972376
1708436178.84457,-2.1412642002105713,-1.3333515983871003,-2.526595417653219,6.109033095627584,1.0172665119171143,-2.6793537775622767
1708436178.8466604,-2.1412551403045654,-1.3333603006652375,-2.5265875498401087,6.109087455063619,1.017224669456482,-2.6793702284442347
1708436178.8485682,-2.1412110328674316,-1.3333429408124466,-2.526595417653219,6.109086501389303,1.0172202587127686,-2.6793702284442347
1708436178.8505504,-2.141251802444458,-1.3333800596049805,-2.526546065007345,6.109123337059774,1.017224669456482,-2.679344717656271
1708436178.8525846,-2.1412384510040283,-1.3334005934051056,-2.5265710989581507,6.109090912133016,1.0172665119171143,-2.6793537775622767
1708436178.8545635,-2.141240358352661,-1.3333681386760254,-2.526583258305685,6.109115350037374,1.017208456993103,-2.6793866793261927
1708436178.8565638,-2.1412312984466553,-1.3333974194577713,-2.526591126118795,6.1091275093849084,1.0172457695007324,-2.6794169584857386
1708436178.8585713,-2.1412312984466553,-1.3333602857640763,-2.5265710989581507,6.1090993759925745,1.0172621011734009,-2.6793537775622767
1708436178.8605533,-2.1412110328674316,-1.3333559793284913,-2.5265701452838343,6.109075653343954,1.0172665119171143,-2.679361168538229
1708436178.8625658,-2.1412155628204346,-1.3333515983871003,-2.526595417653219,6.109119641571798,1.0172457695007324,-2.6793955008136194
1708436178.8645627,-2.1412854194641113,-1.33333212256942,-2.526607338582174,6.109083163529196,1.0172545909881592,-2.6793773810016077
1708436178.8665645,-2.1412181854248047,-1.333400623207428,-2.526599709187643,6.109053957253256,1.0172369480133057,-2.6793656984912317
1708436178.868573,-2.141235828399658,-1.3334170889905472,-2.526607338582174,6.109148132592001,1.0172576904296875,-2.6793656984912317
1708436178.8705506,-2.1412312984466553,-1.3333397966674347,-2.5266030470477503,6.109037387162008,1.0172369480133057,-2.6793821493731897
1708436178.8725815,-2.1412224769592285,-1.3333353412202378,-2.5266030470477503,6.109078871994772,1.017241358757019,-2.679410998021261
1708436178.8745837,-2.1412270069122314,-1.3333515685847779,-2.5265615622149866,6.109098064690389,1.0172576904296875,-2.679415527974264
1708436178.8765652,-2.141268491744995,-1.3333429855159302,-2.526578966771261,6.109131920128622,1.0171921253204346,-2.679377619420187
1708436178.8785863,-2.1412675380706787,-1.3333515983871003,-2.526566807423727,6.109119641571798,1.0172621011734009,-2.67942721048464
1708436178.880566,-2.1412808895111084,-1.333412842159607,-2.526562277470724,6.109046089440145,1.0172547101974487,-2.67942458788027
1708436178.8825855,-2.1412110328674316,-1.3333725047162552,-2.5266247431384485,6.1090701697166345,1.017274260520935,-2.679399077092306
1708436178.8845708,-2.141268491744995,-1.333351583485939,-2.526583258305685,6.109148132592001,1.0172861814498901,-2.679394547139303
1708436178.8865619,-2.1412270069122314,-1.3333603304675599,-2.526574675236837,6.109083163529196,1.0172743797302246,-2.679340187703268
1708436178.8885632,-2.141256093978882,-1.333314837222435,-2.526599709187643,6.109086501389303,1.0172698497772217,-2.679340187703268
1708436178.8905578,-2.1412312984466553,-1.3333602857640763,-2.526599709187643,6.109103667526998,1.0172576904296875,-2.679356638585226
1708436178.8925765,-2.1412312984466553,-1.3333559495261689,-2.526583258305685,6.109065878182211,1.017290711402893,-2.679422918950216
1708436178.8945642,-2.1412289142608643,-1.3333638471416016,-2.5265448729144495,6.109066951065817,1.0172743797302246,-2.679418388997213
1708436178.8965693,-2.1412198543548584,-1.3333887469819565,-2.526562277470724,6.109078871994772,1.0172369480133057,-2.679406468068258
1708436178.8985713,-2.141305685043335,-1.3333353263190766,-2.5266485849963587,6.109078871994772,1.0172654390335083,-2.679427448903219
1708436178.900565,-2.141251802444458,-1.3333191585591813,-2.526611630116598,6.109058367996969,1.0172743797302246,-2.6794262568103235
1708436178.9025462,-2.141273021697998,-1.3333353710225602,-2.526627842579977,6.109115350037374,1.0172621011734009,-2.679415527974264
1708436178.9045954,-2.141268491744995,-1.3333843809417267,-2.5266149679767054,6.109131920128622,1.0172832012176514,-2.6794562975512903
1708436178.9065485,-2.141289710998535,-1.3333559942296525,-2.526616160069601,6.109078871994772,1.0172743797302246,-2.6794608275042933
1708436178.9085965,-2.141268491744995,-1.3334050190499802,-2.526578966771261,6.1090993759925745,1.0172654390335083,-2.6794307867633265
1708436178.9105864,-2.1412270069122314,-1.3333559942296525,-2.526574436818258,6.109091865807333,1.0172609090805054,-2.6794472376452845
1708436178.912551,-2.1412065029144287,-1.333347277050354,-2.526591126118795,6.109037387162008,1.017293930053711,-2.679413620625631
1708436178.9145696,-2.141251802444458,-1.33331914365802,-2.526639763508932,6.109131920128622,1.0172817707061768,-2.6794307867633265
1708436178.9165492,-2.1412642002105713,-1.3333516132882615,-2.5266268889056605,6.109103667526998,1.0173265933990479,-2.6794307867633265
1708436178.9185526,-2.141240358352661,-1.3334050190499802,-2.526635471974508,6.109110939293661,1.0172685384750366,-2.679417435322897
1708436178.9205508,-2.141251802444458,-1.3333638322404404,-2.526627842579977,6.109083163529196,1.0173133611679077,-2.6793957392321985
1708436178.9225633,-2.141249179840088,-1.333388776784279,-2.526635471974508,6.109075653343954,1.0172522068023682,-2.679478470479147
1708436178.9245665,-2.1412312984466553,-1.3333800596049805,-2.5265536944018763,6.1091275093849084,1.0172772407531738,-2.679495636616842
1708436178.926552,-2.1412642002105713,-1.3333962720683594,-2.526627842579977,6.109090912133016,1.0172851085662842,-2.6794665495501917
1708436178.9285562,-2.141273021697998,-1.3333800596049805,-2.526651684437887,6.109131920128622,1.017317771911621,-2.679457489644186
1708436178.9305866,-2.141256093978882,-1.333388776784279,-2.526591126118795,6.109095084458151,1.0173133611679077,-2.67952543893923
1708436178.9325676,-2.1412312984466553,-1.3333725345185776,-2.526574436818258,6.109090912133016,1.0173511505126953,-2.679507319127218
1708436178.9345846,-2.1412270069122314,-1.3333645921996613,-2.526574436818258,6.1091275093849084,1.0173296928405762,-2.6794396082507532
1708436178.9365575,-2.141206741333008,-1.3333551448634644,-2.526616160069601,6.109103667526998,1.0173510313034058,-2.679560963307516
1708436178.9385738,-2.141244888305664,-1.3334005934051056,-2.526595417653219,6.109108078270712,1.0173540115356445,-2.679507319127218
1708436178.9406,-2.141249418258667,-1.333376870756485,-2.526595417653219,6.109058367996969,1.0173289775848389,-2.679523770009176
1708436178.942588,-2.141251802444458,-1.3333550852588196,-2.526623551045553,6.109115350037374,1.017370343208313,-2.67951471010317
1708436178.94458,-2.141260862350464,-1.3334049743464966,-2.5265868345843714,6.1090993759925745,1.0173207521438599,-2.6795011202441614
1708436178.9466383,-2.1412155628204346,-1.3333353710225602,-2.526627842579977,6.109078871994772,1.0173629522323608,-2.679535690938131
1708436178.948598,-2.1412312984466553,-1.3334049743464966,-2.5265868345843714,6.109095084458151,1.0173659324645996,-2.6795645395862024
1708436178.950573,-2.141282081604004,-1.3333483648351212,-2.5266030470477503,6.1090701697166345,1.0173496007919312,-2.6795721689807337
1708436178.9525778,-2.141242742538452,-1.333351583485939,-2.526619259511129,6.109087455063619,1.0173451900482178,-2.6795130411731165
1708436178.9545858,-2.1412243843078613,-1.3333353710225602,-2.526627842579977,6.109108197480001,1.0173496007919312,-2.679541889821188
1708436178.9565804,-2.141251802444458,-1.3333440882018586,-2.5266647974597376,6.109115350037374,1.017358422279358,-2.6795221010791224
1708436178.9585834,-2.1412110328674316,-1.3333681386760254,-2.526591126118795,6.109095084458151,1.0173747539520264,-2.6795554796801966
1708436178.960606,-2.1412224769592285,-1.333351583485939,-2.526628080998556,6.109074580460348,1.0174033641815186,-2.6795719305621546
1708436178.962562,-2.1412198543548584,-1.3333515685847779,-2.526619259511129,6.1090712426002405,1.017370343208313,-2.679580036793844
1708436178.9645793,-2.1412270069122314,-1.333359570508339,-2.5265868345843714,6.109115350037374,1.0173319578170776,-2.6795764605151575
1708436178.9665594,-2.141277551651001,-1.33331914365802,-2.526623551045553,6.109087455063619,1.0173988342285156,-2.679558340703146
1708436178.9685624,-2.1412808895111084,-1.3333875846913834,-2.52665621439089,6.109115350037374,1.0173496007919312,-2.679575268422262
1708436178.970596,-2.1412315368652344,-1.3333559793284913,-2.5265615622149866,6.109110939293661,1.0173659324645996,-2.6795464197741907
1708436178.9725761,-2.141256093978882,-1.3333800596049805,-2.5266431013690394,6.109119641571798,1.0173988342285156,-2.679570738469259
1708436178.9745898,-2.1412551403045654,-1.33335596442733,-2.526623551045553,6.1090993759925745,1.0173615217208862,-2.6795628706561487
1708436178.9765515,-2.141240358352661,-1.3333397519639512,-2.5265942255603235,6.109062659531393,1.0173956155776978,-2.6795902887927454
1708436178.9785955,-2.1412312984466553,-1.3334301275065918,-2.5265701452838343,6.109095084458151,1.017370343208313,-2.679558340703146
1708436178.980578,-2.141256093978882,-1.3333559793284913,-2.526591126118795,6.109095084458151,1.0173407793045044,-2.679648224507467
1708436178.9825735,-2.141251802444458,-1.3334049445441742,-2.526639763508932,6.109127628594198,1.0173571109771729,-2.679636303578512
1708436178.984581,-2.141247272491455,-1.3333962720683594,-2.526607338582174,6.109143841057577,1.017337679862976,-2.67959171930422
1708436178.9865828,-2.1412312984466553,-1.333351583485939,-2.526599709187643,6.1090993759925745,1.0174063444137573,-2.6795738379107874
1708436178.9885764,-2.141282081604004,-1.3333843511394043,-2.526623551045553,6.109090912133016,1.017370343208313,-2.679603640233175
1708436178.9905972,-2.1412765979766846,-1.3333725196174164,-2.526627842579977,6.109123337059774,1.0173778533935547,-2.6796394030200403
1708436178.9926023,-2.141197443008423,-1.3333515983871003,-2.5265780130969446,6.109115350037374,1.0173988342285156,-2.6796184221850794
1708436178.9945948,-2.141268491744995,-1.3333768111518403,-2.526619259511129,6.1090701697166345,1.0173900127410889,-2.6796637217151087
1708436178.9965837,-2.141242742538452,-1.3333559793284913,-2.526619259511129,6.109188663750448,1.0173945426940918,-2.6796022097217005
1708436178.9985907,-2.1412808895111084,-1.3333397519639512,-2.5266061464892786,6.109118926316061,1.0173571109771729,-2.679664675389425
1708436179.0006049,-2.1412384510040283,-1.333323524599411,-2.5266640822040003,6.109102356224813,1.0173747539520264,-2.679671589528219
1708436179.0025609,-2.1412155628204346,-1.3333559793284913,-2.526627842579977,6.109114634781637,1.017403244972229,-2.679654661809103
1708436179.0045698,-2.1412243843078613,-1.3333595556071778,-2.526644293461935,6.109155761986532,1.017382264137268,-2.679671589528219
1708436179.0065832,-2.1412155628204346,-1.3333353710225602,-2.526639763508932,6.109126555710592,1.0173945426940918,-2.679645601903097
1708436179.0085673,-2.141242742538452,-1.3333516132882615,-2.526627842579977,6.109123337059774,1.017370343208313,-2.679697338734762
1708436179.0105562,-2.141242742538452,-1.3333843660405655,-2.5266149679767054,6.109118926316061,1.0173569917678833,-2.6796544233905237
1708436179.012551,-2.141242742538452,-1.3333559793284913,-2.5265944639789026,6.109142768173971,1.017401933670044,-2.679711882268087
1708436179.0146089,-2.1412899494171143,-1.3334050339511414,-2.526644293461935,6.109147059708395,1.017364501953125,-2.679720703755514
1708436179.0165946,-2.141308307647705,-1.3333397668651124,-2.526680294667379,6.109117853432455,1.0173527002334595,-2.6796627680407923
1708436179.01856,-2.1412110328674316,-1.333400623207428,-2.5266431013690394,6.109138476639547,1.0173481702804565,-2.6796627680407923
1708436179.020608,-2.141277551651001,-1.333351583485939,-2.526635471974508,6.109183060913839,1.0173900127410889,-2.679671589528219
1708436179.0225718,-2.1412155628204346,-1.333399922852852,-2.526619259511129,6.109154689102926,1.017370343208313,-2.6796582380877894
1708436179.0245976,-2.141277551651001,-1.3333466213992615,-2.526627842579977,6.109138476639547,1.0173945426940918,-2.679695431386129
1708436179.026582,-2.141244888305664,-1.3333875995925446,-2.526635471974508,6.109162556916036,1.0173659324645996,-2.679678980504171
1708436179.0286217,-2.1412508487701416,-1.3333473068526764,-2.5266311804400843,6.10919617393569,1.0174063444137573,-2.679744545613424
1708436179.0305953,-2.141251802444458,-1.3333962720683594,-2.52665621439089,6.109239446907797,1.0173481702804565,-2.6796982924090784
1708436179.0325725,-2.1412270069122314,-1.3334005636027833,-2.5266061464892786,6.109198319702902,1.0173975229263306,-2.679756466542379
1708436179.0345688,-2.141273021697998,-1.3333473068526764,-2.5266106764422815,6.109198319702902,1.0173778533935547,-2.6797600428210657
1708436179.0365915,-2.1412642002105713,-1.3333638322404404,-2.526601854954855,6.109170067101278,1.0174229145050049,-2.6796940008746546
1708436179.0385556,-2.141256093978882,-1.333421529536583,-2.5265987555133265,6.1092145321662805,1.0173856019973755,-2.679797951375143
1708436179.0405688,-2.1412270069122314,-1.3333595258048554,-2.5266149679767054,6.109205829888143,1.0173778533935547,-2.6797102133380335
1708436179.0425808,-2.1412243843078613,-1.3333472919515152,-2.5265944639789026,6.109247076302328,1.0173778533935547,-2.6797810236560267
1708436179.0445664,-2.141235828399658,-1.3333429557136078,-2.5266106764422815,6.109230744629659,1.017381191253662,-2.6797600428210657
1708436179.0466342,-2.141242742538452,-1.333421529536583,-2.5266311804400843,6.109247076302328,1.017401933670044,-2.679746452962057
1708436179.0485976,-2.141202211380005,-1.3333343726447602,-2.526628080998556,6.10926245430068,1.0174063444137573,-2.679758373891012
1708436179.0505772,-2.141251802444458,-1.3333559793284913,-2.5266757647143763,6.109251367836752,1.017418622970581,-2.679767433797018
1708436179.0526235,-2.1412720680236816,-1.3333440285972138,-2.5266552607165735,6.109271156578817,1.0174274444580078,-2.679746452962057
1708436179.0545704,-2.141242742538452,-1.333388776784279,-2.526619259511129,6.109312402993002,1.0173900127410889,-2.679812733327047
1708436179.0565596,-2.141251802444458,-1.3333638322404404,-2.526663843785421,6.109237539559164,1.0173856019973755,-2.679784361516134
1708436179.0585709,-2.1412596702575684,-1.3333595258048554,-2.5266268889056605,6.109265672951498,1.0174063444137573,-2.679788891469137
1708436179.0605655,-2.1412551403045654,-1.3333429855159302,-2.5266106764422815,6.109311568527975,1.017401933670044,-2.679805342351095
1708436179.0625925,-2.141242742538452,-1.3333725494197388,-2.526639763508932,6.109203684120931,1.017397403717041,-2.6798082033740442
1708436179.0645635,-2.1412270069122314,-1.3334171336940308,-2.5266388098346155,6.109330642014303,1.017418622970581,-2.679746452962057
1708436179.0665803,-2.1412720680236816,-1.333424375658371,-2.526651684437887,6.109314667969503,1.0174307823181152,-2.679796282445089
1708436179.0685596,-2.1412551403045654,-1.3334287267974396,-2.5267043749438685,6.109351265221395,1.0174351930618286,-2.679812494908468
1708436179.0705636,-2.141289710998535,-1.3334005934051056,-2.526663843785421,6.109366762429037,1.0173929929733276,-2.679845396672384
1708436179.072601,-2.1412765979766846,-1.3333757531693955,-2.5266106764422815,6.1093177674110315,1.017381191253662,-2.679828945790426
1708436179.0745816,-2.1412808895111084,-1.3333681535771866,-2.5266388098346155,6.109383094101705,1.017364501953125,-2.6797693411456507
1708436179.076573,-2.1412384510040283,-1.3333833676627656,-2.5266388098346155,6.109342562943258,1.017364501953125,-2.6798365751849573
1708436179.078567,-2.141242742538452,-1.3333638918450852,-2.5266225973712366,6.109329569130697,1.0173841714859009,-2.6798563639270228
1708436179.0805802,-2.1412720680236816,-1.3333768260530015,-2.5266431013690394,6.109337436943807,1.0174063444137573,-2.6798654238330286
1708436179.0825858,-2.1412720680236816,-1.3334128570607682,-2.5266714731799524,6.109365689545431,1.0174052715301514,-2.6798892656909388
1708436179.0845838,-2.1412339210510254,-1.3333800596049805,-2.5266299883471888,6.1093623516853235,1.0174174308776855,-2.6797946135150355
1708436179.0865824,-2.1412508487701416,-1.3333713722280045,-2.5266998449908655,6.1093612788017175,1.0174140930175781,-2.6798346678363245
1708436179.0885735,-2.1412765979766846,-1.3333638322404404,-2.5266619364367884,6.109451877861776,1.017400860786438,-2.679847304021017
1708436179.090565,-2.141317129135132,-1.3333757531693955,-2.526679340993063,6.109414684563436,1.0174052715301514,-2.6798728148089808
1708436179.092598,-2.1412880420684814,-1.3333919954350968,-2.5266998449908655,6.109413492470541,1.0174262523651123,-2.67987567583193
1708436179.094568,-2.1412923336029053,-1.3333843660405655,-2.526703182850973,6.1094634411628626,1.0174052715301514,-2.6798892656909388
1708436179.0965931,-2.141242742538452,-1.3333962720683594,-2.5267565886126917,6.1094257710273645,1.0174425840377808,-2.6798928419696253
1708436179.0985706,-2.1412811279296875,-1.3334005934051056,-2.5267446676837366,6.109426605492391,1.0174381732940674,-2.679866615925924
1708436179.1005552,-2.141329526901245,-1.333395616417267,-2.5267229715930384,6.1094257710273645,1.0174051523208618,-2.679880205784933
1708436179.102598,-2.141247272491455,-1.3334005934051056,-2.526727263127462,6.1094374535377405,1.017400860786438,-2.6798880735980433
1708436179.1045618,-2.1412270069122314,-1.3333429855159302,-2.526731554661886,6.109453666001119,1.0174294710159302,-2.679866615925924
1708436179.1065867,-2.141242027282715,-1.3334171336940308,-2.5267348925219935,6.1094655869300745,1.0174412727355957,-2.6798835436450403
1708436179.1086068,-2.1412312984466553,-1.3333509278348465,-2.526759926472799,6.1094939587409876,1.0174425840377808,-2.6799164454089563
1708436179.1105638,-2.1412596702575684,-1.3333472919515152,-2.5267675558673304,6.1094481823738,1.0174633264541626,-2.6798747221576136
1708436179.1125846,-2.1412270069122314,-1.3333768260530015,-2.5267348925219935,6.109453666001119,1.0174707174301147,-2.6799073855029505
1708436179.1145706,-2.1412765979766846,-1.3333919805339356,-2.5267513434039515,6.1095430729682825,1.017417550086975,-2.6799119154559534
1708436179.1165895,-2.1412675380706787,-1.3334406477263947,-2.5267391840564173,6.109477746277609,1.0174469947814941,-2.6799073855029505
1708436179.1185923,-2.1412880420684814,-1.3333800596049805,-2.5267348925219935,6.109476554184713,1.0174545049667358,-2.6799491087542933
1708436179.12056,-2.141263246536255,-1.3333800596049805,-2.5267589727984827,6.109557854920187,1.0174131393432617,-2.6799445788012903
1708436179.122625,-2.141303777694702,-1.3334406477263947,-2.5267632643329065,6.109513509064474,1.017421841621399,-2.679964605961935
1708436179.1245823,-2.1412765979766846,-1.3333962869695206,-2.526742760335104,6.109505879669943,1.0174874067306519,-2.6799736658679407
1708436179.1265914,-2.1413207054138184,-1.3333833676627656,-2.5267959276782435,6.109531867295065,1.0174576044082642,-2.6799357573138636
1708436179.128589,-2.1412699222564697,-1.3333955717137833,-2.526764456425802,6.109524595528402,1.0174620151519775,-2.679985586796896
1708436179.1305754,-2.141242027282715,-1.3333713573268433,-2.526771847401754,6.109574067383566,1.0174294710159302,-2.6799808184253138
1708436179.132607,-2.141308307647705,-1.3333962869695206,-2.5267794767962855,6.1095852730567834,1.0174741744995117,-2.6799309889422815
1708436179.134562,-2.1412765979766846,-1.3333595258048554,-2.5267589727984827,6.109518754273214,1.0174620151519775,-2.67995268503298
1708436179.136583,-2.1412699222564697,-1.3333833676627656,-2.526770893727438,6.1096593020255945,1.0174775123596191,-2.6799266974078577
1708436179.1385689,-2.1412994861602783,-1.3334041398814698,-2.526771847401754,6.1096463082130334,1.017532229423523,-2.679955546055929
1708436179.1405725,-2.1413028240203857,-1.3333628487638016,-2.526771847401754,6.109579789429464,1.0175145864486694,-2.680026356373922
1708436179.1426067,-2.141328811645508,-1.3334611815265198,-2.5267632643329065,6.109649407654562,1.0174742937088013,-2.680009905491964
1708436179.1445856,-2.1412746906280518,-1.3334041398814698,-2.526733938847677,6.109677660256185,1.0175518989562988,-2.679967466984884
1708436179.1466613,-2.1413028240203857,-1.3333833676627656,-2.5267348925219935,6.109677660256185,1.0175474882125854,-2.6800218264209192
1708436179.1486416,-2.1413118839263916,-1.333395616417267,-2.526759926472799,6.109624492913046,1.0174819231033325,-2.6800082365619105
1708436179.1506243,-2.141324281692505,-1.3334200394204636,-2.526771847401754,6.109688389092245,1.0174907445907593,-2.6799917856799524
1708436179.1525822,-2.141357183456421,-1.3334406477263947,-2.5267632643329065,6.10971366146163,1.017465353012085,-2.6800218264209192
1708436179.1545982,-2.141326665878296,-1.3334362667850037,-2.5267391840564173,6.109749424248495,1.0175026655197144,-2.6800416151629847
1708436179.1565764,-2.1413674354553223,-1.3334330332330246,-2.5267513434039515,6.109709369927206,1.0175145864486694,-2.680044476185934
1708436179.158606,-2.141364812850952,-1.3334128272584458,-2.5267675558673304,6.109709369927206,1.0175189971923828,-2.679971996937887
1708436179.160608,-2.1413965225219727,-1.3334524941495438,-2.5267632643329065,6.109728801041403,1.0175268650054932,-2.6800337473498743
1708436179.1626024,-2.141380786895752,-1.3334320497563859,-2.5267556349383753,6.109782206803121,1.017498254776001,-2.680060927067892
1708436179.1645744,-2.141400098800659,-1.3334406477263947,-2.5267751852618616,6.109744298249044,1.0175070762634277,-2.6800156275378626
1708436179.166585,-2.1414260864257812,-1.333469034438469,-2.5267794767962855,6.109817850380697,1.0175070762634277,-2.6800535360919397
1708436179.1686006,-2.1413211822509766,-1.3334449541619797,-2.5267348925219935,6.109796273499288,1.0175026655197144,-2.6800864378558558
1708436179.1705666,-2.1413538455963135,-1.3334724319032212,-2.5267306009875696,6.109849679261007,1.0174776315689087,-2.6800699869738978
1708436179.172584,-2.141433000564575,-1.3334158223918458,-2.5267306009875696,6.109849679261007,1.017498254776001,-2.680032555256979
1708436179.1745648,-2.141433000564575,-1.3334724319032212,-2.5267348925219935,6.1098365662391565,1.0174697637557983,-2.6800110975848597
1708436179.1765692,-2.1413495540618896,-1.333439664249756,-2.5267348925219935,6.109929668694296,1.0175026655197144,-2.6800652186023157
1708436179.1785624,-2.1414241790771484,-1.3333790761283417,-2.526759926472799,6.109868037491598,1.0175070762634277,-2.680049006138937
1708436179.1805885,-2.1414690017700195,-1.3334680509618302,-2.526743475590841,6.109920012741842,1.0175234079360962,-2.680039946232931
1708436179.182563,-2.141427516937256,-1.3334147495082398,-2.5267675558673304,6.109961497574606,1.017498254776001,-2.680051867161886
1708436179.1845684,-2.141439914703369,-1.3335091930678864,-2.526747767125265,6.109984504967489,1.017510175704956,-2.6800430456744593
1708436179.1870227,-2.1414601802825928,-1.3335257333568116,-2.526747767125265,6.109972226410665,1.017498254776001,-2.680080238972799
1708436179.1886065,-2.1414761543273926,-1.3334266704371949,-2.5267391840564173,6.109975802689352,1.017445683479309,-2.680049006138937
1708436179.1905885,-2.1414928436279297,-1.333439664249756,-2.5267513434039515,6.1100724814231775,1.017432451248169,-2.680031124745504
1708436179.1925778,-2.1414921283721924,-1.3334072095206757,-2.526764456425802,6.110088813095846,1.017466425895691,-2.680047575627462
1708436179.1946006,-2.141462802886963,-1.3334266704371949,-2.5267229715930384,6.110161292343893,1.0174412727355957,-2.680039946232931
1708436179.1965752,-2.1414921283721924,-1.3334277433208008,-2.526743475590841,6.1101568816001794,1.0174381732940674,-2.680072847996847
1708436179.1985703,-2.14151930809021,-1.333447517161705,-2.5267141501056116,6.110054123192587,1.017479658126831,-2.680035654698507
1708436179.2005908,-2.1415183544158936,-1.3334352684072037,-2.5267229715930384,6.110193002014913,1.0174545049667358,-2.680063788090841
1708436179.2025652,-2.14158034324646,-1.3334886592677613,-2.5267391840564173,6.110129701882162,1.0174174308776855,-2.680108610783712
1708436179.2045739,-2.1415627002716064,-1.3334352684072037,-2.5267186800586146,6.11026810386733,1.0174096822738647,-2.680105511342184
1708436179.2065988,-2.141509532928467,-1.3334648174098511,-2.526731554661886,6.110251772194662,1.0173929929733276,-2.6800430456744593
1708436179.2085793,-2.1415536403656006,-1.333422378902771,-2.5266945997821253,6.110238778382101,1.0174274444580078,-2.680068318043844
1708436179.2105834,-2.141603469848633,-1.3334637445262452,-2.5266945997821253,6.11022566536025,1.0173856019973755,-2.680092159901754
1708436179.212579,-2.14158296585083,-1.3334756654552002,-2.526759926472799,6.110322105675497,1.0174140930175781,-2.680075709019796
1708436179.2145824,-2.141603469848633,-1.3334223640016098,-2.526715103779928,6.110371219902792,1.0173766613006592,-2.680092159901754
1708436179.2165895,-2.1415855884552,-1.3334961992553254,-2.5267065207110804,6.1103635905082605,1.0173900127410889,-2.680047575627462
1708436179.218577,-2.1416351795196533,-1.3335084331086655,-2.5266900698291224,6.110460626869955,1.017382264137268,-2.680059258137838
1708436179.2205865,-2.1416306495666504,-1.333478958611824,-2.526703182850973,6.1104270098503015,1.0173496007919312,-2.6800876299487513
1708436179.2225683,-2.1416828632354736,-1.3335361939719697,-2.526691261922018,6.110475408821859,1.0173341035842896,-2.6801210085498255
1708436179.2245822,-2.14169979095459,-1.3334912222674866,-2.526637856160299,6.110498416214742,1.0173296928405762,-2.6800876299487513
1708436179.226582,-2.1417031288146973,-1.3335200411132355,-2.5266671816455286,6.110519039421835,1.0173428058624268,-2.6801210085498255
1708436179.2285855,-2.1417429447174072,-1.3334713590196152,-2.5266388098346155,6.110509502678671,1.0172743797302246,-2.6801300684558313
1708436179.2305944,-2.1417508125305176,-1.3335362535766144,-2.5266149679767054,6.1106194136436365,1.0172654390335083,-2.6800711790667933
1708436179.23257,-2.1417577266693115,-1.3335610640100022,-2.5265987555133265,6.110577809601583,1.0172576904296875,-2.680108610783712
1708436179.2345626,-2.1417577266693115,-1.3335233491710206,-2.526574436818258,6.110637652664938,1.0172336101531982,-2.680059258137838
1708436179.236582,-2.141822338104248,-1.3334955287030716,-2.52663237253298,6.110695111542501,1.0172920227050781,-2.6801255385028284
1708436179.2385702,-2.141843557357788,-1.3335480999997635,-2.5265796820269983,6.110771524697103,1.0172020196914673,-2.6801040808307093
1708436179.2405722,-2.141850709915161,-1.3335318875363846,-2.5265710989581507,6.110745417862692,1.017210841178894,-2.680138174687521
1708436179.2425652,-2.1418416500091553,-1.3335103404572983,-2.526506010686056,6.110813724785604,1.0171571969985962,-2.680080238972799
1708436179.244565,-2.141873598098755,-1.3335071218064805,-2.52651030222048,6.11088656166152,1.0171406269073486,-2.680108610783712
1708436179.2465985,-2.1419053077697754,-1.33353445053611,-2.5265069643603724,6.110881435662069,1.0171406269073486,-2.680092159901754
1708436179.2486527,-2.141921043395996,-1.333559350376465,-2.5265026728259485,6.110958325653829,1.0170960426330566,-2.680092159901754
1708436179.250595,-2.141986608505249,-1.333572344189026,-2.5264950434314173,6.1110150692756555,1.0171256065368652,-2.680084768925802
1708436179.2525775,-2.141993761062622,-1.33356365681205,-2.52651554742922,6.1109845516975305,1.0170893669128418,-2.6800666491137903
1708436179.2545795,-2.1420254707336426,-1.3335561168244858,-2.526482884083883,6.111097562104025,1.0170533657073975,-2.6800714174853724
1708436179.2565641,-2.1420910358428955,-1.3335222762874146,-2.526426140462057,6.11105095127181,1.0169800519943237,-2.6801334063159388
1708436179.2585645,-2.142077684402466,-1.3335388612798234,-2.5264392534839075,6.111156332283773,1.0169514417648315,-2.6801040808307093
1708436179.2605662,-2.1421024799346924,-1.3335388165763398,-2.5264392534839075,6.111236321717062,1.0169451236724854,-2.6800714174853724
1708436179.2625682,-2.142118215560913,-1.3335265827229996,-2.5264273325549524,6.11122344711379,1.0169122219085693,-2.680092159901754
1708436179.2645886,-2.1421139240264893,-1.3336083453944703,-2.5264151732074183,6.111283528595724,1.0169003009796143,-2.6800876299487513
1708436179.266567,-2.14214825630188,-1.3335550439408799,-2.5264063517199915,6.111412751465597,1.0168358087539673,-2.6800876299487513
1708436179.2685711,-2.1421773433685303,-1.3336040389588852,-2.5263989607440394,6.111431348114767,1.016890525817871,-2.680154625569479
1708436179.270589,-2.1422314643859863,-1.333575577741005,-2.526346508656637,6.111515986710348,1.016812801361084,-2.680075709019796
1708436179.2725923,-2.1422295570373535,-1.3336170476726075,-2.5263474623309534,6.111543285637655,1.016767978668213,-2.6800995508777063
1708436179.2745743,-2.1422410011291504,-1.33357127130542,-2.5263388792621058,6.111586558609762,1.0167065858840942,-2.680138174687521
1708436179.2765653,-2.1422841548919678,-1.3335463267615815,-2.5263224283801478,6.11167453506545,1.0167255401611328,-2.680108610783712
1708436179.2785697,-2.1423089504241943,-1.333562583928444,-2.5262911955462855,6.111746656685629,1.0166807174682617,-2.680108610783712
1708436179.280576,-2.1423840522766113,-1.3335878115943451,-2.5262747446643274,6.111773955612936,1.0166807174682617,-2.680092159901754
1708436179.2825727,-2.1423566341400146,-1.333614559178688,-2.52627140680422,6.111846673279562,1.016574501991272,-2.6800876299487513
1708436179.2845743,-2.1424505710601807,-1.3336397272399445,-2.5262635389911097,6.111873972206869,1.0166128873825073,-2.6800876299487513
1708436179.2865858,-2.1424202919006348,-1.3336527210525055,-2.5262439886676233,6.111961948662557,1.0165843963623047,-2.680138174687521
1708436179.2885847,-2.1424450874328613,-1.3336274933866044,-2.5261903444873255,6.112021553307333,1.0165232419967651,-2.6801212469684046
1708436179.2905657,-2.1424973011016846,-1.3336440187743683,-2.5261829535113733,6.112088906555929,1.0165201425552368,-2.680092159901754
1708436179.2925985,-2.142537832260132,-1.3336559397033234,-2.5261710325824183,6.112177002220907,1.0164839029312134,-2.680112902318136
1708436179.294576,-2.1425607204437256,-1.3335986596396943,-2.5261665026294153,6.112217414170065,1.0164194107055664,-2.6800995508777063
1708436179.2965696,-2.142590284347534,-1.3336072725108643,-2.526114050542013,6.112280475884237,1.0164356231689453,-2.680096689854757
1708436179.2985694,-2.1426331996917725,-1.3335943681052704,-2.5261228720294397,6.112356173783102,1.0163878202438354,-2.680112902318136
1708436179.3005638,-2.142672061920166,-1.3336549562266846,-2.5261076132403772,6.1124576208885095,1.0164055824279785,-2.6800830999957483
1708436179.302581,-2.142688035964966,-1.3336963516524811,-2.5260871092425745,6.11245213726119,1.0163486003875732,-2.6801427046405237
1708436179.3045738,-2.1427559852600098,-1.3336430352977295,-2.5260794798480433,6.1125643132026575,1.0162781476974487,-2.680092159901754
1708436179.3065693,-2.142812490463257,-1.3336016249707718,-2.5260348955737513,6.112594592362203,1.0162806510925293,-2.6800876299487513
1708436179.3086114,-2.1428062915802,-1.3336300414851685,-2.5260520617114466,6.112715112953939,1.016186237335205,-2.6800385157214563
1708436179.3105752,-2.1429009437561035,-1.3336668622544785,-2.5260074774371546,6.112844574242391,1.0161669254302979,-2.6800714174853724
1708436179.312583,-2.1429078578948975,-1.333621398811676,-2.5259791056262415,6.11287950256423,1.0161638259887695,-2.6800830999957483
1708436179.3145726,-2.1428935527801514,-1.3336301159909745,-2.525959316884176,6.112946617394247,1.0161395072937012,-2.6800830999957483
1708436179.3165736,-2.1430253982543945,-1.333699644809105,-2.5259226004229944,6.11304651477889,1.0160346031188965,-2.680108610783712
1708436179.31857,-2.143075466156006,-1.3336866211942215,-2.5259116331683558,6.113122927933492,1.0160478353500366,-2.680051867161886
1708436179.3205714,-2.1430575847625732,-1.3337191057256241,-2.5259204546557825,6.113190400391378,1.0159534215927124,-2.680068318043844
1708436179.322589,-2.143099546432495,-1.333702878361084,-2.5258753935443323,6.113299000054159,1.0159385204315186,-2.6800995508777063
1708436179.3246093,-2.143148183822632,-1.33367374659095,-2.5258591810809534,6.113340365677633,1.0159021615982056,-2.680108610783712
1708436179.3265593,-2.1432242393493652,-1.3337472391179581,-2.525848452244894,6.11342083194808,1.0158705711364746,-2.6800714174853724
1708436179.3285801,-2.1432323455810547,-1.3337266457131882,-2.5258527437793177,6.113520848542013,1.0158135890960693,-2.680075709019796
1708436179.3305793,-2.1433045864105225,-1.3338038635304947,-2.5257871786700647,6.113616454392233,1.0157777070999146,-2.680075709019796
1708436179.3325925,-2.143336534500122,-1.3337299537709733,-2.525749985371725,6.113737213402548,1.015782117843628,-2.6800876299487513
1708436179.3345783,-2.143388509750366,-1.3337757152369996,-2.5257063547717493,6.113811838417806,1.0157057046890259,-2.680092159901754
1708436179.336595,-2.1434521675109863,-1.3338278394988556,-2.5257194677936,6.113928425102987,1.0156782865524292,-2.680089060460226
1708436179.3385952,-2.1434662342071533,-1.3337865632823487,-2.525691334401266,6.1139434454734705,1.0156378746032715,-2.680051867161886
1708436179.3406081,-2.143481969833374,-1.3337671172669907,-2.525625769292013,6.1140057919319055,1.0156137943267822,-2.680093590413229
1708436179.3426054,-2.143545627593994,-1.3337584149888535,-2.525609318410055,6.114130961685934,1.0155658721923828,-2.680068318043844
1708436179.344583,-2.1435954570770264,-1.3337746423533936,-2.5256767908679407,6.114156830101766,1.015526533126831,-2.680031124745504
1708436179.3466191,-2.1436543464660645,-1.3337703359178086,-2.525627915059225,6.114322173386373,1.0154905319213867,-2.680068318043844
1708436179.3486614,-2.143686056137085,-1.3337616485408326,-2.5256200472461146,6.114423024445333,1.0154094696044922,-2.680049006138937
1708436179.3506575,-2.1437089443206787,-1.333819330935814,-2.525529925023214,6.114469992905416,1.0153852701187134,-2.680023733769552
1708436179.3526225,-2.143787145614624,-1.333835558300354,-2.5255962053882044,6.11454056480483,1.015316128730774,-2.680068318043844
1708436179.354585,-2.143813371658325,-1.333806352024414,-2.5255797545062464,6.114612090378561,1.0152637958526611,-2.680039946232931
1708436179.356593,-2.1438539028167725,-1.333826870923378,-2.525511089955465,6.114708053856649,1.0152652263641357,-2.680060927067892
1708436179.3585775,-2.143929958343506,-1.333806337123253,-2.5255611578570765,6.114795911103048,1.0152008533477783,-2.6800535360919397
1708436179.3605638,-2.1439449787139893,-1.333850474362709,-2.525471035634176,6.1148884175117395,1.015161395072937,-2.679979387913839
1708436179.3626301,-2.1439766883850098,-1.3338417720845719,-2.525463406239645,6.114972102433004,1.0151044130325317,-2.6799946467029017
1708436179.3645923,-2.144026279449463,-1.3338832420161744,-2.525451962147848,6.115071165352621,1.0150728225708008,-2.6800289789782923
1708436179.366582,-2.1440560817718506,-1.3338053536466141,-2.52541953722109,6.115118133812704,1.015033483505249,-2.6800127665149134
1708436179.3685665,-2.1441962718963623,-1.3338583272746583,-2.525440279637472,6.11526774147109,1.014988660812378,-2.6799874941455286
1708436179.3705997,-2.1441490650177,-1.3338659417680283,-2.5254042784320276,6.115322100907125,1.014952301979065,-2.6800172964679163
1708436179.3725932,-2.1442484855651855,-1.3338540208390732,-2.525399986897604,6.115438687592306,1.0148793458938599,-2.679967466984884
1708436179.3745635,-2.1443099975585938,-1.3338454228690644,-2.5253267923938196,6.115480887680807,1.0148429870605469,-2.6799827257739466
1708436179.3765783,-2.1442954540252686,-1.3339027029326935,-2.5253072420703333,6.115613567620077,1.0148577690124512,-2.6800127665149134
1708436179.3785796,-2.1443352699279785,-1.3338572543910523,-2.525262419377462,6.115694033890524,1.014796257019043,-2.6800008455859583
1708436179.3805594,-2.144430160522461,-1.3338734817555924,-2.525275532399313,6.115825283318319,1.0147734880447388,-2.679960076008932
1708436179.3825676,-2.1444528102874756,-1.3338854175857087,-2.525247399006979,6.115880954056539,1.0146968364715576,-2.6799827257739466
1708436179.384566,-2.144533395767212,-1.3339589846185227,-2.5252276102649134,6.116022217064657,1.0146560668945312,-2.679934803639547
1708436179.3865683,-2.1445412635803223,-1.3339473915151139,-2.5251904169665735,6.116043913155355,1.0146204233169556,-2.679943625126974
1708436179.3885553,-2.144568681716919,-1.3339300912669678,-2.525203529988424,6.116135346680441,1.0146005153656006,-2.6800127665149134
1708436179.3905716,-2.144636392593384,-1.3338810813478013,-2.525179688130514,6.116239774018087,1.0145362615585327,-2.6799584070788782
1708436179.392591,-2.144691228866577,-1.3339052659324189,-2.525122944508688,6.116323458939352,1.014458179473877,-2.679901425038473
1708436179.3945546,-2.1447250843048096,-1.3339215230992814,-2.5250869433032435,6.116411316185751,1.0144881010055542,-2.6799266974078577
1708436179.3965814,-2.144792079925537,-1.3339182001403351,-2.5250421206103724,6.116474735527792,1.0144321918487549,-2.679905716572897
1708436179.3985655,-2.1448657512664795,-1.3340115410140534,-2.525079313908712,6.11652563789443,1.01437509059906,-2.6799073855029505
1708436179.4005609,-2.144895315170288,-1.3339777749827881,-2.5250237623797815,6.1166584370429895,1.0143721103668213,-2.6799572149859827
1708436179.402585,-2.1449406147003174,-1.3339986366084595,-2.5250476042376917,6.116778838425436,1.0142868757247925,-2.679967466984884
1708436179.4045672,-2.1449553966522217,-1.3340072494796296,-2.524953905736105,6.1168463108833215,1.014259696006775,-2.6800008455859583
1708436179.4065788,-2.145003080368042,-1.3340191555074234,-2.5249996821032923,6.116892087250509,1.0142115354537964,-2.67993933359255
1708436179.4085596,-2.1450588703155518,-1.3339330864003678,-2.5249181429492396,6.117005097657003,1.0142126083374023,-2.6799193064319056
1708436179.4105785,-2.1451072692871094,-1.333964781170227,-2.524926726018087,6.116998779564657,1.0141021013259888,-2.679889504109518
1708436179.4125633,-2.145169973373413,-1.3340061616948624,-2.5249114672290247,6.117132293968954,1.014098882675171,-2.6800063292132776
1708436179.4145544,-2.1451656818389893,-1.3340549629977723,-2.5248993078814905,6.117179143219747,1.014034390449524,-2.679964605961935
1708436179.4165707,-2.145240068435669,-1.3339691770127793,-2.5248635450946253,6.117307173996725,1.0140224695205688,-2.6799572149859827
1708436179.4185603,-2.1452248096466064,-1.3339814108661194,-2.524872128163473,6.1174038527305505,1.0140190124511719,-2.6799102465258997
1708436179.420608,-2.1452724933624268,-1.3339933466962357,-2.52483040491213,6.117492306023397,1.013983130455017,-2.6799147764789026
1708436179.422572,-2.145341396331787,-1.3340172183564682,-2.524762217198507,6.11758445480422,1.0139182806015015,-2.6799102465258997
1708436179.424619,-2.145435094833374,-1.3340421927026291,-2.5248120466815394,6.1175445196922205,1.0138660669326782,-2.6799572149859827
1708436179.4265876,-2.1454243659973145,-1.3340860617211838,-2.524780337010519,6.117719518929281,1.0138715505599976,-2.6799445788012903
1708436179.4285684,-2.145490884780884,-1.3340171885541459,-2.524738852177755,6.117770421295919,1.013798475265503,-2.6799572149859827
1708436179.430577,-2.145542860031128,-1.334049553876259,-2.524738852177755,6.1178496954734705,1.0137696266174316,-2.6799238363849085
1708436179.4325788,-2.1455533504486084,-1.3340536665967484,-2.5247281233416956,6.11795066574172,1.0137710571289062,-2.6799572149859827
1708436179.4345717,-2.1455533504486084,-1.3340410006097336,-2.524723831807272,6.118002879410543,1.0137275457382202,-2.6799402872668665
1708436179.43658,-2.145637273788452,-1.334053711300232,-2.5246625582324427,6.1179683087165735,1.0137571096420288,-2.6799283663379114
1708436179.4385705,-2.1456668376922607,-1.334081844692566,-2.52467924753298,6.118124830513754,1.0136419534683228,-2.6798911730395716
1708436179.4405699,-2.1456735134124756,-1.3340819042972107,-2.524663750325338,6.118196594506063,1.0136268138885498,-2.6799491087542933
1708436179.44261,-2.145721197128296,-1.3340410751155396,-2.5246756712542933,6.118208634644308,1.0136444568634033,-2.6799030939685267
1708436179.444574,-2.1457622051239014,-1.3340614450028916,-2.524651829396383,6.118312704354086,1.0135834217071533,-2.6799030939685267
1708436179.4466069,-2.1457576751708984,-1.3340983998826523,-2.524651829396383,6.118311989098348,1.0135219097137451,-2.6798747221576136
1708436179.4486566,-2.145829677581787,-1.3340941232493897,-2.5246930758105677,6.118387806206503,1.0134482383728027,-2.6799164454089563
1708436179.4505932,-2.145796298980713,-1.3341016930392762,-2.5246527830706995,6.1184425232704065,1.0134778022766113,-2.6799030939685267
1708436179.4525805,-2.145782709121704,-1.334129886036255,-2.524611298237936,6.1185107109840295,1.0134704113006592,-2.679925505314962
1708436179.4545686,-2.1458981037139893,-1.3341017228415986,-2.524656120930807,6.118580448418417,1.0134334564208984,-2.6798792521106165
1708436179.4565914,-2.14591646194458,-1.3340812486461182,-2.524590555821554,6.11859010437087,1.0133939981460571,-2.6799238363849085
1708436179.4585981,-2.1458961963653564,-1.334084616308548,-2.5246244112597864,6.1186174032981775,1.0133699178695679,-2.6798911730395716
1708436179.4605603,-2.1459438800811768,-1.3341340732625504,-2.5246155897723597,6.118681657105245,1.0133699178695679,-2.6799030939685267
