Eg3-git/Classifiers/Data Collection/u4/u4abc4_ur3e_joint_states.csv
time,elbow_joint,shoulder_lift_joint,shoulder_pan_joint,wrist_1_joint,wrist_2_joint,wrist_3_joint
1708436193.9926836,-2.14182448387146,-1.3334637445262452,-2.5265770594226282,6.11047791221694,1.0172622203826904,-2.882266346608297
1708436193.994676,-2.1418824195861816,-1.3335284304669877,-2.5264902750598353,6.110461699753561,1.0172789096832275,-2.882228676472799
1708436193.996685,-2.1418895721435547,-1.3334670972875138,-2.5265563170062464,6.1105313179786584,1.0172576904296875,-2.882303539906637
1708436193.998682,-2.141845703125,-1.33351685226474,-2.5264902750598353,6.110494124680319,1.0172743797302246,-2.882242027913229
1708436194.0006707,-2.1418581008911133,-1.3334670525840302,-2.5265188852893274,6.110534417420187,1.0172502994537354,-2.882242027913229
1708436194.0027046,-2.1418709754943848,-1.3334799271873017,-2.526511255894796,6.1106124995048425,1.0172502994537354,-2.882287089024679
1708436194.0046794,-2.1418867111206055,-1.3334832352450867,-2.5265067259417933,6.110518204956808,1.0172698497772217,-2.882254425679342
1708436194.0066922,-2.1418824195861816,-1.3334714037230988,-2.5265234152423304,6.110525834351339,1.0172245502471924,-2.882287089024679
1708436194.0086803,-2.141862392425537,-1.333447591667511,-2.5265279451953333,6.110569107323446,1.0172621011734009,-2.882266346608297
1708436194.0106704,-2.1418824195861816,-1.3334508848241349,-2.5265143553363245,6.110654222756185,1.0172367095947266,-2.8822575251208704
1708436194.0127711,-2.1418542861938477,-1.3334594827941437,-2.5265381971942347,6.110658514290609,1.0172576904296875,-2.8822575251208704
1708436194.014669,-2.1418864727020264,-1.3334594827941437,-2.5265608469592493,6.110609519272604,1.0172367095947266,-2.882294480000631
1708436194.01666,-2.141878128051758,-1.3334508848241349,-2.5265353361712855,6.110596525460043,1.0172743797302246,-2.88230806985964
1708436194.0186658,-2.1418895721435547,-1.3334875714829941,-2.5265143553363245,6.110625731735983,1.0172290802001953,-2.882299009953634
1708436194.0206656,-2.141866683959961,-1.3334268194488068,-2.5265021959887903,6.110662805825033,1.0172711610794067,-2.8822620550738733
1708436194.0226545,-2.1418330669403076,-1.3335003119758149,-2.5265353361712855,6.110702621727743,1.017241358757019,-2.8822737375842493
1708436194.0246785,-2.141845703125,-1.333504081969597,-2.5265563170062464,6.110658514290609,1.0172486305236816,-2.882287089024679
1708436194.0266562,-2.1418910026550293,-1.3334670674851914,-2.5265324751483362,6.110678779869833,1.0172621011734009,-2.8822694460498255
1708436194.028682,-2.141918182373047,-1.3334680062583466,-2.5265353361712855,6.110612737923422,1.0173075199127197,-2.8822737375842493
1708436194.0306683,-2.1418910026550293,-1.3334594827941437,-2.5265234152423304,6.110637652664938,1.017241358757019,-2.8822901884662073
1708436194.0326908,-2.1418585777282715,-1.3334433150342484,-2.526515785847799,6.110641944199362,1.0172667503356934,-2.882266346608297
1708436194.0347023,-2.141878128051758,-1.3334424656680604,-2.5265608469592493,6.110654222756185,1.0172743797302246,-2.8822947184192103
1708436194.0366604,-2.1418709754943848,-1.3334637147239228,-2.5265353361712855,6.110652911454,1.0172531604766846,-2.8822603861438196
1708436194.0386772,-2.1418797969818115,-1.3334955436042328,-2.5265727678882044,6.110652911454,1.0172576904296875,-2.8822782675372522
1708436194.0407412,-2.1418752670288086,-1.3335046929172059,-2.5265443960772913,6.110674488335409,1.0172154903411865,-2.8822811285602015
1708436194.042666,-2.1418955326080322,-1.333459497695305,-2.5265234152423304,6.110633241921224,1.0172621011734009,-2.8823397795306605
1708436194.0446873,-2.1418955326080322,-1.3334347170642395,-2.5265517870532435,6.110624658852377,1.0172698497772217,-2.8822901884662073
1708436194.0467021,-2.14182448387146,-1.3334756654552002,-2.5265353361712855,6.110633241921224,1.0172576904296875,-2.8822901884662073
1708436194.0486755,-2.141869306564331,-1.3334875416806717,-2.5265591780291956,6.110670077591696,1.0172576904296875,-2.8823323885547083
1708436194.0506675,-2.1418542861938477,-1.3334960651448746,-2.5265846888171595,6.110612737923422,1.017241358757019,-2.8822694460498255
1708436194.0527222,-2.1418581008911133,-1.333483175640442,-2.5265563170062464,6.110670077591696,1.0172576904296875,-2.8823021093951624
1708436194.054673,-2.141845703125,-1.3335071516088028,-2.5265381971942347,6.110658514290609,1.0172789096832275,-2.8822947184192103
1708436194.056682,-2.141902446746826,-1.3335003566792984,-2.5265353361712855,6.110646235733785,1.0172412395477295,-2.8822811285602015
1708436194.0586727,-2.141862392425537,-1.333431066279747,-2.5265427271472376,6.110612737923422,1.0172412395477295,-2.8823066393481653
1708436194.0606613,-2.141869306564331,-1.333504081969597,-2.5265217463122767,6.110641944199362,1.0172667503356934,-2.8822575251208704
1708436194.0627,-2.141866683959961,-1.3335126054337998,-2.5264766852008265,6.110658514290609,1.017241358757019,-2.882266346608297
1708436194.0646775,-2.141828775405884,-1.3334918481162568,-2.5265637079821985,6.1106369374092,1.0172245502471924,-2.8822322527514856
1708436194.0666952,-2.1418585777282715,-1.3335083437016984,-2.5265262762652796,6.110641944199362,1.017241358757019,-2.8822901884662073
1708436194.0686648,-2.1418330669403076,-1.3334552359632035,-2.5265143553363245,6.110678779869833,1.0172817707061768,-2.8822975794421595
1708436194.0707083,-2.1418867111206055,-1.3334714037230988,-2.5265353361712855,6.110681998520651,1.0172861814498901,-2.8822858969317835
1708436194.0727193,-2.141862392425537,-1.3335003715804596,-2.5264976660357874,6.110641228943624,1.0172834396362305,-2.8823562304126185
1708436194.0746899,-2.141862392425537,-1.3334964227727433,-2.5265563170062464,6.110641228943624,1.0172576904296875,-2.8823264280902308
1708436194.076695,-2.1418752670288086,-1.3334799271873017,-2.5265563170062464,6.1106289503868005,1.0172548294067383,-2.8823354879962366
1708436194.0786874,-2.14186692237854,-1.3334748458913346,-2.5265308062182825,6.110674488335409,1.0172576904296875,-2.882268015538351
1708436194.080676,-2.1419053077697754,-1.3335241836360474,-2.5265308062182825,6.110665786057272,1.0172908306121826,-2.8822768370257776
1708436194.0826936,-2.141862392425537,-1.3334508848241349,-2.5265100638019007,6.1106369374092,1.0172998905181885,-2.8823190371142786
1708436194.0847373,-2.1418216228485107,-1.3334467721036454,-2.5265591780291956,6.110624658852377,1.0172531604766846,-2.8823021093951624
1708436194.0867083,-2.141813039779663,-1.3335254502347489,-2.5265381971942347,6.110654222756185,1.0172743797302246,-2.8823264280902308
1708436194.088694,-2.1418824195861816,-1.3334918481162568,-2.5265682379352015,6.110665786057272,1.0172576904296875,-2.8823397795306605
1708436194.090742,-2.14186692237854,-1.3334353876164933,-2.5265234152423304,6.110621440201559,1.0172576904296875,-2.882310930882589
1708436194.0927246,-2.141918182373047,-1.3334956628135224,-2.5265098253833216,6.110664713173666,1.0172367095947266,-2.88228422800173
1708436194.094685,-2.141913890838623,-1.3334594827941437,-2.5265563170062464,6.110658514290609,1.0172743797302246,-2.8823681513415735
1708436194.0967104,-2.1418585777282715,-1.3334713888219376,-2.5265143553363245,6.110665666847982,1.0172576904296875,-2.8823307196246546
1708436194.0986865,-2.1418542861938477,-1.333496094947197,-2.5265188852893274,6.110624658852377,1.0172109603881836,-2.8823307196246546
1708436194.1007087,-2.141862392425537,-1.3334433299354096,-2.5265892187701624,6.110693919449606,1.0172698497772217,-2.8823021093951624
1708436194.1027138,-2.141862392425537,-1.3334433150342484,-2.5265308062182825,6.110681998520651,1.0172531604766846,-2.8823354879962366
1708436194.104678,-2.141845703125,-1.3334670525840302,-2.5265427271472376,6.110649812012472,1.0172667503356934,-2.8823278586017054
1708436194.1066864,-2.1418864727020264,-1.3335083437016984,-2.5265427271472376,6.110670077591696,1.0172531604766846,-2.882317606602804
1708436194.1086807,-2.141828775405884,-1.3335155856660386,-2.5265727678882044,6.1106008169944666,1.0172576904296875,-2.882338349019186
1708436194.1106882,-2.1418824195861816,-1.3334841293147583,-2.5265517870532435,6.110628235131063,1.0172336101531982,-2.8823769728290003
1708436194.1127372,-2.141913890838623,-1.3334756654552002,-2.5265398661242884,6.110632526665487,1.017295241355896,-2.8823471705066126
1708436194.1147437,-2.141914129257202,-1.3334467274001618,-2.5265098253833216,6.110592233925619,1.0172908306121826,-2.882321898137228
1708436194.116711,-2.1418709754943848,-1.3334714037230988,-2.5265546480761927,6.110657202988424,1.0172548294067383,-2.882354799901144
1708436194.1186738,-2.141873836517334,-1.333472342496254,-2.5265143553363245,6.110706913262167,1.0172621011734009,-2.8823190371142786
1708436194.1207058,-2.141862392425537,-1.333504081969597,-2.5265517870532435,6.1106170294578455,1.0172743797302246,-2.8823471705066126
1708436194.122689,-2.141862392425537,-1.333504081969597,-2.5265727678882044,6.110608446388998,1.0172531604766846,-2.882321898137228
1708436194.1246848,-2.1419270038604736,-1.333496094947197,-2.5265353361712855,6.1106170294578455,1.017241358757019,-2.882305685673849
1708436194.1266897,-2.1418631076812744,-1.3334756654552002,-2.5265308062182825,6.110621440201559,1.0172367095947266,-2.8823264280902308
1708436194.1286888,-2.141878128051758,-1.333483265047409,-2.5265727678882044,6.1106982109840295,1.0172667503356934,-2.8823264280902308
1708436194.1306746,-2.141866683959961,-1.3334390831044693,-2.5265381971942347,6.1106629250343225,1.0172698497772217,-2.8822856585132044
1708436194.1326947,-2.1418709754943848,-1.333431066279747,-2.5265143553363245,6.1106170294578455,1.0172743797302246,-2.8822930494891565
1708436194.1346726,-2.141913890838623,-1.3335370433381577,-2.5265472571002405,6.110612737923422,1.0172200202941895,-2.882301394139425
1708436194.1367002,-2.1418981552124023,-1.3335284453681489,-2.5264931360827845,6.1106992838676355,1.0172531604766846,-2.8823099772082728
1708436194.1386793,-2.1418709754943848,-1.3334756654552002,-2.5265892187701624,6.110637652664938,1.017241358757019,-2.8823354879962366
1708436194.140704,-2.141817331314087,-1.3334305447391053,-2.5265353361712855,6.110624658852377,1.0172789096832275,-2.882322136555807
1708436194.1427064,-2.1418373584747314,-1.333496094947197,-2.5265591780291956,6.110648500710287,1.017241358757019,-2.8823190371142786
1708436194.1446724,-2.141862392425537,-1.3334842038205643,-2.5265098253833216,6.110658514290609,1.017241358757019,-2.8823307196246546
1708436194.146718,-2.141849994659424,-1.333496094947197,-2.5265188852893274,6.110645639687338,1.0172412395477295,-2.882317606602804
1708436194.1486835,-2.141918182373047,-1.3334552508643647,-2.5265217463122767,6.110637652664938,1.0172698497772217,-2.8823590914355677
1708436194.1506925,-2.141902446746826,-1.333540366297104,-2.5265756289111536,6.110657202988424,1.0172576904296875,-2.8823264280902308
1708436194.1526957,-2.14190673828125,-1.3334756654552002,-2.5265546480761927,6.110665666847982,1.0172457695007324,-2.8822925726519983
1708436194.154698,-2.1418542861938477,-1.3334268045476456,-2.5265725294696253,6.110641228943624,1.0172621011734009,-2.8823309580432337
1708436194.156695,-2.1419224739074707,-1.3335126054337998,-2.5265801588641565,6.110649812012472,1.0172531604766846,-2.882317606602804
1708436194.1586854,-2.1418824195861816,-1.333496094947197,-2.5265472571002405,6.110657202988424,1.0172667503356934,-2.8823264280902308
1708436194.1606803,-2.1418650150299072,-1.3334594827941437,-2.5265591780291956,6.110706913262167,1.0172245502471924,-2.8823517004596155
1708436194.1626952,-2.141849994659424,-1.3334628951600571,-2.5265098253833216,6.110665786057272,1.0172576904296875,-2.8822925726519983
1708436194.1646886,-2.1418864727020264,-1.3334799271873017,-2.5265665690051478,6.110645639687338,1.0172367095947266,-2.882350269948141
1708436194.1666825,-2.1419270038604736,-1.333447591667511,-2.5266059080706995,6.110612737923422,1.0172743797302246,-2.8823633829699915
1708436194.1686826,-2.141845703125,-1.3334097278169175,-2.5265710989581507,6.110641228943624,1.0172531604766846,-2.882305685673849
1708436194.1706784,-2.1418542861938477,-1.3334799271873017,-2.5265637079821985,6.110621440201559,1.0172576904296875,-2.882338349019186
1708436194.1726778,-2.141862392425537,-1.3334552359632035,-2.5265427271472376,6.110641944199362,1.0172817707061768,-2.882301394139425
1708436194.1746855,-2.1418938636779785,-1.3334997457316895,-2.5265308062182825,6.110683071404257,1.0172743797302246,-2.8823471705066126
1708436194.1767,-2.1418824195861816,-1.3334799271873017,-2.5265546480761927,6.110690700798788,1.0173403024673462,-2.8823145071612757
1708436194.1786702,-2.1418938636779785,-1.333504081969597,-2.5265427271472376,6.110621440201559,1.017230749130249,-2.8823428789721888
1708436194.1806693,-2.141866683959961,-1.3334918481162568,-2.5265381971942347,6.110661494522848,1.0172743797302246,-2.8823099772082728
1708436194.1826582,-2.1418330669403076,-1.3334670525840302,-2.5265846888171595,6.110686409264364,1.0172576904296875,-2.88228422800173
1708436194.1846638,-2.141918182373047,-1.3334799122861405,-2.5265756289111536,6.110645520478048,1.0173075199127197,-2.8823590914355677
1708436194.1866617,-2.141902446746826,-1.3334997308305283,-2.5265756289111536,6.110637652664938,1.0172908306121826,-2.882322136555807
1708436194.1886902,-2.1418867111206055,-1.3334391129067917,-2.5265427271472376,6.110641944199362,1.0172908306121826,-2.8823562304126185
1708436194.190683,-2.141913890838623,-1.3334628951600571,-2.5265637079821985,6.110599744110861,1.0172486305236816,-2.882317606602804
1708436194.1926794,-2.141866683959961,-1.3334552359632035,-2.5265591780291956,6.110665666847982,1.0172654390335083,-2.88231331506838
1708436194.1946802,-2.1418864727020264,-1.3334637445262452,-2.5265472571002405,6.110670077591696,1.0172908306121826,-2.882310215626852
1708436194.1966896,-2.141878128051758,-1.3334918481162568,-2.5265665690051478,6.110637652664938,1.0172908306121826,-2.882322136555807
1708436194.1986892,-2.1418373584747314,-1.3335003566792984,-2.5265381971942347,6.110661494522848,1.0173312425613403,-2.882334057484762
1708436194.2007236,-2.1418981552124023,-1.3335046631148835,-2.5265756289111536,6.110604154854574,1.0173403024673462,-2.8823517004596155
1708436194.2026913,-2.1418938636779785,-1.3334756803563614,-2.5265710989581507,6.110670077591696,1.0172984600067139,-2.8823960463153284
1708436194.2046876,-2.1418709754943848,-1.333431066279747,-2.526604477559225,6.110646354943075,1.0172861814498901,-2.882338349019186
1708436194.2066998,-2.141902446746826,-1.3334552359632035,-2.5265665690051478,6.110625731735983,1.0173521041870117,-2.8823264280902308
1708436194.2087033,-2.1418542861938477,-1.3334790629199524,-2.5265665690051478,6.110641944199362,1.0172984600067139,-2.8823021093951624
1708436194.2106853,-2.141849994659424,-1.3334424656680604,-2.5265427271472376,6.110649812012472,1.017293930053711,-2.882310215626852
1708436194.2127476,-2.1419308185577393,-1.3334552359632035,-2.5265756289111536,6.110621440201559,1.0172984600067139,-2.8823590914355677
1708436194.2147224,-2.1418864727020264,-1.3335199368051072,-2.5265501181231897,6.110621440201559,1.0172817707061768,-2.882350269948141
1708436194.2166922,-2.14186692237854,-1.3334875714829941,-2.5265637079821985,6.1106170294578455,1.0172861814498901,-2.8823264280902308
1708436194.2187033,-2.1418864727020264,-1.3334594827941437,-2.5265968481646937,6.110678779869833,1.017293930053711,-2.882350269948141
1708436194.220669,-2.1418709754943848,-1.3334628951600571,-2.5265801588641565,6.110637652664938,1.0172683000564575,-2.882305685673849
1708436194.2226715,-2.14190673828125,-1.3334997457316895,-2.5265591780291956,6.110621440201559,1.017293930053711,-2.88236648241152
1708436194.2247303,-2.1418938636779785,-1.3335083288005372,-2.5265637079821985,6.11063431480483,1.0172607898712158,-2.882310215626852
1708436194.2266867,-2.1419308185577393,-1.3335155856660386,-2.526587788258688,6.110609519272604,1.0172743797302246,-2.8823798338519495
1708436194.2286923,-2.141862392425537,-1.3334714037230988,-2.5265756289111536,6.110646354943075,1.0172607898712158,-2.882317606602804
1708436194.2306826,-2.1419053077697754,-1.3334594827941437,-2.526599947606222,6.110609519272604,1.0173521041870117,-2.882310215626852
1708436194.2326798,-2.1418824195861816,-1.3334594827941437,-2.526609007512228,6.110690820008077,1.0173267126083374,-2.8823545614825647
1708436194.2346802,-2.1418585777282715,-1.33352846026931,-2.526587788258688,6.1106300232704065,1.0173357725143433,-2.8823633829699915
1708436194.2366846,-2.1418938636779785,-1.3335003566792984,-2.526574198399679,6.110585319786825,1.017317771911621,-2.8823354879962366
1708436194.2386913,-2.141909599304199,-1.3334841591170807,-2.526587788258688,6.110631215363302,1.017317771911621,-2.8823426405536097
1708436194.2406747,-2.1418542861938477,-1.333467037682869,-2.526583258305685,6.110613810807028,1.0173267126083374,-2.8823681513415735
1708436194.2426748,-2.1418824195861816,-1.3334960502437134,-2.52661639848818,6.110585319786825,1.017317771911621,-2.8823264280902308
1708436194.2446938,-2.1418709754943848,-1.3335284453681489,-2.526562039052145,6.110577809601583,1.0172637701034546,-2.882341448460714
1708436194.246693,-2.141913890838623,-1.3334875863841553,-2.526607338582174,6.11063431480483,1.0172849893569946,-2.882350269948141
1708436194.2486768,-2.141918182373047,-1.3334268045476456,-2.526611868535177,6.110569107323446,1.0172984600067139,-2.882301394139425
1708436194.2506695,-2.141902446746826,-1.3335040372661133,-2.526569668446676,6.110564815789022,1.0172772407531738,-2.88231331506838
1708436194.252698,-2.14190411567688,-1.333472342496254,-2.526652161275045,6.1106194136436365,1.0173133611679077,-2.882279936467306
1708436194.2546675,-2.1418585777282715,-1.3334552359632035,-2.5266733805285853,6.110631215363302,1.017317771911621,-2.882334057484762
1708436194.2566702,-2.141849994659424,-1.3335046929172059,-2.5266147295581263,6.110581028252401,1.017293930053711,-2.8823307196246546
1708436194.2586722,-2.141918182373047,-1.3334756356528779,-2.5266476313220423,6.110577809601583,1.0173296928405762,-2.8823064009295862
1708436194.2606642,-2.1418752670288086,-1.3335125160268326,-2.5266929308520716,6.11060522773818,1.017317771911621,-2.882341448460714
1708436194.2628655,-2.1418752670288086,-1.333500326876976,-2.5266266504870813,6.110569107323446,1.017317771911621,-2.882345978413717
1708436194.2646804,-2.1418216228485107,-1.3334637445262452,-2.5266929308520716,6.110598313599386,1.0173420906066895,-2.882317606602804
1708436194.2667377,-2.1418709754943848,-1.3334670972875138,-2.5266476313220423,6.110577809601583,1.0173133611679077,-2.882296864186422
1708436194.2687101,-2.1418797969818115,-1.3334918481162568,-2.5266643206225794,6.110585319786825,1.017317771911621,-2.8823590914355677
1708436194.2706664,-2.1418981552124023,-1.3334552508643647,-2.5266597906695765,6.11054419258193,1.017346739768982,-2.8823307196246546
1708436194.2726948,-2.1418824195861816,-1.3334885251573105,-2.5266643206225794,6.110589730530538,1.017317771911621,-2.8822887579547327
1708436194.274669,-2.1418840885162354,-1.3334637445262452,-2.5266717115985315,6.110561597138204,1.017317771911621,-2.88236648241152
1708436194.2766812,-2.1418752670288086,-1.333459497695305,-2.5266385714160364,6.110508429795065,1.0173250436782837,-2.8823590914355677
1708436194.2786727,-2.1419224739074707,-1.3334756654552002,-2.5266311804400843,6.110545027046957,1.0173085927963257,-2.8823426405536097
1708436194.280701,-2.141899824142456,-1.3335003566792984,-2.5266717115985315,6.110578882485189,1.0173341035842896,-2.882296864186422
1708436194.2826858,-2.1418955326080322,-1.3334637445262452,-2.5266175905810755,6.110550749092855,1.0172759294509888,-2.8822930494891565
1708436194.2846713,-2.141845703125,-1.3334433150342484,-2.5266385714160364,6.1105865118797205,1.017374873161316,-2.8823724428759974
1708436194.2866971,-2.1418797969818115,-1.3334670674851914,-2.5266266504870813,6.110492932587423,1.017346739768982,-2.8823843638049524
1708436194.2887242,-2.1418368816375732,-1.3334875416806717,-2.5266974608050745,6.110509502678671,1.0173133611679077,-2.8823517004596155
1708436194.2906704,-2.1418373584747314,-1.333511398439743,-2.5266626516925257,6.11050163486556,1.0173511505126953,-2.882310215626852
1708436194.2927206,-2.1418709754943848,-1.3334475618651886,-2.5266581217395228,6.110432016640463,1.0173133611679077,-2.882338349019186
1708436194.2946744,-2.1418416500091553,-1.3334680062583466,-2.5266597906695765,6.110458123474874,1.0172849893569946,-2.882317606602804
1708436194.2966928,-2.1418864727020264,-1.3335326325944443,-2.5266552607165735,6.110437500267782,1.0173630714416504,-2.8823426405536097
1708436194.298667,-2.1418542861938477,-1.333504081969597,-2.5266431013690394,6.110462415009298,1.0173250436782837,-2.8823633829699915
1708436194.3006804,-2.1418304443359375,-1.333455206160881,-2.5265849272357386,6.110446202545919,1.0173133611679077,-2.8823354879962366
1708436194.3027322,-2.1418797969818115,-1.3334475618651886,-2.5266552607165735,6.110441911011495,1.0173341035842896,-2.882310215626852
1708436194.3046713,-2.1418330669403076,-1.3334467274001618,-2.5266385714160364,6.110441911011495,1.0173133611679077,-2.8823590914355677
1708436194.306717,-2.1418752670288086,-1.3334756654552002,-2.5266385714160364,6.110502707749166,1.017346739768982,-2.8823798338519495
1708436194.308687,-2.141862392425537,-1.333475650554039,-2.5266552607165735,6.110441911011495,1.017346739768982,-2.882333819066183
1708436194.3106856,-2.141862392425537,-1.3334353280118485,-2.5266431013690394,6.110486495285787,1.0173430442810059,-2.882334057484762
1708436194.3127184,-2.1418709754943848,-1.3334475767663498,-2.5266807715045374,6.110405313759603,1.017334222793579,-2.8823710123645228
1708436194.314723,-2.141899824142456,-1.3334508848241349,-2.5265894571887415,6.110406029015341,1.017346739768982,-2.88236648241152
1708436194.3167014,-2.1418840885162354,-1.333496094947197,-2.5266597906695765,6.110385525017538,1.0173341035842896,-2.8823471705066126
1708436194.3186758,-2.1418373584747314,-1.3334714335254212,-2.526656452809469,6.110434520035543,1.017337679862976,-2.882317606602804
1708436194.3207138,-2.1418840885162354,-1.3334997457316895,-2.5266266504870813,6.110381233483114,1.0172715187072754,-2.8823633829699915
1708436194.32272,-2.1419155597686768,-1.333472342496254,-2.5266762415515345,6.1104503748710535,1.0173250436782837,-2.882350269948141
1708436194.3246975,-2.1418416500091553,-1.3334509146264573,-2.5266431013690394,6.110422599106588,1.0173540115356445,-2.8823307196246546
1708436194.3267174,-2.1418092250823975,-1.3334790927222748,-2.5266178289996546,6.110401618271627,1.0173206329345703,-2.8823471705066126
1708436194.3286922,-2.1418631076812744,-1.333463729625084,-2.5266175905810755,6.110438811569967,1.017337679862976,-2.882317606602804
1708436194.3306768,-2.1418840885162354,-1.333483250146248,-2.5266597906695765,6.110401737480917,1.0173206329345703,-2.8823471705066126
1708436194.3326836,-2.141871690750122,-1.3334714037230988,-2.5266147295581263,6.110467779427328,1.0173341035842896,-2.882322136555807
1708436194.3346694,-2.1418347358703613,-1.3334799271873017,-2.5266431013690394,6.1104270098503015,1.017346739768982,-2.8823426405536097
1708436194.3366985,-2.141846179962158,-1.333496094947197,-2.5266431013690394,6.11045919635848,1.0173496007919312,-2.88228422800173
1708436194.3386638,-2.1418631076812744,-1.333484174018242,-2.5266221205340784,6.110422599106588,1.0173206329345703,-2.882305685673849
1708436194.3406916,-2.1418304443359375,-1.3334714037230988,-2.5266266504870813,6.110414731293478,1.017334222793579,-2.882338349019186
1708436194.3427157,-2.141850471496582,-1.3334955287030716,-2.5267048517810267,6.1103529808814905,1.0173250436782837,-2.8823590914355677
1708436194.3446748,-2.1418137550354004,-1.3334756654552002,-2.5266597906695765,6.110447513848104,1.017317771911621,-2.882338349019186
1708436194.3467088,-2.1418259143829346,-1.3334148836186905,-2.5266340414630335,6.1104562161262415,1.0173420906066895,-2.8823264280902308
1708436194.3486726,-2.1418213844299316,-1.3334875863841553,-2.5266597906695765,6.110373604088583,1.0173795223236084,-2.8823590914355677
1708436194.3506634,-2.1418373584747314,-1.3334714037230988,-2.5266643206225794,6.110389816551962,1.0173250436782837,-2.882301394139425
1708436194.3527074,-2.1418585777282715,-1.3334960800460358,-2.526652161275045,6.110381233483114,1.0173420906066895,-2.8823917547809046
1708436194.3546839,-2.1418673992156982,-1.3334594827941437,-2.5266643206225794,6.110394227295675,1.017358422279358,-2.8824079672442835
1708436194.356684,-2.1418416500091553,-1.333450974231102,-2.5266597906695765,6.110422599106588,1.017358422279358,-2.882334057484762
1708436194.358672,-2.1418304443359375,-1.3334756654552002,-2.526677672063009,6.110401737480917,1.0173676013946533,-2.8823426405536097
1708436194.360663,-2.141839027404785,-1.3334885400584717,-2.5265894571887415,6.110373604088583,1.0173840522766113,-2.8823545614825647
1708436194.3626916,-2.1418542861938477,-1.3334467274001618,-2.5266147295581263,6.110394227295675,1.0173296928405762,-2.882329527531759
1708436194.3646872,-2.1418673992156982,-1.3334790778211136,-2.52664024034609,6.110419142037191,1.0173420906066895,-2.882334057484762
1708436194.366697,-2.141839027404785,-1.333504081969597,-2.5266311804400843,6.110394227295675,1.0173704624176025,-2.882350269948141
1708436194.368678,-2.141846179962158,-1.3334756654552002,-2.5266431013690394,6.110398518830099,1.0173540115356445,-2.882329527531759
1708436194.370684,-2.1418304443359375,-1.3334918481162568,-2.5266431013690394,6.110386597901144,1.0173296928405762,-2.8823872248279017
1708436194.3726838,-2.1418259143829346,-1.3334637445262452,-2.5266221205340784,6.110476481705465,1.0173331499099731,-2.882382933293478
1708436194.3746657,-2.1418585777282715,-1.333451808696129,-2.5266717115985315,6.1104928133781335,1.0173205137252808,-2.88236648241152
1708436194.3767118,-2.1418347358703613,-1.3334628653577347,-2.5266717115985315,6.110361683159628,1.0173630714416504,-2.882334057484762
1708436194.3786626,-2.141859292984009,-1.3334841442159195,-2.526652161275045,6.11038230636672,1.0173132419586182,-2.8823545614825647
1708436194.3806863,-2.1418347358703613,-1.3334756356528779,-2.5266385714160364,6.110386597901144,1.0173795223236084,-2.882369581853048
1708436194.3827076,-2.1418259143829346,-1.3334955734065552,-2.5266056696521204,6.110438811569967,1.017317771911621,-2.8823042551623743
1708436194.384705,-2.141839027404785,-1.333459497695305,-2.526673142110006,6.110398518830099,1.0173420906066895,-2.882374111806051
1708436194.3866987,-2.1418354511260986,-1.3335283708623429,-2.526652161275045,6.110373604088583,1.0173540115356445,-2.8823369185077112
1708436194.3887172,-2.141818046569824,-1.3334628951600571,-2.5265818277942103,6.110414731293478,1.0173420906066895,-2.882345978413717
1708436194.3906717,-2.141859292984009,-1.333548904662468,-2.5265937487231653,6.110395300179281,1.0173430442810059,-2.8823280970202845
1708436194.3927176,-2.141818046569824,-1.333422602420189,-2.5266311804400843,6.110341894417562,1.0172715187072754,-2.8824146429644983
1708436194.394685,-2.1418304443359375,-1.3334433299354096,-2.5266733805285853,6.110353815346517,1.0173795223236084,-2.8823769728290003
1708436194.3966722,-2.1418137550354004,-1.3335199070027848,-2.5266688505755823,6.110386597901144,1.0172713994979858,-2.8823607603656214
1708436194.3986673,-2.141822338104248,-1.3334508848241349,-2.526635710393087,6.110431301384725,1.0173206329345703,-2.882394854222433
1708436194.40069,-2.1418304443359375,-1.333439053302147,-2.526635710393087,6.11041151264266,1.017337679862976,-2.8823488394366663
1708436194.4026895,-2.1417810916900635,-1.3334552359632035,-2.5266221205340784,6.1104071018989465,1.0173420906066895,-2.882386032735006
1708436194.4046888,-2.141822338104248,-1.3335284900716324,-2.5266431013690394,6.110357272415914,1.0173839330673218,-2.88239032426943
1708436194.4066882,-2.141854763031006,-1.3335402768901368,-2.526619259511129,6.110402810364523,1.0173585414886475,-2.882423702870504
1708436194.408674,-2.141859292984009,-1.3334670823863526,-2.5266552607165735,6.110378014832296,1.0172592401504517,-2.8824146429644983
1708436194.410692,-2.141805648803711,-1.3334714037230988,-2.5266643206225794,6.110435592919149,1.0173041820526123,-2.8824310938464563
1708436194.412684,-2.141805648803711,-1.33347903311763,-2.5266147295581263,6.110419022827902,1.017370343208313,-2.8824191729175013
1708436194.4147282,-2.141839027404785,-1.333450899725296,-2.5266431013690394,6.1104116318519495,1.017358422279358,-2.8824060598956507
1708436194.4167309,-2.141843318939209,-1.3334433299354096,-2.5266101996051233,6.110460626869955,1.0173795223236084,-2.8824015299426478
1708436194.4186714,-2.141843318939209,-1.333483175640442,-2.5266597906695765,6.1104071018989465,1.017317771911621,-2.882385317479269
1708436194.4206781,-2.1418259143829346,-1.3335168075612565,-2.526652161275045,6.110358106880941,1.017346739768982,-2.8824384848224085
1708436194.4226735,-2.1417739391326904,-1.333483250146248,-2.526652161275045,6.110366093903341,1.0173676013946533,-2.8824103514300745
1708436194.4246936,-2.141822338104248,-1.3334918183139344,-2.5266476313220423,6.110402810364523,1.017346739768982,-2.8824265638934534
1708436194.4266727,-2.141871690750122,-1.3334875714829941,-2.5266056696521204,6.1103625176246545,1.0173085927963257,-2.8824222723590296
1708436194.42868,-2.1418309211730957,-1.3334353280118485,-2.526635710393087,6.110353815346517,1.0173420906066895,-2.8824592272387903
1708436194.4306867,-2.1418840885162354,-1.3334799122861405,-2.5265982786761683,6.110390889435568,1.0173704624176025,-2.882421080266134
1708436194.4327166,-2.141805648803711,-1.3335125607303162,-2.5266597906695765,6.110374676972189,1.0173512697219849,-2.882413450871603
1708436194.4346657,-2.141796827316284,-1.3334508699229737,-2.5266476313220423,6.110353815346517,1.0173630714416504,-2.882441822682516
1708436194.4366975,-2.141822338104248,-1.3335361045650025,-2.526569668446676,6.110427844315328,1.017346739768982,-2.8824549357043665
1708436194.4386778,-2.141805648803711,-1.3335003417781373,-2.5266147295581263,6.110432135849752,1.017374873161316,-2.8824830690967005
1708436194.440695,-2.141818046569824,-1.3334679764560242,-2.5266221205340784,6.110374676972189,1.0173840522766113,-2.8824623266803187
1708436194.4426854,-2.141843318939209,-1.3335003417781373,-2.5265982786761683,6.1104071018989465,1.0173250436782837,-2.882425371800558
1708436194.4446745,-2.1418309211730957,-1.3335040670684357,-2.526635710393087,6.110402810364523,1.01736319065094,-2.882441822682516
1708436194.4466577,-2.141839027404785,-1.3334875714829941,-2.526656452809469,6.11041151264266,1.0173511505126953,-2.8824623266803187
1708436194.4486945,-2.141850471496582,-1.3334960502437134,-2.5266056696521204,6.110386597901144,1.0173132419586182,-2.8824504057513636
1708436194.4507189,-2.141818046569824,-1.3335445088199158,-2.526607338582174,6.110366093903341,1.0173296928405762,-2.882458035145895
1708436194.4526844,-2.141822338104248,-1.3335083586028595,-2.526628319417135,6.110395300179281,1.0173087120056152,-2.8824549357043665
1708436194.4546657,-2.141801357269287,-1.3334756654552002,-2.526652161275045,6.110361683159628,1.0173431634902954,-2.882453743611471
1708436194.4566665,-2.141818046569824,-1.333443359737732,-2.526637379323141,6.1103625176246545,1.0173420906066895,-2.8824623266803187
1708436194.4586725,-2.141859292984009,-1.333504081969597,-2.526623789464132,6.110374676972189,1.017337679862976,-2.88246995607485
1708436194.4606879,-2.141839027404785,-1.3334961098483582,-2.5265982786761683,6.110346305161276,1.0173375606536865,-2.88246995607485
1708436194.4626856,-2.141850471496582,-1.3335565489581604,-2.526611868535177,6.110435592919149,1.0173206329345703,-2.882511917744772
1708436194.4646697,-2.141822338104248,-1.3334997308305283,-2.5266147295581263,6.1103625176246545,1.0173839330673218,-2.882486168538229
1708436194.4666767,-2.141801357269287,-1.3334475618651886,-2.5266221205340784,6.110374676972189,1.017317771911621,-2.882441822682516
1708436194.4686856,-2.141822338104248,-1.3335083437016984,-2.5265865961657923,6.1104071018989465,1.0173161029815674,-2.882460896168844
1708436194.4706578,-2.1418309211730957,-1.3334552359632035,-2.526607338582174,6.110370385437765,1.0173087120056152,-2.882437292729513
1708436194.4726942,-2.141818046569824,-1.3335199368051072,-2.526635710393087,6.110333192139425,1.0173087120056152,-2.882458035145895
1708436194.4747002,-2.1418304443359375,-1.3334918183139344,-2.526590887700216,6.110357272415914,1.017346739768982,-2.8824906984912317
1708436194.4766765,-2.141826629638672,-1.3334756654552002,-2.526623789464132,6.110432135849752,1.017346739768982,-2.882449213658468
1708436194.4786606,-2.141801357269287,-1.3335199666074296,-2.526607338582174,6.110353815346517,1.0173630714416504,-2.8824787775622767
1708436194.480659,-2.1418678760528564,-1.333484174018242,-2.526602808629171,6.110361683159628,1.0173375606536865,-2.8824949900256556
1708436194.4826677,-2.1418142318725586,-1.3334875863841553,-2.526595417653219,6.11041151264266,1.0173250436782837,-2.882498804722921
1708436194.4846907,-2.141805648803711,-1.3334714037230988,-2.526619259511129,6.110366093903341,1.017374873161316,-2.8824520746814173
1708436194.4866593,-2.141854763031006,-1.3334552657655259,-2.526590887700216,6.11038230636672,1.0173296928405762,-2.882486168538229
1708436194.4887035,-2.141843318939209,-1.3334637594274064,-2.5266147295581263,6.110390889435568,1.0173087120056152,-2.882481877003805
1708436194.4906833,-2.141839027404785,-1.3334466975978394,-2.526623789464132,6.11038230636672,1.0173296928405762,-2.882437292729513
1708436194.4927082,-2.141826629638672,-1.333496094947197,-2.526607338582174,6.110398518830099,1.0173602104187012,-2.882477347050802
1708436194.4947188,-2.1417784690856934,-1.333528385763504,-2.526632849370138,6.110390889435568,1.0173085927963257,-2.882460896168844
1708436194.4967182,-2.1418304443359375,-1.3334594827941437,-2.5265818277942103,6.1104071018989465,1.0173840522766113,-2.88246995607485
1708436194.4986818,-2.141801357269287,-1.3334714335254212,-2.526578728352682,6.110366093903341,1.017334222793579,-2.882433001195089
1708436194.5007348,-2.141826629638672,-1.3334680062583466,-2.526578728352682,6.110358106880941,1.0172804594039917,-2.882515255604879
1708436194.5027103,-2.1418678760528564,-1.333439053302147,-2.5265546480761927,6.110427844315328,1.017317771911621,-2.882458035145895
1708436194.504696,-2.141822338104248,-1.333459497695305,-2.5265710989581507,6.110419022827902,1.017317771911621,-2.8824787775622767
1708436194.506709,-2.141818046569824,-1.3334679913571854,-2.526595417653219,6.110374676972189,1.017317771911621,-2.8824949900256556
1708436194.5087028,-2.141843318939209,-1.33347141862426,-2.526609007512228,6.110390889435568,1.0172984600067139,-2.882449213658468
1708436194.5106783,-2.141789674758911,-1.333483250146248,-2.5265546480761927,6.110353815346517,1.0173132419586182,-2.8824942747699183
1708436194.512698,-2.1417853832244873,-1.3335040670684357,-2.5265546480761927,6.110370385437765,1.017334222793579,-2.882540289555685
1708436194.5147328,-2.1417810916900635,-1.3334756654552002,-2.5265591780291956,6.110407221108236,1.0173267126083374,-2.882449213658468
1708436194.5167153,-2.141818046569824,-1.3334679764560242,-2.5265710989581507,6.110444295197286,1.0173133611679077,-2.882465664540426
1708436194.5186782,-2.141818046569824,-1.3334756654552002,-2.526545588170187,6.110395300179281,1.0173511505126953,-2.882486168538229
1708436194.5206614,-2.141847848892212,-1.333512620334961,-2.5265756289111536,6.110390889435568,1.017293930053711,-2.882465664540426
1708436194.5226815,-2.1418347358703613,-1.333508313899376,-2.5265427271472376,6.110361683159628,1.0173133611679077,-2.882486168538229
1708436194.5246725,-2.141822338104248,-1.333496094947197,-2.5265262762652796,6.110366809159078,1.01736319065094,-2.882486168538229
1708436194.5266798,-2.141839027404785,-1.3334961247495194,-2.5265443960772913,6.110394227295675,1.0173430442810059,-2.882498804722921
1708436194.5286598,-2.141822338104248,-1.3335168671659012,-2.5265563170062464,6.110390889435568,1.017381191253662,-2.882465664540426
1708436194.5306633,-2.141831159591675,-1.3334347319654007,-2.5265608469592493,6.1103495238120935,1.0172683000564575,-2.882449213658468
1708436194.5326703,-2.141880512237549,-1.333459497695305,-2.526511255894796,6.110377895623007,1.017293930053711,-2.88246995607485
1708436194.5346904,-2.1417856216430664,-1.333447591667511,-2.5265188852893274,6.110386597901144,1.0172938108444214,-2.88246995607485
1708436194.5367014,-2.141801118850708,-1.3334748160890122,-2.526515785847799,6.110357272415914,1.017268180847168,-2.882460896168844
1708436194.5386713,-2.1418027877807617,-1.3334960502437134,-2.5265517870532435,6.11038230636672,1.0173296928405762,-2.8824625650988978
1708436194.5406923,-2.1418137550354004,-1.3334433299354096,-2.526494805012838,6.110402810364523,1.0173431634902954,-2.882519547139303
1708436194.5427008,-2.141859292984009,-1.333439664249756,-2.526473585759298,6.110386597901144,1.0173267126083374,-2.882460896168844
1708436194.5447006,-2.141796827316284,-1.3334552359632035,-2.526482645665304,6.110379087715902,1.0173296928405762,-2.882481877003805
1708436194.5467055,-2.1417853832244873,-1.3334594678929825,-2.5265188852893274,6.110361683159628,1.0172849893569946,-2.8824942747699183
1708436194.5486758,-2.141854763031006,-1.3334467274001618,-2.5265563170062464,6.110374676972189,1.017293930053711,-2.882498804722921
1708436194.5506802,-2.141843318939209,-1.3335125905326386,-2.5265563170062464,6.1103625176246545,1.017293930053711,-2.882503096257345
1708436194.5527024,-2.141839027404785,-1.3334310960820694,-2.5265324751483362,6.1103495238120935,1.0172683000564575,-2.882477347050802
1708436194.5546944,-2.141826629638672,-1.3335199517062684,-2.5265188852893274,6.110334384232321,1.0172683000564575,-2.882461134587423
1708436194.5567057,-2.1418099403381348,-1.333508313899376,-2.5265637079821985,6.110333192139425,1.0172984600067139,-2.882503334675924
1708436194.5586839,-2.141822338104248,-1.3334629398635407,-2.5264902750598353,6.1103625176246545,1.0173267126083374,-2.882465664540426
1708436194.5606704,-2.141822338104248,-1.3334885400584717,-2.526511255894796,6.110390889435568,1.0172486305236816,-2.882481877003805
1708436194.5626996,-2.1418347358703613,-1.3334841889194031,-2.5265563170062464,6.110379087715902,1.017317771911621,-2.882465664540426
1708436194.564695,-2.141850471496582,-1.333488480453827,-2.5265279451953333,6.110353815346517,1.0173312425613403,-2.882481877003805
1708436194.5666857,-2.1417810916900635,-1.3334433001330872,-2.526499334965841,6.11041151264266,1.0172817707061768,-2.882481877003805
1708436194.5686724,-2.141796827316284,-1.3334799122861405,-2.5265279451953333,6.110423433571615,1.0172772407531738,-2.882486168538229
1708436194.5706532,-2.1417899131774902,-1.333455280666687,-2.526515785847799,6.110379087715902,1.0172698497772217,-2.8824942747699183
1708436194.572682,-2.1417698860168457,-1.3334508848241349,-2.5265324751483362,6.110435592919149,1.0173029899597168,-2.882481877003805
1708436194.5746653,-2.1417856216430664,-1.3334841591170807,-2.526515785847799,6.11034511306838,1.0172654390335083,-2.882486168538229
1708436194.5767097,-2.141794204711914,-1.3334756654552002,-2.5265217463122767,6.110414731293478,1.0173029899597168,-2.882503096257345
1708436194.5786684,-2.141847848892212,-1.3334961396506806,-2.5265021959887903,6.110340821533956,1.0172367095947266,-2.882503334675924
1708436194.5806704,-2.1418142318725586,-1.3334518384984513,-2.526511255894796,6.110389816551962,1.0173029899597168,-2.882465664540426
1708436194.582691,-2.141801357269287,-1.3335126054337998,-2.5265021959887903,6.110407221108236,1.0172653198242188,-2.882498804722921
1708436194.5846975,-2.1418347358703613,-1.3334310215762635,-2.5265443960772913,6.110353815346517,1.0172863006591797,-2.8824942747699183
1708436194.5866656,-2.1418185234069824,-1.333447517161705,-2.5265608469592493,6.110427844315328,1.0172654390335083,-2.88246995607485
1708436194.5887165,-2.141846179962158,-1.333487556581833,-2.5265472571002405,6.110374676972189,1.0172531604766846,-2.88246995607485
1708436194.5906727,-2.1417853832244873,-1.3334586334279557,-2.5265188852893274,6.110370385437765,1.0172743797302246,-2.8824742476092737
1708436194.5927022,-2.141839027404785,-1.333508313899376,-2.5264976660357874,6.110399591713705,1.0172351598739624,-2.882486168538229
1708436194.5947003,-2.141805648803711,-1.33347141862426,-2.526499334965841,6.110390889435568,1.0172654390335083,-2.882523838673727
1708436194.596666,-2.1417739391326904,-1.33347141862426,-2.5265443960772913,6.110374676972189,1.0172743797302246,-2.8824403921710413
1708436194.5986805,-2.1418347358703613,-1.333475650554039,-2.5264902750598353,6.11034523227767,1.0172817707061768,-2.882498804722921
1708436194.6006887,-2.141843318939209,-1.3334475767663498,-2.5264769236194056,6.110358106880941,1.0172576904296875,-2.8824668566333216
1708436194.602702,-2.141839027404785,-1.3334756654552002,-2.5265188852893274,6.110366093903341,1.017295241355896,-2.882444683705465
1708436194.6046941,-2.141871690750122,-1.3334714037230988,-2.5265324751483362,6.11041151264266,1.0172698497772217,-2.882449213658468
1708436194.60667,-2.141801357269287,-1.3334552210620423,-2.526494805012838,6.110358106880941,1.0172698497772217,-2.8824241797076624
1708436194.6086898,-2.1418099403381348,-1.3334552508643647,-2.5264814535724085,6.1104071018989465,1.0172908306121826,-2.8824742476092737
1708436194.6106997,-2.141822338104248,-1.3334791374257584,-2.5264859835254114,6.110378014832296,1.0172743797302246,-2.8824899832354944
1708436194.6126776,-2.1418304443359375,-1.3334433448365708,-2.5265517870532435,6.110341894417562,1.0172621011734009,-2.882453743611471
1708436194.6147332,-2.141846179962158,-1.3335284006646653,-2.5265021959887903,6.110349404602804,1.0172412395477295,-2.882421080266134
1708436194.61674,-2.1417739391326904,-1.3334918332150956,-2.5265279451953333,6.110379087715902,1.0172322988510132,-2.882441822682516
1708436194.6186974,-2.1417853832244873,-1.333463729625084,-2.526499334965841,6.110390889435568,1.0172698497772217,-2.882453743611471
1708436194.6207101,-2.1418099403381348,-1.3335083735040207,-2.5265398661242884,6.110374676972189,1.0172789096832275,-2.882433001195089
1708436194.6226914,-2.1418099403381348,-1.3335168671659012,-2.5265398661242884,6.110399591713705,1.0172531604766846,-2.882465664540426
1708436194.624705,-2.1417899131774902,-1.333519921903946,-2.526537005101339,6.110361683159628,1.0172457695007324,-2.882486168538229
1708436194.6266646,-2.1418304443359375,-1.3334918332150956,-2.5265489260302942,6.110386597901144,1.0172336101531982,-2.88246995607485
1708436194.6286664,-2.1418073177337646,-1.3335361939719697,-2.526511255894796,6.1104400036628626,1.0172711610794067,-2.882486168538229
1708436194.6306977,-2.141826629638672,-1.3334756952575226,-2.5265234152423304,6.110361683159628,1.0172531604766846,-2.8824742476092737
1708436194.6327007,-2.141859292984009,-1.333515615468361,-2.526494805012838,6.11034511306838,1.0172412395477295,-2.8824623266803187
1708436194.6346736,-2.1418678760528564,-1.333524228339531,-2.526511255894796,6.110374676972189,1.0172548294067383,-2.8824461142169397
1708436194.6366765,-2.1418347358703613,-1.3334756356528779,-2.5265398661242884,6.110361683159628,1.0172743797302246,-2.8824742476092737
1708436194.6386743,-2.141798496246338,-1.3335317534259339,-2.5264902750598353,6.110414731293478,1.0172412395477295,-2.882458035145895
1708436194.640677,-2.1418259143829346,-1.3334263873151322,-2.5264814535724085,6.110353815346517,1.0172200202941895,-2.882465664540426
1708436194.6426718,-2.141846179962158,-1.3334875714829941,-2.526586119328634,6.1103625176246545,1.0172200202941895,-2.882465664540426
1708436194.6447072,-2.1418137550354004,-1.333488480453827,-2.5265234152423304,6.1103495238120935,1.0172667503356934,-2.88252836862673
1708436194.6466696,-2.141850471496582,-1.3334509295276185,-2.5265188852893274,6.110383379250326,1.0172380208969116,-2.8824873606311243
1708436194.6486814,-2.1418142318725586,-1.3335125607303162,-2.5265443960772913,6.110353815346517,1.0172216892242432,-2.8824995199786585
1708436194.6506732,-2.1417856216430664,-1.333422602420189,-2.526553217564718,6.110386597901144,1.017208218574524,-2.8824873606311243
1708436194.6526713,-2.1418137550354004,-1.3334509295276185,-2.5265443960772913,6.110395300179281,1.0172667503356934,-2.882458035145895
1708436194.6546786,-2.141805648803711,-1.3334997755340119,-2.5265234152423304,6.110414731293478,1.0172172784805298,-2.8824461142169397
1708436194.656671,-2.1417899131774902,-1.333459497695305,-2.526478115712301,6.110379087715902,1.0172457695007324,-2.88246995607485
1708436194.6586797,-2.141843557357788,-1.3334552210620423,-2.5265021959887903,6.11041151264266,1.0172336101531982,-2.8824787775622767
1708436194.6606982,-2.1418099403381348,-1.3334756654552002,-2.5264902750598353,6.110408293991842,1.0171962976455688,-2.882421080266134
1708436194.6626675,-2.141839027404785,-1.3334670972875138,-2.5265443960772913,6.110379087715902,1.0172380208969116,-2.882458035145895
1708436194.6647003,-2.1418099403381348,-1.3334960800460358,-2.526499334965841,6.110395300179281,1.0172172784805298,-2.8824668566333216
1708436194.666678,-2.141794204711914,-1.3334586930326005,-2.5265398661242884,6.1103625176246545,1.0172711610794067,-2.8824592272387903
1708436194.6687086,-2.1418347358703613,-1.3335284006646653,-2.5265234152423304,6.110358106880941,1.017241358757019,-2.8824549357043665
1708436194.6706765,-2.141843318939209,-1.3334918332150956,-2.5265024344073694,6.1103625176246545,1.0171841382980347,-2.8824167887317103
1708436194.6726792,-2.1418347358703613,-1.3334960800460358,-2.5265234152423304,6.110361683159628,1.0172637701034546,-2.882429901753561
1708436194.6746836,-2.1418099403381348,-1.333475650554039,-2.526511255894796,6.110366093903341,1.0172171592712402,-2.8824549357043665
1708436194.6766765,-2.1417572498321533,-1.3334875863841553,-2.526499334965841,6.1104562161262415,1.0172260999679565,-2.882421080266134
1708436194.678682,-2.141796827316284,-1.3335404259017487,-2.5264859835254114,6.110328900605001,1.017209768295288,-2.8824341932879847
1708436194.6807196,-2.141822338104248,-1.3335326474956055,-2.526520315800802,6.110444295197286,1.0172008275985718,-2.882404629384176
1708436194.6826942,-2.1418070793151855,-1.333455206160881,-2.5265770594226282,6.1103625176246545,1.017209768295288,-2.8824830690967005
1708436194.6846967,-2.141854763031006,-1.333462954764702,-2.526494805012838,6.110337602883138,1.0172260999679565,-2.8824341932879847
1708436194.686693,-2.141847610473633,-1.3335003119758149,-2.5265443960772913,6.110390889435568,1.017226219177246,-2.8824473063098353
1708436194.688692,-2.1417899131774902,-1.3334841591170807,-2.5265398661242884,6.11041151264266,1.0172053575515747,-2.882463518773214
1708436194.6906962,-2.1418142318725586,-1.3334552508643647,-2.526565138493673,6.110379087715902,1.017176628112793,-2.8824148813830774
1708436194.692733,-2.141854763031006,-1.3334475320628663,-2.526548687611715,6.110353815346517,1.017188549041748,-2.8824222723590296
1708436194.6946936,-2.141875982284546,-1.3335125607303162,-2.5264902750598353,6.11034511306838,1.0172216892242432,-2.8824179808246058
1708436194.6966822,-2.141839027404785,-1.3334347617677231,-2.5264976660357874,6.110395300179281,1.0172053575515747,-2.8824179808246058
1708436194.6986876,-2.1418027877807617,-1.3334552508643647,-2.526511255894796,6.110386597901144,1.0172008275985718,-2.8824384848224085
1708436194.700682,-2.1417853832244873,-1.3335155856660386,-2.5265443960772913,6.110358106880941,1.0172216892242432,-2.8823726812945765
1708436194.7027,-2.141789674758911,-1.3334830862334748,-2.526494805012838,6.1103495238120935,1.017209768295288,-2.8823941389666956
1708436194.7046845,-2.1417899131774902,-1.3334670972875138,-2.5265725294696253,6.110358106880941,1.0172425508499146,-2.8823726812945765
1708436194.7066898,-2.1418309211730957,-1.333488480453827,-2.5265324751483362,6.110370385437765,1.017193078994751,-2.882423702870504
1708436194.7087028,-2.141794204711914,-1.3334960800460358,-2.5264859835254114,6.110423433571615,1.0171812772750854,-2.882407251988546
1708436194.7106755,-2.141794204711914,-1.3334629398635407,-2.5265143553363245,6.110353815346517,1.017176628112793,-2.882374111806051
1708436194.7126875,-2.141822338104248,-1.3334254336408158,-2.5264814535724085,6.1103495238120935,1.017226219177246,-2.8824058214770716
1708436194.714739,-2.141850471496582,-1.3335157346776505,-2.5264902750598353,6.110358106880941,1.017193078994751,-2.8823915163623255
1708436194.7167099,-2.141831159591675,-1.3335246306708832,-2.526511255894796,6.110361683159628,1.0172020196914673,-2.882369581853048
1708436194.718672,-2.141850471496582,-1.33347141862426,-2.5265353361712855,6.110366093903341,1.0172021389007568,-2.8823545614825647
1708436194.7207057,-2.141805648803711,-1.3334021133235474,-2.5265067259417933,6.1103495238120935,1.017197608947754,-2.882301394139425
1708436194.7226977,-2.141826629638672,-1.3334593635848542,-2.5264902750598353,6.1103495238120935,1.0171689987182617,-2.88236648241152
1708436194.7246885,-2.141850471496582,-1.3334997457316895,-2.526515785847799,6.110374676972189,1.017214298248291,-2.882322136555807
1708436194.7267144,-2.1417784690856934,-1.3334637594274064,-2.5265100638019007,6.110427844315328,1.0171599388122559,-2.8823633829699915
1708436194.7286868,-2.141789674758911,-1.3334756654552002,-2.5265234152423304,6.110395300179281,1.0171812772750854,-2.882322136555807
1708436194.7306674,-2.1418521404266357,-1.3334963780692597,-2.526515785847799,6.110395300179281,1.0171735286712646,-2.8822975794421595
1708436194.732715,-2.141818046569824,-1.3334549528411408,-2.526548687611715,6.110379087715902,1.0171644687652588,-2.882272545491354
1708436194.7347014,-2.1418347358703613,-1.3334467721036454,-2.5265021959887903,6.11041151264266,1.0171902179718018,-2.8823590914355677
1708436194.7367003,-2.141794204711914,-1.3335125309279938,-2.526470724736349,6.1103625176246545,1.0171434879302979,-2.882301394139425
1708436194.738667,-2.141846179962158,-1.3334433299354096,-2.5265398661242884,6.110353815346517,1.017177939414978,-2.882251803074972
1708436194.74068,-2.1418347358703613,-1.3334679913571854,-2.526499334965841,6.110370385437765,1.0171449184417725,-2.8823352495776575
1708436194.7426999,-2.141822338104248,-1.3334430319121857,-2.526511255894796,6.110379087715902,1.017124056816101,-2.8823278586017054
1708436194.744678,-2.1417856216430664,-1.3335125607303162,-2.5265067259417933,6.110374676972189,1.0171284675598145,-2.8822858969317835
1708436194.7467203,-2.141796827316284,-1.3334889572909852,-2.5265324751483362,6.110427844315328,1.0171571969985962,-2.8822975794421595
1708436194.748692,-2.141826629638672,-1.3334461462548752,-2.526499334965841,6.110358106880941,1.0172038078308105,-2.8822975794421595
1708436194.7506769,-2.141826629638672,-1.3334430319121857,-2.526482645665304,6.110358106880941,1.0171494483947754,-2.8822649160968226
1708436194.7527144,-2.1418304443359375,-1.3335125607303162,-2.526598040257589,6.110395300179281,1.0171494483947754,-2.8822768370257776
1708436194.7547045,-2.141843318939209,-1.3334593337825318,-2.5265489260302942,6.11038230636672,1.017177939414978,-2.8822858969317835
1708436194.756697,-2.141818046569824,-1.3334997457316895,-2.526499334965841,6.110374676972189,1.0171616077423096,-2.8823233286487024
1708436194.7586749,-2.141826629638672,-1.3334340912154694,-2.526499334965841,6.110419022827902,1.0171329975128174,-2.8823064009295862
1708436194.7606952,-2.141805648803711,-1.333496407871582,-2.5265067259417933,6.11038230636672,1.0171284675598145,-2.8822243849383753
1708436194.7627044,-2.1418309211730957,-1.3334960800460358,-2.526499334965841,6.110358106880941,1.0171494483947754,-2.8822739760028284
1708436194.7647002,-2.141859292984009,-1.3335042309812088,-2.526548687611715,6.11038230636672,1.0171494483947754,-2.8822901884662073
1708436194.7667012,-2.141805648803711,-1.3335125607303162,-2.526494805012838,6.11038230636672,1.0171538591384888,-2.8822901884662073
1708436194.768689,-2.1417925357818604,-1.3335284006646653,-2.526494805012838,6.110431301384725,1.0171494483947754,-2.882270638142721
1708436194.770673,-2.1417810916900635,-1.3334960800460358,-2.526494805012838,6.110410439759054,1.0171661376953125,-2.882310930882589
1708436194.7727163,-2.1418354511260986,-1.333426372413971,-2.5265324751483362,6.11041151264266,1.0171375274658203,-2.882294480000631
1708436194.7746756,-2.141850471496582,-1.33345182359729,-2.5265021959887903,6.110349404602804,1.0171583890914917,-2.882221285496847
1708436194.7767067,-2.141801357269287,-1.3334561449340363,-2.5265489260302942,6.110422599106588,1.0171419382095337,-2.8822782675372522
1708436194.778681,-2.141826629638672,-1.3335202199271698,-2.5265608469592493,6.110414731293478,1.0171583890914917,-2.882287089024679
1708436194.7807043,-2.1418309211730957,-1.33345182359729,-2.526511255894796,6.110395300179281,1.0171375274658203,-2.882228676472799
1708436194.7826846,-2.141843557357788,-1.3335290563157578,-2.5265324751483362,6.110373604088583,1.0171583890914917,-2.882266346608297
1708436194.7847319,-2.141796827316284,-1.3335008186152955,-2.526473585759298,6.110414731293478,1.0171300172805786,-2.8822739760028284
1708436194.7866957,-2.141847848892212,-1.3334670972875138,-2.526515785847799,6.110423433571615,1.0171136856079102,-2.8822413126574915
1708436194.7886698,-2.1417696475982666,-1.3334799122861405,-2.5265443960772913,6.110398518830099,1.0170966386795044,-2.882282559071676
1708436194.7907012,-2.1418590545654297,-1.333508626823761,-2.5265188852893274,6.110402810364523,1.0171211957931519,-2.882233206425802
1708436194.7926881,-2.1417925357818604,-1.3334268492511292,-2.5265324751483362,6.1104071018989465,1.0170966386795044,-2.882254425679342
1708436194.7947009,-2.141826629638672,-1.3334918332150956,-2.526511255894796,6.110378014832296,1.0171464681625366,-2.882275168095724
1708436194.796677,-2.141801357269287,-1.333521918659546,-2.526466194783346,6.110463487892904,1.0171047449111938,-2.8822243849383753
1708436194.7986698,-2.1418137550354004,-1.3335202199271698,-2.5265188852893274,6.110402810364523,1.0171136856079102,-2.8822501341449183
1708436194.8006887,-2.1417696475982666,-1.333459497695305,-2.5265067259417933,6.1104562161262415,1.0171136856079102,-2.8822301069842737
1708436194.8026946,-2.1418304443359375,-1.3334549528411408,-2.526494805012838,6.11044322231368,1.0171136856079102,-2.882270638142721
1708436194.8046963,-2.141805648803711,-1.3334844571403046,-2.526494805012838,6.110402810364523,1.0170966386795044,-2.882299009953634
1708436194.8066926,-2.141826629638672,-1.3334518384984513,-2.526478115712301,6.110438811569967,1.0170730352401733,-2.882228676472799
1708436194.8086958,-2.1418228149414062,-1.3334919971278687,-2.5264857451068323,6.110418307572164,1.0170848369598389,-2.882303301488058
1708436194.810681,-2.141826629638672,-1.333500788812973,-2.526487175618307,6.110410439759054,1.0171136856079102,-2.882237497960226
1708436194.8126764,-2.141839027404785,-1.333508626823761,-2.526466194783346,6.110398518830099,1.0170966386795044,-2.882237497960226
1708436194.8147223,-2.141801357269287,-1.333468110566475,-2.526499334965841,6.11034511306838,1.017063856124878,-2.882294480000631
1708436194.816697,-2.141822338104248,-1.3334756654552002,-2.526473585759298,6.110419022827902,1.0171102285385132,-2.88222581544985
1708436194.8186946,-2.1418304443359375,-1.3334340912154694,-2.526475254689352,6.110431301384725,1.017075777053833,-2.8821962515460413
1708436194.820707,-2.141822338104248,-1.333471269612648,-2.526478115712301,6.110431301384725,1.0170848369598389,-2.882263247166769
1708436194.8226895,-2.1417765617370605,-1.3334997457316895,-2.526494805012838,6.110393154412069,1.0170849561691284,-2.882204834614889
1708436194.824725,-2.1418304443359375,-1.3334844571403046,-2.526503864918844,6.110438811569967,1.017075777053833,-2.882233206425802
1708436194.8266783,-2.1418304443359375,-1.3334624779275437,-2.526494805012838,6.110463487892904,1.0170849561691284,-2.8822463194476526
1708436194.8286855,-2.141822338104248,-1.3334875714829941,-2.526494805012838,6.110422599106588,1.0170685052871704,-2.882204834614889
1708436194.830693,-2.1418347358703613,-1.3334461611560364,-2.526496235524313,6.11044322231368,1.017122745513916,-2.8822301069842737
1708436194.832695,-2.14176082611084,-1.3334552657655259,-2.526499334965841,6.110389816551962,1.0170937776565552,-2.8822389284717005
1708436194.8346963,-2.1418304443359375,-1.3334681403687973,-2.526520315800802,6.11045919635848,1.0170685052871704,-2.8821805159198206
1708436194.836667,-2.141839027404785,-1.3335042011788865,-2.5264902750598353,6.110385525017538,1.0170685052871704,-2.8821967283831995
1708436194.838675,-2.141826629638672,-1.3335452240756531,-2.526499334965841,6.110401737480917,1.0170966386795044,-2.8822181860553187
1708436194.8407028,-2.141818046569824,-1.333484486942627,-2.526479784642355,6.110401618271627,1.017143726348877,-2.8822227160083216
1708436194.8426857,-2.1418142318725586,-1.3334756654552002,-2.52651292482485,6.110406029015341,1.017127275466919,-2.8822272459613245
1708436194.8446774,-2.1418347358703613,-1.3335052740624924,-2.5264857451068323,6.110388624459066,1.0170893669128418,-2.8821776548968714
1708436194.8466618,-2.141839027404785,-1.3335086566260834,-2.526482645665304,6.110418307572164,1.017127275466919,-2.8821776548968714
1708436194.8486688,-2.141859292984009,-1.3334417206100007,-2.526529375706808,6.110389816551962,1.0170893669128418,-2.882214609776632
1708436194.8506691,-2.141847610473633,-1.333447427754738,-2.526482645665304,6.110438811569967,1.0171136856079102,-2.8821614424334925
1708436194.8526726,-2.1418843269348145,-1.3334504526904603,-2.526520315800802,6.110434520035543,1.0171012878417969,-2.8822057882892054
1708436194.8546643,-2.141850471496582,-1.3335130226663132,-2.526499334965841,6.1104140160377405,1.0171056985855103,-2.882119957600729
1708436194.8567064,-2.1418137550354004,-1.333487556581833,-2.526494805012838,6.110430347710409,1.0170937776565552,-2.8822057882892054
1708436194.85866,-2.1418135166168213,-1.3334919822267075,-2.526475254689352,6.110470998078146,1.0171146392822266,-2.8822312990771692
1708436194.8606877,-2.141850471496582,-1.333496407871582,-2.526499334965841,6.1104832766349695,1.017098307609558,-2.8821776548968714
1708436194.862699,-2.1418092250823975,-1.333413080578186,-2.526466194783346,6.110470998078146,1.0170938968658447,-2.8821657339679163
1708436194.8646884,-2.141846179962158,-1.3334593337825318,-2.5264902750598353,6.110437500267782,1.0170849561691284,-2.8821449915515345
1708436194.8666835,-2.141822338104248,-1.3335114282420655,-2.526508394871847,6.110424506455221,1.0170818567276,-2.882186237965719
1708436194.8686705,-2.1418092250823975,-1.3335174781135102,-2.526470724736349,6.1104493019874475,1.0170818567276,-2.8821993509875696
1708436194.87068,-2.1417853832244873,-1.3334831160357972,-2.526562515889303,6.1104702828224084,1.0170818567276,-2.8821373621570032
1708436194.8726773,-2.141843318939209,-1.3334667545608063,-2.52649170557131,6.110489833145895,1.0170774459838867,-2.882162396107809
1708436194.8746748,-2.141854763031006,-1.333499701028206,-2.526520315800802,6.11049102523879,1.0170849561691284,-2.882162396107809
1708436194.8766978,-2.1418886184692383,-1.3335130375674744,-2.526503864918844,6.110498416214742,1.017052173614502,-2.882158104573385
1708436194.878692,-2.141850709915161,-1.333508626823761,-2.526445452366964,6.1105313179786584,1.0170488357543945,-2.8821330706225794
1708436194.880713,-2.1418304443359375,-1.33346679926429,-2.526520315800802,6.110489833145895,1.0170865058898926,-2.882206980382101
1708436194.8826768,-2.1417899131774902,-1.333483101134636,-2.526494805012838,6.1105388281639,1.0170700550079346,-2.882162396107809
1708436194.8846781,-2.1418137550354004,-1.3335042309812088,-2.526461903248922,6.1104973433311365,1.0170655250549316,-2.882129971181051
1708436194.8866909,-2.1418092250823975,-1.3335096699050446,-2.526478115712301,6.11047254779891,1.0170609951019287,-2.882178846989767
1708436194.8886895,-2.1417810916900635,-1.3334830713323136,-2.526503864918844,6.110476720124044,1.0170655250549316,-2.8821373621570032
1708436194.8906927,-2.1418843269348145,-1.3334681254676362,-2.526494805012838,6.1104973433311365,1.017011284828186,-2.882174317036764
1708436194.8926985,-2.141846179962158,-1.333450437789299,-2.526482645665304,6.110546338349142,1.0170398950576782,-2.8821538130389612
1708436194.8946881,-2.1418416500091553,-1.33350424588237,-2.5265489260302942,6.110488760262289,1.0170865058898926,-2.882206980382101
1708436194.8966706,-2.1418135166168213,-1.3334919971278687,-2.526454273854391,6.110565888672628,1.0170565843582153,-2.882141892110006
1708436194.8986843,-2.1418259143829346,-1.3334830564311524,-2.526508394871847,6.1105388281639,1.0170611143112183,-2.8822038809405726
1708436194.90067,-2.1418673992156982,-1.3335007739118119,-2.526466194783346,6.110531198769369,1.0170279741287231,-2.8821492830859583
1708436194.9026906,-2.1418304443359375,-1.3334875863841553,-2.526508394871847,6.110546338349142,1.0170865058898926,-2.88217002550234
1708436194.9046714,-2.1418673992156982,-1.3334681552699585,-2.52649170557131,6.110534417420187,1.0170848369598389,-2.8822084108935755
1708436194.906694,-2.141871690750122,-1.333508626823761,-2.526473585759298,6.110559451370992,1.0170655250549316,-2.8821550051318567
1708436194.9086816,-2.1418304443359375,-1.3335130375674744,-2.526508394871847,6.1105388281639,1.0170865058898926,-2.882141892110006
1708436194.910673,-2.141850471496582,-1.3334699434093018,-2.526515785847799,6.110481011658468,1.0170533657073975,-2.8821595350848597
1708436194.9126987,-2.1418673992156982,-1.333513007765152,-2.526479784642355,6.110525834351339,1.0170488357543945,-2.8821876684771937
1708436194.9147015,-2.1418259143829346,-1.3334800612977524,-2.526470724736349,6.110542046814718,1.0170865058898926,-2.8821550051318567
1708436194.916707,-2.1418416500091553,-1.3335042309812088,-2.526466194783346,6.110557901650228,1.0170414447784424,-2.8821099440204065
1708436194.9186935,-2.1418673992156982,-1.3335130375674744,-2.5264678637133997,6.110518204956808,1.0170819759368896,-2.88214618364443
1708436194.9206839,-2.1418673992156982,-1.33343859136615,-2.526496235524313,6.110517132073202,1.0170774459838867,-2.88210112253298
1708436194.9227066,-2.1418840885162354,-1.3334593337825318,-2.5264843145953577,6.110565888672628,1.0170865058898926,-2.882138792668478
1708436194.9246988,-2.141850471496582,-1.333450512295105,-2.526520315800802,6.1104973433311365,1.0170369148254395,-2.8821550051318567
1708436194.9266942,-2.1418673992156982,-1.3335174781135102,-2.526466194783346,6.110473501473226,1.0170655250549316,-2.882134262715475
1708436194.928715,-2.1418137550354004,-1.3335129630616684,-2.526437822972433,6.110525834351339,1.0170533657073975,-2.8820892016040247
1708436194.930672,-2.1418585777282715,-1.3334875863841553,-2.5264723936664026,6.1105666039283655,1.0170443058013916,-2.88210112253298
1708436194.9327083,-2.1418216228485107,-1.33345182359729,-2.526470724736349,6.110525834351339,1.017032504081726,-2.8821099440204065
1708436194.9346962,-2.141850471496582,-1.3334756654552002,-2.526463333760397,6.110550629883566,1.017020344734192,-2.8821218649493616
1708436194.9366872,-2.1418709754943848,-1.333480106001236,-2.526466194783346,6.110505330353536,1.0170247554779053,-2.8821550051318567
1708436194.9386861,-2.1418840885162354,-1.3334800761989136,-2.526470724736349,6.1105666039283655,1.0170323848724365,-2.882096592579977
1708436194.9406915,-2.141846179962158,-1.3335086566260834,-2.526470724736349,6.110558020859518,1.0170533657073975,-2.882129971181051
1708436194.9427142,-2.1418797969818115,-1.3335587245276947,-2.526458803807394,6.110505330353536,1.0170292854309082,-2.8821218649493616
1708436194.9447114,-2.1418046951293945,-1.3334875714829941,-2.526449743901388,6.110607015877523,1.0170369148254395,-2.8821099440204065
1708436194.9466763,-2.141849994659424,-1.3334341955235978,-2.526437822972433,6.110534417420187,1.016994833946228,-2.8821218649493616
1708436194.9487016,-2.1418347358703613,-1.333475650554039,-2.526479784642355,6.110534417420187,1.0170247554779053,-2.882118527089254
1708436194.9507124,-2.1418752670288086,-1.3334593337825318,-2.526508394871847,6.110506045609274,1.0170129537582397,-2.88210112253298
1708436194.9527392,-2.141846179962158,-1.3335052740624924,-2.52651292482485,6.110546338349142,1.0170247554779053,-2.8821218649493616
1708436194.9547298,-2.141876220703125,-1.333447442655899,-2.5264347235309046,6.110542046814718,1.0170369148254395,-2.882084671651022
1708436194.956707,-2.1418216228485107,-1.333459348683693,-2.5264843145953577,6.110547530442037,1.0170578956604004,-2.882080380116598
1708436194.9586694,-2.1418585777282715,-1.3334219467690964,-2.5264514128314417,6.110537874489584,1.0170202255249023,-2.882052246724264
1708436194.9606705,-2.1418585777282715,-1.3334712547114869,-2.5264514128314417,6.110575306206503,1.0170369148254395,-2.882080380116598
1708436194.9626715,-2.141911268234253,-1.3334430021098633,-2.526442352925436,6.110557901650228,1.017000675201416,-2.8821023146258753
1708436194.9646835,-2.1419224739074707,-1.3334756654552002,-2.5264678637133997,6.110534417420187,1.0170292854309082,-2.8821056524859827
1708436194.9666986,-2.1418709754943848,-1.3334264618209382,-2.526454273854391,6.110557901650228,1.017021894454956,-2.882089440022604
1708436194.9688506,-2.1418797969818115,-1.3334637743285676,-2.5264769236194056,6.110555040627279,1.0170550346374512,-2.8821023146258753
1708436194.971075,-2.1418585777282715,-1.3334340912154694,-2.5264843145953577,6.110583174019613,1.0170173645019531,-2.8821261564837855
1708436194.972696,-2.1418304443359375,-1.333496407871582,-2.5264559427844446,6.110545027046957,1.0170173645019531,-2.8821306864367884
1708436194.9746943,-2.1418373584747314,-1.3335246604732056,-2.5264483133899134,6.110500919609823,1.0170338153839111,-2.8820861021624964
1708436194.9766877,-2.1418373584747314,-1.3334593337825318,-2.5264182726489466,6.110545027046957,1.0170129537582397,-2.8820610682116907
1708436194.9786675,-2.1418416500091553,-1.3334563237479706,-2.5264228026019495,6.110571014672079,1.017005205154419,-2.8821261564837855
1708436194.980683,-2.1418709754943848,-1.3334997457316895,-2.5264151732074183,6.110546338349142,1.017021894454956,-2.8820818106280726
1708436194.9827056,-2.1418330669403076,-1.3335130673697968,-2.5264106432544153,6.1104973433311365,1.0169798135757446,-2.8821023146258753
1708436194.984705,-2.1418304443359375,-1.3334756654552002,-2.526424233113424,6.110537874489584,1.016988754272461,-2.8821023146258753
1708436194.9866855,-2.141846179962158,-1.3334919971278687,-2.526386801396505,6.110537874489584,1.017021894454956,-2.8820861021624964
1708436194.9886887,-2.141909599304199,-1.333443046813347,-2.5263658205615442,6.110537755280294,1.0170141458511353,-2.8821068445788782
1708436194.9906964,-2.1418542861938477,-1.3335219782641907,-2.5263822714435022,6.1105666039283655,1.017005205154419,-2.8820534388171595
1708436194.9926922,-2.1418938636779785,-1.3334800761989136,-2.526403252278463,6.110522615700521,1.017005205154419,-2.8820741812335413
1708436194.9946847,-2.1418585777282715,-1.3334263426116486,-2.526400391255514,6.11050962188796,1.0170128345489502,-2.882050339375631
1708436194.9966946,-2.141862392425537,-1.3335130673697968,-2.5263493696795862,6.110513913422384,1.0170338153839111,-2.8821287790881556
1708436194.998671,-2.1418840885162354,-1.3334667843631287,-2.526383940373556,6.110562312393942,1.0170505046844482,-2.8820861021624964
1708436195.000669,-2.1418542861938477,-1.3334919971278687,-2.526388470326559,6.110512840538778,1.0169798135757446,-2.882078472767965
1708436195.0026803,-2.1418416500091553,-1.3334386062673111,-2.526346270238058,6.110542046814718,1.016972303390503,-2.882094923649923
1708436195.0046904,-2.14186692237854,-1.3334594380906601,-2.526388470326559,6.110577809601583,1.0170141458511353,-2.8820741812335413
1708436195.006698,-2.1418330669403076,-1.3334919524243851,-2.526358429585592,6.110517132073202,1.0170336961746216,-2.8820341269122522
1708436195.0086937,-2.141862392425537,-1.33350424588237,-2.526367489491598,6.110509502678671,1.017005205154419,-2.882050339375631
1708436195.0106778,-2.141845703125,-1.3334549528411408,-2.526362959538595,6.1105666039283655,1.016984224319458,-2.882017199193136
1708436195.0126777,-2.1418581008911133,-1.3334297698787232,-2.526395861302511,6.110505330353536,1.0170232057571411,-2.8820303122149866
1708436195.014682,-2.1418259143829346,-1.3334875863841553,-2.526391331349508,6.110534417420187,1.017005205154419,-2.8820140997516077
1708436195.0166936,-2.141902446746826,-1.3334712547114869,-2.526428763066427,6.110513913422384,1.017005205154419,-2.881993357335226
1708436195.0186887,-2.1418373584747314,-1.333537982111313,-2.526367489491598,6.110525834351339,1.017026424407959,-2.881998840962545
1708436195.0207086,-2.1418542861938477,-1.3335174334100266,-2.526329580937521,6.110595094948568,1.0169888734817505,-2.8819740454303187
1708436195.0227034,-2.1418824195861816,-1.3334800761989136,-2.526362959538595,6.110555159836569,1.0169724225997925,-2.8819740454303187
1708436195.0246844,-2.1418585777282715,-1.3334233325770875,-2.526395861302511,6.110500919609823,1.0169724225997925,-2.8819075266467493
1708436195.0267003,-2.1418955326080322,-1.3335246753743668,-2.526416842137472,6.110553729325094,1.0169601440429688,-2.8819707075702112
1708436195.028679,-2.1418910026550293,-1.3334963482669373,-2.526337210332052,6.110534417420187,1.0170186758041382,-2.881984059010641
1708436195.030705,-2.1418752670288086,-1.3334963929704209,-2.526372019444601,6.110505330353536,1.0169858932495117,-2.88198692003359
1708436195.032714,-2.1418581008911133,-1.3334681552699585,-2.526315991078512,6.1105702994163416,1.0169646739959717,-2.881899897252218
1708436195.0346892,-2.141866683959961,-1.3334800761989136,-2.526367489491598,6.1105388281639,1.0169976949691772,-2.8819220701800745
1708436195.0366933,-2.1418895721435547,-1.3334341657212754,-2.526358429585592,6.110521542816915,1.0169932842254639,-2.881885353718893
1708436195.038683,-2.14186954498291,-1.333442972307541,-2.526379410420553,6.110517132073202,1.0169692039489746,-2.8818982283221644
1708436195.0406888,-2.141902446746826,-1.3334549230388184,-2.526367489491598,6.110513913422384,1.016984224319458,-2.8818627039538782
1708436195.042683,-2.141909599304199,-1.3334964227727433,-2.5263598600970667,6.110489833145895,1.0169737339019775,-2.8818369547473353
1708436195.0446963,-2.141902446746826,-1.3334756654552002,-2.526407782231466,6.110521542816915,1.0169692039489746,-2.8818545977221888
1708436195.0466743,-2.1418938636779785,-1.333484486942627,-2.526350800191061,6.1105666039283655,1.0170097351074219,-2.8817644754992884
1708436195.0486875,-2.14180850982666,-1.3334430021098633,-2.526350800191061,6.110562312393942,1.0169692039489746,-2.881781880055563
1708436195.0506773,-2.1418368816375732,-1.3334593337825318,-2.526404921208517,6.110525834351339,1.0170023441314697,-2.8817573229419153
1708436195.052736,-2.141913890838623,-1.3334593188813706,-2.526376549397604,6.110484349518575,1.0169858932495117,-2.8816805521594446
1708436195.0547197,-2.1418938636779785,-1.3334997159293671,-2.5263643900500696,6.110557901650228,1.017026424407959,-2.881693665181295
1708436195.0566769,-2.1418538093566895,-1.3334298145822068,-2.526350800191061,6.110557901650228,1.0169932842254639,-2.8816409746753138
1708436195.058701,-2.141956090927124,-1.3334844720414658,-2.526416842137472,6.110525834351339,1.0170141458511353,-2.8816335836993616
1708436195.0606759,-2.1419177055358887,-1.333437280063965,-2.526407782231466,6.110517132073202,1.0170141458511353,-2.8815720717059534
1708436195.0626733,-2.141909599304199,-1.3334549230388184,-2.526372019444601,6.110590803414144,1.0170233249664307,-2.8815940062152308
1708436195.0646806,-2.141934394836426,-1.3334712398103257,-2.526346270238058,6.110550749092855,1.017005205154419,-2.8815985361682337
1708436195.0666695,-2.1418910026550293,-1.3334549528411408,-2.526383940373556,6.110509502678671,1.0169768333435059,-2.8816071192370813
1708436195.068675,-2.1419010162353516,-1.333513082270958,-2.5263553301440638,6.11052035072402,1.0169976949691772,-2.881460730229513
1708436195.070702,-2.141876220703125,-1.333475725059845,-2.526400391255514,6.110521542816915,1.0169978141784668,-2.8814857641803187
1708436195.0727062,-2.1419591903686523,-1.3334889870933075,-2.526350800191061,6.110521542816915,1.0169557332992554,-2.8814292589770716
1708436195.0746777,-2.141909599304199,-1.3334919822267075,-2.526362959538595,6.110561597138204,1.0169601440429688,-2.8814261595355433
1708436195.076678,-2.1419460773468018,-1.333511383538582,-2.526393000279562,6.1105666039283655,1.0169646739959717,-2.88135272661318
1708436195.0786746,-2.141934394836426,-1.3335365068963547,-2.526388470326559,6.110553729325094,1.0170023441314697,-2.8813141028033655
1708436195.0806599,-2.1418850421905518,-1.3334964227727433,-2.526346270238058,6.110542046814718,1.0169017314910889,-2.88128906885256
1708436195.0826616,-2.1419010162353516,-1.3334386062673111,-2.526424233113424,6.110583174019613,1.0169932842254639,-2.8812578360186976
1708436195.0846734,-2.1419010162353516,-1.3334430021098633,-2.526407782231466,6.110561597138204,1.0169601440429688,-2.881181542073385
1708436195.0866656,-2.1418981552124023,-1.3335042309812088,-2.526437584553854,6.110540735512533,1.0169225931167603,-2.8810961882220667
1708436195.0886786,-2.141930103302002,-1.333471269612648,-2.526346270238058,6.110590803414144,1.0169389247894287,-2.8810399214373987
1708436195.090673,-2.1419177055358887,-1.3334174913218995,-2.526416842137472,6.1106194136436365,1.0169525146484375,-2.8810210863696497
1708436195.0926716,-2.1419177055358887,-1.3335378778031846,-2.526362959538595,6.110577809601583,1.0169976949691772,-2.8809316794024866
1708436195.0947149,-2.141925573348999,-1.3334219020656128,-2.5264468828784388,6.110573518067159,1.0170023441314697,-2.88088041940798
1708436195.0966966,-2.1419591903686523,-1.333484486942627,-2.526386801396505,6.11054419258193,1.0170187950134277,-2.880866591130392
1708436195.0986757,-2.1419503688812256,-1.3334756654552002,-2.526395861302511,6.1106194136436365,1.0169978141784668,-2.880706850682394
1708436195.1006875,-2.1419503688812256,-1.333505318765976,-2.526370350514547,6.11067162731246,1.0169556140899658,-2.880688730870382
1708436195.1026664,-2.141953945159912,-1.3334889721921463,-2.526424233113424,6.110580312996664,1.0169932842254639,-2.8806234041797083
1708436195.104688,-2.141934394836426,-1.3335085970214386,-2.526428763066427,6.1106289503868005,1.017027735710144,-2.880547348652975
1708436195.1066637,-2.141958236694336,-1.3334385615638276,-2.526407782231466,6.1107061980064294,1.0170096158981323,-2.8804803530322474
1708436195.1087048,-2.141962766647339,-1.3334756654552002,-2.5263493696795862,6.110657202988424,1.0169978141784668,-2.8804362455951136
1708436195.110663,-2.1419496536254883,-1.333513007765152,-2.526341740285055,6.110665666847982,1.017005205154419,-2.880340639744894
1708436195.1126683,-2.1419496536254883,-1.3334830862334748,-2.526386801396505,6.110641944199362,1.017021894454956,-2.8802767435656946
1708436195.1146789,-2.1419453620910645,-1.3334756654552002,-2.526379410420553,6.110661494522848,1.0169888734817505,-2.8801069895373743
1708436195.1167629,-2.141990900039673,-1.333442972307541,-2.526416842137472,6.110735523491659,1.0170096158981323,-2.8800068537341517
1708436195.1187437,-2.141970634460449,-1.3334756654552002,-2.52637488046755,6.110648381500997,1.0170505046844482,-2.8799520174609583
1708436195.1206985,-2.1419663429260254,-1.3334756654552002,-2.5263822714435022,6.110730993538656,1.0169678926467896,-2.87986928621401
1708436195.1227174,-2.1419620513916016,-1.3334593337825318,-2.526419703160421,6.110726821213522,1.0170141458511353,-2.8797152678119105
1708436195.1246731,-2.141958236694336,-1.333496407871582,-2.526424233113424,6.110693204193868,1.0170097351074219,-2.879627529774801
1708436195.1266897,-2.1419777870178223,-1.333454967742302,-2.5263941923724573,6.1107473252113245,1.0170173645019531,-2.879547897969381
1708436195.128695,-2.1419124603271484,-1.3334743243506928,-2.5263822714435022,6.110725629120626,1.0170550346374512,-2.879366461430685
1708436195.130662,-2.141990900039673,-1.3334963929704209,-2.5264273325549524,6.110762822418966,1.0170578956604004,-2.8792837301837366
1708436195.1327136,-2.141941547393799,-1.3335246604732056,-2.5264151732074183,6.110762822418966,1.0170292854309082,-2.8791924158679407
1708436195.1346858,-2.1419453620910645,-1.3335086417249222,-2.5263987223254603,6.110786664276876,1.0170624256134033,-2.8789783159839075
1708436195.136682,-2.1419496536254883,-1.333463729625084,-2.5263941923724573,6.1107367155845544,1.0170414447784424,-2.878888193761007
1708436195.1386583,-2.141982078552246,-1.333454967742302,-2.5264468828784388,6.110751974373617,1.0170488357543945,-2.8787761370288294
1708436195.1406693,-2.141970634460449,-1.3334787797978898,-2.5264437834369105,6.110781180649557,1.0170700550079346,-2.878578249608175
1708436195.142666,-2.141937255859375,-1.3335290116122742,-2.5264604727374476,6.110779988556661,1.0170700550079346,-2.8784635702716272
1708436195.1446617,-2.1420061588287354,-1.3334667545608063,-2.5264468828784388,6.11086271980361,1.0170774459838867,-2.8782947699176233
1708436195.1466587,-2.1419663429260254,-1.3334681701711197,-2.5265007654773157,6.110825645714559,1.0170774459838867,-2.878126923237936
1708436195.1486666,-2.1419777870178223,-1.333421916966774,-2.526479784642355,6.11085723617629,1.0171136856079102,-2.877962891255514
1708436195.1506584,-2.142014741897583,-1.33349201202903,-2.52649170557131,6.11089442947463,1.0170966386795044,-2.8778350988971155
1708436195.152671,-2.141997814178467,-1.3334461462548752,-2.526494805012838,6.110835659294882,1.017127275466919,-2.8776710669146937
1708436195.1547012,-2.1420278549194336,-1.3334460866502305,-2.526541535054342,6.11089442947463,1.017151117324829,-2.8774333635913294
1708436195.1566799,-2.1419663429260254,-1.3334667545608063,-2.526494805012838,6.110913622170248,1.0171211957931519,-2.8773117701159876
1708436195.1586745,-2.1419575214385986,-1.3335290265134354,-2.5265188852893274,6.110877024918356,1.0171301364898682,-2.8770907560931605
1708436195.160683,-2.1419620513916016,-1.3334712994149704,-2.5265398661242884,6.11089192607955,1.0171256065368652,-2.8768377939807337
1708436195.162714,-2.141986608505249,-1.333471269612648,-2.5265443960772913,6.110903847008505,1.0171750783920288,-2.8766501585589808
1708436195.1646838,-2.1419734954833984,-1.3334667098573227,-2.5265188852893274,6.110909211426534,1.0171735286712646,-2.876453463231222
1708436195.1666715,-2.1419692039489746,-1.3334593784860154,-2.5265682379352015,6.110895025521078,1.0171856880187988,-2.876258675252096
1708436195.1686833,-2.1419763565063477,-1.333484486942627,-2.5265234152423304,6.110993253975668,1.0171812772750854,-2.8759799639331263
1708436195.1707084,-2.1420016288757324,-1.3334518533996125,-2.5265937487231653,6.110969412117758,1.017235279083252,-2.875772778187887
1708436195.1727066,-2.1419806480407715,-1.3334800911000748,-2.5265143553363245,6.110948550492086,1.0171856880187988,-2.875589911137716
1708436195.1746764,-2.1419806480407715,-1.3335219782641907,-2.5265517870532435,6.110993253975668,1.0172008275985718,-2.8752556482898157
1708436195.1766796,-2.1420226097106934,-1.3334919971278687,-2.5265308062182825,6.1109715578849695,1.0172216892242432,-2.8750160376178187
1708436195.1786647,-2.1419761180877686,-1.3334845167449494,-2.5265353361712855,6.111008393555441,1.0172592401504517,-2.874795977269308
1708436195.1806765,-2.1420297622680664,-1.3335365665009995,-2.5264976660357874,6.111017095833578,1.0172576904296875,-2.874552313481466
1708436195.182734,-2.142037868499756,-1.333513082270958,-2.5265591780291956,6.111053931504049,1.0172486305236816,-2.874242607747213
1708436195.1847134,-2.142038583755493,-1.3334712547114869,-2.5265219847308558,6.111020314484396,1.0172908306121826,-2.8740935961352747
1708436195.1867247,-2.142038583755493,-1.3334580224803467,-2.5265517870532435,6.110975849419393,1.017317771911621,-2.8737924734698694
1708436195.1886961,-2.141984224319458,-1.3334504228881379,-2.5265591780291956,6.1110116122062585,1.0173430442810059,-2.8735416571246546
1708436195.1907527,-2.142009735107422,-1.3334997159293671,-2.5265353361712855,6.11110948303298,1.0173420906066895,-2.8731702009784144
1708436195.192712,-2.1420140266418457,-1.3334637445262452,-2.5265381971942347,6.111027943878927,1.017370343208313,-2.872817579899923
1708436195.194695,-2.1419761180877686,-1.3334831160357972,-2.5265517870532435,6.1110607264335535,1.0173450708389282,-2.8725295702563685
1708436195.1966834,-2.1420140266418457,-1.3334954243949433,-2.526545588170187,6.1111018536384485,1.017403483390808,-2.8722060362445276
1708436195.198667,-2.142042398452759,-1.33353345215831,-2.5265756289111536,6.110994207649984,1.0174154043197632,-2.8719263712512415
1708436195.200695,-2.1420183181762695,-1.3335042607835312,-2.5265923182116907,6.111096370011129,1.0173524618148804,-2.871546808873312
1708436195.2026896,-2.142016649246216,-1.3334787648967286,-2.526590887700216,6.111084449082174,1.0174064636230469,-2.871279541646139
1708436195.2046585,-2.142054557800293,-1.333462418322899,-2.5266101996051233,6.11111735084609,1.0174307823181152,-2.8709140459643763
1708436195.2067204,-2.142050266265869,-1.3334830862334748,-2.5266643206225794,6.111140835076132,1.0174620151519775,-2.870545212422506
1708436195.2086992,-2.142005205154419,-1.333515779381134,-2.5266643206225794,6.111119138985433,1.0174709558486938,-2.870230023060934
1708436195.2107139,-2.142000675201416,-1.3335157197764893,-2.5266762415515345,6.111087667732992,1.017466425895691,-2.869887892399923
1708436195.212745,-2.142050266265869,-1.3335157644799729,-2.5267048517810267,6.111086952477255,1.017483115196228,-2.8695018927203577
1708436195.2147212,-2.1420254707336426,-1.3334954243949433,-2.5267003218280237,6.111079084664144,1.017498254776001,-2.8691087404834192
1708436195.2167518,-2.142037868499756,-1.3335607957891007,-2.526707712803976,6.111172544747152,1.017552137374878,-2.8687370459186
1708436195.218699,-2.1420633792877197,-1.3335334819606324,-2.52667481104006,6.111160623818197,1.0175551176071167,-2.8683329264270228
1708436195.2207057,-2.142037868499756,-1.3335042607835312,-2.5266581217395228,6.111156332283773,1.0175342559814453,-2.868005339299337
1708436195.222716,-2.142054557800293,-1.3335246604732056,-2.526670281087057,6.111197578697958,1.0175659656524658,-2.8676207701312464
1708436195.224717,-2.1420209407806396,-1.3334460270455857,-2.526677672063009,6.111201035767355,1.0175824165344238,-2.867204252873556
1708436195.2267158,-2.142009735107422,-1.3335233491710206,-2.526677672063009,6.111143219261923,1.0176078081130981,-2.866840902959005
1708436195.2286835,-2.1420817375183105,-1.3334997457316895,-2.526769463215963,6.111142146378317,1.0176318883895874,-2.866452757512228
1708436195.2306974,-2.1420633792877197,-1.3334416461041947,-2.526706043873922,6.111232030182638,1.0176138877868652,-2.8660245577441614
1708436195.2326963,-2.1420297622680664,-1.3335484129241486,-2.5267391840564173,6.111224758415975,1.0176637172698975,-2.8656566778766077
1708436195.2347045,-2.142054557800293,-1.33349101365123,-2.5267961660968226,6.111203181534567,1.0176457166671753,-2.865227762852804
1708436195.2366872,-2.142042398452759,-1.3334954243949433,-2.5267513434039515,6.111232030182638,1.0177083015441895,-2.86476713815798
1708436195.2386854,-2.142037868499756,-1.3335320812514802,-2.5267751852618616,6.111240017205038,1.0177446603775024,-2.864351812993185
1708436195.2406702,-2.1420950889587402,-1.3334936660579224,-2.5267871061908167,6.111170637398519,1.0177356004714966,-2.864006582890646
1708436195.2427595,-2.142059087753296,-1.3335365814021607,-2.5267706553088587,6.111260521202841,1.0177475214004517,-2.8634830156909388
1708436195.2446706,-2.142042398452759,-1.333461047416069,-2.526778046284811,6.11122344711379,1.017767071723938,-2.863018576298849
1708436195.2466846,-2.142063617706299,-1.333539680843689,-2.526806894932882,6.111199843674459,1.0177838802337646,-2.862644974385397
1708436195.2486744,-2.142042398452759,-1.3335144531777878,-2.5268307367907923,6.111252891808309,1.017803430557251,-2.8620782534228724
1708436195.250678,-2.1420140266418457,-1.3335144233754654,-2.526856247578756,6.111236321717062,1.0178227424621582,-2.8616517225848597
1708436195.2526994,-2.142054557800293,-1.3335070323995133,-2.5268471876727503,6.111219036370077,1.0178680419921875,-2.8611424604998987
1708436195.2546756,-2.1420702934265137,-1.3335519444993515,-2.5269086996661585,6.111198770790853,1.0178422927856445,-2.860682789479391
1708436195.2566829,-2.142059087753296,-1.3335845333388825,-2.5269086996661585,6.111260521202841,1.0178875923156738,-2.860175434743063
1708436195.2586691,-2.1420793533325195,-1.3335607659867783,-2.526923720036642,6.111243235855856,1.0179203748703003,-2.859715286885397
1708436195.2606845,-2.142061710357666,-1.3335307848504563,-2.5269163290606897,6.111219036370077,1.017894983291626,-2.8592386881457728
1708436195.2626722,-2.1420750617980957,-1.3335890930942078,-2.5269656817065638,6.111182558327474,1.0179232358932495,-2.8587175051318567
1708436195.264691,-2.142042398452759,-1.3335219782641907,-2.526902739201681,6.111232030182638,1.0179387331008911,-2.8582428137408655
1708436195.266685,-2.1420140266418457,-1.3335233342698594,-2.526935640965597,6.111257302552023,1.0179803371429443,-2.857664410267965
1708436195.2686691,-2.1420209407806396,-1.333514393573143,-2.526926581059591,6.111191260605612,1.0179882049560547,-2.8571403662311
1708436195.2706826,-2.142059087753296,-1.333510087137558,-2.5269716421710413,6.111182558327474,1.018003225326538,-2.85663086572756
1708436195.2726889,-2.142042398452759,-1.3335933548263093,-2.5270212332354944,6.111252891808309,1.0180273056030273,-2.856147352849142
1708436195.274674,-2.1419923305511475,-1.3335607808879395,-2.5269866625415247,6.111187922745504,1.0180511474609375,-2.855534378682272
1708436195.2766721,-2.141983985900879,-1.3335264039090653,-2.5269792715655726,6.11121033409194,1.0181082487106323,-2.854999367390768
1708436195.2787,-2.141996383666992,-1.3335100722363968,-2.5270665327655237,6.111232030182638,1.018099308013916,-2.8544140497790735
1708436195.2806892,-2.142054557800293,-1.3335233491710206,-2.5269747416125696,6.111256229668417,1.0181442499160767,-2.8538416067706507
1708436195.2826807,-2.1420466899871826,-1.333617479806282,-2.527060333882467,6.111264812737264,1.0181686878204346,-2.8533268610583704
1708436195.2846837,-2.1420705318450928,-1.3335100573352356,-2.5270512739764612,6.111204135208883,1.0181878805160522,-2.852708164845602
1708436195.2866712,-2.1420509815216064,-1.333563746219017,-2.5270512739764612,6.111170637398519,1.0181912183761597,-2.852096144353048
1708436195.2886844,-2.1420254707336426,-1.3335967820933838,-2.5270705858813685,6.111214744835653,1.0182664394378662,-2.8515175024615687
1708436195.290683,-2.142038583755493,-1.3335593354753037,-2.5270825068103235,6.111269104271688,1.0182619094848633,-2.8508628050433558
1708436195.2926922,-2.142042398452759,-1.3335879457047959,-2.5270989576922815,6.111227619438925,1.0182647705078125,-2.850316111241476
1708436195.2947156,-2.141983985900879,-1.3335667264512558,-2.52718168893923,6.111199843674459,1.0182840824127197,-2.8497191111194056
1708436195.2966807,-2.1420466899871826,-1.3336205941489716,-2.527172629033224,6.1112074730689905,1.0183055400848389,-2.8490944544421595
1708436195.298694,-2.142038583755493,-1.3336366576007386,-2.527172629033224,6.111211764603414,1.0183247327804565,-2.84839374223818
1708436195.3006768,-2.1420016288757324,-1.333636538391449,-2.52717096010317,6.111124861031332,1.0183113813400269,-2.8477965036975306
1708436195.3026936,-2.1420297622680664,-1.3336072725108643,-2.52717096010317,6.1111923334892175,1.0183489322662354,-2.847158972417013
1708436195.3046815,-2.141989231109619,-1.3336619895747681,-2.5271573702441614,6.1112204668815515,1.0183639526367188,-2.8465190569507044
1708436195.3067126,-2.142014741897583,-1.3335879308036347,-2.5272162596331995,6.111269104271688,1.018388032913208,-2.8459366003619593
1708436195.3086865,-2.1420271396636963,-1.3336365234902878,-2.5272446314441126,6.111204135208883,1.0184403657913208,-2.845206324254171
1708436195.3106673,-2.141990900039673,-1.3336189699224015,-2.5272520224200647,6.111196625023641,1.0184450149536133,-2.8445385138141077
1708436195.3126996,-2.1419577598571777,-1.333618925218918,-2.527292791997091,6.111204135208883,1.0184437036514282,-2.8439047972308558
1708436195.3146832,-2.141989231109619,-1.3335940551808854,-2.527254883443014,6.111168134003439,1.018543004989624,-2.8432002703296106
1708436195.3167226,-2.141997814178467,-1.3336189699224015,-2.5273330847369593,6.11117576339797,1.0185368061065674,-2.842450205479757
1708436195.3186884,-2.1419284343719482,-1.3336725544980546,-2.5273104349719446,6.11115192154006,1.018548607826233,-2.8418336550342005
1708436195.3207226,-2.1419734954833984,-1.3336800795844574,-2.5273268858539026,6.111163842469015,1.0185561180114746,-2.841048065816061
1708436195.322702,-2.141958236694336,-1.3336430352977295,-2.527372185383932,6.111106025963583,1.0185801982879639,-2.840369526539938
1708436195.3246853,-2.141962766647339,-1.3336430352977295,-2.527329985295431,6.111127841263571,1.018596887588501,-2.8396621386157435
1708436195.3266788,-2.141941547393799,-1.3336222630790253,-2.527363125477926,6.111161458283224,1.0186736583709717,-2.838909927998678
1708436195.3286934,-2.1419460773468018,-1.333680049782135,-2.527412716542379,6.1111042378242395,1.018667459487915,-2.838170830403463
1708436195.3307111,-2.1419546604156494,-1.333696724181511,-2.5274036566363733,6.111034738808431,1.0187758207321167,-2.8374226729022425
1708436195.3326988,-2.1419432163238525,-1.3336342138103028,-2.5274532477008265,6.111083376198568,1.0187411308288574,-2.8366876284228724
1708436195.33469,-2.1418938636779785,-1.3336746406606217,-2.5273974577533167,6.111031043320455,1.0187606811523438,-2.8359277884112757
1708436195.3367276,-2.1419053077697754,-1.333701254134514,-2.5274186770068567,6.1109986183936975,1.018784761428833,-2.83522874513735
1708436195.3386827,-2.1418981552124023,-1.3336430800012131,-2.527426067982809,6.1109996912773035,1.0188583135604858,-2.834419552479879
1708436195.3406897,-2.141849994659424,-1.3335968118957062,-2.527496401463644,6.111044156342306,1.0188329219818115,-2.833672587071554
1708436195.3427148,-2.141902446746826,-1.3336712729981919,-2.527479950581686,6.110987531929769,1.0189274549484253,-2.83293325105776
1708436195.3446934,-2.141846179962158,-1.3336342436126252,-2.527478281651632,6.110955345421591,1.018902063369751,-2.832219187413351
1708436195.3467042,-2.1418347358703613,-1.3336712729981919,-2.5275281111346644,6.110991823464193,1.0189168453216553,-2.831466023121969
1708436195.3486836,-2.141822338104248,-1.3336460304311295,-2.5274890104876917,6.111030089646139,1.0189409255981445,-2.830665651951925
1708436195.3506799,-2.1417810916900635,-1.333699883227684,-2.5275593439685267,6.110981333046713,1.0189518928527832,-2.829979960118429
1708436195.3526776,-2.1418304443359375,-1.333670200114586,-2.5275684038745325,6.110924827843466,1.0190054178237915,-2.8291953245746058
1708436195.3547738,-2.1417899131774902,-1.3336756539395829,-2.527597252522604,6.110911595612325,1.0190341472625732,-2.82847243944277
1708436195.3567228,-2.141787052154541,-1.3336593520692368,-2.527566973363058,6.110940921097555,1.0190986394882202,-2.8276928106891077
1708436195.3586857,-2.1417622566223145,-1.33365352571521,-2.527574602757589,6.110924708634176,1.019132137298584,-2.826927725468771
1708436195.360684,-2.1417622566223145,-1.3337161552957078,-2.527607504521505,6.110832321434774,1.019158959388733,-2.826156202946798
1708436195.3627014,-2.141753673553467,-1.333671287899353,-2.5276737848864954,6.1108367321784876,1.0191304683685303,-2.8254178206073206
1708436195.3646965,-2.141741991043091,-1.3336953830770035,-2.5276647249804896,6.110812532692709,1.019207239151001,-2.8246105352984827
1708436195.3666964,-2.1417341232299805,-1.333637223844864,-2.5276435057269495,6.110805022507467,1.0192220211029053,-2.823817555104391
1708436195.3686943,-2.1417346000671387,-1.3336668622544785,-2.527684036885397,6.1108378050620935,1.0192461013793945,-2.823082987462179
1708436195.3706777,-2.1416449546813965,-1.3336668622544785,-2.527642075215475,6.110797393112936,1.0192537307739258,-2.822282854710714
1708436195.3726878,-2.1417031288146973,-1.3336998981288453,-2.527728859578268,6.110806095391073,1.0192447900772095,-2.8215065638171595
1708436195.3746865,-2.141674041748047,-1.3336865466884156,-2.527715269719259,6.110741126328268,1.019310712814331,-2.8206868807422083
1708436195.3767173,-2.141716241836548,-1.333735541706421,-2.527703348790304,6.110798585205831,1.0193378925323486,-2.8198960463153284
1708436195.3787174,-2.1416544914245605,-1.3336865615895768,-2.5277321974383753,6.110741960793295,1.0193617343902588,-2.819113556538717
1708436195.3806896,-2.141613006591797,-1.3337072891047974,-2.5277231375323694,6.110656010895529,1.019428014755249,-2.818289105092184
1708436195.3827076,-2.141663074493408,-1.3336505007794877,-2.5277350584613245,6.1106159565742395,1.0194189548492432,-2.817469898854391
1708436195.3847036,-2.1415655612945557,-1.3336865168860932,-2.52779204050173,6.110645520478048,1.019450306892395,-2.816678826008932
1708436195.3866901,-2.1415486335754395,-1.3337235909751435,-2.527787510548727,6.11063443401412,1.0194578170776367,-2.815831247960226
1708436195.3887079,-2.141594409942627,-1.333690957432129,-2.5277589003192347,6.110654222756185,1.0194984674453735,-2.8150389830218714
1708436195.3907237,-2.141587495803833,-1.333702878361084,-2.527844492589132,6.110594022064962,1.0195226669311523,-2.8142240683185022
1708436195.3927605,-2.141514301300049,-1.3336658489755173,-2.527790371571676,6.110535371094503,1.0195435285568237,-2.8133230845080774
1708436195.3946953,-2.1415176391601562,-1.3336940866759797,-2.5278025309192103,6.110545027046957,1.0195256471633911,-2.8125112692462366
1708436195.396702,-2.1415598392486572,-1.3336790216020127,-2.5278309027301233,6.11050163486556,1.0195499658584595,-2.8115997950183313
1708436195.3987122,-2.1415061950683594,-1.3336734187654038,-2.5278685728656214,6.110509502678671,1.019578218460083,-2.8108580748187464
1708436195.401722,-2.1414620876312256,-1.3336953830770035,-2.5278459231006067,6.110461580544271,1.0196022987365723,-2.8099780718432825
1708436195.4026935,-2.141418933868408,-1.3336940866759797,-2.527841393147604,6.1104702828224084,1.0196309089660645,-2.809138361607687
1708436195.4046838,-2.141462802886963,-1.3337042939713974,-2.527865473424093,6.110495316773214,1.0196460485458374,-2.8082991282092493
1708436195.4067075,-2.141406536102295,-1.3337072742036362,-2.527900044118063,6.110458123474874,1.0196415185928345,-2.807455841694967
1708436195.408728,-2.1414406299591064,-1.3337028932622452,-2.527881924306051,6.110425936966696,1.019686222076416,-2.806531016026632
1708436195.4107182,-2.1413745880126953,-1.3336940866759797,-2.527931276951925,6.110410439759054,1.0196986198425293,-2.8056963125811976
1708436195.4126775,-2.1414124965667725,-1.3336252731135865,-2.52791935602297,6.1103941080863855,1.0197256803512573,-2.804804865513937
1708436195.4146864,-2.1413516998291016,-1.3336821359447022,-2.527947727833883,6.110395300179281,1.019766092300415,-2.8040059248553675
1708436195.4167216,-2.1413180828094482,-1.333702878361084,-2.5279057661639612,6.1103625176246545,1.019802212715149,-2.803140942250387
1708436195.4187522,-2.1413111686706543,-1.3337029081634064,-2.52794319788088,6.110317814141073,1.019802212715149,-2.8023722807513636
1708436195.420703,-2.141319751739502,-1.3336865615895768,-2.5279341379748743,6.110371219902792,1.0198638439178467,-2.80147892633547
1708436195.4226933,-2.141298532485962,-1.3337072742036362,-2.5279646555529993,6.11031054237441,1.0198216438293457,-2.800692860280172
1708436195.4247143,-2.1413328647613525,-1.3336865615895768,-2.5279884974109095,6.110298621445455,1.0199042558670044,-2.7997737566577356
1708436195.4266887,-2.1413204669952393,-1.3337443184903641,-2.5280213991748255,6.110224592476644,1.01985764503479,-2.798948351536886
1708436195.428702,-2.1412553787231445,-1.3336821657470246,-2.5279703775988978,6.110291826515951,1.0199148654937744,-2.7981460730182093
1708436195.4306774,-2.141247272491455,-1.3337191951325913,-2.5279629866229456,6.110213506012716,1.0199406147003174,-2.7972617785083216
1708436195.4327326,-2.141268253326416,-1.333735541706421,-2.5280032793628138,6.110201585083761,1.019943356513977,-2.7963972727404993
1708436195.4346895,-2.1412558555603027,-1.333702878361084,-2.5279703775988978,6.110198724060812,1.0199764966964722,-2.795659844075338
1708436195.4367144,-2.141244649887085,-1.3337562394193192,-2.5280032793628138,6.1101581929023645,1.0199508666992188,-2.7948249022113245
1708436195.4386873,-2.1412153244018555,-1.3337235909751435,-2.52797776857485,6.110155093460836,1.0199675559997559,-2.793988052998678
1708436195.440701,-2.141186475753784,-1.333702878361084,-2.528060261403219,6.110175597458639,1.0199780464172363,-2.7930710951434534
1708436195.4427052,-2.1411924362182617,-1.3336940717748185,-2.528010908757345,6.1101428149040125,1.0199540853500366,-2.792253080998556
1708436195.444726,-2.1411924362182617,-1.3336865466884156,-2.5280228296863,6.1101146815116785,1.0199916362762451,-2.79136830965151
1708436195.446736,-2.141123056411743,-1.3336984825185318,-2.5280514399157923,6.110119092255392,1.0200034379959106,-2.790499273930685
1708436195.4486878,-2.1411924362182617,-1.333714799290039,-2.528001848851339,6.1101406691368005,1.0200186967849731,-2.7896750609027308
1708436195.4506748,-2.1411561965942383,-1.3336984825185318,-2.5280304590808313,6.110090839653768,1.0200022459030151,-2.788893524800436
1708436195.4527025,-2.1411068439483643,-1.333702878361084,-2.5280588308917444,6.110055076866903,1.0200095176696777,-2.7879236380206507
1708436195.4546857,-2.141122579574585,-1.3336821657470246,-2.5280514399157923,6.11008762100295,1.0200231075286865,-2.7871130148517054
1708436195.4566815,-2.1411025524139404,-1.3337681603482743,-2.5281205813037317,6.110042917519369,1.0200186967849731,-2.78628117242922
1708436195.4586797,-2.141122579574585,-1.333722324376442,-2.5280588308917444,6.110108244210043,1.0200275182724,-2.785438601170675
1708436195.4606807,-2.1410884857177734,-1.333702878361084,-2.5281172434436243,6.11000286319808,1.0200350284576416,-2.7845938841449183
1708436195.4626856,-2.141097068786621,-1.3337072742036362,-2.5280423800097864,6.110023486405172,1.0200423002243042,-2.7837327162372034
1708436195.4646688,-2.1410884857177734,-1.3336865615895768,-2.5280874411212366,6.11003206947402,1.0200259685516357,-2.7829681078540247
1708436195.4666815,-2.141063690185547,-1.3336984825185318,-2.528132502232687,6.110004770546713,1.020054817199707,-2.7820139567004603
1708436195.4686728,-2.141056537628174,-1.3337223094752808,-2.5280633608447474,6.110000479012289,1.0200921297073364,-2.781186644230978
1708436195.47069,-2.1410722732543945,-1.3336372685483475,-2.5281460920916956,6.109975802689352,1.0200549364089966,-2.7803168932544153
1708436195.4726975,-2.141085624694824,-1.3337116998485108,-2.5280829111682337,6.109902608185568,1.0200995206832886,-2.7794480959521692
1708436195.474678,-2.1410229206085205,-1.3336998385242005,-2.5280948320971888,6.109948384552755,1.0200668573379517,-2.77861196199526
1708436195.4767034,-2.141045093536377,-1.333714799290039,-2.528116051350729,6.10993658283309,1.0201207399368286,-2.7777965704547327
1708436195.478673,-2.141045093536377,-1.3337072742036362,-2.5280616919146937,6.109883057862081,1.0201072692871094,-2.7768903414355677
1708436195.4806845,-2.141036033630371,-1.3337562394193192,-2.5280783812152308,6.109912383347311,1.0201326608657837,-2.77602988878359
1708436195.482716,-2.140984058380127,-1.3337072742036362,-2.528127972279684,6.109896170883932,1.0201311111450195,-2.77514893213381
