Eg3-git/Classifiers/Data Collection/u4/u4abc1_ur3e_joint_states.csv
time,elbow_joint,shoulder_lift_joint,shoulder_pan_joint,wrist_1_joint,wrist_2_joint,wrist_3_joint
1708436140.9203117,-2.1420767307281494,-1.3335301739028473,-2.526727263127462,6.111268150597372,1.0175057649612427,-2.731993023549215
1708436140.9223151,-2.142118215560913,-1.333648220901825,-2.5266945997821253,6.111296760826864,1.0175069570541382,-2.7320337931262415
1708436140.924369,-2.142073154449463,-1.333611549144127,-2.526698891316549,6.111301052361288,1.017498254776001,-2.732029740010397
1708436140.9263551,-2.1421139240264893,-1.333623157148697,-2.526719395314352,6.111166107445516,1.0175187587738037,-2.732001606618063
1708436140.9283526,-2.142085552215576,-1.3335868579200287,-2.526776377354757,6.11128448227004,1.0175440311431885,-2.7320383230792444
1708436140.930314,-2.1421024799346924,-1.3335996282151719,-2.526771847401754,6.111219036370077,1.0175144672393799,-2.732021156941549
1708436140.932313,-2.14212703704834,-1.3335335117629548,-2.5266903082477015,6.11128448227004,1.0174777507781982,-2.731985394154684
1708436140.9343135,-2.1420979499816895,-1.3335455071977158,-2.526731554661886,6.111203062325277,1.0174809694290161,-2.7319887320147913
1708436140.9363298,-2.1421308517456055,-1.3335953515819092,-2.526727263127462,6.11121021488265,1.017498254776001,-2.7319887320147913
1708436140.9383128,-2.1421308517456055,-1.3336030852845688,-2.5267520586596888,6.111211764603414,1.0175187587738037,-2.732009236012594
1708436140.9403362,-2.1420552730560303,-1.3335868579200287,-2.526710812245504,6.111288893013754,1.0175187587738037,-2.732021156941549
1708436140.9423454,-2.1420440673828125,-1.3336317402175446,-2.526727263127462,6.1112146256263635,1.017510175704956,-2.7319727579699915
1708436140.9443145,-2.1420528888702393,-1.3336231422475358,-2.5267348925219935,6.11122344711379,1.0174612998962402,-2.731985394154684
1708436140.946309,-2.142064332962036,-1.3336030852845688,-2.5267391840564173,6.1111419079597376,1.017482042312622,-2.732009236012594
1708436140.9483461,-2.1421139240264893,-1.3335706752589722,-2.526710812245504,6.111166822701254,1.0175267457962036,-2.7319887320147913
1708436140.9502997,-2.1420810222625732,-1.3335541498712082,-2.526727263127462,6.111187922745504,1.017482042312622,-2.7320132891284388
1708436140.952342,-2.142085552215576,-1.333623157148697,-2.526776377354757,6.111159550934591,1.0175144672393799,-2.731985394154684
1708436140.954339,-2.1420280933380127,-1.3336354804090043,-2.5267348925219935,6.111130940705099,1.01748526096344,-2.7319727579699915
1708436140.9563346,-2.142144203186035,-1.3335706454566498,-2.5267306009875696,6.111130940705099,1.0175223350524902,-2.73198110262026
1708436140.9583173,-2.14206862449646,-1.3336807054332276,-2.526709858571188,6.1111594317253015,1.0175429582595825,-2.7319565455066126
1708436140.9603102,-2.1421139240264893,-1.33358687282119,-2.5267306009875696,6.111135232239523,1.0175223350524902,-2.7319768110858362
1708436140.9623048,-2.142127275466919,-1.3336274337819596,-2.526771847401754,6.111119019776144,1.0174777507781982,-2.7320006529437464
1708436140.964335,-2.1420810222625732,-1.3336317402175446,-2.526759926472799,6.11117576339797,1.017482042312622,-2.7319522539721888
1708436140.9663205,-2.1420528888702393,-1.3335910749486466,-2.5267186800586146,6.11118899562911,1.0175014734268188,-2.7319725195514124
1708436140.9683306,-2.1420810222625732,-1.3335824769786377,-2.5267391840564173,6.111062633782186,1.017539620399475,-2.732021156941549
1708436140.9703455,-2.142090082168579,-1.3335910749486466,-2.5267470518695276,6.111139762192526,1.017498254776001,-2.7319725195514124
1708436140.9723341,-2.1420767307281494,-1.3335910749486466,-2.5267229715930384,6.111181366234579,1.017510175704956,-2.731969181691305
1708436140.9743032,-2.1420528888702393,-1.3335910749486466,-2.5267229715930384,6.111111509590902,1.0175310373306274,-2.731964890156881
1708436140.976317,-2.1420810222625732,-1.3335748773864289,-2.5267391840564173,6.111122119217672,1.0175144672393799,-2.731973473225729
1708436140.9783154,-2.1420528888702393,-1.3336274486831208,-2.5267186800586146,6.111139762192526,1.0174895524978638,-2.7319939772235315
1708436140.9803782,-2.142045736312866,-1.333623157148697,-2.5267556349383753,6.111107218056478,1.017498254776001,-2.731964890156881
1708436140.9823127,-2.1420819759368896,-1.33357127130542,-2.526747767125265,6.111127841263571,1.0175385475158691,-2.7319610754596155
1708436140.9843152,-2.1420979499816895,-1.3336072725108643,-2.526710812245504,6.111119019776144,1.0175144672393799,-2.731936279927389
1708436140.9863162,-2.1420767307281494,-1.3335748773864289,-2.5267391840564173,6.111152756005087,1.0175057649612427,-2.731948200856344
1708436140.9883714,-2.1421353816986084,-1.333623157148697,-2.52673584619631,6.111156332283773,1.0174939632415771,-2.731924358998434
1708436140.9903355,-2.14206862449646,-1.333599643116333,-2.5267556349383753,6.111160743027487,1.0175633430480957,-2.7319534460650843
1708436140.992316,-2.1420819759368896,-1.333598719244339,-2.526727263127462,6.111132252007284,1.0175057649612427,-2.731940571461813
1708436140.994352,-2.1420528888702393,-1.3335626286319275,-2.526742760335104,6.111065971642294,1.0175025463104248,-2.7319567839251917
1708436140.996318,-2.142059803009033,-1.3335910749486466,-2.5267065207110804,6.111139762192526,1.017510175704956,-2.7319286505328577
1708436140.9983132,-2.142061710357666,-1.3335834306529541,-2.5267513434039515,6.111144172936239,1.017510175704956,-2.731940571461813
1708436141.0003219,-2.142094373703003,-1.3335910749486466,-2.5267019907580774,6.111147510796346,1.017510175704956,-2.7319005171405237
1708436141.0023067,-2.1420483589172363,-1.333623157148697,-2.5267556349383753,6.111123430519857,1.0175267457962036,-2.7319167296039026
1708436141.0043695,-2.142061710357666,-1.3335825067809601,-2.5267184416400355,6.111172663956442,1.0175187587738037,-2.731913391743795
1708436141.0063155,-2.142057180404663,-1.3336396974376221,-2.5267632643329065,6.111160743027487,1.0175223350524902,-2.731872622166769
1708436141.008389,-2.142045736312866,-1.3336201918176194,-2.526743475590841,6.111086833267965,1.0174734592437744,-2.7318647543536585
1708436141.0103617,-2.142064332962036,-1.33357127130542,-2.526743475590841,6.111139762192526,1.0174895524978638,-2.731933657323019
1708436141.0123215,-2.142061710357666,-1.3335953515819092,-2.5267229715930384,6.111110317498007,1.0175223350524902,-2.731905762349264
1708436141.0143197,-2.142085552215576,-1.3336482358029862,-2.5267675558673304,6.111135351448812,1.0175429582595825,-2.731905762349264
1708436141.0163128,-2.1420483589172363,-1.3335996282151719,-2.526771847401754,6.111111509590902,1.0175223350524902,-2.7318766752826136
1708436141.0183115,-2.142061710357666,-1.3336517077735444,-2.5267513434039515,6.111169326096334,1.017498254776001,-2.7318766752826136
1708436141.0203435,-2.142090082168579,-1.3335791242173691,-2.5267229715930384,6.111107218056478,1.0175223350524902,-2.73190147081484
1708436141.0223129,-2.142111301422119,-1.3335953515819092,-2.5267470518695276,6.111144172936239,1.017555832862854,-2.73191744485964
1708436141.0243165,-2.1420414447784424,-1.3336403530887146,-2.5267391840564173,6.111152756005087,1.0175267457962036,-2.7318809668170374
1708436141.026328,-2.1420767307281494,-1.3335953515819092,-2.526743475590841,6.111107218056478,1.0174611806869507,-2.7318607012378138
1708436141.028349,-2.142098903656006,-1.3335541051677247,-2.5267513434039515,6.111135351448812,1.0175180435180664,-2.731872622166769
1708436141.030322,-2.1420326232910156,-1.3336687994054337,-2.526743475590841,6.111099946289816,1.0175144672393799,-2.7319262663470667
1708436141.0343246,-2.142094373703003,-1.333623157148697,-2.526743475590841,6.111087548523702,1.017498254776001,-2.731893841420309
1708436141.0363169,-2.142059803009033,-1.3335953515819092,-2.5267348925219935,6.1111453650291345,1.0174939632415771,-2.7318437735186976
1708436141.0383217,-2.142115592956543,-1.3336030852845688,-2.5267675558673304,6.111120211869039,1.0174895524978638,-2.731882158909933
1708436141.0403445,-2.142085552215576,-1.333587796693184,-2.526788298283712,6.111123430519857,1.0175144672393799,-2.7319262663470667
1708436141.0423236,-2.1420326232910156,-1.3336517077735444,-2.5267391840564173,6.111132252007284,1.0174654722213745,-2.731852356587545
1708436141.0443258,-2.142057180404663,-1.3335953515819092,-2.5267675558673304,6.111092078476705,1.0174939632415771,-2.7318442503558558
1708436141.0463161,-2.142073154449463,-1.3335791540196915,-2.5267391840564173,6.1111042378242395,1.017510175704956,-2.7318442503558558
1708436141.0483222,-2.142094373703003,-1.3336072725108643,-2.5267186800586146,6.111123430519857,1.0175057649612427,-2.7318442503558558
1708436141.0503137,-2.1420111656188965,-1.3336189550212403,-2.5267229715930384,6.111160743027487,1.017498254776001,-2.7318652311908167
1708436141.0523112,-2.142066240310669,-1.3336115640452881,-2.526705567036764,6.111062752991476,1.0175471305847168,-2.731889549885885
1708436141.0543234,-2.1420528888702393,-1.3336145740798493,-2.5267229715930384,6.111144172936239,1.017510175704956,-2.731873337422506
1708436141.0563474,-2.142061710357666,-1.333623157148697,-2.526743475590841,6.111108767777242,1.0174654722213745,-2.731910053883688
1708436141.0583208,-2.1421070098876953,-1.3335379523089905,-2.5267260710345667,6.111140954285421,1.017554759979248,-2.7318690458880823
1708436141.0603511,-2.142077684402466,-1.3336189550212403,-2.5267794767962855,6.111046540528097,1.0174777507781982,-2.73187762895693
1708436141.062311,-2.142090082168579,-1.333578200345375,-2.5267837683307093,6.1110912440116785,1.0175429582595825,-2.731893841420309
1708436141.0643225,-2.1420767307281494,-1.3336274486831208,-2.5267391840564173,6.111099946289816,1.0175299644470215,-2.731835428868429
1708436141.0663214,-2.142024517059326,-1.3336274486831208,-2.5267513434039515,6.111111509590902,1.0175230503082275,-2.731873337422506
1708436141.0683281,-2.1420369148254395,-1.3336311143687745,-2.5267391840564173,6.111132252007284,1.0174895524978638,-2.731828037892477
1708436141.070313,-2.142033338546753,-1.333611549144127,-2.526759926472799,6.11113332489089,1.0175144672393799,-2.7318528334247034
1708436141.0723133,-2.142094373703003,-1.3336115640452881,-2.5267229715930384,6.1110912440116785,1.0174734592437744,-2.731823507939474
1708436141.0743303,-2.1420865058898926,-1.3336231422475358,-2.5267348925219935,6.111140954285421,1.0174895524978638,-2.731860939656393
1708436141.0763576,-2.1420705318450928,-1.3335625988296052,-2.526743475590841,6.111136424332418,1.0174777507781982,-2.731882158909933
1708436141.0783367,-2.1420369148254395,-1.3336274337819596,-2.526788298283712,6.111132252007284,1.0175721645355225,-2.731893841420309
1708436141.0803258,-2.142106771469116,-1.333604024057724,-2.5267470518695276,6.111099946289816,1.01748526096344,-2.7318032423602503
1708436141.0823233,-2.142077684402466,-1.3335748773864289,-2.5267348925219935,6.1110670445259,1.0175144672393799,-2.731852356587545
1708436141.0843215,-2.142106771469116,-1.3336317402175446,-2.526771847401754,6.1111042378242395,1.017498254776001,-2.731804434453146
1708436141.0863209,-2.142094373703003,-1.333598719244339,-2.5267186800586146,6.111129033356466,1.0174777507781982,-2.7318041960345667
1708436141.0883412,-2.142061710357666,-1.3335996282151719,-2.5266781489001673,6.111078965454855,1.017510175704956,-2.731816355382101
1708436141.0903678,-2.142057180404663,-1.3336354804090043,-2.5267556349383753,6.111099946289816,1.0175342559814453,-2.731811825429098
1708436141.092351,-2.142050266265869,-1.333595336680748,-2.5267019907580774,6.111108648567953,1.017482042312622,-2.7318905035602015
1708436141.094309,-2.142073154449463,-1.3336030852845688,-2.526743475590841,6.111111509590902,1.0175429582595825,-2.731816116963522
1708436141.0963318,-2.142111301422119,-1.33358687282119,-2.5267391840564173,6.111108648567953,1.0175342559814453,-2.7318528334247034
1708436141.098328,-2.1420819759368896,-1.3336274486831208,-2.5267391840564173,6.111120211869039,1.0175267457962036,-2.7318864504443567
1708436141.1003377,-2.1420202255249023,-1.3336030703834076,-2.5267556349383753,6.1110670445259,1.0174939632415771,-2.7318738142596644
1708436141.1023586,-2.142077684402466,-1.3335953515819092,-2.526804510747091,6.1110912440116785,1.0174895524978638,-2.73187762895693
1708436141.1043298,-2.142037868499756,-1.333615855579712,-2.5266903082477015,6.11113332489089,1.0175223350524902,-2.731833283101217
1708436141.1063626,-2.1420819759368896,-1.3335706454566498,-2.5267556349383753,6.111136543541708,1.0175057649612427,-2.7318695227252405
1708436141.1083386,-2.1420202255249023,-1.33357127130542,-2.5267229715930384,6.111149656563558,1.0174490213394165,-2.7318409124957483
1708436141.110316,-2.142029047012329,-1.3336072874120255,-2.5267391840564173,6.111099946289816,1.017510175704956,-2.731865469609396
1708436141.1123307,-2.141996145248413,-1.333611549144127,-2.5267306009875696,6.111059534340658,1.0175429582595825,-2.7318366209613245
1708436141.1143064,-2.142066240310669,-1.3336189550212403,-2.526710812245504,6.111099946289816,1.0174612998962402,-2.731800142918722
1708436141.1162999,-2.1420705318450928,-1.3336274337819596,-2.5267556349383753,6.111034500389852,1.0175057649612427,-2.731788221989767
1708436141.1183124,-2.142037868499756,-1.33358687282119,-2.5267391840564173,6.111092078476705,1.0175137519836426,-2.731783930455343
1708436141.1203103,-2.1420705318450928,-1.3336189550212403,-2.526764456425802,6.111096489220419,1.0174734592437744,-2.731844965611593
1708436141.1223269,-2.142075300216675,-1.3335464310697098,-2.526771847401754,6.111013519554891,1.0175025463104248,-2.7318695227252405
1708436141.1243289,-2.142077684402466,-1.3336354953101655,-2.5267229715930384,6.1111042378242395,1.0174777507781982,-2.7317925135241907
1708436141.1263335,-2.142057180404663,-1.333558351998665,-2.526747767125265,6.11111747005538,1.017555832862854,-2.7318738142596644
1708436141.128333,-2.1420795917510986,-1.333614559178688,-2.5267306009875696,6.1110432026679895,1.017527461051941,-2.731849257146017
1708436141.130316,-2.142085552215576,-1.3335834306529541,-2.5267675558673304,6.1111042378242395,1.0175057649612427,-2.731828037892477
1708436141.132341,-2.1420705318450928,-1.3336158257773896,-2.52669340768923,6.111087667732992,1.0174612998962402,-2.731788221989767
1708436141.1343267,-2.142011880874634,-1.3336158257773896,-2.5267348925219935,6.111113059311666,1.0174895524978638,-2.7318247000323694
1708436141.136329,-2.1420865058898926,-1.3335706454566498,-2.52679688135256,6.111092078476705,1.017486333847046,-2.731816355382101
1708436141.13831,-2.142066240310669,-1.333615855579712,-2.526764456425802,6.111113059311666,1.0175310373306274,-2.7318127791034144
1708436141.1403117,-2.142059326171875,-1.3335669052651902,-2.5267391840564173,6.111059534340658,1.0175267457962036,-2.7318409124957483
1708436141.142321,-2.142045736312866,-1.333643988972046,-2.5267065207110804,6.1111217615898035,1.0174777507781982,-2.731805149708883
1708436141.1443055,-2.142050266265869,-1.3336354953101655,-2.5267391840564173,6.111129033356466,1.0175440311431885,-2.731817070637838
1708436141.1463249,-2.1420705318450928,-1.3336040389588852,-2.526715103779928,6.111068236618795,1.0175025463104248,-2.7317965666400355
1708436141.1483226,-2.1420705318450928,-1.3336311143687745,-2.526768747960226,6.111046421318807,1.0175187587738037,-2.731861178074972
1708436141.1503127,-2.1420209407806396,-1.3336030852845688,-2.5267520586596888,6.111099946289816,1.017498254776001,-2.7317803541766565
1708436141.1523252,-2.1420705318450928,-1.333611549144127,-2.5267065207110804,6.111052024155416,1.0175144672393799,-2.731821123753683
1708436141.1543157,-2.1420369148254395,-1.3335910600474854,-2.526731554661886,6.111022221833029,1.017482042312622,-2.7318008581744593
1708436141.1563425,-2.142033338546753,-1.3335791391185303,-2.52673584619631,6.111075746804037,1.0174734592437744,-2.7318084875689905
1708436141.1583197,-2.142059326171875,-1.333587796693184,-2.526727263127462,6.111113059311666,1.0175025463104248,-2.731817070637838
1708436141.1603453,-2.142061710357666,-1.3335868579200287,-2.526710812245504,6.111059534340658,1.017486333847046,-2.731764618550436
1708436141.1623397,-2.142045736312866,-1.3336030852845688,-2.5267391840564173,6.111077058106222,1.0175025463104248,-2.731760327016012
1708436141.1643093,-2.142033338546753,-1.33358687282119,-2.526743475590841,6.111068236618795,1.0175352096557617,-2.731788937245504
1708436141.1663759,-2.142075300216675,-1.3335706454566498,-2.5267019907580774,6.1111217615898035,1.0175069570541382,-2.7318008581744593
1708436141.168324,-2.142075300216675,-1.333623157148697,-2.5267556349383753,6.111047613411703,1.0175483226776123,-2.7317925135241907
1708436141.1703138,-2.142011880874634,-1.333648295407631,-2.5267556349383753,6.111109602242269,1.017498254776001,-2.731825653706686
1708436141.1723297,-2.142042398452759,-1.333611549144127,-2.5266857782946985,6.111136543541708,1.0175187587738037,-2.731772247944967
1708436141.174313,-2.142059326171875,-1.3335910749486466,-2.526747767125265,6.11108015754775,1.017482042312622,-2.7317474524127405
1708436141.1763248,-2.1419713497161865,-1.3335996282151719,-2.5267391840564173,6.11111747005538,1.017486333847046,-2.7317636648761194
1708436141.1783025,-2.142063856124878,-1.333643988972046,-2.526715103779928,6.111019003182211,1.017482042312622,-2.731788937245504
1708436141.1803012,-2.1420140266418457,-1.3335953515819092,-2.5267446676837366,6.11108015754775,1.0174654722213745,-2.731776539479391
1708436141.1823099,-2.142000436782837,-1.3335953515819092,-2.526731554661886,6.111047613411703,1.0174576044082642,-2.731788937245504
1708436141.1843145,-2.142033576965332,-1.3335379523089905,-2.526731554661886,6.111120211869039,1.017482042312622,-2.7317398230182093
1708436141.1862993,-2.1420094966888428,-1.3336763989976426,-2.5267282168017786,6.111068236618795,1.017495036125183,-2.7317679564105433
1708436141.1883085,-2.142059326171875,-1.3335910451463242,-2.526727263127462,6.11100600936965,1.0174447298049927,-2.731793228779928
1708436141.1903672,-2.1420209407806396,-1.3336472523263474,-2.526694361363546,6.111038791924276,1.017498254776001,-2.731825653706686
1708436141.1923378,-2.14200496673584,-1.3336189550212403,-2.526743475590841,6.111108648567953,1.0175025463104248,-2.7318008581744593
1708436141.19432,-2.142045736312866,-1.3335910451463242,-2.526686731969015,6.1109821675117395,1.017498254776001,-2.7318137327777308
1708436141.1963532,-2.1419880390167236,-1.3336030703834076,-2.5267229715930384,6.111077058106222,1.0174620151519775,-2.731772247944967
1708436141.198314,-2.142059326171875,-1.3336157959750672,-2.5267229715930384,6.111019003182211,1.0174003839492798,-2.731776539479391
1708436141.2003167,-2.1420209407806396,-1.3336396527341385,-2.526715103779928,6.111084568291464,1.017465591430664,-2.731772247944967
1708436141.2023063,-2.1420795917510986,-1.3336354804090043,-2.5267065207110804,6.1110888598258875,1.017486333847046,-2.731776539479391
1708436141.2043154,-2.1419837474823,-1.3335748475841065,-2.526719395314352,6.111023413925924,1.0174285173416138,-2.731833044682638
1708436141.2063107,-2.1420164108276367,-1.3336158257773896,-2.5267065207110804,6.111014711647787,1.017511248588562,-2.7317808310138147
1708436141.208328,-2.142059326171875,-1.3336072576097031,-2.526710812245504,6.11108015754775,1.0175230503082275,-2.7317846457110804
1708436141.2103124,-2.1420955657958984,-1.3335706454566498,-2.5266857782946985,6.111030924111166,1.017478585243225,-2.731809441243307
1708436141.2123232,-2.142059326171875,-1.3336040091565629,-2.5267282168017786,6.1110726473625085,1.0174939632415771,-2.731805149708883
1708436141.2143192,-2.1420094966888428,-1.333618940120079,-2.526727263127462,6.1110726473625085,1.0175025463104248,-2.7317398230182093
1708436141.2163336,-2.1420094966888428,-1.3336072874120255,-2.52673584619631,6.11105631568984,1.017498254776001,-2.7317891756640833
1708436141.2183225,-2.1420164108276367,-1.3336558651975174,-2.5267520586596888,6.111047613411703,1.0175025463104248,-2.731776539479391
1708436141.220362,-2.1420469284057617,-1.3336030703834076,-2.5267391840564173,6.11109338977889,1.0174697637557983,-2.731788937245504
1708436141.2223282,-2.1420300006866455,-1.3336274039796372,-2.526715103779928,6.111077058106222,1.017486333847046,-2.7317355314837855
1708436141.224329,-2.142000436782837,-1.3336072874120255,-2.5267229715930384,6.111038791924276,1.0175025463104248,-2.731760327016012
1708436141.2263305,-2.1420300006866455,-1.3336395931294938,-2.5266814867602747,6.111026632576742,1.017486333847046,-2.7318018118487757
1708436141.2283528,-2.1420254707336426,-1.3335868579200287,-2.526747767125265,6.1110103009040735,1.017555832862854,-2.7318299452411097
1708436141.2303262,-2.1419713497161865,-1.3336189550212403,-2.5266945997821253,6.111044156342306,1.0175025463104248,-2.731776539479391
1708436141.2323332,-2.142063856124878,-1.3335901510766526,-2.526719395314352,6.1110103009040735,1.0174533128738403,-2.731797520314352
1708436141.2343342,-2.1419553756713867,-1.333604024057724,-2.5267513434039515,6.111023413925924,1.0174741744995117,-2.7317636648761194
1708436141.2363245,-2.1420094966888428,-1.3336274188807984,-2.526710812245504,6.111075746804037,1.017482042312622,-2.731760327016012
1708436141.2383249,-2.1419713497161865,-1.3335749071887513,-2.526698891316549,6.111081468849935,1.017498254776001,-2.731821362172262
1708436141.2403455,-2.1420254707336426,-1.3335834306529541,-2.526747767125265,6.111030924111166,1.0174533128738403,-2.731793228779928
1708436141.2423167,-2.1420140266418457,-1.333543137913086,-2.526731554661886,6.111044156342306,1.017482042312622,-2.7317679564105433
1708436141.2443488,-2.1420557498931885,-1.3335541498712082,-2.526759926472799,6.111051904946127,1.0174741744995117,-2.7318502108203333
1708436141.2463126,-2.141979217529297,-1.3336244833520432,-2.526747767125265,6.111047613411703,1.0174907445907593,-2.7317593733416956
1708436141.2483165,-2.1420094966888428,-1.3336231720498581,-2.526698891316549,6.1110397455985925,1.0174697637557983,-2.7317526976214808
1708436141.2503138,-2.1419970989227295,-1.3335748475841065,-2.5267229715930384,6.110998379975118,1.0174654722213745,-2.731776539479391
1708436141.2523131,-2.1420469284057617,-1.3336274337819596,-2.526731554661886,6.111065137177267,1.0174620151519775,-2.731744352971212
1708436141.2543173,-2.1420185565948486,-1.3335953664830704,-2.5267229715930384,6.111113059311666,1.0174620151519775,-2.7317851225482386
1708436141.256334,-2.1420094966888428,-1.333558351998665,-2.5267306009875696,6.1110397455985925,1.0174870491027832,-2.731776539479391
1708436141.2583365,-2.1420140266418457,-1.3335825216821213,-2.526727263127462,6.111063825875082,1.0174208879470825,-2.731793228779928
1708436141.260314,-2.1419804096221924,-1.333623082642891,-2.5267065207110804,6.111035334854879,1.0175069570541382,-2.7317851225482386
1708436141.2623186,-2.142063856124878,-1.3336601567319413,-2.5267730394946497,6.111032235413351,1.0174620151519775,-2.731805149708883
1708436141.2643309,-2.1419804096221924,-1.3336439591697236,-2.5267348925219935,6.111084568291464,1.0174490213394165,-2.7317119280444544
1708436141.2663317,-2.142000436782837,-1.3336202663234253,-2.526747767125265,6.111035334854879,1.0174576044082642,-2.731788937245504
1708436141.2683444,-2.1420469284057617,-1.3335791391185303,-2.526731554661886,6.111048567086019,1.0174654722213745,-2.7318103949176233
1708436141.2703586,-2.1420254707336426,-1.3336396974376221,-2.526736084614889,6.111044156342306,1.017482876777649,-2.7317679564105433
1708436141.2723172,-2.1420342922210693,-1.3336158257773896,-2.5267065207110804,6.111097681313314,1.017511248588562,-2.731744352971212
1708436141.2743237,-2.142033338546753,-1.33358687282119,-2.526752297078268,6.111065137177267,1.0174907445907593,-2.731744352971212
1708436141.2763379,-2.142042398452759,-1.3336030703834076,-2.526780668889181,6.111035334854879,1.017478585243225,-2.7318416277514856
1708436141.278327,-2.1420061588287354,-1.333623157148697,-2.526747767125265,6.111105191498556,1.0174697637557983,-2.731776539479391
1708436141.280319,-2.1420388221740723,-1.3335834306529541,-2.526703182850973,6.111065137177267,1.0174697637557983,-2.731756035481588
1708436141.2823212,-2.1420228481292725,-1.3336316508105774,-2.5266814867602747,6.111047613411703,1.0174741744995117,-2.7317891756640833
1708436141.2843227,-2.14200496673584,-1.3336115193418046,-2.526731554661886,6.111035334854879,1.017486333847046,-2.731772009526388
1708436141.2863157,-2.142000436782837,-1.3336274337819596,-2.526715103779928,6.11109338977889,1.017486333847046,-2.7317808310138147
1708436141.288315,-2.1419928073883057,-1.3336189550212403,-2.5267141501056116,6.111077058106222,1.0174490213394165,-2.731797520314352
1708436141.2903838,-2.1420342922210693,-1.3336440187743683,-2.5266900698291224,6.111032235413351,1.017469882965088,-2.7317846457110804
1708436141.2923353,-2.1419970989227295,-1.3336396974376221,-2.5267348925219935,6.111097681313314,1.0175069570541382,-2.7317236105548304
1708436141.2943273,-2.1419970989227295,-1.3336189550212403,-2.526731554661886,6.1110116122062585,1.0174697637557983,-2.7317398230182093
1708436141.2963128,-2.1420254707336426,-1.3335910153440018,-2.5267391840564173,6.1110572693641565,1.017511248588562,-2.731776539479391
1708436141.2983243,-2.1420185565948486,-1.33357489228759,-2.5267186800586146,6.111019003182211,1.017482876777649,-2.7317517439471644
1708436141.300318,-2.1420140266418457,-1.333618925218918,-2.526740376149313,6.111059534340658,1.017486333847046,-2.731744114552633
1708436141.3023248,-2.1420388221740723,-1.333583415751793,-2.5267065207110804,6.111030924111166,1.0174951553344727,-2.731797520314352
1708436141.3043337,-2.1420254707336426,-1.3336115640452881,-2.526703182850973,6.111035334854879,1.0174907445907593,-2.7317846457110804
1708436141.3063378,-2.1420140266418457,-1.3335953515819092,-2.5266781489001673,6.111068236618795,1.0175353288650513,-2.731805149708883
1708436141.308324,-2.1419970989227295,-1.3336354506066819,-2.5267186800586146,6.111113059311666,1.0174907445907593,-2.7317398230182093
1708436141.310343,-2.1420140266418457,-1.3335583818009873,-2.52673584619631,6.1110888598258875,1.017511248588562,-2.7318127791034144
1708436141.3123102,-2.1420602798461914,-1.3336115640452881,-2.526710812245504,6.1110607264335535,1.017465591430664,-2.731772247944967
1708436141.3143432,-2.1420273780822754,-1.3335953664830704,-2.5267348925219935,6.111047613411703,1.0174612998962402,-2.7318008581744593
1708436141.3163168,-2.1420557498931885,-1.3336317104152222,-2.5267065207110804,6.111026632576742,1.0175230503082275,-2.731833044682638
1708436141.3183308,-2.1420342922210693,-1.3336072725108643,-2.526719395314352,6.111081468849935,1.0174654722213745,-2.7317593733416956
1708436141.320323,-2.1420164108276367,-1.3336115193418046,-2.526719395314352,6.11105631568984,1.0174907445907593,-2.731756035481588
1708436141.3223155,-2.1419928073883057,-1.33357127130542,-2.5266738573657435,6.111059534340658,1.017510175704956,-2.7317846457110804
1708436141.3243234,-2.142000436782837,-1.3336072278073807,-2.5267065207110804,6.11100589016036,1.017486333847046,-2.7317846457110804
1708436141.326315,-2.142054796218872,-1.3336397123387833,-2.526743475590841,6.11109338977889,1.0174446105957031,-2.7318289915667933
1708436141.328327,-2.1420094966888428,-1.3335910898498078,-2.5267730394946497,6.111023413925924,1.017511248588562,-2.731805149708883
1708436141.330321,-2.1419668197631836,-1.3336316508105774,-2.526719395314352,6.111047613411703,1.0175069570541382,-2.7317846457110804
1708436141.332339,-2.1420342922210693,-1.3335378927043458,-2.526715103779928,6.111035334854879,1.0174576044082642,-2.731776539479391
1708436141.3343334,-2.1420016288757324,-1.3336483103087922,-2.5267565886126917,6.11105631568984,1.017486333847046,-2.731825653706686
1708436141.336349,-2.1420016288757324,-1.3336274337819596,-2.526727263127462,6.11099528053359,1.017482042312622,-2.7318008581744593
1708436141.3383327,-2.1420469284057617,-1.3336201918176194,-2.526743475590841,6.111019003182211,1.0174490213394165,-2.731817070637838
1708436141.3403137,-2.14200496673584,-1.3336395931294938,-2.526759926472799,6.111030924111166,1.0174123048782349,-2.7317846457110804
1708436141.3423162,-2.1420016288757324,-1.3335953664830704,-2.526698891316549,6.111014592438497,1.0174777507781982,-2.731772247944967
1708436141.3443172,-2.1419882774353027,-1.333614544277527,-2.526682440434591,6.11108015754775,1.0174663066864014,-2.731788937245504
1708436141.346308,-2.1420795917510986,-1.3336072874120255,-2.5266738573657435,6.111044156342306,1.0174533128738403,-2.7317846457110804
1708436141.3483503,-2.1420061588287354,-1.3336158704808732,-2.5267556349383753,6.111051904946127,1.0175025463104248,-2.731833044682638
1708436141.350344,-2.1420388221740723,-1.3336361360600968,-2.526707474385397,6.111077058106222,1.0174654722213745,-2.7317593733416956
1708436141.3523374,-2.1420342922210693,-1.3336316657117386,-2.526764456425802,6.111063825875082,1.017539620399475,-2.7317925135241907
1708436141.3543217,-2.1419928073883057,-1.333566353922226,-2.526719395314352,6.111077058106222,1.0174907445907593,-2.731833044682638
1708436141.356347,-2.142059326171875,-1.3336072725108643,-2.526719395314352,6.111102092057028,1.0174654722213745,-2.731865469609396
1708436141.3583536,-2.1420209407806396,-1.33358687282119,-2.5267520586596888,6.11109338977889,1.0175230503082275,-2.7317922751056116
1708436141.3603613,-2.1420514583587646,-1.3336645078710099,-2.526715103779928,6.111109602242269,1.017498254776001,-2.731833283101217
1708436141.3623106,-2.1420061588287354,-1.333636076455452,-2.526666227971212,6.111068236618795,1.0175144672393799,-2.7317925135241907
1708436141.3643348,-2.1420061588287354,-1.3335953664830704,-2.5266903082477015,6.1110397455985925,1.0174697637557983,-2.7317846457110804
1708436141.3663177,-2.1420557498931885,-1.3336189550212403,-2.5267065207110804,6.111035334854879,1.0175069570541382,-2.731844965611593
1708436141.368316,-2.142010450363159,-1.3336354506066819,-2.526747767125265,6.111023413925924,1.0175025463104248,-2.731844965611593
1708436141.3703341,-2.141948699951172,-1.3336072874120255,-2.526743475590841,6.110990750580587,1.017482042312622,-2.7317965666400355
1708436141.37232,-2.1420185565948486,-1.3335834455541153,-2.526703182850973,6.111044156342306,1.0175069570541382,-2.731833044682638
1708436141.374316,-2.1420016288757324,-1.3336030852845688,-2.5266945997821253,6.1110726473625085,1.017498254776001,-2.7318247000323694
1708436141.3763423,-2.1420016288757324,-1.3335583072951813,-2.526731554661886,6.111023413925924,1.0175069570541382,-2.7318127791034144
1708436141.3783135,-2.1419689655303955,-1.3335834455541153,-2.5266781489001673,6.111051904946127,1.0174611806869507,-2.731817070637838
1708436141.3803604,-2.1420254707336426,-1.3336158853820343,-2.5267065207110804,6.111002790718832,1.017498254776001,-2.7318204084979456
1708436141.3823364,-2.1420388221740723,-1.33358687282119,-2.526715103779928,6.111035334854879,1.0174697637557983,-2.731788221989767
1708436141.3843365,-2.141984701156616,-1.3336072725108643,-2.526698891316549,6.111030924111166,1.0175069570541382,-2.7318289915667933
1708436141.3863232,-2.1419713497161865,-1.3336030852845688,-2.5266900698291224,6.1110572693641565,1.017511248588562,-2.7317925135241907
1708436141.3883438,-2.1420094966888428,-1.333517463212349,-2.5266945997821253,6.1110888598258875,1.0175025463104248,-2.7318485418902796
1708436141.3903441,-2.141989231109619,-1.3336072725108643,-2.5267065207110804,6.1110572693641565,1.017482042312622,-2.7317796389209192
1708436141.3923404,-2.1420061588287354,-1.3335497689298172,-2.526759926472799,6.111077058106222,1.017498254776001,-2.7318409124957483
1708436141.3943639,-2.141993761062622,-1.3336311143687745,-2.5266738573657435,6.1110572693641565,1.017510175704956,-2.731849257146017
1708436141.3963666,-2.1420016288757324,-1.3336072874120255,-2.52673584619631,6.111032235413351,1.017482042312622,-2.731844965611593
1708436141.3983464,-2.1419970989227295,-1.3335825067809601,-2.526747767125265,6.111106383591451,1.0174611806869507,-2.7318204084979456
1708436141.4003208,-2.1420016288757324,-1.3335136634162446,-2.526723925267355,6.111007082253256,1.017469048500061,-2.731861178074972
1708436141.4023397,-2.1420140266418457,-1.333558351998665,-2.5267391840564173,6.111063825875082,1.0175429582595825,-2.731833044682638
1708436141.4043186,-2.14200496673584,-1.3336072725108643,-2.526731554661886,6.111077058106222,1.0174939632415771,-2.7318204084979456
1708436141.4063134,-2.1420140266418457,-1.3336072725108643,-2.526698891316549,6.110977875977316,1.0175187587738037,-2.7318409124957483
1708436141.4083252,-2.141984701156616,-1.3336231422475358,-2.526759926472799,6.1110726473625085,1.0174777507781982,-2.731856886540548
1708436141.410309,-2.1420185565948486,-1.3336360317519684,-2.52673584619631,6.111051904946127,1.0174895524978638,-2.731816355382101
1708436141.4123294,-2.1419804096221924,-1.3335910749486466,-2.526698891316549,6.11109338977889,1.017469048500061,-2.731852356587545
1708436141.4143376,-2.142000436782837,-1.333604024057724,-2.526731554661886,6.111044156342306,1.0175187587738037,-2.7318366209613245
1708436141.4163303,-2.1420300006866455,-1.333611549144127,-2.526703182850973,6.111047613411703,1.0175267457962036,-2.731844965611593
1708436141.4183245,-2.1419928073883057,-1.3336230677417298,-2.5267556349383753,6.111048567086019,1.017572045326233,-2.7318528334247034
1708436141.4203475,-2.1419758796691895,-1.333639682536461,-2.526743475590841,6.11109338977889,1.0174691677093506,-2.7318652311908167
1708436141.422367,-2.1420016288757324,-1.3335834604552765,-2.526743475590841,6.111031043320455,1.017498254776001,-2.7318652311908167
1708436141.4243715,-2.142031669616699,-1.3335218292525788,-2.5267186800586146,6.111047613411703,1.0175223350524902,-2.731860939656393
1708436141.426366,-2.142043113708496,-1.3335944724133988,-2.5267186800586146,6.111077058106222,1.0175352096557617,-2.7318652311908167
1708436141.428323,-2.1420185565948486,-1.33358687282119,-2.526710812245504,6.111044156342306,1.0175310373306274,-2.7318442503558558
1708436141.4303184,-2.1420388221740723,-1.333578274851181,-2.526677195225851,6.1109821675117395,1.0175057649612427,-2.731828037892477
1708436141.432356,-2.141984701156616,-1.3335748326829453,-2.526731554661886,6.111063945084371,1.0175025463104248,-2.7318738142596644
1708436141.434344,-2.141984701156616,-1.3336231422475358,-2.526747767125265,6.111081468849935,1.0174853801727295,-2.731898371373312
1708436141.4363465,-2.1419758796691895,-1.3335910600474854,-2.526731554661886,6.111044156342306,1.0175504684448242,-2.731860939656393
1708436141.4383276,-2.141993761062622,-1.333574817781784,-2.526743475590841,6.111085760384359,1.0175223350524902,-2.731816116963522
1708436141.4403336,-2.1420602798461914,-1.3336030852845688,-2.526771847401754,6.1110888598258875,1.0175429582595825,-2.731905523930685
1708436141.442349,-2.1419804096221924,-1.3336072874120255,-2.5266945997821253,6.111068236618795,1.017510175704956,-2.7318695227252405
1708436141.4443443,-2.1419970989227295,-1.3335920584252854,-2.52673584619631,6.111035334854879,1.017542839050293,-2.731893841420309
1708436141.4463341,-2.142043113708496,-1.3335706305554886,-2.5267186800586146,6.1110726473625085,1.0175180435180664,-2.731828037892477
1708436141.448321,-2.1419804096221924,-1.3336039942554017,-2.526740376149313,6.111063825875082,1.0175385475158691,-2.7318652311908167
1708436141.4503405,-2.1420342922210693,-1.3335748475841065,-2.526780668889181,6.1110713360603235,1.0175180435180664,-2.7318769137011927
1708436141.4523747,-2.1420388221740723,-1.3336158108762284,-2.5266857782946985,6.111026632576742,1.0174853801727295,-2.7318480650531214
1708436141.4543304,-2.1420388221740723,-1.3336189699224015,-2.526743475590841,6.111035334854879,1.0175299644470215,-2.731860939656393
1708436141.4563568,-2.142010450363159,-1.333603949551918,-2.5267141501056116,6.111065137177267,1.0175057649612427,-2.731889549885885
1708436141.458336,-2.1420185565948486,-1.3335825067809601,-2.526710812245504,6.1110278246696375,1.0175015926361084,-2.731852356587545
1708436141.460387,-2.1419758796691895,-1.3335953664830704,-2.5267391840564173,6.1110726473625085,1.0175590515136719,-2.73190147081484
1708436141.4623487,-2.1419837474823,-1.3336189699224015,-2.526759926472799,6.11106954792098,1.0175429582595825,-2.731860939656393
1708436141.464324,-2.142043113708496,-1.333570660357811,-2.526731554661886,6.111085760384359,1.0175342559814453,-2.731852356587545
1708436141.4663637,-2.1420645713806152,-1.3336361360600968,-2.526731554661886,6.111063825875082,1.0175057649612427,-2.7318649927722376
1708436141.468335,-2.1420016288757324,-1.3335706752589722,-2.5267019907580774,6.111081468849935,1.0175137519836426,-2.7318852583514612
1708436141.4703617,-2.1419970989227295,-1.333595336680748,-2.5267229715930384,6.111077058106222,1.0175180435180664,-2.731884543095724
1708436141.4723349,-2.1420228481292725,-1.3335868877223511,-2.526731554661886,6.1110888598258875,1.0175429582595825,-2.731872622166769
1708436141.4743304,-2.1419970989227295,-1.333611549144127,-2.5267391840564173,6.111048567086019,1.017497181892395,-2.7318928877459925
1708436141.4763186,-2.1419970989227295,-1.3335996282151719,-2.5267019907580774,6.111030924111166,1.017525553703308,-2.7319048086749476
1708436141.478321,-2.1419804096221924,-1.3335833859494706,-2.5267229715930384,6.111002790718832,1.01748526096344,-2.731884543095724
1708436141.4803345,-2.1420273780822754,-1.333620162015297,-2.526747767125265,6.111044156342306,1.0175180435180664,-2.731933657323019
1708436141.482416,-2.1420228481292725,-1.333623157148697,-2.526759926472799,6.1110726473625085,1.0175180435180664,-2.7318766752826136
1708436141.4843214,-2.142031669616699,-1.3336316657117386,-2.5267391840564173,6.111081468849935,1.0175461769104004,-2.731945578251974
1708436141.4863281,-2.1419970989227295,-1.3336158257773896,-2.5267229715930384,6.11105631568984,1.0175057649612427,-2.7319660822497767
1708436141.4883614,-2.142014980316162,-1.3335825514844437,-2.5267229715930384,6.111065137177267,1.0175385475158691,-2.7319048086749476
1708436141.490338,-2.1420016288757324,-1.3335902404836197,-2.526731554661886,6.1110607264335535,1.0175223350524902,-2.7319329420672815
1708436141.4923434,-2.1420228481292725,-1.3336202067187806,-2.526743475590841,6.110994088440695,1.0175342559814453,-2.7319048086749476
1708436141.4943273,-2.1420388221740723,-1.3336396527341385,-2.5267520586596888,6.111044156342306,1.017554759979248,-2.7319210211383265
1708436141.4963198,-2.1419804096221924,-1.3336354804090043,-2.5267348925219935,6.111035334854879,1.0175385475158691,-2.7319210211383265
1708436141.498315,-2.1420300006866455,-1.3335706752589722,-2.526727263127462,6.111097681313314,1.017497181892395,-2.7318690458880823
1708436141.5003197,-2.1419970989227295,-1.3335953515819092,-2.526771847401754,6.1110278246696375,1.017510175704956,-2.7319091002093714
1708436141.5023324,-2.1420388221740723,-1.3336772632649918,-2.526715103779928,6.111014711647787,1.0175385475158691,-2.7319091002093714
1708436141.5043228,-2.1420016288757324,-1.3336115789464493,-2.5267229715930384,6.111077058106222,1.017472267150879,-2.7319210211383265
1708436141.506315,-2.1419804096221924,-1.333594412808754,-2.5267229715930384,6.111105191498556,1.0175504684448242,-2.7318928877459925
1708436141.5083477,-2.1419970989227295,-1.3335953515819092,-2.5267348925219935,6.111077058106222,1.0175267457962036,-2.731953207646505
1708436141.5103176,-2.1420557498931885,-1.333595336680748,-2.5267348925219935,6.1110278246696375,1.0175429582595825,-2.7319210211383265
1708436141.512325,-2.142010450363159,-1.3336201918176194,-2.526727263127462,6.111052024155416,1.0175299644470215,-2.73191744485964
1708436141.5143301,-2.1419732570648193,-1.3336030852845688,-2.526747767125265,6.111002790718832,1.0175342559814453,-2.7319210211383265
1708436141.5163121,-2.1419970989227295,-1.3335834306529541,-2.526747767125265,6.111030924111166,1.017510175704956,-2.731929365788595
1708436141.5183535,-2.1420388221740723,-1.3335834306529541,-2.526759926472799,6.11105631568984,1.0175299644470215,-2.7319091002093714
1708436141.5203326,-2.1420388221740723,-1.3336189550212403,-2.52673584619631,6.111019003182211,1.017571210861206,-2.7318928877459925
1708436141.5223093,-2.142043113708496,-1.3336158257773896,-2.526776138936178,6.111035334854879,1.0175180435180664,-2.7319210211383265
1708436141.5243485,-2.1419644355773926,-1.3335953515819092,-2.5266857782946985,6.1110397455985925,1.0175471305847168,-2.731929365788595
1708436141.5263247,-2.1420388221740723,-1.3335626137307663,-2.526752297078268,6.111084568291464,1.0175299644470215,-2.7319091002093714
1708436141.528332,-2.1420140266418457,-1.3335706752589722,-2.52673584619631,6.111044156342306,1.017554759979248,-2.731957499180929
1708436141.530329,-2.142031669616699,-1.3335996133140107,-2.526727263127462,6.111077058106222,1.017541766166687,-2.7318769137011927
1708436141.532331,-2.1420016288757324,-1.333620162015297,-2.5267348925219935,6.111047613411703,1.0175223350524902,-2.731913391743795
1708436141.5343425,-2.1420061588287354,-1.3336316657117386,-2.526743475590841,6.1110888598258875,1.0175299644470215,-2.731933657323019
1708436141.5363183,-2.1420273780822754,-1.3336072725108643,-2.526759926472799,6.110986459046163,1.0175670385360718,-2.73190147081484
1708436141.5383177,-2.1420140266418457,-1.3336072725108643,-2.526710812245504,6.111051904946127,1.0175504684448242,-2.731945578251974
1708436141.5403166,-2.1420185565948486,-1.3336316657117386,-2.526747767125265,6.111093270569601,1.017541766166687,-2.73185640970339
1708436141.542322,-2.141989231109619,-1.33364391446624,-2.526727263127462,6.11109338977889,1.0174973011016846,-2.7318802515613
1708436141.5443523,-2.142010450363159,-1.3336316657117386,-2.526715103779928,6.111081468849935,1.0175014734268188,-2.731864039097921
1708436141.546309,-2.1420273780822754,-1.3335455817035218,-2.526715103779928,6.111002790718832,1.0175670385360718,-2.731933657323019
1708436141.5483716,-2.1420016288757324,-1.3335996133140107,-2.526743475590841,6.111030924111166,1.0174895524978638,-2.7319253126727503
1708436141.5503175,-2.141989231109619,-1.3335834306529541,-2.5267306009875696,6.11105631568984,1.0175461769104004,-2.7319005171405237
1708436141.5523176,-2.1420300006866455,-1.3335953515819092,-2.526771847401754,6.111109602242269,1.0175342559814453,-2.7319048086749476
1708436141.5543466,-2.1419758796691895,-1.333604024057724,-2.5267186800586146,6.111027943878927,1.0175050497055054,-2.7318888346301478
1708436141.5563154,-2.1420061588287354,-1.333587796693184,-2.5267348925219935,6.1110726473625085,1.0175504684448242,-2.7318928877459925
1708436141.5583272,-2.1420228481292725,-1.3336316657117386,-2.526731554661886,6.1110607264335535,1.0175385475158691,-2.7319091002093714
1708436141.5603313,-2.1420273780822754,-1.3335626435330887,-2.526727263127462,6.1110432026679895,1.0175137519836426,-2.7318649927722376
1708436141.5623593,-2.142010450363159,-1.333595336680748,-2.5266814867602747,6.1110726473625085,1.0175014734268188,-2.7319210211383265
1708436141.5643358,-2.1420645713806152,-1.3335541498712082,-2.5267391840564173,6.1110397455985925,1.0175461769104004,-2.7319167296039026
1708436141.5663233,-2.1420228481292725,-1.3336231422475358,-2.526743475590841,6.111051904946127,1.017525553703308,-2.731933657323019
1708436141.568358,-2.1420094966888428,-1.3336525422385712,-2.5267348925219935,6.111048567086019,1.0175374746322632,-2.731872622166769
1708436141.5703328,-2.1419758796691895,-1.3336030852845688,-2.5267186800586146,6.111109602242269,1.0175670385360718,-2.7318971792804163
1708436141.5723708,-2.1420559883117676,-1.3335953515819092,-2.526788298283712,6.111048567086019,1.017525553703308,-2.7319210211383265
1708436141.5743437,-2.1420228481292725,-1.3335791689208527,-2.5266900698291224,6.111126172333517,1.0175223350524902,-2.7319658438311976
1708436141.5763385,-2.141984701156616,-1.3336231422475358,-2.5267391840564173,6.111102092057028,1.0175299644470215,-2.731929365788595
1708436141.5783253,-2.1420300006866455,-1.3335996133140107,-2.526727263127462,6.111063825875082,1.0175180435180664,-2.7318971792804163
1708436141.5803175,-2.1419732570648193,-1.3336316508105774,-2.5267470518695276,6.111063825875082,1.0175267457962036,-2.731913391743795
1708436141.582334,-2.1420094966888428,-1.3336231869510193,-2.526731554661886,6.1110278246696375,1.0175385475158691,-2.731929365788595
1708436141.5843432,-2.1420061588287354,-1.3335541945746918,-2.526719395314352,6.111048567086019,1.0175429582595825,-2.731933657323019
1708436141.5863223,-2.141984701156616,-1.3335996133140107,-2.5267065207110804,6.11105631568984,1.0175299644470215,-2.731872622166769
1708436141.5883276,-2.1420300006866455,-1.3335944724133988,-2.526743475590841,6.111035334854879,1.0175180435180664,-2.731884543095724
1708436141.5903249,-2.1419529914855957,-1.3336231422475358,-2.5266900698291224,6.1110901711280725,1.0175429582595825,-2.731929365788595
1708436141.5923665,-2.141998052597046,-1.333611549144127,-2.52673584619631,6.111027943878927,1.0175180435180664,-2.731929365788595
1708436141.59433,-2.1419599056243896,-1.3336039793542405,-2.5267229715930384,6.111063825875082,1.0175299644470215,-2.7319091002093714
1708436141.5963192,-2.141984701156616,-1.3336525422385712,-2.526715103779928,6.11108015754775,1.0175461769104004,-2.7319329420672815
1708436141.5983248,-2.141984701156616,-1.333566353922226,-2.5267186800586146,6.111016022949972,1.0175385475158691,-2.731945578251974
1708436141.600317,-2.1420388221740723,-1.3335995835116883,-2.5267065207110804,6.1110432026679895,1.0175471305847168,-2.7318928877459925
1708436141.6023161,-2.1420228481292725,-1.3335707199624558,-2.5267348925219935,6.11106954792098,1.0175014734268188,-2.731933657323019
1708436141.6043363,-2.141993761062622,-1.3336231422475358,-2.526780668889181,6.111102092057028,1.017525553703308,-2.7318809668170374
1708436141.606318,-2.141989231109619,-1.3336396676352997,-2.5267391840564173,6.111051904946127,1.017554759979248,-2.731945578251974
1708436141.608326,-2.141989231109619,-1.3336030852845688,-2.5267391840564173,6.111068236618795,1.017510175704956,-2.731953207646505
1708436141.6103241,-2.1419970989227295,-1.3336274039796372,-2.5267065207110804,6.111023413925924,1.0174973011016846,-2.7318971792804163
1708436141.6123357,-2.1420228481292725,-1.3335380119136353,-2.526743475590841,6.1110888598258875,1.0175461769104004,-2.731933657323019
1708436141.614332,-2.1420185565948486,-1.3336403530887146,-2.5267391840564173,6.111052858620443,1.0175471305847168,-2.7318971792804163
1708436141.616329,-2.1420061588287354,-1.3336354804090043,-2.5267470518695276,6.111030924111166,1.0175299644470215,-2.731835428868429
1708436141.618328,-2.141993761062622,-1.333636076455452,-2.526727263127462,6.111073839455404,1.017554759979248,-2.731929365788595
1708436141.62032,-2.1420094966888428,-1.3336360317519684,-2.5267229715930384,6.1110278246696375,1.0174895524978638,-2.7319005171405237
1708436141.622318,-2.1419928073883057,-1.3335825067809601,-2.526743475590841,6.1110397455985925,1.017554759979248,-2.731884543095724
1708436141.6243327,-2.1420061588287354,-1.3336403530887146,-2.5267391840564173,6.111052024155416,1.0175223350524902,-2.731872622166769
1708436141.6263382,-2.141989231109619,-1.333558351998665,-2.5267065207110804,6.111023413925924,1.0175385475158691,-2.7318809668170374
1708436141.628342,-2.1419804096221924,-1.3335834306529541,-2.5267556349383753,6.111075746804037,1.0175834894180298,-2.731889549885885
1708436141.6303458,-2.1420557498931885,-1.3335825514844437,-2.5267556349383753,6.111063825875082,1.0175267457962036,-2.7319253126727503
1708436141.632317,-2.1420061588287354,-1.3336030852845688,-2.5266900698291224,6.1110607264335535,1.0175633430480957,-2.7318607012378138
1708436141.6343145,-2.1419758796691895,-1.3335707199624558,-2.526698891316549,6.111007082253256,1.017525553703308,-2.731933657323019
1708436141.6363115,-2.1419804096221924,-1.3336030852845688,-2.526752297078268,6.111085760384359,1.0174973011016846,-2.731872622166769
1708436141.6383479,-2.1420061588287354,-1.3336158704808732,-2.5267675558673304,6.1110726473625085,1.0175342559814453,-2.731893841420309
1708436141.6403239,-2.142043352127075,-1.3335953515819092,-2.526727263127462,6.111027943878927,1.0175342559814453,-2.73191744485964
1708436141.642327,-2.1419928073883057,-1.3335910898498078,-2.526715103779928,6.111114012985983,1.0175670385360718,-2.7319005171405237
1708436141.6443284,-2.1420185565948486,-1.3335869026235123,-2.5267019907580774,6.111051904946127,1.0175590515136719,-2.7318809668170374
1708436141.6463091,-2.1419970989227295,-1.3335996133140107,-2.526743475590841,6.111113893776693,1.0175429582595825,-2.731910053883688
1708436141.6483207,-2.1419928073883057,-1.3335944277099152,-2.526747767125265,6.111023413925924,1.0175057649612427,-2.7318928877459925
1708436141.6503363,-2.1420140266418457,-1.3335953515819092,-2.5267229715930384,6.111030924111166,1.0175180435180664,-2.7319091002093714
1708436141.652309,-2.1420228481292725,-1.3335953515819092,-2.5267019907580774,6.11105631568984,1.0175385475158691,-2.731910053883688
1708436141.6543489,-2.1419529914855957,-1.3336201918176194,-2.526792589818136,6.111035334854879,1.0175267457962036,-2.7318971792804163
1708436141.656326,-2.1419970989227295,-1.3335380119136353,-2.5267065207110804,6.1110726473625085,1.0174809694290161,-2.7319498697863978
1708436141.658331,-2.1420016288757324,-1.33357489228759,-2.5267348925219935,6.111102092057028,1.0175633430480957,-2.7318928877459925
1708436141.660364,-2.1419804096221924,-1.3336317104152222,-2.5267391840564173,6.1110607264335535,1.0174810886383057,-2.73190147081484
1708436141.6623137,-2.1420016288757324,-1.3335834306529541,-2.5267391840564173,6.1111217615898035,1.0175137519836426,-2.731852356587545
1708436141.6643083,-2.1419758796691895,-1.3336039942554017,-2.5267556349383753,6.1110726473625085,1.0175342559814453,-2.7318888346301478
1708436141.6662967,-2.1420300006866455,-1.3336231422475358,-2.526727263127462,6.111030924111166,1.0175385475158691,-2.7318852583514612
1708436141.6683288,-2.1420228481292725,-1.3336274039796372,-2.5266857782946985,6.1110726473625085,1.0175137519836426,-2.7318888346301478
1708436141.670321,-2.141984701156616,-1.3335910898498078,-2.526788298283712,6.111048567086019,1.0175223350524902,-2.7318852583514612
1708436141.672332,-2.1420185565948486,-1.3335953515819092,-2.5267065207110804,6.1110397455985925,1.0175223350524902,-2.7318649927722376
1708436141.674323,-2.142010450363159,-1.333558351998665,-2.526698891316549,6.111019003182211,1.0175299644470215,-2.7319091002093714
1708436141.6763341,-2.1420185565948486,-1.3336231422475358,-2.5267348925219935,6.111019003182211,1.0175299644470215,-2.7318769137011927
1708436141.6783204,-2.142043352127075,-1.3336189550212403,-2.526764456425802,6.11109338977889,1.0175180435180664,-2.7319253126727503
1708436141.6803038,-2.141993522644043,-1.333595336680748,-2.5267141501056116,6.111077058106222,1.0175385475158691,-2.731912676488058
1708436141.6823246,-2.141993761062622,-1.3336189550212403,-2.5267229715930384,6.111063825875082,1.0175461769104004,-2.7319329420672815
1708436141.6843345,-2.1419928073883057,-1.3335910898498078,-2.5267141501056116,6.1110726473625085,1.0175342559814453,-2.7319091002093714
1708436141.6863282,-2.1419928073883057,-1.3335996282151719,-2.526768747960226,6.1110607264335535,1.017554759979248,-2.731913391743795
1708436141.688344,-2.1419732570648193,-1.3336030852845688,-2.526747767125265,6.110977756768026,1.0175057649612427,-2.731945578251974
1708436141.69033,-2.141984701156616,-1.3335910898498078,-2.526764456425802,6.111068236618795,1.0175014734268188,-2.7319610754596155
1708436141.6924446,-2.1420061588287354,-1.3335791689208527,-2.5267632643329065,6.111044156342306,1.0175385475158691,-2.731900755559103
1708436141.694366,-2.141984701156616,-1.3336030852845688,-2.5267186800586146,6.111051904946127,1.017592191696167,-2.73192006746401
1708436141.696336,-2.1419804096221924,-1.3336189550212403,-2.5267348925219935,6.111052858620443,1.0175212621688843,-2.731936279927389
1708436141.6983263,-2.1419804096221924,-1.3336115342429657,-2.526727263127462,6.111051904946127,1.0175014734268188,-2.7319610754596155
1708436141.700331,-2.1419601440429688,-1.3336030852845688,-2.5267348925219935,6.111081349640646,1.0174810886383057,-2.731969181691305
1708436141.7023523,-2.142010450363159,-1.3335996133140107,-2.5267186800586146,6.111032235413351,1.0174928903579712,-2.7319567839251917
1708436141.7043304,-2.1419804096221924,-1.3335987341455002,-2.5267065207110804,6.110998379975118,1.0175180435180664,-2.73200494447817
1708436141.706319,-2.1420273780822754,-1.33357489228759,-2.5267391840564173,6.11109338977889,1.0175385475158691,-2.73206597963442
1708436141.708348,-2.141989231109619,-1.3335825067809601,-2.526752297078268,6.110990988999166,1.0175223350524902,-2.7320202032672327
1708436141.71033,-2.141984701156616,-1.3336568039706727,-2.5267186800586146,6.111102092057028,1.0175057649612427,-2.7320616880999964
1708436141.7123277,-2.1419970989227295,-1.3335669201663514,-2.5267186800586146,6.11105631568984,1.0175223350524902,-2.7321303526507776
1708436141.714333,-2.1420342922210693,-1.3335455817035218,-2.526731554661886,6.111036646157064,1.0175223350524902,-2.73206073442568
1708436141.7163186,-2.1420602798461914,-1.3336274188807984,-2.5267229715930384,6.111027943878927,1.0175223350524902,-2.7321131865130823
1708436141.7183475,-2.142043113708496,-1.3336274337819596,-2.526771847401754,6.111130463867941,1.0175385475158691,-2.7321863810168665
1708436141.7203195,-2.1420273780822754,-1.3335707199624558,-2.526727263127462,6.1110397455985925,1.0175137519836426,-2.732157055531637
1708436141.722321,-2.141989231109619,-1.3335791689208527,-2.5267348925219935,6.111081468849935,1.0175385475158691,-2.7321928183185022
1708436141.7243266,-2.141989231109619,-1.333610327248909,-2.5267229715930384,6.1110607264335535,1.0175057649612427,-2.7322219053851526
1708436141.726392,-2.141984701156616,-1.3336158108762284,-2.5267019907580774,6.111077058106222,1.0174810886383057,-2.7322002092944544
1708436141.7283647,-2.1420061588287354,-1.3336201322129746,-2.526759926472799,6.111019003182211,1.0175180435180664,-2.7322734037982386
1708436141.730348,-2.1419451236724854,-1.3336030852845688,-2.526747767125265,6.1110607264335535,1.0175670385360718,-2.7323134581195276
1708436141.7323582,-2.141948699951172,-1.333578274851181,-2.526743475590841,6.111036646157064,1.0175180435180664,-2.7323415915118616
1708436141.7343302,-2.1420140266418457,-1.333626852636673,-2.526788298283712,6.11106954792098,1.017592191696167,-2.7323125044452112
1708436141.7363558,-2.142010450363159,-1.3335834306529541,-2.526710812245504,6.111024725228109,1.0175429582595825,-2.732434336339132
1708436141.7383494,-2.1420273780822754,-1.3336039793542405,-2.526759926472799,6.111114012985983,1.0175057649612427,-2.732459370289938
1708436141.7403312,-2.142010450363159,-1.3335542243770142,-2.526792589818136,6.111077058106222,1.0175670385360718,-2.7324817816363733
1708436141.7423334,-2.142014980316162,-1.3336115342429657,-2.5267470518695276,6.1110397455985925,1.017562747001648,-2.732537571583883
1708436141.7443328,-2.141989231109619,-1.3335953515819092,-2.5267065207110804,6.111035334854879,1.0175429582595825,-2.7325707117663782
1708436141.7463486,-2.141993761062622,-1.33357489228759,-2.526743475590841,6.111085760384359,1.0175180435180664,-2.732614580784933
1708436141.7483456,-2.1419529914855957,-1.3336274039796372,-2.526743475590841,6.111002790718832,1.017541766166687,-2.7326372305499476
1708436141.750343,-2.1419804096221924,-1.3335791689208527,-2.5267556349383753,6.111007201462545,1.0175223350524902,-2.732685391102926
1708436141.7523243,-2.1419732570648193,-1.3336274039796372,-2.5267141501056116,6.111002909928121,1.0175418853759766,-2.732786003743307
1708436141.7543466,-2.1419689655303955,-1.3335825514844437,-2.5267229715930384,6.111142146378317,1.0175180435180664,-2.7328055540667933
1708436141.7563343,-2.1419575214385986,-1.3335910898498078,-2.5267303625689905,6.1110116122062585,1.0175256729125977,-2.7328787485705774
1708436141.7583265,-2.142002582550049,-1.3336231422475358,-2.526747767125265,6.111014711647787,1.0175223350524902,-2.732950035725729
1708436141.760321,-2.141989231109619,-1.3336274039796372,-2.526731554661886,6.111068236618795,1.017571210861206,-2.733013931904928
1708436141.7623231,-2.1420273780822754,-1.3336189550212403,-2.5267556349383753,6.111008393555441,1.0175756216049194,-2.7330859343158167
1708436141.7643487,-2.142047643661499,-1.3336231422475358,-2.5267391840564173,6.110990750580587,1.0175583362579346,-2.733171049748556
1708436141.7663424,-2.141982316970825,-1.3335706752589722,-2.5267675558673304,6.111073839455404,1.0175299644470215,-2.733267609273092
1708436141.7683952,-2.1419732570648193,-1.3336030852845688,-2.5267837683307093,6.111081468849935,1.0175504684448242,-2.73334247270693
1708436141.7703226,-2.141998052597046,-1.3335791540196915,-2.5267348925219935,6.111102092057028,1.0175384283065796,-2.7334440390216272
1708436141.7723231,-2.141993522644043,-1.3335996282151719,-2.526759926472799,6.11105631568984,1.0175169706344604,-2.7335403601275843
1708436141.7743337,-2.1419529914855957,-1.3336231422475358,-2.5267675558673304,6.111088979035177,1.017541766166687,-2.7335661093341272
1708436141.7763262,-2.1419663429260254,-1.33357489228759,-2.5267556349383753,6.11099528053359,1.017541766166687,-2.7336955706225794
1708436141.7783232,-2.1419575214385986,-1.3336231422475358,-2.5267391840564173,6.111061799317159,1.0175212621688843,-2.733762566243307
1708436141.7803268,-2.1419451236724854,-1.3335541498712082,-2.526776377354757,6.111081468849935,1.0175496339797974,-2.7338269392596644
1708436141.7823398,-2.1419451236724854,-1.3336030852845688,-2.526788298283712,6.111011731415548,1.0175749063491821,-2.733964268361227
1708436141.784356,-2.1419239044189453,-1.3335583818009873,-2.526727263127462,6.111036646157064,1.0175539255142212,-2.7341087500201624
1708436141.7863348,-2.1419575214385986,-1.3336274039796372,-2.5267675558673304,6.1109996912773035,1.0175824165344238,-2.734126869832174
1708436141.7883334,-2.141986608505249,-1.3336231422475358,-2.5267470518695276,6.111045467644491,1.017562747001648,-2.7342994848834437
1708436141.790323,-2.1419708728790283,-1.333529384141304,-2.5267391840564173,6.110999572068014,1.0175867080688477,-2.7343910376178187
1708436141.7923682,-2.1419601440429688,-1.3335507077029725,-2.5267346541034144,6.110980260163107,1.0175749063491821,-2.734520498906271
1708436141.7943618,-2.141998052597046,-1.3335910898498078,-2.5268002192126673,6.1109996912773035,1.0175532102584839,-2.7346327940570276
1708436141.7963579,-2.1419777870178223,-1.3336072725108643,-2.5268002192126673,6.111017095833578,1.0175986289978027,-2.7347334066974085
1708436141.7983305,-2.1419663429260254,-1.333620162015297,-2.5267391840564173,6.110959517746725,1.0175899267196655,-2.734851662312643
1708436141.80036,-2.1419572830200195,-1.3335953515819092,-2.5267306009875696,6.110939729004659,1.0175694227218628,-2.734997574483053
1708436141.802321,-2.141975164413452,-1.3336072725108643,-2.52682072321047,6.110949861794271,1.0176184177398682,-2.7350919882403772
1708436141.8043354,-2.141925573348999,-1.3336030852845688,-2.5268078486071985,6.11089180687026,1.0176022052764893,-2.735241476689474
1708436141.8063266,-2.1419460773468018,-1.3335626435330887,-2.526742760335104,6.110884296685018,1.0176351070404053,-2.735365692769186
1708436141.8084033,-2.141991138458252,-1.33357489228759,-2.5267956892596644,6.110903727799215,1.0176351070404053,-2.735530201588766
1708436141.8103495,-2.141949415206909,-1.3336030852845688,-2.526757780705587,6.110839831620016,1.017577052116394,-2.735650602971212
1708436141.8123322,-2.141975164413452,-1.333587796693184,-2.5267589727984827,6.110877024918356,1.0176218748092651,-2.735802952443258
1708436141.8143427,-2.141953945159912,-1.3335706752589722,-2.526770893727438,6.110877024918356,1.0176262855529785,-2.7359188238727015
1708436141.816337,-2.141975164413452,-1.3335791540196915,-2.5267589727984827,6.11093436458663,1.0176337957382202,-2.736053530369894
1708436141.818334,-2.141904354095459,-1.3335996282151719,-2.5268002192126673,6.110873567848959,1.0176752805709839,-2.7361775080310267
1708436141.8203504,-2.141963005065918,-1.3336189550212403,-2.5268076101886194,6.110856163292684,1.0176503658294678,-2.7363134066211146
1708436141.8223236,-2.141958475112915,-1.3335259419730683,-2.5267260710345667,6.110901820450582,1.0176337957382202,-2.7364655176745813
1708436141.8243258,-2.1419708728790283,-1.3336039793542405,-2.5268076101886194,6.1108929989631555,1.017657995223999,-2.7366469542132776
1708436141.8263187,-2.141937017440796,-1.3336360317519684,-2.52682072321047,6.1108529446418665,1.017641305923462,-2.736742083226339
1708436141.8283277,-2.1419460773468018,-1.3336231422475358,-2.5268078486071985,6.1108929989631555,1.0176947116851807,-2.736927334462301
1708436141.8303204,-2.141941547393799,-1.3335910898498078,-2.526770893727438,6.110877024918356,1.0176784992218018,-2.7370503584491175
1708436141.8323302,-2.141930103302002,-1.3335791540196915,-2.5267913977252405,6.110860454827108,1.0176829099655151,-2.7372146288501185
1708436141.8343236,-2.141930103302002,-1.333636076455452,-2.5268245379077356,6.110877024918356,1.0176531076431274,-2.737420145665304
1708436141.8363557,-2.1419131755828857,-1.3336115342429657,-2.526733938847677,6.110836612969198,1.0176622867584229,-2.7375553289996546
1708436141.83832,-2.1419131755828857,-1.3335953515819092,-2.526794735585348,6.110839831620016,1.0177162885665894,-2.7377074400531214
1708436141.840321,-2.141934633255005,-1.3335953515819092,-2.526773993168966,6.11085735538558,1.017719030380249,-2.737875763569967
1708436141.8423398,-2.141934633255005,-1.3335825067809601,-2.526811424885885,6.110869276314535,1.0177191495895386,-2.738014523183004
1708436141.844336,-2.1418895721435547,-1.3336115342429657,-2.526820246373312,6.110824692040243,1.0177191495895386,-2.73818284669985
1708436141.8463197,-2.1419007778167725,-1.333558351998665,-2.5267871061908167,6.110836612969198,1.0177104473114014,-2.7384005228625696
1708436141.8483217,-2.1418964862823486,-1.3335953515819092,-2.5268290678607386,6.110841023712911,1.0177147388458252,-2.7385557333575647
1708436141.8503177,-2.141857862472534,-1.3335910898498078,-2.526757780705587,6.110776889115133,1.0177514553070068,-2.738711420689718
1708436141.8523166,-2.1418533325195312,-1.333558351998665,-2.526790205632345,6.11083351352767,1.017722249031067,-2.738859240208761
1708436141.854331,-2.1419177055358887,-1.333611549144127,-2.5268190542804163,6.110787498741903,1.017771601676941,-2.7390645186053675
1708436141.8563244,-2.141914129257202,-1.3336039793542405,-2.5268028418170374,6.110816943436422,1.017767071723938,-2.7392364184008997
1708436141.858323,-2.1418938636779785,-1.3335825514844437,-2.526855770741598,6.1108213541801355,1.0177921056747437,-2.739474121724264
1708436141.8603332,-2.1418824195861816,-1.333587796693184,-2.52687651315798,6.110805022507467,1.0177251100540161,-2.739645783101217
1708436141.862318,-2.141862392425537,-1.333558351998665,-2.5268147627459925,6.110760557442465,1.0178078413009644,-2.739814345036642
1708436141.8643284,-2.1418540477752686,-1.333652601843216,-2.5268428961383265,6.110744225769796,1.0177748203277588,-2.739993397389547
1708436141.8663251,-2.1418824195861816,-1.3335626286319275,-2.5268428961383265,6.110739934235372,1.017815113067627,-2.7401824633227747
1708436141.8683345,-2.1418709754943848,-1.3335498434356232,-2.5268147627459925,6.11076174953536,1.017798900604248,-2.740406338368551
1708436141.8703198,-2.1418709754943848,-1.3335996133140107,-2.5268664995776575,6.110646950989523,1.0177825689315796,-2.7405949274646204
1708436141.8723319,-2.1418371200561523,-1.3336244833520432,-2.5268221537219446,6.110712516098776,1.0178152322769165,-2.740709368382589
1708436141.874328,-2.1418755054473877,-1.3335218292525788,-2.5268874804126185,6.110758650093832,1.0178183317184448,-2.740938727055685
1708436141.8763235,-2.1418800354003906,-1.3335910749486466,-2.5268428961383265,6.110717046051779,1.017785906791687,-2.7411344687091272
1708436141.878342,-2.1418168544769287,-1.3335834306529541,-2.5269039312945765,6.1107332585151575,1.0178227424621582,-2.7412496248828333
1708436141.8803475,-2.141796588897705,-1.3335953515819092,-2.526862446461813,6.110714900284567,1.0179165601730347,-2.7414873282061976
1708436141.882315,-2.1418211460113525,-1.333620162015297,-2.5268710295306605,6.110677826195516,1.0178589820861816,-2.7416556517230433
1708436141.884326,-2.1418721675872803,-1.33357489228759,-2.5269160906421106,6.11066900470809,1.0178378820419312,-2.741836134587423
1708436141.8863177,-2.1418347358703613,-1.3335834306529541,-2.52685791650881,6.11066900470809,1.0178500413894653,-2.742011372243063
1708436141.8883312,-2.1418302059173584,-1.3335707199624558,-2.526890818272726,6.110625731735983,1.0179173946380615,-2.7421959082232874
1708436141.890323,-2.1417524814605713,-1.3336274039796372,-2.526907269154684,6.110681998520651,1.0178709030151367,-2.742436472569601
1708436141.8923488,-2.1417737007141113,-1.3336072725108643,-2.526886288319723,6.110606300621786,1.0179277658462524,-2.7425642649279993
1708436141.894354,-2.1418135166168213,-1.3335748773864289,-2.5268831888781946,6.110650765686788,1.0179111957550049,-2.742760245000021
1708436141.8963528,-2.141756772994995,-1.333616853957512,-2.5269158522235315,6.11060510852889,1.0178934335708618,-2.7430008093463343
1708436141.8983405,-2.141789674758911,-1.3335379523089905,-2.526898447667257,6.1105689881141565,1.017926812171936,-2.7431727091418665
1708436141.9003458,-2.1418356895446777,-1.3335996282151719,-2.526919190083639,6.110589730530538,1.0179566144943237,-2.7433434168445032
1708436141.902316,-2.141787052154541,-1.3335834306529541,-2.526919190083639,6.110520112305441,1.0179669857025146,-2.743589464818136
1708436141.9043338,-2.1417746543884277,-1.3335541945746918,-2.52690297762026,6.1105702994163416,1.0179431438446045,-2.7437527815448206
1708436141.9063437,-2.1417670249938965,-1.3336072725108643,-2.526910368596212,6.110582220345297,1.0179669857025146,-2.74390679994692
1708436141.9084463,-2.1417081356048584,-1.333611549144127,-2.526943031941549,6.110521423607626,1.0179387331008911,-2.7441540400134485
1708436141.9103467,-2.1417791843414307,-1.3335996133140107,-2.526963774357931,6.110571133881368,1.0180162191390991,-2.7442386786090296
1708436141.9123209,-2.1417622566223145,-1.3335707199624558,-2.52698785463442,6.110476600914755,1.0179747343063354,-2.7444689909564417
1708436141.914329,-2.1417667865753174,-1.3336274337819596,-2.5269387404071253,6.110507237702169,1.017991065979004,-2.7446165720569056
1708436141.9163086,-2.1417171955108643,-1.3335542243770142,-2.5269508997546595,6.11053894737319,1.0179986953735352,-2.7448013464557093
1708436141.9183471,-2.141710042953491,-1.3335910749486466,-2.526959482823507,6.110486614495077,1.0180317163467407,-2.7450218836413782
1708436141.9203448,-2.141721487045288,-1.3335748773864289,-2.5269671122180384,6.110418188362875,1.0180109739303589,-2.7451375166522425
1708436141.9223251,-2.1417348384857178,-1.3335953515819092,-2.5269835630999964,6.110418307572164,1.018034815788269,-2.745322291051046
1708436141.9243426,-2.141666889190674,-1.3336231273463746,-2.5270162264453333,6.11044334152297,1.018034815788269,-2.7454658190356653
1708436141.9263563,-2.141690731048584,-1.3335791540196915,-2.5270000139819544,6.110357987671652,1.018018364906311,-2.7456164995776575
1708436141.9283388,-2.1416590213775635,-1.3335421246341248,-2.5269792715655726,6.110386597901144,1.0180633068084717,-2.745821777974264
1708436141.930318,-2.1416590213775635,-1.3336072725108643,-2.5270524660693567,6.110337483673849,1.018099308013916,-2.7459500471698206
1708436141.9323435,-2.1416544914245605,-1.3336072725108643,-2.5270074049579065,6.110358106880941,1.0181008577346802,-2.7461145559894007
1708436141.9343321,-2.1416678428649902,-1.3335834306529541,-2.5270074049579065,6.11029731014327,1.0181368589401245,-2.7462218443499964
1708436141.936346,-2.1416587829589844,-1.3336601567319413,-2.526994291936056,6.110231864243307,1.0181037187576294,-2.7463608423816126
1708436141.9383345,-2.1415650844573975,-1.3335550737432023,-2.527043883000509,6.110319244652548,1.0181159973144531,-2.746570889149801
1708436141.9403343,-2.1415481567382812,-1.333611549144127,-2.5270469824420374,6.1102125523384,1.0181070566177368,-2.7466543356524866
1708436141.9423194,-2.1415934562683105,-1.3335791540196915,-2.5270631949054163,6.11027883270339,1.0181609392166138,-2.7467814127551478
1708436141.9443521,-2.141592025756836,-1.3336201918176194,-2.527060095463888,6.110235321312704,1.0181442499160767,-2.746942106877462
1708436141.9463336,-2.1415750980377197,-1.333611549144127,-2.5270219484912317,6.1102309105689905,1.018173098564148,-2.747077528630392
1708436141.948342,-2.1415581703186035,-1.3335388761809845,-2.5270031134234827,6.11018322685317,1.0181686878204346,-2.747209374104635
1708436141.9503548,-2.1414835453033447,-1.3336030852845688,-2.527095619832174,6.110089528351583,1.0181641578674316,-2.7473836580859583
1708436141.9523337,-2.1415839195251465,-1.3335755628398438,-2.5270469824420374,6.110151636391439,1.018185019493103,-2.7475481669055384
1708436141.954336,-2.141510486602783,-1.3336231422475358,-2.527083698903219,6.110090839653768,1.0181671380996704,-2.7476218382464808
1708436141.9563236,-2.1414527893066406,-1.3335507077029725,-2.527079407368795,6.110080110817709,1.0182286500930786,-2.747808043156759
1708436141.9583762,-2.141496419906616,-1.3335834604552765,-2.527079407368795,6.110072600632467,1.0181759595870972,-2.7479024569140833
1708436141.9603357,-2.1414618492126465,-1.3336189550212403,-2.5270946661578577,6.110051619797506,1.0182164907455444,-2.7480600515948694
1708436141.9623685,-2.141455888748169,-1.3335464310697098,-2.5270782152758997,6.110020267754354,1.0182242393493652,-2.7481592337237757
1708436141.9643412,-2.1413991451263428,-1.33358687282119,-2.5270989576922815,6.110012399941244,1.0182075500488281,-2.748246733342306
1708436141.9663458,-2.1413822174072266,-1.3335550737432023,-2.5271361509906214,6.109959232598104,1.0182360410690308,-2.7483757177936
1708436141.9683254,-2.1413674354553223,-1.3336158257773896,-2.5271645228015345,6.109920012741842,1.0182197093963623,-2.748483959828512
1708436141.970358,-2.141343593597412,-1.3336039942554017,-2.5271483103381556,6.109859216004171,1.018276572227478,-2.74858266512026
1708436141.972389,-2.1412904262542725,-1.3335996282151719,-2.527123037968771,6.109928715019979,1.018288493156433,-2.74866229692568
1708436141.9743469,-2.1412835121154785,-1.3335791540196915,-2.527081553136007,6.109827863961019,1.018222689628601,-2.748828713093893
1708436141.9763741,-2.1412179470062256,-1.3335577559522171,-2.527123037968771,6.109812485962667,1.0182541608810425,-2.748838249837057
1708436141.9783316,-2.141190528869629,-1.3336030554822464,-2.527098004017965,6.109838831215658,1.018312931060791,-2.7489498297320765
1708436141.9803348,-2.141233444213867,-1.3336317104152222,-2.527118746434347,6.10978518703536,1.0183038711547852,-2.7491121927844446
1708436141.9823964,-2.141113519668579,-1.33358687282119,-2.5271666685687464,6.109670865326681,1.0183038711547852,-2.7492175737964075
1708436141.9843817,-2.1411020755767822,-1.3335669052651902,-2.52714711824526,6.1097015021140955,1.01829195022583,-2.7493086496936243
1708436141.9863324,-2.141106605529785,-1.3336602014354249,-2.5271547476397913,6.109633195191183,1.0182949304580688,-2.749343220387594
1708436141.9883485,-2.1410892009735107,-1.3336157959750672,-2.5271459261523646,6.109539139061727,1.0182859897613525,-2.749432150517599
1708436141.9903316,-2.141045093536377,-1.333558351998665,-2.5271874109851282,6.1094634411628626,1.0183517932891846,-2.7494500319110315
1708436141.992363,-2.1409752368927,-1.3335791391185303,-2.527252976094381,6.1094480631645105,1.0183354616165161,-2.749570671712057
1708436141.9943702,-2.140968084335327,-1.3335834306529541,-2.5271664301501673,6.109413373261251,1.018376111984253,-2.749643150960104
1708436141.9963512,-2.1409080028533936,-1.3336244088462372,-2.52720290819277,6.109356748848715,1.0183717012405396,-2.7497404257403772
1708436141.9983346,-2.140869379043579,-1.3336359572461625,-2.5272398630725306,6.109342682152548,1.0183218717575073,-2.749758545552389
1708436142.000335,-2.14078688621521,-1.3335636121085663,-2.527238670979635,6.109278785973348,1.0184134244918823,-2.7498679796801966
1708436142.0023544,-2.1407480239868164,-1.3336481910995026,-2.527259174977438,6.109129535942831,1.018441915512085,-2.74985915819277
1708436142.0043464,-2.140723466873169,-1.333611549144127,-2.527288023625509,6.1090582487876794,1.018399953842163,-2.7499516646014612
1708436142.0063426,-2.1406641006469727,-1.3335749071887513,-2.527254883443014,6.108944880753317,1.0184494256973267,-2.749950710927145
1708436142.0083365,-2.1406095027923584,-1.333604024057724,-2.5272629896747034,6.10890673378066,1.018457055091858,-2.7500270048724573
1708436142.0103488,-2.140523672103882,-1.3336231720498581,-2.5273030439959925,6.108879554062643,1.0184240341186523,-2.750072781239645
1708436142.0123637,-2.140500783920288,-1.3336317104152222,-2.5273357073413294,6.108754503517904,1.0184600353240967,-2.750119988118307
1708436142.0143366,-2.140420436859131,-1.3336439591697236,-2.5273433367358606,6.108666407852926,1.01846444606781,-2.750160042439596
1708436142.016365,-2.1403534412384033,-1.3336189550212403,-2.527350966130392,6.108600246697225,1.0184346437454224,-2.750171724949972
1708436142.0183372,-2.1403279304504395,-1.333651677971222,-2.527424160634176,6.108451115875997,1.0185004472732544,-2.750159804021017
1708436142.0203426,-2.1401925086975098,-1.3336145889810105,-2.5273664633380335,6.108405935555258,1.0185383558273315,-2.7501867453204554
1708436142.0223515,-2.1400554180145264,-1.333647297029831,-2.5274036566363733,6.10821961143569,1.0185531377792358,-2.7501867453204554
1708436142.0243573,-2.139983892440796,-1.3336017441800614,-2.527418915425436,6.108119594841757,1.0185531377792358,-2.7502148787127894
1708436142.0263388,-2.139913320541382,-1.3336840879968186,-2.5274351278888147,6.1080665467079065,1.0185846090316772,-2.7502105871783655
1708436142.0283172,-2.139822483062744,-1.3336797219565888,-2.5274959246264856,6.107937085419454,1.018560528755188,-2.750235382710592
1708436142.0303166,-2.1397430896759033,-1.3336592328599473,-2.5274654070483606,6.107756483345785,1.0185980796813965,-2.7501586119281214
1708436142.0323224,-2.1396005153656006,-1.3336996001056214,-2.5275278727160853,6.107568371086874,1.0186299085617065,-2.7501488367663782
1708436142.0343254,-2.1394994258880615,-1.3337276440909882,-2.5275800863849085,6.107494699745931,1.0186492204666138,-2.750134054814474
1708436142.036336,-2.1394028663635254,-1.3336704832366486,-2.527599875126974,6.107379305153646,1.018678069114685,-2.7501428763019007
1708436142.0383134,-2.1392219066619873,-1.333714799290039,-2.527623716984884,6.107158648758688,1.0186479091644287,-2.75006610551943
1708436142.0403802,-2.1390981674194336,-1.333800272350647,-2.5276432673083704,6.1070477841194055,1.0186809301376343,-2.7500866095172327
1708436142.0423086,-2.1389663219451904,-1.333742917781212,-2.527642313634054,6.106893527298727,1.0187259912490845,-2.750042740498678
1708436142.0443099,-2.1388065814971924,-1.3337386411479493,-2.5276954809771937,6.1066956398780725,1.0186749696731567,-2.749965492879049
1708436142.0463145,-2.138695240020752,-1.3338106137565156,-2.527703110371725,6.106570350914755,1.0187199115753174,-2.7499664465533655
1708436142.0483084,-2.1385204792022705,-1.3338278544000168,-2.527776543294088,6.106401908188619,1.0187199115753174,-2.749913994465963
1708436142.0503056,-2.1384084224700928,-1.3338384342244645,-2.527710024510519,6.106254207878866,1.018768072128296,-2.749873940144674
1708436142.052324,-2.1381702423095703,-1.3338583421758194,-2.5277915636645716,6.106062400131979,1.0188010931015015,-2.7498748938189905
1708436142.054341,-2.138035297393799,-1.3338659417680283,-2.527827564870016,6.105809199600973,1.0188628435134888,-2.749826733266012
1708436142.0563369,-2.1379013061523438,-1.3338906925967713,-2.527905289326803,6.105631100922384,1.0188746452331543,-2.7497528235064905
1708436142.0583198,-2.137742280960083,-1.33397929490123,-2.527933422719137,6.105396258621969,1.0189110040664673,-2.7497292200671595
1708436142.0603395,-2.137504816055298,-1.3339988899281998,-2.527886692677633,6.105124699860372,1.0189093351364136,-2.749669138585226
1708436142.0623236,-2.1372931003570557,-1.3339905601790925,-2.527919117604391,6.104937541275778,1.018924593925476,-2.7496052424060267
1708436142.0643325,-2.1371357440948486,-1.333981992011406,-2.5279629866229456,6.104730951576986,1.018965244293213,-2.7495086828814905
1708436142.066306,-2.1369054317474365,-1.3340749454549332,-2.5280194918261927,6.104398000031271,1.018989086151123,-2.749444548283712
1708436142.0683122,-2.13672137260437,-1.3340463501266022,-2.5280030409442347,6.1042364714439294,1.0190010070800781,-2.7493885199176233
1708436142.07032,-2.1364898681640625,-1.3340818148902436,-2.528104607258932,6.103973138123312,1.019004225730896,-2.749345604573385
1708436142.0723124,-2.136274576187134,-1.334122122531273,-2.5280588308917444,6.10366569736556,1.0191104412078857,-2.7491920630084437
1708436142.0743177,-2.136058807373047,-1.3341250580600281,-2.5281394163714808,6.103410112648763,1.0191141366958618,-2.749108378087179
1708436142.0763476,-2.135847330093384,-1.3341819804957886,-2.528212849293844,6.103091466217794,1.0191916227340698,-2.7489989439593714
1708436142.0783226,-2.1355929374694824,-1.3342176538756867,-2.528174702321188,6.102755772858419,1.019181489944458,-2.7488835493670862
1708436142.0803165,-2.135385751724243,-1.3341930520585557,-2.528263870869772,6.102463829308309,1.0192219018936157,-2.748779598866598
1708436142.0823383,-2.135012149810791,-1.3342324954322358,-2.528324906026022,6.102127659111776,1.0192326307296753,-2.748688284550802
1708436142.0843081,-2.1347570419311523,-1.3342529100230713,-2.5283313433276575,6.101773369103231,1.0193270444869995,-2.7485392729388636
1708436142.0863245,-2.1345179080963135,-1.334312767987587,-2.5284042994128626,6.101500856667318,1.0193212032318115,-2.7484033743487757
1708436142.088313,-2.134214162826538,-1.3343239438584824,-2.5284436384784144,6.101112472801962,1.019378423690796,-2.748246971760885
1708436142.0903296,-2.133911609649658,-1.334396408205368,-2.528491799031393,6.100730168610372,1.0194098949432373,-2.7481399218188685
1708436142.0923312,-2.133631944656372,-1.334440679555275,-2.5285266081439417,6.100265848427572,1.0194836854934692,-2.747934166585104
1708436142.0943527,-2.133312702178955,-1.3344640594771882,-2.528567139302389,6.099961745529928,1.0195389986038208,-2.747814480458395
1708436142.0963361,-2.132920742034912,-1.33451663077388,-2.52869683900942,6.099603640824117,1.0195916891098022,-2.747638527547018
1708436142.0983248,-2.1326098442077637,-1.3345323664001008,-2.528666321431295,6.099169003754415,1.0196309089660645,-2.7474289576159876
1708436142.1003077,-2.1323039531707764,-1.3345960837653656,-2.5287919680224817,6.098752605706014,1.0196906328201294,-2.747269932423727
1708436142.1023395,-2.1319310665130615,-1.3346532744220276,-2.528839651738302,6.098324882775106,1.019760012626648,-2.747061316167013
1708436142.104304,-2.131605386734009,-1.3346363467029114,-2.5289278666125696,6.097880947380819,1.0198290348052979,-2.746910635625021
1708436142.1063437,-2.1311633586883545,-1.3347078424743195,-2.5289674440967005,6.097448694496908,1.0198591947555542,-2.7466769854175013
1708436142.1083658,-2.130795478820801,-1.3347235333970566,-2.529088083897726,6.0969616053398035,1.0199315547943115,-2.746484104787008
1708436142.1103303,-2.1303677558898926,-1.3347269606641312,-2.5291526953326624,6.096471774369039,1.0200411081314087,-2.7462077776538294
1708436142.1123471,-2.129915475845337,-1.3348072481206437,-2.5291996637927454,6.0959277031715295,1.0201098918914795,-2.7459867636310022
1708436142.1143255,-2.1295011043548584,-1.3348551851562043,-2.529283587132589,6.095400559693136,1.02017343044281,-2.745812002812521
1708436142.1163146,-2.129016637802124,-1.3348950755647202,-2.529358688985006,6.094849216728964,1.0201972723007202,-2.745591704045431
1708436142.1183302,-2.1286063194274902,-1.334951491361,-2.5294604937182825,6.094483125000753,1.0202858448028564,-2.7453556696521204
1708436142.1203403,-2.128129720687866,-1.3349507314017792,-2.52954346338381,6.093899118691244,1.0203040838241577,-2.745136086140768
1708436142.1223347,-2.127669095993042,-1.3350625348142167,-2.529684845601217,6.093300211220541,1.020442247390747,-2.7448468844043177
1708436142.1243186,-2.1271896362304688,-1.3350823682597657,-2.5297318140613,6.092725741654196,1.0205386877059937,-2.744575325642721
1708436142.1263251,-2.1266369819641113,-1.335162253384926,-2.5298472086535853,6.092114913254537,1.0206228494644165,-2.7442949453936976
1708436142.1283498,-2.1261353492736816,-1.3352101904204865,-2.5299435297595423,6.091451155930319,1.0206738710403442,-2.743981424962179
1708436142.1303136,-2.125671148300171,-1.3352374744466324,-2.530088488255636,6.090875732689657,1.0207817554473877,-2.7437053362475794
1708436142.1323175,-2.1251189708709717,-1.3353096109679718,-2.530180040990011,6.090180980950155,1.0208660364151,-2.743424955998556
1708436142.1343243,-2.1245925426483154,-1.3353733581355591,-2.530292336140768,6.089567768364706,1.0209667682647705,-2.7430992762195032
1708436142.1363134,-2.1240413188934326,-1.3354528409293671,-2.5303600470172327,6.088950025826254,1.021058440208435,-2.742819611226217
1708436142.1383183,-2.123445749282837,-1.335500718360283,-2.530459467564718,6.088251101761617,1.0211756229400635,-2.742540423070089
1708436142.1403403,-2.1228461265563965,-1.3355929267457505,-2.53062087694277,6.087537872582235,1.0212510824203491,-2.7421794573413294
1708436142.1423535,-2.122189521789551,-1.335701273088791,-2.530760113392965,6.086768495827474,1.0214252471923828,-2.7418721357928675
1708436142.1443527,-2.12166166305542,-1.3357763600400467,-2.530832115803854,6.086022960930624,1.021540880203247,-2.7414706389056605
1708436142.1463315,-2.1210145950317383,-1.33584816873584,-2.5309718290912073,6.085244524269857,1.0216490030288696,-2.741175715123312
1708436142.1483364,-2.120408535003662,-1.3359356236508866,-2.531107012425558,6.0845162747199915,1.0217362642288208,-2.7407661120044153
1708436142.1503468,-2.119732141494751,-1.3360316020301362,-2.5312400499926966,6.083689796715536,1.02186119556427,-2.7404139677630823
1708436142.1523154,-2.1191024780273438,-1.3360865277102967,-2.531388584767477,6.082929003029623,1.0219779014587402,-2.7400906721698206
1708436142.1543264,-2.118434190750122,-1.3362188351205369,-2.5315118471728724,6.082065808563986,1.0221015214920044,-2.739730421696798
1708436142.1563292,-2.1177523136138916,-1.3362983924201508,-2.5316644350634974,6.081240403443136,1.0222382545471191,-2.739305082951681
1708436142.1583626,-2.1170413494110107,-1.3363942515901108,-2.5318289438830774,6.080409037857809,1.0223493576049805,-2.7389422098742884
1708436142.1603243,-2.1163339614868164,-1.3365543794683,-2.531935993825094,6.079552280693807,1.0225114822387695,-2.7384429613696497
1708436142.1623526,-2.1155383586883545,-1.336661936049797,-2.5321367422686976,6.07858561256484,1.022667646408081,-2.7381370703326624
1708436142.1643317,-2.1148550510406494,-1.3367935580066224,-2.5322752634631556,6.077761637955465,1.0228122472763062,-2.7376840750323694
1708436142.1663206,-2.1141417026519775,-1.3368806403926392,-2.5324443022357386,6.076962697296896,1.0228832960128784,-2.737176481877462
1708436142.168338,-2.1133410930633545,-1.3369600784829636,-2.532604519520895,6.076047050743856,1.0229970216751099,-2.7367172876941126
1708436142.1703284,-2.1125874519348145,-1.3370595139316102,-2.532736603413717,6.075118291168966,1.0231596231460571,-2.736354653035299
1708436142.1723225,-2.111793041229248,-1.3371592623046418,-2.532883946095602,6.074152099877157,1.0232633352279663,-2.735885206853048
1708436142.1743646,-2.111027717590332,-1.3372950863889237,-2.533039633427755,6.073239910393514,1.0234569311141968,-2.735523287449972
1708436142.1763194,-2.1102232933044434,-1.3374146086028595,-2.533179585133688,6.072351801186361,1.0236163139343262,-2.7349756399737757
1708436142.1783247,-2.109473943710327,-1.3375511777452012,-2.533391777669088,6.071366536408224,1.023769497871399,-2.7345803419696253
1708436142.1803296,-2.1086273193359375,-1.3375769567540665,-2.5335806051837366,6.070372211724081,1.0239349603652954,-2.73413855234255
1708436142.1823328,-2.1078131198883057,-1.3377457869103928,-2.533752981816427,6.069364774018087,1.024020791053772,-2.7337237040149134
1708436142.1843529,-2.106910228729248,-1.337845579986908,-2.5339162985431116,6.068349706917562,1.0241531133651733,-2.733243767415182
1708436142.1863763,-2.106076717376709,-1.3379890781692048,-2.5341249147998255,6.067298757820883,1.0243827104568481,-2.7328036467181605
1708436142.1883664,-2.1052262783050537,-1.3380977523377915,-2.5342264811145228,6.066395032196798,1.0245482921600342,-2.7322941462146204
1708436142.1903238,-2.104382038116455,-1.338244528775551,-2.534426991139547,6.065352666168966,1.0246715545654297,-2.731844488774435
1708436142.192324,-2.103506326675415,-1.3384097975543519,-2.5346439520465296,6.064360964089193,1.0248186588287354,-2.7313228289233606
1708436142.1944284,-2.1026227474212646,-1.3384847205928345,-2.5348480383502405,6.063423859864034,1.0249179601669312,-2.7308180967914026
1708436142.1963334,-2.1016921997070312,-1.338550017481186,-2.5350409189807337,6.0623278496559045,1.025102972984314,-2.7303178946124476
1708436142.1983495,-2.1008002758026123,-1.3387076419642945,-2.5352492968188685,6.061238992005148,1.0252888202667236,-2.7297986189471644
1708436142.2003322,-2.0998239517211914,-1.3388218444636841,-2.5353758970843714,6.060130345612325,1.025464653968811,-2.7293217817889612
1708436142.2023158,-2.0988998413085938,-1.3389944446137925,-2.5356319586383265,6.059045421868124,1.025645136833191,-2.7287278811084192
1708436142.204328,-2.097895622253418,-1.3391540807536622,-2.535783592854635,6.057911741524496,1.0258208513259888,-2.728199307118551
1708436142.2063265,-2.096954345703125,-1.3392284226468583,-2.5360007921801966,6.056812870293417,1.0259941816329956,-2.727661673222677
1708436142.2083251,-2.0960652828216553,-1.339396522646286,-2.536142412816183,6.0556020615394495,1.0261170864105225,-2.727112595235006
1708436142.2103317,-2.095062255859375,-1.33952051520858,-2.536351029072897,6.054470646172323,1.0262376070022583,-2.7266092936145228
1708436142.212334,-2.094054698944092,-1.3396878403476258,-2.5365677515613,6.053379761963644,1.0264225006103516,-2.7260213533984583
1708436142.214326,-2.093052864074707,-1.3398313981345673,-2.536771599446432,6.05206452587203,1.026635766029358,-2.7254772822009485
1708436142.2163496,-2.0919737815856934,-1.3399869960597535,-2.536992136632101,6.05082522609786,1.0268161296844482,-2.724847141896383
1708436142.2183206,-2.090940237045288,-1.3401630830815812,-2.537203613911764,6.049642193108358,1.026996374130249,-2.7243240515338343
1708436142.2203758,-2.0899288654327393,-1.3402762126973649,-2.537415329610006,6.048362839012899,1.0271707773208618,-2.7236655394183558
1708436142.222334,-2.0888750553131104,-1.340485693221428,-2.5376115481006067,6.047198879509725,1.027372121810913,-2.7231159845935267
1708436142.2243383,-2.087824583053589,-1.340579406624176,-2.537790362034933,6.045967089920797,1.0276141166687012,-2.7224937121020716
1708436142.2263749,-2.0867393016815186,-1.340848909025528,-2.538018290196554,6.044779169350424,1.0278019905090332,-2.7218177954303187
1708436142.2283363,-2.085721254348755,-1.3409633499434968,-2.5383008162127894,6.0435088751609705,1.0279747247695923,-2.7212241331683558
1708436142.2303538,-2.084585666656494,-1.3411381405643006,-2.5384634176837366,6.042175519257345,1.028158187866211,-2.720602337514059
1708436142.2323194,-2.083432912826538,-1.3413455498269578,-2.5386672655688685,6.0408551571662805,1.0283910036087036,-2.7199016253100794
1708436142.234322,-2.0823209285736084,-1.3415533018163224,-2.538914982472555,6.039512741356649,1.0285717248916626,-2.7193596998797815
1708436142.23637,-2.081146001815796,-1.341708095078804,-2.5391274134265345,6.03830765464858,1.0287787914276123,-2.7186387220965784
1708436142.2383392,-2.080017566680908,-1.3419673454812546,-2.5393925348864954,6.03695427158431,1.0289785861968994,-2.7179866472827356
1708436142.2403235,-2.078864097595215,-1.3421275180629273,-2.5396648089038294,6.035586702614584,1.0291868448257446,-2.717393461857931
1708436142.2423713,-2.0777556896209717,-1.3423467886498948,-2.5397895018206995,6.034414398461141,1.0293627977371216,-2.716722551976339
1708436142.244323,-2.0766210556030273,-1.3425707680037995,-2.540067497883932,6.033062326699056,1.0295791625976562,-2.7160804907428187
1708436142.2463634,-2.0754010677337646,-1.3427628439715882,-2.5402093569384974,6.031754481583395,1.029764175415039,-2.715405289326803
1708436142.2483263,-2.0741734504699707,-1.3430056881955643,-2.540494982396261,6.03035734870986,1.0299519300460815,-2.7147656122790735
1708436142.2503555,-2.072988271713257,-1.3432011616281052,-2.540750328694479,6.029027211457052,1.0301727056503296,-2.714046065007345
1708436142.2523377,-2.0717198848724365,-1.34335012853656,-2.5409587065326136,6.027564751892843,1.0303488969802856,-2.713367764149801
1708436142.2543304,-2.070441961288452,-1.343581737284996,-2.541189734135763,6.026196825295248,1.0305490493774414,-2.712719742451803
1708436142.2563496,-2.0691685676574707,-1.3438467544368287,-2.541466776524679,6.0248029110725305,1.0308223962783813,-2.7120047251330774
1708436142.2583604,-2.067927837371826,-1.3440328252366562,-2.541662041340963,6.023435222893514,1.0309619903564453,-2.711313072835104
1708436142.2603514,-2.0666584968566895,-1.3442807358554383,-2.5419393221484583,6.022012221604147,1.0311665534973145,-2.7106199900256556
1708436142.2623546,-2.065410614013672,-1.344496027832367,-2.5421908537494105,6.020559537201681,1.0313916206359863,-2.709925715123312
1708436142.264341,-2.0640597343444824,-1.3446536225131531,-2.542426411305563,6.019135701447286,1.031607985496521,-2.709273163472311
1708436142.2663603,-2.0627663135528564,-1.3449577254107972,-2.542654577885763,6.017646658211508,1.0317883491516113,-2.7085090319262903
1708436142.2683353,-2.0614190101623535,-1.3451730173877259,-2.5429511705981653,6.016193616181173,1.031996250152588,-2.707803551350729
1708436142.2703612,-2.060072660446167,-1.345449225311615,-2.543165985737936,6.014651047974386,1.032225251197815,-2.707041327153341
1708436142.272341,-2.058778762817383,-1.345699967151024,-2.5434072653399866,6.013275134354391,1.0324658155441284,-2.706294123326437
1708436142.2743595,-2.057401418685913,-1.3459065717509766,-2.543675247822897,6.011777388840475,1.0326496362686157,-2.705592457448141
1708436142.2763553,-2.0561418533325195,-1.3461133253625412,-2.5439305941211146,6.010266649513998,1.032788872718811,-2.7048659960376185
1708436142.2783406,-2.0547595024108887,-1.3464126151851197,-2.5441790262805384,6.008683669358053,1.0330426692962646,-2.7042136828051966
1708436142.2803693,-2.0533394813537598,-1.3466849786094208,-2.544426981602804,6.007298695832052,1.033262848854065,-2.7034910360919397
1708436142.2823572,-2.0519580841064453,-1.3469154250672837,-2.5446787516223353,6.005577194481649,1.0334762334823608,-2.702743117009298
1708436142.2843175,-2.050562858581543,-1.34719933689151,-2.5449755827533167,6.004100906639852,1.0337121486663818,-2.7020910421954554
1708436142.2863364,-2.0491089820861816,-1.3475027245334168,-2.5452173391925257,6.00248800495223,1.0338635444641113,-2.701357666646139
1708436142.2883356,-2.047666311264038,-1.347760171895363,-2.545490328465597,6.001020061760702,1.0341286659240723,-2.7006896177874964
1708436142.2903244,-2.0462210178375244,-1.3480645281127472,-2.545769516621725,5.99947606304244,1.0342928171157837,-2.6999204794513147
1708436142.292321,-2.0447909832000732,-1.3483397525599976,-2.546025816594259,5.9979437468345544,1.034521222114563,-2.6992021242724817
1708436142.2943435,-2.043377637863159,-1.3485940110734482,-2.546319071446554,5.996334302216329,1.0346689224243164,-2.698479239140646
1708436142.2963724,-2.0419225692749023,-1.348925532107689,-2.5465579668628138,5.99482153633193,1.034898042678833,-2.697745148335592
1708436142.2983482,-2.0404176712036133,-1.3491877031377335,-2.546821896229879,5.993304598122396,1.0351274013519287,-2.697068516408102
1708436142.3003812,-2.0390756130218506,-1.3494789910367508,-2.547081534062521,5.991685259133138,1.0352901220321655,-2.696350161229269
1708436142.3023207,-2.037566661834717,-1.3497448724559327,-2.5473650137530726,5.990183460503378,1.0355563163757324,-2.695552412663595
1708436142.3043184,-2.036121368408203,-1.350170077090599,-2.5476494471179407,5.988598811417379,1.035719633102417,-2.6948400179492396
1708436142.3063245,-2.034630060195923,-1.3503872913173218,-2.547922197972433,5.986944424896993,1.0359649658203125,-2.694061342869894
1708436142.3083353,-2.0331265926361084,-1.3506908279708405,-2.548192803059713,5.985298859864034,1.0361571311950684,-2.693413559590475
1708436142.3103242,-2.0316002368927,-1.3510703307441254,-2.54846960703005,5.98374222496108,1.0363574028015137,-2.6926968733416956
1708436142.3123345,-2.0301380157470703,-1.3513486099294205,-2.548720661793844,5.982122170716085,1.0366262197494507,-2.69192082086672
1708436142.3143528,-2.0286707878112793,-1.3517233294299622,-2.548993174229757,5.980583774834432,1.0368160009384155,-2.6911473909961146
1708436142.3163252,-2.0271711349487305,-1.3519739669612427,-2.549232069646017,5.979017841606893,1.0370100736618042,-2.6903961340533655
1708436142.3183446,-2.0257070064544678,-1.352370263343193,-2.5495570341693323,5.977506625443258,1.0371863842010498,-2.689673964177267
1708436142.3203528,-2.0241174697875977,-1.3526800882867356,-2.5497925917254847,5.975841629296102,1.0373601913452148,-2.6889098326312464
1708436142.3223188,-2.0225718021392822,-1.3529987645200272,-2.5500686804400843,5.974197971611776,1.0375813245773315,-2.6882055441485804
1708436142.3243647,-2.0210390090942383,-1.3533703994802018,-2.5503409544574183,5.972551452904501,1.0377777814865112,-2.6874638239489954
1708436142.3263295,-2.0194292068481445,-1.3537202042392273,-2.5506256262408655,5.970883595734396,1.0380061864852905,-2.6866958777057093
1708436142.3283224,-2.0178940296173096,-1.3540664625218888,-2.550897185002462,5.969322430878439,1.0382694005966187,-2.6859925428973597
1708436142.3303494,-2.016322612762451,-1.3544988346150895,-2.5511449019061487,5.967724311142721,1.0384544134140015,-2.685223404561178
1708436142.3323243,-2.0146727561950684,-1.3548455250314255,-2.5514536539660853,5.966150271683492,1.0386345386505127,-2.6845601240741175
1708436142.3343263,-2.0131161212921143,-1.3551968050054093,-2.551680390034811,5.964521872788229,1.038818120956421,-2.683821980153219
1708436142.3363442,-2.011463165283203,-1.3555387121490021,-2.5519474188434046,5.962963211327352,1.0390160083770752,-2.6830816904651087
1708436142.338345,-2.0098700523376465,-1.3559579712203522,-2.552215878163473,5.961303698807516,1.0392327308654785,-2.6823611895190638
1708436142.3403533,-2.008151054382324,-1.3562992972186585,-2.5525439421283167,5.959628450661459,1.0393952131271362,-2.681662384663717
1708436142.3423185,-2.0064332485198975,-1.3567021799138566,-2.552877728139059,5.957976090698995,1.0396595001220703,-2.680976692830221
1708436142.3443322,-2.0047483444213867,-1.3571216327003022,-2.553091828023092,5.956283914833822,1.039772391319275,-2.680197779332296
1708436142.3463264,-2.0030431747436523,-1.357552946811058,-2.553389374409811,5.954507815628805,1.039999008178711,-2.679502073918478
1708436142.3483527,-2.0013575553894043,-1.35786488771949,-2.5536680857287806,5.952917086869039,1.0401498079299927,-2.6788397471057337
1708436142.3503613,-1.9997053146362305,-1.358301193719246,-2.5539475123034876,5.95130084732131,1.0403298139572144,-2.6781559626208704
1708436142.35231,-1.9980281591415405,-1.3586989355138321,-2.5542765299426478,5.949645983963766,1.0405057668685913,-2.67749530473818
1708436142.3543525,-1.9963949918746948,-1.3591755342534562,-2.5545483271228235,5.94799422004775,1.0407116413116455,-2.6767810026751917
1708436142.3563452,-1.9946210384368896,-1.3594877880862732,-2.5547872225390833,5.9463528273399255,1.040887713432312,-2.6760504881488245
1708436142.3583415,-1.9928632974624634,-1.359992117886879,-2.5551283995257776,5.944539773255148,1.0410634279251099,-2.675335470830099
1708436142.3603604,-1.9910707473754883,-1.3604267549565812,-2.5553665796863,5.942858087807455,1.0413081645965576,-2.6746543089496058
1708436142.362463,-1.989230751991272,-1.3608648937991639,-2.555760924016134,5.941025364189901,1.0414752960205078,-2.673976723347799
1708436142.3647547,-1.9874812364578247,-1.3612592232278367,-2.5559943358050745,5.939322578697958,1.0417832136154175,-2.673274580632345
1708436142.3663175,-1.9857256412506104,-1.361724541788437,-2.556307617818014,5.9377022860343835,1.0419501066207886,-2.6726036707507532
1708436142.3683367,-1.983949065208435,-1.3621927511743088,-2.556587044392721,5.935986625939169,1.0421139001846313,-2.6720035711871546
1708436142.3703585,-1.9821395874023438,-1.3626676958850403,-2.5569279829608362,5.934337961464681,1.042249083518982,-2.671317164097921
1708436142.3723226,-1.9802980422973633,-1.363081232910492,-2.557171646748678,5.9326093075569055,1.0424052476882935,-2.67074162164797
1708436142.3743293,-1.9784386157989502,-1.3635268670371552,-2.5574989954577845,5.9308862564857385,1.0426441431045532,-2.670032803212301
1708436142.3763275,-1.9765868186950684,-1.3640448612025757,-2.55772573152651,5.929109322815695,1.0428471565246582,-2.6693690458880823
1708436142.378325,-1.974702000617981,-1.3645884108594437,-2.55808669725527,5.927269327431478,1.0430470705032349,-2.6687729994403284
1708436142.3803194,-1.972773790359497,-1.3650746059468766,-2.558390442525045,5.925458895951071,1.043256163597107,-2.668137852345602
1708436142.3823311,-1.970872163772583,-1.3656212252429505,-2.558689896260397,5.923727977066793,1.043477177619934,-2.667508665715353
1708436142.3843222,-1.9689594507217407,-1.3660411548665543,-2.558990780507223,5.921928989678182,1.0435835123062134,-2.666903320943014
1708436142.3863206,-1.9670790433883667,-1.366616742019989,-2.559298578892843,5.920242774277487,1.0437566041946411,-2.6662495771991175
1708436142.3883226,-1.9651169776916504,-1.3670704674771805,-2.5596068541156214,5.9185067293937585,1.0439575910568237,-2.665659014378683
1708436142.390349,-1.9631867408752441,-1.36759768546138,-2.5598819891559046,5.916717040329733,1.0440915822982788,-2.665069643651144
1708436142.392346,-1.9611475467681885,-1.368134857421257,-2.560157362614767,5.914936053543844,1.0442901849746704,-2.6644602457629603
1708436142.3943598,-1.9591140747070312,-1.3687913727811356,-2.560526434575216,5.913059580117025,1.0444899797439575,-2.6637726465808313
1708436142.396391,-1.9571070671081543,-1.3693279486945649,-2.560849968587057,5.911178338318624,1.044731855392456,-2.66319448152651
1708436142.398348,-1.95503568649292,-1.3698659551194687,-2.561141554509298,5.909371721535482,1.0449107885360718,-2.662651602421896
1708436142.4003315,-1.953024983406067,-1.3704239291003724,-2.5614545981036585,5.90757571437911,1.0450958013534546,-2.6619463602649134
1708436142.4023154,-1.951075553894043,-1.3709979367307206,-2.5617550055133265,5.905906903534689,1.0452502965927124,-2.661426369343893
1708436142.4043427,-1.9490635395050049,-1.3716219377568741,-2.5620787779437464,5.90410743930892,1.0454593896865845,-2.660729948674337
1708436142.4063404,-1.9470518827438354,-1.3720653367093583,-2.56234580675234,5.902293908386984,1.0455584526062012,-2.6602028051959437
1708436142.408346,-1.9450247287750244,-1.3727325660041352,-2.56264573732485,5.900567757874288,1.0457764863967896,-2.65967566171755
1708436142.4103367,-1.9429256916046143,-1.3732826274684449,-2.562965456639425,5.898712622910299,1.0459028482437134,-2.6590574423419397
1708436142.4123178,-1.9408984184265137,-1.3738644880107422,-2.5633097330676478,5.896965372353353,1.0462032556533813,-2.65848952928652
