Eg3-git/Classifiers/Data Collection/u4/u4abc2_ur3e_joint_states.csv
time,elbow_joint,shoulder_lift_joint,shoulder_pan_joint,wrist_1_joint,wrist_2_joint,wrist_3_joint
1708436163.66848,-2.1420140266418457,-1.333638609652855,-2.526961151753561,6.11115192154006,1.0178751945495605,-2.785125795994894
1708436163.6704893,-2.1420185565948486,-1.3336430352977295,-2.526886049901144,6.111119138985433,1.0178381204605103,-2.7851620356189173
1708436163.672522,-2.142043352127075,-1.333601177935936,-2.526928249989645,6.111119138985433,1.017924189567566,-2.7851420084582728
1708436163.6744823,-2.1419644355773926,-1.3336519759944458,-2.526956621800558,6.111143219261923,1.0178874731063843,-2.785133186970846
1708436163.6765356,-2.1419837474823,-1.3336757284453888,-2.526881519948141,6.111168134003439,1.0178874731063843,-2.7851584593402308
1708436163.6785262,-2.141984701156616,-1.333644376402237,-2.526928249989645,6.1111440537269495,1.017906904220581,-2.785116736088888
1708436163.6804893,-2.1420388221740723,-1.3336266887239,-2.526886049901144,6.111131059914388,1.0178459882736206,-2.785145107899801
1708436163.6825519,-2.1419804096221924,-1.333684654240944,-2.526935640965597,6.111086952477255,1.0179036855697632,-2.7851784865008753
1708436163.6845796,-2.1420342922210693,-1.3336683225682755,-2.526935640965597,6.111206161766805,1.017878770828247,-2.78516656557192
1708436163.6865401,-2.14200496673584,-1.3335776639035721,-2.526898209248678,6.111185538559713,1.0178009271621704,-2.785109345112936
1708436163.6885087,-2.142042398452759,-1.3336474609426041,-2.526919190083639,6.111091363220968,1.0178874731063843,-2.785116736088888
1708436163.690499,-2.1420061588287354,-1.3336189550212403,-2.526919190083639,6.11111472824172,1.017936110496521,-2.785149637852804
1708436163.6925108,-2.1420016288757324,-1.3336222630790253,-2.526919190083639,6.1111769554908655,1.0178709030151367,-2.7851739565478724
1708436163.6944857,-2.1419599056243896,-1.3336099994233628,-2.5269177595721644,6.111099946289816,1.0178709030151367,-2.785119597111837
1708436163.6965063,-2.1420140266418457,-1.3336252582124253,-2.526919190083639,6.111163842469015,1.0178579092025757,-2.785153929387228
1708436163.6985004,-2.1419970989227295,-1.3335895848325272,-2.526919190083639,6.111181247025289,1.0178337097167969,-2.785104815159933
1708436163.7005095,-2.1420300006866455,-1.3336144399693985,-2.526919190083639,6.111156332283773,1.017878770828247,-2.785133186970846
1708436163.702512,-2.1419644355773926,-1.3336072725108643,-2.526926581059591,6.111193167954244,1.0178906917572021,-2.785136047993795
1708436163.7044935,-2.1419644355773926,-1.333656297331192,-2.5268893877612513,6.111168134003439,1.0178874731063843,-2.7851620356189173
1708436163.7065108,-2.1420388221740723,-1.3336296838572999,-2.526923720036642,6.111180054932394,1.0178709030151367,-2.7851033846484583
1708436163.7084954,-2.1419804096221924,-1.3336144399693985,-2.526910130177633,6.111156332283773,1.0178579092025757,-2.785112444554464
1708436163.7104945,-2.1420061588287354,-1.3336668771556397,-2.526926581059591,6.111143219261923,1.0179111957550049,-2.785170857106344
1708436163.7125142,-2.1420016288757324,-1.3335940104774018,-2.526902739201681,6.111180054932394,1.0179036855697632,-2.78512412706484
1708436163.7144778,-2.1419928073883057,-1.3336341840079804,-2.526926581059591,6.111159550934591,1.0179036855697632,-2.785149637852804
1708436163.7164967,-2.141984701156616,-1.3336519759944458,-2.526902739201681,6.111131059914388,1.017878770828247,-2.7851784865008753
1708436163.7184684,-2.1419970989227295,-1.333602936272957,-2.526886049901144,6.111135351448812,1.0179111957550049,-2.785170857106344
1708436163.72052,-2.141993761062622,-1.3335865896991272,-2.526935640965597,6.111201035767355,1.0179154872894287,-2.785116736088888
1708436163.722539,-2.1420273780822754,-1.3336474311402817,-2.526964251195089,6.111138808518209,1.0179154872894287,-2.7851315180407923
1708436163.724486,-2.141989231109619,-1.3336385947516938,-2.526919190083639,6.111217248230734,1.0179154872894287,-2.7851153055774134
1708436163.7265217,-2.1420254707336426,-1.333605558877327,-2.5268848578082483,6.111119138985433,1.0178580284118652,-2.785133186970846
1708436163.7284834,-2.1419970989227295,-1.3336189550212403,-2.526923720036642,6.111131059914388,1.0178992748260498,-2.785133186970846
1708436163.7305245,-2.1419711112976074,-1.3336189699224015,-2.526968781148092,6.111139762192526,1.017919898033142,-2.785133186970846
1708436163.7324767,-2.1420514583587646,-1.3336311143687745,-2.526898209248678,6.111150729447164,1.017894983291626,-2.7851575056659144
1708436163.7345142,-2.1420342922210693,-1.333610014324524,-2.526961151753561,6.111135351448812,1.017919898033142,-2.785145107899801
1708436163.7365313,-2.1420061588287354,-1.3336144399693985,-2.526919190083639,6.111201035767355,1.0178906917572021,-2.78516656557192
1708436163.7384946,-2.1420185565948486,-1.3336310994676133,-2.526890579854147,6.111122238426962,1.0178992748260498,-2.785095993672506
1708436163.7405508,-2.1419970989227295,-1.3336311143687745,-2.526928249989645,6.1111769554908655,1.017906904220581,-2.785112444554464
1708436163.7424767,-2.1420207023620605,-1.3336189550212403,-2.5269401709186,6.11115192154006,1.017919898033142,-2.785145107899801
1708436163.74449,-2.141984701156616,-1.3336144250682374,-2.5269401709186,6.111110436707296,1.0178992748260498,-2.785128657017843
1708436163.746514,-2.1420342922210693,-1.3336593818715592,-2.526923720036642,6.111143219261923,1.017883062362671,-2.7851856390582483
1708436163.7484972,-2.1420300006866455,-1.333635614519455,-2.5269401709186,6.111139762192526,1.0179111957550049,-2.785100523625509
1708436163.7504895,-2.1420185565948486,-1.3336266887239,-2.526931111012594,6.11117576339797,1.017849087715149,-2.785145107899801
1708436163.7525074,-2.1420016288757324,-1.333638609652855,-2.526919190083639,6.111106025963583,1.017894983291626,-2.78516656557192
1708436163.7544854,-2.1420342922210693,-1.3336356294206162,-2.526931111012594,6.111134516983785,1.017894983291626,-2.7851153055774134
1708436163.756498,-2.1419970989227295,-1.3336683076671143,-2.526923720036642,6.111208545952596,1.0178449153900146,-2.7851529757129114
1708436163.7584794,-2.1420061588287354,-1.3336189550212403,-2.526952091847555,6.111172663956442,1.017894983291626,-2.7851620356189173
1708436163.7604783,-2.141984701156616,-1.3336266738227387,-2.526931111012594,6.111193167954244,1.0179036855697632,-2.7851694265948694
1708436163.7624652,-2.1420388221740723,-1.333602936272957,-2.526907269154684,6.111122238426962,1.0178709030151367,-2.7851584593402308
1708436163.7644963,-2.1420016288757324,-1.3336356294206162,-2.526943031941549,6.111138927727499,1.017907977104187,-2.78516656557192
1708436163.766478,-2.1420185565948486,-1.333602936272957,-2.526964251195089,6.111155020981588,1.017878770828247,-2.7851620356189173
1708436163.7684932,-2.1419804096221924,-1.333644376402237,-2.526898209248678,6.11117576339797,1.0178751945495605,-2.785075012837545
1708436163.7705226,-2.1419601440429688,-1.3336563420346756,-2.526919190083639,6.111184465676107,1.017878770828247,-2.7851830164538782
1708436163.7724774,-2.1420557498931885,-1.3335984212211152,-2.526952091847555,6.111110436707296,1.0178874731063843,-2.785133186970846
1708436163.7744846,-2.1420016288757324,-1.3336144399693985,-2.526907269154684,6.111196625023641,1.0178709030151367,-2.7851532141314905
1708436163.776488,-2.1420094966888428,-1.3335953962853928,-2.526919190083639,6.111159550934591,1.0178295373916626,-2.785121266041891
1708436163.778486,-2.1420061588287354,-1.3336474758437653,-2.526961151753561,6.11117576339797,1.0178546905517578,-2.7851033846484583
1708436163.7804918,-2.1419758796691895,-1.333602936272957,-2.526943031941549,6.111131059914388,1.017883062362671,-2.785095993672506
1708436163.782509,-2.1420140266418457,-1.333663822417595,-2.526952091847555,6.111199843674459,1.0178546905517578,-2.7851529757129114
1708436163.784591,-2.1419970989227295,-1.3336072725108643,-2.526902739201681,6.111172663956442,1.0179036855697632,-2.785145107899801
1708436163.7865093,-2.1420016288757324,-1.3336801838925858,-2.526926581059591,6.111168134003439,1.0179036855697632,-2.78512412706484
1708436163.788521,-2.1419970989227295,-1.3336593967727204,-2.526923720036642,6.111134516983785,1.0179036855697632,-2.785116736088888
1708436163.7904797,-2.1419804096221924,-1.3336563420346756,-2.526973311101095,6.111196744232931,1.0178579092025757,-2.785107676182882
1708436163.792492,-2.1420228481292725,-1.3336056780866166,-2.526876989995138,6.111162650376119,1.0178295373916626,-2.785116736088888
1708436163.7945035,-2.1420061588287354,-1.3336144250682374,-2.526898209248678,6.111196625023641,1.0178381204605103,-2.785187307988302
1708436163.7965019,-2.1419599056243896,-1.3336519759944458,-2.526923720036642,6.111184465676107,1.017891764640808,-2.785125795994894
1708436163.7984962,-2.142042398452759,-1.3336355996182938,-2.5268848578082483,6.111171352654257,1.0178459882736206,-2.785075012837545
1708436163.8005054,-2.142010450363159,-1.3336683523705979,-2.526898209248678,6.11111472824172,1.017907977104187,-2.785175387059347
1708436163.8025203,-2.1420209407806396,-1.3335939806750794,-2.526935640965597,6.111179220467367,1.0178337097167969,-2.785092894230978
1708436163.8044918,-2.1420342922210693,-1.3336073023131867,-2.526898209248678,6.11115192154006,1.017891764640808,-2.785133186970846
1708436163.8065057,-2.141984701156616,-1.3336474609426041,-2.526919190083639,6.11117576339797,1.0178709030151367,-2.785109345112936
1708436163.808513,-2.1420016288757324,-1.3336011630347748,-2.526919190083639,6.111134516983785,1.0178546905517578,-2.785137716923849
1708436163.810503,-2.1420094966888428,-1.3336356443217774,-2.5268741289721888,6.111142146378317,1.0178664922714233,-2.78516656557192
1708436163.8124816,-2.1419970989227295,-1.3336356294206162,-2.526923720036642,6.111208665161886,1.0178468227386475,-2.785095993672506
1708436163.814497,-2.1420514583587646,-1.3336770099452515,-2.526935640965597,6.111163842469015,1.0178874731063843,-2.785133186970846
1708436163.8165188,-2.1420140266418457,-1.3336055737784882,-2.526876989995138,6.111150729447164,1.0178709030151367,-2.785112444554464
1708436163.8185036,-2.1420228481292725,-1.3336770695498963,-2.526876989995138,6.111204135208883,1.0178622007369995,-2.785140577946798
1708436163.8204987,-2.1419970989227295,-1.3335851591876526,-2.526935640965597,6.111201035767355,1.0178381204605103,-2.7851627508746546
1708436163.8224783,-2.1419644355773926,-1.333656297331192,-2.526902739201681,6.111117946892538,1.0178709030151367,-2.785088602696554
1708436163.8244817,-2.1419837474823,-1.3336099994233628,-2.526907269154684,6.111208665161886,1.0178096294403076,-2.7851420084582728
1708436163.8264883,-2.1420140266418457,-1.333663822417595,-2.526907269154684,6.111171352654257,1.0178589820861816,-2.7850914637195032
1708436163.8285131,-2.1420140266418457,-1.3336683523705979,-2.5269401709186,6.111171352654257,1.017863392829895,-2.7851138750659388
1708436163.8304763,-2.1420016288757324,-1.3335657876781006,-2.526910130177633,6.111236321717062,1.017879605293274,-2.785100523625509
1708436163.8325067,-2.1419970989227295,-1.333617852335312,-2.526968781148092,6.11118363121108,1.0178838968276978,-2.785121266041891
1708436163.8344977,-2.14200496673584,-1.3336277616075058,-2.5269401709186,6.111227619438925,1.0178381204605103,-2.785104815159933
1708436163.836455,-2.1420094966888428,-1.333598406319954,-2.526944700871603,6.11121295669631,1.0178511142730713,-2.785125795994894
1708436163.838486,-2.142000436782837,-1.3336311292699357,-2.526890579854147,6.111216056137838,1.0178306102752686,-2.7850974241839808
1708436163.8404777,-2.1420106887817383,-1.3336233061603089,-2.526928249989645,6.111158478050985,1.0178468227386475,-2.785104815159933
1708436163.8425093,-2.1419970989227295,-1.3336296093514939,-2.526898209248678,6.111187922745504,1.0177816152572632,-2.7851420084582728
1708436163.8444717,-2.1419804096221924,-1.333605558877327,-2.526914660130636,6.111179220467367,1.0178349018096924,-2.785128657017843
1708436163.8464673,-2.1420140266418457,-1.3336356443217774,-2.5269325415240687,6.111237871437826,1.0178219079971313,-2.785093132649557
1708436163.8484855,-2.1419804096221924,-1.3336233359626313,-2.5268831888781946,6.111208665161886,1.0178751945495605,-2.785121266041891
1708436163.850484,-2.1419758796691895,-1.3336385947516938,-2.526890579854147,6.111126649170675,1.017842411994934,-2.7850974241839808
1708436163.8525097,-2.1419835090637207,-1.3336056035808106,-2.526928249989645,6.111240017205038,1.0178838968276978,-2.7851181666003626
1708436163.8544939,-2.14200496673584,-1.333627776508667,-2.5268831888781946,6.111261713295736,1.017876386642456,-2.785105053578512
1708436163.8564968,-2.1420185565948486,-1.3336222481778641,-2.5269325415240687,6.111150729447164,1.0178306102752686,-2.7851465384112757
1708436163.8585227,-2.1420557498931885,-1.3336385947516938,-2.526886049901144,6.111216056137838,1.017920970916748,-2.7851181666003626
1708436163.8605342,-2.1420300006866455,-1.3336277318051835,-2.526919190083639,6.111211764603414,1.0178468227386475,-2.785109345112936
1708436163.862515,-2.1420140266418457,-1.3336296093514939,-2.526907269154684,6.111175048142233,1.0178349018096924,-2.785109345112936
1708436163.8644962,-2.1420254707336426,-1.3336430352977295,-2.526890579854147,6.11122344711379,1.0178589820861816,-2.785109345112936
1708436163.866501,-2.1420300006866455,-1.3336252135089417,-2.5268951098071497,6.111220347672262,1.0178227424621582,-2.7851300875293177
1708436163.8685205,-2.1419575214385986,-1.333610014324524,-2.5268951098071497,6.1112356064613245,1.0178349018096924,-2.7851346174823206
1708436163.8705056,-2.1420061588287354,-1.3335776192000885,-2.526886049901144,6.11122344711379,1.0178349018096924,-2.785051409398214
1708436163.8724744,-2.141984701156616,-1.3336430203965683,-2.526911799107687,6.111301052361288,1.017802119255066,-2.785076681767599
1708436163.874494,-2.1419970989227295,-1.33367574334655,-2.526935640965597,6.1112475273902795,1.0178555250167847,-2.7850855032550257
1708436163.8764675,-2.1420254707336426,-1.3336474758437653,-2.5269325415240687,6.1112966416175745,1.0178227424621582,-2.7851138750659388
1708436163.8785691,-2.1420140266418457,-1.333651990895607,-2.526848379765646,6.111299741059103,1.0178313255310059,-2.7850974241839808
1708436163.8805206,-2.1419835090637207,-1.3336757582477112,-2.526881519948141,6.111380326538839,1.017786979675293,-2.7851017157184046
1708436163.8824856,-2.1420209407806396,-1.3336266589215775,-2.526914660130636,6.111375915795126,1.0178349018096924,-2.7850855032550257
1708436163.884597,-2.1420061588287354,-1.3336683523705979,-2.526911799107687,6.111375915795126,1.0178108215332031,-2.7851138750659388
1708436163.8865352,-2.1420469284057617,-1.333605558877327,-2.526890579854147,6.111355054169454,1.0178227424621582,-2.785109345112936
1708436163.8885581,-2.1420469284057617,-1.3336593371680756,-2.526907269154684,6.111290085106649,1.0177946090698242,-2.7850974241839808
1708436163.8905454,-2.1419644355773926,-1.3336593520692368,-2.526902739201681,6.111368047982015,1.017827033996582,-2.7851389090167444
1708436163.8924856,-2.1420209407806396,-1.3336117130569,-2.526928249989645,6.111350643425741,1.017827033996582,-2.785109345112936
1708436163.8945367,-2.1420469284057617,-1.3336233061603089,-2.526902739201681,6.111323582917013,1.0178720951080322,-2.785069290791647
1708436163.8964834,-2.1420016288757324,-1.3336189550212403,-2.5268877188311976,6.111343133240499,1.017802119255066,-2.785072151814596
1708436163.8984761,-2.142042398452759,-1.333635614519455,-2.5268996397601526,6.111375915795126,1.0178183317184448,-2.7850809733020228
1708436163.9004836,-2.1420094966888428,-1.3336683821729203,-2.5268619696246546,6.111319291382589,1.0178183317184448,-2.7851584593402308
1708436163.902479,-2.142042398452759,-1.3336189848235627,-2.5269163290606897,6.111310589104452,1.0178393125534058,-2.785092894230978
1708436163.9045103,-2.1420469284057617,-1.3335984659245987,-2.526907269154684,6.111368047982015,1.0178393125534058,-2.7850974241839808
1708436163.9064875,-2.1419804096221924,-1.3336474609426041,-2.526907269154684,6.111375915795126,1.0178349018096924,-2.7850690523730677
1708436163.9084797,-2.14200496673584,-1.3336430501988907,-2.526869599019186,6.111318099289694,1.017798900604248,-2.7850735823260706
1708436163.9105294,-2.1420016288757324,-1.3336520057967682,-2.526886049901144,6.111343133240499,1.0177903175354004,-2.7850974241839808
1708436163.912504,-2.1420140266418457,-1.3336385947516938,-2.5269492308246058,6.111355054169454,1.017827033996582,-2.7850900332080286
1708436163.914507,-2.1419837474823,-1.3336519461921235,-2.5269163290606897,6.11132692077712,1.0178031921386719,-2.785109345112936
1708436163.9164774,-2.1420016288757324,-1.3336222481778641,-2.5269208590136927,6.111368047982015,1.0178238153457642,-2.785060230885641
1708436163.918507,-2.14200496673584,-1.3336178672364731,-2.5268786589251917,6.111322510033407,1.017798900604248,-2.7851019541369837
1708436163.9204862,-2.1419928073883057,-1.3336100441268464,-2.526935640965597,6.111359345703878,1.0178108215332031,-2.7851226965533655
1708436163.922523,-2.1420016288757324,-1.3336233061603089,-2.526898209248678,6.111380326538839,1.0178227424621582,-2.7850690523730677
1708436163.924479,-2.1420061588287354,-1.333605558877327,-2.526890579854147,6.111309516220846,1.0178031921386719,-2.7851317564593714
1708436163.9265223,-2.1420254707336426,-1.3336430352977295,-2.526928249989645,6.111331212311544,1.0178478956222534,-2.7851107756244105
1708436163.928492,-2.1420254707336426,-1.3336549413255234,-2.526902739201681,6.1113637564475916,1.0178313255310059,-2.785125795994894
1708436163.9304798,-2.1420342922210693,-1.3336386245540162,-2.526881519948141,6.111371624260702,1.0178436040878296,-2.7851181666003626
1708436163.9324782,-2.1420705318450928,-1.3336011332324524,-2.5268951098071497,6.11131380775527,1.017798900604248,-2.7851138750659388
1708436163.934494,-2.1419804096221924,-1.3336222481778641,-2.5268831888781946,6.111396539002218,1.0177946090698242,-2.785076681767599
1708436163.9364743,-2.142000436782837,-1.3336459559253235,-2.5268574396716517,6.111383425980367,1.017802119255066,-2.7851226965533655
1708436163.9385238,-2.1420300006866455,-1.3336099696210404,-2.526902739201681,6.111400949745931,1.017815113067627,-2.7850478331195276
1708436163.9404929,-2.142042398452759,-1.3335776192000885,-2.526919190083639,6.111415970116415,1.0178393125534058,-2.7850356737719935
1708436163.9425254,-2.1420254707336426,-1.3336189848235627,-2.5268574396716517,6.111375915795126,1.0177946090698242,-2.7850566546069544
1708436163.9444878,-2.142037868499756,-1.3336189550212403,-2.526890579854147,6.111318099289694,1.017815113067627,-2.7850900332080286
1708436163.9465034,-2.1419758796691895,-1.333659366970398,-2.526919190083639,6.111334430962362,1.0178108215332031,-2.7851019541369837
1708436163.948509,-2.1419711112976074,-1.3336266589215775,-2.5268786589251917,6.111334430962362,1.0177903175354004,-2.7850900332080286
1708436163.9505033,-2.142063856124878,-1.3336233061603089,-2.526928249989645,6.111387836724081,1.017786979675293,-2.7851062456714075
1708436163.9525216,-2.1419970989227295,-1.333672673707344,-2.526944700871603,6.111355054169454,1.0177741050720215,-2.7850735823260706
1708436163.954486,-2.14200496673584,-1.3336144548705597,-2.5268786589251917,6.111392247467794,1.0178031921386719,-2.7850809733020228
1708436163.956564,-2.1419928073883057,-1.3336549562266846,-2.5269163290606897,6.111358511238851,1.017786979675293,-2.7850475947009485
1708436163.9584875,-2.1420342922210693,-1.3336474907449265,-2.5268831888781946,6.111419546395101,1.017815113067627,-2.785093132649557
1708436163.9604943,-2.1420094966888428,-1.3336311143687745,-2.526890579854147,6.111346351891317,1.0178108215332031,-2.7851272265063685
1708436163.9625335,-2.1419804096221924,-1.3336519461921235,-2.5268951098071497,6.111383425980367,1.0177913904190063,-2.7850268522845667
1708436163.9644847,-2.1420094966888428,-1.3336100292256852,-2.526886049901144,6.111415970116415,1.017786979675293,-2.7850945631610315
1708436163.9665072,-2.1420185565948486,-1.3336430203965683,-2.526914660130636,6.111368047982015,1.017815113067627,-2.7850945631610315
1708436163.9684842,-2.1419970989227295,-1.3336099994233628,-2.5268786589251917,6.111338841706075,1.0177661180496216,-2.7850433031665247
1708436163.970486,-2.142000436782837,-1.3336072725108643,-2.5269163290606897,6.111305224686422,1.0178031921386719,-2.7850735823260706
1708436163.9724987,-2.1420140266418457,-1.3336430203965683,-2.5268951098071497,6.111343133240499,1.0178031921386719,-2.785060230885641
1708436163.9745386,-2.1419970989227295,-1.3336757135442276,-2.526902739201681,6.111331212311544,1.017815113067627,-2.7851062456714075
1708436163.9765291,-2.1420164108276367,-1.3336266589215775,-2.526923720036642,6.11137484291152,1.0178238153457642,-2.7850900332080286
1708436163.9784904,-2.1420140266418457,-1.3336189848235627,-2.5268574396716517,6.111355054169454,1.0177539587020874,-2.7850855032550257
1708436163.9804974,-2.1419758796691895,-1.3336682927659531,-2.5268877188311976,6.111355054169454,1.0177913904190063,-2.7850611845599573
1708436163.982487,-2.1420094966888428,-1.33363992095504,-2.5268412272082728,6.111322510033407,1.0178031921386719,-2.785060230885641
1708436163.98454,-2.1420254707336426,-1.333622233276703,-2.5268741289721888,6.111383425980367,1.017798900604248,-2.7850492636310022
1708436163.9865208,-2.1420469284057617,-1.3336563420346756,-2.5268996397601526,6.111334430962362,1.0177946090698242,-2.7850855032550257
1708436163.9885364,-2.1420469284057617,-1.3335984659245987,-2.5269373098956507,6.1113343117530725,1.017815113067627,-2.785064760838644
1708436163.9904878,-2.142063856124878,-1.3336189848235627,-2.5268951098071497,6.111359345703878,1.0177783966064453,-2.7851138750659388
1708436163.9924872,-2.142037868499756,-1.3336386245540162,-2.5269327799426478,6.111420380860128,1.0177661180496216,-2.7850781122790735
1708436163.994483,-2.1419880390167236,-1.333617852335312,-2.5268412272082728,6.111396539002218,1.0177826881408691,-2.7851110140429896
1708436163.9964848,-2.1420094966888428,-1.333656371836998,-2.5268664995776575,6.111338841706075,1.0178194046020508,-2.7850566546069544
1708436163.9985015,-2.1419711112976074,-1.3336924624494095,-2.5268996397601526,6.111375915795126,1.0177661180496216,-2.7850566546069544
1708436164.0005045,-2.1420388221740723,-1.3336683076671143,-2.5268996397601526,6.111322510033407,1.0177748203277588,-2.7850566546069544
1708436164.002482,-2.1419689655303955,-1.3336683076671143,-2.526890579854147,6.1113518355186365,1.0178313255310059,-2.7850826422320765
1708436164.0044882,-2.141989231109619,-1.3336801391891022,-2.5268996397601526,6.11132692077712,1.017786979675293,-2.7850492636310022
1708436164.0064905,-2.1420300006866455,-1.3336801391891022,-2.526902739201681,6.111383425980367,1.0177946090698242,-2.785060230885641
1708436164.0085075,-2.1420094966888428,-1.3336277318051835,-2.5268619696246546,6.111318099289694,1.017798900604248,-2.7850690523730677
1708436164.0105567,-2.1419928073883057,-1.3336311292699357,-2.5268831888781946,6.111350643425741,1.017827033996582,-2.7850690523730677
1708436164.0124953,-2.142068386077881,-1.3335820448449631,-2.526907269154684,6.111396539002218,1.0178031921386719,-2.7850945631610315
1708436164.0145006,-2.142010450363159,-1.3336594116738816,-2.5268619696246546,6.111338841706075,1.0177903175354004,-2.7850900332080286
1708436164.0164878,-2.1420094966888428,-1.3336232912591477,-2.526911799107687,6.111375915795126,1.0177903175354004,-2.7850402037249964
1708436164.0184991,-2.1420342922210693,-1.3336549562266846,-2.5269163290606897,6.111350643425741,1.017798900604248,-2.7850611845599573
1708436164.0204887,-2.1420514583587646,-1.3336266738227387,-2.5268922487842005,6.111305105477133,1.0177946090698242,-2.7850566546069544
1708436164.0225039,-2.1420185565948486,-1.3336683523705979,-2.5268996397601526,6.111313926964559,1.0178478956222534,-2.785064760838644
1708436164.024487,-2.1419970989227295,-1.3336593967727204,-2.5269163290606897,6.111330020218649,1.017811894416809,-2.7850402037249964
1708436164.026507,-2.1419880390167236,-1.3336757284453888,-2.5268877188311976,6.111359345703878,1.017815113067627,-2.7850690523730677
1708436164.0285172,-2.1420254707336426,-1.3336549413255234,-2.5268786589251917,6.111338841706075,1.0177704095840454,-2.7850945631610315
1708436164.0304887,-2.1420094966888428,-1.3336757284453888,-2.526928249989645,6.111376035004415,1.0178076028823853,-2.7850657145129603
1708436164.0325024,-2.1420254707336426,-1.3336178076318284,-2.5269373098956507,6.111380326538839,1.0177946090698242,-2.7850855032550257
1708436164.034489,-2.1420185565948486,-1.3336310994676133,-2.526890579854147,6.111359345703878,1.0177826881408691,-2.7850447336779993
1708436164.0365074,-2.1420469284057617,-1.3335866046002884,-2.5268831888781946,6.111347424774923,1.0178238153457642,-2.7850990931140345
1708436164.0385048,-2.1420726776123047,-1.3335850995830079,-2.5268574396716517,6.111330020218649,1.017785906791687,-2.7850897947894495
1708436164.040495,-2.142042398452759,-1.3336398613503953,-2.5268877188311976,6.111256468086996,1.0178031921386719,-2.7850492636310022
1708436164.042515,-2.142054557800293,-1.333663822417595,-2.5269163290606897,6.111359345703878,1.0177946090698242,-2.7850566546069544
1708436164.0444882,-2.1420140266418457,-1.3335896593383332,-2.5268619696246546,6.111359345703878,1.0177946090698242,-2.7850657145129603
1708436164.0465097,-2.1419880390167236,-1.3336801838925858,-2.5268996397601526,6.111301886826315,1.0177913904190063,-2.7850492636310022
1708436164.0485096,-2.142037868499756,-1.3336593818715592,-2.5268831888781946,6.1113637564475916,1.0177826881408691,-2.7850566546069544
1708436164.0504937,-2.1420140266418457,-1.3336879771998902,-2.5268664995776575,6.111355054169454,1.0178031921386719,-2.785112206135885
1708436164.052548,-2.1420772075653076,-1.3336144101670762,-2.5268591086017054,6.111331212311544,1.0177946090698242,-2.7850566546069544
1708436164.0545294,-2.1420342922210693,-1.3336356443217774,-2.526928249989645,6.111350643425741,1.0177903175354004,-2.7850566546069544
1708436164.0565152,-2.142037868499756,-1.3336222630790253,-2.5268831888781946,6.111298668175497,1.0177826881408691,-2.7850826422320765
1708436164.05848,-2.142037868499756,-1.3336189699224015,-2.5268710295306605,6.111331212311544,1.0177946090698242,-2.7850447336779993
1708436164.0604985,-2.1420016288757324,-1.3336178076318284,-2.5268619696246546,6.111310589104452,1.017798900604248,-2.7850826422320765
1708436164.0624986,-2.142037868499756,-1.3336593967727204,-2.526907269154684,6.111368047982015,1.0178194046020508,-2.7850492636310022
1708436164.064481,-2.1420254707336426,-1.3336890798858185,-2.5269251505481165,6.111335503845968,1.017827033996582,-2.7850402037249964
1708436164.066482,-2.142033338546753,-1.3336385798505326,-2.5268922487842005,6.111368047982015,1.0177783966064453,-2.78504187265505
1708436164.0684993,-2.1420094966888428,-1.3336189550212403,-2.5268786589251917,6.111331212311544,1.0177748203277588,-2.7850166002856653
1708436164.0704765,-2.1419758796691895,-1.333692417745926,-2.5268335978137415,6.111389028816976,1.017798900604248,-2.7850492636310022
1708436164.0724792,-2.1420254707336426,-1.3336055737784882,-2.5268951098071497,6.111322510033407,1.017798900604248,-2.785078827534811
1708436164.0744874,-2.1420705318450928,-1.3336189550212403,-2.5269327799426478,6.111397611885824,1.017827033996582,-2.7850046793567103
1708436164.076485,-2.142043352127075,-1.3337177497199555,-2.5269163290606897,6.111298668175497,1.0178393125534058,-2.78504187265505
1708436164.0785093,-2.1419713497161865,-1.3336322170547028,-2.5268574396716517,6.111298668175497,1.0178031921386719,-2.785020891820089
1708436164.080516,-2.1420342922210693,-1.3336505156806489,-2.5268996397601526,6.111331212311544,1.0178194046020508,-2.7850328127490442
1708436164.0824904,-2.1420388221740723,-1.3336144846728821,-2.526869837437765,6.111338841706075,1.0178031921386719,-2.7850566546069544
1708436164.084511,-2.142042398452759,-1.3336266738227387,-2.5269084612475794,6.111359345703878,1.0177826881408691,-2.7850328127490442
1708436164.08666,-2.142037868499756,-1.3336029064706345,-2.5269041697131556,6.1113637564475916,1.0178194046020508,-2.785008970891134
1708436164.08862,-2.1420300006866455,-1.333605558877327,-2.5268741289721888,6.111322510033407,1.017827033996582,-2.7850239912616175
1708436164.0905142,-2.142075300216675,-1.3336311441710968,-2.5268877188311976,6.1113518355186365,1.0177913904190063,-2.785025421773092
1708436164.0925186,-2.142042398452759,-1.3336189699224015,-2.5269373098956507,6.111319291382589,1.017815113067627,-2.7850356737719935
1708436164.0944908,-2.1420798301696777,-1.3336266589215775,-2.526886049901144,6.111314999848165,1.017815113067627,-2.785029951726095
1708436164.0965,-2.1420209407806396,-1.333651990895607,-2.526890579854147,6.111278164177694,1.017815113067627,-2.785053793584005
1708436164.098496,-2.14200496673584,-1.3336222928813477,-2.526911799107687,6.11135612705306,1.0178227424621582,-2.785050694142477
1708436164.1005254,-2.1420300006866455,-1.3336835664561768,-2.526923720036642,6.111314999848165,1.0178436040878296,-2.785037342702047
1708436164.102485,-2.1420094966888428,-1.3336713028005143,-2.5268951098071497,6.111343133240499,1.017827033996582,-2.785037342702047
1708436164.104502,-2.1420209407806396,-1.3336443465999146,-2.5268967787372034,6.111298668175497,1.0178356170654297,-2.785020891820089
1708436164.1065004,-2.1420016288757324,-1.3336474609426041,-2.5269416014300745,6.111368047982015,1.017815113067627,-2.7850166002856653
1708436164.1085055,-2.1420469284057617,-1.3336519759944458,-2.526890579854147,6.111372339516439,1.017815113067627,-2.785058085118429
1708436164.1104991,-2.1420207023620605,-1.3336056035808106,-2.5268741289721888,6.1113637564475916,1.0178436040878296,-2.785001579915182
1708436164.1124918,-2.142042398452759,-1.3336802285960694,-2.526902739201681,6.11133228519515,1.0178227424621582,-2.785037342702047
1708436164.1145005,-2.1419804096221924,-1.3336846989444275,-2.5268877188311976,6.111310589104452,1.0178194046020508,-2.785062615071432
1708436164.1165044,-2.1420094966888428,-1.3336310994676133,-2.5268664995776575,6.111306297570028,1.0178108215332031,-2.785001579915182
1708436164.118472,-2.1420681476593018,-1.3336757135442276,-2.526907269154684,6.111323582917013,1.017769694328308,-2.785013500844137
1708436164.1205125,-2.1420061588287354,-1.3336399358562012,-2.5268664995776575,6.111347424774923,1.0178108215332031,-2.7850285212146204
1708436164.1225133,-2.1420300006866455,-1.3335732531598588,-2.526907269154684,6.111331212311544,1.017757534980774,-2.7850001494037073
1708436164.1245034,-2.1419758796691895,-1.3336638075164338,-2.526890579854147,6.111298668175497,1.0177903175354004,-2.78504187265505
1708436164.126475,-2.1420342922210693,-1.3336474609426041,-2.5269041697131556,6.1113366959388635,1.0177661180496216,-2.784980122243063
1708436164.1285152,-2.1419804096221924,-1.3336295944503327,-2.526886049901144,6.111331212311544,1.017840027809143,-2.784997049962179
1708436164.1304908,-2.1420388221740723,-1.3336267185262223,-2.5268786589251917,6.111323582917013,1.017802119255066,-2.785037342702047
1708436164.1324909,-2.1420254707336426,-1.333663822417595,-2.5268741289721888,6.111389028816976,1.017757534980774,-2.785006109868185
1708436164.1345026,-2.142000436782837,-1.3336430352977295,-2.5268831888781946,6.111298668175497,1.0178848505020142,-2.7849882284747522
1708436164.136495,-2.1420185565948486,-1.3336474162391205,-2.5269041697131556,6.111298668175497,1.0178108215332031,-2.785034243260519
1708436164.138486,-2.1420514583587646,-1.3336311292699357,-2.526928249989645,6.111282455712118,1.017815113067627,-2.784997049962179
1708436164.1405025,-2.1419928073883057,-1.3336549264243622,-2.5268741289721888,6.111298668175497,1.0177946090698242,-2.785013500844137
1708436164.1424854,-2.1420140266418457,-1.3336266887239,-2.5269327799426478,6.11130307891921,1.017798900604248,-2.7850001494037073
1708436164.1444883,-2.1420469284057617,-1.3335865896991272,-2.5268951098071497,6.11135612705306,1.0177783966064453,-2.785001579915182
1708436164.146488,-2.1420209407806396,-1.3336056035808106,-2.5269163290606897,6.111282455712118,1.0177741050720215,-2.785008970891134
1708436164.1484973,-2.1420209407806396,-1.333651990895607,-2.5268500486956995,6.111314999848165,1.0178183317184448,-2.78501803079714
1708436164.1504836,-2.1419668197631836,-1.3335850697806855,-2.5268951098071497,6.111287939339437,1.0178031921386719,-2.7849882284747522
1708436164.152491,-2.1419880390167236,-1.3336355847171326,-2.5268619696246546,6.111274826317587,1.0178065299987793,-2.7849882284747522
1708436164.1545136,-2.1420559883117676,-1.3336266291192551,-2.5269370714770716,6.111299741059103,1.0177783966064453,-2.78505522409548
1708436164.156532,-2.142059326171875,-1.3336311143687745,-2.5268457571612757,6.111307370453634,1.0178108215332031,-2.785058085118429
1708436164.1584978,-2.1420648097991943,-1.3336474609426041,-2.526935640965597,6.111282455712118,1.0178227424621582,-2.7850046793567103
1708436164.1604824,-2.1420164108276367,-1.3336055290750046,-2.5269401709186,6.111291157990255,1.0178313255310059,-2.785046164189474
1708436164.1624944,-2.1420254707336426,-1.3336549562266846,-2.5269327799426478,6.111314880638876,1.017815113067627,-2.785008970891134
1708436164.1644795,-2.1419880390167236,-1.3336474609426041,-2.5268741289721888,6.11128448227004,1.017785906791687,-2.785013500844137
1708436164.1664913,-2.1419928073883057,-1.3336341691068192,-2.5268664995776575,6.111286747246542,1.017827033996582,-2.785001579915182
1708436164.1684778,-2.141989231109619,-1.3336637777141114,-2.526923720036642,6.111258256226339,1.017840027809143,-2.785008970891134
1708436164.1704772,-2.1420300006866455,-1.3335939657739182,-2.526869599019186,6.111283528595724,1.0178313255310059,-2.7850669066058558
1708436164.1724975,-2.1419835090637207,-1.3336072874120255,-2.5268786589251917,6.111270534783163,1.0178194046020508,-2.7850833574878138
1708436164.1745002,-2.14200496673584,-1.3336356294206162,-2.5268741289721888,6.111323582917013,1.017741084098816,-2.785001579915182
1708436164.1764753,-2.1420514583587646,-1.3336607676795502,-2.5268710295306605,6.111316072731771,1.0178313255310059,-2.785039011632101
1708436164.178507,-2.1420726776123047,-1.333618940120079,-2.526928249989645,6.111283528595724,1.017815113067627,-2.785008970891134
1708436164.180493,-2.1419928073883057,-1.3336683374694367,-2.5268996397601526,6.1112792370613,1.0177661180496216,-2.785013500844137
1708436164.182489,-2.1420185565948486,-1.3335966628840943,-2.5268574396716517,6.1113085625465295,1.0177741050720215,-2.785034243260519
1708436164.1845155,-2.1420342922210693,-1.3336356741240998,-2.5268710295306605,6.11124204376296,1.0178227424621582,-2.785038773213522
1708436164.186585,-2.1420230865478516,-1.3336100590280076,-2.5268245379077356,6.111287939339437,1.017815113067627,-2.785008970891134
1708436164.1885245,-2.1419928073883057,-1.3335984212211152,-2.5269163290606897,6.111262547760763,1.0178238153457642,-2.785013500844137
1708436164.1904917,-2.1420140266418457,-1.3336189550212403,-2.5268741289721888,6.111250746041097,1.017798900604248,-2.785067145024435
1708436164.1924953,-2.1420602798461914,-1.333663822417595,-2.5269163290606897,6.111259448319235,1.0178194046020508,-2.7849748770343226
1708436164.1944993,-2.1419970989227295,-1.3335687232068558,-2.5268922487842005,6.111259448319235,1.0178227424621582,-2.785050694142477
1708436164.1964753,-2.1420514583587646,-1.3336356443217774,-2.5268786589251917,6.1112756607826135,1.0178313255310059,-2.785046164189474
1708436164.1984985,-2.1419970989227295,-1.3336189699224015,-2.5268996397601526,6.111222612648763,1.0178108215332031,-2.784992758427755
1708436164.200501,-2.1419849395751953,-1.3336399656585236,-2.5268996397601526,6.11121820190505,1.0177826881408691,-2.785020891820089
1708436164.2025177,-2.1419970989227295,-1.3336638075164338,-2.5269132296191614,6.111214744835653,1.01775324344635,-2.785050694142477
1708436164.2045078,-2.1419758796691895,-1.3336232614568253,-2.5268996397601526,6.1112146256263635,1.0178108215332031,-2.785074536000387
1708436164.206484,-2.1420207023620605,-1.3336144399693985,-2.526911799107687,6.111125933914938,1.0177946090698242,-2.785034243260519
1708436164.2084975,-2.1420061588287354,-1.333644376402237,-2.526911799107687,6.111155140190878,1.0177826881408691,-2.785034243260519
1708436164.2105012,-2.1420061588287354,-1.3336266738227387,-2.5268831888781946,6.111119019776144,1.0178683996200562,-2.7850001494037073
1708436164.2125115,-2.1419758796691895,-1.3336072278073807,-2.5268786589251917,6.111135351448812,1.0178349018096924,-2.7850657145129603
1708436164.2144969,-2.141984701156616,-1.3335776192000885,-2.5269327799426478,6.111143219261923,1.0178349018096924,-2.7850869337665003
1708436164.216485,-2.14200496673584,-1.3336029660752793,-2.5268877188311976,6.111119138985433,1.0178313255310059,-2.7850328127490442
1708436164.2185104,-2.142042636871338,-1.3336133372834702,-2.5269041697131556,6.111123549729147,1.017785906791687,-2.7850871721850794
1708436164.220521,-2.1419758796691895,-1.3336757284453888,-2.526923720036642,6.111119138985433,1.017798900604248,-2.7850075403796595
1708436164.2225022,-2.14200496673584,-1.3336474609426041,-2.5269041697131556,6.111181247025289,1.0178478956222534,-2.7850328127490442
1708436164.2245362,-2.1420300006866455,-1.3336189699224015,-2.526898209248678,6.111122238426962,1.0178108215332031,-2.7850869337665003
1708436164.2265334,-2.1420094966888428,-1.3336519759944458,-2.5268574396716517,6.111139762192526,1.017815113067627,-2.7850657145129603
1708436164.2284915,-2.142059326171875,-1.3336276871016999,-2.526886049901144,6.111172544747152,1.0178393125534058,-2.7850120703326624
1708436164.2305021,-2.1420209407806396,-1.3336355996182938,-2.5268664995776575,6.11116503456191,1.017815113067627,-2.7850402037249964
1708436164.232562,-2.1420300006866455,-1.3336178225329895,-2.526907269154684,6.111139762192526,1.0178108215332031,-2.7850402037249964
1708436164.2345028,-2.1420300006866455,-1.3336099994233628,-2.5268877188311976,6.111169206887045,1.017815113067627,-2.785037342702047
1708436164.2365336,-2.1420469284057617,-1.33365053058181,-2.5268786589251917,6.111111628800192,1.0177741050720215,-2.7850149313556116
1708436164.2385035,-2.1420514583587646,-1.3336189550212403,-2.5268574396716517,6.111163842469015,1.0178065299987793,-2.7850735823260706
1708436164.2405148,-2.1419713497161865,-1.3336430352977295,-2.526886049901144,6.11111472824172,1.0178313255310059,-2.7850237528430384
1708436164.2425368,-2.1420388221740723,-1.333593950872757,-2.5268996397601526,6.111122238426962,1.017815113067627,-2.7850657145129603
1708436164.2444875,-2.142024517059326,-1.3336100292256852,-2.5268996397601526,6.111156332283773,1.0178183317184448,-2.7850285212146204
1708436164.2465024,-2.1419804096221924,-1.333638609652855,-2.526911799107687,6.111172544747152,1.017840027809143,-2.7851317564593714
1708436164.2484992,-2.1420094966888428,-1.3336549562266846,-2.5269416014300745,6.111209738045492,1.0178356170654297,-2.7850945631610315
1708436164.2504861,-2.1420016288757324,-1.333656297331192,-2.5268741289721888,6.11115192154006,1.0177783966064453,-2.7851389090167444
1708436164.2525024,-2.1420140266418457,-1.3336430203965683,-2.526928249989645,6.111197459488668,1.0178477764129639,-2.785064760838644
1708436164.2544868,-2.141989231109619,-1.3336549562266846,-2.5269208590136927,6.111134516983785,1.0177783966064453,-2.7850735823260706
1708436164.256521,-2.1419928073883057,-1.3335984212211152,-2.5268996397601526,6.111126649170675,1.0178393125534058,-2.7850313822375696
1708436164.2585046,-2.1419758796691895,-1.3336923879436036,-2.5268245379077356,6.11116503456191,1.017798900604248,-2.785055700932638
1708436164.2605271,-2.1420469284057617,-1.3336519759944458,-2.5269208590136927,6.111126649170675,1.0177903175354004,-2.785092894230978
1708436164.262561,-2.1420300006866455,-1.3336519759944458,-2.5268786589251917,6.111130106240072,1.0178227424621582,-2.7850447336779993
1708436164.2644954,-2.1420254707336426,-1.333601177935936,-2.5268786589251917,6.111184465676107,1.0177903175354004,-2.785109345112936
1708436164.2665255,-2.1420254707336426,-1.3336651039174576,-2.5269163290606897,6.1110572693641565,1.017827033996582,-2.7850855032550257
1708436164.2684922,-2.142037868499756,-1.3336144548705597,-2.5268996397601526,6.111102807312765,1.017769694328308,-2.7851153055774134
1708436164.2704835,-2.1420228481292725,-1.3336549562266846,-2.526911799107687,6.111188876419821,1.0178393125534058,-2.7850974241839808
1708436164.272529,-2.142054796218872,-1.333610014324524,-2.5269327799426478,6.111107218056478,1.0177741050720215,-2.785055700932638
1708436164.2744856,-2.1420342922210693,-1.3336399656585236,-2.5268831888781946,6.111139762192526,1.0178108215332031,-2.7850974241839808
1708436164.276515,-2.1420273780822754,-1.33365053058181,-2.5268664995776575,6.111123549729147,1.017785906791687,-2.785125795994894
1708436164.2785006,-2.1420140266418457,-1.3336266887239,-2.5269041697131556,6.111201035767355,1.0178227424621582,-2.7850809733020228
1708436164.280495,-2.1419711112976074,-1.3336579364589234,-2.5269041697131556,6.111139762192526,1.0177783966064453,-2.7851300875293177
1708436164.2825484,-2.1420140266418457,-1.3336144399693985,-2.5269492308246058,6.111119138985433,1.0178313255310059,-2.7850809733020228
1708436164.2845352,-2.141984701156616,-1.33365053058181,-2.5268951098071497,6.1111923334892175,1.017785906791687,-2.785064760838644
1708436164.286588,-2.1419970989227295,-1.3336593818715592,-2.526890579854147,6.1111570475395105,1.0178183317184448,-2.7851629892932337
1708436164.288526,-2.1420469284057617,-1.333644376402237,-2.526890579854147,6.11115192154006,1.0178478956222534,-2.785088602696554
1708436164.290503,-2.1420094966888428,-1.3336430352977295,-2.5268619696246546,6.111127841263571,1.0178349018096924,-2.785104815159933
1708436164.2924957,-2.1419804096221924,-1.3336638075164338,-2.5268951098071497,6.111102807312765,1.0178065299987793,-2.785104815159933
1708436164.2944953,-2.1420469284057617,-1.3336549562266846,-2.526869599019186,6.111193167954244,1.017802119255066,-2.785100523625509
1708436164.296498,-2.1420388221740723,-1.3336311143687745,-2.526907269154684,6.111184465676107,1.017827033996582,-2.785109345112936
1708436164.2985122,-2.1420300006866455,-1.3336311143687745,-2.5268877188311976,6.111168134003439,1.0178477764129639,-2.785100523625509
1708436164.3005111,-2.141984701156616,-1.333602936272957,-2.526902739201681,6.111188876419821,1.0178065299987793,-2.7851079146014612
1708436164.302555,-2.1419758796691895,-1.3336683076671143,-2.5268951098071497,6.111139762192526,1.0178183317184448,-2.785116736088888
1708436164.3045223,-2.1419970989227295,-1.3336801391891022,-2.5268996397601526,6.111110436707296,1.0178349018096924,-2.785104815159933
1708436164.3064914,-2.1420342922210693,-1.333601177935936,-2.5268877188311976,6.111143219261923,1.017815113067627,-2.7850690523730677
1708436164.308535,-2.142042398452759,-1.3336232912591477,-2.5268831888781946,6.111107218056478,1.0178511142730713,-2.785109345112936
1708436164.3105206,-2.1419970989227295,-1.3336683076671143,-2.526890579854147,6.1111159203346155,1.017798900604248,-2.7851138750659388
1708436164.3124988,-2.1420016288757324,-1.3336519759944458,-2.5268574396716517,6.111119138985433,1.0178436040878296,-2.785109345112936
1708436164.314496,-2.142054796218872,-1.3335820895484467,-2.526907269154684,6.111221658974447,1.017798900604248,-2.785175387059347
1708436164.3164952,-2.1420185565948486,-1.3335821491530915,-2.5269327799426478,6.111126649170675,1.0178393125534058,-2.785137716923849
1708436164.3185189,-2.1420016288757324,-1.3336889904788514,-2.526923720036642,6.111172544747152,1.0178436040878296,-2.785145107899801
1708436164.3204856,-2.1420016288757324,-1.3335613173297425,-2.5268664995776575,6.111160623818197,1.0178356170654297,-2.785175387059347
1708436164.3225343,-2.1420207023620605,-1.3336519759944458,-2.5268922487842005,6.111172544747152,1.0178065299987793,-2.785140577946798
1708436164.3245003,-2.1420514583587646,-1.3336116981557389,-2.5268710295306605,6.111147630005636,1.017785906791687,-2.785100523625509
1708436164.3264956,-2.1419804096221924,-1.3335966628840943,-2.5269041697131556,6.111123549729147,1.0177903175354004,-2.785187307988302
1708436164.3285182,-2.1420300006866455,-1.3336100441268464,-2.5268877188311976,6.111123549729147,1.0178108215332031,-2.785187307988302
1708436164.3305147,-2.1420342922210693,-1.3336430352977295,-2.5268877188311976,6.111229169159689,1.0178108215332031,-2.785112444554464
1708436164.3324935,-2.1420061588287354,-1.3336519759944458,-2.5268996397601526,6.111147630005636,1.0177741050720215,-2.785128657017843
1708436164.3344939,-2.1420061588287354,-1.3336889904788514,-2.5269373098956507,6.111123549729147,1.0177946090698242,-2.785149637852804
1708436164.3364844,-2.1419837474823,-1.3336056035808106,-2.5268619696246546,6.1111769554908655,1.0178022384643555,-2.785153929387228
1708436164.338503,-2.1420140266418457,-1.3336311292699357,-2.5268831888781946,6.111205446511068,1.017802119255066,-2.785140577946798
1708436164.3404977,-2.1420228481292725,-1.3336144399693985,-2.5268877188311976,6.111160623818197,1.017798900604248,-2.785171095524923
1708436164.342482,-2.1419925689697266,-1.3335984212211152,-2.526890579854147,6.111091363220968,1.0178393125534058,-2.7851420084582728
1708436164.3444963,-2.142043352127075,-1.333662362103798,-2.5268951098071497,6.111126649170675,1.0177817344665527,-2.7851529757129114
1708436164.3464894,-2.1419928073883057,-1.333610014324524,-2.5269416014300745,6.111163842469015,1.017802119255066,-2.7851784865008753
1708436164.3485398,-2.1420300006866455,-1.3336100441268464,-2.5268951098071497,6.111156332283773,1.0177946090698242,-2.785136047993795
1708436164.3504896,-2.1420228481292725,-1.3336355996182938,-2.5268664995776575,6.111134397774496,1.0178393125534058,-2.785128657017843
1708436164.3525133,-2.1419758796691895,-1.333565742974617,-2.5269163290606897,6.111171352654257,1.0178436040878296,-2.7851575056659144
1708436164.3545263,-2.1420254707336426,-1.3336519759944458,-2.5268951098071497,6.111130940705099,1.0178477764129639,-2.7851901690112513
1708436164.3565147,-2.1420228481292725,-1.3336683076671143,-2.5268741289721888,6.111181247025289,1.0178097486495972,-2.7851694265948694
1708436164.3585448,-2.1420185565948486,-1.3336549264243622,-2.526890579854147,6.111131059914388,1.017827033996582,-2.78516656557192
1708436164.3605044,-2.1420254707336426,-1.333638609652855,-2.526907269154684,6.111168134003439,1.0177946090698242,-2.7851901690112513
1708436164.362523,-2.1420342922210693,-1.3336296838572999,-2.5268619696246546,6.111168134003439,1.0177860260009766,-2.7852066198932093
1708436164.3645003,-2.141989231109619,-1.3335984212211152,-2.5268741289721888,6.111148345261373,1.0178141593933105,-2.7850945631610315
1708436164.3664808,-2.142037868499756,-1.3336474609426041,-2.5268409887896937,6.111156332283773,1.0178349018096924,-2.7851858774768274
1708436164.3685086,-2.1420388221740723,-1.3336638075164338,-2.52683669725527,6.111106025963583,1.0178639888763428,-2.7851768175708216
1708436164.3705068,-2.1420388221740723,-1.333626703625061,-2.5268996397601526,6.1111440537269495,1.0178108215332031,-2.7852304617511194
1708436164.372502,-2.1420254707336426,-1.3336144399693985,-2.5268381277667444,6.111201035767355,1.0178097486495972,-2.7852185408221644
1708436164.3744986,-2.1420230865478516,-1.333602936272957,-2.5268831888781946,6.111196625023641,1.0178393125534058,-2.7851813475238245
1708436164.3764935,-2.1420228481292725,-1.3336519759944458,-2.5269041697131556,6.111168134003439,1.0178065299987793,-2.7852230707751673
1708436164.3785257,-2.1420254707336426,-1.3336474609426041,-2.5269299189196985,6.111131059914388,1.017802119255066,-2.7852097193347376
1708436164.3805137,-2.1420228481292725,-1.3336399358562012,-2.5268877188311976,6.111188876419821,1.0178306102752686,-2.7852051893817347
1708436164.3825054,-2.1420016288757324,-1.3336222481778641,-2.5269370714770716,6.111160623818197,1.017802119255066,-2.7851725260363978
1708436164.3844955,-2.1420342922210693,-1.3335851591876526,-2.5268951098071497,6.111139762192526,1.0178065299987793,-2.7851768175708216
1708436164.386593,-2.1419758796691895,-1.3336846244386216,-2.5269163290606897,6.111110436707296,1.0178393125534058,-2.7851887384997767
1708436164.3885877,-2.1420602798461914,-1.333671213393547,-2.526923720036642,6.111111628800192,1.017802119255066,-2.7852020899402063
1708436164.3905778,-2.1419758796691895,-1.3336713028005143,-2.5268996397601526,6.111126649170675,1.0178227424621582,-2.7851770559894007
1708436164.3925729,-2.1420559883117676,-1.3336189848235627,-2.5268877188311976,6.111201035767355,1.0178393125534058,-2.7852304617511194
1708436164.3946104,-2.1420016288757324,-1.333602936272957,-2.5268619696246546,6.111172544747152,1.0178477764129639,-2.785243097935812
1708436164.3965418,-2.1420207023620605,-1.3335821640542527,-2.5268786589251917,6.111131059914388,1.0178354978561401,-2.785229508076803
1708436164.398565,-2.1419758796691895,-1.3336683076671143,-2.5268831888781946,6.111184465676107,1.0178555250167847,-2.7852216402636927
1708436164.4004984,-2.1420061588287354,-1.3336474609426041,-2.5268920103656214,6.111156332283773,1.0178054571151733,-2.785179678593771
1708436164.4024956,-2.1420140266418457,-1.3336311292699357,-2.526911799107687,6.111181247025289,1.017859697341919,-2.785255018864767
1708436164.404496,-2.142042398452759,-1.333602936272957,-2.5269537607776087,6.111138808518209,1.0177817344665527,-2.785220448170797
1708436164.4064865,-2.1419928073883057,-1.3336144399693985,-2.5268741289721888,6.111171352654257,1.0178676843643188,-2.7852259317981165
1708436164.4084985,-2.1420164108276367,-1.3336311143687745,-2.5269373098956507,6.111143219261923,1.0178349018096924,-2.785196129475729
1708436164.4105234,-2.1419804096221924,-1.3335940700820466,-2.5269416014300745,6.111168134003439,1.017814040184021,-2.785238567982809
1708436164.4125037,-2.1420254707336426,-1.3336845350316544,-2.526890579854147,6.111135351448812,1.0178349018096924,-2.7852249781238
1708436164.414503,-2.1420300006866455,-1.3336178970387955,-2.5269163290606897,6.11115192154006,1.0178349018096924,-2.785208050404684
1708436164.4164934,-2.1420094966888428,-1.3336593818715592,-2.5269163290606897,6.111143219261923,1.0178349018096924,-2.7851889769183558
1708436164.4185038,-2.1420016288757324,-1.333617852335312,-2.526820246373312,6.111147630005636,1.0178720951080322,-2.785234038029806
1708436164.4205303,-2.141944169998169,-1.333622307782509,-2.526886049901144,6.1111440537269495,1.0178468227386475,-2.785295550023214
1708436164.4225335,-2.1420185565948486,-1.3336056035808106,-2.5268996397601526,6.111205446511068,1.0178349018096924,-2.785255018864767
1708436164.4245107,-2.141984701156616,-1.3336189699224015,-2.526890579854147,6.11115192154006,1.0178511142730713,-2.785236899052755
1708436164.4265063,-2.1419804096221924,-1.3336311143687745,-2.5269208590136927,6.111155020981588,1.0178639888763428,-2.7852702776538294
1708436164.4285226,-2.1419758796691895,-1.3336189550212403,-2.5269041697131556,6.11115192154006,1.0178762674331665,-2.7852492968188685
1708436164.4304922,-2.1419711112976074,-1.3335940104774018,-2.5269163290606897,6.111221658974447,1.0178468227386475,-2.7852657477008265
1708436164.4324975,-2.1420388221740723,-1.3336310994676133,-2.5268786589251917,6.111163842469015,1.017814040184021,-2.7852450052844446
1708436164.4345095,-2.1420388221740723,-1.3336682629636307,-2.5268741289721888,6.111180054932394,1.0178436040878296,-2.7852864901172083
1708436164.4364874,-2.142059326171875,-1.333618940120079,-2.5268996397601526,6.111123430519857,1.017802119255066,-2.7852941195117396
1708436164.4384937,-2.1420016288757324,-1.3336189550212403,-2.5268951098071497,6.111229169159689,1.0178349018096924,-2.7852116266833704
1708436164.440491,-2.1420016288757324,-1.3336399656585236,-2.526902739201681,6.111205446511068,1.0178391933441162,-2.7852984110461634
1708436164.4424748,-2.1420140266418457,-1.3336189699224015,-2.5268741289721888,6.11115192154006,1.0178183317184448,-2.7852323690997522
1708436164.4444883,-2.1420300006866455,-1.3336144399693985,-2.5268831888781946,6.111187922745504,1.017814040184021,-2.7852538267718714
1708436164.446476,-2.142068386077881,-1.3336310994676133,-2.5268216768847864,6.11118363121108,1.0178555250167847,-2.7853029409991663
1708436164.4485114,-2.1420061588287354,-1.3336519759944458,-2.5269163290606897,6.111171352654257,1.0177979469299316,-2.7853029409991663
1708436164.4504836,-2.1419970989227295,-1.3336519759944458,-2.5268877188311976,6.111163842469015,1.0178096294403076,-2.7852895895587366
1708436164.4525018,-2.1420140266418457,-1.3336144399693985,-2.5269537607776087,6.111201035767355,1.0178382396697998,-2.7853267828570765
1708436164.454513,-2.1420094966888428,-1.3337013286403199,-2.5269208590136927,6.111163842469015,1.0178676843643188,-2.7853058020221155
1708436164.4565074,-2.1420342922210693,-1.333610014324524,-2.5268755594836634,6.111171352654257,1.0178183317184448,-2.785308901463644
1708436164.4585433,-2.1420559883117676,-1.3336355996182938,-2.5268574396716517,6.111180054932394,1.0178097486495972,-2.78528076807131
1708436164.460515,-2.1420061588287354,-1.3336356294206162,-2.526911799107687,6.11117576339797,1.0178393125534058,-2.785320822392599
1708436164.4624991,-2.1420094966888428,-1.3336189550212403,-2.5268922487842005,6.111143219261923,1.0178183317184448,-2.7852969805346888
1708436164.4645085,-2.1420228481292725,-1.333617852335312,-2.5268529097186487,6.111150729447164,1.0178349018096924,-2.785384003316061
1708436164.4664936,-2.1420273780822754,-1.3336637628129502,-2.526886049901144,6.111159550934591,1.0178511142730713,-2.785320822392599
1708436164.468537,-2.141989231109619,-1.3336356294206162,-2.5268996397601526,6.111180054932394,1.0178720951080322,-2.785329882298605
1708436164.4704943,-2.142010450363159,-1.3336519759944458,-2.526911799107687,6.111155140190878,1.0178306102752686,-2.78534967104067
1708436164.4724884,-2.1420185565948486,-1.333610014324524,-2.5268996397601526,6.111155140190878,1.0178511142730713,-2.7853780428515833
1708436164.4744997,-2.1420185565948486,-1.3336189550212403,-2.5269208590136927,6.111143219261923,1.017822027206421,-2.785320822392599
1708436164.4765153,-2.1420016288757324,-1.3336056035808106,-2.5268951098071497,6.11117576339797,1.0178054571151733,-2.7853451410876673
1708436164.4785259,-2.1419928073883057,-1.3336267185262223,-2.5268877188311976,6.111180054932394,1.017863392829895,-2.7853527704821985
1708436164.4805133,-2.1420342922210693,-1.3336189699224015,-2.5269253889666956,6.111208545952596,1.017863392829895,-2.78534967104067
1708436164.482517,-2.1420726776123047,-1.3336100590280076,-2.5268831888781946,6.111143219261923,1.0178393125534058,-2.7853646914111536
1708436164.4845192,-2.1419835090637207,-1.3336100292256852,-2.526902739201681,6.111201035767355,1.0178676843643188,-2.7853570620166224
1708436164.4865527,-2.142029047012329,-1.3335776639035721,-2.526907269154684,6.111138808518209,1.0178349018096924,-2.785382334386007
1708436164.4886186,-2.1420648097991943,-1.3336474311402817,-2.526886049901144,6.111171352654257,1.0178065299987793,-2.7854061762439173
1708436164.4905505,-2.1419689655303955,-1.333610014324524,-2.526911799107687,6.111204135208883,1.0177946090698242,-2.7854138056384485
1708436164.4925418,-2.1419758796691895,-1.3336593818715592,-2.5268664995776575,6.1111923334892175,1.0178468227386475,-2.7854061762439173
1708436164.4945095,-2.1419970989227295,-1.333589644437172,-2.526911799107687,6.111217248230734,1.0178393125534058,-2.7854226271258753
1708436164.4964995,-2.1419970989227295,-1.3336266589215775,-2.5268529097186487,6.111175048142233,1.017814040184021,-2.7854061762439173
1708436164.498528,-2.1419880390167236,-1.333610014324524,-2.5269208590136927,6.111184465676107,1.0178468227386475,-2.7853527704821985
1708436164.500513,-2.1420140266418457,-1.3336144399693985,-2.5268574396716517,6.111253845482626,1.0178837776184082,-2.7853527704821985
1708436164.5025034,-2.1419689655303955,-1.3336519610932847,-2.526911799107687,6.111240732460775,1.0178097486495972,-2.7853899637805384
1708436164.504556,-2.141984701156616,-1.3336519461921235,-2.5269327799426478,6.111162650376119,1.0178719758987427,-2.7854138056384485
1708436164.506499,-2.1419928073883057,-1.333610014324524,-2.5269537607776087,6.11117576339797,1.0178183317184448,-2.7854257265674036
1708436164.508532,-2.1420388221740723,-1.3336222630790253,-2.5269492308246058,6.111201035767355,1.0178676843643188,-2.7854092756854456
1708436164.5105197,-2.1420061588287354,-1.333635614519455,-2.526919190083639,6.1111923334892175,1.0178306102752686,-2.7854471842395228
1708436164.5125234,-2.14200496673584,-1.3336144399693985,-2.5268951098071497,6.111179220467367,1.0177817344665527,-2.785351101552145
1708436164.5145135,-2.1419804096221924,-1.3336594116738816,-2.5269208590136927,6.111175048142233,1.0178546905517578,-2.7854300181018274
1708436164.516509,-2.14200496673584,-1.3336593818715592,-2.5268664995776575,6.11118363121108,1.0178589820861816,-2.7853885332690638
1708436164.5185373,-2.1420094966888428,-1.333618940120079,-2.526898209248678,6.111224877625265,1.0178468227386475,-2.7853885332690638
1708436164.5204911,-2.1420342922210693,-1.3336311292699357,-2.5268951098071497,6.111240732460775,1.0178261995315552,-2.7854092756854456
1708436164.5225406,-2.1420273780822754,-1.3336356294206162,-2.5268741289721888,6.111224877625265,1.0178183317184448,-2.785459105168478
1708436164.524493,-2.1419758796691895,-1.3336266887239,-2.5269251505481165,6.111204135208883,1.017863392829895,-2.7854257265674036
1708436164.5265093,-2.1419711112976074,-1.3336189699224015,-2.5268951098071497,6.111162650376119,1.0178393125534058,-2.785471026097433
1708436164.5284822,-2.1420185565948486,-1.3336311143687745,-2.5268877188311976,6.111216056137838,1.017842411994934,-2.785454575215475
1708436164.5304792,-2.1419713497161865,-1.333663747911789,-2.5268619696246546,6.111208545952596,1.0178349018096924,-2.785454575215475
1708436164.5325186,-2.142042398452759,-1.333596633081772,-2.5268455187426966,6.1111782667930505,1.017842411994934,-2.785429064427511
1708436164.5344968,-2.1419804096221924,-1.3336549264243622,-2.5268664995776575,6.1112486002738855,1.017863392829895,-2.785429064427511
1708436164.5365276,-2.1420388221740723,-1.3336593520692368,-2.5268741289721888,6.111208665161886,1.0178306102752686,-2.785471026097433
1708436164.5385313,-2.1420388221740723,-1.3336310994676133,-2.526907269154684,6.111179220467367,1.017879605293274,-2.785478178654806
1708436164.5405488,-2.1420254707336426,-1.3336266738227387,-2.5268996397601526,6.111149775772848,1.017842411994934,-2.785490099583761
1708436164.5425472,-2.1420559883117676,-1.3336638075164338,-2.526911799107687,6.111179220467367,1.017863392829895,-2.785445515309469
1708436164.5444977,-2.1420342922210693,-1.3336356294206162,-2.5268877188311976,6.1112204668815515,1.0178676843643188,-2.785452906285421
1708436164.5465157,-2.142063856124878,-1.3336474609426041,-2.526907269154684,6.111232030182638,1.0178183317184448,-2.7854486147509974
1708436164.548512,-2.1420094966888428,-1.3335984510234375,-2.526890579854147,6.111187803536215,1.017863392829895,-2.785502020512716
1708436164.5504751,-2.141984701156616,-1.3336266887239,-2.5268967787372034,6.1112146256263635,1.0178349018096924,-2.785511080418722
1708436164.5525424,-2.1420345306396484,-1.3336266887239,-2.5268996397601526,6.111256348877706,1.0178349018096924,-2.7854648272143763
1708436164.5545151,-2.142043352127075,-1.3336189848235627,-2.5268619696246546,6.111272561341085,1.017879605293274,-2.7854512373553675
1708436164.5565276,-2.141989231109619,-1.3336835515550156,-2.5269401709186,6.1112637398536584,1.0178719758987427,-2.785469357167379
1708436164.5584993,-2.1420300006866455,-1.3336311292699357,-2.526869837437765,6.111287939339437,1.0178468227386475,-2.7854886690722864
1708436164.5605018,-2.1420140266418457,-1.3336548966220398,-2.5268951098071497,6.111287939339437,1.0178546905517578,-2.7854767481433313
1708436164.5625143,-2.1420469284057617,-1.333696724181511,-2.5268831888781946,6.111380326538839,1.017863392829895,-2.7855175177203577
1708436164.5645273,-2.1420185565948486,-1.3336683076671143,-2.5268786589251917,6.111376750260153,1.017863392829895,-2.7854753176318567
1708436164.566548,-2.1420602798461914,-1.3336341691068192,-2.5268664995776575,6.111306297570028,1.0178261995315552,-2.7855220476733606
1708436164.5685077,-2.1420228481292725,-1.3336189699224015,-2.5268951098071497,6.1113672135169885,1.017879605293274,-2.7854960600482386
1708436164.5705097,-2.1419668197631836,-1.3335953664830704,-2.5268831888781946,6.111343133240499,1.0178589820861816,-2.785508696232931
1708436164.572534,-2.1420094966888428,-1.3336189550212403,-2.5269163290606897,6.111355054169454,1.0178468227386475,-2.7855430285083216
1708436164.5744972,-2.1420061588287354,-1.3335865896991272,-2.5269163290606897,6.111375915795126,1.0178511142730713,-2.7855220476733606
1708436164.57652,-2.1419970989227295,-1.3336399507573624,-2.5268409887896937,6.111318099289694,1.0178719758987427,-2.7855711619006556
1708436164.5785081,-2.1420388221740723,-1.3336651486209412,-2.5268664995776575,6.111371624260702,1.017842411994934,-2.785562340413229
1708436164.5805032,-2.1420140266418457,-1.3336430203965683,-2.5268574396716517,6.111400949745931,1.017891764640808,-2.785557810460226
1708436164.5825408,-2.1420061588287354,-1.3336056035808106,-2.5269208590136927,6.11132692077712,1.017896056175232,-2.7855220476733606
1708436164.5844963,-2.1419804096221924,-1.3336593520692368,-2.526907269154684,6.111331212311544,1.0178874731063843,-2.7855828444110315
1708436164.5865257,-2.142068386077881,-1.33365053058181,-2.526919190083639,6.111322510033407,1.0178751945495605,-2.7855234781848353
1708436164.58856,-2.1420388221740723,-1.333617852335312,-2.5269163290606897,6.111310589104452,1.0178546905517578,-2.785557810460226
1708436164.5906432,-2.1419804096221924,-1.3336801391891022,-2.526869599019186,6.111297595291891,1.017863392829895,-2.7855785528766077
1708436164.5925262,-2.1420254707336426,-1.3336549562266846,-2.526907269154684,6.111342060356893,1.0178306102752686,-2.7856112162219446
1708436164.5945113,-2.1420514583587646,-1.3336222481778641,-2.526911799107687,6.111408459931173,1.0178546905517578,-2.785565201436178
1708436164.596492,-2.14200496673584,-1.333644376402237,-2.526890579854147,6.111371624260702,1.0178381204605103,-2.78557259241213
1708436164.5985022,-2.1419970989227295,-1.3336683225682755,-2.526923720036642,6.111325728684225,1.017883062362671,-2.78554875055422
1708436164.6005077,-2.1419599056243896,-1.333596633081772,-2.526911799107687,6.111415850907125,1.0178709030151367,-2.785528008137838
1708436164.6024845,-2.141950845718384,-1.3336012375405808,-2.5269327799426478,6.111383425980367,1.0178664922714233,-2.785581652318136
1708436164.6045032,-2.1420273780822754,-1.3336222630790253,-2.5268741289721888,6.111399757653036,1.0178709030151367,-2.785557572041647
1708436164.6065016,-2.1420228481292725,-1.3336683076671143,-2.526923720036642,6.111346232682028,1.0178502798080444,-2.785602394734518
1708436164.6085546,-2.1420016288757324,-1.3336519759944458,-2.526928249989645,6.111383425980367,1.0178589820861816,-2.785544459019796
1708436164.6105053,-2.142059326171875,-1.333580644135811,-2.526907269154684,6.111334430962362,1.0178381204605103,-2.785577122365133
1708436164.6125016,-2.1419970989227295,-1.3336607676795502,-2.526869599019186,6.1113672135169885,1.017822027206421,-2.785593573247091
1708436164.6145015,-2.1419880390167236,-1.3336474311402817,-2.526928249989645,6.1113672135169885,1.0178622007369995,-2.785618845616476
1708436164.6164997,-2.1419928073883057,-1.3336266738227387,-2.526890579854147,6.111338841706075,1.0178502798080444,-2.785589043294088
1708436164.6184864,-2.1420061588287354,-1.3336637777141114,-2.526907269154684,6.111383425980367,1.017842411994934,-2.785605494176046
1708436164.620488,-2.1420388221740723,-1.3336757284453888,-2.5269492308246058,6.11133764961318,1.0178461074829102,-2.7855563799487513
1708436164.6224964,-2.1420094966888428,-1.3336549562266846,-2.5268786589251917,6.111350643425741,1.0179078578948975,-2.785565201436178
1708436164.6245036,-2.1420140266418457,-1.3336266887239,-2.526919190083639,6.111346351891317,1.0179036855697632,-2.785593573247091
1708436164.6264968,-2.1419928073883057,-1.3336399507573624,-2.5269208590136927,6.111330020218649,1.0178622007369995,-2.78557259241213
1708436164.6285055,-2.141984701156616,-1.3336593818715592,-2.526886049901144,6.111408459931173,1.017883062362671,-2.785593573247091
1708436164.6304972,-2.142000436782837,-1.3336967539838334,-2.526928249989645,6.111370432167806,1.017924189567566,-2.7856178919421595
1708436164.6324997,-2.1419970989227295,-1.3336549264243622,-2.526935640965597,6.111334430962362,1.0178537368774414,-2.785589043294088
1708436164.634495,-2.1419758796691895,-1.3336385947516938,-2.5269489924060267,6.111318099289694,1.0178622007369995,-2.7855845133410853
1708436164.6364796,-2.1420185565948486,-1.3336519312909623,-2.526890579854147,6.1113518355186365,1.0178664922714233,-2.7855563799487513
1708436164.6385312,-2.142047882080078,-1.3336430352977295,-2.5269041697131556,6.111325728684225,1.0179036855697632,-2.7856224218951624
1708436164.6405118,-2.1419970989227295,-1.3336474609426041,-2.5268996397601526,6.111375915795126,1.0178992748260498,-2.78557259241213
1708436164.6425009,-2.1419928073883057,-1.3336683076671143,-2.526928249989645,6.111341941147604,1.017865777015686,-2.7855919043170374
1708436164.6445124,-2.1420514583587646,-1.3335851591876526,-2.526907269154684,6.11133764961318,1.0178664922714233,-2.7856133619891565
1708436164.6464992,-2.1419970989227295,-1.3336756837419053,-2.526890579854147,6.111330139427938,1.0179529190063477,-2.7855754534350794
1708436164.6485155,-2.1419758796691895,-1.333638609652855,-2.526902739201681,6.111325728684225,1.017883062362671,-2.7856224218951624
1708436164.6505213,-2.1420300006866455,-1.3336011630347748,-2.5268831888781946,6.111404168396749,1.0179154872894287,-2.785605494176046
1708436164.652483,-2.141984701156616,-1.3336311143687745,-2.5268996397601526,6.111429083138265,1.0179111957550049,-2.7856009642230433
1708436164.6545055,-2.1419928073883057,-1.3336890649846573,-2.5268951098071497,6.1113672135169885,1.017906904220581,-2.78560454050173
1708436164.6564927,-2.1419804096221924,-1.3336385947516938,-2.5268951098071497,6.111334430962362,1.017894983291626,-2.7856224218951624
1708436164.6585176,-2.1420342922210693,-1.3336966943791886,-2.5268741289721888,6.111411678581991,1.0179026126861572,-2.7856009642230433
1708436164.6605158,-2.1420273780822754,-1.3336593818715592,-2.526898209248678,6.111358511238851,1.0178864002227783,-2.7855964342700403
1708436164.6624978,-2.1420388221740723,-1.3336311143687745,-2.5269492308246058,6.111358511238851,1.0178701877593994,-2.785614315663473
1708436164.66452,-2.1420300006866455,-1.333638609652855,-2.526923720036642,6.111359345703878,1.017906904220581,-2.785589043294088
1708436164.6665027,-2.1420300006866455,-1.333638609652855,-2.526902739201681,6.111404168396749,1.017906904220581,-2.7856388727771204
1708436164.6685328,-2.1420209407806396,-1.3336879324964066,-2.526919190083639,6.111387836724081,1.01792311668396,-2.7855799833880823
1708436164.6705136,-2.1419758796691895,-1.333610014324524,-2.5268996397601526,6.111321437149801,1.0178906917572021,-2.7855964342700403
1708436164.6724942,-2.1420209407806396,-1.3336549413255234,-2.526944700871603,6.111387836724081,1.0178906917572021,-2.7856088320361536
1708436164.6745172,-2.14200496673584,-1.3336385798505326,-2.526956621800558,6.111404168396749,1.017910122871399,-2.7856252829181116
1708436164.6765003,-2.1420342922210693,-1.3336430501988907,-2.526902739201681,6.111334430962362,1.0179356336593628,-2.7856088320361536
1708436164.6785176,-2.1419970989227295,-1.3336430352977295,-2.526926581059591,6.111350643425741,1.01789391040802,-2.7856133619891565
1708436164.680517,-2.142042398452759,-1.3336593967727204,-2.526898209248678,6.111371624260702,1.0179274082183838,-2.7855964342700403
1708436164.682499,-2.1420514583587646,-1.333638609652855,-2.526910130177633,6.111379134445944,1.0179561376571655,-2.7855754534350794
1708436164.6845114,-2.141979217529297,-1.3336222481778641,-2.526890579854147,6.1113672135169885,1.0179593563079834,-2.7855828444110315
1708436164.6865127,-2.1420254707336426,-1.3336222630790253,-2.526952091847555,6.111334430962362,1.0179388523101807,-2.7855799833880823
1708436164.6885996,-2.1420016288757324,-1.333580644135811,-2.5269041697131556,6.111341941147604,1.0179388523101807,-2.7855799833880823
1708436164.6905463,-2.1419970989227295,-1.3336266887239,-2.526886049901144,6.111383425980367,1.017910122871399,-2.7855873743640345
1708436164.692505,-2.1419689655303955,-1.3335940551808854,-2.526902739201681,6.1114128706748865,1.0179712772369385,-2.7856178919421595
1708436164.6944964,-2.1420514583587646,-1.3336756837419053,-2.526902739201681,6.111371624260702,1.0179356336593628,-2.7855964342700403
1708436164.6964934,-2.1419804096221924,-1.3336311143687745,-2.526890579854147,6.111350643425741,1.0179842710494995,-2.7856624762164515
1708436164.698515,-2.1420300006866455,-1.333601177935936,-2.526876989995138,6.111408459931173,1.0179431438446045,-2.7856133619891565
1708436164.7005122,-2.1420094966888428,-1.333617852335312,-2.526893679295675,6.111324536591329,1.0179388523101807,-2.7856224218951624
1708436164.70249,-2.142042398452759,-1.3336474609426041,-2.526931111012594,6.111355054169454,1.0179269313812256,-2.7856269518481653
1708436164.7045064,-2.1419928073883057,-1.3335939657739182,-2.526919190083639,6.111396539002218,1.0179431438446045,-2.7856224218951624
1708436164.7064886,-2.1420514583587646,-1.3336090308478852,-2.526919190083639,6.1113542197044275,1.0179431438446045,-2.7856314818011683
1708436164.708506,-2.1420726776123047,-1.3336144399693985,-2.526923720036642,6.1113672135169885,1.0179388523101807,-2.7856388727771204
1708436164.710499,-2.1419804096221924,-1.3336683076671143,-2.526923720036642,6.111318099289694,1.0179755687713623,-2.7855635325061243
1708436164.7124934,-2.1420254707336426,-1.3336222630790253,-2.526989523564474,6.111355054169454,1.0179431438446045,-2.7855964342700403
1708436164.71448,-2.1419758796691895,-1.3335820895484467,-2.526886049901144,6.1113542197044275,1.0179345607757568,-2.785605494176046
1708436164.7165225,-2.1420228481292725,-1.3336311143687745,-2.526919190083639,6.111408459931173,1.0179593563079834,-2.78557259241213
1708436164.718517,-2.1420469284057617,-1.3336222481778641,-2.526869599019186,6.111383425980367,1.0179345607757568,-2.7856269518481653
1708436164.7204943,-2.1420514583587646,-1.3336713177016755,-2.526907269154684,6.11138795593337,1.0179388523101807,-2.785577122365133
1708436164.7224808,-2.1419804096221924,-1.33365053058181,-2.526931111012594,6.111404168396749,1.0179550647735596,-2.78557259241213
1708436164.7244844,-2.1420140266418457,-1.3335940104774018,-2.526931111012594,6.111383425980367,1.0179669857025146,-2.7856009642230433
1708436164.7265005,-2.1420140266418457,-1.3336801838925858,-2.526910130177633,6.111362921982565,1.0179431438446045,-2.7855399290667933
1708436164.7285464,-2.1419711112976074,-1.3336638075164338,-2.526881519948141,6.111355054169454,1.0179431438446045,-2.7855308691607874
1708436164.730505,-2.142037868499756,-1.3336431098035355,-2.526928249989645,6.111379134445944,1.0179636478424072,-2.785589043294088
1708436164.732484,-2.1419970989227295,-1.3336713028005143,-2.5268951098071497,6.111392128258505,1.0179712772369385,-2.785589043294088
1708436164.73455,-2.1420514583587646,-1.3336267185262223,-2.526919190083639,6.111321437149801,1.0179755687713623,-2.7855785528766077
1708436164.7365022,-2.1420602798461914,-1.3336801391891022,-2.526902739201681,6.1113672135169885,1.0179388523101807,-2.785593573247091
1708436164.738512,-2.1420514583587646,-1.3336474609426041,-2.5269492308246058,6.111387836724081,1.0179431438446045,-2.785544459019796
1708436164.7404976,-2.141984701156616,-1.3336519759944458,-2.526923720036642,6.11132692077712,1.0179636478424072,-2.78554875055422
1708436164.742486,-2.1419880390167236,-1.333617852335312,-2.526944700871603,6.111383425980367,1.0179431438446045,-2.785598103200094
1708436164.7445405,-2.1419644355773926,-1.3336835664561768,-2.526919190083639,6.111355054169454,1.0179842710494995,-2.785541359578268
1708436164.746478,-2.1420469284057617,-1.3337131601623078,-2.5268741289721888,6.111362921982565,1.0179431438446045,-2.785532538090841
1708436164.748502,-2.1419644355773926,-1.3336222630790253,-2.526910130177633,6.111387836724081,1.0179593563079834,-2.785557810460226
1708436164.750473,-2.1420094966888428,-1.3336356294206162,-2.526935640965597,6.111404168396749,1.0179431438446045,-2.785532299672262
1708436164.7525024,-2.1420140266418457,-1.3336505156806489,-2.526928249989645,6.111392247467794,1.0179550647735596,-2.7854705492602747
1708436164.7544785,-2.1420254707336426,-1.3336430203965683,-2.526943031941549,6.111318099289694,1.0179507732391357,-2.7855384985553187
1708436164.7564738,-2.1420016288757324,-1.333651990895607,-2.526968781148092,6.111350643425741,1.0179885625839233,-2.7854676882373255
1708436164.7584863,-2.1420254707336426,-1.3336549562266846,-2.526914660130636,6.111379134445944,1.0179345607757568,-2.7855096499072474
1708436164.7604856,-2.1420514583587646,-1.3336056035808106,-2.526928249989645,6.111322510033407,1.0179431438446045,-2.7854841391192835
1708436164.762485,-2.1420061588287354,-1.3336593818715592,-2.5268786589251917,6.111322510033407,1.0179388523101807,-2.7854886690722864
1708436164.7645133,-2.1419644355773926,-1.3336846989444275,-2.5269325415240687,6.11132692077712,1.0179312229156494,-2.7854724566089075
1708436164.766486,-2.1420319080352783,-1.3336341840079804,-2.526907269154684,6.111359345703878,1.0179474353790283,-2.785494629536764
1708436164.7685406,-2.1420016288757324,-1.3336593818715592,-2.5268996397601526,6.111343133240499,1.0179269313812256,-2.785473887120382
1708436164.770512,-2.1420209407806396,-1.3336835217526932,-2.5269401709186,6.111314999848165,1.0179755687713623,-2.785518471394674
1708436164.7724724,-2.1420342922210693,-1.3336144399693985,-2.5269370714770716,6.111347424774923,1.0179518461227417,-2.785450045262472
1708436164.7744865,-2.1420185565948486,-1.3336430352977295,-2.526923720036642,6.111347424774923,1.0179226398468018,-2.785433594380514
1708436164.7764738,-2.1419711112976074,-1.333638609652855,-2.526911799107687,6.111297595291891,1.0179015398025513,-2.785407606755392
1708436164.778495,-2.1420228481292725,-1.3336144399693985,-2.526956621800558,6.1113343117530725,1.0179388523101807,-2.7853882948504847
1708436164.7805,-2.14200496673584,-1.3336879771998902,-2.526886049901144,6.111371624260702,1.01792311668396,-2.7854471842395228
1708436164.7825222,-2.1419880390167236,-1.3336563420346756,-2.526952091847555,6.111347424774923,1.0179142951965332,-2.7853809038745325
1708436164.7845104,-2.1420388221740723,-1.3336790365031739,-2.526923720036642,6.111343133240499,1.017972469329834,-2.7853811422931116
1708436164.7865236,-2.1420388221740723,-1.3336726439050217,-2.5268996397601526,6.11131380775527,1.017881989479065,-2.7854061762439173
1708436164.7886004,-2.1419711112976074,-1.333601177935936,-2.5268786589251917,6.111322510033407,1.0179312229156494,-2.7854061762439173
1708436164.7905254,-2.1420254707336426,-1.3336713177016755,-2.526881519948141,6.111371624260702,1.0179312229156494,-2.785398785267965
1708436164.7925136,-2.1420140266418457,-1.3336474609426041,-2.526898209248678,6.1113933203514,1.0179399251937866,-2.7853646914111536
1708436164.7945044,-2.14200496673584,-1.333684579735138,-2.526923720036642,6.111387836724081,1.0179026126861572,-2.78534967104067
1708436164.7964835,-2.14200496673584,-1.333651990895607,-2.526947561894552,6.11135612705306,1.0179274082183838,-2.785354200993673
1708436164.7985144,-2.1420185565948486,-1.333687962298729,-2.526923720036642,6.111331212311544,1.0179144144058228,-2.785295311604635
1708436164.8004797,-2.1419758796691895,-1.3336474609426041,-2.526890579854147,6.111335503845968,1.0178864002227783,-2.78522235551943
1708436164.8025422,-2.1420342922210693,-1.3336266887239,-2.526935640965597,6.111375915795126,1.0178982019424438,-2.7852969805346888
1708436164.8045006,-2.1419758796691895,-1.3337013286403199,-2.526931111012594,6.111380326538839,1.017894983291626,-2.7852404753314417
1708436164.8064907,-2.142063856124878,-1.333610014324524,-2.526898209248678,6.111375915795126,1.017878770828247,-2.7852569262133997
1708436164.8085167,-2.1420228481292725,-1.3336757284453888,-2.526890579854147,6.111269342690267,1.0179111957550049,-2.785220448170797
1708436164.8105025,-2.1419880390167236,-1.3336549562266846,-2.526928249989645,6.111355054169454,1.017894983291626,-2.7852171103106897
1708436164.8125415,-2.1420185565948486,-1.3336890500834961,-2.526928249989645,6.111339795380392,1.017919898033142,-2.7851932684527796
1708436164.8144853,-2.141989231109619,-1.3336879771998902,-2.526902739201681,6.111372339516439,1.0179111957550049,-2.7851977984057825
1708436164.8164732,-2.1420016288757324,-1.3335984212211152,-2.5268786589251917,6.111319291382589,1.0178579092025757,-2.7851226965533655
1708436164.818505,-2.1420300006866455,-1.3335852485946198,-2.526914660130636,6.111311661988058,1.0178992748260498,-2.785103146229879
1708436164.8204753,-2.1420254707336426,-1.3336189550212403,-2.526876989995138,6.11130307891921,1.0178579092025757,-2.78516656557192
1708436164.822523,-2.1420514583587646,-1.333663822417595,-2.5269041697131556,6.111335503845968,1.0178664922714233,-2.7851420084582728
1708436164.8244858,-2.1419928073883057,-1.3336519312909623,-2.526890579854147,6.111335503845968,1.0178709030151367,-2.785121266041891
1708436164.8264823,-2.1420140266418457,-1.3336266738227387,-2.526902739201681,6.111314999848165,1.0178664922714233,-2.7850690523730677
1708436164.828533,-2.1419880390167236,-1.3336222481778641,-2.526881519948141,6.111335623055258,1.017883062362671,-2.7850402037249964
1708436164.8304837,-2.1419928073883057,-1.3336835664561768,-2.526907269154684,6.111347424774923,1.0178675651550293,-2.785058085118429
1708436164.832528,-2.1420228481292725,-1.333593876366951,-2.5269401709186,6.111319291382589,1.017842411994934,-2.784980122243063
1708436164.8344853,-2.141984701156616,-1.3336683523705979,-2.526902739201681,6.111339914589681,1.017907977104187,-2.7849603335009974
1708436164.8365042,-2.1419711112976074,-1.3336430352977295,-2.526923720036642,6.1113518355186365,1.0179122686386108,-2.7849393526660364
1708436164.8385062,-2.1420140266418457,-1.3336474907449265,-2.526928249989645,6.111311781197347,1.0178554058074951,-2.78495437303652
1708436164.8404922,-2.1419970989227295,-1.3336801838925858,-2.526907269154684,6.11130307891921,1.0178468227386475,-2.784900728856222
1708436164.8425198,-2.142000436782837,-1.333663822417595,-2.5269325415240687,6.111314999848165,1.0178053379058838,-2.7848435083972376
1708436164.8444765,-2.1421046257019043,-1.3336252135089417,-2.526902739201681,6.111274945526876,1.0178227424621582,-2.7848063150988978
1708436164.8465009,-2.1420342922210693,-1.3336430352977295,-2.5269492308246058,6.111319291382589,1.0178349018096924,-2.7848168055163782
1708436164.848488,-2.1419928073883057,-1.333610014324524,-2.526881519948141,6.111266243248739,1.017802119255066,-2.784797493611471
1708436164.8504765,-2.142042398452759,-1.3336100292256852,-2.526902739201681,6.111291157990255,1.0178393125534058,-2.7847941557513636
1708436164.8524995,-2.1420300006866455,-1.3336144250682374,-2.526907269154684,6.111348497658529,1.0177944898605347,-2.784725014363424
1708436164.8544855,-2.1420185565948486,-1.3336056184819718,-2.526890579854147,6.111327993660726,1.017827033996582,-2.7847312132464808
1708436164.8565094,-2.1419880390167236,-1.3335851591876526,-2.526911799107687,6.111368167191305,1.0177946090698242,-2.784651581441061
1708436164.8584757,-2.141984701156616,-1.333634154205658,-2.526907269154684,6.1113366959388635,1.0178108215332031,-2.7846203486071985
1708436164.8604698,-2.142011880874634,-1.3336233061603089,-2.5268786589251917,6.111299741059103,1.0178065299987793,-2.7845421473132532
1708436164.8625162,-2.1419804096221924,-1.3336474758437653,-2.526911799107687,6.111292350083151,1.0178108215332031,-2.7845104376422327
1708436164.864535,-2.1420185565948486,-1.3336430352977295,-2.5268951098071497,6.1112792370613,1.017786979675293,-2.784466568623678
1708436164.8665311,-2.1419804096221924,-1.333684654240944,-2.5269163290606897,6.111258256226339,1.0177826881408691,-2.784405771886007
1708436164.8685231,-2.1420388221740723,-1.33367574334655,-2.5268996397601526,6.111209499626913,1.0178076028823853,-2.7844110170947474
1708436164.8704782,-2.1419970989227295,-1.3335896146348496,-2.5268741289721888,6.111268150597372,1.0177748203277588,-2.784342590962545
1708436164.8725257,-2.1419928073883057,-1.3336356443217774,-2.5269325415240687,6.111222612648763,1.0177464485168457,-2.7842729727374476
1708436164.8744936,-2.1420140266418457,-1.3336178076318284,-2.5268951098071497,6.111240017205038,1.0177507400512695,-2.784243408833639
1708436164.8765037,-2.1420016288757324,-1.3336144250682374,-2.5269208590136927,6.1111464379127405,1.0177582502365112,-2.7841668764697474
1708436164.8785088,-2.142037868499756,-1.333605558877327,-2.5268741289721888,6.1111923334892175,1.0177298784255981,-2.784152094517843
1708436164.8804898,-2.142068386077881,-1.3336144250682374,-2.5268664995776575,6.11117576339797,1.017734169960022,-2.7841172854052942
1708436164.8824964,-2.1419711112976074,-1.3336277318051835,-2.5268591086017054,6.111168134003439,1.0177223682403564,-2.7839821020709437
1708436164.8845415,-2.1419758796691895,-1.3336311441710968,-2.5268831888781946,6.111152636795797,1.0176899433135986,-2.783917490636007
1708436164.8865092,-2.1420559883117676,-1.3336144250682374,-2.5269208590136927,6.111139762192526,1.0176817178726196,-2.7838619391070765
1708436164.8885694,-2.1420388221740723,-1.3336011332324524,-2.526886049901144,6.111091363220968,1.017760157585144,-2.7838061491595667
1708436164.8905423,-2.1420342922210693,-1.333651990895607,-2.5268831888781946,6.111168134003439,1.0176492929458618,-2.783767048512594
1708436164.8924959,-2.1419928073883057,-1.3336266738227387,-2.5268500486956995,6.11112009265975,1.0176817178726196,-2.7836714426623743
1708436164.894484,-2.1420140266418457,-1.333677054648735,-2.5268831888781946,6.111185538559713,1.0176697969436646,-2.783563200627462
1708436164.896527,-2.141984701156616,-1.3336296391538163,-2.5268545786487024,6.111102807312765,1.017674207687378,-2.7834911982165735
1708436164.898501,-2.141984701156616,-1.3336232912591477,-2.5268800894366663,6.1110912440116785,1.0176827907562256,-2.7833789030658167
1708436164.9005105,-2.1420388221740723,-1.3336385947516938,-2.5268800894366663,6.1111289141471765,1.0176665782928467,-2.7832587401019495
1708436164.9025326,-2.1419970989227295,-1.333605558877327,-2.5269175211535853,6.111145126610555,1.0176503658294678,-2.7831199804889124
1708436164.9045146,-2.1420841217041016,-1.3336222779801865,-2.5268262068377894,6.11108015754775,1.0176870822906494,-2.783013884221212
1708436164.9065342,-2.1419599056243896,-1.3336399805596848,-2.526806894932882,6.111018168717184,1.0176252126693726,-2.782884661351339
1708436164.9085248,-2.1420342922210693,-1.3336266738227387,-2.526785437260763,6.111083376198568,1.0175977945327759,-2.782781426106588
1708436164.9104803,-2.14194393157959,-1.3336099994233628,-2.526789967213766,6.111059534340658,1.0176054239273071,-2.7826114336596888
1708436164.912508,-2.1419970989227295,-1.3336713177016755,-2.526815954838888,6.11105631568984,1.0176392793655396,-2.78251296678652
1708436164.9144888,-2.141998291015625,-1.3336519610932847,-2.526773516331808,6.111052739411154,1.0176271200180054,-2.782368008290426
1708436164.9165246,-2.1420061588287354,-1.3336117130569,-2.5267542044269007,6.1109996912773035,1.0176184177398682,-2.782194201146261
1708436164.9185095,-2.1419451236724854,-1.3336726290038605,-2.526794497166769,6.111033308296957,1.017622709274292,-2.7820876280414026
1708436164.9204874,-2.141923666000366,-1.3335922223380585,-2.5267751852618616,6.110922562866964,1.017643690109253,-2.7819400469409388
1708436164.9225295,-2.141953945159912,-1.3336012375405808,-2.5268080870257776,6.110980260163107,1.0176022052764893,-2.781745258961813
1708436164.924509,-2.1419119834899902,-1.3336222481778641,-2.5267842451678675,6.110965120583334,1.0176140069961548,-2.7816296259509485
1708436164.926503,-2.141908645629883,-1.3336519759944458,-2.5267377535449427,6.1109564183051965,1.0176467895507812,-2.7814911047564905
1708436164.9284961,-2.1419177055358887,-1.3336311143687745,-2.5267961660968226,6.110883223801412,1.017593502998352,-2.781323496495382
1708436164.9304998,-2.1418893337249756,-1.3336266738227387,-2.5267587343799036,6.110909211426534,1.0175737142562866,-2.7811721006976526
1708436164.9324872,-2.1419177055358887,-1.3336549413255234,-2.5267677942859095,6.110877024918356,1.0175899267196655,-2.7809301058398646
1708436164.934502,-2.1418893337249756,-1.3336505156806489,-2.5267587343799036,6.110832321434774,1.0176184177398682,-2.7807961145984095
1708436164.9364867,-2.141846179962158,-1.3336222928813477,-2.5267723242389124,6.110805022507467,1.0176022052764893,-2.7806363741504114
1708436164.9384916,-2.1418302059173584,-1.33360110343013,-2.5267513434039515,6.11080943325118,1.0176109075546265,-2.7803898493396204
1708436164.940477,-2.1418721675872803,-1.3336099994233628,-2.5267587343799036,6.110773551255026,1.0175824165344238,-2.7802141348468226
1708436164.9425094,-2.141826868057251,-1.3335967075875779,-2.5267632643329065,6.11072455623702,1.0175899267196655,-2.7799935976611536
1708436164.9444818,-2.141782522201538,-1.3336519759944458,-2.5267797152148646,6.110737669258871,1.0176029205322266,-2.7797966639148157
1708436164.946504,-2.1417577266693115,-1.3336801838925858,-2.5267797152148646,6.1107027409370325,1.017594337463379,-2.7796183268176478
1708436164.9485087,-2.1417534351348877,-1.3336474758437653,-2.526841465626852,6.110652792244711,1.0175695419311523,-2.7793763319598597
1708436164.9504836,-2.1417667865753174,-1.333631084566452,-2.5267797152148646,6.110641944199362,1.0176271200180054,-2.7791436354266565
1708436164.9524856,-2.14174747467041,-1.3336474013379593,-2.5267377535449427,6.1105984328086755,1.0175824165344238,-2.7789154688464563
1708436164.9545047,-2.141664981842041,-1.3336713028005143,-2.5268126169787806,6.110573518067159,1.0176022052764893,-2.778692070637838
1708436164.9565234,-2.1417043209075928,-1.3336430352977295,-2.5267661253558558,6.110558020859518,1.0175737142562866,-2.7783973852740687
1708436164.9584901,-2.1416306495666504,-1.3336430054954072,-2.5267751852618616,6.110518204956808,1.0176029205322266,-2.7781456152545374
1708436164.9604864,-2.1416192054748535,-1.3336879324964066,-2.526799027119772,6.110461580544271,1.0175899267196655,-2.777942482625143
1708436164.9625075,-2.1415650844573975,-1.3336802285960694,-2.526778046284811,6.110458123474874,1.0175737142562866,-2.7776740233050745
1708436164.964489,-2.1415092945098877,-1.3337325763753434,-2.5267871061908167,6.110406029015341,1.0176392793655396,-2.777389113103048
1708436164.966502,-2.1414971351623535,-1.3336623919061203,-2.526832405720846,6.1103625176246545,1.0175977945327759,-2.7771292368518274
1708436164.9685123,-2.1414663791656494,-1.3336252582124253,-2.526827875767843,6.11032651641921,1.017651081085205,-2.7768288294421595
1708436164.9704833,-2.141422986984253,-1.3336801391891022,-2.526802364979879,6.110270130425253,1.0176305770874023,-2.7766109148608606
1708436164.9724824,-2.1414363384246826,-1.3336460155299683,-2.526789967213766,6.110173809319296,1.0176054239273071,-2.77625281015505
1708436164.9744945,-2.1413514614105225,-1.3336821061423798,-2.526839796696798,6.110171305924215,1.0176589488983154,-2.7759979406939905
1708436164.976533,-2.1413073539733887,-1.333702878361084,-2.5267978350268763,6.110139715462484,1.0176053047180176,-2.77566367784609
1708436164.978479,-2.14119291305542,-1.333662362103798,-2.526856247578756,6.1099984524543665,1.0176262855529785,-2.7753711382495325
1708436164.9804833,-2.141157627105713,-1.3337073040059586,-2.5268800894366663,6.109865534096517,1.0176424980163574,-2.775076214467184
1708436164.982489,-2.141106605529785,-1.3337103736451645,-2.5269163290606897,6.109847295075216,1.0176546573638916,-2.7747467199908655
1708436164.9844959,-2.1410317420959473,-1.3337638241103669,-2.5269654432879847,6.10976659038619,1.017659068107605,-2.774430576954977
1708436164.986517,-2.1410133838653564,-1.3337355864099045,-2.526947561894552,6.10967897155837,1.0176947116851807,-2.7741392294513147
1708436164.9885342,-2.1408777236938477,-1.3337342006019135,-2.5269580523120325,6.1095876572425745,1.017723560333252,-2.7738075892077845
1708436164.99054,-2.140793800354004,-1.3337746423533936,-2.5270360151873987,6.109524595528402,1.0177397727966309,-2.773411814366476
1708436164.9926395,-2.140763998031616,-1.3337702316096802,-2.52702242532839,6.109388696938314,1.017723560333252,-2.773088518773214
1708436164.994511,-2.140659809112549,-1.3337327849916,-2.5270677248584192,6.109288799553671,1.0177266597747803,-2.7727158705340784
1708436164.9965394,-2.140571355819702,-1.3338315051845093,-2.5271080175982874,6.109152781754293,1.0177428722381592,-2.772424284611837
1708436164.9985285,-2.140472412109375,-1.3338475090316315,-2.5271111170398157,6.109024393349447,1.017811894416809,-2.772064510975973
1708436165.0004961,-2.140393018722534,-1.3338270050338288,-2.527139727269308,6.108954775124349,1.0178238153457642,-2.7716339270221155
1708436165.002491,-2.14025616645813,-1.333846167927124,-2.527180020009176,6.108733045845785,1.0178393125534058,-2.771289889012472
1708436165.0044973,-2.1401405334472656,-1.3338910353234787,-2.52717096010317,6.108630406647482,1.0178838968276978,-2.7709386984454554
1708436165.0065103,-2.1400067806243896,-1.333947868352272,-2.5272281805621546,6.108471023827352,1.0178874731063843,-2.7705765406238
1708436165.0085094,-2.1398637294769287,-1.3338973832181473,-2.527247492467062,6.108364331513204,1.0179647207260132,-2.7702418009387415
1708436165.0104947,-2.139770269393921,-1.33394609511409,-2.5272956530200403,6.108115541725912,1.0178937911987305,-2.7698503176318567
1708436165.0125089,-2.1396164894104004,-1.333958477979042,-2.5273121039019983,6.108017551689901,1.0179669857025146,-2.769498411809103
1708436165.0145006,-2.139486789703369,-1.3340062212995072,-2.5272701422320765,6.107780802040853,1.0179791450500488,-2.7691553274737757
1708436165.016481,-2.1392648220062256,-1.3340423119119187,-2.5272894541369837,6.107670771866598,1.0180522203445435,-2.7687199751483362
1708436165.0184941,-2.139051914215088,-1.334016965036728,-2.527412716542379,6.107392298966207,1.0180684328079224,-2.768320385609762
1708436165.0204954,-2.138951539993286,-1.3340363663486023,-2.5274277369128626,6.1071607945259,1.0181035995483398,-2.7679532209979456
1708436165.022528,-2.1387224197387695,-1.3340987128070374,-2.527426067982809,6.106967556267538,1.0181889533996582,-2.7674949804889124
1708436165.024497,-2.1384787559509277,-1.3341093820384522,-2.527487341557638,6.1066945669944666,1.0182403326034546,-2.7671104113208216
1708436165.026496,-2.138291597366333,-1.3340887290290375,-2.5275145212756556,6.106471764832296,1.0182795524597168,-2.766718928013937
1708436165.0285115,-2.138051986694336,-1.334108219747879,-2.527571503316061,6.1063140509422205,1.0183287858963013,-2.766315523778097
1708436165.0304868,-2.137831449508667,-1.3342062842896958,-2.5276735464679163,6.105993497162618,1.0183115005493164,-2.765873734151022
1708436165.0324876,-2.1376447677612305,-1.3342554581216355,-2.527700487767355,6.10575424411849,1.018372654914856,-2.765451971684591
1708436165.0344963,-2.1373398303985596,-1.3342247021249314,-2.5276806990252894,6.105520474701681,1.0184240341186523,-2.765052382146017
1708436165.0364876,-2.1370599269866943,-1.334285483961441,-2.5277708212481897,6.10512255409316,1.0185132026672363,-2.7645631472217005
1708436165.038499,-2.136794090270996,-1.3343049597791214,-2.5278640429126185,6.104857551842489,1.0185290575027466,-2.76416522661318
1708436165.040518,-2.1364707946777344,-1.3343127530864258,-2.527928415928976,6.104452836304464,1.0185967683792114,-2.7637160460101526
1708436165.0424936,-2.136141300201416,-1.3343898069909592,-2.5279794375049036,6.104158627777853,1.0186734199523926,-2.7632225195514124
1708436165.0445106,-2.1358649730682373,-1.3343964380076905,-2.52804404893984,6.103857147484579,1.018733024597168,-2.762777630482809
1708436165.0464802,-2.1355392932891846,-1.3344301742366333,-2.5281129519092005,6.103464948921957,1.0187768936157227,-2.762380663548605
1708436165.0485349,-2.135261297225952,-1.334478185778,-2.528172794972555,6.103131162911215,1.018837332725525,-2.7618892828570765
1708436165.0505,-2.1349334716796875,-1.3344356280616303,-2.5282612482654017,6.102714884072103,1.0189419984817505,-2.761437479649679
1708436165.052506,-2.1345865726470947,-1.3344710779241105,-2.5282958189593714,6.1023058769996545,1.019063115119934,-2.7609902063952845
1708436165.0545127,-2.1341991424560547,-1.334553138618805,-2.528379742299215,6.101869928627767,1.0191099643707275,-2.7604592482196253
1708436165.05649,-2.1338000297546387,-1.33456505954776,-2.528492275868551,6.101354586869039,1.0192477703094482,-2.7599874178515833
1708436165.0584784,-2.1333725452423096,-1.3345963817885895,-2.5286017099963587,6.100920784264364,1.0193027257919312,-2.7595470587359827
1708436165.0604873,-2.1329734325408936,-1.334599570637085,-2.5286195913897913,6.10038577297286,1.0194271802902222,-2.7590342203723353
1708436165.0624745,-2.1325936317443848,-1.334656224851944,-2.5287397543536585,6.099830376892843,1.0195276737213135,-2.7585633436786097
1708436165.0644872,-2.1321935653686523,-1.3346832555583497,-2.528820816670553,6.099353301316061,1.0196030139923096,-2.758094374333517
1708436165.0664892,-2.131788730621338,-1.3347026419690629,-2.5289164225207728,6.098898756295004,1.019779920578003,-2.7576351801501673
1708436165.0684834,-2.1313071250915527,-1.3348037910512467,-2.529032293950216,6.098396527558126,1.0198558568954468,-2.7571142355548304
1708436165.0705001,-2.130814790725708,-1.3347732436707993,-2.5291462580310267,6.097853886872091,1.0199767351150513,-2.7566049734698694
1708436165.0724802,-2.1304140090942383,-1.3348922443440934,-2.5292001406299036,6.097274052887716,1.0200361013412476,-2.7561658064471644
1708436165.0745142,-2.12992262840271,-1.3348866266063233,-2.5293033758746546,6.096765863686361,1.0201565027236938,-2.7556117216693323
1708436165.076508,-2.129483699798584,-1.3349345487407227,-2.5294461886035364,6.0961577771003626,1.020301342010498,-2.7551735083209437
1708436165.0785139,-2.128919839859009,-1.3350432378104706,-2.529597345982687,6.095528232842245,1.0204216241836548,-2.754638973866598
1708436165.0805085,-2.1283891201019287,-1.335050882106163,-2.52962309518923,6.094841587334432,1.0205134153366089,-2.7541468779193323
1708436165.0824888,-2.12785267829895,-1.3350943636945267,-2.529813353215353,6.09422396400527,1.0206544399261475,-2.7536805311786097
1708436165.0845056,-2.1273398399353027,-1.3351793003133317,-2.529904905949728,6.093611943512716,1.0207375288009644,-2.7531333605395716
1708436165.086501,-2.1267566680908203,-1.335210607653,-2.529999558125631,6.092897522240438,1.0208054780960083,-2.752690378819601
1708436165.0885205,-2.1262097358703613,-1.33526265740905,-2.5301571528064173,6.092211711197653,1.0209670066833496,-2.752251450215475
1708436165.0905871,-2.1256065368652344,-1.335318462257721,-2.5302394072162073,6.091512906342306,1.02103853225708,-2.751747433339254
1708436165.092544,-2.125007390975952,-1.3353497844985505,-2.5304296652423304,6.090714680939474,1.021175503730774,-2.7512686888324183
1708436165.094545,-2.12436580657959,-1.3354291033795853,-2.5305572191821497,6.089990484505453,1.0212914943695068,-2.7507687250720423
1708436165.0965579,-2.1237146854400635,-1.3354811531356354,-2.5307298342334192,6.0890506384666345,1.0214730501174927,-2.7502601782428187
1708436165.098522,-2.122978687286377,-1.3355727207711716,-2.5308454672442835,6.0882980702217,1.0216296911239624,-2.749737564717428
1708436165.100503,-2.1223578453063965,-1.3356083941510697,-2.5309935251819056,6.087453233986654,1.021786093711853,-2.7492359320269983
1708436165.1025147,-2.1216049194335938,-1.3356964451125641,-2.531120840703146,6.086645829468527,1.0219298601150513,-2.74873930612673
1708436165.104504,-2.1209349632263184,-1.3357400012067338,-2.53123647371401,6.085770833283224,1.0220532417297363,-2.74825627008547
1708436165.1064816,-2.1201751232147217,-1.3358368587544938,-2.5314136187182825,6.084894525795736,1.0222020149230957,-2.7477784792529505
1708436165.1085258,-2.119473934173584,-1.335905448799469,-2.531569306050436,6.083980071335592,1.0223628282546997,-2.747249190007345
1708436165.110491,-2.118669033050537,-1.3359835010818024,-2.5317419211017054,6.083019006043234,1.0224864482879639,-2.7468066851245325
1708436165.1124938,-2.1178269386291504,-1.3360271465829392,-2.531889025365011,6.082055079727926,1.02263343334198,-2.7463017145739954
1708436165.1144884,-2.117008924484253,-1.3361881238273163,-2.532041613255636,6.0809974549110315,1.022815465927124,-2.7457309404956263
1708436165.1165173,-2.1161704063415527,-1.33626081169162,-2.532192055379049,6.07990442493514,1.0229507684707642,-2.7452645937549036
1708436165.1185071,-2.11535382270813,-1.336392418747284,-2.5323928038226526,6.078900205879965,1.0231561660766602,-2.7447689215289515
1708436165.1205037,-2.1145081520080566,-1.3363860261491318,-2.532557551060812,6.077915656357565,1.0232634544372559,-2.744201723729269
1708436165.1224904,-2.1136419773101807,-1.336558536892273,-2.5327044169055384,6.076894628792562,1.023427128791809,-2.7437577883349817
1708436165.1244924,-2.1127405166625977,-1.33659781635318,-2.532877270375387,6.075772988587179,1.0236345529556274,-2.743213717137472
1708436165.126503,-2.111842393875122,-1.3367100369981308,-2.5330644289599817,6.07467936256484,1.023765206336975,-2.742706362401144
1708436165.1285121,-2.1108384132385254,-1.3368174743703385,-2.533208433781759,6.07348524311141,1.0238839387893677,-2.7421889940844935
1708436165.130502,-2.1098923683166504,-1.3368682724288483,-2.5333688894854944,6.072283732682028,1.024097204208374,-2.7416561285602015
1708436165.1324992,-2.108869791030884,-1.336963878279068,-2.5336058775531214,6.071097838669576,1.0243271589279175,-2.7411978880511683
1708436165.1344998,-2.107909917831421,-1.3371502769044419,-2.533752743397848,6.069853293686666,1.0245119333267212,-2.7407200972186487
1708436165.136483,-2.1068947315216064,-1.3372239780477067,-2.533964220677511,6.068602669029989,1.0246670246124268,-2.740211788808004
1708436165.138543,-2.1058614253997803,-1.3372857582620163,-2.5341606775866907,6.067353474884786,1.0248472690582275,-2.7397404352771204
1708436165.1405084,-2.104811906814575,-1.3374139380506058,-2.5343528429614466,6.0660486100013635,1.0250623226165771,-2.7392237822162073
1708436165.1425312,-2.1037421226501465,-1.3375305098346253,-2.5345566908465784,6.0647374270255945,1.0252171754837036,-2.738748613988058
1708436165.1444852,-2.1026315689086914,-1.337689996962883,-2.5348055998431605,6.063428270607748,1.0253883600234985,-2.738300625477926
1708436165.1464906,-2.1015539169311523,-1.3377533567002793,-2.534959856663839,6.062157857209005,1.0255941152572632,-2.7377784887896937
1708436165.148526,-2.100391149520874,-1.3378759187510987,-2.535201374684469,6.060699212342062,1.025818109512329,-2.7372735182391565
1708436165.1504896,-2.099229574203491,-1.3380433780005951,-2.5353696982013147,6.059341776161947,1.025962233543396,-2.736809555684225
1708436165.152513,-2.098088502883911,-1.3381704998067399,-2.5355477968799036,6.057867872505941,1.0261667966842651,-2.7363205591784876
1708436165.1545348,-2.096890687942505,-1.3383140873960038,-2.5357726255999964,6.056411731034078,1.0263503789901733,-2.735870424901144
1708436165.1564987,-2.095705509185791,-1.338384435778,-2.5359349886523646,6.054985391884603,1.0265591144561768,-2.735364023839132
1708436165.1585531,-2.094435691833496,-1.3385323149016877,-2.5362306276904505,6.0534411547477625,1.0267815589904785,-2.7349024454699915
