Eg3-git/Classifiers/Data Collection/u4/u4cir1_ur3e_joint_states.csv
time,elbow_joint,shoulder_lift_joint,shoulder_pan_joint,wrist_1_joint,wrist_2_joint,wrist_3_joint
1708436350.5737062,-2.149109125137329,-1.3352931302836915,-2.5247207323657435,6.126926767617025,1.0137983560562134,-2.3330441156970423
1708436350.5757015,-2.1490445137023926,-1.3352157485536118,-2.5246909300433558,6.126770722657003,1.013855218887329,-2.333041016255514
1708436350.577693,-2.1490635871887207,-1.3352081936648865,-2.5247207323657435,6.126720893173971,1.0138760805130005,-2.332963530217306
1708436350.5796854,-2.1489696502685547,-1.3352213662913819,-2.5247727076159876,6.126514780312338,1.0139001607894897,-2.3329034487353724
1708436350.5816886,-2.148955821990967,-1.3352463704398652,-2.524763886128561,6.126477825432577,1.0139154195785522,-2.3328879515277308
1708436350.583769,-2.1488711833953857,-1.3351844412139435,-2.5247226397143763,6.126271593361654,1.0138821601867676,-2.3328684012042444
1708436350.5856915,-2.1488232612609863,-1.3352228564075013,-2.524780575429098,6.12619029262618,1.0139439105987549,-2.3328564802752894
1708436350.587696,-2.1487674713134766,-1.3351407957128067,-2.524829689656393,6.126070606499471,1.0139483213424683,-2.3328738848315638
1708436350.5896885,-2.148648500442505,-1.335153029566147,-2.524837080632345,6.12590121009902,1.013939380645752,-2.3327677885638636
1708436350.5916965,-2.1486756801605225,-1.3351749342731019,-2.524766508732931,6.125740635185995,1.0139634609222412,-2.332773510609762
1708436350.5937042,-2.1485917568206787,-1.3351376813701172,-2.5248404184924524,6.125653850823202,1.014020323753357,-2.33274490038027
1708436350.5957026,-2.1485440731048584,-1.335130126481392,-2.5248315970050257,6.125514614373007,1.0139994621276855,-2.332695786152975
1708436350.5977151,-2.148451328277588,-1.335101918583252,-2.5248599688159388,6.125361907273092,1.014035701751709,-2.3326597849475306
1708436350.5997002,-2.1484203338623047,-1.335073710685112,-2.524872128163473,6.1252105114753626,1.0140267610549927,-2.332632366810934
1708436350.6016905,-2.1482784748077393,-1.3351106506637116,-2.524888579045431,6.125135409622946,1.0140836238861084,-2.332526508961813
1708436350.6037462,-2.148292064666748,-1.3350659173778077,-2.524879757558004,6.124945390015402,1.0140714645385742,-2.3325231711017054
1708436350.6057003,-2.1481518745422363,-1.3350583624890824,-2.5248873869525355,6.124839174538412,1.0141031742095947,-2.332487169896261
1708436350.6076956,-2.1481616497039795,-1.3350170862725754,-2.5249157587634485,6.124744999199667,1.0141571760177612,-2.332438055668966
1708436350.6097121,-2.148113965988159,-1.3349797141603013,-2.524957243596212,6.1245590327079675,1.0141645669937134,-2.332435909901754
1708436350.6117241,-2.1479904651641846,-1.3350060743144532,-2.5249157587634485,6.124482857971945,1.0141890048980713,-2.3324204126941126
1708436350.613708,-2.147958517074585,-1.3349824708751221,-2.5250006357776087,6.124290811806478,1.0141726732254028,-2.332409445439474
1708436350.6157093,-2.1478521823883057,-1.3349583905986329,-2.524942938481466,6.124184477120199,1.0142204761505127,-2.3322861830340784
1708436350.617689,-2.1477346420288086,-1.3349746775678177,-2.524939839039938,6.124028789788046,1.0141948461532593,-2.332315746937887
1708436350.6196969,-2.1477341651916504,-1.3349333268455048,-2.524987522755758,6.123905885010519,1.0142356157302856,-2.332209650670187
1708436350.6216834,-2.1476783752441406,-1.334897295837738,-2.525036875401632,6.123744118004598,1.0142760276794434,-2.332202974949972
1708436350.623716,-2.1476521492004395,-1.33482779682193,-2.5249744097339075,6.123617160111227,1.01427161693573,-2.332179133092062
1708436350.6256833,-2.1475467681884766,-1.3349029135755082,-2.5250206629382532,6.123414861946859,1.0142879486083984,-2.332123581563131
1708436350.6277196,-2.1475274562835693,-1.3347679537585755,-2.5250445047961634,6.1233205673988245,1.0143332481384277,-2.332127873097555
1708436350.6296902,-2.147434711456299,-1.3349204522422333,-2.525093380604879,6.123185384064474,1.0143855810165405,-2.332054678593771
1708436350.631687,-2.147357702255249,-1.3348148626140137,-2.5250805060016077,6.12305377700881,1.0143765211105347,-2.332055632268087
1708436350.6336951,-2.1473357677459717,-1.3347810369781037,-2.525120798741476,6.122896301537313,1.0143721103668213,-2.331982437764303
1708436350.6357107,-2.147264242172241,-1.3347732436707993,-2.5250750223742884,6.122818577080526,1.0144010782241821,-2.3319793383227747
1708436350.6379585,-2.1471669673919678,-1.3347540956786652,-2.5251031557666224,6.12264500835494,1.0144321918487549,-2.33189827600588
1708436350.6397116,-2.147139549255371,-1.3347628277591248,-2.525144640599386,6.122563826828756,1.0144366025924683,-2.33183724084963
1708436350.6416914,-2.1470894813537598,-1.334795058970787,-2.525165383015768,6.122352945595541,1.0144774913787842,-2.3318424860583704
1708436350.6436942,-2.147031784057617,-1.3347759705832978,-2.525201384221212,6.1222585318382166,1.0144398212432861,-2.331851307545797
1708436350.645689,-2.14693546295166,-1.334764064555504,-2.5251885096179407,6.122124182968893,1.0144729614257812,-2.3317869345294397
1708436350.6477244,-2.1469171047210693,-1.334731177692749,-2.5251970926867884,6.122011768608846,1.0145163536071777,-2.3317704836474817
1708436350.6496954,-2.1468446254730225,-1.3347597134164353,-2.525163475667135,6.121844517975607,1.014528512954712,-2.33173114458193
1708436350.651691,-2.146792411804199,-1.334690810447075,-2.5251598993884485,6.121732342034139,1.0145856142044067,-2.3317061106311243
1708436350.653706,-2.146716594696045,-1.3346585643342515,-2.52522856393923,6.121638047486105,1.0145766735076904,-2.331674400960104
1708436350.6558623,-2.1466474533081055,-1.334708259706833,-2.525195900593893,6.121420132904806,1.0145796537399292,-2.3316383997546595
1708436350.6577032,-2.146658420562744,-1.33465068161998,-2.525224272404806,6.121360051422872,1.0145885944366455,-2.331606690083639
1708436350.6596932,-2.146549940109253,-1.3347038191607972,-2.525215450917379,6.121210801392355,1.0146503448486328,-2.3315990606891077
1708436350.6617029,-2.146500825881958,-1.3346386861852189,-2.525203529988424,6.1211163876350305,1.0146323442459106,-2.3315301577197474
1708436350.6637084,-2.146415948867798,-1.3346312058022995,-2.525231901799337,6.120911466866293,1.0147103071212769,-2.331477705632345
1708436350.6657732,-2.1464498043060303,-1.3346149188331147,-2.5252886454211634,6.120801198273458,1.0146968364715576,-2.3314746061908167
1708436350.6677294,-2.146336555480957,-1.3346324574998398,-2.5252559820758265,6.120636808663168,1.0146894454956055,-2.331414524708883
1708436350.6697865,-2.1463024616241455,-1.33461149156604,-2.5253499189959925,6.120566594391622,1.0147582292556763,-2.3314066568957728
1708436350.6716974,-2.146265983581543,-1.3346158576062699,-2.5252721945392054,6.120385277062216,1.0147870779037476,-2.3314154783831995
1708436350.673707,-2.1461732387542725,-1.3345963817885895,-2.525254789982931,6.120261418610372,1.014818549156189,-2.3313828150378626
1708436350.6756902,-2.146179676055908,-1.3345744770816346,-2.525283161793844,6.120101558953085,1.014764666557312,-2.3312693277942103
1708436350.6776953,-2.146057367324829,-1.3345518869212647,-2.525299612675802,6.120048987656393,1.0147883892059326,-2.3312910238849085
1708436350.6796916,-2.1459872722625732,-1.3345606190017243,-2.525327984486715,6.11988781669692,1.014833688735962,-2.3312867323504847
1708436350.6816938,-2.1460118293762207,-1.3345325005105515,-2.525327984486715,6.119748580246725,1.0148124694824219,-2.331259314213888
1708436350.6837175,-2.1459426879882812,-1.3345725399306794,-2.525344196950094,6.119660603791036,1.0148202180862427,-2.331202570592062
1708436350.6856937,-2.145866632461548,-1.3344788712314148,-2.5253356138812464,6.119524585991659,1.0148695707321167,-2.331130329762594
1708436350.6876965,-2.1458394527435303,-1.3344833117774506,-2.5253637472735804,6.1193837998206995,1.0148695707321167,-2.331130329762594
1708436350.6897178,-2.145737648010254,-1.3344876778176804,-2.5253759066211146,6.119277822762289,1.0149133205413818,-2.331101957951681
1708436350.6917086,-2.145728349685669,-1.334475429063179,-2.525383536015646,6.1191372750099084,1.0148590803146362,-2.3310659567462366
1708436350.6937099,-2.1456797122955322,-1.3344639253667374,-2.525346342717306,6.118996965676107,1.014937400817871,-2.3310092131244105
1708436350.695714,-2.1456851959228516,-1.33444436014209,-2.52535850206484,6.1189236519630334,1.0149240493774414,-2.330972973500387
1708436350.6976995,-2.145587682723999,-1.3344356280616303,-2.5253878275500696,6.118790256768026,1.0149447917938232,-2.330998245869772
1708436350.699708,-2.145535469055176,-1.33444436014209,-2.525428358708517,6.118687379151144,1.0149521827697754,-2.3309534231769007
1708436350.7017038,-2.1454720497131348,-1.3344071072391053,-2.5254033247577112,6.118533479958334,1.015018343925476,-2.3309338728534144
1708436350.7037058,-2.145388126373291,-1.3344083589366456,-2.5254433790790003,6.118480908661642,1.0150213241577148,-2.3309183756457728
1708436350.705708,-2.1453232765197754,-1.3344127249768754,-2.525452200566427,6.118368851929464,1.0150514841079712,-2.330902163182394
1708436350.7077026,-2.1453323364257812,-1.3344290119460602,-2.5254107157336634,6.1182522652442834,1.01505446434021,-2.3308823744403284
1708436350.7097073,-2.1452982425689697,-1.334421531563141,-2.525397602711813,6.11816560009078,1.0150575637817383,-2.3308048884021204
1708436350.7116964,-2.1452574729919434,-1.3343563985875626,-2.5254884401904505,6.118095385819235,1.0150530338287354,-2.330789629613058
1708436350.7137096,-2.145192861557007,-1.3343235117248078,-2.5254839102374476,6.117956506996908,1.0151070356369019,-2.330777708684103
1708436350.7157154,-2.1450867652893066,-1.3343606752208252,-2.5254753271686,6.117899882584371,1.015097975730896,-2.3307250181781214
1708436350.717694,-2.14508056640625,-1.334336594944336,-2.525470797215597,6.117766606598654,1.0150845050811768,-2.330726210271017
1708436350.7196956,-2.1450071334838867,-1.3343005937388916,-2.5255239645587366,6.117618429451742,1.015146255493164,-2.330660645161764
1708436350.7216947,-2.1450023651123047,-1.3342961382916947,-2.5255406538592737,6.117518412857809,1.0151536464691162,-2.330644432698385
1708436350.7237053,-2.144958972930908,-1.3343378466418763,-2.525515381489889,6.117431866913595,1.0151911973953247,-2.3306081930743616
1708436350.7256877,-2.1448683738708496,-1.3342961382916947,-2.525519673024313,6.117389666825094,1.0151941776275635,-2.3306334654437464
1708436350.7276978,-2.1448910236358643,-1.3343215596726914,-2.525531832371847,6.117248999863424,1.0152108669281006,-2.33056885400881
1708436350.7296882,-2.1447913646698,-1.3342604649117966,-2.5255427996264856,6.117207395821371,1.0152184963226318,-2.33056885400881
1708436350.7317169,-2.1447911262512207,-1.3342429262450715,-2.5255427996264856,6.117099988251486,1.0152184963226318,-2.3305285612689417
1708436350.7337074,-2.1447300910949707,-1.3342354607633133,-2.5255516211139124,6.11697410324172,1.0152006149291992,-2.330545965825216
1708436350.735715,-2.144685745239258,-1.3342441779426117,-2.5255678335772913,6.116908538132467,1.0152876377105713,-2.330505434666769
1708436350.7376974,-2.1446664333343506,-1.3342441779426117,-2.525588575993673,6.1167945740516565,1.015237808227539,-2.3304978052722376
1708436350.73973,-2.1445815563201904,-1.3342322570136567,-2.525588575993673,6.116681086808004,1.0152950286865234,-2.3304651419269007
1708436350.7417111,-2.1446187496185303,-1.334233434205391,-2.5255797545062464,6.116623031883993,1.0153117179870605,-2.3304172197925013
1708436350.7436957,-2.144568681716919,-1.3342259538224717,-2.525633160267965,6.116552936821737,1.0153026580810547,-2.330449644719259
1708436350.7457097,-2.144498586654663,-1.3342290681651612,-2.525558058415548,6.116457330971517,1.01533842086792,-2.330405060444967
1708436350.7476974,-2.144437313079834,-1.3342509728721161,-2.525583092366354,6.116336095124044,1.01533842086792,-2.33036452928652
1708436350.749699,-2.1444315910339355,-1.3342378747514267,-2.5256157557116907,6.116228210717001,1.0153553485870361,-2.3304148356067103
1708436350.751707,-2.1443943977355957,-1.3341636073640366,-2.525627915059225,6.116184937744894,1.0153701305389404,-2.3303361574756067
1708436350.753691,-2.144360065460205,-1.3341116470149537,-2.5256312529193323,6.116067039757528,1.0153582096099854,-2.3303449789630335
1708436350.7556968,-2.144338846206665,-1.334176779990532,-2.525656048451559,6.116044509201803,1.0154273509979248,-2.3302674929248255
1708436350.7576942,-2.144286632537842,-1.3341516864350815,-2.5256810824023646,6.11593650558547,1.015424132347107,-2.330272976552145
1708436350.7597098,-2.1442716121673584,-1.3341497492841263,-2.525668207799093,6.115881550102987,1.0154061317443848,-2.330240074788229
1708436350.7617037,-2.144228458404541,-1.3341323000243683,-2.5256312529193323,6.115863549500265,1.0154392719268799,-2.330273691807882
1708436350.7637093,-2.1441502571105957,-1.334158555870392,-2.525680128728048,6.115771281510153,1.0154346227645874,-2.3302488962756556
1708436350.765734,-2.1441266536712646,-1.3341466349414368,-2.5256474653827112,6.115675318032064,1.0154228210449219,-2.3302574793445032
1708436350.7677035,-2.144151449203491,-1.3341526103070755,-2.5256925264941614,6.115556823998251,1.015451431274414,-2.3302128950702112
1708436350.7697263,-2.144057512283325,-1.3341466349414368,-2.5256713072406214,6.1155316708381555,1.0154542922973633,-2.330196205769674
1708436350.771717,-2.144096851348877,-1.3341466349414368,-2.5256550947772425,6.11545096614913,1.015428900718689,-2.3302128950702112
1708436350.7737353,-2.1440675258636475,-1.3341093820384522,-2.525707546864645,6.115370142250814,1.0154783725738525,-2.330160442982809
1708436350.7756944,-2.1440412998199463,-1.3341334623149415,-2.525703255330221,6.115299927979269,1.0154738426208496,-2.330184284840719
1708436350.777696,-2.1439836025238037,-1.3341181141189118,-2.525731388722555,6.115219223290243,1.0154815912246704,-2.330193106328146
1708436350.779718,-2.1439836025238037,-1.334089995627739,-2.5257237593280237,6.115213382035055,1.0155143737792969,-2.3301406542407435
1708436350.7817097,-2.143967866897583,-1.334101827149727,-2.5257390181170862,6.115080344467916,1.0154889822006226,-2.3301287333117884
1708436350.7836993,-2.1439573764801025,-1.3340658855489274,-2.525735680256979,6.115020382195272,1.015493392944336,-2.330143992100851
1708436350.7856877,-2.1439075469970703,-1.3340733808330079,-2.525759760533468,6.115059244423666,1.015531063079834,-2.3301287333117884
1708436350.7877038,-2.143925428390503,-1.334049553876259,-2.525727097188131,6.114953148155966,1.0155503749847412,-2.3301613966571253
1708436350.7896886,-2.143890142440796,-1.3340614599040528,-2.525759760533468,6.114890682488241,1.0155622959136963,-2.330104653035299
1708436350.7916875,-2.143833637237549,-1.3340005439570923,-2.5257883707629603,6.114829170494833,1.0155837535858154,-2.33008844057192
1708436350.793711,-2.143812417984009,-1.3340495389750977,-2.5257182757007044,6.114818560868063,1.015602946281433,-2.330097023640768
1708436350.7957087,-2.1437771320343018,-1.3340658706477662,-2.5257466475116175,6.11480079868392,1.0156148672103882,-2.3300848642932337
1708436350.7977042,-2.1437644958496094,-1.334021196966507,-2.525775972996847,6.1146947024162195,1.0155985355377197,-2.3300116697894495
1708436350.799701,-2.1437432765960693,-1.334042341714241,-2.5257795492755335,6.114667880326071,1.01564359664917,-2.3300979773150843
1708436350.8017077,-2.143765687942505,-1.333997444515564,-2.5257838408099573,6.114561426430502,1.015622615814209,-2.3300283590899866
1708436350.8037202,-2.1437203884124756,-1.3340423566154023,-2.5257795492755335,6.114522921829977,1.015655755996704,-2.3299668470965784
1708436350.8057106,-2.1436684131622314,-1.334021196966507,-2.5257511774646204,6.114472019463339,1.015654444694519,-2.330045525227682
1708436350.807731,-2.1436808109283447,-1.3340181720307847,-2.5257957617389124,6.114398705750265,1.0156618356704712,-2.330012861882345
1708436350.809712,-2.143636465072632,-1.3340345186046143,-2.5258076826678675,6.114368665009298,1.0156961679458618,-2.3300214449511927
1708436350.8117185,-2.143636465072632,-1.3339811128428956,-2.525782887135641,6.114345061569967,1.0156707763671875,-2.3300214449511927
1708436350.8137467,-2.1436455249786377,-1.3339855384877701,-2.5258570353137415,6.114255058556356,1.0156946182250977,-2.329979960118429
1708436350.8157203,-2.143622636795044,-1.333953933124878,-2.525823179875509,6.114182102471151,1.015699028968811,-2.329972569142477
1708436350.8177314,-2.1436023712158203,-1.3339569431594391,-2.525823179875509,6.114237177162924,1.015702247619629,-2.3299441973315638
1708436350.8197253,-2.1435434818267822,-1.3339614433101197,-2.525802199040548,6.114091026573934,1.0156573057174683,-2.3299604097949427
1708436350.8217213,-2.143552303314209,-1.3339406114867707,-2.5258353392230433,6.114122378617086,1.015718936920166,-2.3299365679370325
1708436350.823728,-2.143500566482544,-1.3339372736266633,-2.5258317629443567,6.114048707276144,1.0157099962234497,-2.3299408594714563
1708436350.8257065,-2.1435139179229736,-1.3339137595942994,-2.5258353392230433,6.114041316300192,1.0157352685928345,-2.3298752943622034
1708436350.8277485,-2.1434788703918457,-1.3339300912669678,-2.5258353392230433,6.113944160729208,1.015730857849121,-2.3299124876605433
1708436350.82971,-2.1434741020202637,-1.333855615263321,-2.525839630757467,6.113954770355978,1.0157712697982788,-2.32993728319277
1708436350.8317096,-2.143470525741577,-1.3339548867991944,-2.5258353392230433,6.113873946457662,1.015730857849121,-2.3299244085894983
1708436350.8337476,-2.1433804035186768,-1.3339270812324067,-2.525884215031759,6.113758551865377,1.015750527381897,-2.3299461046801966
1708436350.835706,-2.143355369567871,-1.3339062196067353,-2.5258310476886194,6.113780963211813,1.015821099281311,-2.329888407384054
1708436350.837726,-2.1433823108673096,-1.3338807684234162,-2.5258668104754847,6.113742339401998,1.0157831907272339,-2.3298960367785853
1708436350.839694,-2.1433911323547363,-1.3339389127543946,-2.525912348424093,6.113769280701437,1.0158194303512573,-2.3298807779895228
1708436350.8417182,-2.1433730125427246,-1.333898515706398,-2.5258503595935267,6.113658892899313,1.0158121585845947,-2.329848114644186
1708436350.8437183,-2.143359422683716,-1.3338851791671296,-2.5258427301989954,6.113651144295492,1.015826940536499,-2.3298850695239466
1708436350.8457284,-2.1433379650115967,-1.3338984859040757,-2.52588397661318,6.113573419838705,1.0157818794250488,-2.329843584691183
1708436350.8477137,-2.1433470249176025,-1.3338328462890168,-2.5258711020099085,6.113562691002645,1.0158432722091675,-2.3298240343676966
1708436350.8497343,-2.1433300971984863,-1.3338406395963212,-2.5258503595935267,6.113507735520162,1.0158298015594482,-2.3299101034747522
1708436350.851699,-2.1432316303253174,-1.3338746589473267,-2.5259035269366663,6.11345540264205,1.0158555507659912,-2.3298326174365442
1708436350.8537133,-2.1433072090148926,-1.3338092428496857,-2.5259247461902063,6.113365518837728,1.0158767700195312,-2.3298164049731653
1708436350.8556936,-2.1432573795318604,-1.3338253659060975,-2.5258949438678187,6.113341676979818,1.0158677101135254,-2.3298173586474817
1708436350.8577085,-2.143282413482666,-1.3338702482036133,-2.5259278456317347,6.113352286606588,1.0158963203430176,-2.329775873814718
1708436350.859693,-2.143286943435669,-1.3338093322566529,-2.5258830229388636,6.113344895630636,1.0158751010894775,-2.329874102269308
1708436350.8616884,-2.1432549953460693,-1.3338583272746583,-2.5259159247027796,6.113304602890768,1.015858769416809,-2.329829279576437
1708436350.8637307,-2.1431806087493896,-1.333825336103775,-2.5259161631213587,6.113231050759115,1.015900731086731,-2.329812828694479
1708436350.865711,-2.143197536468506,-1.3338253659060975,-2.5258784929858606,6.113239991455831,1.0158705711364746,-2.3297725359546106
1708436350.8677611,-2.1432063579559326,-1.333834246998169,-2.5259116331683558,6.113192307740011,1.0158872604370117,-2.329763714467184
1708436350.8697295,-2.143153429031372,-1.3338138622096558,-2.525903050099508,6.1131640551383875,1.0159035921096802,-2.3298173586474817
1708436350.871698,-2.1431658267974854,-1.3338583272746583,-2.525869909917013,6.113098013191976,1.0159200429916382,-2.3297768274890345
1708436350.8737314,-2.143183469772339,-1.3338225495866318,-2.525903050099508,6.113108622818746,1.0159155130386353,-2.329751793538229
1708436350.8756952,-2.143211841583252,-1.3338269752315064,-2.5259812513934534,6.113068449288168,1.0159488916397095,-2.3297975699054163
1708436350.8777306,-2.1431260108947754,-1.3338182431510468,-2.5259397665606897,6.113060700684347,1.0159400701522827,-2.3298097292529505
1708436350.8797252,-2.143143892288208,-1.333810643558838,-2.5259636084186,6.112993705063619,1.0159155130386353,-2.3297887484179896
1708436350.8817127,-2.1431360244750977,-1.333834246998169,-2.525951687489645,6.113014328270712,1.015977382659912,-2.3297322432147425
1708436350.88371,-2.1431190967559814,-1.3338151437095185,-2.525951687489645,6.112939822464742,1.0159111022949219,-2.3297200838672083
1708436350.8857038,-2.143073797225952,-1.3337896180203934,-2.525907341633932,6.112915622978964,1.0159608125686646,-2.3297365347491663
1708436350.8877175,-2.143078327178955,-1.3337865632823487,-2.525943104420797,6.112917172699728,1.015960931777954,-2.329712454472677
1708436350.8897488,-2.1430463790893555,-1.3337865334800263,-2.5259385744677942,6.112900841027059,1.0159517526626587,-2.3297322432147425
1708436350.8916993,-2.1430509090423584,-1.3338429790786286,-2.5259724299060267,6.112853157311239,1.0159265995025635,-2.329757038746969
1708436350.893722,-2.1430439949035645,-1.333835856323578,-2.5259385744677942,6.112840878754415,1.0159517526626587,-2.3297038714038294
1708436350.8956969,-2.1430227756500244,-1.3337658208659668,-2.525979820881979,6.112797486573019,1.0159878730773926,-2.3296950499164026
1708436350.897723,-2.143036365509033,-1.333790974026062,-2.5259388128863733,6.112823235779562,1.0159755945205688,-2.3297081629382532
1708436350.899719,-2.1429738998413086,-1.3337627214244385,-2.5259137789355677,6.112782943039694,1.015992283821106,-2.329773728047506
1708436350.9017074,-2.1429696083068848,-1.3337627214244385,-2.5259462038623255,6.112784492760458,1.0159755945205688,-2.3297365347491663
1708436350.9037535,-2.142951250076294,-1.3337865632823487,-2.525971237813131,6.112673508911886,1.0159789323806763,-2.329745356236593
1708436350.9057143,-2.1430041790008545,-1.3337449890426178,-2.526008192692892,6.112652289658346,1.016007423400879,-2.329672161732809
1708436350.907712,-2.1429786682128906,-1.3337658059648057,-2.5259669462787073,6.112678038864889,1.0159952640533447,-2.329728666936056
1708436350.909712,-2.142935276031494,-1.333775983457901,-2.5259667078601282,6.112687098770895,1.0160030126571655,-2.3296926657306116
1708436350.9116836,-2.1429443359375,-1.3337538999370118,-2.525971237813131,6.1126558659370325,1.016040563583374,-2.329728666936056
1708436350.9137154,-2.1429688930511475,-1.333767221575119,-2.526020590459005,6.112594353943624,1.016019344329834,-2.329696242009298
1708436350.9156883,-2.1429193019866943,-1.3337209087661286,-2.5260029474841517,6.112570273667135,1.0160270929336548,-2.32967979112734
1708436350.917698,-2.1428492069244385,-1.3337923747352143,-2.5259996096240442,6.112516867905416,1.0160270929336548,-2.329716746007101
1708436350.9196947,-2.1429123878479004,-1.3337416511825104,-2.526020590459005,6.112560260086813,1.0160315036773682,-2.3296926657306116
1708436350.921728,-2.1429035663604736,-1.3337672066739579,-2.526081625615255,6.1124987480934045,1.0160688161849976,-2.329721275960104
1708436350.923712,-2.1428561210632324,-1.3337505620769043,-2.5260074774371546,6.11250780799941,1.0160796642303467,-2.329716746007101
1708436350.9256907,-2.1428380012512207,-1.3337430518916626,-2.5260520617114466,6.112418043404379,1.0160585641860962,-2.329655710850851
1708436350.9277043,-2.1428558826446533,-1.3337672066739579,-2.5260477701770228,6.112431514054098,1.016093134880066,-2.329704825078146
1708436350.9297314,-2.1428380012512207,-1.3337505620769043,-2.525998655949728,6.112381922989645,1.0161246061325073,-2.329634968434469
1708436350.9316916,-2.1427972316741943,-1.3337804538062592,-2.5260639826404017,6.112428653031149,1.0161051750183105,-2.329672161732809
1708436350.933681,-2.1428728103637695,-1.3337716323188324,-2.5260849634753626,6.1124000428016565,1.0160752534866333,-2.3297136465655726
1708436350.935694,-2.1428558826446533,-1.3337342304042359,-2.5260520617114466,6.112338530808248,1.0161410570144653,-2.329688374196188
1708436350.937725,-2.142801523208618,-1.3337430518916626,-2.5260313192950647,6.112359750061788,1.0161395072937012,-2.329602305089132
1708436350.9396842,-2.1427876949310303,-1.3337223094752808,-2.526022736226217,6.112347590714254,1.0161395072937012,-2.329623047505514
1708436350.9416907,-2.1427574157714844,-1.3337103885463257,-2.5260477701770228,6.11231957653121,1.0161304473876953,-2.3296764532672327
1708436350.943686,-2.142812490463257,-1.333689646129944,-2.526067558919088,6.112344610482015,1.0161304473876953,-2.3296642939196985
1708436350.9456797,-2.1427664756774902,-1.3337267202189942,-2.526010576878683,6.112321126251974,1.0161423683166504,-2.3296480814563196
1708436350.9476998,-2.142775297164917,-1.3337267202189942,-2.5260806719409388,6.112267124443807,1.0161467790603638,-2.329646889363424
1708436350.9496872,-2.1427674293518066,-1.3337297302535553,-2.526039187108175,6.112242924958029,1.0161638259887695,-2.329672876988546
1708436350.9517004,-2.1427719593048096,-1.3337386411479493,-2.5260260740863245,6.112242924958029,1.0161964893341064,-2.3297179380999964
1708436350.9536836,-2.1427810192108154,-1.3336984825185318,-2.526088062916891,6.112195360451498,1.0161638259887695,-2.3296685854541224
1708436350.9556947,-2.1427133083343506,-1.333702878361084,-2.52605110803713,6.112232672959127,1.0161757469177246,-2.329677406941549
1708436350.957685,-2.1427390575408936,-1.3337562394193192,-2.526104513798849,6.112208831101217,1.0161876678466797,-2.3296852747546595
1708436350.9596858,-2.1427559852600098,-1.3337430518916626,-2.5260632673846644,6.112147319107809,1.016196608543396,-2.3296318689929407
1708436350.961676,-2.1426825523376465,-1.3337223094752808,-2.5260632673846644,6.112192380219259,1.0161741971969604,-2.3296807448016565
1708436350.9636984,-2.1427128314971924,-1.3337386411479493,-2.5260794798480433,6.11216829994277,1.016192078590393,-2.3296240011798304
1708436350.9657145,-2.142688035964966,-1.3337430369905015,-2.526111904774801,6.112203109055319,1.0161876678466797,-2.3296685854541224
1708436350.9677,-2.1427128314971924,-1.3337223094752808,-2.5260794798480433,6.112135517388143,1.0161995887756348,-2.3296685854541224
1708436350.969699,-2.1427128314971924,-1.3337103885463257,-2.526088062916891,6.1121370671089075,1.0162208080291748,-2.3296685854541224
1708436350.9716752,-2.142667531967163,-1.3336984676173707,-2.526111904774801,6.112092244416036,1.0162705183029175,-2.329616371785299
1708436350.97371,-2.142676591873169,-1.3336702150157471,-2.5260828177081507,6.112124788552084,1.016223669052124,-2.329693857823507
1708436350.9757044,-2.142648220062256,-1.333714799290039,-2.5260914007769983,6.112092244416036,1.0161906480789185,-2.32966119447817
1708436350.9776936,-2.142713785171509,-1.3336984676173707,-2.5261109511004847,6.112080085068502,1.0162280797958374,-2.329660956059591
1708436350.9796977,-2.142673969268799,-1.333747462635376,-2.526140276585714,6.112068164139547,1.016243577003479,-2.3296151796924036
1708436350.981681,-2.1426198482513428,-1.3337103885463257,-2.5261197725879114,6.112030732422628,1.0162643194198608,-2.329660956059591
1708436350.9836907,-2.142606496810913,-1.3336998683265229,-2.5261314550982874,6.112065303116598,1.0162599086761475,-2.3296523729907435
1708436350.9856842,-2.142673969268799,-1.333689646129944,-2.5261033217059534,6.111994850426473,1.0163137912750244,-2.329685990010397
1708436350.9877114,-2.142612934112549,-1.333637223844864,-2.5261064211474817,6.112074243813314,1.0162792205810547,-2.3296197096454065
1708436350.9897242,-2.1426289081573486,-1.3337072891047974,-2.52614409128298,6.112008440285482,1.0163137912750244,-2.329649273549215
1708436350.9916873,-2.1425914764404297,-1.333707259302475,-2.5261438528644007,6.112003910332479,1.0162599086761475,-2.329672876988546
1708436350.9937136,-2.1425836086273193,-1.3337518733790894,-2.5261064211474817,6.1120009301002405,1.0163215398788452,-2.3296600023852747
1708436350.9957247,-2.1426095962524414,-1.333702878361084,-2.5261645952807825,6.1120173809821985,1.0163588523864746,-2.3296032587634485
1708436350.9977226,-2.1426050662994385,-1.3336984676173707,-2.5261645952807825,6.112005460053243,1.0163289308547974,-2.3296895662890833
1708436350.999725,-2.1426141262054443,-1.3336746257594605,-2.526109759007589,6.112012851029196,1.016308069229126,-2.329628292714254
1708436351.001711,-2.1425678730010986,-1.3336790365031739,-2.5261557737933558,6.111960637360372,1.0162869691848755,-2.3296685854541224
1708436351.0037305,-2.1425812244415283,-1.333689646129944,-2.5261548201190394,6.11193202713088,1.0163036584854126,-2.3296807448016565
1708436351.0057192,-2.1425507068634033,-1.3336984676173707,-2.5261226336108606,6.111974227219381,1.0163694620132446,-2.3296807448016565
1708436351.007706,-2.142573118209839,-1.333702878361084,-2.5261881987201136,6.11193202713088,1.0163440704345703,-2.3296404520617884
1708436351.0097125,-2.1425721645355225,-1.333649144773819,-2.526167694722311,6.111879575043478,1.0163531303405762,-2.3296566645251673
1708436351.0117188,-2.1425564289093018,-1.3337072891047974,-2.52613073984255,6.111914026528158,1.0163604021072388,-2.329677406941549
1708436351.0137289,-2.142573356628418,-1.3337161999991913,-2.5261603037463587,6.111872660904684,1.016313910484314,-2.329677406941549
1708436351.0157173,-2.142577648162842,-1.333690957432129,-2.526175324116842,6.111884104996481,1.0163469314575195,-2.329672876988546
1708436351.017717,-2.1425609588623047,-1.3336460453322907,-2.526175324116842,6.111878621369161,1.0163440704345703,-2.3296642939196985
1708436351.0197122,-2.142537832260132,-1.3336835366538544,-2.5261502901660364,6.111888634949484,1.0163723230361938,-2.3296642939196985
1708436351.0217087,-2.142533540725708,-1.3337249618819733,-2.5261548201190394,6.111924636154928,1.016405701637268,-2.329644743596212
1708436351.0237086,-2.1424953937530518,-1.333690957432129,-2.5262077490436,6.111821639328756,1.0163755416870117,-2.3296077887164515
1708436351.025706,-2.1425256729125977,-1.3337086898139496,-2.526203457509176,6.111779558449545,1.0163543224334717,-2.329644743596212
1708436351.0277016,-2.1424713134765625,-1.3336668771556397,-2.526240889226095,6.111804950028219,1.0163755416870117,-2.329561773930685
1708436351.0297058,-2.1424543857574463,-1.3336879473975678,-2.526191536580221,6.111817109375753,1.0163922309875488,-2.3296685854541224
1708436351.0317008,-2.1424758434295654,-1.333671287899353,-2.526175324116842,6.1118048308189294,1.0163997411727905,-2.3296318689929407
1708436351.0337193,-2.142467975616455,-1.3336623770049592,-2.5261991659747522,6.111765134125509,1.0163952112197876,-2.3296523729907435
1708436351.0356934,-2.142402410507202,-1.3336790365031739,-2.5261698404895228,6.1117663262184045,1.016432762145996,-2.3296480814563196
1708436351.0377088,-2.142493724822998,-1.3336579662612458,-2.5262113253222864,6.1117663262184045,1.0164490938186646,-2.3296523729907435
1708436351.039698,-2.142456531524658,-1.3336835366538544,-2.5261741320239466,6.111745345383444,1.0164191722869873,-2.3296523729907435
1708436351.0417278,-2.1424496173858643,-1.3336342138103028,-2.5261860529529017,6.1117215035255334,1.0164731740951538,-2.329649035130636
1708436351.0437021,-2.142428159713745,-1.3336342138103028,-2.5262277762042444,6.111697423249044,1.0164687633514404,-2.329616371785299
1708436351.045708,-2.142402410507202,-1.3336623770049592,-2.5262604395495813,6.111694562226095,1.0164763927459717,-2.3296318689929407
1708436351.0476954,-2.142406940460205,-1.333626703625061,-2.5262113253222864,6.111713874131002,1.0164642333984375,-2.3296642939196985
1708436351.049699,-2.142432689666748,-1.333626703625061,-2.5262113253222864,6.111664283066549,1.0165181159973145,-2.329660956059591
1708436351.051723,-2.142437219619751,-1.333671287899353,-2.526214663182394,6.111640798836508,1.0164927244186401,-2.329644743596212
1708436351.0537088,-2.142428159713745,-1.3336133819869538,-2.5262354055987757,6.111682402878561,1.0164793729782104,-2.3296480814563196
1708436351.0556989,-2.1423635482788086,-1.3336253029159089,-2.5262473265277308,6.1116747734840295,1.0165075063705444,-2.3296895662890833
1708436351.0576975,-2.1423840522766113,-1.3336549562266846,-2.526243034993307,6.111703383713522,1.0165046453475952,-2.3296151796924036
1708436351.059687,-2.1424291133880615,-1.3336430352977295,-2.526259247456686,6.111604678421774,1.0164822340011597,-2.3296523729907435
1708436351.0616763,-2.1423680782318115,-1.3336623770049592,-2.526275698338644,6.111622798233785,1.0165292024612427,-2.3296361605273646
1708436351.0636852,-2.1423840522766113,-1.3336835366538544,-2.526238743458883,6.111642348557272,1.0165618658065796,-2.3296523729907435
1708436351.0657291,-2.1423263549804688,-1.3336222928813477,-2.5262723604785364,6.111663329392233,1.0165364742279053,-2.329644743596212
1708436351.0677185,-2.142413377761841,-1.3336998683265229,-2.52627140680422,6.111585485726156,1.0165483951568604,-2.3296197096454065
1708436351.0697083,-2.1423885822296143,-1.3336430352977295,-2.5262799898730677,6.111606347351827,1.0165483951568604,-2.3296566645251673
1708436351.071712,-2.1423566341400146,-1.3336430352977295,-2.526320521031515,6.111544954567709,1.016581416130066,-2.3296566645251673
1708436351.0737011,-2.1423745155334473,-1.3336549562266846,-2.5262919108020228,6.111570346146383,1.0166264772415161,-2.329660956059591
1708436351.0757132,-2.1423487663269043,-1.3336756986430665,-2.5262954870807093,6.111586797028341,1.016593337059021,-2.3296404520617884
1708436351.0776923,-2.142331838607788,-1.333704264169075,-2.526283327733175,6.111561286240377,1.0165843963623047,-2.3296361605273646
1708436351.079698,-2.1423699855804443,-1.3337161999991913,-2.52627140680422,6.111542331963339,1.0165934562683105,-2.3296685854541224
1708436351.0816858,-2.1423487663269043,-1.333659366970398,-2.526267115269796,6.11157916763381,1.0165965557098389,-2.329639259968893
1708436351.0837028,-2.1423745155334473,-1.3337042790702363,-2.5262988249408167,6.111579286843099,1.0165679454803467,-2.3296685854541224
1708436351.0857027,-2.1423134803771973,-1.3336668771556397,-2.526315991078512,6.111546742707052,1.0165965557098389,-2.329594675694601
1708436351.087686,-2.142324924468994,-1.3336549562266846,-2.5263312498675745,6.111534583359518,1.0166162252426147,-2.329627339039938
1708436351.0896947,-2.142333745956421,-1.333585338001587,-2.5263150374041956,6.111493932991781,1.0166414976119995,-2.3296600023852747
1708436351.091702,-2.142345428466797,-1.3336144548705597,-2.5263031164752405,6.111458289414205,1.016603946685791,-2.329628292714254
1708436351.093694,-2.142268180847168,-1.333671287899353,-2.5262988249408167,6.111491191178121,1.016623616218567,-2.3296642939196985
1708436351.0956845,-2.142296552658081,-1.3336923581412812,-2.5263074080096644,6.111493932991781,1.0166414976119995,-2.3296361605273646
1708436351.0977209,-2.142333984375,-1.3336386245540162,-2.5263031164752405,6.1114656803901575,1.0166369676589966,-2.3296642939196985
1708436351.0997314,-2.142338514328003,-1.333605633383133,-2.5263312498675745,6.111418115883627,1.0166476964950562,-2.3297136465655726
1708436351.1016867,-2.142277240753174,-1.3336342138103028,-2.5263269583331507,6.111401784210958,1.0166820287704468,-2.3296600023852747
1708436351.1036952,-2.142277240753174,-1.3336342138103028,-2.5263641516314905,6.111471760063925,1.0166685581207275,-2.329643789921896
1708436351.1056967,-2.142279624938965,-1.3336144548705597,-2.5263431707965296,6.111443507462301,1.0166926383972168,-2.3296926657306116
1708436351.107725,-2.1422533988952637,-1.3336311143687745,-2.5263641516314905,6.111446010857382,1.0166970491409302,-2.3297136465655726
1708436351.109712,-2.1422932147979736,-1.3336713028005143,-2.5263596216784876,6.111375915795126,1.0167211294174194,-2.329684082661764
1708436351.1117444,-2.142265796661377,-1.3336253029159089,-2.5263269583331507,6.11148081996993,1.016709327697754,-2.3296642939196985
1708436351.1137388,-2.1422932147979736,-1.3336756986430665,-2.526297632847921,6.111436116486349,1.0167346000671387,-2.3296764532672327
1708436351.1157174,-2.1422836780548096,-1.3336879473975678,-2.5263641516314905,6.111415135651388,1.0166970491409302,-2.3296635786639612
1708436351.11773,-2.1422455310821533,-1.3336549562266846,-2.5263763109790247,6.111365663796224,1.0167121887207031,-2.329634968434469
1708436351.1197362,-2.1422488689422607,-1.3336549562266846,-2.5263763109790247,6.11141191700057,1.0166958570480347,-2.3297298590289515
1708436351.1217036,-2.142244577407837,-1.3336311143687745,-2.526334349309103,6.111392724304952,1.016716718673706,-2.329704825078146
1708436351.1237204,-2.1422340869903564,-1.3336835366538544,-2.5263879934894007,6.111379134445944,1.0167419910430908,-2.3296926657306116
1708436351.1257062,-2.1422135829925537,-1.3336460453322907,-2.526318136845724,6.111380684166708,1.016757607460022,-2.3297343889819544
1708436351.1277306,-2.1422410011291504,-1.3336668771556397,-2.526371781026022,6.111404526024618,1.0167077779769897,-2.329688374196188
1708436351.1297076,-2.1422386169433594,-1.3336637777141114,-2.526383701954977,6.111338722496786,1.0167620182037354,-2.3297255674945276
1708436351.131724,-2.1422135829925537,-1.3336386245540162,-2.526325766240255,6.111326801567831,1.0167529582977295,-2.329696242009298
1708436351.1337335,-2.1422252655029297,-1.3337176007083436,-2.5264044443713587,6.111326682358541,1.0167783498764038,-2.329700533543722
1708436351.1357105,-2.1422271728515625,-1.3336342138103028,-2.526383701954977,6.111424195557394,1.0167529582977295,-2.329679552708761
1708436351.1377525,-2.142186403274536,-1.333647446041443,-2.5263999144183558,6.111363994866171,1.0167440176010132,-2.329663340245382
1708436351.1397204,-2.1421561241149902,-1.3336144548705597,-2.526428286229269,6.111270177155294,1.0167485475540161,-2.329724375401632
1708436351.1417303,-2.142181873321533,-1.3336519461921235,-2.5263827482806605,6.1113566038902185,1.016793131828308,-2.329675261174337
1708436351.1437376,-2.142188787460327,-1.3336222928813477,-2.5263500849353235,6.111290919571676,1.016797661781311,-2.329745356236593
1708436351.1457038,-2.142143726348877,-1.333671287899353,-2.5264490286456507,6.111265647202291,1.0167677402496338,-2.3297374884234827
1708436351.1477358,-2.142139196395874,-1.333635614519455,-2.526423756276266,6.111349093704977,1.0168143510818481,-2.3297014872180384
1708436351.1496954,-2.1421730518341064,-1.333626703625061,-2.526440445576803,6.1112533686454675,1.0168172121047974,-2.329712454472677
1708436351.1516924,-2.1422066688537598,-1.333647446041443,-2.5263989607440394,6.111291038780966,1.016812801361084,-2.329700533543722
1708436351.1537185,-2.142202138900757,-1.333596722488739,-2.526403252278463,6.11131631115035,1.0168172121047974,-2.329696242009298
1708436351.1557279,-2.142181873321533,-1.3336100441268464,-2.5263989607440394,6.111278998642721,1.0167964696884155,-2.329704825078146
1708436351.157715,-2.14213228225708,-1.3336189550212403,-2.5264392534839075,6.111222135811605,1.016812801361084,-2.329712454472677
1708436351.1597033,-2.14213228225708,-1.3336519014886399,-2.526403252278463,6.11127136924819,1.016808271408081,-2.329712454472677
1708436351.1616895,-2.1421828269958496,-1.3336637777141114,-2.5264108816729944,6.111310469895162,1.016812801361084,-2.3296993414508265
1708436351.163706,-2.1421570777893066,-1.333626703625061,-2.526419464741842,6.111263859062948,1.0168204307556152,-2.329700533543722
1708436351.1657054,-2.142143726348877,-1.333635614519455,-2.526456658040182,6.111289369850912,1.0168416500091553,-2.32967979112734
1708436351.1677487,-2.1421782970428467,-1.3336756986430665,-2.5264480749713343,6.1112475273902795,1.0168371200561523,-2.329724375401632
1708436351.1697707,-2.1421544551849365,-1.3336549562266846,-2.5264316240893763,6.111275899201193,1.0168070793151855,-2.3297081629382532
1708436351.171726,-2.1421501636505127,-1.3336430352977295,-2.5263946692096155,6.111238586693563,1.016812801361084,-2.329712454472677
1708436351.1737242,-2.142134189605713,-1.3336519461921235,-2.5264020601855677,6.1112520573432825,1.016832709312439,-2.329749647771017
1708436351.1756897,-2.142125368118286,-1.3336144548705597,-2.526452366505758,6.1111910221870325,1.0168401002883911,-2.329757038746969
1708436351.1776905,-2.1421432495117188,-1.3336144548705597,-2.5264065901385706,6.111190902977743,1.016832709312439,-2.329749647771017
1708436351.1796832,-2.1420958042144775,-1.3336386245540162,-2.5264435450183313,6.11118637302474,1.0168907642364502,-2.3297277132617396
1708436351.1817021,-2.1421093940734863,-1.3336342138103028,-2.5264676252948206,6.111125099449911,1.0168070793151855,-2.329712454472677
1708436351.1837118,-2.1421308517456055,-1.333647446041443,-2.52643067041506,6.111206042557516,1.0168609619140625,-2.329761568699972
1708436351.1857219,-2.14212965965271,-1.333668277864792,-2.5264599959002894,6.111192452698507,1.016877293586731,-2.3297365347491663
1708436351.1877031,-2.142138719558716,-1.3337086898139496,-2.5264719168292444,6.1112297652061365,1.016877293586731,-2.329724375401632
1708436351.1897092,-2.1421093940734863,-1.3336430352977295,-2.5264557043658655,6.1111429808433435,1.0168609619140625,-2.329757038746969
1708436351.1917377,-2.1420767307281494,-1.3336222928813477,-2.5264273325549524,6.111201512604513,1.0168237686157227,-2.329681936894552
1708436351.193707,-2.1420888900756836,-1.333635614519455,-2.526409927998678,6.111144292145529,1.0168520212173462,-2.3297365347491663
1708436351.195692,-2.142138719558716,-1.3336178821376343,-2.5264676252948206,6.111168372422018,1.0168850421905518,-2.3297811190234583
1708436351.1976955,-2.1421263217926025,-1.3336725992015381,-2.5264719168292444,6.111181843071737,1.0168850421905518,-2.3297277132617396
1708436351.1996825,-2.1421139240264893,-1.333605633383133,-2.5264840761767786,6.111139762192526,1.016893982887268,-2.329684082661764
1708436351.2016816,-2.1421070098876953,-1.3336386245540162,-2.5265210310565394,6.111102449684896,1.0168774127960205,-2.329724375401632
1708436351.2036858,-2.1420810222625732,-1.3335866195014496,-2.5264557043658655,6.111148702889242,1.0168850421905518,-2.329765860234396
1708436351.2057087,-2.142064332962036,-1.3336460453322907,-2.526409927998678,6.111163842469015,1.0168850421905518,-2.3297365347491663
1708436351.2077055,-2.142055034637451,-1.3335984510234375,-2.5264557043658655,6.1110819456870935,1.0168805122375488,-2.3296993414508265
1708436351.2097094,-2.1420979499816895,-1.3336443465999146,-2.526442591344015,6.111202585488119,1.0169181823730469,-2.3297441641436976
1708436351.2116961,-2.1420979499816895,-1.3336072725108643,-2.5264514128314417,6.1111159203346155,1.0168683528900146,-2.3297606150256556
1708436351.2137215,-2.142090082168579,-1.3336562675288697,-2.5264883677112024,6.111144292145529,1.0169017314910889,-2.3297484556781214
1708436351.2157218,-2.142055034637451,-1.3336232763579865,-2.526447121297018,6.111153113632955,1.0169017314910889,-2.3297322432147425
1708436351.2177548,-2.142090082168579,-1.3335984510234375,-2.5264926592456263,6.111148702889242,1.0168638229370117,-2.3297200838672083
1708436351.2197127,-2.142090082168579,-1.3336320978454133,-2.5265079180346888,6.111095416336813,1.0168310403823853,-2.3297234217273157
1708436351.2217088,-2.142098903656006,-1.3336430352977295,-2.526447121297018,6.111132252007284,1.0169390439987183,-2.3297691980945032
1708436351.2237754,-2.142057180404663,-1.3335984510234375,-2.5264883677112024,6.111096608429708,1.0168761014938354,-2.3297279516803187
1708436351.2257047,-2.142061710357666,-1.3336637777141114,-2.5264840761767786,6.111071097641744,1.016909122467041,-2.3297930399524134
1708436351.2277381,-2.142073154449463,-1.3336430501988907,-2.526487175618307,6.111075627594747,1.0169225931167603,-2.3297112623797815
1708436351.2297192,-2.142045736312866,-1.333635614519455,-2.526463333760397,6.111117827683248,1.0169557332992554,-2.329789940510885
1708436351.231713,-2.142050266265869,-1.3336342138103028,-2.5264719168292444,6.11108015754775,1.016897201538086,-2.3296993414508265
1708436351.233731,-2.142061710357666,-1.3336725992015381,-2.526459042225973,6.111093747406759,1.016897201538086,-2.3297157923327845
1708436351.2357073,-2.142098903656006,-1.333623246555664,-2.526463333760397,6.111077296524801,1.016897201538086,-2.3297649065600794
1708436351.237703,-2.142037868499756,-1.3335940402797242,-2.526480738316671,6.111047255783834,1.016855001449585,-2.3296993414508265
1708436351.2397034,-2.142077684402466,-1.3336474609426041,-2.5264959971057337,6.111060964852133,1.0169180631637573,-2.3297157923327845
1708436351.241712,-2.142037868499756,-1.3336311143687745,-2.526405636464254,6.111069905548849,1.0169135332107544,-2.3297036329852503
1708436351.243728,-2.142045736312866,-1.3336386245540162,-2.526414219533102,6.111102688103475,1.0168805122375488,-2.3297856489764612
1708436351.2457032,-2.142094373703003,-1.3336430352977295,-2.526458803807394,6.1110350964363,1.016897201538086,-2.3297374884234827
1708436351.2477422,-2.142050266265869,-1.3336519461921235,-2.5264514128314417,6.1110350964363,1.0168927907943726,-2.329757038746969
1708436351.2497072,-2.14200758934021,-1.333635614519455,-2.5265210310565394,6.111039626389303,1.0169254541397095,-2.329712454472677
1708436351.2516952,-2.1420199871063232,-1.3335952919772645,-2.526447121297018,6.1110113737876794,1.0168850421905518,-2.32977801958193
1708436351.2537034,-2.1420865058898926,-1.3335984510234375,-2.526447121297018,6.111032235413351,1.0169062614440918,-2.329757038746969
1708436351.2557235,-2.1420912742614746,-1.3336144548705597,-2.526447121297018,6.111003863602438,1.0168715715408325,-2.329724375401632
1708436351.2577262,-2.1419970989227295,-1.3335732978633423,-2.5264959971057337,6.110975730210104,1.016921043395996,-2.32974082628359
1708436351.2597048,-2.142050266265869,-1.333605633383133,-2.5264676252948206,6.111084687500753,1.0169377326965332,-2.3297322432147425
1708436351.2616978,-2.142061710357666,-1.333602951174118,-2.526442591344015,6.111024844437399,1.0168850421905518,-2.329757038746969
1708436351.2636929,-2.142045736312866,-1.3336144548705597,-2.5264435450183313,6.110991704254904,1.016897201538086,-2.3297484556781214
1708436351.2657168,-2.142075300216675,-1.333668277864792,-2.5264914671527308,6.110962140351095,1.0169299840927124,-2.3297234217273157
1708436351.2677677,-2.1420414447784424,-1.333582104449608,-2.526479784642355,6.110980140953817,1.0169299840927124,-2.329752747212545
1708436351.269723,-2.142037868499756,-1.333648757343628,-2.526421848927633,6.111008393555441,1.016897201538086,-2.3297606150256556
1708436351.2717135,-2.142024517059326,-1.3335746091655274,-2.526458803807394,6.111029374390402,1.0169345140457153,-2.3297649065600794
1708436351.273695,-2.142073154449463,-1.3335909408381958,-2.5264676252948206,6.111033785134115,1.0169017314910889,-2.329773728047506
1708436351.2756982,-2.1420865058898926,-1.3336562675288697,-2.5264840761767786,6.1109962342079065,1.0168670415878296,-2.3297441641436976
1708436351.2777176,-2.142037868499756,-1.3336276871016999,-2.526447121297018,6.111024844437399,1.016909122467041,-2.3297484556781214
1708436351.2796948,-2.1420140266418457,-1.3336276871016999,-2.5265167395221155,6.110972630768575,1.0168838500976562,-2.3297365347491663
1708436351.281711,-2.142045736312866,-1.33359848082576,-2.5264676252948206,6.110993492394247,1.0168761014938354,-2.329712454472677
1708436351.2837474,-2.1420209407806396,-1.3336519461921235,-2.5264838377581995,6.110975611000814,1.0168805122375488,-2.329773728047506
1708436351.2856956,-2.142059326171875,-1.3336189550212403,-2.526463333760397,6.111013042717733,1.0168927907943726,-2.329724375401632
1708436351.2877326,-2.1419835090637207,-1.333602951174118,-2.52645451227297,6.1109845516975305,1.0169332027435303,-2.329716746007101
1708436351.289704,-2.142050266265869,-1.3336232763579865,-2.526487175618307,6.110972630768575,1.0169135332107544,-2.32974082628359
1708436351.2917025,-2.142042398452759,-1.3336116534522553,-2.526479784642355,6.110951769142904,1.0168850421905518,-2.329728666936056
1708436351.293705,-2.142054796218872,-1.333635614519455,-2.526479784642355,6.110956299095907,1.016921043395996,-2.3296919504748743
1708436351.2956944,-2.1420342922210693,-1.3336725992015381,-2.526442591344015,6.1109890816505334,1.0169135332107544,-2.329712454472677
1708436351.2977128,-2.142029047012329,-1.3336072725108643,-2.5264392534839075,6.110948550492086,1.0168548822402954,-2.3296666781054896
1708436351.2997103,-2.1420705318450928,-1.3336320531419297,-2.526409927998678,6.110948431282797,1.0168728828430176,-2.329712454472677
1708436351.3017073,-2.141995906829834,-1.3335984510234375,-2.5264349619494837,6.110969769745626,1.0169135332107544,-2.3297081629382532
1708436351.303714,-2.142054796218872,-1.333635614519455,-2.5264514128314417,6.110903489380636,1.0168927907943726,-2.329675261174337
1708436351.305744,-2.1420705318450928,-1.3335702878287812,-2.5264795462237757,6.110936629563131,1.016909122467041,-2.3296764532672327
1708436351.3077114,-2.1420209407806396,-1.333618925218918,-2.526421848927633,6.111011492996969,1.016897201538086,-2.329655472432272
1708436351.3097332,-2.142054796218872,-1.3335866195014496,-2.526475254689352,6.110896217613973,1.016909122467041,-2.3296969572650355
1708436351.3116987,-2.142063856124878,-1.3335702878287812,-2.526463333760397,6.110965239792623,1.0168429613113403,-2.3296642939196985
1708436351.3137329,-2.142042398452759,-1.333657668238022,-2.526414219533102,6.11091576793746,1.0169047117233276,-2.3296361605273646
1708436351.3157215,-2.1420254707336426,-1.3336029660752793,-2.526475254689352,6.110917079239645,1.016909122467041,-2.329677406941549
1708436351.3176947,-2.14200496673584,-1.3335909408381958,-2.526418749486105,6.110962140351095,1.0169017314910889,-2.32961088815798
1708436351.3197274,-2.1420955657958984,-1.3335777086070557,-2.526463333760397,6.110948550492086,1.0169017314910889,-2.3295791784869593
1708436351.3217716,-2.1420514583587646,-1.333616093998291,-2.526482884083883,6.110969650536337,1.0169017314910889,-2.329636875783102
1708436351.3237052,-2.1419711112976074,-1.3336116534522553,-2.5264557043658655,6.1109410403068445,1.0168805122375488,-2.3296085039721888
1708436351.3257053,-2.1420254707336426,-1.3336072725108643,-2.5264676252948206,6.110953080445089,1.016897201538086,-2.32959229150881
1708436351.3277025,-2.1420228481292725,-1.3335834306529541,-2.526479784642355,6.110933887749471,1.0168520212173462,-2.3295190970050257
1708436351.3297064,-2.1419711112976074,-1.3335866195014496,-2.526442829762594,6.110908019333639,1.0169017314910889,-2.329552714024679
1708436351.3316936,-2.1420514583587646,-1.3335953813842316,-2.5264676252948206,6.110936629563131,1.0168474912643433,-2.329520289097921
1708436351.3336995,-2.1420094966888428,-1.3335834306529541,-2.52645451227297,6.110929238587179,1.0168683528900146,-2.3295005003558558
1708436351.335688,-2.1420342922210693,-1.3335909408381958,-2.526487175618307,6.110924708634176,1.0169180631637573,-2.3294602076159876
1708436351.3377004,-2.1420514583587646,-1.3335997623256226,-2.5264676252948206,6.110920297890463,1.016897201538086,-2.32939583459963
1708436351.33973,-2.14200496673584,-1.3335997623256226,-2.5264926592456263,6.1109259007270715,1.0169106721878052,-2.3293562571154993
1708436351.3416998,-2.1420559883117676,-1.3336189550212403,-2.5264392534839075,6.110929238587179,1.0169135332107544,-2.3292833010302942
1708436351.3437133,-2.1419970989227295,-1.333595336680748,-2.526426140462057,6.110896217613973,1.0169017314910889,-2.3293004671679896
1708436351.345697,-2.1420164108276367,-1.3336205941489716,-2.5264273325549524,6.110891568451681,1.0168805122375488,-2.3292394320117396
1708436351.3477137,-2.1420514583587646,-1.3336189550212403,-2.526442591344015,6.110900628357687,1.0168683528900146,-2.32919150987734
1708436351.3497133,-2.1420300006866455,-1.3336072725108643,-2.5264230410205286,6.110941159516134,1.0168850421905518,-2.329167429600851
1708436351.3516908,-2.1420094966888428,-1.3335790199092408,-2.526482884083883,6.1109574911888025,1.0168927907943726,-2.329139057789938
1708436351.3537033,-2.1420254707336426,-1.333550439482071,-2.526458803807394,6.110891568451681,1.0168805122375488,-2.3290744463550013
1708436351.3557158,-2.1419970989227295,-1.3336276871016999,-2.526463333760397,6.110896217613973,1.0168310403823853,-2.3290262858020228
1708436351.357727,-2.142063856124878,-1.3335997623256226,-2.5264514128314417,6.1108752367790125,1.0168609619140625,-2.32898718515505
1708436351.3597004,-2.1419970989227295,-1.3336116832545777,-2.526414457951681,6.110912549286642,1.0168895721435547,-2.3289793173419397
1708436351.3617187,-2.142042398452759,-1.3336311143687745,-2.5264557043658655,6.110888707428732,1.0168565511703491,-2.3288453261004847
1708436351.3637404,-2.1419928073883057,-1.3336073023131867,-2.5264185110675257,6.1108752367790125,1.0168728828430176,-2.328834120427267
1708436351.3657255,-2.1419668197631836,-1.3335657876781006,-2.5264304319964808,6.110921489983358,1.016893982887268,-2.3287578264819544
1708436351.367731,-2.1420094966888428,-1.333574579363205,-2.5264273325549524,6.110888707428732,1.0168609619140625,-2.3287630716906946
1708436351.3699148,-2.141984701156616,-1.3336365979960938,-2.5264514128314417,6.110884177475729,1.0168699026107788,-2.328686777745382
1708436351.3717554,-2.1420140266418457,-1.3335130375674744,-2.5264349619494837,6.110900628357687,1.0168728828430176,-2.3286224047290247
1708436351.373772,-2.1420185565948486,-1.3335866195014496,-2.5264349619494837,6.1108977673347376,1.0168728828430176,-2.328574244176046
1708436351.375733,-2.1420388221740723,-1.333602936272957,-2.5264557043658655,6.110896098404684,1.016877293586731,-2.3284693400012415
1708436351.3777194,-2.1420342922210693,-1.3335834306529541,-2.526414219533102,6.11090515831069,1.0168401002883911,-2.3284135500537317
1708436351.3797164,-2.1420342922210693,-1.3335940104774018,-2.5264645258532923,6.110855924874105,1.0168581008911133,-2.3283448855029505
1708436351.3817153,-2.1420061588287354,-1.3336072576097031,-2.5264514128314417,6.110926019936361,1.0168371200561523,-2.3282933870898646
1708436351.3837097,-2.1419711112976074,-1.3335746091655274,-2.5264599959002894,6.110872614174642,1.0167992115020752,-2.3281808535205286
1708436351.3857174,-2.1420185565948486,-1.333562360411026,-2.526397768651144,6.110888707428732,1.0168204307556152,-2.328096930180685
1708436351.3877017,-2.1420514583587646,-1.3335504245809098,-2.52643067041506,6.110897648125448,1.016834020614624,-2.32805306116213
1708436351.389723,-2.1420388221740723,-1.3336072725108643,-2.526475254689352,6.110886084824362,1.0168490409851074,-2.3279197851764124
1708436351.3916898,-2.1420559883117676,-1.3336086732200165,-2.526426140462057,6.110857474594869,1.016812801361084,-2.3278237024890345
1708436351.393722,-2.1420016288757324,-1.3335953515819092,-2.5264764467822474,6.110832083016195,1.0168461799621582,-2.3277276198016565
1708436351.3957121,-2.1420300006866455,-1.3335790646127244,-2.5264557043658655,6.1109094498451135,1.016808271408081,-2.3275955359088343
1708436351.3977165,-2.1420094966888428,-1.3336116832545777,-2.526426140462057,6.110832083016195,1.016812801361084,-2.327524248753683
1708436351.3997586,-2.1419804096221924,-1.3335549396327515,-2.526414219533102,6.1108648655708215,1.0167796611785889,-2.327399794255392
1708436351.4017305,-2.1419928073883057,-1.3335953515819092,-2.5264435450183313,6.110827433853903,1.016746997833252,-2.327287499104635
1708436351.4037077,-2.1419529914855957,-1.3335746240666886,-2.5264557043658655,6.110836612969198,1.0168054103851318,-2.3271430174456995
1708436351.4057033,-2.141984701156616,-1.3336072725108643,-2.5264230410205286,6.110904085427084,1.0167796611785889,-2.3269293943988245
1708436351.4077096,-2.1420016288757324,-1.333550439482071,-2.5264392534839075,6.110833751946249,1.016793131828308,-2.3268545309649866
1708436351.4097123,-2.1420602798461914,-1.3336072725108643,-2.526414219533102,6.110795962601461,1.0167440176010132,-2.3266897837268274
1708436351.4117048,-2.1419758796691895,-1.3336276871016999,-2.526463333760397,6.110878217011251,1.016797661781311,-2.3264921347247522
1708436351.4137433,-2.1420016288757324,-1.3335712862065812,-2.526447836552755,6.110833632736959,1.0167648792266846,-2.3263402620898646
1708436351.4157112,-2.1420016288757324,-1.3335790199092408,-2.5264185110675257,6.110832083016195,1.0167620182037354,-2.3261688391314905
1708436351.417727,-2.1420345306396484,-1.3335667562535782,-2.526480738316671,6.110803472786703,1.0167269706726074,-2.326028887425558
1708436351.4197245,-2.141998052597046,-1.3335459989360352,-2.5264435450183313,6.1108529446418665,1.0167648792266846,-2.325852934514181
1708436351.421711,-2.1419689655303955,-1.3335549396327515,-2.5264349619494837,6.110836612969198,1.0167529582977295,-2.32561165491213
1708436351.4237359,-2.1420061588287354,-1.333562360411026,-2.5264316240893763,6.110870945244589,1.016785740852356,-2.3254063765155237
1708436351.4257402,-2.1419804096221924,-1.3335702878287812,-2.5264063517199915,6.110784160881796,1.0167604684829712,-2.325214211140768
1708436351.4276922,-2.1419644355773926,-1.333604247575142,-2.5264065901385706,6.110850083618917,1.016715168952942,-2.3250468412982386
1708436351.429698,-2.1420388221740723,-1.333625004892685,-2.5264392534839075,6.110795962601461,1.0167485475540161,-2.324894730244772
1708436351.4316926,-2.141993761062622,-1.3336072725108643,-2.5264065901385706,6.110803472786703,1.0167529582977295,-2.3246668020831507
1708436351.4337416,-2.1419689655303955,-1.333604247575142,-2.5263946692096155,6.110784160881796,1.0167604684829712,-2.3243730703936976
1708436351.435696,-2.1419529914855957,-1.3336029809764405,-2.5264065901385706,6.110755789070883,1.0167648792266846,-2.3241727987872522
1708436351.4377077,-2.1420016288757324,-1.333586649303772,-2.5264316240893763,6.110795962601461,1.0167529582977295,-2.323965374623434
1708436351.4397132,-2.1419804096221924,-1.3335967522910614,-2.526423756276266,6.110767709999838,1.0167405605316162,-2.3236759344684046
1708436351.4417026,-2.1419970989227295,-1.3336410087398072,-2.5264316240893763,6.110805022507467,1.0167031288146973,-2.323427979146139
1708436351.4437602,-2.1420061588287354,-1.3335997623256226,-2.526418749486105,6.110793101578512,1.0167754888534546,-2.323131863270895
1708436351.4457018,-2.1419732570648193,-1.3335800927928467,-2.5264065901385706,6.110813963204183,1.0167485475540161,-2.322800938283102
1708436351.4477015,-2.1419575214385986,-1.333625004892685,-2.5263901392566126,6.110755908280172,1.0167405605316162,-2.3225212732898157
1708436351.4497147,-2.1420061588287354,-1.3335834008506318,-2.5264185110675257,6.110813963204183,1.016757607460022,-2.3222697416888636
1708436351.451708,-2.141984701156616,-1.333562360411026,-2.526419464741842,6.110799300461569,1.0167405605316162,-2.3219202200519007
1708436351.453735,-2.141993761062622,-1.3336365979960938,-2.526423756276266,6.110797631531515,1.0166867971420288,-2.321578327809469
1708436351.4557354,-2.1420228481292725,-1.3335789752057572,-2.526419464741842,6.110776650696554,1.0167359113693237,-2.321270529423849
1708436351.4577086,-2.1420273780822754,-1.3335866195014496,-2.5264316240893763,6.110776650696554,1.0167449712753296,-2.3210116068469446
1708436351.4597003,-2.1419804096221924,-1.33357127130542,-2.5264151732074183,6.110781180649557,1.0167031288146973,-2.3206749598132532
1708436351.4616966,-2.1419689655303955,-1.3335667711547394,-2.5263705889331263,6.110731947212972,1.0167529582977295,-2.3203516642199915
1708436351.463712,-2.142014980316162,-1.33357127130542,-2.5264316240893763,6.110782730370321,1.0167286396026611,-2.319970432912008
1708436351.4657288,-2.1419529914855957,-1.333587886100151,-2.5264359156238,6.110769259720602,1.0167375802993774,-2.3195934931384485
1708436351.4677446,-2.1419689655303955,-1.33361308396373,-2.5263946692096155,6.110769259720602,1.0167286396026611,-2.3192454020129603
1708436351.4697115,-2.1419451236724854,-1.333559350376465,-2.5263739267932337,6.110694396286764,1.0167330503463745,-2.3188849131213587
1708436351.4717402,-2.141989231109619,-1.333599717622139,-2.5264273325549524,6.110707866936483,1.0167665481567383,-2.31848389307131
1708436351.4737275,-2.141993761062622,-1.3335790199092408,-2.5264108816729944,6.110724198609152,1.0167077779769897,-2.3180626074420374
1708436351.4756992,-2.1419732570648193,-1.3336042326739808,-2.5264063517199915,6.110707866936483,1.0166867971420288,-2.3176894823657435
1708436351.4777377,-2.1419689655303955,-1.333537296657898,-2.5264316240893763,6.110742199211874,1.0167405605316162,-2.3173375765429896
1708436351.4797,-2.1419663429260254,-1.3335967075875779,-2.526403252278463,6.1106780646140955,1.0167529582977295,-2.3169294039355677
1708436351.4817264,-2.1419708728790283,-1.3335252863219758,-2.5264316240893763,6.1107332585151575,1.0166958570480347,-2.3165579477893274
1708436351.4837787,-2.142019510269165,-1.3335834306529541,-2.5263944307910364,6.110716926842489,1.0167286396026611,-2.3161285559283655
1708436351.4857213,-2.1419708728790283,-1.333608703022339,-2.5263903776751917,6.1107332585151575,1.0167286396026611,-2.3157437483416956
1708436351.4877043,-2.141916513442993,-1.3335790199092408,-2.5264273325549524,6.110688555031576,1.0167286396026611,-2.3152175585376185
1708436351.4897115,-2.141932725906372,-1.3335789901069184,-2.5264230410205286,6.1107168076331995,1.0167375802993774,-2.3147690931903284
1708436351.491717,-2.1419663429260254,-1.333592341547348,-2.5263989607440394,6.11073778846816,1.0167664289474487,-2.3143606821643274
1708436351.4937143,-2.141982316970825,-1.3335756820491333,-2.5264273325549524,6.110768067627706,1.0167449712753296,-2.313904349003927
1708436351.495729,-2.1419777870178223,-1.3335879308036347,-2.526419464741842,6.110705005913534,1.0167286396026611,-2.313439909611837
1708436351.4977195,-2.141895294189453,-1.33357127130542,-2.5264020601855677,6.110688555031576,1.0167330503463745,-2.3129592577563685
1708436351.4997315,-2.141921043395996,-1.3335967522910614,-2.526436154042379,6.110721337586202,1.0167620182037354,-2.312502686177389
1708436351.5016913,-2.141937017440796,-1.333603025679924,-2.5264151732074183,6.110725867539205,1.0167195796966553,-2.312004629765646
1708436351.5037081,-2.141921043395996,-1.3336276871016999,-2.5264151732074183,6.1107122776801965,1.0167405605316162,-2.3114832083331507
1708436351.505702,-2.141932725906372,-1.3336321723512192,-2.5263825098620813,6.1106688854988,1.0167032480239868,-2.3109710852252405
1708436351.5077279,-2.141984462738037,-1.3334922951510926,-2.5264316240893763,6.110689747124471,1.0167739391326904,-2.3104501406299036
1708436351.509714,-2.1419007778167725,-1.33357127130542,-2.526407543812887,6.110656964569845,1.0167495012283325,-2.3099899927722376
1708436351.5117116,-2.141963005065918,-1.3336189848235627,-2.526444737111227,6.110706555634298,1.0167211294174194,-2.3094330469714563
1708436351.5137157,-2.1419131755828857,-1.3335385781577607,-2.5263946692096155,6.110692965775289,1.016769289970398,-2.3089078108416956
1708436351.5157022,-2.141930103302002,-1.3335296523622056,-2.526468817387716,6.110665905266561,1.0167620182037354,-2.3083344141589563
1708436351.51774,-2.1419506072998047,-1.333604247575142,-2.5264359156238,6.110659944802084,1.0167529582977295,-2.307854954396383
1708436351.5197344,-2.141930103302002,-1.33362332106147,-2.5264108816729944,6.110706555634298,1.0167242288589478,-2.307248655949728
1708436351.5216951,-2.141930103302002,-1.3335623455098649,-2.5264304319964808,6.110665905266561,1.016715168952942,-2.306749407445089
1708436351.5237305,-2.1419131755828857,-1.3335252863219758,-2.526447836552755,6.110628711968221,1.0167529582977295,-2.306159559880392
1708436351.525701,-2.141925573348999,-1.333580107694008,-2.526419464741842,6.110670435219564,1.0167485475540161,-2.305566374455587
1708436351.5277214,-2.1419434547424316,-1.333596722488739,-2.5264108816729944,6.1106241820152185,1.0167405605316162,-2.3049939314471644
1708436351.5297043,-2.1419053077697754,-1.333601252441742,-2.5263620058642786,6.110686886101522,1.016769289970398,-2.3044126669513147
1708436351.531724,-2.1419053077697754,-1.3335879457047959,-2.526447836552755,6.110603320389547,1.0167529582977295,-2.303819243107931
1708436351.5337205,-2.141873359680176,-1.3335834306529541,-2.526468817387716,6.110654461174764,1.016785740852356,-2.3032763640033167
1708436351.5357041,-2.1418850421905518,-1.3335790199092408,-2.5264151732074183,6.110674965172567,1.0167604684829712,-2.3026142756091517
1708436351.5377295,-2.1418893337249756,-1.3336276572993775,-2.5264273325549524,6.110642182617941,1.0167359113693237,-2.301992718373434
1708436351.5397072,-2.141906976699829,-1.3335296374610444,-2.5264273325549524,6.110642182617941,1.016781210899353,-2.30135161081423
1708436351.5416965,-2.1418328285217285,-1.3335834008506318,-2.526403252278463,6.110654461174764,1.0167677402496338,-2.300807301198141
1708436351.5437267,-2.1418497562408447,-1.3336130690625687,-2.526419464741842,6.11062120178298,1.0167841911315918,-2.3002153078662317
1708436351.5457172,-2.141845226287842,-1.3336175841144104,-2.5264764467822474,6.110588538437643,1.0167723894119263,-2.299577299748556
1708436351.5477493,-2.1418211460113525,-1.3335712415030976,-2.5264108816729944,6.110618221550741,1.0168054103851318,-2.2989447752581995
1708436351.549714,-2.1418824195861816,-1.3335459989360352,-2.5264435450183313,6.110524284630575,1.0167514085769653,-2.2983484903918665
1708436351.5517144,-2.1418416500091553,-1.3335800629905243,-2.5264273325549524,6.110618221550741,1.016800880432129,-2.297727886830465
1708436351.553733,-2.1418497562408447,-1.3335459989360352,-2.5264599959002894,6.110610949784078,1.0168054103851318,-2.297082249318258
1708436351.5557015,-2.1418755054473877,-1.3336043071797867,-2.5264514128314417,6.110613810807028,1.016829490661621,-2.2965171972857874
1708436351.5577586,-2.1418983936309814,-1.3335175228169938,-2.5264108816729944,6.110594260483541,1.0168249607086182,-2.2957947889911097
1708436351.559728,-2.1418256759643555,-1.3335746091655274,-2.526393238698141,6.110598671227255,1.0168204307556152,-2.29521090189089
1708436351.5617301,-2.1418497562408447,-1.3336249601892014,-2.526447121297018,6.110585200577535,1.0168653726577759,-2.294537369404928
1708436351.5637193,-2.141813278198242,-1.3335923564485093,-2.5264514128314417,6.110561358719625,1.0168490409851074,-2.293863836918966
1708436351.565723,-2.141855001449585,-1.3335296672633667,-2.5264230410205286,6.110598671227255,1.0168983936309814,-2.2932117621051233
1708436351.5677664,-2.1418302059173584,-1.3335800927928467,-2.5264719168292444,6.110535609513082,1.0168490409851074,-2.2925570646869105
1708436351.5697417,-2.1418087482452393,-1.3335667860559006,-2.5264514128314417,6.110562550812521,1.0168683528900146,-2.2918837706195276
1708436351.5717702,-2.1418416500091553,-1.3335549247315903,-2.5264435450183313,6.110530125885763,1.0168850421905518,-2.291210714970724
1708436351.5737553,-2.141855001449585,-1.333579034810402,-2.5264557043658655,6.110583770066061,1.0169343948364258,-2.290534798298971
1708436351.5757349,-2.1418721675872803,-1.333592341547348,-2.526447121297018,6.11056267002181,1.0169135332107544,-2.289779249821798
1708436351.577721,-2.1418392658233643,-1.3335756969502945,-2.52643067041506,6.110546576767721,1.0168883800506592,-2.2891646067248743
1708436351.5797334,-2.141822338104248,-1.3335637611201783,-2.526447121297018,6.110549199372091,1.016921043395996,-2.2884700934039515
1708436351.5816965,-2.1418392658233643,-1.3335879308036347,-2.5264676252948206,6.1104925749595544,1.0169332027435303,-2.2877641359912317
1708436351.5837424,-2.1418187618255615,-1.3336086732200165,-2.5264676252948206,6.1106018898780725,1.0169659852981567,-2.287149731312887
1708436351.5857153,-2.1418099403381348,-1.3336320978454133,-2.526475254689352,6.110516655236044,1.016974925994873,-2.286431376134054
1708436351.5876937,-2.141831159591675,-1.3335637611201783,-2.526458803807394,6.110546576767721,1.0169692039489746,-2.2857497374164026
1708436351.5897074,-2.141765832901001,-1.333580107694008,-2.5264676252948206,6.110530125885763,1.0169858932495117,-2.2850528399096888
1708436351.5917137,-2.1417737007141113,-1.3335144382766266,-2.5265124479876917,6.110550987511434,1.0169769525527954,-2.284445349370138
1708436351.5937107,-2.1417782306671143,-1.3335474890521546,-2.5264340082751673,6.110539185791769,1.0169435739517212,-2.2837117354022425
1708436351.5957024,-2.141782522201538,-1.3335385930589219,-2.526479784642355,6.110539185791769,1.0169769525527954,-2.2830727736102503
1708436351.5977366,-2.1417746543884277,-1.3335879308036347,-2.5264514128314417,6.110473143845358,1.0170336961746216,-2.282408062611715
1708436351.5996985,-2.141765832901001,-1.3335579496673127,-2.526466433201925,6.110497104912557,1.0170173645019531,-2.2816789785968226
1708436351.601725,-2.1417782306671143,-1.3335866195014496,-2.526536528264181,6.110456931381979,1.0170173645019531,-2.2810195128070276
1708436351.6037378,-2.1417577266693115,-1.3335746091655274,-2.526503626500265,6.11056004741744,1.0170414447784424,-2.2803781668292444
1708436351.605698,-2.1417791843414307,-1.3335953217795868,-2.526503626500265,6.110539185791769,1.0170791149139404,-2.2797182242022913
1708436351.6077142,-2.1418144702911377,-1.3335997772267838,-2.526511255894796,6.110548126488485,1.0170700550079346,-2.2789810339557093
1708436351.609697,-2.1417489051818848,-1.3335879159024735,-2.5264862219439905,6.110543596535482,1.0170611143112183,-2.278269116078512
1708436351.6117322,-2.1417791843414307,-1.3335997623256226,-2.5265024344073694,6.110522734909811,1.0171434879302979,-2.277567211781637
1708436351.6137266,-2.1417791843414307,-1.3335174483111878,-2.5265515486346644,6.110494124680319,1.0170685052871704,-2.276867214833395
1708436351.6157334,-2.1418118476867676,-1.3335702878287812,-2.5265145937549036,6.110489594727316,1.0171183347702026,-2.276141945515768
1708436351.6177084,-2.1417577266693115,-1.3335953515819092,-2.526489321385519,6.110476124077596,1.0171256065368652,-2.27553636232485
1708436351.619707,-2.141803026199341,-1.3335879308036347,-2.5265560785876673,6.110530125885763,1.0171538591384888,-2.2748382727252405
1708436351.6216996,-2.1417417526245117,-1.333562360411026,-2.5265796820269983,6.110522734909811,1.0171914100646973,-2.2740801016436976
1708436351.6237257,-2.1417622566223145,-1.3335579496673127,-2.5265799204455774,6.110489594727316,1.0171571969985962,-2.2734044233905237
1708436351.6257062,-2.1417882442474365,-1.3336130690625687,-2.5265634695636194,6.110480654030599,1.0171616077423096,-2.2727206389056605
1708436351.6277137,-2.1417667865753174,-1.3335953664830704,-2.5265710989581507,6.110522734909811,1.0171856880187988,-2.2720521132098597
1708436351.6297228,-2.1417713165283203,-1.3336116832545777,-2.5265591780291956,6.110456931381979,1.0171571969985962,-2.271351162587301
1708436351.631699,-2.1417508125305176,-1.3335757118514557,-2.526623551045553,6.110510456352987,1.017193078994751,-2.2706382910357874
1708436351.6337216,-2.141716957092285,-1.3336249601892014,-2.5265823046313685,6.110437142639913,1.0172187089920044,-2.2699697653399866
1708436351.6357174,-2.1417622566223145,-1.3336232614568253,-2.526668373738424,6.110510456352987,1.0172592401504517,-2.2693379561053675
1708436351.6377256,-2.1417508125305176,-1.333550364976265,-2.526635471974508,6.110498535424032,1.0172290802001953,-2.2686765829669397
1708436351.6397066,-2.1417791843414307,-1.3335879308036347,-2.5266552607165735,6.110473263054647,1.0172380208969116,-2.2679970900165003
1708436351.6417077,-2.1417462825775146,-1.3335790050080796,-2.5266552607165735,6.110456931381979,1.017241358757019,-2.2673032919513147
1708436351.6437204,-2.1417508125305176,-1.3335667711547394,-2.5266714731799524,6.110485064774313,1.0173074007034302,-2.26664382616152
1708436351.6457117,-2.1417338848114014,-1.333607242708542,-2.5266342798816126,6.110519397049703,1.0172698497772217,-2.266027275715963
1708436351.6477065,-2.1417293548583984,-1.3335879308036347,-2.5266509691821497,6.110464203148641,1.017317771911621,-2.2654030958758753
1708436351.6496997,-2.141780376434326,-1.3335953515819092,-2.5266955534564417,6.110519397049703,1.0172805786132812,-2.2647951284991663
1708436351.651729,-2.1417641639709473,-1.333574579363205,-2.5266454855548304,6.110473263054647,1.0173267126083374,-2.264120880757467
1708436351.6537104,-2.141721487045288,-1.3335879159024735,-2.5266671816455286,6.110480654030599,1.0173133611679077,-2.2635539213763636
1708436351.6557019,-2.1416852474212646,-1.3336116832545777,-2.526686970387594,6.110494124680319,1.017370343208313,-2.2629130522357386
1708436351.6577055,-2.141721487045288,-1.3335637611201783,-2.526698891316549,6.110473263054647,1.0173912048339844,-2.262256924306051
1708436351.6597245,-2.141714572906494,-1.3336443167975922,-2.5266781489001673,6.110501515656271,1.0173287391662598,-2.2615955511676233
1708436351.6617057,-2.1416852474212646,-1.333541677599289,-2.5267446676837366,6.110456931381979,1.017403483390808,-2.260972325001852
1708436351.6637049,-2.141719102859497,-1.3336160641959687,-2.526743475590841,6.110449063568868,1.0174275636672974,-2.260331455861227
1708436351.6657145,-2.141751766204834,-1.3336160641959687,-2.5266857782946985,6.110444652825155,1.0173900127410889,-2.2596257368670862
1708436351.6677303,-2.1417076587677,-1.3335667860559006,-2.5267306009875696,6.110456931381979,1.0174590349197388,-2.2589972654925745
1708436351.6697314,-2.1416728496551514,-1.3335623455098649,-2.5267260710345667,6.110461342125692,1.0174500942230225,-2.2583563963519495
1708436351.6717644,-2.1416985988616943,-1.333550439482071,-2.5267794767962855,6.110477673798361,1.0174545049667358,-2.257706944142477
1708436351.6737537,-2.141714572906494,-1.3336276871016999,-2.5267513434039515,6.110447871475973,1.0174741744995117,-2.257129494343893
1708436351.675746,-2.1417031288146973,-1.3335834008506318,-2.5267425219165247,6.110543596535482,1.0174787044525146,-2.2564805189715784
1708436351.6777234,-2.141726016998291,-1.3335953515819092,-2.5267675558673304,6.110531675606527,1.0174908638000488,-2.2558797041522425
1708436351.6797395,-2.1417236328125,-1.333616093998291,-2.526811424885885,6.110512125283041,1.017493724822998,-2.255256477986471
1708436351.681704,-2.141686201095581,-1.3335745942643662,-2.526831928883688,6.110543596535482,1.0175073146820068,-2.25464374223818
1708436351.68371,-2.1417348384857178,-1.333602951174118,-2.5268364588366907,6.110426652222433,1.017510175704956,-2.2540257612811487
1708436351.685704,-2.1416940689086914,-1.3335953217795868,-2.5268190542804163,6.110503065377035,1.017510175704956,-2.2534292379962366
1708436351.6877487,-2.141686201095581,-1.333662064080574,-2.5268364588366907,6.1104256985481165,1.0175386667251587,-2.252821747456686
1708436351.6897194,-2.141686201095581,-1.3336160641959687,-2.526839558278219,6.110506045609274,1.0175795555114746,-2.252237621937887
1708436351.691729,-2.1417076587677,-1.333557979469635,-2.5268071333514612,6.1105525372321985,1.0175750255584717,-2.251587692891256
1708436351.6937003,-2.141719102859497,-1.3336042326739808,-2.526884142552511,6.110465872078695,1.0175704956054688,-2.250974480305807
1708436351.6957252,-2.141686201095581,-1.3336189550212403,-2.526839558278219,6.110496985703268,1.017594337463379,-2.250383202229635
1708436351.6977122,-2.141669511795044,-1.3336399060538788,-2.526879851018087,6.110557067185201,1.0176228284835815,-2.2498038450824183
1708436351.6997023,-2.141695261001587,-1.3336116683534165,-2.5268264452563685,6.110468733101644,1.0176020860671997,-2.2492149511920374
1708436351.7016952,-2.141686201095581,-1.3335909259370347,-2.5268266836749476,6.110473263054647,1.0176351070404053,-2.248589340840475
1708436351.7036958,-2.141669511795044,-1.3336100441268464,-2.526862446461813,6.11053620555953,1.0176305770874023,-2.248030964528219
1708436351.7057283,-2.141714572906494,-1.3336042028716584,-2.5269036928759974,6.11051498630599,1.01767098903656,-2.247441116963522
1708436351.707729,-2.1416444778442383,-1.3336072725108643,-2.5268710295306605,6.11052559593276,1.017663598060608,-2.24687368074526
1708436351.7097278,-2.1416738033294678,-1.3335746389678498,-2.526923481618063,6.110506045609274,1.017687439918518,-2.246293846760885
1708436351.711696,-2.14172101020813,-1.3335623455098649,-2.5269160906421106,6.110510575562277,1.0176665782928467,-2.245774571095602
1708436351.713709,-2.141669511795044,-1.3336365532926102,-2.526907269154684,6.110527264862814,1.0176904201507568,-2.2451441923724573
1708436351.715707,-2.141653299331665,-1.3336232614568253,-2.526947323475973,6.110546576767721,1.017711877822876,-2.2446001211749476
1708436351.7177355,-2.141664981842041,-1.3336189550212403,-2.52690297762026,6.110534655838766,1.0177310705184937,-2.244007412587301
1708436351.7197092,-2.141664981842041,-1.3336189550212403,-2.5269222895251673,6.110543715744772,1.017722249031067,-2.243455235158102
1708436351.7217371,-2.14169979095459,-1.3336725395968934,-2.526939932500021,6.110530125885763,1.0177266597747803,-2.242890183125631
1708436351.7237153,-2.1417393684387207,-1.3336562377265473,-2.526968304310934,6.110551106720724,1.0177748203277588,-2.242420021687643
1708436351.7257142,-2.141669511795044,-1.3335702133229752,-2.526971403752462,6.110539185791769,1.0177960395812988,-2.2418344656573694
1708436351.7277064,-2.1416985988616943,-1.3335777533105393,-2.527024809514181,6.110595690995016,1.0178169012069702,-2.2412689367877405
1708436351.7297223,-2.1417031288146973,-1.3335746389678498,-2.5269582907306116,6.110612141876974,1.0177825689315796,-2.2407572905169886
1708436351.7317183,-2.141657829284668,-1.333651916389801,-2.5269671122180384,6.110586869507589,1.0177327394485474,-2.240213219319479
1708436351.7337105,-2.1417031288146973,-1.3336072129062195,-2.5270074049579065,6.11056267002181,1.0178316831588745,-2.239631477986471
1708436351.735693,-2.141723394393921,-1.3335866195014496,-2.526957337056295,6.110585200577535,1.0178394317626953,-2.2390831152545374
1708436351.7377064,-2.141721248626709,-1.3336355996182938,-2.526990000401632,6.110586869507589,1.0178468227386475,-2.238645378743307
1708436351.7397163,-2.1417031288146973,-1.3336320680430909,-2.5270355383502405,6.110592949181356,1.0178468227386475,-2.2381561438189905
1708436351.7417037,-2.141695261001587,-1.333651916389801,-2.526994291936056,6.11063181140975,1.0179173946380615,-2.237610642110006
1708436351.7437267,-2.1416409015655518,-1.3336355996182938,-2.527055565510885,6.110648381500997,1.017884373664856,-2.2371586004840296
1708436351.7457137,-2.1417369842529297,-1.3336189550212403,-2.527060095463888,6.110604870110311,1.0178875923156738,-2.236642662678854
1708436351.7477162,-2.141669511795044,-1.333614469771721,-2.5270350615130823,6.110588538437643,1.0179024934768677,-2.236117664967672
1708436351.749711,-2.1416819095611572,-1.3336189550212403,-2.5270350615130823,6.110663401871481,1.0179446935653687,-2.2356908957110804
1708436351.7517114,-2.141716718673706,-1.3336232614568253,-2.5270469824420374,6.110609280854025,1.0179312229156494,-2.235185448323385
1708436351.7537017,-2.141666889190674,-1.3335940402797242,-2.5270381609546106,6.1106454012687585,1.0179522037506104,-2.2347386519061487
1708436351.7557166,-2.141727924346924,-1.3336562377265473,-2.5270500818835657,6.11061059215621,1.0179522037506104,-2.234262768422262
1708436351.7577114,-2.1416985988616943,-1.3336562675288697,-2.5270958582507532,6.110694277077474,1.0179803371429443,-2.233701531087057
1708436351.759731,-2.141695261001587,-1.333675668840744,-2.5270751158343714,6.110647904663839,1.0179791450500488,-2.233280960713522
1708436351.7617018,-2.1416985988616943,-1.3336100739291687,-2.527083937321798,6.110673415451803,1.0179624557495117,-2.23283034959902
1708436351.7637057,-2.141686201095581,-1.3336399060538788,-2.527088228856222,6.110671746521749,1.0180000066757202,-2.2323573271380823
1708436351.765714,-2.1416738033294678,-1.3336682480624695,-2.527083698903219,6.110707747727194,1.0180363655090332,-2.231908623372213
1708436351.7677326,-2.141727924346924,-1.3336845648339768,-2.5270827452289026,6.110676276474752,1.0179897546768188,-2.2314446608172815
1708436351.7697265,-2.141686201095581,-1.3336100590280076,-2.527112070714132,6.110707747727194,1.0179941654205322,-2.231020752583639
1708436351.7717133,-2.141664981842041,-1.333626703625061,-2.5270870367633265,6.110688555031576,1.0180109739303589,-2.230567757283346
1708436351.77375,-2.141690731048584,-1.3336311143687745,-2.5271154085742396,6.1107287285621545,1.018006443977356,-2.2300947348224085
1708436351.7757125,-2.141727924346924,-1.3336549562266846,-2.527078453694479,6.11076174953536,1.0180480480194092,-2.229642693196432
1708436351.7777157,-2.141711950302124,-1.3336386245540162,-2.5270989576922815,6.110778200417318,1.0180302858352661,-2.22923452058901
1708436351.779708,-2.141662359237671,-1.3336579662612458,-2.5271154085742396,6.110794651299276,1.0180375576019287,-2.2287538687335413
1708436351.7817538,-2.141686201095581,-1.3336133819869538,-2.5270827452289026,6.110778200417318,1.0180466175079346,-2.228309456502096
1708436351.7837324,-2.14169979095459,-1.3336549562266846,-2.527123037968771,6.110781180649557,1.0181082487106323,-2.2278526465045374
1708436351.785722,-2.141723394393921,-1.3336179119399567,-2.52714711824526,6.110816943436422,1.0180754661560059,-2.2274611631976526
1708436351.787721,-2.141669511795044,-1.3336593520692368,-2.5271971861468714,6.110727536469259,1.018087387084961,-2.2270033995257776
1708436351.78971,-2.1416499614715576,-1.3336178821376343,-2.527106825505392,6.110851633339681,1.018120527267456,-2.2265918890582483
1708436351.7917595,-2.1417031288146973,-1.3336835515550156,-2.5271437803851526,6.110833632736959,1.018087387084961,-2.226205650960104
1708436351.7937646,-2.1417076587677,-1.3336342436126252,-2.5271273295031946,6.110833632736959,1.0181233882904053,-2.22573167482485
1708436351.7957025,-2.141695261001587,-1.3336549562266846,-2.5271220842944544,6.110803353577413,1.0181070566177368,-2.225294891987936
1708436351.7977338,-2.1416783332824707,-1.3336967688849946,-2.5271721521960657,6.11089967468337,1.0181353092193604,-2.2249348799334925
1708436351.7997184,-2.141664981842041,-1.3336668771556397,-2.527135197316305,6.110782491951742,1.0181233882904053,-2.224462334309713
1708436351.8017087,-2.141669511795044,-1.3336998683265229,-2.527151409779684,6.1108648655708215,1.018189549446106,-2.2240493933307093
1708436351.803733,-2.1417438983917236,-1.3336416345885773,-2.527130905781881,6.110873806267538,1.0181307792663574,-2.2236488501178187
1708436351.8057017,-2.141653299331665,-1.3336835217526932,-2.527151409779684,6.110827433853903,1.0181217193603516,-2.2232731024371546
1708436351.8077242,-2.141664981842041,-1.3336402934840699,-2.5271666685687464,6.110851394921102,1.018196940422058,-2.2227748076068323
1708436351.809708,-2.1417031288146973,-1.3337043088725586,-2.527151409779684,6.11090515831069,1.0181804895401,-2.2224376837359827
1708436351.8117018,-2.141686201095581,-1.3336998385242005,-2.5271220842944544,6.110877024918356,1.0181878805160522,-2.222053352986471
1708436351.81373,-2.1417076587677,-1.3336549562266846,-2.527163569127218,6.1109094498451135,1.0182045698165894,-2.221640412007467
1708436351.8157065,-2.141657829284668,-1.3336953532746811,-2.527163330708639,6.110887038498678,1.0181759595870972,-2.221252743397848
1708436351.8177233,-2.141732692718506,-1.3337324869683762,-2.527142588292257,6.110875117569723,1.0181671380996704,-2.2208383719073694
1708436351.819715,-2.1417415142059326,-1.3336668771556397,-2.5271883646594446,6.110932218819418,1.018158197402954,-2.2204797903644007
1708436351.821711,-2.141690731048584,-1.3336790365031739,-2.5271547476397913,6.110938298493185,1.018174409866333,-2.220095459614889
1708436351.8237247,-2.1416738033294678,-1.3336865466884156,-2.5271504561053675,6.110948550492086,1.0182209014892578,-2.219677750264303
1708436351.8257074,-2.141669511795044,-1.3337280315211792,-2.5271666685687464,6.110903489380636,1.018195629119873,-2.219269577656881
1708436351.8277216,-2.1416985988616943,-1.3336821359447022,-2.527224604283468,6.110969769745626,1.0182119607925415,-2.218893829976217
1708436351.8297374,-2.141690731048584,-1.3337236207774659,-2.527191702519552,6.110974299698629,1.0182030200958252,-2.2184680143939417
1708436351.831704,-2.1416454315185547,-1.3337430369905015,-2.5271263758288782,6.110943901329794,1.0181745290756226,-2.218137566243307
1708436351.8337047,-2.141690731048584,-1.3336984676173707,-2.52717096010317,6.110911237984457,1.0182242393493652,-2.2177684942828577
1708436351.8357012,-2.1416873931884766,-1.3336984825185318,-2.52717096010317,6.110908019333639,1.018195629119873,-2.217383686696188
1708436351.837722,-2.141719102859497,-1.333702878361084,-2.5271621386157435,6.110948550492086,1.0182075500488281,-2.2170403639422815
1708436351.8396983,-2.141716718673706,-1.3336821657470246,-2.5272203127490442,6.110969769745626,1.0182075500488281,-2.216679398213522
1708436351.8416986,-2.141695261001587,-1.3336777550033112,-2.527191702519552,6.110978829651632,1.0181821584701538,-2.216282669697897
1708436351.8437388,-2.141657829284668,-1.3337072891047974,-2.5272041002856653,6.11091576793746,1.0182780027389526,-2.2159393469439905
1708436351.8457336,-2.1416409015655518,-1.3337072742036362,-2.5271831194507044,6.110941159516134,1.0181984901428223,-2.21559983888735
1708436351.8477304,-2.141711950302124,-1.333714799290039,-2.5272041002856653,6.110965239792623,1.0182197093963623,-2.2151816526996058
1708436351.8497012,-2.14169979095459,-1.3337311309627076,-2.527191702519552,6.110948550492086,1.0182360410690308,-2.2148378531085413
1708436351.8516924,-2.1417031288146973,-1.333710403447487,-2.5272203127490442,6.11097418048934,1.0182316303253174,-2.2145021597491663
1708436351.8537571,-2.141653299331665,-1.3337549579194565,-2.527159039174215,6.110963809281149,1.0182437896728516,-2.2142027060138147
1708436351.8557086,-2.141723394393921,-1.3336896759322663,-2.5271995703326624,6.11100064495162,1.0182572603225708,-2.213813606892721
1708436351.8577056,-2.141711950302124,-1.3337179285338898,-2.5271502176867884,6.110951769142904,1.0182197093963623,-2.2135027090655726
1708436351.859747,-2.1416499614715576,-1.333702878361084,-2.527191940938131,6.1109681008155725,1.0182527303695679,-2.2131951490985315
1708436351.8616965,-2.141660451889038,-1.333735541706421,-2.527170006428854,6.110923158913412,1.0181986093521118,-2.212796990071432
1708436351.8637342,-2.141686201095581,-1.3337297600558777,-2.527186457310812,6.110934960633077,1.0182483196258545,-2.212500874196188
1708436351.8656924,-2.141690731048584,-1.3337518733790894,-2.527182404194967,6.1109187481696985,1.018264651298523,-2.2121484915362757
1708436351.867737,-2.1417076587677,-1.333702878361084,-2.5272484461413782,6.110935079842367,1.018210768699646,-2.2118123213397425
1708436351.8697233,-2.1416738033294678,-1.3337606948665162,-2.527170006428854,6.111009704857626,1.01826012134552,-2.2114675680743616
1708436351.871764,-2.141666889190674,-1.3337179285338898,-2.5272157827960413,6.1109681008155725,1.01826012134552,-2.211216751729147
1708436351.873715,-2.141711950302124,-1.333710403447487,-2.527186695729391,6.110948550492086,1.0182360410690308,-2.210846726094381
1708436351.8756912,-2.1416590213775635,-1.3337716323188324,-2.5271831194507044,6.110951769142904,1.0182393789291382,-2.210538689290182
1708436351.8777695,-2.1416285037994385,-1.3337060076049347,-2.5272157827960413,6.110932099610128,1.0182437896728516,-2.2102306524859827
1708436351.8797014,-2.1416454315185547,-1.3337460619262238,-2.5271952787982386,6.110908019333639,1.0182348489761353,-2.209897820149557
1708436351.8816998,-2.1416146755218506,-1.3337637943080445,-2.5272234121905726,6.110929238587179,1.0182483196258545,-2.2095897833453577
1708436351.8837204,-2.1416306495666504,-1.3337716323188324,-2.5272560755359095,6.110861646920004,1.0182437896728516,-2.2093189398394983
1708436351.885695,-2.1416375637054443,-1.3337848049453278,-2.5272353331195276,6.110924708634176,1.0182557106018066,-2.2089980284320276
1708436351.8877347,-2.1416146755218506,-1.333759383564331,-2.527276579533712,6.110908019333639,1.0182839632034302,-2.2086852232562464
1708436351.8897047,-2.1416068077087402,-1.333799884920456,-2.5272353331195276,6.110872614174642,1.0182512998580933,-2.2083805243121546
1708436351.8916934,-2.141524314880371,-1.333763764505722,-2.5272722879992884,6.11090515831069,1.018301010131836,-2.2080686728106897
1708436351.8937383,-2.14158296585083,-1.3337505620769043,-2.5272472540484827,6.110877024918356,1.0183173418045044,-2.2077234427081507
1708436351.8957026,-2.1415627002716064,-1.333747462635376,-2.527250353490011,6.110795962601461,1.0182965993881226,-2.207484547291891
1708436351.8977396,-2.141526460647583,-1.3337253493121644,-2.527259174977438,6.110807883530416,1.0183277130126953,-2.207179848347799
1708436351.8997016,-2.1414706707000732,-1.333692656164505,-2.527250353490011,6.1107603190238855,1.0183277130126953,-2.2069290320025843
1708436351.9017293,-2.141385793685913,-1.3337879341891785,-2.527254883443014,6.110755789070883,1.0183533430099487,-2.206641499196188
1708436351.9037242,-2.141432046890259,-1.3337297600558777,-2.527320448552267,6.110736477165975,1.0183202028274536,-2.206400219594137
1708436351.9057145,-2.1413822174072266,-1.3337178987315674,-2.5272584597217005,6.110713827400961,1.0183277130126953,-2.206106964741842
1708436351.9077168,-2.1413674354553223,-1.3337460619262238,-2.5272868315326136,6.110697495728292,1.0183277130126953,-2.2058518568622034
1708436351.909708,-2.1413514614105225,-1.333799884920456,-2.5273073355304163,6.11070333698348,1.0183277130126953,-2.205575768147604
1708436351.9117188,-2.1413064002990723,-1.3337790381959458,-2.5273149649249476,6.110636341362753,1.0183607339859009,-2.205315891896383
1708436351.9137344,-2.1412789821624756,-1.333725319509842,-2.5273106733905237,6.110586988716879,1.0183517932891846,-2.2050135771380823
1708436351.9157171,-2.1412110328674316,-1.3337015968612214,-2.5273192564593714,6.110630261688986,1.0183970928192139,-2.2047179380999964
1708436351.9177127,-2.1412291526794434,-1.333746076827385,-2.527334753667013,6.110556828766622,1.0184208154678345,-2.2044294516192835
1708436351.9196937,-2.1411473751068115,-1.3337549728206177,-2.527330462132589,6.1104880450065515,1.018376111984253,-2.204198662434713
1708436351.9217477,-2.1411020755767822,-1.333787963991501,-2.5274086634265345,6.110473263054647,1.0184375047683716,-2.203893009816305
1708436351.9237583,-2.1410388946533203,-1.3337637943080445,-2.527330462132589,6.1104479906852625,1.018457055091858,-2.2036855856524866
1708436351.925699,-2.1410226821899414,-1.3337386411479493,-2.5274034182177942,6.110391127854147,1.0184600353240967,-2.203404728566305
1708436351.9277284,-2.1409661769866943,-1.3337835532477875,-2.5274363199817103,6.110275852471151,1.0184437036514282,-2.2032344977008265
1708436351.9296985,-2.140968084335327,-1.3337627214244385,-2.5274232069598597,6.1101335165794275,1.0185338258743286,-2.2029364744769495
1708436351.931712,-2.1409170627593994,-1.3337505620769043,-2.52744704881777,6.110205399781027,1.0185234546661377,-2.202668015156881
1708436351.9337013,-2.140878438949585,-1.3337790381959458,-2.5274913946734827,6.110068070679464,1.0185952186584473,-2.2024486700641077
1708436351.935716,-2.140730142593384,-1.3337702465108414,-2.527466599141256,6.109972226410665,1.018596887588501,-2.2022083441363733
1708436351.9377387,-2.140716314315796,-1.3337746423533936,-2.5274952093707483,6.109914171486654,1.0186001062393188,-2.20195180574526
1708436351.9397013,-2.140643835067749,-1.3337460619262238,-2.5275428930865687,6.109801995545187,1.018623948097229,-2.201752010975973
1708436351.941727,-2.1406095027923584,-1.3337627214244385,-2.5275548140155237,6.1097227213676355,1.0186721086502075,-2.201470200215475
1708436351.9437158,-2.1405282020568848,-1.333779053097107,-2.527562681828634,6.10961805561141,1.0186973810195923,-2.20128041902651
1708436351.9457123,-2.140505313873291,-1.333770216708519,-2.527599636708395,6.1095971939857385,1.018705129623413,-2.201047722493307
1708436351.9477358,-2.140432834625244,-1.3338028949550171,-2.527618471776144,6.109426724701681,1.0187411308288574,-2.2008236090289515
1708436351.94971,-2.1403443813323975,-1.3337953847697754,-2.5276511351214808,6.109351980477133,1.0187937021255493,-2.2006076017962855
1708436351.9517279,-2.1402852535247803,-1.3337865632823487,-2.527707640324728,6.109260785370626,1.0188010931015015,-2.20035964647402
1708436351.9536996,-2.1401968002319336,-1.3338358861259003,-2.527731959019796,6.1090783951576135,1.0188044309616089,-2.2001431624041956
1708436351.9557307,-2.14009952545166,-1.3338151437095185,-2.5277350584613245,6.1089751599128626,1.018853783607483,-2.1998851935016077
1708436351.9577107,-2.1400113105773926,-1.3338138324073334,-2.5278244654284876,6.1088976738746545,1.018865704536438,-2.1996987501727503
1708436351.959696,-2.139958620071411,-1.3338429790786286,-2.5278363863574427,6.108724224358358,1.0188730955123901,-2.1994007269488733
1708436351.9617221,-2.1398701667785645,-1.3338385683349152,-2.5278309027301233,6.108662950783529,1.018902063369751,-2.1992009321795862
1708436351.9636946,-2.1397907733917236,-1.3338583272746583,-2.5279040972339075,6.108567344933309,1.0189290046691895,-2.199009720479147
1708436351.9657114,-2.1396775245666504,-1.3338672381690522,-2.5279279390918177,6.108435618668356,1.0190070867538452,-2.1988471190081995
1708436351.9677267,-2.1395857334136963,-1.3338759702495118,-2.527923647557394,6.108257758408346,1.0190131664276123,-2.1985653082477015
1708436351.9697115,-2.139508008956909,-1.3338985008052369,-2.527947250996725,6.108085977822103,1.0190372467041016,-2.1983569304095667
1708436351.9717212,-2.139355182647705,-1.3338821691325684,-2.527949873601095,6.107976901322164,1.019097089767456,-2.1981404463397425
1708436351.9737015,-2.139188766479492,-1.3339151603034516,-2.5280228296863,6.107854592591085,1.0191333293914795,-2.1979191938983362
1708436351.975696,-2.1391327381134033,-1.3339107495597382,-2.5280633608447474,6.107607233315267,1.0192116498947144,-2.1978052298175257
1708436351.977709,-2.138962984085083,-1.3338821691325684,-2.5280707518206995,6.107517707138815,1.019181489944458,-2.1975882689105433
1708436351.9797125,-2.1388607025146484,-1.3339417737773438,-2.528135124837057,6.107284533768453,1.019295573234558,-2.197404686604635
1708436351.9817057,-2.138749361038208,-1.3339257699302216,-2.528167788182394,6.107166754990377,1.0193558931350708,-2.1971877256976526
1708436351.9837208,-2.1385433673858643,-1.333953933124878,-2.5282071272479456,6.107012617378988,1.019416093826294,-2.1970365683185022
1708436351.9857073,-2.1383912563323975,-1.3339094382575531,-2.528222386037008,6.106803524285116,1.0194265842437744,-2.196836296712057
1708436351.9876952,-2.1382367610931396,-1.3339627546123047,-2.528332535420553,6.106524812966146,1.0195316076278687,-2.196618382130758
1708436351.9897041,-2.138061046600342,-1.3339702647975464,-2.5283270517932337,6.1063787815864465,1.0195990800857544,-2.1964309851275843
1708436351.9917295,-2.1379427909851074,-1.3340181869319458,-2.5283880869494837,6.106224763184347,1.019659399986267,-2.196267906819479
1708436351.9937115,-2.137787342071533,-1.3339688640883942,-2.5283780733691614,6.1059467671211145,1.019797444343567,-2.1960957686053675
1708436351.995718,-2.137556314468384,-1.3340671819499512,-2.528479878102438,6.105764376908102,1.0198155641555786,-2.1959098021136683
1708436351.9977238,-2.1373701095581055,-1.3340256971171875,-2.5284908453570765,6.105616080551901,1.0199131965637207,-2.1956809202777308
1708436351.999721,-2.1371660232543945,-1.3341106337359925,-2.528595272694723,6.105347621231832,1.0200018882751465,-2.195583168660299
1708436352.001696,-2.1369497776031494,-1.3340987128070374,-2.5286641756640833,6.105073916703024,1.0200603008270264,-2.195411030446188
1708436352.00371,-2.1367735862731934,-1.3340602082065125,-2.528736178074972,6.10481213310317,1.0201162099838257,-2.1952603499041956
1708436352.0057168,-2.1365623474121094,-1.33415541172538,-2.5287514368640345,6.104614722519674,1.02022123336792,-2.1951072851764124
1708436352.0077064,-2.1363611221313477,-1.3341379326632996,-2.5288525263415735,6.104345905571737,1.0202769041061401,-2.194960419331686
1708436352.009707,-2.1361589431762695,-1.3342225861600419,-2.5288878122912806,6.103988635330953,1.0203944444656372,-2.1947253386126917
1708436352.011702,-2.135930061340332,-1.3341613423875351,-2.5290120283709925,6.103749620705404,1.0204663276672363,-2.1946643034564417
1708436352.0137084,-2.1356606483459473,-1.334188700919487,-2.5290153662311,6.103475677758016,1.02053701877594,-2.1944783369647425
1708436352.0157065,-2.1354522705078125,-1.3342093539289017,-2.5291319529162806,6.1032293913658044,1.020634651184082,-2.1943257490741175
1708436352.0177226,-2.1351776123046875,-1.3342322570136567,-2.529192034398214,6.102937805443563,1.0207217931747437,-2.1942065397845667
1708436352.0197318,-2.1349425315856934,-1.3342898351005097,-2.529275957738058,6.102598297386923,1.0208630561828613,-2.1940091292010706
1708436352.0217264,-2.1347007751464844,-1.3343497675708313,-2.5293436686145228,6.102258670120992,1.0209835767745972,-2.1939109007464808
1708436352.023711,-2.13443660736084,-1.3343532097390671,-2.5294111410724085,6.101874696999349,1.0211032629013062,-2.193728272114889
1708436352.025695,-2.134164571762085,-1.3343738478473206,-2.529569451008932,6.10159062126235,1.0212692022323608,-2.193641964589254
1708436352.027711,-2.1338846683502197,-1.3344171655229111,-2.529623810444967,6.101210939675131,1.0213651657104492,-2.193502728139059
1708436352.0297096,-2.1335604190826416,-1.3344246459058304,-2.529720131550924,6.100885259896078,1.021447777748108,-2.193385426198141
1708436352.0317118,-2.1333351135253906,-1.3344531667283555,-2.5298126379596155,6.100476729660787,1.0215891599655151,-2.1932500044452112
1708436352.033727,-2.1330196857452393,-1.3344277453473588,-2.5299249331103724,6.100092518120565,1.021733283996582,-2.1930564085589808
1708436352.0357044,-2.132758378982544,-1.3345290583423157,-2.5299585501300257,6.09964548328475,1.0218610763549805,-2.1929453055011194
1708436352.0377128,-2.1324286460876465,-1.3345443320325394,-2.5300796667682093,6.099387395172872,1.0219857692718506,-2.1928299109088343
1708436352.0397048,-2.132080078125,-1.33456505954776,-2.5302282015429896,6.098889696388998,1.022146463394165,-2.1926844755755823
1708436352.0417001,-2.1317477226257324,-1.3345550757697602,-2.5303121248828333,6.0985591290290735,1.0223106145858765,-2.19257623354067
1708436352.0437152,-2.1314263343811035,-1.3346368235400696,-2.5303917566882532,6.098106014519491,1.0224347114562988,-2.1924193541156214
1708436352.0457132,-2.131049156188965,-1.334644378428795,-2.5305073896991175,6.097734200745382,1.0225794315338135,-2.192295853291647
1708436352.0477154,-2.1306657791137695,-1.3347245168736954,-2.5306478182422083,6.097261893540182,1.0226995944976807,-2.1922171751605433
1708436352.0496857,-2.1303412914276123,-1.3346776378205796,-2.530736271535055,6.096838342934408,1.0228798389434814,-2.1921213308917444
1708436352.051688,-2.129899024963379,-1.3347628724626084,-2.530818287526266,6.096459138184347,1.0229957103729248,-2.1920207182513636
1708436352.0536926,-2.1295247077941895,-1.334787831907608,-2.5309916178332728,6.095882165222921,1.0231473445892334,-2.1919096151935022
1708436352.0556898,-2.129106044769287,-1.3348728579333802,-2.531070057545797,6.095402467041769,1.0233278274536133,-2.1917603651629847
1708436352.0577338,-2.1286656856536865,-1.3348377805999299,-2.531264130269186,6.094930279045858,1.0235170125961304,-2.1916402021991175
1708436352.05971,-2.1282222270965576,-1.334907279615738,-2.531363550816671,6.094435322075643,1.023714303970337,-2.1915815512286585
1708436352.0617013,-2.1278364658355713,-1.3349223893931885,-2.5315402189837855,6.093916642456808,1.0238418579101562,-2.19141132036318
1708436352.0637167,-2.1274006366729736,-1.3349738282016297,-2.5316348711596888,6.093421089440145,1.024001121520996,-2.191335980092184
