Eg3-git/Classifiers/Data Collection/u4/u4cir4_ur3e_joint_states.csv
time,elbow_joint,shoulder_lift_joint,shoulder_pan_joint,wrist_1_joint,wrist_2_joint,wrist_3_joint
1708436410.712106,-2.1498332023620605,-1.3361492914012452,-2.527242962514059,6.131170141487875,1.018399953842163,-2.55403715768923
1708436410.714105,-2.1498401165008545,-1.336209700708725,-2.5272191206561487,6.131170141487875,1.0184153318405151,-2.553995196019308
1708436410.7160978,-2.1498374938964844,-1.3362096709064026,-2.5272236506091517,6.131243574410238,1.0183912515640259,-2.5540040175067347
1708436410.7181244,-2.1498489379882812,-1.3362019819072266,-2.5271862188922327,6.131247985153951,1.018437147140503,-2.5540078322040003
1708436410.7202966,-2.149857521057129,-1.3362173003009339,-2.5272117296801966,6.131282079010763,1.018419623374939,-2.5539377371417444
1708436410.722099,-2.149874210357666,-1.3361935180476685,-2.5272727648364466,6.13121651390151,1.0184240341186523,-2.553978983555929
1708436410.7241058,-2.149846076965332,-1.3362096709064026,-2.527210060750143,6.131244647293844,1.0184240341186523,-2.5540040175067347
1708436410.726109,-2.1498894691467285,-1.3361608696034928,-2.52718168893923,6.131223904877462,1.0184205770492554,-2.553995196019308
1708436410.728149,-2.1498374938964844,-1.3361977648786088,-2.5272071997271937,6.131247985153951,1.0184240341186523,-2.5539878050433558
1708436410.730163,-2.149853229522705,-1.3361770075610657,-2.5272682348834437,6.131207573204794,1.0184074640274048,-2.554016653691427
1708436410.7321076,-2.1498286724090576,-1.336210550074913,-2.5272191206561487,6.1312105534370325,1.0183956623077393,-2.553995196019308
1708436410.7340858,-2.149857521057129,-1.3362461936524888,-2.527193848286764,6.1312328455741785,1.0184284448623657,-2.554028336201803
1708436410.7361066,-2.149857521057129,-1.3362011176398774,-2.5272682348834437,6.131211983948507,1.0184205770492554,-2.553983513508932
1708436410.7381418,-2.149869918823242,-1.3362342429212113,-2.527226511632101,6.131231295853414,1.018437147140503,-2.553999725972311
1708436410.740115,-2.149874210357666,-1.3362173003009339,-2.527214590703146,6.13126431682662,1.018404245376587,-2.5539758841144007
1708436410.742103,-2.149808645248413,-1.3362096560052414,-2.5272682348834437,6.131186592369833,1.018399953842163,-2.554032866154806
1708436410.744102,-2.1498656272888184,-1.3361892861178895,-2.527205769215719,6.131223904877462,1.0184402465820312,-2.5540252367602747
1708436410.7460911,-2.149857521057129,-1.3362626743367692,-2.527198378239767,6.131235825806417,1.0184118747711182,-2.5540321508990687
1708436410.7481084,-2.14981746673584,-1.3362054985812684,-2.5272191206561487,6.131235825806417,1.0184197425842285,-2.55403715768923
1708436410.750094,-2.149869918823242,-1.3361770820668717,-2.527242962514059,6.131235825806417,1.0183837413787842,-2.5540252367602747
1708436410.752095,-2.149853229522705,-1.336193547849991,-2.527214590703146,6.131223904877462,1.0183837413787842,-2.554016653691427
1708436410.7540967,-2.1498374938964844,-1.3362096560052414,-2.5272682348834437,6.131243574410238,1.0184327363967896,-2.553974692021505
1708436410.7560966,-2.1498661041259766,-1.336173729305603,-2.527231041585104,6.131194221764364,1.0183923244476318,-2.554028336201803
1708436410.7580953,-2.1498374938964844,-1.3362428408912201,-2.527193609868185,6.131220805435934,1.018404245376587,-2.553974692021505
1708436410.7600958,-2.149902582168579,-1.3361855310252686,-2.5272071997271937,6.131223904877462,1.018416166305542,-2.554016653691427
1708436410.7620902,-2.1498007774353027,-1.3362712425044556,-2.527210060750143,6.131280767708578,1.018399953842163,-2.553995196019308
1708436410.7640884,-2.149906873703003,-1.3362342429212113,-2.5272071997271937,6.131302940636434,1.0184118747711182,-2.553978983555929
1708436410.7660913,-2.149869918823242,-1.336185024385788,-2.527181927357809,6.131255614548483,1.018399953842163,-2.5539584795581263
1708436410.7681005,-2.1498374938964844,-1.336177037363388,-2.5271952787982386,6.131231295853414,1.0184862613677979,-2.5540040175067347
1708436410.7700932,-2.1498610973358154,-1.3362377297929307,-2.5272355715381067,6.131273257523336,1.0183794498443604,-2.55403715768923
1708436410.7721114,-2.149850368499756,-1.3362300407937546,-2.527160708104269,6.131280648499288,1.018388032913208,-2.5539920965777796
1708436410.774107,-2.1498007774353027,-1.3362215769341965,-2.5272281805621546,6.1312328455741785,1.0184205770492554,-2.55403715768923
1708436410.7760944,-2.149906873703003,-1.33620539427314,-2.5272401014911097,6.131252515106954,1.018416166305542,-2.5539820829974573
1708436410.7781048,-2.1498401165008545,-1.3361976903728028,-2.5272727648364466,6.13126431682662,1.018399953842163,-2.553983513508932
1708436410.780098,-2.1498374938964844,-1.3362181198647995,-2.527198139821188,6.1312599060829065,1.0184415578842163,-2.553999725972311
1708436410.7821023,-2.149857521057129,-1.3361812692931672,-2.527247492467062,6.131177532463827,1.0183923244476318,-2.5540078322040003
1708436410.7840962,-2.149812936782837,-1.3362087619355698,-2.5271952787982386,6.131280648499288,1.018399953842163,-2.554020945225851
1708436410.7861009,-2.1498825550079346,-1.336217315202095,-2.527210299168722,6.131180870323934,1.0183836221694946,-2.554012123738424
1708436410.7881064,-2.1498050689697266,-1.3362019819072266,-2.5272517840014856,6.131194221764364,1.0184205770492554,-2.554020945225851
1708436410.7900949,-2.1498610973358154,-1.3362257939628144,-2.527214590703146,6.13126431682662,1.018399953842163,-2.5540252367602747
1708436410.792106,-2.1498610973358154,-1.3361893159202118,-2.527198139821188,6.131256925850668,1.018437147140503,-2.553978983555929
1708436410.794099,-2.149853229522705,-1.336234302525856,-2.5272236506091517,6.131271827011862,1.018371820449829,-2.5540040175067347
1708436410.796133,-2.149902582168579,-1.3362342876246949,-2.5272071997271937,6.131235825806417,1.018388032913208,-2.553999725972311
1708436410.7981014,-2.149869918823242,-1.336210550074913,-2.527193609868185,6.131280648499288,1.018371820449829,-2.5540571848498743
1708436410.8001013,-2.149857521057129,-1.3361855161241074,-2.527210299168722,6.131223904877462,1.018371820449829,-2.5540033022509974
1708436410.8020937,-2.149873733520508,-1.3361812990954895,-2.5272682348834437,6.131255495339193,1.018388032913208,-2.5539820829974573
1708436410.8041143,-2.1498937606811523,-1.336201162343361,-2.5272236506091517,6.131247985153951,1.018342137336731,-2.553967301045553
1708436410.8060958,-2.1498911380767822,-1.336258427505829,-2.5272355715381067,6.13126431682662,1.0183675289154053,-2.553990904484884
1708436410.8080943,-2.1498444080352783,-1.3361935180476685,-2.527214590703146,6.131255495339193,1.018363118171692,-2.5539584795581263
1708436410.810116,-2.1498656272888184,-1.3361855161241074,-2.527242962514059,6.131276237755575,1.018404245376587,-2.553999725972311
1708436410.8121202,-2.1498937606811523,-1.3361812692931672,-2.5271740595446985,6.131235825806417,1.018371820449829,-2.5540409723864954
1708436410.814107,-2.1498825550079346,-1.3362019670060654,-2.5272117296801966,6.131292569428243,1.0183508396148682,-2.5540040175067347
1708436410.816109,-2.1498656272888184,-1.3362181347659607,-2.527210060750143,6.131312238961019,1.018404245376587,-2.554028336201803
1708436410.8180995,-2.1498568058013916,-1.3361977499774476,-2.5272191206561487,6.1312105534370325,1.0183923244476318,-2.5540040175067347
1708436410.8201246,-2.1498217582702637,-1.3362181347659607,-2.5271785894977015,6.131273257523336,1.018355131149292,-2.553999725972311
1708436410.8221529,-2.1499111652374268,-1.336169348364212,-2.5272162596331995,6.13126431682662,1.0183639526367188,-2.553990904484884
1708436410.824181,-2.1498489379882812,-1.3362589639476319,-2.5272162596331995,6.131280648499288,1.0183508396148682,-2.554012123738424
1708436410.8261306,-2.1498568058013916,-1.336226688032486,-2.5272281805621546,6.131213533669271,1.0183968544006348,-2.554016653691427
1708436410.8281138,-2.1498868465423584,-1.3361849647811432,-2.5272236506091517,6.131231295853414,1.0183473825454712,-2.5540152231799524
1708436410.8301728,-2.149869918823242,-1.3361935180476685,-2.5272043387042444,6.13125108459548,1.0183683633804321,-2.5540040175067347
1708436410.8322103,-2.149815797805786,-1.3362266433290024,-2.5272162596331995,6.131283747940817,1.018405556678772,-2.5540364424334925
1708436410.83412,-2.1498868465423584,-1.3362181347659607,-2.5271907488452356,6.131279217987814,1.0183923244476318,-2.5540364424334925
1708436410.836119,-2.149895429611206,-1.3362215620330353,-2.5272205511676233,6.131304847985067,1.0183683633804321,-2.554020945225851
1708436410.8380969,-2.1498444080352783,-1.3362019819072266,-2.5271907488452356,6.131271827011862,1.0183552503585815,-2.554054085408346
1708436410.8401575,-2.1498825550079346,-1.336177037363388,-2.5271952787982386,6.131318199425497,1.0183473825454712,-2.5540195147143763
1708436410.8420887,-2.149824380874634,-1.336185486321785,-2.5271831194507044,6.13126431682662,1.0183442831039429,-2.554016653691427
1708436410.844147,-2.1498610973358154,-1.336234302525856,-2.5271456877337855,6.131283747940817,1.0183771848678589,-2.554020945225851
1708436410.846101,-2.1498444080352783,-1.3361855012229462,-2.5271998087512415,6.131285178452291,1.0183560848236084,-2.55403715768923
1708436410.8480926,-2.1498894691467285,-1.336173654799797,-2.5271952787982386,6.131226885109701,1.0183320045471191,-2.5540321508990687
1708436410.8500886,-2.1498780250549316,-1.3362342429212113,-2.527246061955587,6.13125108459548,1.0183604955673218,-2.553986374531881
1708436410.85208,-2.149808645248413,-1.3362257939628144,-2.5272071997271937,6.131334531098165,1.0182907581329346,-2.5540409723864954
1708436410.854101,-2.1499111652374268,-1.3362584573081513,-2.5271862188922327,6.131267416268148,1.0182864665985107,-2.5540152231799524
1708436410.8561075,-2.1498444080352783,-1.3362503808787842,-2.5271697680102747,6.131262886315145,1.01829195022583,-2.554016653691427
1708436410.858103,-2.1498825550079346,-1.3362428408912201,-2.5271862188922327,6.131268846779623,1.01827073097229,-2.553995196019308
1708436410.8600967,-2.1498937606811523,-1.3361934882453461,-2.5272324720965784,6.131304847985067,1.0183007717132568,-2.554028336201803
1708436410.8621032,-2.149824380874634,-1.3362096709064026,-2.5271576086627405,6.131295907288351,1.018336296081543,-2.5540409723864954
1708436410.8641093,-2.1498937606811523,-1.3362258237651368,-2.5271664301501673,6.1313092587287805,1.018312692642212,-2.55403715768923
1708436410.866104,-2.149874210357666,-1.33624620855365,-2.527186457310812,6.131307828217306,1.0183364152908325,-2.554016653691427
1708436410.8680992,-2.1498825550079346,-1.336172805433609,-2.5271785894977015,6.131267416268148,1.0183038711547852,-2.5540078322040003
1708436410.870098,-2.149857521057129,-1.3362139028361817,-2.5271952787982386,6.131292569428243,1.0182543992996216,-2.5540040175067347
1708436410.872097,-2.1498982906341553,-1.3362462383559723,-2.5271907488452356,6.131246554642477,1.01827073097229,-2.5540078322040003
1708436410.874097,-2.1498937606811523,-1.336218149667122,-2.5271831194507044,6.13125096538619,1.018296480178833,-2.554028336201803
1708436410.876114,-2.1499111652374268,-1.336250440483429,-2.5271664301501673,6.131242143898763,1.018308162689209,-2.553990904484884
1708436410.8780982,-2.1498780250549316,-1.3362054091743012,-2.5271530787097376,6.131319749146261,1.01827073097229,-2.554012123738424
1708436410.8801625,-2.1498401165008545,-1.33615234613929,-2.5272086302386683,6.1312599060829065,1.01827073097229,-2.554049793873922
1708436410.8820941,-2.1498610973358154,-1.3361693781665345,-2.5271952787982386,6.1312914965446375,1.018288254737854,-2.554028336201803
1708436410.8841307,-2.1498937606811523,-1.3362669360688706,-2.5271831194507044,6.131267416268148,1.0182381868362427,-2.5540414492236536
1708436410.886098,-2.1498374938964844,-1.3362062734416504,-2.5272043387042444,6.131299006729879,1.018312692642212,-2.554032866154806
1708436410.8881106,-2.149869441986084,-1.3361566227725525,-2.5271998087512415,6.13126431682662,1.0182838439941406,-2.553978983555929
1708436410.8900995,-2.149869918823242,-1.3362420064261933,-2.5271876494037073,6.131270396500387,1.0183007717132568,-2.5540364424334925
1708436410.892107,-2.1498825550079346,-1.3362504106811066,-2.5271998087512415,6.13123773315505,1.0182876586914062,-2.554032866154806
1708436410.894127,-2.1498489379882812,-1.3361608547023316,-2.5272370020495813,6.1312540648277185,1.0182795524597168,-2.554016653691427
1708436410.896106,-2.1498825550079346,-1.3361849647811432,-2.5271664301501673,6.131265985756674,1.0183171033859253,-2.5540195147143763
1708436410.8980973,-2.149869918823242,-1.3362300109914322,-2.5271785894977015,6.131270396500387,1.0182795524597168,-2.5540409723864954
1708436410.900126,-2.1498610973358154,-1.3362300407937546,-2.5271499792682093,6.131316768914022,1.018308162689209,-2.554024044667379
1708436410.9020936,-2.1498982906341553,-1.3362096560052414,-2.5271952787982386,6.131304847985067,1.01827073097229,-2.55403715768923
1708436410.904096,-2.1498286724090576,-1.3362019819072266,-2.5271530787097376,6.131316768914022,1.0182750225067139,-2.5540409723864954
1708436410.9061081,-2.1498825550079346,-1.3362831336310883,-2.5272043387042444,6.1312914965446375,1.018288254737854,-2.554024044667379
1708436410.9081047,-2.1498610973358154,-1.3361651760390778,-2.5271664301501673,6.1312540648277185,1.018263339996338,-2.554012123738424
1708436410.9101262,-2.149853229522705,-1.33615234613929,-2.5271664301501673,6.131287085800924,1.01827073097229,-2.554016653691427
1708436410.9120946,-2.1498937606811523,-1.3361609441092988,-2.5272043387042444,6.131340491562643,1.0182838439941406,-2.554024044667379
1708436410.9140933,-2.149869918823242,-1.3362547767213364,-2.5272160212146204,6.131295907288351,1.018312692642212,-2.554016653691427
1708436410.9160938,-2.1498444080352783,-1.3362300556949158,-2.5271619001971644,6.131328570633688,1.018312692642212,-2.554028336201803
1708436410.9181085,-2.1498332023620605,-1.3362181347659607,-2.5271456877337855,6.131287085800924,1.0183407068252563,-2.553978983555929
1708436410.9201055,-2.1498332023620605,-1.3362181198647995,-2.527154509221212,6.131319749146261,1.01827073097229,-2.554066006337301
1708436410.9221005,-2.1498868465423584,-1.3362096709064026,-2.52717096010317,6.131304847985067,1.0182663202285767,-2.55396277109255
1708436410.924104,-2.149873733520508,-1.3362019670060654,-2.5271502176867884,6.1313034174735925,1.018296480178833,-2.553971592579977
1708436410.926109,-2.1498444080352783,-1.3362224710038682,-2.5271785894977015,6.131295907288351,1.018312692642212,-2.55403715768923
1708436410.9281294,-2.1498825550079346,-1.3361892861178895,-2.5271664301501673,6.131279217987814,1.018308162689209,-2.553978983555929
1708436410.9301674,-2.1498868465423584,-1.3362172704986115,-2.5271876494037073,6.131300437241354,1.0182839632034302,-2.5539920965777796
1708436410.932155,-2.1498780250549316,-1.3362139028361817,-2.527138058339254,6.131316768914022,1.0182750225067139,-2.55396277109255
1708436410.934134,-2.1499061584472656,-1.336177022462227,-2.527154509221212,6.131279217987814,1.018312692642212,-2.554066006337301
1708436410.9361248,-2.1498358249664307,-1.336177037363388,-2.5271876494037073,6.131321179657736,1.01827073097229,-2.554032866154806
1708436410.938137,-2.1498568058013916,-1.3362062883428116,-2.5271619001971644,6.131304847985067,1.0182795524597168,-2.5540252367602747
1708436410.9401112,-2.149857521057129,-1.3362258237651368,-2.5271907488452356,6.131287085800924,1.0182545185089111,-2.553971592579977
1708436410.9420977,-2.1498444080352783,-1.336169348364212,-2.527175490056173,6.131295907288351,1.018258810043335,-2.5540083090411585
1708436410.9441042,-2.1498656272888184,-1.3361693632653733,-2.5271742979632776,6.131333100586691,1.018308162689209,-2.554016653691427
1708436410.9460921,-2.1498332023620605,-1.336181254392006,-2.5271998087512415,6.131304847985067,1.0183038711547852,-2.5540083090411585
1708436410.9480855,-2.1498610973358154,-1.336226688032486,-2.5272117296801966,6.131270396500387,1.018296480178833,-2.553959671651022
1708436410.950099,-2.149869918823242,-1.3362181198647995,-2.5272043387042444,6.131312238961019,1.018296480178833,-2.554016892110006
1708436410.9520948,-2.149846076965332,-1.3362139028361817,-2.5271952787982386,6.131340491562643,1.0182795524597168,-2.5539920965777796
1708436410.9541054,-2.1498825550079346,-1.336185560827591,-2.52717096010317,6.131312238961019,1.0182832479476929,-2.5539801756488245
1708436410.9561183,-2.149853229522705,-1.336218149667122,-2.5272043387042444,6.131312238961019,1.0182795524597168,-2.5539844671832483
1708436410.9581263,-2.1498444080352783,-1.3361608547023316,-2.527191940938131,6.1312748072441,1.018258810043335,-2.553927246724264
1708436410.9601,-2.149841785430908,-1.3362427812865754,-2.5271456877337855,6.131279217987814,1.0182676315307617,-2.5539725462542933
1708436410.9620934,-2.1498444080352783,-1.3361693632653733,-2.5271952787982386,6.131249654084005,1.0183171033859253,-2.5539563337909144
1708436410.9641027,-2.1498780250549316,-1.3361935031465073,-2.52717096010317,6.1313034174735925,1.0182381868362427,-2.5539520422564905
1708436410.9660878,-2.149902582168579,-1.3361940693906327,-2.52717096010317,6.131316768914022,1.0183333158493042,-2.553993050252096
1708436410.9681005,-2.1498217582702637,-1.3361812692931672,-2.5271952787982386,6.131287085800924,1.018258810043335,-2.5539196173297327
1708436410.9700954,-2.1498894691467285,-1.3361934882453461,-2.5271785894977015,6.1313360808189294,1.0183038711547852,-2.5539358297931116
1708436410.9721107,-2.1498489379882812,-1.3361492914012452,-2.5271876494037073,6.13128815868453,1.0182838439941406,-2.5539119879352015
1708436410.9741051,-2.1498568058013916,-1.3362342876246949,-2.5271952787982386,6.131270396500387,1.0183007717132568,-2.5539196173297327
1708436410.97612,-2.149853229522705,-1.336181254392006,-2.5272133986102503,6.131313669472494,1.0183051824569702,-2.5539119879352015
1708436410.9781072,-2.1498374938964844,-1.336221606736519,-2.5272162596331995,6.131304847985067,1.018320083618164,-2.5539282003985804
1708436410.980112,-2.1498568058013916,-1.3362504106811066,-2.527175490056173,6.131279217987814,1.018258810043335,-2.553931538258688
1708436410.982095,-2.1498911380767822,-1.3361898225596924,-2.5271619001971644,6.131316768914022,1.018308162689209,-2.553962055836813
1708436410.9840922,-2.1498332023620605,-1.3361493659070511,-2.527154509221212,6.1312540648277185,1.0182543992996216,-2.553937021886007
1708436410.9861052,-2.1498374938964844,-1.3362105351737519,-2.5271876494037073,6.131307828217306,1.01827073097229,-2.5539208094226282
1708436410.9881246,-2.1498401165008545,-1.3361855161241074,-2.5271907488452356,6.131295907288351,1.0183289051055908,-2.553891960774557
1708436410.9901109,-2.1498525142669678,-1.3361736846021195,-2.527138058339254,6.131292569428243,1.0182750225067139,-2.553903881703512
1708436410.9921303,-2.149841785430908,-1.336202011709549,-2.5271998087512415,6.131295907288351,1.0182876586914062,-2.553887669240133
1708436410.9941,-2.1498610973358154,-1.3362385642579575,-2.527154509221212,6.131212460785665,1.018312692642212,-2.553880039845602
1708436410.996123,-2.1498618125915527,-1.3361855161241074,-2.527196709309713,6.131271827011862,1.0183007717132568,-2.5538318792926233
1708436410.9980977,-2.149808645248413,-1.3362590086511155,-2.5271619001971644,6.131267416268148,1.018296480178833,-2.553842608128683
1708436411.0001194,-2.1498911380767822,-1.3361935180476685,-2.527175490056173,6.131296980171957,1.0183007717132568,-2.553864304219381
1708436411.0020876,-2.1498332023620605,-1.3361893010190506,-2.527151648198263,6.131255495339193,1.01827073097229,-2.553814474736349
1708436411.0040972,-2.1498780250549316,-1.3361779016307374,-2.527191940938131,6.131243574410238,1.018308162689209,-2.553868595753805
1708436411.0061023,-2.149853229522705,-1.3361855310252686,-2.5271907488452356,6.131313669472494,1.0183244943618774,-2.5538514296161097
1708436411.0081344,-2.149873733520508,-1.3362266433290024,-2.5271573702441614,6.131312238961019,1.0183038711547852,-2.553906265889303
1708436411.010111,-2.1498868465423584,-1.3361736846021195,-2.527191940938131,6.131243574410238,1.01829195022583,-2.5538318792926233
1708436411.0121136,-2.149873733520508,-1.3361770820668717,-2.5271664301501673,6.1312224743659876,1.0182795524597168,-2.5538232962237757
1708436411.014108,-2.149857521057129,-1.3362342578223725,-2.52717096010317,6.131271827011862,1.0182876586914062,-2.5538156668292444
1708436411.0161364,-2.1498851776123047,-1.3361651611379166,-2.527191940938131,6.131239163666525,1.018312692642212,-2.553807560597555
1708436411.0181022,-2.1498489379882812,-1.3361331236413498,-2.5271411577807825,6.131267416268148,1.0182876586914062,-2.5538199583636683
1708436411.02011,-2.1498982906341553,-1.3362589341453095,-2.5272088686572474,6.131206142693319,1.018312692642212,-2.5537825266467493
1708436411.0221102,-2.149853229522705,-1.3362181347659607,-2.5272117296801966,6.13128815868453,1.0182795524597168,-2.553828779851095
1708436411.0241497,-2.1498610973358154,-1.3361940395883103,-2.52717096010317,6.131225812226095,1.018258810043335,-2.553877655659811
1708436411.0261037,-2.149857521057129,-1.336218149667122,-2.5271876494037073,6.131256925850668,1.0182876586914062,-2.5538199583636683
1708436411.0281157,-2.149869918823242,-1.3361898076585312,-2.527154509221212,6.131280648499288,1.018296480178833,-2.5538199583636683
1708436411.0301774,-2.1498610973358154,-1.3361862760833283,-2.527154509221212,6.131234633713522,1.01827073097229,-2.5538199583636683
1708436411.0321681,-2.1498703956604004,-1.3361898225596924,-2.5271921793567103,6.131247985153951,1.018312692642212,-2.553836170827047
1708436411.0340967,-2.1498444080352783,-1.3362019819072266,-2.5271619001971644,6.131234752922811,1.01829195022583,-2.5537589232074183
1708436411.0361042,-2.1498618125915527,-1.3362181347659607,-2.52717096010317,6.1312599060829065,1.01829195022583,-2.5537717978106897
1708436411.0381021,-2.149869918823242,-1.3362630617669602,-2.5271454493152063,6.131280648499288,1.018312692642212,-2.553755585347311
1708436411.0401216,-2.149869918823242,-1.3361620616963883,-2.5272205511676233,6.131243574410238,1.0182832479476929,-2.553779427205221
1708436411.0420876,-2.1498489379882812,-1.3361898225596924,-2.5271785894977015,6.131149279862203,1.018312692642212,-2.553783718739645
1708436411.0440943,-2.1498825550079346,-1.3362146478942414,-2.5272043387042444,6.131240236550131,1.018263339996338,-2.5537999312030237
1708436411.0461016,-2.1498610973358154,-1.3362105053714295,-2.527138058339254,6.131214964180746,1.0182795524597168,-2.553779427205221
1708436411.048106,-2.1498444080352783,-1.336169333463051,-2.5271785894977015,6.1312599060829065,1.0183038711547852,-2.5538042227374476
1708436411.05009,-2.1498868465423584,-1.3362062883428116,-2.5271876494037073,6.131201731949606,1.018308162689209,-2.553746763859884
1708436411.0520904,-2.149853229522705,-1.3361898374608536,-2.527159039174215,6.131240236550131,1.018296480178833,-2.5537846724139612
1708436411.0541127,-2.149853229522705,-1.3361620765975495,-2.527163569127218,6.131198632508077,1.0182795524597168,-2.5537105242358606
1708436411.0560963,-2.149869918823242,-1.3362024289420624,-2.527154509221212,6.131265866547384,1.0183244943618774,-2.5537436644183558
1708436411.0580962,-2.1498332023620605,-1.3361820441535492,-2.5271664301501673,6.131235825806417,1.018312692642212,-2.5537641684161585
1708436411.0601077,-2.1498050689697266,-1.336153508429863,-2.5271664301501673,6.1312224743659876,1.0183038711547852,-2.5537405649768274
1708436411.0620997,-2.149857521057129,-1.3361048114350815,-2.527159039174215,6.131186473160543,1.018312692642212,-2.5537405649768274
1708436411.0641177,-2.14987850189209,-1.3361898374608536,-2.527180020009176,6.131231295853414,1.0182876586914062,-2.553727451954977
1708436411.066094,-2.149812936782837,-1.3361493361047287,-2.527135197316305,6.131199824600973,1.0182262659072876,-2.5537317434894007
1708436411.0681038,-2.1498911380767822,-1.3361331981471558,-2.5271335283862513,6.131170141487875,1.018296480178833,-2.5537236372577112
1708436411.0700924,-2.149895429611206,-1.3361736846021195,-2.527175490056173,6.131231295853414,1.01827073097229,-2.553727451954977
1708436411.0721579,-2.149869918823242,-1.3362105947783967,-2.527126137410299,6.131198632508077,1.018308162689209,-2.5537360350238245
1708436411.0741112,-2.1498868465423584,-1.3361535233310242,-2.527126137410299,6.131187903672018,1.0182795524597168,-2.553695027028219
1708436411.0760992,-2.1498332023620605,-1.3361662489226838,-2.5271843115436,6.131228434830465,1.0182795524597168,-2.553749386464254
1708436411.078107,-2.1498444080352783,-1.3361542981914063,-2.527159039174215,6.131211983948507,1.018296480178833,-2.553699318562643
1708436411.080124,-2.149895429611206,-1.3362188649228592,-2.527175490056173,6.13121651390151,1.0183289051055908,-2.553666893635885
1708436411.0821037,-2.1498825550079346,-1.336169348364212,-2.527138058339254,6.131171571999349,1.0182545185089111,-2.5536580721484583
1708436411.0841706,-2.1498610973358154,-1.336186246281006,-2.5271843115436,6.131164061814108,1.0182876586914062,-2.553711239491598
1708436411.0860946,-2.149906873703003,-1.3361789596131821,-2.527175490056173,6.131179082184591,1.0182838439941406,-2.553643051777975
1708436411.0880952,-2.1498656272888184,-1.3361820143512269,-2.52717096010317,6.131204235344686,1.0182750225067139,-2.553706709538595
1708436411.0900965,-2.149853229522705,-1.3361779016307374,-2.52717096010317,6.131164061814108,1.0182750225067139,-2.5537198225604456
1708436411.0920868,-2.149857521057129,-1.3361779016307374,-2.527121607457296,6.13112364986495,1.0182795524597168,-2.553695027028219
1708436411.0940917,-2.1498489379882812,-1.3362024140409012,-2.5272205511676233,6.131138551026144,1.018312692642212,-2.5537453333484095
1708436411.0960994,-2.149869918823242,-1.3361820441535492,-2.5271831194507044,6.131135570793905,1.018308162689209,-2.553683106099264
1708436411.098092,-2.1498332023620605,-1.3361779016307374,-2.52717096010317,6.1311519024665735,1.018308162689209,-2.5537079016314905
1708436411.100112,-2.149869918823242,-1.3361779016307374,-2.5271843115436,6.131135570793905,1.018296480178833,-2.5537241140948694
1708436411.1020944,-2.1498868465423584,-1.33619478464637,-2.52714711824526,6.131082045822897,1.0183038711547852,-2.5536463896380823
1708436411.1041076,-2.1498374938964844,-1.3361500811627884,-2.527138058339254,6.1311120865638635,1.01827073097229,-2.5536916891681116
1708436411.106098,-2.149841785430908,-1.3361855459264298,-2.5271664301501673,6.131079065590658,1.018296480178833,-2.5536678473102015
1708436411.1081178,-2.149874210357666,-1.3361500811627884,-2.527123037968771,6.1311120865638635,1.0183213949203491,-2.5536354223834437
1708436411.110091,-2.1498217582702637,-1.3361542981914063,-2.5271006266223353,6.1311086294944666,1.0182795524597168,-2.553704563771383
1708436411.1121175,-2.149853229522705,-1.3361174774220963,-2.527155939732687,6.131101119309225,1.018312692642212,-2.55365497270693
1708436411.1140914,-2.149853229522705,-1.3361820441535492,-2.527130667363302,6.131025302201071,1.018288254737854,-2.5536635557757776
1708436411.116103,-2.1498374938964844,-1.3361820441535492,-2.527172629033224,6.1311086294944666,1.0182750225067139,-2.5536473433123987
1708436411.1181152,-2.1498444080352783,-1.3361500811627884,-2.527109448109762,6.131059634476461,1.0182750225067139,-2.5536754767047327
1708436411.120092,-2.149841785430908,-1.3361091178706666,-2.527163569127218,6.131084906845846,1.01829195022583,-2.553687397633688
1708436411.1220982,-2.1498661041259766,-1.3361940395883103,-2.527142588292257,6.13107310512618,1.0182750225067139,-2.5536516348468226
1708436411.124094,-2.1498825550079346,-1.3362231713584443,-2.5271006266223353,6.1310651181037805,1.018296480178833,-2.5536721388446253
1708436411.1260884,-2.1498618125915527,-1.3361789596131821,-2.527135197316305,6.131077396660604,1.0182750225067139,-2.5536473433123987
1708436411.1281025,-2.1498260498046875,-1.3361500811627884,-2.527191940938131,6.131003963738241,1.01829195022583,-2.553643051777975
1708436411.1301527,-2.1498303413391113,-1.3361820441535492,-2.527142588292257,6.1309876320655725,1.0182795524597168,-2.5536473433123987
1708436411.1322045,-2.149874210357666,-1.3361736846021195,-2.527151648198263,6.130999433785238,1.018296480178833,-2.5536766687976282
1708436411.1341405,-2.1498260498046875,-1.33620239913974,-2.527156178151266,6.13100694397048,1.0182545185089111,-2.5536022822009485
1708436411.1361666,-2.1498050689697266,-1.3361500811627884,-2.5271843115436,6.1310157654579065,1.01827073097229,-2.5536111036883753
1708436411.1381035,-2.149869918823242,-1.33619478464637,-2.5271173159228724,6.131003844528951,1.0183007717132568,-2.5536473433123987
1708436411.1401327,-2.1498444080352783,-1.3361586046269913,-2.527109448109762,6.1309876320655725,1.018312692642212,-2.5536678473102015
1708436411.1420953,-2.1499040126800537,-1.3362273883870621,-2.527159039174215,6.131003963738241,1.01827073097229,-2.5536635557757776
1708436411.1441061,-2.1497883796691895,-1.3361940395883103,-2.527175490056173,6.131003963738241,1.0182795524597168,-2.55363113084902
1708436411.1460934,-2.1497926712036133,-1.3361542981914063,-2.527159039174215,6.131024706154623,1.0182795524597168,-2.553627316151754
1708436411.1480882,-2.1498303413391113,-1.3361704361489792,-2.527159039174215,6.131000864296713,1.01829195022583,-2.5536766687976282
1708436411.150094,-2.1498260498046875,-1.3361459386399765,-2.527163569127218,6.131017195969381,1.0182470083236694,-2.5536559263812464
1708436411.1521065,-2.1498007774353027,-1.3361981821111222,-2.527172629033224,6.130978691368856,1.018263339996338,-2.5536397139178675
1708436411.1540928,-2.149857521057129,-1.336137832408287,-2.527093235646383,6.131003963738241,1.01829195022583,-2.553626839314596
1708436411.1561027,-2.1498217582702637,-1.3361693781665345,-2.5271485487567347,6.131000864296713,1.0182719230651855,-2.553605620061056
1708436411.1580985,-2.1498618125915527,-1.3361662191203614,-2.527130667363302,6.13097237327651,1.0182676315307617,-2.5536184946643274
1708436411.1601036,-2.1498260498046875,-1.3361855161241074,-2.527159039174215,6.130971300392904,1.0182470083236694,-2.553664747868673
1708436411.1621048,-2.1498260498046875,-1.3361542981914063,-2.527180020009176,6.130975711136617,1.018308162689209,-2.5536473433123987
1708436411.1641097,-2.1498055458068848,-1.3361662191203614,-2.52714711824526,6.131020295410909,1.018309473991394,-2.5536766687976282
1708436411.166121,-2.1498260498046875,-1.3360971969417115,-2.527155939732687,6.130996453552999,1.01829195022583,-2.5536397139178675
1708436411.1681073,-2.1498260498046875,-1.3361704361489792,-2.527155939732687,6.130967843323507,1.0182394981384277,-2.5536604563342493
1708436411.1701045,-2.1498093605041504,-1.3361459386399765,-2.527118508015768,6.131029116898336,1.0183007717132568,-2.5536142031299036
1708436411.172117,-2.149817943572998,-1.3361417216113587,-2.527130667363302,6.130984532624044,1.0182470083236694,-2.553627316151754
1708436411.1741052,-2.1498098373413086,-1.33619478464637,-2.527130667363302,6.130954611092367,1.0182795524597168,-2.5536227861987513
1708436411.1761072,-2.1498260498046875,-1.3361620765975495,-2.527130667363302,6.13103352764205,1.01820969581604,-2.5536516348468226
1708436411.1781025,-2.149834632873535,-1.3361789596131821,-2.527139727269308,6.131021725922384,1.0182838439941406,-2.553631607686178
1708436411.1801035,-2.1498055458068848,-1.3361542981914063,-2.527159039174215,6.13104139545516,1.018247127532959,-2.5536473433123987
1708436411.1821027,-2.149857521057129,-1.3361779016307374,-2.527168099080221,6.131005394249716,1.0182186365127563,-2.5536227861987513
1708436411.1841185,-2.149834632873535,-1.3361294728568573,-2.527180020009176,6.1310380575950525,1.018258810043335,-2.553685251866476
1708436411.186114,-2.149822235107422,-1.3361981821111222,-2.5271769205676478,6.131017195969381,1.0182795524597168,-2.553581778203146
1708436411.1881301,-2.1497795581817627,-1.3361578595689316,-2.527123037968771,6.131005394249716,1.0182381868362427,-2.553626839314596
1708436411.1901038,-2.1498093605041504,-1.3361620765975495,-2.527151648198263,6.13103352764205,1.0182676315307617,-2.5536766687976282
1708436411.192115,-2.149850368499756,-1.3361820441535492,-2.5271318594561976,6.130984532624044,1.0183050632476807,-2.5536559263812464
1708436411.1940968,-2.1498661041259766,-1.3361535531333466,-2.527142588292257,6.130980121880331,1.0182676315307617,-2.5536184946643274
1708436411.1960926,-2.149817943572998,-1.3362024438432236,-2.5271275679217737,6.130992042809286,1.0183007717132568,-2.5536442438708704
1708436411.1980917,-2.1498260498046875,-1.33620239913974,-2.527109448109762,6.131021725922384,1.01827073097229,-2.553680960332052
1708436411.2001,-2.1498093605041504,-1.3361421388438721,-2.527102295552389,6.130992042809286,1.0182545185089111,-2.5536184946643274
1708436411.2020943,-2.1498618125915527,-1.3361779016307374,-2.527139727269308,6.130992042809286,1.018312692642212,-2.5536766687976282
1708436411.2041032,-2.149846076965332,-1.3361747425845643,-2.5271485487567347,6.131024706154623,1.0183050632476807,-2.5536604563342493
1708436411.2061136,-2.1498303413391113,-1.3361294728568573,-2.527123037968771,6.130960452347555,1.018214225769043,-2.5536354223834437
1708436411.2081666,-2.149801254272461,-1.3361747425845643,-2.52714711824526,6.1310369847114465,1.0182750225067139,-2.5536397139178675
1708436411.210109,-2.1498870849609375,-1.3361820441535492,-2.5271604696856897,6.130992042809286,1.0182838439941406,-2.553627316151754
1708436411.2121208,-2.149834632873535,-1.3361940395883103,-2.527106587086813,6.130971300392904,1.0182838439941406,-2.5536797682391565
1708436411.2141032,-2.149838924407959,-1.3361620765975495,-2.5271318594561976,6.130992042809286,1.0182838439941406,-2.5536354223834437
1708436411.216109,-2.149841785430908,-1.3361542981914063,-2.527151648198263,6.131000864296713,1.0182795524597168,-2.553627316151754
1708436411.218096,-2.1498703956604004,-1.3361133348992844,-2.527130667363302,6.131012785225668,1.0182143449783325,-2.5536397139178675
1708436411.2201056,-2.1498260498046875,-1.336186261182167,-2.527151648198263,6.131045806198873,1.0182557106018066,-2.5536473433123987
1708436411.222103,-2.1498868465423584,-1.3361421388438721,-2.5270944277392786,6.1310369847114465,1.0182838439941406,-2.5536142031299036
1708436411.2241228,-2.149813652038574,-1.3361905676177521,-2.527154509221212,6.130933749466696,1.0182795524597168,-2.5536721388446253
1708436411.226096,-2.1498618125915527,-1.3361620765975495,-2.5271318594561976,6.13105474689559,1.0182925462722778,-2.55363113084902
1708436411.2280946,-2.1498546600341797,-1.3361620765975495,-2.527106587086813,6.130975711136617,1.0182470083236694,-2.5536397139178675
1708436411.2301238,-2.1498303413391113,-1.3361855161241074,-2.5271604696856897,6.130963432579794,1.0182470083236694,-2.55360991159548
1708436411.2321703,-2.1497926712036133,-1.3361294728568573,-2.5271485487567347,6.1309485314186,1.0182795524597168,-2.5536678473102015
1708436411.234133,-2.1498618125915527,-1.3361855161241074,-2.527118508015768,6.131012785225668,1.01827073097229,-2.5536766687976282
1708436411.2360947,-2.1497926712036133,-1.3361898225596924,-2.527064625416891,6.131021725922384,1.0182838439941406,-2.5536766687976282
1708436411.2381115,-2.1497883796691895,-1.3361704510501404,-2.5271275679217737,6.131029116898336,1.0182795524597168,-2.5536142031299036
1708436411.2401187,-2.149801254272461,-1.3362024289420624,-2.527123037968771,6.130996453552999,1.0182350873947144,-2.5536559263812464
1708436411.2421153,-2.1498260498046875,-1.3361174774220963,-2.5271156469928187,6.130996453552999,1.0182600021362305,-2.553664747868673
1708436411.244108,-2.1497840881347656,-1.3361905676177521,-2.527097765599386,6.130996453552999,1.0182719230651855,-2.5536604563342493
1708436411.2460964,-2.149857521057129,-1.3361542981914063,-2.527093235646383,6.130992042809286,1.018247127532959,-2.5536142031299036
1708436411.2481136,-2.149822235107422,-1.3361374151757737,-2.527118508015768,6.130995023041525,1.0182795524597168,-2.5536516348468226
1708436411.2500875,-2.149850368499756,-1.3361662191203614,-2.5271275679217737,6.130996453552999,1.01826012134552,-2.5536473433123987
1708436411.2520967,-2.1498374938964844,-1.3361459386399765,-2.5271843115436,6.131003963738241,1.0182969570159912,-2.553688351308004
1708436411.2540977,-2.1498618125915527,-1.3361500811627884,-2.527106587086813,6.1309876320655725,1.0182750225067139,-2.553664747868673
1708436411.2561033,-2.149817943572998,-1.3361905676177521,-2.5270944277392786,6.130950081139364,1.0182750225067139,-2.5536184946643274
1708436411.258117,-2.1498265266418457,-1.336137817507126,-2.527135197316305,6.130939709931173,1.018263339996338,-2.5536635557757776
1708436411.260138,-2.1498703956604004,-1.3361500811627884,-2.527139727269308,6.131000864296713,1.0182838439941406,-2.5536442438708704
1708436411.2620964,-2.1497883796691895,-1.3361628216556092,-2.527126137410299,6.130996453552999,1.0183050632476807,-2.553664747868673
1708436411.2641118,-2.149843215942383,-1.3361174774220963,-2.52714711824526,6.131000864296713,1.0182514190673828,-2.553593699132101
1708436411.2660933,-2.149801254272461,-1.3361662191203614,-2.527130667363302,6.130980121880331,1.0182719230651855,-2.5536022822009485
1708436411.2681153,-2.149801254272461,-1.3361459237388154,-2.527163569127218,6.130999433785238,1.0182557106018066,-2.5536184946643274
1708436411.2700822,-2.1498303413391113,-1.336137832408287,-2.527139727269308,6.131008374481954,1.0182925462722778,-2.553627316151754
1708436411.2721202,-2.1498260498046875,-1.3361500811627884,-2.527113978062765,6.131008374481954,1.0182719230651855,-2.5536840597735804
1708436411.2741156,-2.1497812271118164,-1.33619478464637,-2.527126137410299,6.130975711136617,1.0182514190673828,-2.5536397139178675
1708436411.2761118,-2.14987850189209,-1.3361704361489792,-2.527168099080221,6.130978691368856,1.018242597579956,-2.553669039403097
1708436411.2781093,-2.1498589515686035,-1.3361940395883103,-2.527118508015768,6.131003963738241,1.0182676315307617,-2.553626839314596
1708436411.2801275,-2.1498703956604004,-1.3361421388438721,-2.527126137410299,6.131032454758444,1.0182514190673828,-2.5536354223834437
1708436411.2821028,-2.149796962738037,-1.3361862760833283,-2.527142588292257,6.1310157654579065,1.018258810043335,-2.5536227861987513
1708436411.2841487,-2.149822235107422,-1.3361704361489792,-2.5271111170398157,6.131005394249716,1.0182350873947144,-2.55363113084902
1708436411.2861092,-2.1498546600341797,-1.3361662191203614,-2.52717096010317,6.130957948952474,1.018276333808899,-2.5536397139178675
1708436411.2880962,-2.1498703956604004,-1.3361940544894715,-2.527151648198263,6.131024706154623,1.0182750225067139,-2.553626839314596
1708436411.2900906,-2.1497883796691895,-1.3361378771117707,-2.5270989576922815,6.13107846954421,1.0182307958602905,-2.553688351308004
1708436411.2920856,-2.1498546600341797,-1.3361459386399765,-2.527139727269308,6.1310369847114465,1.018296480178833,-2.553627316151754
1708436411.294156,-2.1497771739959717,-1.3361500811627884,-2.527114216481344,6.131008374481954,1.018288254737854,-2.5536184946643274
1708436411.2961142,-2.1498093605041504,-1.3362109375051041,-2.527130667363302,6.131045806198873,1.018263339996338,-2.5536397139178675
1708436411.2981105,-2.1498477458953857,-1.336210922603943,-2.527168099080221,6.131066548615255,1.018288254737854,-2.55360991159548
1708436411.300106,-2.149822235107422,-1.3361133348992844,-2.527135197316305,6.1310369847114465,1.0182676315307617,-2.5537002722369593
1708436411.3021212,-2.149834632873535,-1.3361091178706666,-2.527114216481344,6.13107310512618,1.0182676315307617,-2.553683106099264
1708436411.304116,-2.1498055458068848,-1.336137832408287,-2.527123037968771,6.131074058800497,1.018309473991394,-2.5536604563342493
1708436411.3060973,-2.1498260498046875,-1.3361736846021195,-2.5271769205676478,6.1310157654579065,1.0182838439941406,-2.5536473433123987
1708436411.3081217,-2.1498093605041504,-1.3361133348992844,-2.527130667363302,6.131032454758444,1.0183050632476807,-2.5536473433123987
1708436411.3100972,-2.149834632873535,-1.3361586046269913,-2.527139727269308,6.131032454758444,1.0182719230651855,-2.553643051777975
1708436411.3121574,-2.149857521057129,-1.3361662340215226,-2.527090136204855,6.1310651181037805,1.0182307958602905,-2.5536678473102015
1708436411.314127,-2.1497769355773926,-1.3361862760833283,-2.527135197316305,6.131057727127828,1.0182838439941406,-2.5536797682391565
1708436411.316123,-2.1498303413391113,-1.3361578595689316,-2.527085606251852,6.130995023041525,1.0182185173034668,-2.5536721388446253
1708436411.3181076,-2.1498661041259766,-1.3361620765975495,-2.527139727269308,6.131032454758444,1.0182350873947144,-2.5536516348468226
1708436411.3201025,-2.1498055458068848,-1.336088628774025,-2.527102295552389,6.13104139545516,1.018263339996338,-2.553687397633688
1708436411.3221285,-2.149817943572998,-1.3361336451819916,-2.527168099080221,6.131011354714193,1.0183169841766357,-2.55363113084902
1708436411.324146,-2.149796962738037,-1.3361417961171647,-2.527085606251852,6.131053316384115,1.0182557106018066,-2.55363113084902
1708436411.3260932,-2.1498055458068848,-1.3361779016307374,-2.527155939732687,6.131023633271017,1.0182470083236694,-2.5536959807025355
1708436411.3281178,-2.149838924407959,-1.3361133348992844,-2.527151648198263,6.131086337357321,1.018247127532959,-2.553638760243551
1708436411.3301165,-2.149801254272461,-1.3361417067101975,-2.527130667363302,6.131084787636556,1.0182838439941406,-2.5536635557757776
1708436411.3321636,-2.149817943572998,-1.3362145882895966,-2.527151648198263,6.1310040829475305,1.0182795524597168,-2.5536754767047327
1708436411.334123,-2.1498093605041504,-1.336186261182167,-2.527106587086813,6.131038415222921,1.0182514190673828,-2.5536797682391565
1708436411.3361187,-2.149801254272461,-1.3361174774220963,-2.527139727269308,6.131039964943685,1.0182470083236694,-2.5536959807025355
1708436411.338105,-2.149846076965332,-1.3361542981914063,-2.527106587086813,6.131081807404318,1.018276333808899,-2.5536256472217005
1708436411.340104,-2.149843215942383,-1.3361500811627884,-2.527184549962179,6.131098139076986,1.0182719230651855,-2.55365497270693
1708436411.3421001,-2.149796962738037,-1.336130217914917,-2.527130667363302,6.1310473559196375,1.0182557106018066,-2.5536137262927454
1708436411.3441007,-2.149813652038574,-1.3361789149096985,-2.5271769205676478,6.131107079773702,1.0182750225067139,-2.553687397633688
1708436411.3461113,-2.1497812271118164,-1.336194024687149,-2.52714711824526,6.1310473559196375,1.0182514190673828,-2.5536626021014612
1708436411.3481252,-2.1498260498046875,-1.3361704063466568,-2.527102295552389,6.13109968879775,1.0182795524597168,-2.553715531026022
1708436411.3501034,-2.1498618125915527,-1.3361092072776337,-2.527130667363302,6.131092297821798,1.0182470083236694,-2.553683106099264
1708436411.3521378,-2.1498303413391113,-1.3361621063998719,-2.527139727269308,6.131131040840902,1.0182750225067139,-2.553687397633688
1708436411.3540945,-2.149857521057129,-1.3361981821111222,-2.5271769205676478,6.13114749172286,1.018288254737854,-2.5536959807025355
1708436411.3560987,-2.1497926712036133,-1.3361421388438721,-2.527154509221212,6.13122974613265,1.0182676315307617,-2.553650681172506
1708436411.3581028,-2.1498618125915527,-1.3361736846021195,-2.527138058339254,6.131139981537618,1.0182557106018066,-2.5536916891681116
1708436411.3600929,-2.149822235107422,-1.336129517560341,-2.527163569127218,6.131175982743063,1.0182719230651855,-2.5536580721484583
1708436411.362107,-2.149801254272461,-1.3361493361047287,-2.527139727269308,6.131187903672018,1.0182676315307617,-2.553699318562643
1708436411.3641248,-2.1498374938964844,-1.3361620616963883,-2.527142588292257,6.13119529464797,1.0182795524597168,-2.553711239491598
1708436411.3661,-2.1498093605041504,-1.3361374151757737,-2.527109448109762,6.131196725159445,1.0182557106018066,-2.553715531026022
1708436411.3680968,-2.1498477458953857,-1.336137832408287,-2.527135197316305,6.131174552231588,1.018247127532959,-2.5537241140948694
1708436411.3701026,-2.1498260498046875,-1.336190552716591,-2.527106587086813,6.131223904877462,1.0183007717132568,-2.553753677998678
1708436411.3721032,-2.1498589515686035,-1.33620239913974,-2.527097765599386,6.131211983948507,1.0182719230651855,-2.5537405649768274
1708436411.3740876,-2.1498489379882812,-1.3361500811627884,-2.527196709309713,6.131174552231588,1.018276333808899,-2.5537360350238245
1708436411.376086,-2.1498546600341797,-1.3361501109651108,-2.52708870569338,6.131219494133749,1.01829195022583,-2.553706709538595
1708436411.378103,-2.1498260498046875,-1.3361586046269913,-2.527155939732687,6.131204354553976,1.0182514190673828,-2.5537360350238245
1708436411.3801217,-2.1498546600341797,-1.3361628216556092,-2.52717096010317,6.131162750511923,1.0182676315307617,-2.5537760893451136
1708436411.3820875,-2.149834632873535,-1.3361260008862992,-2.5271440188037317,6.1312599060829065,1.0182719230651855,-2.5537880102740687
1708436411.38414,-2.149841785430908,-1.336113379602768,-2.527163569127218,6.131231295853414,1.0182925462722778,-2.553805414830343
1708436411.3860924,-2.149857521057129,-1.3361940395883103,-2.527188841496603,6.131190883904257,1.0182676315307617,-2.5537880102740687
1708436411.3880858,-2.149841785430908,-1.336133213048317,-2.527159039174215,6.131214964180746,1.0182876586914062,-2.5537436644183558
1708436411.3900914,-2.149841785430908,-1.3362188649228592,-2.527126137410299,6.131268846779623,1.018242597579956,-2.5537846724139612
1708436411.3921006,-2.149834632873535,-1.3361747127822419,-2.527159039174215,6.131239163666525,1.018258810043335,-2.553727451954977
1708436411.3940866,-2.149834632873535,-1.336174727683403,-2.52717096010317,6.131271827011862,1.0182307958602905,-2.5537760893451136
1708436411.3961012,-2.1498260498046875,-1.3361862313798447,-2.527213160191671,6.131268846779623,1.018263339996338,-2.5537717978106897
1708436411.3981123,-2.149853229522705,-1.3361820441535492,-2.527191940938131,6.131140577584066,1.0182750225067139,-2.5537598768817347
1708436411.4001007,-2.149841785430908,-1.336150125866272,-2.527168099080221,6.131273257523336,1.0182676315307617,-2.5537589232074183
1708436411.402084,-2.149846076965332,-1.336210475569107,-2.527154509221212,6.1312105534370325,1.0182545185089111,-2.5538042227374476
1708436411.4041166,-2.1498374938964844,-1.3361374896815796,-2.5272086302386683,6.131243574410238,1.018263339996338,-2.5538204352008265
1708436411.4060888,-2.149869918823242,-1.3362188202193757,-2.52714711824526,6.131256925850668,1.0182514190673828,-2.553767506276266
1708436411.4081268,-2.1498703956604004,-1.3361459088376542,-2.527138058339254,6.131255495339193,1.0183007717132568,-2.5537427107440394
1708436411.410095,-2.149796962738037,-1.3361252558282395,-2.527172629033224,6.131313669472494,1.018258810043335,-2.5538161436664026
1708436411.4120965,-2.1498546600341797,-1.3361374151757737,-2.527151648198263,6.131304847985067,1.0182470083236694,-2.553824488316671
1708436411.414091,-2.1498093605041504,-1.3362145882895966,-2.527126137410299,6.131307828217306,1.018242597579956,-2.5537381807910364
1708436411.4160995,-2.149834632873535,-1.3361820441535492,-2.527142588292257,6.131283747940817,1.0182795524597168,-2.5537956396686
1708436411.4180956,-2.1498217582702637,-1.3361820441535492,-2.5271127859698694,6.131218063622274,1.0183038711547852,-2.553824488316671
1708436411.420092,-2.1498055458068848,-1.3361620765975495,-2.5271831194507044,6.13128815868453,1.018258810043335,-2.553779427205221
1708436411.422102,-2.1498093605041504,-1.3362023395350953,-2.52714711824526,6.131230222969808,1.018296480178833,-2.5537999312030237
1708436411.4241352,-2.1498618125915527,-1.3361693781665345,-2.527154509221212,6.131318080216207,1.018258810043335,-2.5538161436664026
1708436411.4261003,-2.14987850189209,-1.336129517560341,-2.527138058339254,6.131279217987814,1.018258810043335,-2.553786818181173
1708436411.428102,-2.1498661041259766,-1.3361535531333466,-2.527154509221212,6.131312238961019,1.01829195022583,-2.5538199583636683
1708436411.4301105,-2.149853229522705,-1.3361294728568573,-2.5271502176867884,6.131382334023275,1.018296480178833,-2.553836170827047
1708436411.432141,-2.1498007774353027,-1.336170421247818,-2.5271499792682093,6.131340491562643,1.0182881355285645,-2.5537987391101282
1708436411.4341335,-2.1498374938964844,-1.3361779016307374,-2.527159039174215,6.13133059719161,1.0183007717132568,-2.5539148489581507
1708436411.4361672,-2.1498286724090576,-1.3362385642579575,-2.527168099080221,6.1313854334648035,1.018296480178833,-2.553807560597555
1708436411.4381242,-2.1498050689697266,-1.3361132901958008,-2.52717096010317,6.131366359978475,1.01829195022583,-2.553828779851095
1708436411.4401252,-2.1498489379882812,-1.3361940395883103,-2.527154509221212,6.131405102997579,1.0183007717132568,-2.5538199583636683
1708436411.442088,-2.1498217582702637,-1.3362019521049042,-2.5271876494037073,6.13136767128066,1.01827073097229,-2.553786818181173
1708436411.4441001,-2.149841785430908,-1.3361862760833283,-2.527191940938131,6.131449687271871,1.0182876586914062,-2.553836170827047
1708436411.446088,-2.1498265266418457,-1.3361542981914063,-2.5271831194507044,6.131358730583944,1.01829195022583,-2.553868595753805
1708436411.4480894,-2.1498661041259766,-1.3361416471055527,-2.5271218458758753,6.1314629195030115,1.0182876586914062,-2.5537987391101282
1708436411.4500968,-2.1497926712036133,-1.3362105351737519,-2.527175490056173,6.13139175155715,1.0182838439941406,-2.5538156668292444
1708436411.4520879,-2.1498618125915527,-1.3361578446677704,-2.5271876494037073,6.131388413697042,1.01829195022583,-2.5538557211505335
1708436411.4541047,-2.149796962738037,-1.3361459237388154,-2.527159039174215,6.1313795922096155,1.0182876586914062,-2.553824488316671
1708436411.4561486,-2.149857521057129,-1.3361898225596924,-2.5271502176867884,6.1313750622566126,1.01827073097229,-2.553844992314474
1708436411.4581048,-2.1498217582702637,-1.3361862760833283,-2.527188841496603,6.1313750622566126,1.018324375152588,-2.553802553807394
1708436411.4601436,-2.1498303413391113,-1.3361578446677704,-2.527163569127218,6.13139175155715,1.018312692642212,-2.553814474736349
1708436411.4620922,-2.149834632873535,-1.3361940544894715,-2.52717096010317,6.1313750622566126,1.0183494091033936,-2.5538676420794886
1708436411.464133,-2.1498050689697266,-1.3362512451461335,-2.527191940938131,6.13139175155715,1.0183038711547852,-2.5538232962237757
1708436411.466104,-2.149850368499756,-1.336194024687149,-2.5271664301501673,6.131396281510153,1.0182795524597168,-2.553873125706808
1708436411.4681122,-2.1498703956604004,-1.3362105351737519,-2.527154509221212,6.13147388675765,1.0182876586914062,-2.553913656865255
1708436411.4700968,-2.149834632873535,-1.3361534935287018,-2.5271952787982386,6.131436335831442,1.0183364152908325,-2.553864304219381
1708436411.4721122,-2.1498374938964844,-1.3362019819072266,-2.5271664301501673,6.1314066527183435,1.0183451175689697,-2.55377704301943
1708436411.4740996,-2.1498870849609375,-1.3361578446677704,-2.527213160191671,6.131349909096517,1.0182876586914062,-2.5538974444018763
1708436411.47612,-2.149853229522705,-1.3361981970122834,-2.5271456877337855,6.131427514344015,1.0183407068252563,-2.5538557211505335
1708436411.4781106,-2.1498656272888184,-1.3361459982446213,-2.527154509221212,6.131366240769186,1.0183528661727905,-2.5538774172412317
1708436411.4800909,-2.14981746673584,-1.3361586195281525,-2.5272043387042444,6.131424414902487,1.0182952880859375,-2.553884808217184
1708436411.4821146,-2.149869918823242,-1.3362063032439728,-2.5271218458758753,6.131403672486105,1.0182833671569824,-2.553906265889303
1708436411.4841213,-2.1498050689697266,-1.3361662191203614,-2.527201000844137,6.131431925087728,1.0183115005493164,-2.553868595753805
1708436411.4860907,-2.1498217582702637,-1.3362146776965638,-2.5272086302386683,6.131411182671346,1.018296480178833,-2.5539050737964075
1708436411.4880986,-2.1498444080352783,-1.3361898225596924,-2.5271576086627405,6.131399261742391,1.0183038711547852,-2.5538676420794886
1708436411.490101,-2.149853229522705,-1.3362181645682831,-2.52717096010317,6.131440746575155,1.0182664394378662,-2.5538676420794886
1708436411.4920979,-2.1498489379882812,-1.3361459237388154,-2.5271876494037073,6.131422984391012,1.018308162689209,-2.5538557211505335
1708436411.4941015,-2.149841785430908,-1.3361450594714661,-2.527154509221212,6.131449687271871,1.018323302268982,-2.5538631121264856
1708436411.4960933,-2.1498332023620605,-1.336222456102707,-2.5272160212146204,6.131460416107931,1.0183442831039429,-2.553819004689352
1708436411.4981034,-2.1498825550079346,-1.3362062883428116,-2.5271785894977015,6.1314066527183435,1.0183157920837402,-2.5538514296161097
1708436411.5000913,-2.149850368499756,-1.3361892861178895,-2.5271831194507044,6.131412613182821,1.018319010734558,-2.5538557211505335
1708436411.5020897,-2.1498489379882812,-1.3361534935287018,-2.5271831194507044,6.131454098015585,1.0183115005493164,-2.553819004689352
1708436411.5041192,-2.1498260498046875,-1.3361820441535492,-2.5271785894977015,6.131411182671346,1.0183486938476562,-2.553885046635763
1708436411.506087,-2.1498444080352783,-1.3361620765975495,-2.5271876494037073,6.131394850998678,1.018323302268982,-2.553871456776754
1708436411.508096,-2.14987850189209,-1.3361779165318985,-2.5271785894977015,6.131448614388265,1.0183485746383667,-2.553858820592062
1708436411.5100875,-2.1498358249664307,-1.336165116434433,-2.5271619001971644,6.131373989373007,1.0183027982711792,-2.553887669240133
1708436411.51212,-2.149902582168579,-1.3362224263003846,-2.5271742979632776,6.131436335831442,1.0183429718017578,-2.5539007822619837
1708436411.5140913,-2.1498868465423584,-1.3361779016307374,-2.5271785894977015,6.131431925087728,1.0183849334716797,-2.553908173237936
1708436411.5160968,-2.1498217582702637,-1.3361620765975495,-2.5271664301501673,6.131447183876791,1.018322467803955,-2.5538669268237513
1708436411.5180933,-2.1498489379882812,-1.3362139028361817,-2.52717096010317,6.131390321045675,1.0183923244476318,-2.553858820592062
1708436411.5200958,-2.1498610973358154,-1.3361416918090363,-2.52717096010317,6.131382930069723,1.0184292793273926,-2.5538962523089808
1708436411.5220945,-2.1498374938964844,-1.336165116434433,-2.5271740595446985,6.131420004158773,1.018388032913208,-2.5539162794696253
1708436411.5241058,-2.149841785430908,-1.3361855161241074,-2.5271876494037073,6.131453025131979,1.0183923244476318,-2.55395752588381
1708436411.5260947,-2.1498656272888184,-1.3362019819072266,-2.5272086302386683,6.131447183876791,1.0183587074279785,-2.5539076964007776
1708436411.528099,-2.1498374938964844,-1.3362181347659607,-2.527229611073629,6.131448614388265,1.018416166305542,-2.55388313928713
1708436411.5301008,-2.1498374938964844,-1.336165116434433,-2.5271785894977015,6.131444203644552,1.0184327363967896,-2.553953234349386
1708436411.5321474,-2.149895429611206,-1.3362181347659607,-2.5271876494037073,6.131403672486105,1.0183912515640259,-2.5538669268237513
1708436411.5341074,-2.1498868465423584,-1.3361812692931672,-2.5271831194507044,6.1314066527183435,1.018404245376587,-2.553908173237936
1708436411.5361161,-2.149853229522705,-1.3361862760833283,-2.5271998087512415,6.131485688477316,1.018416166305542,-2.5539162794696253
1708436411.5381148,-2.1498868465423584,-1.3362300407937546,-2.5271664301501673,6.131444203644552,1.0183837413787842,-2.553945604954855
1708436411.5401092,-2.1498401165008545,-1.3361820441535492,-2.5271876494037073,6.131435262947836,1.0184118747711182,-2.5539282003985804
1708436411.5420978,-2.1499111652374268,-1.3361736697009583,-2.52717096010317,6.131394850998678,1.018416166305542,-2.553903881703512
1708436411.5441375,-2.1498656272888184,-1.3362019670060654,-2.5271998087512415,6.131390321045675,1.0184248685836792,-2.5539401213275355
1708436411.5461118,-2.1499271392822266,-1.3362019819072266,-2.5271502176867884,6.131451594620504,1.0183837413787842,-2.5538788477527063
1708436411.548132,-2.1498894691467285,-1.336160884504654,-2.5271785894977015,6.131464946060934,1.018375039100647,-2.5539162794696253
1708436411.5501137,-2.149873733520508,-1.336173654799797,-2.5271619001971644,6.131411182671346,1.018399953842163,-2.553887669240133
1708436411.5521307,-2.1498656272888184,-1.336169348364212,-2.5271785894977015,6.131397831230917,1.018404245376587,-2.553948704396383
1708436411.554104,-2.1498656272888184,-1.33613737047229,-2.5271907488452356,6.131451594620504,1.0184085369110107,-2.553985659276144
1708436411.5561144,-2.149869918823242,-1.3361693781665345,-2.52717096010317,6.131469356804647,1.0184085369110107,-2.553960625325338
1708436411.558113,-2.1498656272888184,-1.336177037363388,-2.5272117296801966,6.131435262947836,1.0183706283569336,-2.5539282003985804
1708436411.5601506,-2.1498568058013916,-1.3362181347659607,-2.5271576086627405,6.131422984391012,1.0184085369110107,-2.553941313420431
1708436411.562107,-2.149857521057129,-1.3361492615989228,-2.5271952787982386,6.131411182671346,1.0183837413787842,-2.5539401213275355
1708436411.564108,-2.1498894691467285,-1.3361662191203614,-2.5272071997271937,6.131414162903585,1.018416166305542,-2.5539282003985804
1708436411.5661118,-2.149841785430908,-1.3361855012229462,-2.5271485487567347,6.13141559341506,1.018399953842163,-2.55388313928713
1708436411.5681298,-2.1499149799346924,-1.3362019670060654,-2.5272160212146204,6.131393301277914,1.0184327363967896,-2.5538745562182825
1708436411.5701046,-2.1498894691467285,-1.3361416918090363,-2.5271366278277796,6.131464946060934,1.018399953842163,-2.5539162794696253
1708436411.5721407,-2.1498894691467285,-1.3362146776965638,-2.5271998087512415,6.131439673691549,1.0184118747711182,-2.5539119879352015
1708436411.5741346,-2.1499061584472656,-1.3361812692931672,-2.5271456877337855,6.131480204849996,1.018399953842163,-2.5539444128619593
1708436411.5761082,-2.1498568058013916,-1.3362019819072266,-2.5271952787982386,6.131439673691549,1.018399953842163,-2.553937021886007
1708436411.5781062,-2.1498851776123047,-1.3361736697009583,-2.5271831194507044,6.131493556290426,1.018399953842163,-2.553964916859762
1708436411.5801077,-2.1498825550079346,-1.3362342876246949,-2.5271697680102747,6.131420004158773,1.018399953842163,-2.5538864771472376
1708436411.5821033,-2.1498825550079346,-1.3362139028361817,-2.5271998087512415,6.131451594620504,1.0184240341186523,-2.5539239088641565
1708436411.584109,-2.1498568058013916,-1.3361779016307374,-2.5271576086627405,6.1314066527183435,1.0183912515640259,-2.5539196173297327
1708436411.5860908,-2.1498937606811523,-1.3362147074988862,-2.5271740595446985,6.1314440844352625,1.0183912515640259,-2.5539358297931116
1708436411.5881102,-2.1498610973358154,-1.3362342876246949,-2.5271619001971644,6.131442653923788,1.018399953842163,-2.5539076964007776
1708436411.5901024,-2.1499149799346924,-1.3362669211677094,-2.5272071997271937,6.131426322251119,1.0184370279312134,-2.5539401213275355
1708436411.5921066,-2.1499385833740234,-1.3362105351737519,-2.5272489229785364,6.131481277733602,1.018404245376587,-2.5539239088641565
1708436411.5941029,-2.149873733520508,-1.336165116434433,-2.52717096010317,6.13140224197463,1.018437147140503,-2.5539119879352015
1708436411.596123,-2.1499061584472656,-1.3362063032439728,-2.5272071997271937,6.131439673691549,1.0183794498443604,-2.553911034260885
1708436411.5981069,-2.1498610973358154,-1.336169348364212,-2.5272236506091517,6.13148461559371,1.0183837413787842,-2.553899351750509
1708436411.6001282,-2.1498401165008545,-1.336222456102707,-2.5272086302386683,6.131442653923788,1.0183956623077393,-2.5539444128619593
1708436411.602104,-2.1499061584472656,-1.3362019819072266,-2.5271619001971644,6.131493556290426,1.0183837413787842,-2.5539444128619593
1708436411.6040995,-2.1498780250549316,-1.3361977201751252,-2.527191940938131,6.131447183876791,1.0183956623077393,-2.5539162794696253
1708436411.606099,-2.1498937606811523,-1.3361855012229462,-2.5271576086627405,6.131442653923788,1.0183465480804443,-2.553937021886007
1708436411.608105,-2.1499228477478027,-1.336250440483429,-2.5271742979632776,6.131447183876791,1.018375039100647,-2.5539119879352015
1708436411.610123,-2.149876594543457,-1.3362019670060654,-2.5272043387042444,6.131467926293173,1.0184284448623657,-2.5539239088641565
1708436411.6121337,-2.149901866912842,-1.336238608961441,-2.5271998087512415,6.131447183876791,1.018399953842163,-2.553887669240133
1708436411.6141136,-2.1499385833740234,-1.3361977499774476,-2.5271619001971644,6.1314501641090295,1.018404245376587,-2.5538907686816614
1708436411.6161075,-2.1499061584472656,-1.3362308752587815,-2.5271785894977015,6.13148461559371,1.018399953842163,-2.5539239088641565
1708436411.6181087,-2.149897575378418,-1.3362589937499543,-2.5271907488452356,6.13140224197463,1.0184327363967896,-2.553908173237936
1708436411.6201026,-2.1499149799346924,-1.3362300556949158,-2.527198378239767,6.131463515549459,1.0183794498443604,-2.5539119879352015
1708436411.6221042,-2.1499099731445312,-1.336185486321785,-2.5271576086627405,6.131529199868002,1.018388032913208,-2.5539563337909144
1708436411.624117,-2.149897575378418,-1.3361849647811432,-2.5272443930255335,6.131458985596456,1.0183675289154053,-2.553948704396383
1708436411.6261036,-2.149876594543457,-1.3362830740264435,-2.5272041002856653,6.131463515549459,1.0183552503585815,-2.55388313928713
1708436411.6281192,-2.149925708770752,-1.33624620855365,-2.527160708104269,6.131475674896993,1.018404245376587,-2.5539282003985804
1708436411.6300964,-2.1498851776123047,-1.3361898523620148,-2.527214590703146,6.131430852204122,1.0184204578399658,-2.553937021886007
1708436411.6321425,-2.1499171257019043,-1.3362342876246949,-2.5271456877337855,6.1315380213554285,1.018371820449829,-2.553932491933004
1708436411.63415,-2.149893283843994,-1.3362428706935425,-2.5271382967578333,6.131483185082235,1.0183595418930054,-2.5538821856128138
1708436411.6361349,-2.149925708770752,-1.3361898225596924,-2.5271876494037073,6.131475674896993,1.018404245376587,-2.5539119879352015
1708436411.638201,-2.149925708770752,-1.3362096709064026,-2.5272370020495813,6.131529199868002,1.018388032913208,-2.5539196173297327
1708436411.6401043,-2.1499457359313965,-1.3362024289420624,-2.5272117296801966,6.131426322251119,1.0183552503585815,-2.553953234349386
1708436411.6420941,-2.149893283843994,-1.3361892861178895,-2.52717096010317,6.131430852204122,1.0183923244476318,-2.553988758717672
1708436411.6441119,-2.149918556213379,-1.336226688032486,-2.5271619001971644,6.131483185082235,1.0183675289154053,-2.5539119879352015
1708436411.6461015,-2.1499056816101074,-1.3362215918353577,-2.5272117296801966,6.131442653923788,1.018338680267334,-2.5539401213275355
1708436411.6481,-2.149921417236328,-1.3362011176398774,-2.5271740595446985,6.131512868195333,1.0184118747711182,-2.553953234349386
1708436411.650098,-2.1499056816101074,-1.3362096709064026,-2.5272086302386683,6.131475674896993,1.0183967351913452,-2.5539239088641565
1708436411.6521142,-2.1499342918395996,-1.3361651015332718,-2.5272071997271937,6.131476866989889,1.0183849334716797,-2.5539282003985804
1708436411.6541,-2.1499414443969727,-1.3362542253783722,-2.5271952787982386,6.131500947266378,1.018404245376587,-2.5539444128619593
1708436411.6560974,-2.149921417236328,-1.33624620855365,-2.5271998087512415,6.131466853409567,1.018399953842163,-2.553899351750509
1708436411.658101,-2.149937152862549,-1.3362019819072266,-2.5272279421435755,6.131458985596456,1.0184085369110107,-2.553981129323141
1708436411.6601093,-2.1499128341674805,-1.3362342876246949,-2.5271876494037073,6.1314501641090295,1.0183923244476318,-2.5539239088641565
1708436411.6621077,-2.1499414443969727,-1.3361977499774476,-2.5271831194507044,6.131426322251119,1.0183967351913452,-2.553932491933004
1708436411.664099,-2.1499414443969727,-1.3362019819072266,-2.5272086302386683,6.131529199868002,1.0184292793273926,-2.553937021886007
1708436411.6661172,-2.1499099731445312,-1.3362215918353577,-2.5272162596331995,6.1315053580100916,1.0183923244476318,-2.5539358297931116
1708436411.6681204,-2.1499414443969727,-1.3362019819072266,-2.5271952787982386,6.131466853409567,1.0183805227279663,-2.553964916859762
1708436411.6701043,-2.1498847007751465,-1.336234302525856,-2.5272160212146204,6.131467926293173,1.018371820449829,-2.5539444128619593
1708436411.6721134,-2.1499581336975098,-1.336169348364212,-2.5271876494037073,6.131433832436361,1.0183552503585815,-2.553911034260885
1708436411.6741033,-2.149925708770752,-1.3362063032439728,-2.5271876494037073,6.131520259171285,1.0183639526367188,-2.5539076964007776
1708436411.6761394,-2.1499624252319336,-1.3362300556949158,-2.5272043387042444,6.131442653923788,1.0183595418930054,-2.553899351750509
1708436411.678112,-2.1499414443969727,-1.3361535233310242,-2.5271697680102747,6.131499516754904,1.0184011459350586,-2.5539208094226282
1708436411.6800966,-2.149932861328125,-1.3362096709064026,-2.5271998087512415,6.131475674896993,1.018371820449829,-2.553981129323141
1708436411.6821034,-2.149937152862549,-1.336222381596901,-2.5271907488452356,6.131458985596456,1.018371820449829,-2.553903404866354
1708436411.6841178,-2.1499452590942383,-1.3361203086427231,-2.5272117296801966,6.131447183876791,1.018376111984253,-2.553903404866354
1708436411.6860938,-2.149932861328125,-1.336169348364212,-2.5271876494037073,6.131562340050497,1.018338680267334,-2.553948704396383
1708436411.6881592,-2.149932861328125,-1.3362096709064026,-2.5271876494037073,6.131478774338522,1.018371820449829,-2.5539563337909144
1708436411.6901076,-2.149986505508423,-1.3362063032439728,-2.5271952787982386,6.13147126415328,1.0183355808258057,-2.553993050252096
1708436411.6921,-2.1499171257019043,-1.336250440483429,-2.5271576086627405,6.131475674896993,1.0183560848236084,-2.5539239088641565
1708436411.6941051,-2.149937152862549,-1.3362341982177277,-2.5271831194507044,6.1315053580100916,1.0183604955673218,-2.5539358297931116
1708436411.6960936,-2.149937152862549,-1.3362916123918076,-2.5271907488452356,6.131490576058187,1.0183849334716797,-2.5539076964007776
1708436411.6980994,-2.149949550628662,-1.3362096709064026,-2.527159039174215,6.131459104805746,1.0183517932891846,-2.5539119879352015
1708436411.700104,-2.149925708770752,-1.336222456102707,-2.5271831194507044,6.131447183876791,1.018319010734558,-2.5539477507220667
1708436411.702102,-2.149974822998047,-1.3361935031465073,-2.5271831194507044,6.131511437683859,1.018323302268982,-2.5538864771472376
1708436411.7040954,-2.149974822998047,-1.3362377446940918,-2.527165238057272,6.131447183876791,1.0183277130126953,-2.5539444128619593
1708436411.7061002,-2.149982213973999,-1.3362096858075638,-2.5271247068988245,6.131512868195333,1.0183115005493164,-2.5539239088641565
1708436411.7081556,-2.149986505508423,-1.3362631362727662,-2.5271785894977015,6.131496536522665,1.0183289051055908,-2.5539282003985804
1708436411.7100973,-2.1499452590942383,-1.3362626892379303,-2.527142588292257,6.1314875958259485,1.01827073097229,-2.5539358297931116
1708436411.7121015,-2.150007486343384,-1.3361898523620148,-2.5271907488452356,6.131496536522665,1.0182832479476929,-2.5539401213275355
1708436411.7141993,-2.149986505508423,-1.3362342876246949,-2.527175490056173,6.131483185082235,1.018312692642212,-2.553931538258688
1708436411.7160962,-2.1499907970428467,-1.336169348364212,-2.5272205511676233,6.131515848427572,1.0182795524597168,-2.5539682547198694
1708436411.7181048,-2.1499171257019043,-1.3361977499774476,-2.5271785894977015,6.13150833824233,1.018312692642212,-2.5539477507220667
1708436411.7200983,-2.149982213973999,-1.3362342876246949,-2.5272324720965784,6.131475674896993,1.018312692642212,-2.5539282003985804
1708436411.7220976,-2.1499099731445312,-1.336189256315567,-2.5271530787097376,6.131483185082235,1.0182838439941406,-2.5539196173297327
1708436411.7241352,-2.149949550628662,-1.336160884504654,-2.5272160212146204,6.13147126415328,1.0182186365127563,-2.553931538258688
1708436411.7260966,-2.15000319480896,-1.336238608961441,-2.5271876494037073,6.13147126415328,1.018247127532959,-2.5539682547198694
1708436411.728134,-2.149932861328125,-1.3362712276032944,-2.5271619001971644,6.131520259171285,1.018296480178833,-2.5539682547198694
1708436411.7300982,-2.1499083042144775,-1.3362096411040802,-2.5271621386157435,6.13147126415328,1.01829195022583,-2.5539477507220667
1708436411.7321393,-2.1499414443969727,-1.3362461936524888,-2.5271952787982386,6.131462442665853,1.018263339996338,-2.5539844671832483
1708436411.7341642,-2.149932861328125,-1.336249904041626,-2.5271876494037073,6.131442653923788,1.0182750225067139,-2.5539725462542933
1708436411.7361233,-2.149949550628662,-1.3362258088639756,-2.5272071997271937,6.131496536522665,1.0183169841766357,-2.5539801756488245
1708436411.7380974,-2.149970531463623,-1.3362503808787842,-2.5271785894977015,6.13149510601119,1.0182838439941406,-2.553934876118795
1708436411.7401028,-2.149925708770752,-1.33616095901046,-2.5271998087512415,6.13148461559371,1.018320083618164,-2.553971592579977
1708436411.7420938,-2.1499791145324707,-1.3362258237651368,-2.5271576086627405,6.131503927498617,1.01827073097229,-2.5540252367602747
1708436411.7440991,-2.149932861328125,-1.336140827541687,-2.5271664301501673,6.131520259171285,1.0182427167892456,-2.553959671651022
1708436411.7460923,-2.149953842163086,-1.336241976623871,-2.527154509221212,6.13150833824233,1.018258810043335,-2.554032866154806
1708436411.748131,-2.149986505508423,-1.3361651313355942,-2.5271907488452356,6.131529199868002,1.0183007717132568,-2.553971592579977
1708436411.750117,-2.149953842163086,-1.3362215918353577,-2.5271454493152063,6.131517278939047,1.0182750225067139,-2.5540126005755823
1708436411.7521226,-2.1499364376068115,-1.33624620855365,-2.5271831194507044,6.131474244385519,1.01829195022583,-2.553999725972311
1708436411.754133,-2.149937152862549,-1.3362224412015458,-2.5271876494037073,6.131529199868002,1.0182514190673828,-2.553974692021505
1708436411.7561312,-2.1499907970428467,-1.3362011176398774,-2.52717096010317,6.13145791271285,1.01827073097229,-2.554012123738424
1708436411.7581072,-2.149937152862549,-1.336177037363388,-2.5271876494037073,6.131480204849996,1.0183007717132568,-2.554032866154806
1708436411.7601106,-2.1499414443969727,-1.3362181645682831,-2.5271831194507044,6.131496536522665,1.0183007717132568,-2.553990904484884
1708436411.762102,-2.149949550628662,-1.3361892414144059,-2.5271619001971644,6.131533610611715,1.018263339996338,-2.554012123738424
1708436411.7641068,-2.149914264678955,-1.3361855012229462,-2.5271664301501673,6.1315053580100916,1.0182600021362305,-2.553986374531881
1708436411.7661142,-2.149928569793701,-1.3362063330462952,-2.527213160191671,6.131517278939047,1.0182750225067139,-2.554028336201803
1708436411.768113,-2.1499581336975098,-1.3361766946366807,-2.5271998087512415,6.131466853409567,1.0182502269744873,-2.554061476384298
1708436411.7701044,-2.149949550628662,-1.3362258535674592,-2.5272071997271937,6.1314875958259485,1.0182795524597168,-2.554024044667379
1708436411.7721026,-2.1499791145324707,-1.3362138879350205,-2.5271619001971644,6.131496536522665,1.018308162689209,-2.554085079823629
1708436411.7741008,-2.149970531463623,-1.3362054389766236,-2.5272117296801966,6.131503927498617,1.018263339996338,-2.5540440718280237
1708436411.7761128,-2.1499457359313965,-1.3362019074014206,-2.5271876494037073,6.131524669914999,1.0182838439941406,-2.5540733973132532
1708436411.7781003,-2.150007486343384,-1.3362300556949158,-2.5271576086627405,6.131466853409567,1.018296480178833,-2.5540397802936
1708436411.7800975,-2.1499619483947754,-1.336193562751152,-2.52717096010317,6.131490576058187,1.0182514190673828,-2.5540688673602503
1708436411.7820978,-2.1499907970428467,-1.3362626147321244,-2.5271831194507044,6.131466853409567,1.0183050632476807,-2.5540722052203577
1708436411.7841039,-2.1499407291412354,-1.3362788271955033,-2.5271664301501673,6.131483185082235,1.0182838439941406,-2.5540688673602503
1708436411.786098,-2.1499581336975098,-1.336263046865799,-2.5271664301501673,6.131503927498617,1.0182750225067139,-2.5540440718280237
1708436411.7881014,-2.1499083042144775,-1.3361855012229462,-2.5271876494037073,6.131496536522665,1.018242597579956,-2.5540602842914026
1708436411.7901082,-2.149970531463623,-1.3362096560052414,-2.5271876494037073,6.131442653923788,1.018247127532959,-2.5540440718280237
1708436411.7920961,-2.1499414443969727,-1.336238608961441,-2.5271664301501673,6.131454574852743,1.0182795524597168,-2.5540722052203577
1708436411.7941039,-2.1499452590942383,-1.3362542253783722,-2.5271831194507044,6.13149510601119,1.01827073097229,-2.554002348576681
1708436411.7961156,-2.149953842163086,-1.3362703186324616,-2.5271499792682093,6.131492006569662,1.0183007717132568,-2.5540764967547815
1708436411.7981038,-2.149930000305176,-1.3362105351737519,-2.5271785894977015,6.131524669914999,1.0182795524597168,-2.5540483633624476
1708436411.8000996,-2.1499171257019043,-1.336160884504654,-2.5271742979632776,6.131417500763693,1.0182838439941406,-2.554084126149313
1708436411.802093,-2.149953842163086,-1.336177022462227,-2.5272205511676233,6.131520259171285,1.018296480178833,-2.5540722052203577
1708436411.8041408,-2.1499364376068115,-1.3362796020558854,-2.5271952787982386,6.131500947266378,1.0182676315307617,-2.5540364424334925
1708436411.8060915,-2.149921417236328,-1.3362631362727662,-2.527175490056173,6.13150833824233,1.0183007717132568,-2.5540807882892054
1708436411.80813,-2.1499083042144775,-1.3362019968083878,-2.5271664301501673,6.13144730308608,1.01829195022583,-2.554055992756979
1708436411.810108,-2.149932861328125,-1.3362589937499543,-2.527154509221212,6.131478655129232,1.0182795524597168,-2.5540884176837366
1708436411.8121035,-2.1499342918395996,-1.3361812692931672,-2.52717096010317,6.131454574852743,1.0182676315307617,-2.5540927092181605
1708436411.8140972,-2.1499452590942383,-1.336230830555298,-2.527196470891134,6.1314501641090295,1.0182719230651855,-2.5540266672717493
1708436411.8160977,-2.149974822998047,-1.336222456102707,-2.52717096010317,6.131433832436361,1.0182881355285645,-2.554112736378805
1708436411.8181176,-2.149974822998047,-1.3362096411040802,-2.5272043387042444,6.131499516754904,1.0182664394378662,-2.5540428797351282
1708436411.8201094,-2.149974822998047,-1.3362461787513276,-2.5271952787982386,6.131463515549459,1.0182838439941406,-2.554084126149313
1708436411.822122,-2.1499791145324707,-1.336169348364212,-2.5271831194507044,6.13150833824233,1.018296480178833,-2.55407959619631
1708436411.8241036,-2.149977922439575,-1.336241976623871,-2.52717096010317,6.131462442665853,1.018263339996338,-2.554105345402853
1708436411.8260996,-2.1499500274658203,-1.3361684542945405,-2.5271337668048304,6.131483185082235,1.0182383060455322,-2.5541096369372767
1708436411.828102,-2.149970531463623,-1.3362181347659607,-2.527159039174215,6.131500947266378,1.0182838439941406,-2.5540884176837366
1708436411.8300884,-2.1499619483947754,-1.3361728948405762,-2.5271998087512415,6.131503927498617,1.0183212757110596,-2.554063383732931
1708436411.8320942,-2.149921417236328,-1.3361977648786088,-2.5271785894977015,6.13150833824233,1.0182545185089111,-2.554108444844381
1708436411.8341403,-2.149953842163086,-1.336222456102707,-2.5271785894977015,6.131429421692648,1.01827073097229,-2.554084126149313
1708436411.836159,-2.149966239929199,-1.336249904041626,-2.5272117296801966,6.131458985596456,1.018258810043335,-2.554105345402853
1708436411.8381052,-2.1499452590942383,-1.336234302525856,-2.5271664301501673,6.131447183876791,1.018263339996338,-2.5540922323810022
1708436411.840096,-2.149953842163086,-1.3361934882453461,-2.5272071997271937,6.131524669914999,1.0182838439941406,-2.5541041533099573
1708436411.8420825,-2.1499619483947754,-1.3362181347659607,-2.52717096010317,6.131475674896993,1.0182676315307617,-2.5540879408465784
1708436411.8441622,-2.149970531463623,-1.3362063032439728,-2.5272279421435755,6.131417500763693,1.0182876586914062,-2.554133478795187
1708436411.8460965,-2.149966239929199,-1.3362181347659607,-2.5271998087512415,6.131503927498617,1.0182795524597168,-2.55412465730776
1708436411.8481128,-2.1499452590942383,-1.3362019670060654,-2.5271619001971644,6.13148461559371,1.018288254737854,-2.554133478795187
1708436411.8500931,-2.149982213973999,-1.3362386238626023,-2.5271831194507044,6.131517159729757,1.0183038711547852,-2.554133478795187
1708436411.8521183,-2.1499619483947754,-1.3362788420966645,-2.527159039174215,6.131480204849996,1.018308162689209,-2.554128948842184
1708436411.8540878,-2.149932861328125,-1.3361935180476685,-2.5271785894977015,6.1314724562461755,1.0182838439941406,-2.554101053868429
1708436411.856105,-2.1499083042144775,-1.3361806732467194,-2.5271411577807825,6.13149510601119,1.0182795524597168,-2.554084126149313
1708436411.8580983,-2.149974822998047,-1.336189330821373,-2.527191940938131,6.131480204849996,1.0182795524597168,-2.554108444844381
1708436411.8600976,-2.149937152862549,-1.3362547618201752,-2.5271619001971644,6.131454574852743,1.0182795524597168,-2.554117266331808
1708436411.862096,-2.1499171257019043,-1.3361849200776597,-2.5271411577807825,6.131417500763693,1.018312692642212,-2.554140869771139
1708436411.8641276,-2.1499907970428467,-1.336181254392006,-2.5272279421435755,6.131526100426473,1.0182833671569824,-2.554108444844381
1708436411.8660963,-2.1499452590942383,-1.3362300258925934,-2.5272205511676233,6.13150833824233,1.0183125734329224,-2.554152790700094
1708436411.868099,-2.149930000305176,-1.3362138879350205,-2.5271907488452356,6.131463515549459,1.0182750225067139,-2.554112736378805
1708436411.8700912,-2.1499457359313965,-1.336246983414032,-2.5272043387042444,6.131454574852743,1.0182876586914062,-2.554112736378805
1708436411.8721254,-2.149982213973999,-1.3362377446940918,-2.5271831194507044,6.131429302483358,1.0183038711547852,-2.5540548006640833
1708436411.874111,-2.1499624252319336,-1.3361977648786088,-2.5271876494037073,6.131480204849996,1.01829195022583,-2.5540667215930384
1708436411.8760967,-2.1499907970428467,-1.3362096709064026,-2.527186457310812,6.131467926293173,1.018312692642212,-2.5540879408465784
1708436411.8780894,-2.149970531463623,-1.3361935180476685,-2.5271742979632776,6.131384598999777,1.0182750225067139,-2.5540879408465784
1708436411.8800957,-2.1499457359313965,-1.3362096560052414,-2.5271619001971644,6.131447183876791,1.01827073097229,-2.5541203657733362
1708436411.8821337,-2.1499083042144775,-1.3362626892379303,-2.5272086302386683,6.13148461559371,1.0182664394378662,-2.5540998617755335
1708436411.8840995,-2.149970531463623,-1.336250440483429,-2.5271952787982386,6.131447183876791,1.0182876586914062,-2.554108444844381
1708436411.8861148,-2.149974822998047,-1.3361977350762864,-2.5271576086627405,6.131472337036886,1.0183007717132568,-2.5541322867022913
1708436411.8881328,-2.1499099731445312,-1.336225838666298,-2.5271619001971644,6.131454574852743,1.01827073097229,-2.55412465730776
1708436411.8901045,-2.1499056816101074,-1.336160884504654,-2.5271831194507044,6.131439673691549,1.0182995796203613,-2.554145161305563
1708436411.8921175,-2.1499907970428467,-1.3362583380988617,-2.5271921793567103,6.131463515549459,1.0182543992996216,-2.55412465730776
1708436411.8941138,-2.149937152862549,-1.3362096709064026,-2.527175490056173,6.131414162903585,1.01829195022583,-2.5541377703296106
1708436411.8961084,-2.1499581336975098,-1.3362139177373429,-2.5272071997271937,6.131489026337423,1.0183364152908325,-2.5541041533099573
1708436411.8981,-2.149937152862549,-1.3362215471318741,-2.5271907488452356,6.13141559341506,1.0183277130126953,-2.5541203657733362
1708436411.9001052,-2.149921417236328,-1.336222456102707,-2.5271831194507044,6.131418573647299,1.0183289051055908,-2.554128948842184
1708436411.9020977,-2.1499013900756836,-1.3362258237651368,-2.5272205511676233,6.13141559341506,1.0182838439941406,-2.5541203657733362
1708436411.9041195,-2.149937152862549,-1.3362343174270173,-2.5272205511676233,6.131381499558248,1.018308162689209,-2.55412465730776
1708436411.906097,-2.149893283843994,-1.336160884504654,-2.527154509221212,6.131440746575155,1.0182502269744873,-2.55412465730776
1708436411.908145,-2.1499171257019043,-1.3361892861178895,-2.5272043387042444,6.131405222206869,1.018320083618164,-2.5540879408465784
1708436411.9101167,-2.149970531463623,-1.3362054091743012,-2.5271742979632776,6.1314560053642175,1.0182795524597168,-2.55412465730776
1708436411.9121044,-2.1499083042144775,-1.3362054240754624,-2.5271619001971644,6.131439673691549,1.01827073097229,-2.554136578236715
1708436411.9141076,-2.149937152862549,-1.3362342429212113,-2.5271876494037073,6.131439673691549,1.0183038711547852,-2.554108444844381
1708436411.9161184,-2.149893283843994,-1.33624982953582,-2.5271952787982386,6.131414162903585,1.0182876586914062,-2.5541041533099573
1708436411.9180965,-2.1499083042144775,-1.336165116434433,-2.5271664301501673,6.131411182671346,1.018308162689209,-2.5540879408465784
1708436411.9201024,-2.149974822998047,-1.33624620855365,-2.5272117296801966,6.131427514344015,1.0183157920837402,-2.5541203657733362
1708436411.9220994,-2.1499950885772705,-1.336241976623871,-2.5271530787097376,6.131448495178976,1.018320083618164,-2.5540793577777308
1708436411.9241433,-2.1499791145324707,-1.3361535233310242,-2.5271831194507044,6.131422984391012,1.0182952880859375,-2.554157082234518
1708436411.9261117,-2.149930000305176,-1.336172805433609,-2.5271742979632776,6.1314560053642175,1.0182952880859375,-2.5540836493121546
1708436411.9280982,-2.149921417236328,-1.336202011709549,-2.5271907488452356,6.131422984391012,1.0183038711547852,-2.5541203657733362
1708436411.9300938,-2.1499581336975098,-1.3362223964980622,-2.5271530787097376,6.131436335831442,1.0182790756225586,-2.5540955702411097
1708436411.932166,-2.1499128341674805,-1.336189256315567,-2.5272043387042444,6.1314560053642175,1.0182876586914062,-2.5540955702411097
1708436411.9341605,-2.149925708770752,-1.3361935031465073,-2.5272117296801966,6.131433355599203,1.0183115005493164,-2.5541041533099573
1708436411.9360938,-2.1499581336975098,-1.3362342876246949,-2.5271740595446985,6.1314066527183435,1.018323302268982,-2.5541279951678675
1708436411.938108,-2.149921417236328,-1.3362096709064026,-2.5271831194507044,6.131373989373007,1.0183277130126953,-2.5541160742389124
1708436411.9401023,-2.1499171257019043,-1.3362019521049042,-2.5272117296801966,6.131424414902487,1.0183038711547852,-2.5541117827044886
1708436411.9420896,-2.149949550628662,-1.3362258088639756,-2.5271368662463587,6.131394850998678,1.0182952880859375,-2.5541279951678675
1708436411.944094,-2.1499581336975098,-1.3362300556949158,-2.5272117296801966,6.131448733597555,1.0183364152908325,-2.5541215578662317
1708436411.9460912,-2.149932861328125,-1.3361968261054535,-2.5271831194507044,6.131382930069723,1.018323302268982,-2.554091278706686
1708436411.9480934,-2.149937152862549,-1.3362019819072266,-2.5272043387042444,6.131422984391012,1.0183115005493164,-2.554096523915426
1708436411.950101,-2.149953842163086,-1.3361934882453461,-2.527191940938131,6.13139175155715,1.0182995796203613,-2.5541659037219446
1708436411.952097,-2.149925708770752,-1.336254672413208,-2.5272160212146204,6.131408083229818,1.0182952880859375,-2.5541160742389124
1708436411.9541097,-2.149930000305176,-1.3361935180476685,-2.5272071997271937,6.131346928864279,1.018320083618164,-2.554105345402853
1708436411.956096,-2.149872303009033,-1.336169348364212,-2.5272117296801966,6.131424414902487,1.018323302268982,-2.5540998617755335
1708436411.9581003,-2.1499171257019043,-1.3361812692931672,-2.5272160212146204,6.131358730583944,1.0183277130126953,-2.554136578236715
1708436411.960122,-2.149925708770752,-1.3362096709064026,-2.5271831194507044,6.131372082024374,1.0183277130126953,-2.5541203657733362
1708436411.9621415,-2.149937152862549,-1.3361892861178895,-2.5271337668048304,6.131388413697042,1.018372654914856,-2.5540836493121546
1708436411.9641123,-2.149914264678955,-1.3361977648786088,-2.5272191206561487,6.131396281510153,1.0183320045471191,-2.5541041533099573
1708436411.9660938,-2.1499950885772705,-1.3361693632653733,-2.5271619001971644,6.131384002953329,1.0183604955673218,-2.554136578236715
1708436411.9681208,-2.149930000305176,-1.3362181645682831,-2.52717096010317,6.131355750351705,1.0183552503585815,-2.554101053868429
1708436411.9701116,-2.1499457359313965,-1.3362096709064026,-2.5272162596331995,6.1313795922096155,1.0183517932891846,-2.554071013127462
1708436411.9721165,-2.1499099731445312,-1.3361935180476685,-2.5271785894977015,6.131310808449545,1.0183385610580444,-2.5541041533099573
1708436411.9740965,-2.1499414443969727,-1.3362258237651368,-2.5272117296801966,6.131299006729879,1.0184086561203003,-2.554128948842184
1708436411.9761162,-2.149880886077881,-1.3362019968083878,-2.527175490056173,6.1313360808189294,1.0184118747711182,-2.5540879408465784
1708436411.9780934,-2.149925708770752,-1.3361812841943284,-2.5271909872638147,6.131376492768087,1.018375039100647,-2.5540998617755335
1708436411.9801033,-2.1499056816101074,-1.3362589937499543,-2.5271921793567103,6.1313538430030725,1.0184248685836792,-2.5541258494006556
1708436411.9821076,-2.149872303009033,-1.3362181198647995,-2.5272026697741907,6.1312914965446375,1.0183956623077393,-2.5541496912585657
1708436411.9841106,-2.1499128341674805,-1.3362386238626023,-2.5272117296801966,6.131331670075216,1.018416166305542,-2.554112736378805
1708436411.9861054,-2.1499171257019043,-1.336177037363388,-2.5272160212146204,6.1313360808189294,1.0183632373809814,-2.554117266331808
1708436411.988097,-2.149921417236328,-1.3362019670060654,-2.5272324720965784,6.1312914965446375,1.0183675289154053,-2.554101053868429
1708436411.9901001,-2.149918556213379,-1.336177022462227,-2.5272117296801966,6.1312914965446375,1.0184074640274048,-2.5541463533984583
1708436411.992103,-2.1499099731445312,-1.3361892861178895,-2.5272071997271937,6.131377923279562,1.018399953842163,-2.5541096369372767
1708436411.9941027,-2.149925708770752,-1.3361566376737137,-2.5271785894977015,6.131270396500387,1.0184204578399658,-2.554047171269552
1708436411.9961066,-2.149928569793701,-1.3362589192441483,-2.5271785894977015,6.131300437241354,1.0184085369110107,-2.554055992756979
1708436411.9981024,-2.1499099731445312,-1.336177037363388,-2.5271742979632776,6.131267416268148,1.0183923244476318,-2.5540722052203577
1708436412.000099,-2.149921417236328,-1.3362299811891098,-2.5271619001971644,6.1313538430030725,1.018404245376587,-2.5540764967547815
1708436412.002122,-2.1499128341674805,-1.3361813437989731,-2.5271664301501673,6.13125108459548,1.0183956623077393,-2.554035488759176
1708436412.0041282,-2.149930000305176,-1.3362139028361817,-2.5271785894977015,6.1312599060829065,1.0183912515640259,-2.5540764967547815
1708436412.0061018,-2.149921417236328,-1.336222456102707,-2.5271909872638147,6.131292569428243,1.018399953842163,-2.5540602842914026
1708436412.0081053,-2.149880886077881,-1.3362258535674592,-2.5271907488452356,6.131243574410238,1.0184204578399658,-2.5540764967547815
1708436412.0101018,-2.149921417236328,-1.3361893159202118,-2.5272443930255335,6.131255495339193,1.0183923244476318,-2.5540321508990687
1708436412.0121052,-2.149914264678955,-1.3362343174270173,-2.5271952787982386,6.131280648499288,1.018359661102295,-2.5540078322040003
1708436412.0141172,-2.149921417236328,-1.3361855012229462,-2.527198378239767,6.131219494133749,1.018399953842163,-2.5540927092181605
1708436412.0161037,-2.1499457359313965,-1.3361693781665345,-2.5271619001971644,6.131261336594381,1.018371820449829,-2.554012123738424
1708436412.0181034,-2.149930000305176,-1.336193547849991,-2.527198378239767,6.131223904877462,1.0184532403945923,-2.5540571848498743
1708436412.0200977,-2.1499667167663574,-1.3362181198647995,-2.5271907488452356,6.1312224743659876,1.018371820449829,-2.554028336201803
1708436412.0220933,-2.149918556213379,-1.3362019819072266,-2.5272191206561487,6.131223904877462,1.0184085369110107,-2.554012123738424
1708436412.0241268,-2.149914264678955,-1.3362745654634018,-2.5271952787982386,6.131270277291097,1.0183923244476318,-2.5539584795581263
1708436412.0260937,-2.1499342918395996,-1.3362138730338593,-2.5271907488452356,6.131219494133749,1.0184118747711182,-2.5540195147143763
1708436412.0281222,-2.149925708770752,-1.3361812692931672,-2.5271664301501673,6.131198632508077,1.0183794498443604,-2.554032866154806
1708436412.0300968,-2.1499667167663574,-1.336168498998024,-2.5272279421435755,6.131219494133749,1.0183837413787842,-2.5539878050433558
1708436412.0320978,-2.1499342918395996,-1.3362428557923813,-2.5272026697741907,6.131240236550131,1.0184204578399658,-2.553967301045553
1708436412.0341475,-2.1499457359313965,-1.3361295771649857,-2.5272160212146204,6.131285178452291,1.018355369567871,-2.55396277109255
1708436412.0361614,-2.149953842163086,-1.3362215620330353,-2.5271785894977015,6.131273257523336,1.0184085369110107,-2.5540083090411585
1708436412.038108,-2.149873733520508,-1.3361849647811432,-2.5271411577807825,6.1312599060829065,1.0183632373809814,-2.55396277109255
1708436412.0401094,-2.149918556213379,-1.336172879939415,-2.5272250811206263,6.1312283156211755,1.018416166305542,-2.5540414492236536
1708436412.0420945,-2.149897575378418,-1.3362139028361817,-2.5271907488452356,6.131223904877462,1.0183794498443604,-2.554020945225851
1708436412.0441363,-2.1498825550079346,-1.3361977648786088,-2.5271664301501673,6.131214964180746,1.018404245376587,-2.554016653691427
1708436412.0461059,-2.149901866912842,-1.3361892861178895,-2.5271952787982386,6.131213056832113,1.0183967351913452,-2.553971592579977
1708436412.048109,-2.149918556213379,-1.3361684691957016,-2.5271831194507044,6.131237256317892,1.0183794498443604,-2.5539758841144007
1708436412.0501194,-2.149921417236328,-1.3362584573081513,-2.52717096010317,6.13120316246108,1.018388032913208,-2.554020945225851
1708436412.0521007,-2.1498894691467285,-1.3361652356437226,-2.527198378239767,6.131156790047445,1.018404245376587,-2.55403715768923
1708436412.0541072,-2.1499342918395996,-1.3362427812865754,-2.5271785894977015,6.131214964180746,1.018399953842163,-2.553999725972311
1708436412.0560977,-2.149930000305176,-1.336185024385788,-2.5272043387042444,6.131261336594381,1.018404245376587,-2.5539584795581263
1708436412.0581017,-2.149925708770752,-1.336193562751152,-2.5271907488452356,6.1312283156211755,1.0183675289154053,-2.553995196019308
1708436412.0601013,-2.149925708770752,-1.3362139177373429,-2.5272401014911097,6.131190883904257,1.0183956623077393,-2.5540414492236536
1708436412.0620983,-2.1499385833740234,-1.3361940395883103,-2.527180020009176,6.1312657473380945,1.018416166305542,-2.553999725972311
1708436412.064141,-2.149901866912842,-1.3361685586026688,-2.5271876494037073,6.131199824600973,1.0183837413787842,-2.5539639631854456
1708436412.0661054,-2.1499342918395996,-1.3362019968083878,-2.5271697680102747,6.131204235344686,1.0184118747711182,-2.554016653691427
1708436412.068122,-2.1499061584472656,-1.3362223964980622,-2.5271831194507044,6.1312283156211755,1.0183429718017578,-2.553955380116598
1708436412.070105,-2.149880886077881,-1.3362307709506531,-2.5272160212146204,6.131270158081808,1.018404245376587,-2.5540040175067347
1708436412.0721588,-2.1498489379882812,-1.3362096560052414,-2.5271530787097376,6.131186473160543,1.018399953842163,-2.55403715768923
1708436412.0741293,-2.1498851776123047,-1.3361855161241074,-2.5271831194507044,6.131204235344686,1.0183956623077393,-2.5539920965777796
1708436412.0761132,-2.1498894691467285,-1.336177037363388,-2.527186457310812,6.131270277291097,1.0184240341186523,-2.5539920965777796
1708436412.0781167,-2.1498937606811523,-1.3361820441535492,-2.5272324720965784,6.131240236550131,1.018388032913208,-2.5539758841144007
1708436412.080125,-2.149930000305176,-1.3362427812865754,-2.5271742979632776,6.131199824600973,1.0183794498443604,-2.5539639631854456
1708436412.0821161,-2.1498780250549316,-1.3362224113992234,-2.5271742979632776,6.131170141487875,1.018375039100647,-2.553999725972311
1708436412.084132,-2.1498894691467285,-1.336193547849991,-2.5271952787982386,6.1312328455741785,1.0183837413787842,-2.5539878050433558
1708436412.0861025,-2.1498358249664307,-1.3361812990954895,-2.527165238057272,6.13119529464797,1.0183923244476318,-2.55396277109255
1708436412.0881257,-2.149880886077881,-1.3362547022155304,-2.5272236506091517,6.131164061814108,1.018388032913208,-2.553967301045553
1708436412.0901144,-2.149869441986084,-1.3362019819072266,-2.52725059190859,6.1311834929283044,1.0184248685836792,-2.553995196019308
1708436412.0921142,-2.1498868465423584,-1.336246134047844,-2.527181927357809,6.131207573204794,1.018399953842163,-2.553995196019308
1708436412.0941126,-2.1498982906341553,-1.336193547849991,-2.5272071997271937,6.131241667061605,1.018376111984253,-2.554032866154806
1708436412.0961,-2.1498937606811523,-1.336238608961441,-2.5271785894977015,6.131211983948507,1.0183632373809814,-2.554024044667379
1708436412.0981011,-2.149869441986084,-1.3362181049636384,-2.5271576086627405,6.1312328455741785,1.0184247493743896,-2.5539820829974573
1708436412.1000972,-2.1499104499816895,-1.336185486321785,-2.5271907488452356,6.131211983948507,1.018416166305542,-2.554054085408346
1708436412.1021233,-2.149918556213379,-1.3362181198647995,-2.527186457310812,6.1312086460884,1.018399953842163,-2.553990427647726
1708436412.104146,-2.1498894691467285,-1.3362138879350205,-2.5272236506091517,6.1311296103294275,1.0183923244476318,-2.554070297871725
1708436412.1061141,-2.149869441986084,-1.3361812990954895,-2.527186457310812,6.131225335388937,1.0183956623077393,-2.5540688673602503
1708436412.108113,-2.149869441986084,-1.336165116434433,-2.5272026697741907,6.131138551026144,1.0184284448623657,-2.5540764967547815
1708436412.1101146,-2.1498656272888184,-1.3361977499774476,-2.527198378239767,6.131220805435934,1.018429160118103,-2.5540440718280237
1708436412.1121116,-2.1498401165008545,-1.3362547022155304,-2.5272026697741907,6.131196725159445,1.018404245376587,-2.554019276295797
1708436412.1141162,-2.1498894691467285,-1.3361779761365433,-2.5271952787982386,6.131171571999349,1.0184074640274048,-2.5541377703296106
1708436412.1161182,-2.1498401165008545,-1.3361685586026688,-2.527177397404806,6.131155240326681,1.0183675289154053,-2.5541203657733362
1708436412.1181116,-2.149841785430908,-1.3362139177373429,-2.5272026697741907,6.131173002510824,1.0183956623077393,-2.55407959619631
1708436412.120122,-2.1498444080352783,-1.336213858132698,-2.5272205511676233,6.131164061814108,1.0183956623077393,-2.5541237036334437
1708436412.1221075,-2.149853229522705,-1.3361812990954895,-2.5272191206561487,6.131193744927206,1.018375039100647,-2.5542059580432337
1708436412.1241045,-2.1498444080352783,-1.3361567121795197,-2.5272191206561487,6.131181823998251,1.018399953842163,-2.554218117390768
1708436412.126104,-2.1498217582702637,-1.3362385642579575,-2.527198139821188,6.131128060608663,1.0184118747711182,-2.554218117390768
1708436412.12811,-2.1498260498046875,-1.3362096858075638,-2.5272637049304407,6.131135570793905,1.018404245376587,-2.554204765950338
1708436412.1301143,-2.149874210357666,-1.3361620765975495,-2.5272520224200647,6.131116378098287,1.0184204578399658,-2.554199520741598
1708436412.132107,-2.149850368499756,-1.3361209493926545,-2.527226511632101,6.131148803025045,1.0183912515640259,-2.5542686621295374
1708436412.1341217,-2.1498093605041504,-1.3361898225596924,-2.527254883443014,6.131071555405416,1.018431544303894,-2.5543747583972376
1708436412.1361668,-2.1498703956604004,-1.3361812990954895,-2.527245823537008,6.131051766663351,1.0184643268585205,-2.554373804722921
1708436412.1381433,-2.1498055458068848,-1.3362062883428116,-2.527288262044088,6.131019103318014,1.018452525138855,-2.5544100443469446
1708436412.1401622,-2.1498265266418457,-1.3362546277097245,-2.527250353490011,6.13100694397048,1.0184612274169922,-2.5544820467578333
1708436412.1421058,-2.1498029232025146,-1.3361898076585312,-2.5272911230670374,6.130996453552999,1.018431544303894,-2.5545056501971644
1708436412.144102,-2.149772882461548,-1.3361779016307374,-2.5273075739489954,6.130989062577047,1.0184928178787231,-2.554558340703146
1708436412.146101,-2.1497650146484375,-1.3361693632653733,-2.5272658506976526,6.131026136666097,1.0184872150421143,-2.5545902887927454
1708436412.1481378,-2.149744749069214,-1.3361578595689316,-2.5273237864123743,6.130941140442648,1.018484115600586,-2.5546215216266077
1708436412.1501029,-2.1497771739959717,-1.3361855161241074,-2.5273194948779505,6.130927789002218,1.0185778141021729,-2.5546777884112757
1708436412.1521292,-2.149749279022217,-1.3362019819072266,-2.527289692555563,6.130879866867819,1.0185778141021729,-2.5546768347369593
1708436412.1541543,-2.1497693061828613,-1.3362224263003846,-2.5273523966418665,6.130884277611532,1.0185812711715698,-2.5547617117511194
1708436412.156115,-2.1497507095336914,-1.3361736846021195,-2.5273435751544397,6.13091396072463,1.0185844898223877,-2.554835621510641
1708436412.158106,-2.1497464179992676,-1.3362019819072266,-2.527339045201437,6.130882370262899,1.0186176300048828,-2.5548980871783655
1708436412.1601062,-2.149700164794922,-1.3362258237651368,-2.527334515248434,6.130830037384786,1.0186207294464111,-2.554922644292013
1708436412.1621106,-2.1496901512145996,-1.3362181198647995,-2.5273552576648157,6.130797016411581,1.0186734199523926,-2.555007521306173
1708436412.164105,-2.149669647216797,-1.3362385642579575,-2.527391497288839,6.130813705712118,1.0186808109283447,-2.55501896539797
1708436412.1661053,-2.1496381759643555,-1.336185486321785,-2.5274036566363733,6.1307105896766565,1.018754005432129,-2.5551071802722376
1708436412.168141,-2.1496992111206055,-1.3362062883428116,-2.5274198690997522,6.130729782372274,1.0187244415283203,-2.555117909108297
1708436412.1701114,-2.149609088897705,-1.3362146478942414,-2.5273857752429407,6.130701172142782,1.0188183784484863,-2.5552433172809046
1708436412.1721148,-2.1496667861938477,-1.3361567121795197,-2.5274351278888147,6.130639898567953,1.0187804698944092,-2.5552294890033167
1708436412.174105,-2.1496596336364746,-1.3361459237388154,-2.52744704881777,6.130653250008383,1.0188207626342773,-2.555396620427267
1708436412.1761053,-2.149590015411377,-1.3362019819072266,-2.527458969746725,6.130584585457601,1.0188941955566406,-2.555394474660055
1708436412.178147,-2.149585723876953,-1.3362019819072266,-2.527478281651632,6.130593406945028,1.0188930034637451,-2.5554381052600306
1708436412.180113,-2.1495585441589355,-1.3362224263003846,-2.527466360722677,6.130564915924825,1.018921136856079,-2.5555596987353724
1708436412.1821175,-2.149582862854004,-1.3362300407937546,-2.5275235811816614,6.130533683090963,1.018896222114563,-2.55566913286318
1708436412.1841276,-2.1495065689086914,-1.336222456102707,-2.527473751698629,6.1304842112358,1.0189334154129028,-2.555744711552755
1708436412.1861138,-2.1495108604431152,-1.3361578595689316,-2.527484718953268,6.130485760956564,1.0190218687057495,-2.5557966868029993
1708436412.1881793,-2.149449110031128,-1.3361977648786088,-2.5275309721576136,6.130431878357687,1.0189965963363647,-2.555856768284933
1708436412.1901102,-2.1494665145874023,-1.3361855161241074,-2.527566973363058,6.130490171700277,1.0190329551696777,-2.555941406880514
1708436412.1921155,-2.149454116821289,-1.3362188947251816,-2.527579132710592,6.130437361985006,1.0190657377243042,-2.5560618082629603
1708436412.1941113,-2.149404764175415,-1.3362188649228592,-2.5275984446154993,6.130434500962057,1.019098162651062,-2.5561378637896937
1708436412.196113,-2.1494107246398926,-1.3362146478942414,-2.5276556650744837,6.130385148316183,1.0190646648406982,-2.5561934153186243
1708436412.1981177,-2.1493911743164062,-1.3362385642579575,-2.5275941530810755,6.13034354427413,1.01914644241333,-2.5562942663775843
1708436412.2001107,-2.149350166320801,-1.3361620765975495,-2.5276270548449915,6.130320894509115,1.0191411972045898,-2.5563939253436487
1708436412.2021172,-2.1493349075317383,-1.3362063032439728,-2.527625624333517,6.130338656693258,1.0192067623138428,-2.5565057436572474
1708436412.2041163,-2.1493349075317383,-1.3361736846021195,-2.527665917073385,6.130293714791097,1.0191901922225952,-2.5566228071795862
