Eg3-git/Classifiers/Data Collection/u4/u4cir3_ur3e_joint_states.csv
time,elbow_joint,shoulder_lift_joint,shoulder_pan_joint,wrist_1_joint,wrist_2_joint,wrist_3_joint
1708436391.3519828,-2.141875982284546,-1.333689661031105,-2.526914660130636,6.111195432930746,1.0177582502365112,-2.2644079367267054
1708436391.354001,-2.141871690750122,-1.3336939972690125,-2.526926581059591,6.111240136414327,1.0177385807037354,-2.2643798033343714
1708436391.3559704,-2.1418631076812744,-1.3336895865252991,-2.526923481618063,6.111268389015951,1.017747163772583,-2.2643712202655237
1708436391.3579826,-2.1418797969818115,-1.3337355864099045,-2.526989523564474,6.11127136924819,1.017768144607544,-2.2643993536578577
1708436391.3600013,-2.1418585777282715,-1.333720625644066,-2.526898447667257,6.111325371056356,1.0176730155944824,-2.264392677937643
1708436391.3619637,-2.1418542861938477,-1.333686576490738,-2.526947561894552,6.111253249436178,1.0177385807037354,-2.2643378416644495
1708436391.3639793,-2.141895294189453,-1.3336732250503083,-2.5268951098071497,6.111328232079305,1.017669677734375,-2.2643712202655237
1708436391.3659656,-2.14186692237854,-1.3337192249349137,-2.52690297762026,6.111307370453634,1.0176653861999512,-2.2644169966327112
1708436391.3679626,-2.141845703125,-1.333661363725998,-2.526869599019186,6.111355054169454,1.017674207687378,-2.2644036451922815
1708436391.36999,-2.141909599304199,-1.3337236058763047,-2.5268619696246546,6.111372935562887,1.0176947116851807,-2.264413658772604
1708436391.3719952,-2.141951560974121,-1.3337444526008149,-2.5269323031054896,6.111347663193502,1.017674207687378,-2.2643755117999476
1708436391.3739748,-2.1419262886047363,-1.3337028932622452,-2.5268951098071497,6.111355054169454,1.0176870822906494,-2.264404598866598
1708436391.3759696,-2.141913414001465,-1.3336702299169083,-2.5269327799426478,6.111372935562887,1.0176752805709839,-2.2643969694720667
1708436391.377977,-2.141925573348999,-1.3337117445519944,-2.5268951098071497,6.111380684166708,1.017659068107605,-2.264355484639303
1708436391.3799815,-2.141930103302002,-1.3336657893708725,-2.5268710295306605,6.111343133240499,1.0176337957382202,-2.264355484639303
1708436391.382051,-2.141921281814575,-1.3336851459792634,-2.5268636385547083,6.11141191700057,1.0176870822906494,-2.264355484639303
1708436391.383972,-2.1419460773468018,-1.33373116076503,-2.5268290678607386,6.111407506256857,1.017638087272644,-2.2643187681781214
1708436391.3859627,-2.141974925994873,-1.3336657744697114,-2.5268471876727503,6.11141978481368,1.017638087272644,-2.264351193104879
1708436391.387984,-2.141993522644043,-1.3336746257594605,-2.526863400136129,6.111395585327902,1.017622709274292,-2.2643631140338343
1708436391.3899863,-2.1420063972473145,-1.3337147694877167,-2.5267935434924524,6.111468541413107,1.017643690109253,-2.264355484639303
1708436391.3920481,-2.1419663429260254,-1.3337311458638688,-2.526839796696798,6.1113730547721765,1.017643690109253,-2.2643469015704554
1708436391.3939748,-2.141982078552246,-1.3337073189071198,-2.52682334581484,6.111380445748129,1.017594337463379,-2.2643759886371058
1708436391.3959637,-2.1420059204101562,-1.3337267202189942,-2.5268471876727503,6.111464011460104,1.017609715461731,-2.264343563710348
1708436391.397965,-2.1419620513916016,-1.333702878361084,-2.526856247578756,6.111459481507101,1.0176022052764893,-2.2643521467791956
1708436391.3999703,-2.1420016288757324,-1.3336940121701737,-2.5268645922290247,6.111516701966085,1.0175824165344238,-2.2643025557147425
1708436391.4019911,-2.1420140266418457,-1.3336579215577622,-2.526799027119772,6.111501800804891,1.0176109075546265,-2.264290157948629
1708436391.4039721,-2.1420552730560303,-1.333702878361084,-2.526867691670553,6.111512052803793,1.0175986289978027,-2.264355484639303
1708436391.405978,-2.1420719623565674,-1.333702878361084,-2.5268221537219446,6.111486661225118,1.0175836086273193,-2.264327351246969
1708436391.4079764,-2.142047166824341,-1.3337073040059586,-2.526856247578756,6.11147021034316,1.0175539255142212,-2.264339272175924
1708436391.409997,-2.1420509815216064,-1.333716244702675,-2.5268190542804163,6.111527192383566,1.017562747001648,-2.2643759886371058
1708436391.4119644,-2.142042398452759,-1.3336865168860932,-2.52677828470339,6.111489522248068,1.017541766166687,-2.2643759886371058
1708436391.4139702,-2.142029285430908,-1.333702878361084,-2.5268033186541956,6.1115362522895715,1.017541766166687,-2.2643631140338343
1708436391.4159966,-2.14206600189209,-1.3337236505797883,-2.5268526713000696,6.111494052201071,1.0175211429595947,-2.264323059712545
1708436391.417979,-2.1421072483062744,-1.333702878361084,-2.5267913977252405,6.111534583359518,1.0175670385360718,-2.264327351246969
1708436391.4199905,-2.1420817375183105,-1.3337355864099045,-2.526848379765646,6.111537921219625,1.017497181892395,-2.2643469015704554
1708436391.4219735,-2.1420459747314453,-1.3336821359447022,-2.5268076101886194,6.111553895264425,1.0175342559814453,-2.2643640677081507
1708436391.4240122,-2.142061710357666,-1.3337073487094422,-2.5267661253558558,6.111521112709799,1.0174567699432373,-2.264327351246969
1708436391.4259717,-2.142011880874634,-1.333702878361084,-2.5267751852618616,6.1116124270255945,1.0175014734268188,-2.264343563710348
1708436391.427989,-2.1420488357543945,-1.333735541706421,-2.526820246373312,6.111577737122335,1.017498254776001,-2.264355484639303
1708436391.429963,-2.142073154449463,-1.3336865317872544,-2.526827637349264,6.111619818001547,1.017448902130127,-2.264331642781393
1708436391.4319735,-2.1421022415161133,-1.333694041972496,-2.526799027119772,6.11156581619338,1.017510175704956,-2.264371697102682
1708436391.4339547,-2.142068862915039,-1.333702878361084,-2.5267913977252405,6.111577737122335,1.0174654722213745,-2.2643564383136194
1708436391.4359653,-2.142117977142334,-1.3337148141912003,-2.5267913977252405,6.111577737122335,1.0174741744995117,-2.264339272175924
1708436391.4379838,-2.1421005725860596,-1.33373116076503,-2.5267837683307093,6.111594426422872,1.017448902130127,-2.264371697102682
1708436391.4399798,-2.1421306133270264,-1.3337355715087433,-2.5267301241504114,6.1116018173988245,1.017482042312622,-2.264339272175924
1708436391.4419909,-2.1421306133270264,-1.3337311458638688,-2.5267794767962855,6.111585485726156,1.0175025463104248,-2.264343563710348
1708436391.444027,-2.142080545425415,-1.3336866360953827,-2.5267425219165247,6.111631738930502,1.0175025463104248,-2.264359776173727
1708436391.4460008,-2.142117500305176,-1.333690957432129,-2.5267632643329065,6.111672270088949,1.0174907445907593,-2.264327351246969
1708436391.447966,-2.142134189605713,-1.3336984378150483,-2.5267558733569544,6.111646878510275,1.0174951553344727,-2.264290157948629
1708436391.4499793,-2.142108917236328,-1.3337281060269852,-2.5267513434039515,6.111601936608114,1.0174576044082642,-2.264347855244772
1708436391.4519804,-2.1421384811401367,-1.3337683093598862,-2.5267513434039515,6.111670362740316,1.0174500942230225,-2.2643893400775355
1708436391.4539876,-2.1421217918395996,-1.333702878361084,-2.5267470518695276,6.111633527069845,1.0174424648284912,-2.2643640677081507
1708436391.455963,-2.1421570777893066,-1.3336490553668519,-2.526788298283712,6.1116614220436,1.0174251794815063,-2.26431113878359
1708436391.4579856,-2.1421737670898438,-1.333677665596344,-2.5267556349383753,6.111665951996603,1.017405390739441,-2.264290157948629
1708436391.4599717,-2.1421456336975098,-1.3337072891047974,-2.5267186800586146,6.111636388092794,1.0174185037612915,-2.264327351246969
1708436391.4620144,-2.142141342163086,-1.3337355715087433,-2.5267141501056116,6.111640918045797,1.0173888206481934,-2.2643073240863245
1708436391.463976,-2.1421282291412354,-1.333702878361084,-2.526748005543844,6.111699092179098,1.0174096822738647,-2.2643073240863245
1708436391.4659827,-2.142186164855957,-1.333714799290039,-2.526771847401754,6.111685621529379,1.0174219608306885,-2.2643187681781214
1708436391.4679892,-2.1421656608581543,-1.333744378095009,-2.5267348925219935,6.111688482552328,1.0174262523651123,-2.26431113878359
1708436391.4699726,-2.142165184020996,-1.3336821061423798,-2.526715103779928,6.111735093384542,1.017401933670044,-2.2643073240863245
1708436391.471972,-2.1422176361083984,-1.333702878361084,-2.5267513434039515,6.111726033478536,1.0173975229263306,-2.2643640677081507
1708436391.4740174,-2.1421947479248047,-1.3336984676173707,-2.526715103779928,6.111709344177999,1.0174096822738647,-2.264285389577047
1708436391.4759533,-2.142209053039551,-1.333702878361084,-2.5266945997821253,6.111735093384542,1.0173691511154175,-2.264355484639303
1708436391.4779806,-2.1422133445739746,-1.333702878361084,-2.5267019907580774,6.111793386727133,1.0173603296279907,-2.2643640677081507
1708436391.4799545,-2.1421732902526855,-1.3337474328330536,-2.526727263127462,6.1117379544074915,1.0174062252044678,-2.264290157948629
1708436391.4819582,-2.1421844959259033,-1.333710328941681,-2.5267391840564173,6.111787545471945,1.0174106359481812,-2.2643240133868616
1708436391.4840171,-2.1421732902526855,-1.3336865466884156,-2.526727263127462,6.111726033478536,1.0173944234848022,-2.264327351246969
1708436391.4859555,-2.1422226428985596,-1.333702878361084,-2.526743475590841,6.111769544869222,1.0173813104629517,-2.264319721852438
1708436391.487969,-2.1421959400177,-1.3337192249349137,-2.526727263127462,6.11174093463973,1.0173975229263306,-2.264327351246969
1708436391.4899952,-2.1422383785247803,-1.333735541706421,-2.526743475590841,6.111757266312399,1.0173944234848022,-2.264289681111471
1708436391.4919655,-2.1422269344329834,-1.3337533485940476,-2.526686731969015,6.1117663262184045,1.0174150466918945,-2.264315430318014
1708436391.4939988,-2.142200231552124,-1.3336613488248368,-2.526719633732931,6.111773955612936,1.0173540115356445,-2.2643283049212855
1708436391.4959764,-2.1421916484832764,-1.3336790365031739,-2.526723925267355,6.111781108170309,1.017324686050415,-2.264315430318014
1708436391.4979985,-2.142270803451538,-1.3337355715087433,-2.526743475590841,6.111785638123312,1.0173790454864502,-2.2643073240863245
1708436391.5000155,-2.142266273498535,-1.333702878361084,-2.526686970387594,6.111830699234762,1.0173702239990234,-2.2643521467791956
1708436391.5019643,-2.142220973968506,-1.3337400567582627,-2.526715103779928,6.111806380539694,1.0173165798187256,-2.264339272175924
1708436391.5039732,-2.1422576904296875,-1.33373116076503,-2.5267325083362024,6.111783969193258,1.0173790454864502,-2.2643683592425745
1708436391.505977,-2.142289876937866,-1.3337028634599228,-2.526715103779928,6.111785638123312,1.0173583030700684,-2.2643402258502405
1708436391.5079827,-2.14224910736084,-1.3337682497552414,-2.526710812245504,6.111821639328756,1.0173089504241943,-2.2642739454852503
1708436391.5099854,-2.142270088195801,-1.333702878361084,-2.526682202016012,6.11181269863204,1.0173583030700684,-2.2643359343158167
1708436391.5119686,-2.1422367095947266,-1.333702878361084,-2.526695791875021,6.1118754027183435,1.0173671245574951,-2.2643139998065394
1708436391.5140343,-2.1422574520111084,-1.3337444824031373,-2.526686731969015,6.111826169281759,1.0173134803771973,-2.264315430318014
1708436391.5160034,-2.1422574520111084,-1.3336953830770035,-2.5266619364367884,6.111833560257711,1.0173134803771973,-2.264315430318014
1708436391.5179784,-2.142322540283203,-1.3337236505797883,-2.526670519505636,6.111902105599203,1.0173251628875732,-2.264331642781393
1708436391.519993,-2.142265796661377,-1.3337222945741196,-2.526658598576681,6.111906635552206,1.0173089504241943,-2.264294449483053
1708436391.5219653,-2.142268419265747,-1.3337267351201554,-2.526707712803976,6.111899602204122,1.01728093624115,-2.2643683592425745
1708436391.523999,-2.1422886848449707,-1.3337355715087433,-2.526686731969015,6.1118483422096155,1.0173296928405762,-2.2643030325519007
1708436391.5259635,-2.1422841548919678,-1.333714799290039,-2.5267325083362024,6.1118860123451135,1.017317771911621,-2.2643445173846644
1708436391.5279624,-2.1422929763793945,-1.333702878361084,-2.526679340993063,6.1118860123451135,1.0172773599624634,-2.264331642781393
1708436391.5299954,-2.142317771911621,-1.3336491000703354,-2.5267000834094446,6.111830460816183,1.0172861814498901,-2.2643116156207483
1708436391.5319602,-2.142317771911621,-1.3336806756309052,-2.526658598576681,6.1118975756462,1.01728093624115,-2.26431113878359
1708436391.5339975,-2.142268419265747,-1.3336865317872544,-2.5266836325274866,6.111879694252767,1.0172860622406006,-2.2643402258502405
1708436391.5359712,-2.1422712802886963,-1.3337519031814118,-2.5266998449908655,6.111954676895895,1.0172687768936157,-2.264347855244772
1708436391.5379677,-2.142333507537842,-1.3337474924376984,-2.5266955534564417,6.111990678101339,1.0172860622406006,-2.264348808919088
1708436391.5399914,-2.1423091888427734,-1.3336688441089173,-2.5266955534564417,6.111944305687704,1.0172370672225952,-2.264355484639303
1708436391.541971,-2.142333507537842,-1.333641604786255,-2.526658360158102,6.111933696060934,1.0172785520553589,-2.2643030325519007
1708436391.5440042,-2.14229679107666,-1.333702878361084,-2.5266626516925257,6.11199055889205,1.017274260520935,-2.2643030325519007
1708436391.5459845,-2.1423091888427734,-1.3336776953986664,-2.5266509691821497,6.111957776337423,1.017274260520935,-2.2643240133868616
1708436391.5479677,-2.1423091888427734,-1.3336865317872544,-2.5266879240619105,6.111936557083883,1.0172785520553589,-2.264319721852438
1708436391.5499742,-2.1423492431640625,-1.333698422913887,-2.526646677647726,6.111965286522665,1.017224907875061,-2.2643445173846644
1708436391.5519652,-2.142336368560791,-1.3336940270713349,-2.526646677647726,6.1119247553642175,1.0172457695007324,-2.264294449483053
1708436391.5539837,-2.1423449516296387,-1.3336732697537919,-2.5266714731799524,6.11197708824233,1.0172576904296875,-2.2643359343158167
1708436391.5559685,-2.1423654556274414,-1.3337267202189942,-2.5266595522509974,6.112009870796957,1.0172829627990723,-2.264291588460104
1708436391.5579805,-2.1423449516296387,-1.333702878361084,-2.5266299883471888,6.111944186478414,1.0172576904296875,-2.264323059712545
1708436391.5599709,-2.142332077026367,-1.3336821061423798,-2.526662890111105,6.111989009171285,1.0172370672225952,-2.2643402258502405
1708436391.5619652,-2.1423611640930176,-1.3336656552604218,-2.5266552607165735,6.11197708824233,1.0172457695007324,-2.2643359343158167
1708436391.5639935,-2.1423654556274414,-1.3337267202189942,-2.5266509691821497,6.111989009171285,1.0172336101531982,-2.2643030325519007
1708436391.566019,-2.1423611640930176,-1.333685190682747,-2.5266595522509974,6.111972677498617,1.0172501802444458,-2.2643073240863245
1708436391.5679731,-2.1423654556274414,-1.3336864870837708,-2.5266714731799524,6.112033712654867,1.0172576904296875,-2.264347855244772
1708436391.5700195,-2.142374038696289,-1.3337103736451645,-2.5266552607165735,6.111982929497518,1.0172414779663086,-2.264315430318014
1708436391.5719917,-2.1423826217651367,-1.3337355715087433,-2.5266340414630335,6.1119964001472376,1.0172619819641113,-2.2643116156207483
1708436391.5739763,-2.1423697471618652,-1.33370594800029,-2.5266299883471888,6.112032162934103,1.0172216892242432,-2.264258686696188
1708436391.5759873,-2.142374038696289,-1.3337355715087433,-2.5266552607165735,6.111991989403524,1.017237901687622,-2.2643001715289515
1708436391.5779731,-2.1423611640930176,-1.3336821061423798,-2.5266180674182337,6.112102615624227,1.0172501802444458,-2.264347855244772
1708436391.5799644,-2.1423768997192383,-1.3337386411479493,-2.5266225973712366,6.112057912140646,1.0172336101531982,-2.26431113878359
1708436391.5819643,-2.1423611640930176,-1.3337355715087433,-2.5266836325274866,6.1120067713554285,1.0172303915023804,-2.2642739454852503
1708436391.5839627,-2.1423611640930176,-1.3337028634599228,-2.5266388098346155,6.112065303116598,1.0172054767608643,-2.2643359343158167
1708436391.5860012,-2.142388343811035,-1.3337236505797883,-2.5266552607165735,6.1120890257652185,1.017209768295288,-2.2643240133868616
1708436391.5879896,-2.1423654556274414,-1.3336940270713349,-2.5266884008990687,6.112039911537924,1.0172291994094849,-2.264315430318014
1708436391.5899985,-2.142385482788086,-1.3337103736451645,-2.5266385714160364,6.112081753998556,1.0172141790390015,-2.2643030325519007
1708436391.5919852,-2.1423568725585938,-1.3337519478848954,-2.5266431013690394,6.112081634789266,1.017237901687622,-2.2643073240863245
1708436391.5939786,-2.142396926879883,-1.3337267202189942,-2.5266800562488,6.112059104233541,1.017212986946106,-2.2642739454852503
1708436391.5959609,-2.14235258102417,-1.3337430667928238,-2.5266266504870813,6.112080085068502,1.0172054767608643,-2.264319721852438
1708436391.597986,-2.1423840522766113,-1.3337311458638688,-2.526655975972311,6.112054812699117,1.017197608947754,-2.264291588460104
1708436391.5999856,-2.1423840522766113,-1.3337222945741196,-2.526680294667379,6.112051832466879,1.0172793865203857,-2.26428729692568
1708436391.6019769,-2.1423611640930176,-1.3336970222047348,-2.526661221181051,6.112101304322042,1.0172141790390015,-2.2643564383136194
1708436391.603978,-2.1424062252044678,-1.3337430667928238,-2.526639763508932,6.112122165947714,1.017197608947754,-2.2643402258502405
1708436391.605976,-2.142388343811035,-1.3337103736451645,-2.526668373738424,6.11212037780837,1.0171889066696167,-2.264298741017477
1708436391.6079674,-2.1424219608306885,-1.3337267202189942,-2.5266268889056605,6.112166988640585,1.0172054767608643,-2.2643726507769983
1708436391.6100528,-2.142404556274414,-1.3337103736451645,-2.526619259511129,6.112128126412191,1.0171889066696167,-2.2643774191485804
1708436391.6119916,-2.1424176692962646,-1.3336984527162095,-2.526635471974508,6.112162458687582,1.0172141790390015,-2.2642791906939905
1708436391.613995,-2.1424219608306885,-1.3337222945741196,-2.5265987555133265,6.11212037780837,1.0171931982040405,-2.264315430318014
1708436391.6159782,-2.142437696456909,-1.3337474924376984,-2.5265780130969446,6.112099754601278,1.0172303915023804,-2.26428729692568
1708436391.617991,-2.1424202919006348,-1.3337311458638688,-2.5265987555133265,6.11212037780837,1.017209768295288,-2.2643283049212855
1708436391.6200101,-2.14235258102417,-1.3337103587440033,-2.5266268889056605,6.112099754601278,1.017225980758667,-2.2643359343158167
1708436391.6219845,-2.1424002647399902,-1.3337638241103669,-2.5266149679767054,6.112128007202902,1.0172303915023804,-2.26431113878359
1708436391.624014,-2.1423795223236084,-1.3337594133666535,-2.526635471974508,6.112124788552084,1.0171691179275513,-2.2643073240863245
1708436391.625992,-2.142436981201172,-1.3337474924376984,-2.5266311804400843,6.112157809525289,1.0172141790390015,-2.264298741017477
1708436391.6279778,-2.1424219608306885,-1.3337133687785645,-2.5266595522509974,6.112078773766317,1.017225980758667,-2.264327351246969
1708436391.6299636,-2.1424455642700195,-1.333772675400116,-2.5266061464892786,6.112141477852621,1.0171889066696167,-2.264291588460104
1708436391.6320152,-2.1424176692962646,-1.3337672364762803,-2.526672665272848,6.11214445808486,1.0171846151351929,-2.264270607625143
1708436391.6340106,-2.142393112182617,-1.333740012054779,-2.526663843785421,6.112156379013815,1.017209768295288,-2.2643402258502405
1708436391.6359525,-2.1423752307891846,-1.3337015372565766,-2.526655975972311,6.112177240639486,1.017209768295288,-2.264331642781393
1708436391.6379704,-2.142436981201172,-1.3337222945741196,-2.5266552607165735,6.112140047341146,1.0171769857406616,-2.2643731276141565
1708436391.6399765,-2.1423709392547607,-1.3337386411479493,-2.5266385714160364,6.112123596459188,1.0172019004821777,-2.26431113878359
1708436391.6419525,-2.1424412727355957,-1.3337505620769043,-2.526623551045553,6.112169849663534,1.0172184705734253,-2.2643564383136194
1708436391.643981,-2.1423888206481934,-1.3337430667928238,-2.5266268889056605,6.112090813904562,1.0171900987625122,-2.2643116156207483
1708436391.6459634,-2.142436981201172,-1.3337760728648682,-2.5265868345843714,6.112139928131857,1.017197608947754,-2.2643116156207483
1708436391.648005,-2.1424288749694824,-1.3337549728206177,-2.5266311804400843,6.112172710686483,1.017225980758667,-2.264315907155172
1708436391.650056,-2.142408847808838,-1.3337594133666535,-2.5266030470477503,6.1121535179908655,1.017194390296936,-2.2642958799945276
1708436391.651987,-2.1424736976623535,-1.333717868929245,-2.526651684437887,6.1121489880378626,1.0171889066696167,-2.2643073240863245
1708436391.654016,-2.1424131393432617,-1.3337638241103669,-2.5266106764422815,6.112151968270101,1.0171648263931274,-2.264266316090719
1708436391.6559713,-2.1423959732055664,-1.3337133687785645,-2.5266030470477503,6.1121325371559045,1.017181396484375,-2.2643402258502405
1708436391.6579769,-2.1424694061279297,-1.3337386411479493,-2.526627842579977,6.1121429083640955,1.017197608947754,-2.2643116156207483
1708436391.6600223,-2.1424245834350586,-1.3337342155030747,-2.5266311804400843,6.112156379013815,1.0171856880187988,-2.2643116156207483
1708436391.661975,-2.1423888206481934,-1.3337386411479493,-2.526619259511129,6.112156379013815,1.017197608947754,-2.2643001715289515
1708436391.6639624,-2.142449378967285,-1.333729700451233,-2.526644293461935,6.112160789757528,1.0171726942062378,-2.2643030325519007
1708436391.6659691,-2.142362356185913,-1.3337760728648682,-2.5266268889056605,6.112139928131857,1.0172019004821777,-2.264315907155172
1708436391.6679688,-2.1424131393432617,-1.3337015372565766,-2.5266311804400843,6.112151968270101,1.017197608947754,-2.2643283049212855
1708436391.6700227,-2.142375946044922,-1.3337342006019135,-2.526635471974508,6.112172710686483,1.017225980758667,-2.2643030325519007
1708436391.6719713,-2.1423888206481934,-1.3337222945741196,-2.526647392903463,6.112180459290304,1.017181396484375,-2.2643240133868616
1708436391.6740277,-2.142457962036133,-1.3337682497552414,-2.526619259511129,6.112172710686483,1.0172346830368042,-2.2642748991595667
1708436391.6759832,-2.1424694061279297,-1.3337968450835724,-2.5266311804400843,6.112156379013815,1.017209768295288,-2.2642715612994593
1708436391.6779711,-2.1424202919006348,-1.3337879937938233,-2.526651684437887,6.112171518593588,1.017209768295288,-2.2643240133868616
1708436391.6799977,-2.1424245834350586,-1.3337133687785645,-2.5266149679767054,6.11218951919631,1.0171900987625122,-2.264315907155172
1708436391.6819947,-2.1423802375793457,-1.3337682497552414,-2.526619259511129,6.1121429083640955,1.0171931982040405,-2.2642834822284144
1708436391.6839793,-2.142432689666748,-1.333758295779564,-2.526619259511129,6.11218951919631,1.0171735286712646,-2.264280144368307
1708436391.6859903,-2.142432689666748,-1.33370894313369,-2.526623551045553,6.1121429083640955,1.017181396484375,-2.264258686696188
1708436391.6879716,-2.142457962036133,-1.333729700451233,-2.5265987555133265,6.112163769989767,1.017209768295288,-2.264238182698385
1708436391.6899822,-2.1423888206481934,-1.3337638241103669,-2.5265985170947474,6.1121548292930505,1.0172141790390015,-2.2642553488360804
1708436391.6919641,-2.142350912094116,-1.333717868929245,-2.526635471974508,6.11218951919631,1.017197608947754,-2.2642748991595667
1708436391.6939743,-2.142416000366211,-1.3336984527162095,-2.5266149679767054,6.112097847252645,1.0172184705734253,-2.264292065297262
1708436391.6960032,-2.1424241065979004,-1.33370894313369,-2.526672665272848,6.112208831101217,1.017197608947754,-2.264242951069967
1708436391.6979632,-2.1424694061279297,-1.3336970222047348,-2.5266106764422815,6.112139928131857,1.0172228813171387,-2.2642553488360804
1708436391.700005,-2.142449378967285,-1.3337386411479493,-2.526647392903463,6.112142789154806,1.0171735286712646,-2.2642672697650355
1708436391.7019591,-2.1424694061279297,-1.3337474924376984,-2.526651922856466,6.112128007202902,1.0171691179275513,-2.264259640370504
1708436391.7039647,-2.1424622535705566,-1.3337342155030747,-2.5266061464892786,6.112140047341146,1.0171769857406616,-2.2642386595355433
1708436391.7059755,-2.142432689666748,-1.333772675400116,-2.526635471974508,6.11218951919631,1.0172346830368042,-2.264275852833883
1708436391.7079616,-2.142453670501709,-1.3336762499860306,-2.5266640822040003,6.112192380219259,1.0171856880187988,-2.264259640370504
1708436391.709976,-2.1424002647399902,-1.333783597951271,-2.526651684437887,6.11218951919631,1.0172019004821777,-2.2642834822284144
1708436391.7120194,-2.142408847808838,-1.333754987721779,-2.5265944639789026,6.112177240639486,1.017181396484375,-2.264287773762838
1708436391.7139626,-2.142416000366211,-1.3337760728648682,-2.5265985170947474,6.11213098743514,1.0172141790390015,-2.2642715612994593
1708436391.7159555,-2.142458200454712,-1.3337627214244385,-2.5266149679767054,6.1121264574821375,1.0171889066696167,-2.2642629782306116
1708436391.7179704,-2.142428398132324,-1.3337015372565766,-2.526672665272848,6.1121816513831995,1.017209768295288,-2.264259640370504
1708436391.7199914,-2.1424694061279297,-1.3337311458638688,-2.5266431013690394,6.112159240036764,1.0171931982040405,-2.264263931904928
1708436391.7219734,-2.1424202919006348,-1.3336970222047348,-2.5266311804400843,6.112192380219259,1.0172141790390015,-2.2642844359027308
1708436391.723969,-2.142465114593506,-1.3337505620769043,-2.5266552607165735,6.112151968270101,1.017197608947754,-2.264247242604391
1708436391.726,-2.142436981201172,-1.3337222945741196,-2.526619259511129,6.112147319107809,1.0171931982040405,-2.264268223439352
1708436391.728005,-2.1423845291137695,-1.3337386411479493,-2.526647392903463,6.112201440125265,1.0171769857406616,-2.264214817677633
1708436391.730021,-2.1424074172973633,-1.3337386411479493,-2.526619259511129,6.112130868225851,1.0171931982040405,-2.2642558256732386
1708436391.7320306,-2.1424202919006348,-1.333717868929245,-2.5265942255603235,6.112177240639486,1.0171725749969482,-2.264247242604391
1708436391.7339997,-2.1424002647399902,-1.3337430667928238,-2.526635471974508,6.112169849663534,1.0172054767608643,-2.264292065297262
1708436391.7360318,-2.142436981201172,-1.3337222945741196,-2.5266268889056605,6.11216829994277,1.0171931982040405,-2.264247242604391
1708436391.737963,-2.142449378967285,-1.3337627214244385,-2.526635471974508,6.112123596459188,1.017209768295288,-2.264259640370504
1708436391.7399905,-2.1424667835235596,-1.3337103736451645,-2.526663843785421,6.112139928131857,1.0171735286712646,-2.264292065297262
1708436391.7419875,-2.1424455642700195,-1.3337746423533936,-2.526647392903463,6.1121489880378626,1.0172141790390015,-2.264259640370504
1708436391.7439773,-2.142408847808838,-1.3336970222047348,-2.526647392903463,6.112185108452596,1.0171889066696167,-2.2642558256732386
1708436391.7459617,-2.142432689666748,-1.3337133687785645,-2.52661377588381,6.11218951919631,1.0172228813171387,-2.2642558256732386
1708436391.7479603,-2.142460823059082,-1.3337386411479493,-2.526647392903463,6.112194049149313,1.0171726942062378,-2.2642558256732386
1708436391.7499592,-2.1423845291137695,-1.3337222945741196,-2.5266311804400843,6.11214445808486,1.0172019004821777,-2.2642114798175257
1708436391.7519627,-2.142432689666748,-1.3337267202189942,-2.5266147295581263,6.112135517388143,1.0172141790390015,-2.264235798512594
1708436391.7539735,-2.142393112182617,-1.3337342155030747,-2.526647392903463,6.112119066506185,1.0172086954116821,-2.2642200628863733
1708436391.755969,-2.1424455642700195,-1.3337594133666535,-2.5265823046313685,6.11213098743514,1.017258882522583,-2.264207188283102
1708436391.7579746,-2.142449378967285,-1.3337627214244385,-2.5266388098346155,6.112123596459188,1.0172184705734253,-2.2642114798175257
1708436391.759949,-2.1424412727355957,-1.3337267202189942,-2.5266268889056605,6.112128007202902,1.017242193222046,-2.264190975819723
1708436391.761975,-2.142432689666748,-1.3336688441089173,-2.5266714731799524,6.112140047341146,1.017209768295288,-2.264190975819723
1708436391.7639868,-2.142416000366211,-1.3337430667928238,-2.526607338582174,6.112141477852621,1.017225980758667,-2.2642276922809046
1708436391.7659984,-2.1423959732055664,-1.33370594800029,-2.5266388098346155,6.112186300545492,1.0172054767608643,-2.2642319838153284
1708436391.7679753,-2.1424455642700195,-1.333754987721779,-2.5266388098346155,6.11214445808486,1.0172184705734253,-2.2641871611224573
1708436391.7699647,-2.1424002647399902,-1.3337133687785645,-2.5266431013690394,6.112115847855367,1.0172011852264404,-2.2641871611224573
1708436391.771967,-2.142453670501709,-1.3337999147227784,-2.5266225973712366,6.112135517388143,1.017209768295288,-2.264167133961813
1708436391.7740262,-2.142404556274414,-1.3337849837592621,-2.5265892187701624,6.11208342292861,1.017242193222046,-2.2642157713519495
1708436391.775964,-2.1423959732055664,-1.3337672364762803,-2.526663843785421,6.112075555115499,1.0172141790390015,-2.2641995588885706
1708436391.7779698,-2.142416000366211,-1.3337342155030747,-2.5266030470477503,6.112128007202902,1.0172173976898193,-2.264191452656881
1708436391.7799668,-2.1424202919006348,-1.3337505620769043,-2.5266431013690394,6.1120879528816126,1.0172216892242432,-2.2641871611224573
1708436391.7819636,-2.142449378967285,-1.333758295779564,-2.526597563420431,6.1121370671089075,1.0172011852264404,-2.264167133961813
1708436391.783971,-2.142362356185913,-1.3337311458638688,-2.5266061464892786,6.112146007805624,1.017212986946106,-2.2641142050372522
1708436391.785992,-2.1424202919006348,-1.3337968450835724,-2.5266388098346155,6.112099754601278,1.0172054767608643,-2.264212433491842
1708436391.787969,-2.142404556274414,-1.3337386411479493,-2.526647392903463,6.112150537758627,1.0172544717788696,-2.264195744191305
1708436391.7899778,-2.142453670501709,-1.333720864062645,-2.5266552607165735,6.112099754601278,1.0172793865203857,-2.2641761938678187
1708436391.7919786,-2.1424667835235596,-1.3337355715087433,-2.5266268889056605,6.112099754601278,1.0172173976898193,-2.2641428152667444
1708436391.7940068,-2.1424412727355957,-1.333754987721779,-2.526663843785421,6.112066614418783,1.017209768295288,-2.2642043272601526
1708436391.7959669,-2.1424288749694824,-1.3337879937938233,-2.5266595522509974,6.112038361817159,1.0172303915023804,-2.2641599814044397
1708436391.797989,-2.142393112182617,-1.333743081693985,-2.5266714731799524,6.112059223442831,1.0172054767608643,-2.2641757170306605
1708436391.799961,-2.142437696456909,-1.3337015372565766,-2.5266061464892786,6.112047302513876,1.0172054767608643,-2.264139477406637
1708436391.8019598,-2.142404556274414,-1.333754987721779,-2.5266225973712366,6.112056362419882,1.017242193222046,-2.264155689870016
1708436391.8039904,-2.142453670501709,-1.333783597951271,-2.526601854954855,6.112053382187643,1.017209768295288,-2.2641227881061
1708436391.8059652,-2.1423752307891846,-1.333717868929245,-2.5266929308520716,6.112050163536825,1.0172085762023926,-2.2641590277301233
1708436391.807976,-2.1424202919006348,-1.3337474924376984,-2.5266595522509974,6.112053382187643,1.017212986946106,-2.264143768941061
1708436391.8099835,-2.1424219608306885,-1.3337267202189942,-2.5266149679767054,6.112054574280538,1.0172216892242432,-2.264115635548727
1708436391.811989,-2.142404556274414,-1.3337909889272233,-2.5266552607165735,6.112003910332479,1.0172054767608643,-2.264143768941061
1708436391.8139954,-2.1424334049224854,-1.3337104183486481,-2.5266225973712366,6.112012851029196,1.0172544717788696,-2.264111344014303
1708436391.8159711,-2.1424334049224854,-1.3337460470250626,-2.526647392903463,6.111993539124288,1.0172291994094849,-2.264090363179342
1708436391.8180203,-2.142408847808838,-1.3337296855500718,-2.5266552607165735,6.111956226616659,1.017237901687622,-2.2641313711749476
1708436391.819999,-2.1424131393432617,-1.3337103736451645,-2.526663843785421,6.11197708824233,1.0172204971313477,-2.2640913168536585
1708436391.8220835,-2.1424500942230225,-1.3337924194386979,-2.5266147295581263,6.111969697266378,1.0172291994094849,-2.264046017323629
1708436391.8240106,-2.142408847808838,-1.33370594800029,-2.526651684437887,6.111997949868002,1.0172663927078247,-2.2641242186175745
1708436391.825984,-2.1424500942230225,-1.3337627214244385,-2.5266595522509974,6.111948716431417,1.0172544717788696,-2.2641199270831507
1708436391.8279774,-2.1424176692962646,-1.3337430965951462,-2.526647392903463,6.111900555878439,1.017274260520935,-2.264094654713766
1708436391.829972,-2.142432689666748,-1.3337342006019135,-2.526684586201803,6.111962306290426,1.0172173976898193,-2.2641313711749476
1708436391.8319736,-2.142401933670044,-1.333717868929245,-2.5266595522509974,6.1119364378745935,1.0172414779663086,-2.264082733784811
1708436391.8339765,-2.142437696456909,-1.3337924194386979,-2.526618305836813,6.111947166710653,1.0172619819641113,-2.264050308858053
1708436391.8360074,-2.1424131393432617,-1.333713413482048,-2.5266431013690394,6.111930715828695,1.017290472984314,-2.2640956083880823
1708436391.8379655,-2.1424131393432617,-1.3336970222047348,-2.5266714731799524,6.111926305084982,1.0172414779663086,-2.264144245778219
1708436391.8399782,-2.1423768997192383,-1.3337582659772416,-2.526646439229147,6.111912715225973,1.017224907875061,-2.2640870253192347
1708436391.8419755,-2.1423709392547607,-1.3337133687785645,-2.5266595522509974,6.111868011742391,1.0172785520553589,-2.2640836874591272
1708436391.843995,-2.142401933670044,-1.333729700451233,-2.5266595522509974,6.1119470475013635,1.0172041654586792,-2.264087978993551
1708436391.8459907,-2.1423683166503906,-1.33370594800029,-2.5266431013690394,6.111918437271871,1.0172370672225952,-2.2640956083880823
1708436391.848085,-2.1424288749694824,-1.3337716472199936,-2.5266714731799524,6.111885893135824,1.0172291994094849,-2.264066521321432
1708436391.850027,-2.142397403717041,-1.3336762499860306,-2.526668373738424,6.111881482392111,1.0172576904296875,-2.264099899922506
1708436391.8519979,-2.1424105167388916,-1.3337627214244385,-2.5266714731799524,6.111852872162618,1.0172380208969116,-2.2641242186175745
1708436391.8539724,-2.142401933670044,-1.333738626246788,-2.526684586201803,6.111865031510153,1.0172457695007324,-2.264054600392477
1708436391.8559792,-2.1423840522766113,-1.3337342155030747,-2.526668373738424,6.111824619560995,1.0172576904296875,-2.2640913168536585
1708436391.8579843,-2.1424262523651123,-1.3337342006019135,-2.526635471974508,6.111915576248922,1.0172327756881714,-2.2641118208514612
1708436391.859966,-2.1424262523651123,-1.33378358305011,-2.5266552607165735,6.111845481186666,1.017224907875061,-2.264066521321432
1708436391.8619614,-2.1423768997192383,-1.3337804985097428,-2.5266757647143763,6.111845481186666,1.0172414779663086,-2.2640793959247034
1708436391.863964,-2.142396926879883,-1.3337223392776032,-2.5266180674182337,6.111861932068624,1.0172501802444458,-2.2640870253192347
1708436391.8659577,-2.142397403717041,-1.3337015074542542,-2.5266225973712366,6.111817109375753,1.0172204971313477,-2.264050308858053
1708436391.8679745,-2.1423840522766113,-1.3337431114963074,-2.5266757647143763,6.111861932068624,1.0172576904296875,-2.2640793959247034
1708436391.8699765,-2.1424245834350586,-1.3337430667928238,-2.526618305836813,6.111800420075216,1.017237901687622,-2.264099899922506
1708436391.8719845,-2.1423840522766113,-1.333746076827385,-2.5266431013690394,6.111800420075216,1.0172291994094849,-2.264087978993551
1708436391.8740263,-2.1423683166503906,-1.333816261296608,-2.5266595522509974,6.1118589518363855,1.0172457695007324,-2.264071766530172
1708436391.8759713,-2.14235258102417,-1.3337519031814118,-2.5266671816455286,6.111763107567587,1.0172291994094849,-2.2640836874591272
1708436391.8779962,-2.142392635345459,-1.333754987721779,-2.52661377588381,6.111821639328756,1.0172414779663086,-2.2640956083880823
1708436391.879991,-2.1424105167388916,-1.3337672364762803,-2.5266388098346155,6.111797559052267,1.017224907875061,-2.2640836874591272
1708436391.8819814,-2.142381191253662,-1.3337430667928238,-2.5266552607165735,6.111778485565939,1.0172489881515503,-2.2640512625323694
1708436391.8839598,-2.1423568725585938,-1.3337505620769043,-2.5266757647143763,6.111814009934225,1.0172414779663086,-2.2641242186175745
1708436391.88597,-2.1423487663269043,-1.3337672066739579,-2.5266757647143763,6.111844169884481,1.0172654390335083,-2.2640674749957483
1708436391.887975,-2.1423654556274414,-1.3337223094752808,-2.526680294667379,6.111818420677938,1.0173070430755615,-2.264099899922506
1708436391.8899891,-2.1423234939575195,-1.3337252897075196,-2.5266431013690394,6.111740815430441,1.0172983407974243,-2.2640674749957483
1708436391.89209,-2.142392635345459,-1.333714799290039,-2.526647392903463,6.111826169281759,1.017274260520935,-2.2640793959247034
1708436391.8939812,-2.1423611640930176,-1.3337416660836716,-2.5266552607165735,6.111799108773031,1.0172655582427979,-2.2640631834613245
1708436391.8959868,-2.142353057861328,-1.333717868929245,-2.5266388098346155,6.1117334244544885,1.017274260520935,-2.2640708128558558
1708436391.89797,-2.1423840522766113,-1.333717868929245,-2.5266388098346155,6.1117169735725305,1.0172698497772217,-2.264071766530172
1708436391.8999717,-2.1423487663269043,-1.3337594133666535,-2.526663843785421,6.111803519516744,1.017274260520935,-2.2640836874591272
1708436391.9019873,-2.1423654556274414,-1.333725245004036,-2.5266879240619105,6.111757266312399,1.0172860622406006,-2.264059845601217
1708436391.9039636,-2.1423444747924805,-1.3337355715087433,-2.5266345183001917,6.111757266312399,1.0172359943389893,-2.264087978993551
1708436391.9059634,-2.142388343811035,-1.333787978892662,-2.526663843785421,6.111726033478536,1.0172619819641113,-2.2640588919269007
1708436391.9079783,-2.142353057861328,-1.3337460470250626,-2.5265987555133265,6.111770736962118,1.0172370672225952,-2.264087978993551
1708436391.9099715,-2.1423768997192383,-1.33370894313369,-2.5266268889056605,6.111733543663778,1.0172532796859741,-2.264071766530172
1708436391.912003,-2.1423768997192383,-1.333722324376442,-2.5266388098346155,6.111778485565939,1.017274260520935,-2.2640631834613245
1708436391.913996,-2.1423120498657227,-1.3337223094752808,-2.5266431013690394,6.111745345383444,1.017290472984314,-2.2640555540667933
1708436391.916011,-2.1423277854919434,-1.333758295779564,-2.5266552607165735,6.111691343575277,1.0173026323318481,-2.2640751043902796
1708436391.9179728,-2.1423568725585938,-1.3337460172227402,-2.526663843785421,6.111801016121664,1.0172196626663208,-2.2640836874591272
1708436391.9199748,-2.142353057861328,-1.3337223392776032,-2.5266757647143763,6.111726033478536,1.0172698497772217,-2.264076058064596
1708436391.9219873,-2.1423726081848145,-1.3337593537620087,-2.5266225973712366,6.111783015518942,1.0172611474990845,-2.264059845601217
1708436391.9239779,-2.142357349395752,-1.3337297153523942,-2.526618305836813,6.111787426262655,1.0172532796859741,-2.2640674749957483
1708436391.9260137,-2.142324924468994,-1.3337716621211548,-2.5266717115985315,6.1117379544074915,1.0172860622406006,-2.2640793959247034
1708436391.9279835,-2.1423654556274414,-1.3337355566075821,-2.5266431013690394,6.111778485565939,1.017290472984314,-2.2640259901629847
1708436391.9299753,-2.1423444747924805,-1.3337103736451645,-2.5266595522509974,6.1117379544074915,1.0172532796859741,-2.2640793959247034
1708436391.9319725,-2.1423768997192383,-1.3337342304042359,-2.5266225973712366,6.111736523896017,1.0173113346099854,-2.2640588919269007
1708436391.9339828,-2.142340660095215,-1.3337342155030747,-2.5266509691821497,6.111713874131002,1.0172576904296875,-2.26410419145693
1708436391.935972,-2.142332077026367,-1.3337267202189942,-2.5266431013690394,6.1117498753364465,1.0172611474990845,-2.2640836874591272
1708436391.937993,-2.142357349395752,-1.3337505620769043,-2.5266149679767054,6.111787426262655,1.0172576904296875,-2.264071766530172
1708436391.9399686,-2.142340660095215,-1.3337342155030747,-2.526663843785421,6.111766207009115,1.017244577407837,-2.2640956083880823
1708436391.941968,-2.142329216003418,-1.3337626618197937,-2.5266671816455286,6.11169587352828,1.0173394680023193,-2.2640674749957483
1708436391.9440057,-2.142336368560791,-1.3336970967105408,-2.526663843785421,6.1117544052894495,1.0172655582427979,-2.2641285101519983
1708436391.9459984,-2.142353057861328,-1.3337746125510712,-2.5266268889056605,6.111784207611837,1.0172576904296875,-2.2640631834613245
1708436391.947999,-2.142353057861328,-1.3337015074542542,-2.5266149679767054,6.1117663262184045,1.0172817707061768,-2.2640469709979456
1708436391.950018,-2.1423487663269043,-1.3337311458638688,-2.5266225973712366,6.1117498753364465,1.0172655582427979,-2.2640588919269007
1708436391.9519951,-2.142336368560791,-1.3337550175241013,-2.526651684437887,6.111730563431539,1.0172488689422607,-2.264099899922506
1708436391.954001,-2.142353057861328,-1.333722324376442,-2.5266836325274866,6.111733543663778,1.017244577407837,-2.264099899922506
1708436391.9559712,-2.1423091888427734,-1.3337582808784028,-2.5266345183001917,6.111787426262655,1.0172524452209473,-2.2640870253192347
1708436391.9579759,-2.142324924468994,-1.3337804091027756,-2.5266342798816126,6.111721622734823,1.0172326564788818,-2.2640751043902796
1708436391.9600046,-2.142317771911621,-1.3337594431689759,-2.526662890111105,6.111736523896017,1.017293930053711,-2.2641285101519983
1708436391.9619699,-2.142340660095215,-1.3337430369905015,-2.5267041365252894,6.111763345986166,1.017290472984314,-2.264082733784811
1708436391.9639893,-2.142324924468994,-1.3337355715087433,-2.526663843785421,6.111758816033163,1.0172785520553589,-2.2641242186175745
1708436391.96603,-2.1423206329345703,-1.333717868929245,-2.5266757647143763,6.11175428608016,1.0172817707061768,-2.2641075293170374
1708436391.9679713,-2.1423697471618652,-1.3337637794068833,-2.5266388098346155,6.1117379544074915,1.0172860622406006,-2.2640822569476526
1708436391.9699957,-2.1423826217651367,-1.3336807501367112,-2.5266509691821497,6.111742365151205,1.0172860622406006,-2.2641075293170374
1708436391.971999,-2.142357349395752,-1.3337311458638688,-2.5266714731799524,6.111787426262655,1.0172698497772217,-2.2640870253192347
1708436391.9739752,-2.142296314239502,-1.3337716174176713,-2.5266345183001917,6.111766207009115,1.0172938108444214,-2.2640793959247034
1708436391.9759746,-2.1423163414001465,-1.333702878361084,-2.5266509691821497,6.111712562828817,1.0172983407974243,-2.2640588919269007
1708436391.977969,-2.1423659324645996,-1.3337342155030747,-2.5266225973712366,6.111758816033163,1.0173026323318481,-2.2640913168536585
1708436391.9799912,-2.142332077026367,-1.3337267351201554,-2.5266388098346155,6.111733543663778,1.0172699689865112,-2.2640989462481897
1708436391.981993,-2.1423163414001465,-1.3337474924376984,-2.526651684437887,6.111733543663778,1.017290472984314,-2.2641075293170374
1708436391.983978,-2.1423048973083496,-1.3337760281613846,-2.5266714731799524,6.111700403481283,1.017293930053711,-2.264034096394674
1708436391.9859867,-2.1423048973083496,-1.33370594800029,-2.5266345183001917,6.111700284271993,1.0173438787460327,-2.2640793959247034
1708436391.987975,-2.142340660095215,-1.333754987721779,-2.5266595522509974,6.111745345383444,1.0172525644302368,-2.264082733784811
1708436391.9899879,-2.142336368560791,-1.3337594282678147,-2.5266879240619105,6.1117379544074915,1.0172860622406006,-2.2640751043902796
1708436391.9919662,-2.1422924995422363,-1.3337519031814118,-2.5266757647143763,6.111729013710775,1.0172611474990845,-2.2641246954547327
1708436391.9939678,-2.142324924468994,-1.3337716621211548,-2.5266431013690394,6.111790048867025,1.0172611474990845,-2.2640956083880823
1708436391.9959738,-2.142378568649292,-1.3337790381959458,-2.5266388098346155,6.111745464592733,1.0172196626663208,-2.2640913168536585
1708436391.9980006,-2.1423277854919434,-1.333767221575119,-2.5266552607165735,6.1117498753364465,1.0172686576843262,-2.2640751043902796
1708436391.999972,-2.1423277854919434,-1.333776057963707,-2.5266388098346155,6.111758816033163,1.0172611474990845,-2.2640870253192347
1708436392.0019615,-2.1423492431640625,-1.3337594282678147,-2.526647392903463,6.111736523896017,1.0172370672225952,-2.2640660444842737
1708436392.0039759,-2.142340660095215,-1.333754987721779,-2.5266595522509974,6.1117498753364465,1.0173426866531372,-2.264082733784811
1708436392.0059838,-2.1423048973083496,-1.333754987721779,-2.526618305836813,6.1117379544074915,1.017293930053711,-2.264144245778219
1708436392.0079746,-2.142374038696289,-1.333717868929245,-2.526625696812765,6.111773955612936,1.0172817707061768,-2.2641227881061
1708436392.0099804,-2.142361640930176,-1.3337505620769043,-2.526647392903463,6.111729013710775,1.0173307657241821,-2.2640870253192347
1708436392.0119812,-2.1423163414001465,-1.3337746274522324,-2.5266757647143763,6.111720073014059,1.0173307657241821,-2.2640822569476526
1708436392.014001,-2.1423277854919434,-1.333717868929245,-2.5266552607165735,6.111724364548483,1.0172860622406006,-2.2641270796405237
1708436392.0159953,-2.1423697471618652,-1.3337015372565766,-2.5266509691821497,6.11171709278182,1.0172983407974243,-2.2640870253192347
1708436392.0179946,-2.1423206329345703,-1.3337968450835724,-2.5266345183001917,6.111715543061056,1.0172860622406006,-2.264148537312643
1708436392.019986,-2.142361640930176,-1.333717868929245,-2.5266299883471888,6.111790048867025,1.0172532796859741,-2.264111344014303
1708436392.0219917,-2.1423380374908447,-1.333729700451233,-2.526684586201803,6.111770736962118,1.017307162284851,-2.264143768941061
1708436392.0239985,-2.1423449516296387,-1.3337594133666535,-2.526618305836813,6.111818420677938,1.017293930053711,-2.264111344014303
1708436392.0259898,-2.1423449516296387,-1.3337386411479493,-2.5266552607165735,6.111785638123312,1.0173026323318481,-2.264155689870016
1708436392.0279722,-2.142329216003418,-1.333792344932892,-2.526684586201803,6.111782896309652,1.0172817707061768,-2.264143768941061
1708436392.0299711,-2.1423091888427734,-1.3337505620769043,-2.5266595522509974,6.11184703090743,1.0172773599624634,-2.264115635548727
1708436392.0319693,-2.142361640930176,-1.3337627214244385,-2.526647392903463,6.1117931483085535,1.0172853469848633,-2.264111344014303
1708436392.0339727,-2.1423091888427734,-1.3336925965598603,-2.526679340993063,6.111773955612936,1.0172773599624634,-2.2641270796405237
1708436392.0359786,-2.14229679107666,-1.3337549579194565,-2.5266800562488,6.1118318913276575,1.0172983407974243,-2.264118019734518
1708436392.0379927,-2.142300605773926,-1.3337460470250626,-2.5266757647143763,6.111835109978475,1.0172773599624634,-2.264143768941061
1708436392.0399663,-2.142300605773926,-1.3337594133666535,-2.526663843785421,6.111797559052267,1.0172860622406006,-2.264167610798971
1708436392.0419967,-2.1423897743225098,-1.333708868627884,-2.526663843785421,6.111830699234762,1.0172773599624634,-2.2641757170306605
1708436392.043985,-2.1423206329345703,-1.333758295779564,-2.5266388098346155,6.111788499146261,1.0172687768936157,-2.264196221028463
1708436392.0459914,-2.1423449516296387,-1.3337267202189942,-2.5266268889056605,6.111800420075216,1.0172532796859741,-2.264196221028463
1708436392.0480025,-2.142378330230713,-1.333754987721779,-2.526618305836813,6.111824619560995,1.017293930053711,-2.2641590277301233
1708436392.0499883,-2.142336368560791,-1.3337626916221161,-2.5266552607165735,6.11181269863204,1.017293930053711,-2.2641995588885706
1708436392.051971,-2.142353057861328,-1.3337638241103669,-2.5266595522509974,6.111854421883383,1.0172358751296997,-2.2641623655902308
1708436392.0539675,-2.1423163414001465,-1.3337672364762803,-2.5266757647143763,6.1118483422096155,1.0172687768936157,-2.2642415205584925
1708436392.0559688,-2.142300605773926,-1.3337594133666535,-2.5266552607165735,6.1118483422096155,1.0173026323318481,-2.2641995588885706
1708436392.0580275,-2.142385482788086,-1.3337133687785645,-2.5266714731799524,6.111845600395956,1.017274260520935,-2.2642234007464808
1708436392.0599575,-2.142336368560791,-1.3337133836797257,-2.5266268889056605,6.111881482392111,1.0172117948532104,-2.264240090047018
1708436392.0620604,-2.1423163414001465,-1.3337627214244385,-2.526651684437887,6.111893164902487,1.0172983407974243,-2.264256302510397
1708436392.063967,-2.142296314239502,-1.3337460172227402,-2.5266757647143763,6.1119305966194055,1.0172524452209473,-2.2642234007464808
1708436392.065984,-2.1423654556274414,-1.3337016266635437,-2.526597563420431,6.1119083044822595,1.0172773599624634,-2.26420241991152
1708436392.0679932,-2.1423654556274414,-1.3337133389762421,-2.5266552607165735,6.111926305084982,1.017293930053711,-2.2642539183246058
1708436392.0699866,-2.142340660095215,-1.3337430667928238,-2.5266431013690394,6.111896025925436,1.0172315835952759,-2.264226738606588
1708436392.072005,-2.142336368560791,-1.3337505620769043,-2.5266552607165735,6.111909615784445,1.0172860622406006,-2.264219109212057
1708436392.0739992,-2.142336368560791,-1.3336925071528931,-2.5266800562488,6.111891615181722,1.0172853469848633,-2.264219109212057
1708436392.0759895,-2.142378330230713,-1.3337179285338898,-2.5266714731799524,6.111909615784445,1.0172983407974243,-2.26423150697817
1708436392.0780146,-2.142317771911621,-1.3337672364762803,-2.526647392903463,6.111969697266378,1.0172860622406006,-2.264235798512594
1708436392.079981,-2.142300605773926,-1.3337505620769043,-2.5266595522509974,6.111896025925436,1.0173351764678955,-2.264247242604391
1708436392.0819736,-2.142353057861328,-1.3337804985097428,-2.526651684437887,6.111957776337423,1.0173026323318481,-2.264263931904928
1708436392.0840068,-2.1422924995422363,-1.3337297302535553,-2.5266268889056605,6.111938226013937,1.0173307657241821,-2.264280621205465
1708436392.085979,-2.142336368560791,-1.3337672513774415,-2.5266595522509974,6.111896025925436,1.0172773599624634,-2.264235798512594
1708436392.0879939,-2.1423444747924805,-1.3337594133666535,-2.5266714731799524,6.111969578057089,1.017293930053711,-2.264275852833883
1708436392.0900154,-2.1423048973083496,-1.3337672364762803,-2.5266388098346155,6.112002360611715,1.0172030925750732,-2.264259640370504
1708436392.0919812,-2.1423487663269043,-1.3337879490903397,-2.5266800562488,6.111957776337423,1.0172359943389893,-2.264280621205465
1708436392.0939975,-2.142336368560791,-1.3337761026671906,-2.5266552607165735,6.111915695458212,1.0172611474990845,-2.264296833668844
1708436392.0959804,-2.1422882080078125,-1.3337790232947846,-2.5266879240619105,6.111974227219381,1.0173351764678955,-2.2642553488360804
1708436392.0979872,-2.1423120498657227,-1.3337760728648682,-2.526675049458639,6.111911165505209,1.0173133611679077,-2.2642224470721644
1708436392.0999763,-2.142329216003418,-1.3337386411479493,-2.5266757647143763,6.111960637360372,1.0172643661499023,-2.2642834822284144
1708436392.1019595,-2.1423449516296387,-1.333725245004036,-2.526662890111105,6.111936557083883,1.0172773599624634,-2.264242951069967
1708436392.1040308,-2.142378330230713,-1.3337342155030747,-2.526621405278341,6.111915576248922,1.0173070430755615,-2.264296833668844
1708436392.1059601,-2.142332077026367,-1.3337505769780655,-2.526663843785421,6.112002479821005,1.0172860622406006,-2.264263931904928
1708436392.1079767,-2.142357349395752,-1.3337430667928238,-2.5267041365252894,6.1119353649909876,1.0172611474990845,-2.264263931904928
1708436392.1099992,-2.1423449516296387,-1.3337716621211548,-2.5266431013690394,6.1119353649909876,1.0173351764678955,-2.264275852833883
1708436392.1119716,-2.1423134803771973,-1.333689571624138,-2.5266299883471888,6.111948835640707,1.0172860622406006,-2.2643001715289515
1708436392.1140244,-2.1423163414001465,-1.3337550026229401,-2.5267041365252894,6.11197708824233,1.0172698497772217,-2.2642715612994593
1708436392.1159732,-2.142361640930176,-1.3337672513774415,-2.526675049458639,6.112047183304586,1.0172687768936157,-2.26429254213442
1708436392.1179843,-2.1423206329345703,-1.3337672364762803,-2.5266345183001917,6.11197708824233,1.0172860622406006,-2.264259640370504
1708436392.1199698,-2.1423206329345703,-1.3337716621211548,-2.526662890111105,6.112007009774008,1.0172687768936157,-2.2642515341388147
1708436392.122039,-2.142324924468994,-1.3336643290570755,-2.5266299883471888,6.11201428154067,1.0173351764678955,-2.2642701307879847
1708436392.1240463,-2.142340660095215,-1.3337222945741196,-2.5266879240619105,6.11201428154067,1.017293930053711,-2.2642462889300745
1708436392.125993,-2.142353057861328,-1.333741621380188,-2.5266836325274866,6.112021791725912,1.0173089504241943,-2.2642834822284144
1708436392.1280098,-2.142336368560791,-1.3337924492410203,-2.5266552607165735,6.111984598427572,1.0173263549804688,-2.264287773762838
1708436392.1300006,-2.142353057861328,-1.3337968301824112,-2.5266595522509974,6.112030732422628,1.0172983407974243,-2.2643254438983362
1708436392.131978,-2.142324924468994,-1.333787978892662,-2.5266714731799524,6.111963617592611,1.0172687768936157,-2.2642625013934534
1708436392.1340206,-2.142324924468994,-1.3337342006019135,-2.526668373738424,6.111972677498617,1.0173640251159668,-2.26429254213442
1708436392.1359718,-2.142324924468994,-1.333717868929245,-2.5266714731799524,6.111980068474569,1.0172556638717651,-2.264275852833883
1708436392.1379821,-2.1423206329345703,-1.333784894352295,-2.5266223589526575,6.111930954247274,1.0172489881515503,-2.2642553488360804
1708436392.1400092,-2.142332077026367,-1.3337342006019135,-2.5266552607165735,6.112008321076193,1.017317771911621,-2.2642534414874476
1708436392.141979,-2.142340660095215,-1.3337267202189942,-2.5266552607165735,6.112005460053243,1.0173263549804688,-2.2642672697650355
1708436392.1439931,-2.1423487663269043,-1.3337103587440033,-2.5266552607165735,6.1120009301002405,1.0173263549804688,-2.2643254438983362
1708436392.146017,-2.142332077026367,-1.3337267202189942,-2.5266998449908655,6.112050044327535,1.0172773599624634,-2.2643001715289515
1708436392.1479921,-2.142292022705078,-1.3337550026229401,-2.526679340993063,6.111980068474569,1.0172853469848633,-2.264287773762838
1708436392.149981,-2.1423163414001465,-1.3337672513774415,-2.5266671816455286,6.112020361214437,1.0173639059066772,-2.2642553488360804
1708436392.1519773,-2.1422839164733887,-1.3337923896363755,-2.5266714731799524,6.111980068474569,1.0173263549804688,-2.2642338911639612
1708436392.1540127,-2.1423120498657227,-1.333787978892662,-2.5266800562488,6.112026321678915,1.01728093624115,-2.2642672697650355
1708436392.1559887,-2.1423449516296387,-1.3337835234454651,-2.5266552607165735,6.111991989403524,1.017333984375,-2.26432973543276
1708436392.1580126,-2.142378330230713,-1.3337045174888154,-2.5266714731799524,6.112036692887106,1.017317771911621,-2.2642505804644983
1708436392.1599848,-2.1423444747924805,-1.3337386411479493,-2.5266671816455286,6.112054574280538,1.017317771911621,-2.264296833668844
1708436392.1619973,-2.142332077026367,-1.3337386560491105,-2.5266509691821497,6.112101185112753,1.017317771911621,-2.2642715612994593
1708436392.1640046,-2.142300605773926,-1.333725245004036,-2.526646677647726,6.111999380379476,1.01728093624115,-2.264238182698385
1708436392.1659696,-2.142353057861328,-1.3337804687074204,-2.5266714731799524,6.112032162934103,1.0173263549804688,-2.2642338911639612
1708436392.1679757,-2.1423444747924805,-1.3338043999722977,-2.526691261922018,6.112050163536825,1.017317771911621,-2.264320675526754
1708436392.169979,-2.142332077026367,-1.3337430667928238,-2.526675049458639,6.111975657730856,1.0173263549804688,-2.264242951069967
1708436392.1719701,-2.1423487663269043,-1.333799959426262,-2.5266388098346155,6.111980068474569,1.017293930053711,-2.2642415205584925
1708436392.1740398,-2.142329216003418,-1.333713324075081,-2.526646677647726,6.111989009171285,1.0173639059066772,-2.2642505804644983
1708436392.1759777,-2.1423120498657227,-1.333787978892662,-2.5266509691821497,6.111989009171285,1.017317771911621,-2.2642553488360804
1708436392.1780176,-2.142332077026367,-1.3337296855500718,-2.5266714731799524,6.112045633583822,1.017317771911621,-2.264296833668844
1708436392.1799815,-2.1423163414001465,-1.3337880384973069,-2.5266714731799524,6.112050044327535,1.0172853469848633,-2.26429254213442
1708436392.1819768,-2.1423277854919434,-1.3337790381959458,-2.526679340993063,6.112012851029196,1.01728093624115,-2.264280621205465
1708436392.1840045,-2.142324924468994,-1.3337593984654923,-2.5266714731799524,6.112003910332479,1.0173263549804688,-2.264280621205465
1708436392.1859837,-2.1422882080078125,-1.3337386411479493,-2.5266552607165735,6.111962067871847,1.0173426866531372,-2.264280621205465
1708436392.1880147,-2.142324924468994,-1.3337342006019135,-2.526658598576681,6.112003910332479,1.0173307657241821,-2.264287773762838
1708436392.189992,-2.1423697471618652,-1.3337460321239014,-2.5266299883471888,6.112045633583822,1.0173466205596924,-2.264287773762838
1708436392.1920047,-2.142353057861328,-1.333754987721779,-2.5266552607165735,6.112008440285482,1.017317771911621,-2.2642553488360804
1708436392.1939855,-2.142329216003418,-1.3337178540280838,-2.5266552607165735,6.112041103630819,1.0173509120941162,-2.2642715612994593
1708436392.1959848,-2.142361640930176,-1.3337342155030747,-2.526686970387594,6.112020242005148,1.0173426866531372,-2.2642834822284144
1708436392.198008,-2.142324924468994,-1.3337416064790268,-2.526675049458639,6.112024771958151,1.017317771911621,-2.264263931904928
1708436392.1999826,-2.1423206329345703,-1.3337253344110032,-2.5266714731799524,6.112024771958151,1.0173296928405762,-2.264280621205465
1708436392.2019684,-2.142296314239502,-1.3337342006019135,-2.526642386113302,6.112041103630819,1.0173296928405762,-2.2642672697650355
1708436392.2040036,-2.1423120498657227,-1.3337192398360749,-2.5266509691821497,6.111987578659811,1.0173509120941162,-2.264226738606588
1708436392.2059758,-2.142340660095215,-1.3337880384973069,-2.5267041365252894,6.111975657730856,1.017333984375,-2.2642338911639612
1708436392.20798,-2.1423206329345703,-1.3337178540280838,-2.526679340993063,6.112012851029196,1.0173263549804688,-2.2643116156207483
1708436392.2099864,-2.1423120498657227,-1.3337672364762803,-2.5266714731799524,6.1119964001472376,1.017333984375,-2.2642553488360804
1708436392.211964,-2.142336368560791,-1.3337208193591614,-2.5266879240619105,6.112012851029196,1.0173594951629639,-2.2642672697650355
1708436392.214039,-2.142357349395752,-1.3337252152017136,-2.5266335646258753,6.111975657730856,1.0172983407974243,-2.2642553488360804
1708436392.2159758,-2.1423449516296387,-1.3337594282678147,-2.5266509691821497,6.112017261772909,1.017333984375,-2.264229122792379
1708436392.2180364,-2.142353057861328,-1.3337519478848954,-2.5267086664782923,6.111989009171285,1.0173470973968506,-2.2642224470721644
1708436392.2199812,-2.1423444747924805,-1.3336852204850693,-2.526642386113302,6.112021791725912,1.0173263549804688,-2.264287773762838
1708436392.221976,-2.1423206329345703,-1.3337103736451645,-2.526662890111105,6.1120009301002405,1.0172481536865234,-2.2642462889300745
1708436392.2240317,-2.1423120498657227,-1.333738626246788,-2.5266552607165735,6.11197708824233,1.0173046588897705,-2.2642553488360804
1708436392.225985,-2.142353057861328,-1.3337505620769043,-2.5266509691821497,6.111972558289327,1.0173394680023193,-2.2642672697650355
1708436392.2279768,-2.142307758331299,-1.3337538552335282,-2.526658598576681,6.11203812339858,1.0172853469848633,-2.2642715612994593
1708436392.2299776,-2.1423487663269043,-1.3337880235961457,-2.526691261922018,6.111959206848898,1.0172687768936157,-2.2642515341388147
1708436392.231984,-2.142332077026367,-1.333771677022316,-2.5266998449908655,6.112017261772909,1.0173134803771973,-2.2642672697650355
1708436392.2340376,-2.142336368560791,-1.3337672513774415,-2.5267086664782923,6.112054693489828,1.017333984375,-2.2642090956317347
1708436392.2359703,-2.1422712802886963,-1.3337311458638688,-2.5266552607165735,6.112045633583822,1.0173134803771973,-2.264284912739889
1708436392.2380214,-2.1423091888427734,-1.33375936866317,-2.5266836325274866,6.112029182701864,1.0173420906066895,-2.26429254213442
1708436392.2399757,-2.1423206329345703,-1.3337430667928238,-2.526646677647726,6.112041222840109,1.0173351764678955,-2.264235798512594
1708436392.2419698,-2.142336368560791,-1.333779053097107,-2.5266924540149134,6.111996519356527,1.017293930053711,-2.264280621205465
1708436392.243977,-2.142332077026367,-1.3337790828994294,-2.5266509691821497,6.1119844792182825,1.0173296928405762,-2.264284912739889
1708436392.245978,-2.1423277854919434,-1.3337638688138505,-2.5266552607165735,6.112012851029196,1.017293930053711,-2.264291588460104
1708436392.2480063,-2.142340660095215,-1.3337296706489106,-2.5266671816455286,6.112020242005148,1.0173263549804688,-2.264259640370504
1708436392.2499843,-2.1423206329345703,-1.3337627214244385,-2.5266714731799524,6.112017261772909,1.0173296928405762,-2.264226738606588
1708436392.2519674,-2.1423206329345703,-1.3337672513774415,-2.5266552607165735,6.11197708824233,1.0172853469848633,-2.2642515341388147
1708436392.2539773,-2.1423163414001465,-1.3337594282678147,-2.52668267885317,6.11203812339858,1.0172983407974243,-2.2642715612994593
1708436392.2559698,-2.1423444747924805,-1.3337805432132264,-2.526670519505636,6.112012851029196,1.0172853469848633,-2.264280621205465
1708436392.2580097,-2.142336368560791,-1.3337880384973069,-2.526675049458639,6.111996519356527,1.0173509120941162,-2.264242951069967
1708436392.2599914,-2.1423449516296387,-1.3337044280818482,-2.5266345183001917,6.112003910332479,1.0172853469848633,-2.264238182698385
1708436392.2620168,-2.142357349395752,-1.333799959426262,-2.526679340993063,6.112047064095297,1.0173089504241943,-2.264235798512594
1708436392.263982,-2.142357349395752,-1.3337460321239014,-2.5267367998706263,6.111954676895895,1.0172853469848633,-2.2642715612994593
1708436392.265962,-2.1423163414001465,-1.3337716919234772,-2.526675049458639,6.111972558289327,1.017317771911621,-2.26423150697817
1708436392.2679756,-2.142374038696289,-1.333762751226761,-2.526703182850973,6.111965167313375,1.0173263549804688,-2.264284912739889
1708436392.2699661,-2.1423134803771973,-1.3336969775012513,-2.5266757647143763,6.112029301911154,1.0172810554504395,-2.264226738606588
1708436392.271973,-2.142307758331299,-1.33375637352977,-2.5267041365252894,6.111972558289327,1.0172983407974243,-2.2642715612994593
1708436392.2739792,-2.142332077026367,-1.3337431263974686,-2.5266879240619105,6.1120173809821985,1.0173296928405762,-2.264235798512594
1708436392.2759783,-2.1423487663269043,-1.3337132793715973,-2.5266998449908655,6.112012851029196,1.0173134803771973,-2.264259640370504
1708436392.2779984,-2.142340660095215,-1.3337045472911377,-2.5266714731799524,6.112021791725912,1.0172853469848633,-2.264263931904928
1708436392.2799773,-2.1423697471618652,-1.3337222945741196,-2.5266879240619105,6.112030732422628,1.017317771911621,-2.26423150697817
1708436392.2819736,-2.142332077026367,-1.3337059330991288,-2.526696745549337,6.111954676895895,1.0173263549804688,-2.264238182698385
1708436392.2839928,-2.142357349395752,-1.3337672513774415,-2.526708428059713,6.1120515940483,1.0172773599624634,-2.2642234007464808
1708436392.2859592,-2.142296314239502,-1.3337505620769043,-2.526675049458639,6.111927497177877,1.017333984375,-2.2642667929278772
1708436392.28798,-2.1422836780548096,-1.3337746125510712,-2.5266714731799524,6.1119398949439905,1.0172643661499023,-2.2642515341388147
1708436392.2899992,-2.142374038696289,-1.3337746125510712,-2.526662890111105,6.1119950888450525,1.017317771911621,-2.2642715612994593
1708436392.2919612,-2.142296314239502,-1.3337460321239014,-2.5266552607165735,6.111991989403524,1.0173513889312744,-2.264247242604391
1708436392.2939703,-2.1423487663269043,-1.3337296855500718,-2.526670519505636,6.111989009171285,1.017317771911621,-2.26423150697817
1708436392.2959757,-2.142357349395752,-1.3337460321239014,-2.526625696812765,6.1119353649909876,1.017317771911621,-2.264219109212057
1708436392.2979844,-2.1423206329345703,-1.3337252152017136,-2.5266757647143763,6.112005340843954,1.0173070430755615,-2.26426870027651
1708436392.299965,-2.1423048973083496,-1.3337761473706742,-2.5266595522509974,6.111951815872946,1.017259955406189,-2.26426870027651
1708436392.3019524,-2.142300605773926,-1.333713324075081,-2.5266955534564417,6.112009870796957,1.017317771911621,-2.264207188283102
1708436392.3039892,-2.1423206329345703,-1.3337297302535553,-2.5266595522509974,6.112030732422628,1.017317771911621,-2.264242951069967
1708436392.3059676,-2.1423206329345703,-1.3336969775012513,-2.5266714731799524,6.11197708824233,1.0173509120941162,-2.264247242604391
1708436392.307967,-2.1423659324645996,-1.333743081693985,-2.5266879240619105,6.111972558289327,1.017333984375,-2.26420241991152
1708436392.3099787,-2.142357349395752,-1.3337638688138505,-2.5266595522509974,6.112026202469625,1.0173307657241821,-2.2642515341388147
1708436392.3119714,-2.1423697471618652,-1.333746002321579,-2.5266509691821497,6.111989009171285,1.0172817707061768,-2.264284912739889
1708436392.31404,-2.142361640930176,-1.3337583106807251,-2.5266552607165735,6.111944305687704,1.017317771911621,-2.2642224470721644
1708436392.3159797,-2.142361640930176,-1.3337672364762803,-2.5266714731799524,6.111989009171285,1.017317771911621,-2.264226738606588
1708436392.3179939,-2.142336368560791,-1.3337372255376359,-2.5267041365252894,6.112018811493673,1.0173263549804688,-2.264247242604391
1708436392.319964,-2.142374038696289,-1.33373116076503,-2.5266671816455286,6.1119964001472376,1.0172860622406006,-2.264238182698385
1708436392.322054,-2.142361640930176,-1.3337088984302063,-2.5266879240619105,6.111981498986044,1.0173513889312744,-2.264235798512594
1708436392.3240147,-2.1423940658569336,-1.3337222945741196,-2.5266879240619105,6.111986028939047,1.0173594951629639,-2.26423150697817
1708436392.325968,-2.142324924468994,-1.3337134283832093,-2.5266714731799524,6.112047064095297,1.0173264741897583,-2.264214340840475
1708436392.3280082,-2.142340660095215,-1.3337627065232773,-2.526646677647726,6.111948716431417,1.0173307657241821,-2.264272991810934
1708436392.3299932,-2.142324924468994,-1.333776057963707,-2.5266714731799524,6.11203824260787,1.01724374294281,-2.264207188283102
1708436392.3320186,-2.1422882080078125,-1.3337133687785645,-2.5266836325274866,6.111968147545614,1.0173264741897583,-2.2642224470721644
1708436392.3340182,-2.142357349395752,-1.3337761026671906,-2.526662890111105,6.111960756569662,1.0172817707061768,-2.26420241991152
1708436392.3359776,-2.142317771911621,-1.3337550026229401,-2.5266345183001917,6.11194275596694,1.0173426866531372,-2.264256302510397
1708436392.3380122,-2.1423120498657227,-1.333735616212227,-2.5266388098346155,6.1119964001472376,1.017293930053711,-2.264238182698385
1708436392.3400054,-2.142301082611084,-1.3337805432132264,-2.5266757647143763,6.111956226616659,1.0172817707061768,-2.2642367521869105
1708436392.341981,-2.142353057861328,-1.333754987721779,-2.5267041365252894,6.111989009171285,1.0173395872116089,-2.2642114798175257
1708436392.3439915,-2.1423163414001465,-1.3337582808784028,-2.5266552607165735,6.11193202713088,1.017317771911621,-2.264219109212057
1708436392.3459964,-2.142361640930176,-1.3337296706489106,-2.526647392903463,6.111911165505209,1.0172817707061768,-2.2642338911639612
1708436392.3480036,-2.142336368560791,-1.3337505620769043,-2.5266714731799524,6.112021791725912,1.0172853469848633,-2.264247242604391
1708436392.350123,-2.1423449516296387,-1.3337638837150116,-2.526658598576681,6.111963736801901,1.0173264741897583,-2.264235798512594
1708436392.3520281,-2.1423659324645996,-1.3337626916221161,-2.5267120043383997,6.1120351431663416,1.017293930053711,-2.26423150697817
1708436392.3539793,-2.1423659324645996,-1.333787978892662,-2.526679340993063,6.111972677498617,1.0172817707061768,-2.264242951069967
1708436392.3559701,-2.1423697471618652,-1.333771677022316,-2.526605192814962,6.1119844792182825,1.0173308849334717,-2.26423150697817
1708436392.3579862,-2.142378330230713,-1.333758295779564,-2.5267041365252894,6.111993539124288,1.0172611474990845,-2.264235798512594
1708436392.3599803,-2.142340660095215,-1.3337296855500718,-2.5266299883471888,6.111968147545614,1.0172983407974243,-2.2642276922809046
1708436392.361963,-2.142296314239502,-1.3337594282678147,-2.5266149679767054,6.111927497177877,1.0172687768936157,-2.264219109212057
1708436392.3640046,-2.1423206329345703,-1.3337296855500718,-2.526662890111105,6.111926424294271,1.017317771911621,-2.264219109212057
1708436392.365968,-2.1423120498657227,-1.3337593984654923,-2.5266955534564417,6.112012851029196,1.0172817707061768,-2.264256302510397
1708436392.367984,-2.142336368560791,-1.3337342006019135,-2.5266714731799524,6.111997949868002,1.0173263549804688,-2.2642653624164026
1708436392.3699927,-2.142340660095215,-1.3337342602065583,-2.526646677647726,6.111936557083883,1.0173026323318481,-2.264284912739889
1708436392.3719988,-2.142336368560791,-1.333729700451233,-2.526646677647726,6.111956226616659,1.0172524452209473,-2.2642448584186
1708436392.3739853,-2.142292022705078,-1.3337716621211548,-2.5266671816455286,6.112002360611715,1.0172489881515503,-2.26423150697817
1708436392.3759787,-2.142361640930176,-1.333768294458725,-2.526675049458639,6.111948835640707,1.0172687768936157,-2.264289681111471
1708436392.3779974,-2.1423449516296387,-1.3337416064790268,-2.5266595522509974,6.1119141457374475,1.0173026323318481,-2.2642448584186
1708436392.379994,-2.142340660095215,-1.3337178987315674,-2.5266879240619105,6.112026202469625,1.017293930053711,-2.264280621205465
1708436392.3819852,-2.1423492431640625,-1.3337222796729584,-2.526646677647726,6.111981498986044,1.0172983407974243,-2.2642248312579554
1708436392.383986,-2.142361640930176,-1.3337132942727585,-2.5266345183001917,6.1119844792182825,1.0173395872116089,-2.264226738606588
1708436392.3860009,-2.1423206329345703,-1.3337594282678147,-2.526670519505636,6.111944305687704,1.0172687768936157,-2.26418906847109
1708436392.3879728,-2.1423871517181396,-1.3337059032968064,-2.5266714731799524,6.11197708824233,1.0173594951629639,-2.264235798512594
1708436392.38999,-2.142336368560791,-1.3337790679982682,-2.5266597906695765,6.112026202469625,1.0172860622406006,-2.264184300099508
1708436392.3919582,-2.142329216003418,-1.333729700451233,-2.5266879240619105,6.1119398949439905,1.0173070430755615,-2.2643149534808558
1708436392.393968,-2.14229679107666,-1.3337968301824112,-2.5266955534564417,6.111969578057089,1.0173070430755615,-2.264210049306051
1708436392.395961,-2.142336368560791,-1.3337627214244385,-2.5267041365252894,6.11197708824233,1.0172817707061768,-2.264275852833883
1708436392.397958,-2.142361640930176,-1.3337505620769043,-2.526642386113302,6.111972677498617,1.0173395872116089,-2.264277760182516
1708436392.400049,-2.142336368560791,-1.3337133687785645,-2.5267162958728235,6.1119398949439905,1.017274260520935,-2.264240090047018
1708436392.401974,-2.1423134803771973,-1.3337102991393586,-2.526646677647726,6.111944305687704,1.017274260520935,-2.264235798512594
1708436392.4040074,-2.1423091888427734,-1.3336970222047348,-2.5266431013690394,6.111972677498617,1.0172860622406006,-2.264242951069967
1708436392.4059615,-2.142324924468994,-1.3337672513774415,-2.5266879240619105,6.111911165505209,1.017274260520935,-2.264263931904928
1708436392.4079852,-2.1422626972198486,-1.333750532274582,-2.526649777089254,6.111969578057089,1.0172983407974243,-2.264247242604391
1708436392.4099903,-2.142361640930176,-1.3337267649224778,-2.526679340993063,6.11197708824233,1.0172489881515503,-2.264293972645895
1708436392.4119873,-2.142361640930176,-1.3337386411479493,-2.5266388098346155,6.111942875176229,1.0172611474990845,-2.264214340840475
1708436392.4139943,-2.142374038696289,-1.333729700451233,-2.526707474385397,6.111965167313375,1.017274260520935,-2.26429254213442
1708436392.4159694,-2.142378330230713,-1.3337716174176713,-2.5266714731799524,6.111948835640707,1.0172817707061768,-2.26423150697817
1708436392.4179735,-2.142353057861328,-1.3337746423533936,-2.5266595522509974,6.111951815872946,1.0173394680023193,-2.264259640370504
1708436392.419979,-2.142332077026367,-1.3337386560491105,-2.526707474385397,6.11197708824233,1.0172698497772217,-2.264226738606588
1708436392.4219713,-2.142357349395752,-1.3337430667928238,-2.526662890111105,6.11191867569045,1.0172655582427979,-2.264247242604391
1708436392.423977,-2.142357349395752,-1.3337311011603852,-2.526679340993063,6.111944305687704,1.0172817707061768,-2.2642338911639612
1708436392.4259818,-2.142317771911621,-1.3337267202189942,-2.5266671816455286,6.111960756569662,1.0173113346099854,-2.264247242604391
1708436392.4279668,-2.14229679107666,-1.3337386113456269,-2.5267041365252894,6.11199055889205,1.0172773599624634,-2.26429254213442
1708436392.4299746,-2.1423697471618652,-1.3337672513774415,-2.5266879240619105,6.111975657730856,1.0173113346099854,-2.264284912739889
1708436392.431968,-2.1422882080078125,-1.3337386411479493,-2.526686970387594,6.111993419914999,1.0172817707061768,-2.264275852833883
1708436392.4341075,-2.142324924468994,-1.3337594282678147,-2.526708428059713,6.112007009774008,1.0172489881515503,-2.2642715612994593
1708436392.4359903,-2.1422839164733887,-1.333734245305397,-2.5266509691821497,6.111923086434164,1.0172983407974243,-2.264296833668844
1708436392.4379873,-2.1423487663269043,-1.3337850135615845,-2.5266552607165735,6.111960756569662,1.0172655582427979,-2.264235798512594
1708436392.439981,-2.1423163414001465,-1.3337594282678147,-2.5266509691821497,6.111944305687704,1.0172414779663086,-2.264226738606588
1708436392.4419901,-2.142353057861328,-1.3337386113456269,-2.526646677647726,6.1119353649909876,1.0172655582427979,-2.264226738606588
1708436392.4439936,-2.142329216003418,-1.3337461066297074,-2.5266431013690394,6.111960756569662,1.0172576904296875,-2.2642625013934534
1708436392.4459784,-2.1423206329345703,-1.3337594133666535,-2.5266836325274866,6.111993419914999,1.0173070430755615,-2.264280621205465
1708436392.4480064,-2.142336368560791,-1.3337538701346894,-2.5266671816455286,6.11197708824233,1.017290472984314,-2.264238182698385
1708436392.4500263,-2.142296314239502,-1.3337386113456269,-2.5266509691821497,6.11195324638442,1.017244577407837,-2.264280621205465
1708436392.451982,-2.1422882080078125,-1.3337627214244385,-2.5266595522509974,6.111997949868002,1.0172532796859741,-2.264226738606588
1708436392.4539824,-2.1423401832580566,-1.3336926412633439,-2.5266552607165735,6.112035262375631,1.017290472984314,-2.2642505804644983
1708436392.4560027,-2.1423697471618652,-1.3337059330991288,-2.526679340993063,6.111948835640707,1.017244577407837,-2.2643139998065394
1708436392.4579723,-2.142296314239502,-1.333792434339859,-2.5266225973712366,6.111920106201925,1.0173264741897583,-2.26426870027651
1708436392.4599998,-2.142324924468994,-1.333726705317833,-2.5267041365252894,6.111968147545614,1.0172698497772217,-2.264296833668844
1708436392.4619937,-2.1423206329345703,-1.3337148290923615,-2.5267162958728235,6.111957776337423,1.0172773599624634,-2.2642553488360804
1708436392.463968,-2.142329216003418,-1.33375936866317,-2.526679340993063,6.112007009774008,1.0172611474990845,-2.2642176787005823
1708436392.4659765,-2.142336368560791,-1.3336970222047348,-2.526658598576681,6.111981618195333,1.017274260520935,-2.2642672697650355
1708436392.467977,-2.1423048973083496,-1.3337716621211548,-2.5267041365252894,6.111960756569662,1.0172532796859741,-2.2642415205584925
1708436392.469995,-2.1423120498657227,-1.333754987721779,-2.526712958012716,6.111997949868002,1.0173426866531372,-2.2642415205584925
1708436392.4720235,-2.1423163414001465,-1.3337879937938233,-2.5267043749438685,6.111968147545614,1.0172698497772217,-2.264229122792379
1708436392.4739745,-2.1423492431640625,-1.3337672513774415,-2.526686970387594,6.11193202713088,1.0173070430755615,-2.2643116156207483
1708436392.475981,-2.142353057861328,-1.333758295779564,-2.526646677647726,6.11201428154067,1.017335057258606,-2.2642834822284144
1708436392.4779763,-2.1423134803771973,-1.333746076827385,-2.5266595522509974,6.111997949868002,1.017293930053711,-2.2642582098590296
1708436392.4799645,-2.142336368560791,-1.3337222647717972,-2.5266552607165735,6.111969578057089,1.017317771911621,-2.264320675526754
1708436392.481979,-2.1422882080078125,-1.3337178391269227,-2.526621405278341,6.1119398949439905,1.017317771911621,-2.2642834822284144
1708436392.4839857,-2.142361640930176,-1.3337717068246384,-2.526641909276144,6.111930954247274,1.0173640251159668,-2.2642744223224085
1708436392.4859731,-2.142329216003418,-1.3337386709502717,-2.5266509691821497,6.1119353649909876,1.0172983407974243,-2.2642982641803187
1708436392.487976,-2.142332077026367,-1.333770216708519,-2.5266955534564417,6.111969578057089,1.0172686576843262,-2.2643497625934046
1708436392.4900124,-2.142333507537842,-1.333783597951271,-2.5267205874072474,6.111944305687704,1.017317771911621,-2.2643030325519007
1708436392.4919727,-2.1423492431640625,-1.3337430369905015,-2.5267043749438685,6.111997949868002,1.0173133611679077,-2.264331642781393
1708436392.4939854,-2.142357349395752,-1.3337549579194565,-2.5266671816455286,6.111974227219381,1.0172853469848633,-2.2643359343158167
1708436392.495975,-2.142336368560791,-1.3337716323188324,-2.5266249815570276,6.111981498986044,1.0173426866531372,-2.264364544545309
1708436392.4979908,-2.142357349395752,-1.3337342006019135,-2.526679340993063,6.11195324638442,1.0173134803771973,-2.264331642781393
1708436392.499975,-2.142292022705078,-1.3337924194386979,-2.526658598576681,6.11201428154067,1.0172817707061768,-2.264367405568258
1708436392.5019798,-2.142296314239502,-1.3337672513774415,-2.526679340993063,6.11199055889205,1.0173296928405762,-2.264355484639303
1708436392.5039773,-2.1423048973083496,-1.3337549728206177,-2.5266299883471888,6.111969697266378,1.0173089504241943,-2.264355484639303
1708436392.506027,-2.142300605773926,-1.3337267202189942,-2.5266836325274866,6.11195324638442,1.0173296928405762,-2.264359776173727
1708436392.5079923,-2.142300605773926,-1.3337923747352143,-2.526646677647726,6.111941087036886,1.017317771911621,-2.26438552538027
1708436392.5099816,-2.1423163414001465,-1.333717868929245,-2.5266879240619105,6.112018811493673,1.0173540115356445,-2.264346424733297
1708436392.511987,-2.142333507537842,-1.3337222796729584,-2.526679340993063,6.111960637360372,1.0173377990722656,-2.2643664518939417
1708436392.5139875,-2.142296314239502,-1.3337505471757432,-2.5266509691821497,6.111997949868002,1.0173583030700684,-2.2643917242633265
1708436392.5160027,-2.142378330230713,-1.3337133389762421,-2.526670281087057,6.111989009171285,1.0173628330230713,-2.264346424733297
1708436392.5179923,-2.142340660095215,-1.3337638241103669,-2.52668267885317,6.1119353649909876,1.0173821449279785,-2.2644217650042933
1708436392.5199842,-2.142357349395752,-1.3337342155030747,-2.5267120043383997,6.112023341446676,1.017386555671692,-2.2644079367267054
1708436392.5219908,-2.1423449516296387,-1.3337836575559159,-2.5266714731799524,6.111902224808492,1.0173454284667969,-2.2643874327289026
1708436392.5240283,-2.142317771911621,-1.3337594282678147,-2.52669865289797,6.111969578057089,1.017401933670044,-2.2644079367267054
1708436392.5259807,-2.142305612564087,-1.333779053097107,-2.5266781489001673,6.111905085831442,1.0174062252044678,-2.2643798033343714
1708436392.5279903,-2.142301082611084,-1.3337505620769043,-2.5266998449908655,6.11195324638442,1.0174272060394287,-2.2643540541278284
1708436392.5299768,-2.1423380374908447,-1.333792508845665,-2.5267162958728235,6.111974227219381,1.0173778533935547,-2.2643631140338343
1708436392.5319817,-2.1423449516296387,-1.3336762499860306,-2.526686970387594,6.112023460655966,1.0174185037612915,-2.2644246260272425
1708436392.5339873,-2.1423163414001465,-1.3337296855500718,-2.526703182850973,6.1119247553642175,1.0173975229263306,-2.2643664518939417
1708436392.535972,-2.1423380374908447,-1.333717868929245,-2.526658598576681,6.111960756569662,1.0174140930175781,-2.2644408384906214
1708436392.5379772,-2.1422886848449707,-1.3337089729360123,-2.526691261922018,6.111945497780599,1.0173768997192383,-2.2644622961627405
1708436392.5399752,-2.142333507537842,-1.333746002321579,-2.526698891316549,6.111960637360372,1.017435073852539,-2.2643707434283655
1708436392.5419774,-2.1422841548919678,-1.333741621380188,-2.5267325083362024,6.111912715225973,1.0174140930175781,-2.264444176350729
1708436392.543981,-2.142329216003418,-1.3337627214244385,-2.526710573826925,6.111945616989889,1.0174424648284912,-2.2643945852862757
1708436392.5459719,-2.142324924468994,-1.3337583553842087,-2.5266945997821253,6.111974227219381,1.0174306631088257,-2.2644532362567347
1708436392.5480099,-2.142322301864624,-1.3337505918792267,-2.526752535496847,6.111974227219381,1.0174630880355835,-2.2644532362567347
1708436392.5500298,-2.142317771911621,-1.3337296855500718,-2.526715103779928,6.111966717034139,1.0174133777618408,-2.264414135609762
1708436392.551974,-2.142317771911621,-1.3337460321239014,-2.526769463215963,6.111969697266378,1.0174705982208252,-2.264444176350729
1708436392.5539956,-2.1422924995422363,-1.333741621380188,-2.5267391840564173,6.111878144532003,1.0174705982208252,-2.2644556204425257
1708436392.5559783,-2.142333507537842,-1.3338042956641694,-2.5267513434039515,6.111933576851644,1.017404556274414,-2.264418427144186
1708436392.558018,-2.1423099040985107,-1.3337638539126893,-2.5267842451678675,6.1119950888450525,1.017478585243225,-2.264435593281881
1708436392.559968,-2.142305612564087,-1.3337297302535553,-2.5268080870257776,6.111903774529257,1.0174500942230225,-2.2644646803485315
1708436392.5619638,-2.142305612564087,-1.33378358305011,-2.5267751852618616,6.111945616989889,1.0175026655197144,-2.2644603888141077
1708436392.56397,-2.1422970294952393,-1.333725319509842,-2.526844326649801,6.111950027733602,1.017432689666748,-2.2644065062152308
1708436392.5659883,-2.1422841548919678,-1.333754987721779,-2.526789967213766,6.111948716431417,1.0174741744995117,-2.264468018208639
1708436392.5680065,-2.1422924995422363,-1.3337999147227784,-2.5268309752093714,6.111933696060934,1.0174531936645508,-2.264439884816305
1708436392.5699773,-2.142245054244995,-1.3337386560491105,-2.5268071333514612,6.111929166107931,1.017482876777649,-2.264414135609762
1708436392.5720255,-2.1422929763793945,-1.3337627065232773,-2.5268190542804163,6.111950027733602,1.0174697637557983,-2.264437977467672
1708436392.5739825,-2.1422886848449707,-1.333741621380188,-2.5267980734454554,6.111879575043478,1.0175113677978516,-2.264435593281881
1708436392.5759947,-2.1422929763793945,-1.333738626246788,-2.526844326649801,6.111945616989889,1.017498254776001,-2.264439884816305
1708436392.5779889,-2.1422886848449707,-1.3337133687785645,-2.52687651315798,6.111884104996481,1.0174697637557983,-2.264472786580221
1708436392.5800002,-2.1422970294952393,-1.333758295779564,-2.526883904133932,6.111933696060934,1.0175057649612427,-2.2644665876971644
1708436392.581968,-2.1422812938690186,-1.3337954145720978,-2.5268471876727503,6.111895072251119,1.0175057649612427,-2.2644832769977015
1708436392.5840127,-2.142277240753174,-1.33370594800029,-2.526863400136129,6.1118975756462,1.0175144672393799,-2.264491860066549
1708436392.5859616,-2.142265796661377,-1.333754987721779,-2.5268266836749476,6.111865031510153,1.0175299644470215,-2.2644832769977015
1708436392.5879667,-2.1422970294952393,-1.3337296855500718,-2.526801649724142,6.111829030304708,1.0175057649612427,-2.2644909063922327
1708436392.589992,-2.142301321029663,-1.3337132942727585,-2.526872698460714,6.111840951233663,1.0175504684448242,-2.2645133177386683
1708436392.5919821,-2.142245054244995,-1.3337746423533936,-2.5268710295306605,6.111783969193258,1.0175299644470215,-2.2644875685321253
1708436392.5939903,-2.1422617435455322,-1.3337879937938233,-2.5268147627459925,6.11184989193038,1.0175342559814453,-2.2645447889911097
1708436392.5959694,-2.1422619819641113,-1.33378358305011,-2.526839558278219,6.111830699234762,1.0175539255142212,-2.2645538488971155
1708436392.5979764,-2.1422743797302246,-1.3337672364762803,-2.5268309752093714,6.111752855568685,1.0175824165344238,-2.2645400206195276
1708436392.5999863,-2.142277240753174,-1.3337342155030747,-2.526855770741598,6.111788499146261,1.0175824165344238,-2.264535729085104
1708436392.6019757,-2.142228126525879,-1.3337505620769043,-2.5268517176257532,6.111736523896017,1.0176151990890503,-2.264564339314596
1708436392.6040018,-2.1422786712646484,-1.3337760728648682,-2.5268190542804163,6.111790048867025,1.0176315307617188,-2.264575783406393
1708436392.6059668,-2.142265796661377,-1.3337460470250626,-2.5268428961383265,6.111766207009115,1.0175650119781494,-2.2645509878741663
1708436392.6079667,-2.1422150135040283,-1.3338087660125275,-2.5268681685077112,6.111765134125509,1.0176467895507812,-2.2645557562457483
1708436392.6099873,-2.142277240753174,-1.3337716621211548,-2.5268800894366663,6.111793029099264,1.0176633596420288,-2.2645795981036585
1708436392.6119761,-2.142220973968506,-1.333770216708519,-2.5268591086017054,6.11175428608016,1.0176424980163574,-2.2646573225604456
1708436392.6140146,-2.1422295570373535,-1.3337954145720978,-2.526879612599508,6.111720073014059,1.017638087272644,-2.2646291891681116
1708436392.6160047,-2.1422383785247803,-1.333717868929245,-2.526907984410421,6.111766207009115,1.0176827907562256,-2.2646740118609827
1708436392.6179838,-2.1422367095947266,-1.3336881709149857,-2.526878897343771,6.11171709278182,1.017659068107605,-2.264622513447897
1708436392.619998,-2.142258405685425,-1.3337460470250626,-2.526923720036642,6.111761796265402,1.017659068107605,-2.264664951954977
1708436392.621977,-2.142209529876709,-1.333770216708519,-2.5269158522235315,6.111731993943014,1.0176870822906494,-2.264643971120016
1708436392.6240687,-2.1421916484832764,-1.3337222945741196,-2.5269036928759974,6.111729013710775,1.0176916122436523,-2.264693085347311
1708436392.6260378,-2.1422252655029297,-1.3337909889272233,-2.5269115606891077,6.111770736962118,1.017685890197754,-2.26467210451235
1708436392.6279783,-2.142242670059204,-1.3337103736451645,-2.526907269154684,6.111790048867025,1.0177278518676758,-2.264700714741842
1708436392.629996,-2.1422226428985596,-1.3337252897075196,-2.526923481618063,6.111758816033163,1.0176942348480225,-2.264718834553854
1708436392.6319716,-2.142167329788208,-1.3337790828994294,-2.526886049901144,6.1118318913276575,1.0177103281021118,-2.2647441069232386
1708436392.6339884,-2.1422295570373535,-1.3337746423533936,-2.526890818272726,6.111775266915121,1.0177507400512695,-2.264735523854391
1708436392.6359892,-2.142209053039551,-1.333741621380188,-2.526886049901144,6.111808049469747,1.0177507400512695,-2.2647622267352503
1708436392.6379805,-2.1422176361083984,-1.333813191657402,-2.526881996785299,6.111791956215658,1.0178000926971436,-2.2648332754718226
1708436392.6400046,-2.142209053039551,-1.3337849241546174,-2.52690560022463,6.1117379544074915,1.0177748203277588,-2.264869038258688
1708436392.641963,-2.1422176361083984,-1.333770216708519,-2.526886049901144,6.111761796265402,1.0177792310714722,-2.264893356953756
1708436392.6439722,-2.14219331741333,-1.3337015372565766,-2.526951853428976,6.111740815430441,1.0177661180496216,-2.264895741139547
1708436392.6460228,-2.14219331741333,-1.3337879937938233,-2.526947561894552,6.111769544869222,1.0178031921386719,-2.2649038473712366
1708436392.6480246,-2.142209053039551,-1.3337549728206177,-2.526947561894552,6.11169587352828,1.0178356170654297,-2.2649486700641077
1708436392.6499891,-2.142197608947754,-1.3337879937938233,-2.526943031941549,6.1117334244544885,1.0178227424621582,-2.265017334614889
1708436392.6519625,-2.142137050628662,-1.3337133687785645,-2.5269883314715784,6.111742484360494,1.0178261995315552,-2.265013043080465
1708436392.6539989,-2.142165184020996,-1.3337865632823487,-2.5270043055163782,6.111742365151205,1.0178676843643188,-2.2650626341449183
1708436392.655978,-2.1422019004821777,-1.3337924194386979,-2.526980463658468,6.111733543663778,1.0178349018096924,-2.2650564352618616
1708436392.6579902,-2.142197608947754,-1.3336896163276215,-2.5270209948169153,6.1117334244544885,1.017863392829895,-2.265064064656393
1708436392.660018,-2.1422104835510254,-1.3337252897075196,-2.5269792715655726,6.111709344177999,1.0179004669189453,-2.2651122252093714
1708436392.662029,-2.142144203186035,-1.33370594800029,-2.5269506613360804,6.111701953202047,1.017830491065979,-2.2651494185077112
1708436392.664009,-2.142186164855957,-1.3337208193591614,-2.5269883314715784,6.111700403481283,1.0178744792938232,-2.2651975790606897
1708436392.665982,-2.1421780586242676,-1.3337804985097428,-2.5270360151873987,6.111726033478536,1.0179274082183838,-2.2652128378497522
1708436392.6679952,-2.1421499252319336,-1.333770216708519,-2.5269911924945276,6.111701953202047,1.017906904220581,-2.2652695814715784
1708436392.6699772,-2.142108917236328,-1.3337015372565766,-2.5270360151873987,6.111697423249044,1.017984390258789,-2.265268627797262
1708436392.67202,-2.1421256065368652,-1.3338195842555542,-2.5270348230945032,6.111690032273092,1.0179431438446045,-2.2653043905841272
1708436392.67399,-2.1421256065368652,-1.3336806756309052,-2.5270360151873987,6.111690032273092,1.0179226398468018,-2.265324417744772
1708436392.6759942,-2.142134189605713,-1.3337342155030747,-2.527039353047506,6.1116747734840295,1.0179345607757568,-2.26540452638735
1708436392.6779766,-2.1421656608581543,-1.333816261296608,-2.5271006266223353,6.111703502922811,1.0179921388626099,-2.2654135862933558
1708436392.6799693,-2.1421263217926025,-1.333729700451233,-2.5271006266223353,6.111633407860555,1.0180076360702515,-2.2654574553119105
1708436392.681965,-2.1420891284942627,-1.3337879937938233,-2.5270467440234583,6.1116614220436,1.018003225326538,-2.265529457722799
1708436392.684007,-2.1421587467193604,-1.3337954145720978,-2.527055803929464,6.1116301892097376,1.0180641412734985,-2.265552345906393
1708436392.6859713,-2.1421384811401367,-1.3337538701346894,-2.527072254811422,6.111586797028341,1.0180597305297852,-2.265646759663717
1708436392.6879983,-2.1420936584472656,-1.3337505620769043,-2.5271080175982874,6.111642348557272,1.0180588960647583,-2.2656496206866663
1708436392.6899838,-2.1420979499816895,-1.333758295779564,-2.5270498434649866,6.111622798233785,1.018038034439087,-2.2657097021686
1708436392.6920152,-2.1421263217926025,-1.333758295779564,-2.5270960966693323,6.111667859345236,1.0181035995483398,-2.2658193747149866
1708436392.6940186,-2.142110824584961,-1.333749459390976,-2.5270751158343714,6.111643540650167,1.018087387084961,-2.265895191823141
1708436392.6960063,-2.142106533050537,-1.3337550026229401,-2.5270989576922815,6.11161087730483,1.0181035995483398,-2.26593524614443
1708436392.6979635,-2.14206600189209,-1.3337372106364747,-2.5270631949054163,6.111592757492819,1.0181233882904053,-2.2660020033465784
1708436392.699979,-2.14208984375,-1.3338117909482499,-2.5271363894092005,6.111622798233785,1.0181190967559814,-2.266062084828512
1708436392.7019918,-2.1420459747314453,-1.3337776225856324,-2.5271247068988245,6.111540424614706,1.0181474685668945,-2.266130272542135
1708436392.7039785,-2.142029285430908,-1.3338195842555542,-2.52710205713381,6.111544835358419,1.018130898475647,-2.266154114400045
1708436392.7060153,-2.1420459747314453,-1.3337538701346894,-2.5271111170398157,6.11156581619338,1.0182008743286133,-2.266259495412008
1708436392.7079966,-2.1420748233795166,-1.3338195991567154,-2.527121607457296,6.111549484520712,1.0181715488433838,-2.266334358845846
1708436392.7099767,-2.142005205154419,-1.333798499112465,-2.527130667363302,6.111534583359518,1.0182000398635864,-2.2663944403277796
1708436392.7119706,-2.142037868499756,-1.3337909889272233,-2.527121607457296,6.111534583359518,1.0182162523269653,-2.2664735952960413
1708436392.7139695,-2.1420016288757324,-1.333782137637474,-2.527138058339254,6.111539113312521,1.0182284116744995,-2.266566578541891
1708436392.7159724,-2.142009735107422,-1.3337776225856324,-2.527130667363302,6.111527192383566,1.0182241201400757,-2.2666505018817347
1708436392.7179992,-2.1420633792877197,-1.3338430237821122,-2.527163569127218,6.111555802613058,1.0182186365127563,-2.266719643269674
1708436392.719969,-2.1419806480407715,-1.3338062179139634,-2.5271876494037073,6.1115808365638635,1.018202304840088,-2.266794506703512
1708436392.7219934,-2.1419806480407715,-1.3338359606317063,-2.5271952787982386,6.111465799599447,1.0182795524597168,-2.2669408957110804
1708436392.7239687,-2.14201021194458,-1.3338151735118409,-2.5272117296801966,6.11147032955245,1.0182557106018066,-2.267052952443258
1708436392.7259717,-2.1420059204101562,-1.333880530004837,-2.5271862188922327,6.111462819367208,1.01827073097229,-2.267116371785299
1708436392.72797,-2.141993522644043,-1.3338107031634827,-2.52717096010317,6.1114821312721155,1.0183616876602173,-2.26711351076235
1708436392.729975,-2.141982078552246,-1.3338093024543305,-2.5272117296801966,6.111437070160665,1.0183115005493164,-2.2672322432147425
1708436392.7319906,-2.1420016288757324,-1.333810643558838,-2.5272071997271937,6.111441600113668,1.018307089805603,-2.2673562208758753
1708436392.7340128,-2.1419906616210938,-1.333826945429184,-2.5272026697741907,6.111420976906576,1.0183320045471191,-2.267477814351217
1708436392.735961,-2.1419084072113037,-1.333895520572998,-2.5272207895862024,6.11145960071639,1.0183398723602295,-2.26752740541567
1708436392.7379656,-2.1419410705566406,-1.3338628423265,-2.527214590703146,6.111352073937216,1.0183429718017578,-2.2676613966571253
1708436392.739971,-2.141982078552246,-1.3338627976230164,-2.527194086705343,6.111361133843221,1.0183923244476318,-2.2677934805499476
1708436392.741956,-2.141932964324951,-1.3338505935719986,-2.527238432561056,6.111392724304952,1.018399953842163,-2.2678850332843226
1708436392.7439673,-2.141930103302002,-1.3338328164866944,-2.527221981679098,6.111362683563986,1.0184327363967896,-2.2679060141192835
1708436392.745969,-2.1419386863708496,-1.3338385981372376,-2.527238432561056,6.111341464310446,1.0184074640274048,-2.2680934111224573
1708436392.7479978,-2.141941547393799,-1.3337852221778412,-2.52727181116213,6.111313211708822,1.018406629562378,-2.268194023762838
1708436392.7500348,-2.1419460773468018,-1.3338182282498856,-2.527254883443014,6.111383545189657,1.0184272527694702,-2.268289868031637
1708436392.7519875,-2.1419053077697754,-1.333834246998169,-2.527245823537008,6.111314761429586,1.0184556245803833,-2.268381420766012
1708436392.753983,-2.1418895721435547,-1.3338372272304078,-2.5272627512561243,6.111310350685873,1.018497109413147,-2.268534485493795
1708436392.7559814,-2.141885280609131,-1.333854929809906,-2.527304712926046,6.111363994866171,1.018496036529541,-2.2686217466937464
1708436392.7579937,-2.1419219970703125,-1.3338385832360764,-2.5272865931140345,6.111331212311544,1.0185003280639648,-2.2687657515155237
1708436392.7600014,-2.1418938636779785,-1.3338093024543305,-2.5272987524615687,6.111352073937216,1.0185003280639648,-2.2688215414630335
1708436392.7619717,-2.141850233078003,-1.333846167927124,-2.5273104349719446,6.111314761429586,1.018496036529541,-2.268956486378805
1708436392.7639947,-2.141895294189453,-1.3338416528752823,-2.527294460927145,6.111290919571676,1.0185236930847168,-2.269090000783102
1708436392.7659712,-2.141846179962158,-1.3338182282498856,-2.527268711720602,6.1113237021263025,1.0185322761535645,-2.269226853047506
1708436392.768018,-2.141817569732666,-1.333883599644043,-2.5273149649249476,6.111275899201193,1.0185192823410034,-2.2692764441119593
1708436392.769971,-2.1418585777282715,-1.333813802605011,-2.5273354689227503,6.1112639782722376,1.0185561180114746,-2.2694008986102503
1708436392.7719567,-2.1418673992156982,-1.3338269901326676,-2.5273564497577112,6.11132978180007,1.018576979637146,-2.26951772371401
1708436392.7739758,-2.141843318939209,-1.3338791889003296,-2.5273600260363978,6.111238586693563,1.0186176300048828,-2.2697156111346644
1708436392.776015,-2.141847610473633,-1.333822564487793,-2.5273149649249476,6.111301529198446,1.018592357635498,-2.2698076407061976
1708436392.7779813,-2.141875982284546,-1.3338792038014908,-2.5273435751544397,6.11127136924819,1.01863694190979,-2.2698634306537073
1708436392.7799947,-2.1418142318725586,-1.3337718558362504,-2.52736741701235,6.111254918366232,1.0186089277267456,-2.2700145880328577
1708436392.7819812,-2.1417698860168457,-1.3338505935719986,-2.5273223559008997,6.1112356064613245,1.0186820030212402,-2.270036045704977
1708436392.7840044,-2.1417741775512695,-1.3338792038014908,-2.527346674595968,6.111268389015951,1.018635869026184,-2.2702024618731897
1708436392.7859786,-2.141782760620117,-1.3338182282498856,-2.527329985295431,6.111199843674459,1.0186808109283447,-2.270327393208639
1708436392.788004,-2.1418185234069824,-1.3338062179139634,-2.527350966130392,6.111181962281027,1.018688440322876,-2.270423714314596
1708436392.7899745,-2.141770362854004,-1.3338269901326676,-2.527334753667013,6.111213433533468,1.018676519393921,-2.270550552998678
1708436392.7919767,-2.141787052154541,-1.3338385832360764,-2.527329985295431,6.111138450890341,1.018660306930542,-2.27067214647402
1708436392.7940152,-2.141782760620117,-1.3337895435145875,-2.527350966130392,6.1111968634422205,1.0186840295791626,-2.2707250753985804
1708436392.7959907,-2.1417789459228516,-1.333834246998169,-2.527346436177389,6.111139762192526,1.0186797380447388,-2.2708590666400355
1708436392.7979827,-2.1417956352233887,-1.3338062179139634,-2.527379576359884,6.111172902375021,1.0187050104141235,-2.270999256764547
1708436392.7999804,-2.1417789459228516,-1.333834246998169,-2.527391497288839,6.11118625381545,1.0187005996704102,-2.27116567293276
1708436392.8019705,-2.141771078109741,-1.3338628423265,-2.5273616949664515,6.1110771773155115,1.0187244415283203,-2.2711408774005335
1708436392.8040032,-2.1417622566223145,-1.333843008880951,-2.5274153391467493,6.111168253212728,1.018716812133789,-2.2713149229632776
1708436392.8059876,-2.1417129039764404,-1.3338269901326676,-2.5274694601642054,6.111123311310568,1.018691897392273,-2.2714527289019983
1708436392.8079922,-2.141721725463867,-1.3338672679713746,-2.527414623891012,6.111071097641744,1.018716812133789,-2.271498505269186
1708436392.809988,-2.141771078109741,-1.3338298213532944,-2.5274186770068567,6.1111042378242395,1.0187244415283203,-2.2715824286090296
1708436392.8119986,-2.141763687133789,-1.3338298362544556,-2.5274887720691126,6.111038315087118,1.018733024597168,-2.2717517058001917
1708436392.8140688,-2.1417384147644043,-1.3338639003089447,-2.52744704881777,6.111108767777242,1.0187410116195679,-2.271855179463522
1708436392.8160043,-2.1417016983032227,-1.3337895286134263,-2.5274556318866175,6.111105429917135,1.018703818321228,-2.271956268941061
1708436392.8179839,-2.141730308532715,-1.3338298213532944,-2.52744704881777,6.111117827683248,1.0187649726867676,-2.2720235029803675
1708436392.8199892,-2.1416609287261963,-1.3338269901326676,-2.527426067982809,6.111081707268514,1.01875638961792,-2.2721646467791956
1708436392.8220007,-2.1416821479797363,-1.3338672679713746,-2.5274351278888147,6.1110068438346765,1.0187606811523438,-2.2722442785846155
1708436392.8239832,-2.141674041748047,-1.3338385832360764,-2.527457300816671,6.111015784531393,1.0187400579452515,-2.2723611036883753
1708436392.825991,-2.141665458679199,-1.333834246998169,-2.5274840036975306,6.110999333649435,1.0187891721725464,-2.272461716328756
1708436392.8279877,-2.141645669937134,-1.3338137877038498,-2.527532164250509,6.110980140953817,1.0188053846359253,-2.2725561300860804
1708436392.8299992,-2.14164137840271,-1.3338298213532944,-2.5274913946734827,6.1109845516975305,1.0188175439834595,-2.272644821797506
1708436392.831987,-2.1416335105895996,-1.3337974709323426,-2.527475182210104,6.110926019936361,1.018796682357788,-2.272712532673971
1708436392.8339791,-2.141646385192871,-1.3337807965329667,-2.5274952093707483,6.110948550492086,1.018800139427185,-2.2727378050433558
1708436392.8359888,-2.1416025161743164,-1.333854929809906,-2.527461830769674,6.110944020539083,1.0188535451889038,-2.2728264967547815
1708436392.837984,-2.141590118408203,-1.3338195991567154,-2.52747089067568,6.110929238587179,1.0188535451889038,-2.2729724089251917
1708436392.8399913,-2.141611099243164,-1.333822564487793,-2.527487341557638,6.110917079239645,1.018816351890564,-2.2730277220355433
1708436392.8419821,-2.141545057296753,-1.333801881676056,-2.527466360722677,6.110884177475729,1.0189028978347778,-2.273120705281393
1708436392.8439734,-2.1415538787841797,-1.3338430237821122,-2.527473751698629,6.1107989428337,1.0189018249511719,-2.2731850782977503
