Eg3-git/Classifiers/Data Collection/u4/u4cir5_ur3e_joint_states.csv
time,elbow_joint,shoulder_lift_joint,shoulder_pan_joint,wrist_1_joint,wrist_2_joint,wrist_3_joint
1708436429.862163,-2.15389084815979,-1.337055431013443,-2.525341574345724,6.139624821930685,1.0149612426757812,-2.4576357046710413
1708436429.8641708,-2.15389084815979,-1.3370509904674073,-2.5253716150866907,6.139596211701193,1.0149731636047363,-2.4576595465289515
1708436429.8661504,-2.153895139694214,-1.3370311868241807,-2.5254209677325647,6.139575469284811,1.0149731636047363,-2.4576192537890833
1708436429.8681777,-2.153907537460327,-1.337015227680542,-2.525329653416769,6.139571058541097,1.0149612426757812,-2.4576237837420862
1708436429.8701634,-2.153932571411133,-1.337038831119873,-2.5253549257861536,6.139563548355856,1.014981985092163,-2.4576402346240442
1708436429.8721797,-2.1538827419281006,-1.337026910190918,-2.5253594557391565,6.139575469284811,1.0149195194244385,-2.4576943556415003
1708436429.8741674,-2.15391206741333,-1.3370640736869355,-2.5253925959216517,6.139584409981527,1.0149775743484497,-2.457665506993429
1708436429.8761604,-2.153873920440674,-1.3370923709920426,-2.5253549257861536,6.139568078308859,1.0149811506271362,-2.457595411931173
1708436429.8781586,-2.153899669647217,-1.3370343905738373,-2.5253761450396937,6.139564621239462,1.0149329900741577,-2.4576566855060022
1708436429.880155,-2.15391206741333,-1.3370300394347687,-2.525412146245138,6.139596211701193,1.0149863958358765,-2.4576476255999964
1708436429.8821616,-2.153873920440674,-1.3370109510472794,-2.52537447610964,6.139535057335653,1.0149521827697754,-2.4575911203967493
1708436429.8841567,-2.1539041996002197,-1.3370343756726761,-2.525383536015646,6.139555799752035,1.014947772026062,-2.4576521555529993
1708436429.8861454,-2.1538872718811035,-1.3370311868241807,-2.525383536015646,6.139613020211019,1.0149731636047363,-2.4575865904437464
1708436429.8881516,-2.1538758277893066,-1.3370343756726761,-2.525383536015646,6.1395513890083215,1.0149946212768555,-2.457611862813131
1708436429.8901865,-2.1538872718811035,-1.3370311868241807,-2.5253761450396937,6.139572489052572,1.014970064163208,-2.45756966272463
1708436429.8921623,-2.153859853744507,-1.3370597970536728,-2.5253925959216517,6.139518725662985,1.014947772026062,-2.457578484212057
1708436429.8941479,-2.153838634490967,-1.337043197160103,-2.5253594557391565,6.139600741654196,1.0149641036987305,-2.4576149622546595
1708436429.8961828,-2.1539130210876465,-1.336986781363823,-2.5254090468036097,6.139523136406698,1.0149329900741577,-2.457595411931173
1708436429.898156,-2.15385103225708,-1.336970494394638,-2.525404755269186,6.13953052738265,1.0149449110031128,-2.457578484212057
1708436429.9001575,-2.1538872718811035,-1.337026910190918,-2.525400225316183,6.139514195709982,1.0149521827697754,-2.457649056111471
1708436429.9021533,-2.1538734436035156,-1.337028370504715,-2.5253880659686487,6.139584409981527,1.0149685144424438,-2.457644526158468
1708436429.9041882,-2.153859853744507,-1.3369954985431214,-2.5253503958331507,6.13961290100173,1.0149612426757812,-2.457628313695089
1708436429.9061558,-2.15385103225708,-1.3370109659484406,-2.525400225316183,6.1395068047340295,1.0149731636047363,-2.457665506993429
1708436429.9081671,-2.1539041996002197,-1.3370760840228577,-2.52543288866152,6.139579880028524,1.0149612426757812,-2.4576192537890833
1708436429.9101715,-2.1538758277893066,-1.3370196682265778,-2.525367085133688,6.139559137612142,1.0149612426757812,-2.4575911203967493
1708436429.9121401,-2.1538712978363037,-1.3369692426970978,-2.5253968874560755,6.139555799752035,1.0149775743484497,-2.457641665135519
1708436429.9141726,-2.1538021564483643,-1.3369617772153397,-2.5253761450396937,6.139555799752035,1.0149612426757812,-2.457599941884176
1708436429.9161692,-2.1538918018341064,-1.3369954985431214,-2.525346104298727,6.139554726868429,1.0149612426757812,-2.457604471837179
1708436429.9181948,-2.153900623321533,-1.3370240193656464,-2.5253925959216517,6.1395888207252405,1.0149612426757812,-2.457609001790182
1708436429.920183,-2.1538171768188477,-1.3370519143394013,-2.5253925959216517,6.139568078308859,1.014981985092163,-2.457620922719137
1708436429.9221482,-2.1538519859313965,-1.336974860434868,-2.525416676198141,6.139509665756979,1.0149582624435425,-2.457620922719137
1708436429.924174,-2.1538610458374023,-1.3370030683330079,-2.5253880659686487,6.1395513890083215,1.0149568319320679,-2.457599941884176
1708436429.926154,-2.1538803577423096,-1.3369943362525483,-2.5253761450396937,6.139568078308859,1.0149775743484497,-2.457628313695089
1708436429.9281485,-2.1538689136505127,-1.3369943362525483,-2.5253880659686487,6.139546859055319,1.014974594116211,-2.4576237837420862
1708436429.93015,-2.153900623321533,-1.3370074343732377,-2.5253761450396937,6.139568078308859,1.0149163007736206,-2.457587544118063
1708436429.9321506,-2.1538803577423096,-1.3369736981442948,-2.5253549257861536,6.139554726868429,1.0149449110031128,-2.457604471837179
1708436429.9341526,-2.153859853744507,-1.3370030683330079,-2.5253823439227503,6.139568078308859,1.0149285793304443,-2.457587544118063
1708436429.9361722,-2.1538145542144775,-1.3370356422713776,-2.525416676198141,6.1395230171974084,1.0149568319320679,-2.457620922719137
1708436429.93815,-2.1538145542144775,-1.3370240342668076,-2.525367085133688,6.139555799752035,1.0149568319320679,-2.457616392766134
1708436429.9401758,-2.1538963317871094,-1.336998612885811,-2.5254090468036097,6.139536487847128,1.0149612426757812,-2.4575756231891077
1708436429.9421647,-2.1538960933685303,-1.336998612885811,-2.525367085133688,6.139542448311605,1.0149946212768555,-2.45758301416506
1708436429.944164,-2.153859853744507,-1.3370074343732377,-2.5253880659686487,6.139568078308859,1.014974594116211,-2.4575586954699915
1708436429.9461572,-2.153839588165283,-1.3369943362525483,-2.5253761450396937,6.139526116638937,1.0149612426757812,-2.4575257937060755
1708436429.948152,-2.1538190841674805,-1.3369660538486023,-2.5253761450396937,6.139593350678243,1.014974594116211,-2.4575801531421106
1708436429.9501522,-2.1538846492767334,-1.337035597567894,-2.525383536015646,6.139535057335653,1.0149043798446655,-2.457611862813131
1708436429.95216,-2.1538190841674805,-1.3370109510472794,-2.525416676198141,6.139563548355856,1.0149612426757812,-2.4575677553759974
1708436429.9541583,-2.1538734436035156,-1.3369899851134797,-2.525386635457174,6.1395394680793665,1.0149775743484497,-2.457609001790182
1708436429.9561496,-2.1538643836975098,-1.3370109510472794,-2.5253594557391565,6.13953052738265,1.0149775743484497,-2.4575422445880335
1708436429.9581628,-2.1538734436035156,-1.3369943362525483,-2.5253503958331507,6.1395736811454675,1.014941930770874,-2.4575305620776575
1708436429.9601636,-2.1538643836975098,-1.3369955134442826,-2.5253761450396937,6.139563548355856,1.0149731636047363,-2.4575496355639856
1708436429.9621627,-2.1538689136505127,-1.33701807380233,-2.5253761450396937,6.1395394680793665,1.0149493217468262,-2.4575377146350306
1708436429.9641669,-2.1538190841674805,-1.3370311868241807,-2.525400225316183,6.139529216080465,1.0149329900741577,-2.4575377146350306
1708436429.9661634,-2.1538190841674805,-1.3369692426970978,-2.525367085133688,6.139568078308859,1.0149568319320679,-2.457618061696188
1708436429.9681613,-2.1538305282592773,-1.3370030683330079,-2.5253806749926966,6.139597642212667,1.0149493217468262,-2.4575632254229944
1708436429.9701667,-2.1538350582122803,-1.3370074492743989,-2.5253761450396937,6.139575469284811,1.0149656534194946,-2.4575305620776575
1708436429.9721572,-2.1538734436035156,-1.3370268952897568,-2.5253594557391565,6.139560210495748,1.0149329900741577,-2.457572046910421
1708436429.974163,-2.15384840965271,-1.3370311868241807,-2.5253594557391565,6.1395513890083215,1.0149329900741577,-2.45758301416506
1708436429.9761846,-2.15384840965271,-1.33698362231765,-2.5253384749041956,6.1394855854804895,1.0149537324905396,-2.4575632254229944
1708436429.9781628,-2.1538259983062744,-1.3369497668794175,-2.525379006062643,6.139514195709982,1.0149686336517334,-2.4575632254229944
1708436429.9801805,-2.15384840965271,-1.337019683127739,-2.525362555180685,6.139523136406698,1.0149568319320679,-2.457609001790182
1708436429.982159,-2.153815746307373,-1.337026910190918,-2.5253716150866907,6.139559137612142,1.0149775743484497,-2.457571093236105
1708436429.9841497,-2.1538305282592773,-1.337019683127739,-2.525362555180685,6.139535057335653,1.0149731636047363,-2.4575892130481165
1708436429.986149,-2.153844118118286,-1.337019683127739,-2.525346104298727,6.139546859055319,1.0149521827697754,-2.457604471837179
1708436429.9881742,-2.153857469558716,-1.3369692426970978,-2.525404755269186,6.1395513890083215,1.0149731636047363,-2.4575586954699915
1708436429.9902031,-2.153869867324829,-1.3370109510472794,-2.525400225316183,6.1395513890083215,1.0149731636047363,-2.4575348536120813
1708436429.9921715,-2.1538565158843994,-1.3370519143394013,-2.525383536015646,6.1395171759422205,1.0150065422058105,-2.4575467745410364
1708436429.9941554,-2.1538069248199463,-1.336998612885811,-2.5253880659686487,6.139568078308859,1.0149537324905396,-2.457566563283102
1708436429.996171,-2.1538326740264893,-1.3370030683330079,-2.525367085133688,6.13959966877059,1.0150065422058105,-2.4575677553759974
1708436429.9981644,-2.1538326740264893,-1.337026910190918,-2.525416676198141,6.139576899796285,1.0149612426757812,-2.457609001790182
1708436430.0001838,-2.1538069248199463,-1.3370109510472794,-2.525391165410177,6.139579880028524,1.0149946212768555,-2.457587544118063
1708436430.0021365,-2.1537764072418213,-1.337038816218712,-2.525412146245138,6.1395888207252405,1.0149568319320679,-2.4575920740710657
1708436430.0042052,-2.1538734436035156,-1.336981163626053,-2.525407616292135,6.1395394680793665,1.0149946212768555,-2.4575331846820276
1708436430.0061595,-2.153785467147827,-1.3370356422713776,-2.525379006062643,6.139546859055319,1.0149521827697754,-2.457562033330099
1708436430.008161,-2.1537764072418213,-1.3370597970536728,-2.525391165410177,6.139546859055319,1.0149685144424438,-2.4575541655169886
1708436430.010177,-2.1538565158843994,-1.337016151552536,-2.52537447610964,6.139560329705038,1.0149568319320679,-2.457587544118063
1708436430.0121415,-2.1538021564483643,-1.336998612885811,-2.525428597127096,6.139542448311605,1.0149775743484497,-2.457572046910421
1708436430.0141683,-2.1538190841674805,-1.337019683127739,-2.525404755269186,6.139535057335653,1.0149685144424438,-2.4575846830951136
1708436430.0161886,-2.1538894176483154,-1.3370109510472794,-2.525353733693258,6.1395513890083215,1.0149900913238525,-2.457609001790182
1708436430.0181956,-2.153844118118286,-1.3370225441506882,-2.52537447610964,6.139568078308859,1.0149855613708496,-2.4575541655169886
1708436430.0201657,-2.153785467147827,-1.3369943362525483,-2.525412146245138,6.139509784966268,1.0149855613708496,-2.4575632254229944
1708436430.022162,-2.15381121635437,-1.337019683127739,-2.525386635457174,6.139600741654196,1.0149731636047363,-2.4575586954699915
1708436430.02416,-2.1538236141204834,-1.3369823408177872,-2.525407616292135,6.139582860260763,1.0150227546691895,-2.4575493971454065
1708436430.0261712,-2.1538069248199463,-1.336998612885811,-2.525400225316183,6.139559137612142,1.0150301456451416,-2.457613531743185
1708436430.0281587,-2.153852939605713,-1.337019683127739,-2.525400225316183,6.139579880028524,1.0149685144424438,-2.4575920740710657
1708436430.030144,-2.1538734436035156,-1.3370311719230195,-2.525412146245138,6.139559137612142,1.014990210533142,-2.457566563283102
1708436430.032142,-2.1538519859313965,-1.3370030981353302,-2.525370184575216,6.139608490258016,1.015038013458252,-2.4575558344470423
1708436430.034159,-2.153852939605713,-1.3369781386903306,-2.525353733693258,6.139629351883688,1.0149508714675903,-2.4575675169574183
1708436430.036177,-2.1538565158843994,-1.3370356422713776,-2.52539569536318,6.139546859055319,1.0150065422058105,-2.4575756231891077
1708436430.038162,-2.1538236141204834,-1.3370030683330079,-2.525379006062643,6.1395171759422205,1.015051245689392,-2.4575801531421106
1708436430.0401573,-2.1538519859313965,-1.3370240342668076,-2.525400225316183,6.139575469284811,1.015033483505249,-2.4575801531421106
1708436430.042141,-2.15384840965271,-1.3370554459146042,-2.525386635457174,6.139542329102316,1.0150004625320435,-2.4575756231891077
1708436430.0441456,-2.1538565158843994,-1.3370225441506882,-2.52537447610964,6.139591800957479,1.015016794204712,-2.4575286547290247
1708436430.0461378,-2.1538326740264893,-1.337003083234169,-2.525358263646261,6.139617430954733,1.0149798393249512,-2.457512442265646
1708436430.0481782,-2.1538655757904053,-1.3370065850070496,-2.52539569536318,6.139600741654196,1.0150290727615356,-2.457587544118063
1708436430.0501537,-2.1538069248199463,-1.3370518696359177,-2.5253716150866907,6.139587390213766,1.0150543451309204,-2.457613531743185
1708436430.0521681,-2.1538069248199463,-1.3369823408177872,-2.525379006062643,6.139596211701193,1.0150665044784546,-2.4575212637530726
1708436430.0541673,-2.1538610458374023,-1.3370225441506882,-2.525407616292135,6.139542448311605,1.0150665044784546,-2.4575803915606897
1708436430.0561614,-2.153852939605713,-1.3369574856809159,-2.525424067174093,6.139633762627401,1.0150787830352783,-2.4575513044940394
1708436430.0581987,-2.1538610458374023,-1.336998612885811,-2.5254104773150843,6.139582860260763,1.0150408744812012,-2.4575586954699915
1708436430.0601585,-2.1538190841674805,-1.337026910190918,-2.5253897348987024,6.139604079514303,1.0150830745697021,-2.4575966040240687
1708436430.0621479,-2.1538655757904053,-1.337015227680542,-2.525400225316183,6.139557587891378,1.0150408744812012,-2.4575467745410364
1708436430.0641456,-2.15384840965271,-1.3370109510472794,-2.5254693667041224,6.139618980675497,1.0150697231292725,-2.457566563283102
1708436430.0661602,-2.15384840965271,-1.3370399934104462,-2.525440518056051,6.139678704529562,1.015048623085022,-2.45758301416506
1708436430.0681853,-2.1538281440734863,-1.3370311868241807,-2.525398556386129,6.139598119049825,1.0150905847549438,-2.4575496355639856
1708436430.0701652,-2.153836965560913,-1.3370519143394013,-2.525370184575216,6.139582860260763,1.015048623085022,-2.4575584570514124
1708436430.0721612,-2.153839588165283,-1.3370030683330079,-2.52537447610964,6.139656412392416,1.0150742530822754,-2.457595411931173
1708436430.074169,-2.1538236141204834,-1.3370074194720765,-2.525412146245138,6.139660823136129,1.0150787830352783,-2.4575632254229944
1708436430.07616,-2.1538326740264893,-1.3369780343822022,-2.525365654622213,6.1396100399787805,1.0150530338287354,-2.457616392766134
1708436430.0782125,-2.1538281440734863,-1.3370030683330079,-2.525428597127096,6.1396100399787805,1.0150905847549438,-2.4575586954699915
1708436430.0801692,-2.1538565158843994,-1.3370065999082108,-2.525407616292135,6.139725076943197,1.015097975730896,-2.4575756231891077
1708436430.0821872,-2.1538236141204834,-1.3370400232127686,-2.525403086339132,6.139666902809896,1.0150816440582275,-2.45758301416506
1708436430.0841951,-2.153844118118286,-1.337006614809372,-2.5254648367511194,6.139662372856893,1.0150772333145142,-2.457562033330099
1708436430.086145,-2.1538021564483643,-1.3369443279555817,-2.525440518056051,6.139723646431722,1.015086054801941,-2.4575801531421106
1708436430.0881689,-2.1538190841674805,-1.336994321351387,-2.5254269281970423,6.139737117081442,1.0150728225708008,-2.45762545267214
1708436430.0901594,-2.153844118118286,-1.3370474737933655,-2.525440518056051,6.139756667404928,1.0151265859603882,-2.457609001790182
1708436430.0922406,-2.1537742614746094,-1.3370109808496018,-2.525452438985006,6.139689433365621,1.0150742530822754,-2.457571093236105
1708436430.094191,-2.153844118118286,-1.337015227680542,-2.5254104773150843,6.139743315964498,1.015097975730896,-2.457595411931173
1708436430.0961473,-2.1538021564483643,-1.3369955581477662,-2.5254648367511194,6.139747845917501,1.0150772333145142,-2.457595411931173
1708436430.0981615,-2.153841495513916,-1.3369900000146409,-2.5254433790790003,6.139747845917501,1.0150398015975952,-2.457599941884176
1708436430.100153,-2.1538610458374023,-1.3369823855212708,-2.5254977385150355,6.1397344944770715,1.0151054859161377,-2.457620922719137
1708436430.1021872,-2.153869867324829,-1.3369955283454438,-2.5254557768451136,6.139705884247579,1.0151054859161377,-2.457644526158468
1708436430.10415,-2.1538565158843994,-1.3370518696359177,-2.5254603067981165,6.139743315964498,1.0150846242904663,-2.457649056111471
1708436430.1061583,-2.1538190841674805,-1.3370225739530106,-2.5254886786090296,6.139726626663961,1.0151132345199585,-2.457616392766134
1708436430.1081603,-2.153844118118286,-1.3370030683330079,-2.5254812876330774,6.139722215920248,1.0151387453079224,-2.4575911203967493
1708436430.1101556,-2.153815746307373,-1.3369737726501008,-2.5254467169391077,6.139701354294576,1.0150935649871826,-2.45758301416506
1708436430.1121464,-2.1538655757904053,-1.337026910190918,-2.525470558797018,6.139725434571066,1.0150846242904663,-2.457632605229513
1708436430.1141796,-2.1538350582122803,-1.3370760840228577,-2.5254631678210657,6.139795648842611,1.015113115310669,-2.4576030413257044
1708436430.1161687,-2.1538777351379395,-1.337043197160103,-2.525458637868063,6.139783847122946,1.015113115310669,-2.457672897969381
1708436430.1181767,-2.153839588165283,-1.3370399338058014,-2.525519911442892,6.1397626278694055,1.0151054859161377,-2.4576402346240442
1708436430.1201575,-2.153839588165283,-1.3370065850070496,-2.525503460560934,6.139803159027853,1.0151461362838745,-2.4576237837420862
1708436430.1221514,-2.1538069248199463,-1.3369986426881333,-2.525470797215597,6.139749276428976,1.015162467956543,-2.4576059023486536
1708436430.1241832,-2.15381121635437,-1.3370240789702912,-2.525470797215597,6.139791238098898,1.0151373147964478,-2.457628313695089
1708436430.126153,-2.1538305282592773,-1.3370311719230195,-2.5254960695849817,6.139782416611471,1.0151088237762451,-2.4576030413257044
1708436430.1281548,-2.153844118118286,-1.336953119640686,-2.525519911442892,6.139836180001058,1.0151491165161133,-2.457611862813131
1708436430.13015,-2.1538281440734863,-1.337059811954834,-2.525487009678976,6.1397671578224084,1.0151747465133667,-2.457656447087423
1708436430.1321604,-2.1538894176483154,-1.3370554459146042,-2.5255125204669397,6.139757144242086,1.0151491165161133,-2.4576104323016565
1708436430.134151,-2.1538734436035156,-1.3370030683330079,-2.525487009678976,6.139777886658468,1.0151491165161133,-2.4576521555529993
1708436430.1361637,-2.153839588165283,-1.337043197160103,-2.525487009678976,6.139864194184103,1.0151777267456055,-2.457660977040426
1708436430.1381443,-2.1538474559783936,-1.3370065552047272,-2.5254631678210657,6.139838921814718,1.0151866674423218,-2.4576311747180384
1708436430.1401396,-2.1538190841674805,-1.3370269250920792,-2.525491539631979,6.139871585160055,1.0151447057724,-2.4576550165759485
1708436430.1421602,-2.1538326740264893,-1.3370509904674073,-2.525458637868063,6.139841902046957,1.0151703357696533,-2.4576764742480677
1708436430.1441789,-2.1538145542144775,-1.3369899851134797,-2.5255003611194056,6.1398596642311,1.0152195692062378,-2.4576430956469935
1708436430.1461413,-2.1538474559783936,-1.3370269250920792,-2.5254676977740687,6.13990472534255,1.015210747718811,-2.4576810042010706
1708436430.1481538,-2.1538610458374023,-1.337038831119873,-2.5254796187030237,6.1398494122321985,1.015161395072937,-2.4577019850360315
1708436430.1501472,-2.1538779735565186,-1.337015227680542,-2.525487009678976,6.139841902046957,1.0151687860488892,-2.4576459566699427
1708436430.1521637,-2.1538565158843994,-1.3370311868241807,-2.525515381489889,6.1398987648780725,1.0151984691619873,-2.4576311747180384
1708436430.1541424,-2.1538350582122803,-1.3370343905738373,-2.5255125204669397,6.139910685807028,1.0151777267456055,-2.457700316105978
1708436430.1561532,-2.1538236141204834,-1.3370268952897568,-2.5254960695849817,6.139894354134359,1.0151569843292236,-2.457695786152975
1708436430.1581495,-2.1538894176483154,-1.3370109510472794,-2.5254960695849817,6.13989137390212,1.0151777267456055,-2.457679335271017
1708436430.16015,-2.1538734436035156,-1.3370640736869355,-2.525487009678976,6.139945137291708,1.0151984691619873,-2.457667414342062
1708436430.1621497,-2.153844118118286,-1.336998612885811,-2.525510851536886,6.139910685807028,1.015210747718811,-2.457667414342062
1708436430.1642077,-2.1538519859313965,-1.3370685291341324,-2.525498930607931,6.139897334366598,1.015194058418274,-2.457724157963888
1708436430.166139,-2.1538474559783936,-1.3370300245336075,-2.5255332628833216,6.1399481175239465,1.0152348279953003,-2.457695786152975
1708436430.1681635,-2.1537978649139404,-1.3369942915490647,-2.525482718144552,6.139869081764974,1.0151851177215576,-2.457719628010885
1708436430.1701415,-2.1538236141204834,-1.3370519143394013,-2.525536600743429,6.139948236733236,1.0151896476745605,-2.45774490038027
1708436430.172131,-2.1538190841674805,-1.3370109510472794,-2.525487009678976,6.139878022461691,1.015194058418274,-2.45770770708193
1708436430.1741533,-2.1537764072418213,-1.3370519590428849,-2.525470558797018,6.139955508499899,1.0152348279953003,-2.45767051378359
1708436430.17615,-2.153839588165283,-1.3370672774365921,-2.525482718144552,6.139927375107565,1.0152230262756348,-2.4576898256884974
1708436430.1781523,-2.1538610458374023,-1.3370597970536728,-2.525491539631979,6.1399303553398035,1.0152095556259155,-2.457715098057882
1708436430.1801457,-2.1538610458374023,-1.3370474737933655,-2.525519911442892,6.139934766083517,1.0152302980422974,-2.457756821309225
1708436430.1821463,-2.1538822650909424,-1.3370300245336075,-2.525498930607931,6.139972197800436,1.0151896476745605,-2.457724157963888
1708436430.1841588,-2.1538822650909424,-1.3370225441506882,-2.525524441395895,6.139922845154562,1.0152095556259155,-2.457752291356222
1708436430.1861334,-2.1538655757904053,-1.337015227680542,-2.5255242029773157,6.13993917682723,1.0152422189712524,-2.4577344099627894
1708436430.1881516,-2.1538190841674805,-1.3370343756726761,-2.525487009678976,6.13988088348464,1.015213966369629,-2.457752291356222
1708436430.1901488,-2.1538894176483154,-1.337038831119873,-2.525541130696432,6.1399258253868005,1.015237808227539,-2.45773154893984
1708436430.1921551,-2.1538350582122803,-1.337026910190918,-2.525487009678976,6.139914023667135,1.0152214765548706,-2.4577344099627894
1708436430.194157,-2.1538236141204834,-1.3370065850070496,-2.525487009678976,6.139934766083517,1.0152051448822021,-2.4577975908862513
1708436430.196166,-2.1538190841674805,-1.3370300245336075,-2.525510851536886,6.139951097756185,1.0152422189712524,-2.4577887693988245
1708436430.198163,-2.153839588165283,-1.3370065850070496,-2.525507990513937,6.139967787056722,1.0152796506881714,-2.4577723185168665
1708436430.2001743,-2.1538758277893066,-1.3370343756726761,-2.525548283253805,6.139885294228353,1.0152214765548706,-2.4577418009387415
1708436430.202157,-2.153900623321533,-1.3370181036046525,-2.525532070790426,6.1399303553398035,1.0152214765548706,-2.4577840010272425
1708436430.204153,-2.153859853744507,-1.337059811954834,-2.525519911442892,6.139984118729391,1.0152664184570312,-2.457834068928854
1708436430.20614,-2.153839588165283,-1.337043197160103,-2.5255394617663782,6.1399797079856775,1.0152333974838257,-2.4577932993518274
1708436430.2081404,-2.1538801193237305,-1.3370880049518128,-2.525506321583883,6.139901745110311,1.015275239944458,-2.457743469868795
1708436430.2101421,-2.1538689136505127,-1.3370299947312851,-2.525557343159811,6.1399961588676355,1.0152541399002075,-2.4577389399157923
1708436430.2121832,-2.1538565158843994,-1.3370509904674073,-2.525503460560934,6.140012490540304,1.0152541399002075,-2.4577508608447474
1708436430.2141628,-2.1538238525390625,-1.3370748323253174,-2.525527540837423,6.139946687012472,1.0152288675308228,-2.4577842394458216
1708436430.2161922,-2.1538431644439697,-1.3370181036046525,-2.5254855791675013,6.1399303553398035,1.0152037143707275,-2.457829538975851
1708436430.2182467,-2.153839588165283,-1.3370672774365921,-2.525552813206808,6.139967787056722,1.0152288675308228,-2.4578004519092005
1708436430.2201684,-2.1537933349609375,-1.3370343756726761,-2.525510851536886,6.13998423793868,1.0152859687805176,-2.457853142415182
1708436430.222141,-2.1538350582122803,-1.3370474737933655,-2.525498930607931,6.139991628914633,1.0152573585510254,-2.4578266779529017
1708436430.2241757,-2.1538190841674805,-1.3370629113963624,-2.525510851536886,6.139946687012472,1.0152785778045654,-2.457813088093893
1708436430.2261436,-2.1538350582122803,-1.3370181036046525,-2.525490109120504,6.139946687012472,1.015307068824768,-2.457834068928854
1708436430.2281458,-2.153859853744507,-1.3370181036046525,-2.5255184809314173,6.139991509705343,1.0152451992034912,-2.457787100468771
1708436430.2301595,-2.1538474559783936,-1.337021292453148,-2.525515381489889,6.1399093745048425,1.015290379524231,-2.457813088093893
1708436430.232165,-2.1538822650909424,-1.337022529249527,-2.525565210972921,6.139970767288961,1.0152651071548462,-2.457761828099386
1708436430.2341635,-2.1538846492767334,-1.3370672774365921,-2.525527540837423,6.139900672226705,1.0153189897537231,-2.457836691533224
1708436430.2361386,-2.1538846492767334,-1.3370509904674073,-2.525503460560934,6.139933335572042,1.0152740478515625,-2.457836929951803
1708436430.2381477,-2.1538643836975098,-1.3370225441506882,-2.525548283253805,6.139993059426107,1.0153026580810547,-2.457815949116842
1708436430.2401624,-2.1538734436035156,-1.337026910190918,-2.525490109120504,6.140003549843588,1.0153144598007202,-2.457804028187887
1708436430.2421787,-2.1538474559783936,-1.3370256584933777,-2.525548283253805,6.139982688217916,1.0153353214263916,-2.457848612462179
1708436430.244189,-2.1538519859313965,-1.3370181036046525,-2.5255561510669153,6.139909493714132,1.0153056383132935,-2.457799498234884
1708436430.2461443,-2.1538689136505127,-1.3370880049518128,-2.525548521672384,6.139950024872579,1.0153307914733887,-2.457799498234884
1708436430.2481735,-2.1538262367248535,-1.3370431822589417,-2.5255349318133753,6.139984118729391,1.0153263807296753,-2.457848612462179
1708436430.2501373,-2.1538689136505127,-1.337037907247879,-2.5255771319018763,6.139876353531637,1.015272617340088,-2.457827870045797
1708436430.2521417,-2.1538643836975098,-1.337038831119873,-2.5254975000964563,6.139966356545248,1.0153175592422485,-2.457836691533224
1708436430.254157,-2.1538236141204834,-1.3370509904674073,-2.5255394617663782,6.139958846360006,1.0153427124023438,-2.4578352610217493
1708436430.2561462,-2.1538915634155273,-1.3370422434857865,-2.5255814234363,6.139900672226705,1.0153144598007202,-2.4578567186938685
1708436430.2581468,-2.1538777351379395,-1.3371042919209977,-2.5255380312549036,6.1399797079856775,1.015321969985962,-2.4578657785998743
1708436430.2601757,-2.1538519859313965,-1.3369856190732499,-2.5255470911609095,6.139946687012472,1.0152937173843384,-2.4578612486468714
1708436430.262145,-2.153859853744507,-1.3370640736869355,-2.5255845228778284,6.139933335572042,1.015289306640625,-2.457848612462179
1708436430.264175,-2.1538846492767334,-1.3370343756726761,-2.5255799929248255,6.139963376313009,1.0153130292892456,-2.4578731695758265
1708436430.2661543,-2.1538779735565186,-1.3370344054749985,-2.5255726019488733,6.139937746315756,1.0153249502182007,-2.4578567186938685
1708436430.2681465,-2.1538758277893066,-1.3370585453561326,-2.5255349318133753,6.139987218170919,1.015333890914917,-2.4578233400927942
1708436430.2701428,-2.153859853744507,-1.337071717982628,-2.5255845228778284,6.139958846360006,1.0153552293777466,-2.4578641096698206
1708436430.2721486,-2.153811454772949,-1.337038831119873,-2.5255590120898646,6.139966356545248,1.0153175592422485,-2.4578233400927942
1708436430.2741406,-2.1538519859313965,-1.3370137375644227,-2.5255873839007776,6.139991628914633,1.015329360961914,-2.4578731695758265
1708436430.2761488,-2.1538894176483154,-1.337038831119873,-2.5255754629718226,6.139991509705343,1.0153175592422485,-2.4578352610217493
1708436430.2781422,-2.153834819793701,-1.3370923560908814,-2.5255919138537806,6.1399574158485315,1.0153383016586304,-2.4578731695758265
1708436430.2801776,-2.153843879699707,-1.3370300245336075,-2.5255382696734827,6.139954435616293,1.0153130292892456,-2.4578397909747522
1708436430.2821374,-2.1537933349609375,-1.337043197160103,-2.5256293455706995,6.139963376313009,1.0153745412826538,-2.4578397909747522
1708436430.2841578,-2.1538610458374023,-1.3370585453561326,-2.5255590120898646,6.140021312027731,1.0153626203536987,-2.4578352610217493
1708436430.2861545,-2.153811454772949,-1.3370509904674073,-2.525545660649435,6.139946687012472,1.0153626203536987,-2.4578731695758265
1708436430.2881708,-2.1538305282592773,-1.337026910190918,-2.5255680719958704,6.139917003899374,1.0153509378433228,-2.4578848520862024
1708436430.2901592,-2.1538937091827393,-1.3370225441506882,-2.5255754629718226,6.139950024872579,1.0154119729995728,-2.4578521887408655
1708436430.2921603,-2.1538519859313965,-1.337050975566246,-2.5255709330188196,6.1399303553398035,1.0153987407684326,-2.4578612486468714
1708436430.2941728,-2.1538431644439697,-1.3370509904674073,-2.5255919138537806,6.1399258253868005,1.0153908729553223,-2.4578848520862024
1708436430.2962267,-2.1538350582122803,-1.3370093715241929,-2.525611464177267,6.139950024872579,1.0153672695159912,-2.4578731695758265
1708436430.2981467,-2.1538190841674805,-1.3370422583869477,-2.525550190602438,6.139967787056722,1.015365719795227,-2.4578805605517786
1708436430.3001578,-2.1538431644439697,-1.3370422583869477,-2.5255964438067835,6.13993917682723,1.0154075622558594,-2.4578686396228235
1708436430.3024945,-2.1538431644439697,-1.3370848161033173,-2.5256128946887415,6.1399574158485315,1.015403151512146,-2.4578731695758265
1708436430.3041415,-2.1538190841674805,-1.3370880049518128,-2.5255873839007776,6.139963376313009,1.0154316425323486,-2.4578879515277308
1708436430.3061485,-2.1538779735565186,-1.337071717982628,-2.5256083647357386,6.139975178032675,1.0153942108154297,-2.4578595797168177
1708436430.3081853,-2.1538281440734863,-1.3370966476253052,-2.5256205240832728,6.139946687012472,1.0154016017913818,-2.4578262011157435
1708436430.3101606,-2.1538431644439697,-1.337037907247879,-2.525590483342306,6.139976727753439,1.0153971910476685,-2.4578567186938685
1708436430.312158,-2.153839588165283,-1.3370629113963624,-2.525628153477804,6.139917003899374,1.0154228210449219,-2.4578567186938685
1708436430.314158,-2.1538846492767334,-1.3370554459146042,-2.52561599413027,6.139918434410848,1.0154228210449219,-2.4578686396228235
1708436430.3161678,-2.153909683227539,-1.3370629113963624,-2.525599543248312,6.139905082970419,1.0154391527175903,-2.4578595797168177
1708436430.3181505,-2.1538474559783936,-1.3370585453561326,-2.525644604359762,6.139963376313009,1.0154346227645874,-2.457844320927755
1708436430.3201528,-2.1538610458374023,-1.3370672774365921,-2.525602404271261,6.1399797079856775,1.0154093503952026,-2.4578352610217493
1708436430.3221564,-2.1538431644439697,-1.3370021891644974,-2.5256429354297083,6.139951097756185,1.0154587030410767,-2.4578352610217493
1708436430.3241663,-2.1538474559783936,-1.3370911192945023,-2.5256264845477503,6.139981257706442,1.0154662132263184,-2.4579013029681605
1708436430.326143,-2.1538803577423096,-1.33704228818927,-2.52566105524172,6.139951097756185,1.015479564666748,-2.4578595797168177
1708436430.328153,-2.1538217067718506,-1.3370760840228577,-2.525602404271261,6.1399303553398035,1.015425682067871,-2.4578233400927942
1708436430.3301556,-2.153859853744507,-1.3370803606561203,-2.525623623524801,6.139937746315756,1.01544988155365,-2.4578896204577845
1708436430.3321574,-2.1538565158843994,-1.337112085228302,-2.5256310145007532,6.139888274460592,1.0154423713684082,-2.4578521887408655
1708436430.3341508,-2.1538803577423096,-1.337112085228302,-2.525606934224264,6.139928805619039,1.0154513120651245,-2.4578686396228235
1708436430.336162,-2.1538431644439697,-1.3370466244271775,-2.525656525288717,6.139967787056722,1.0154212713241577,-2.4578641096698206
1708436430.3381643,-2.1538305282592773,-1.3370880049518128,-2.5256310145007532,6.139970767288961,1.0154750347137451,-2.4578397909747522
1708436430.3403866,-2.1538431644439697,-1.3370629113963624,-2.5256264845477503,6.139951097756185,1.0154829025268555,-2.457855288182394
1708436430.3421593,-2.1538565158843994,-1.3370181036046525,-2.5256758371936243,6.139892685204305,1.0154616832733154,-2.4578715006457728
1708436430.3441453,-2.1538937091827393,-1.3370466542294999,-2.5256384054767054,6.139942157059469,1.0154662132263184,-2.4578595797168177
1708436430.3461497,-2.153905153274536,-1.3370554459146042,-2.525635544453756,6.139982688217916,1.0154335498809814,-2.4578397909747522
1708436430.3481512,-2.1538846492767334,-1.3370388609221955,-2.5256384054767054,6.139933335572042,1.0154662132263184,-2.457850758229391
1708436430.35015,-2.1538891792297363,-1.3370629262975235,-2.5256474653827112,6.139951097756185,1.0154738426208496,-2.4578352610217493
1708436430.3521712,-2.1538259983062744,-1.337083564405777,-2.5256758371936243,6.139996039658346,1.0154905319213867,-2.457834307347433
1708436430.354144,-2.1538281440734863,-1.3370672774365921,-2.5256882349597376,6.139958846360006,1.0154783725738525,-2.4578595797168177
1708436430.3561437,-2.1538937091827393,-1.33707049608741,-2.5256639162646692,6.1399797079856775,1.0154738426208496,-2.4578476587878626
1708436430.3581474,-2.1538281440734863,-1.3370791983655472,-2.5256667772876185,6.13998709896163,1.0154905319213867,-2.4578216711627405
1708436430.3601384,-2.1538305282592773,-1.33709108949218,-2.5256791750537317,6.139934766083517,1.0154905319213867,-2.4579177538501185
1708436430.3621356,-2.1538519859313965,-1.337095485334732,-2.5256622473346155,6.1399258253868005,1.01553213596344,-2.4578433672534388
1708436430.3641522,-2.153839588165283,-1.3370422583869477,-2.5256579558001917,6.139922845154562,1.0155143737792969,-2.4578433672534388
1708436430.366161,-2.153855562210083,-1.3370256584933777,-2.5256593863116663,6.139967787056722,1.0154935121536255,-2.4578896204577845
1708436430.3681388,-2.1538102626800537,-1.3370791983655472,-2.5256548563586634,6.1399303553398035,1.0155187845230103,-2.457899872456686
1708436430.3701363,-2.153909683227539,-1.3370181036046525,-2.5256837050067347,6.139901745110311,1.0155473947525024,-2.4578686396228235
1708436430.3721411,-2.1538305282592773,-1.3370343756726761,-2.5257046858416956,6.139951097756185,1.0155221223831177,-2.4578521887408655
1708436430.3741627,-2.1538350582122803,-1.3370213073543091,-2.5256956259356897,6.139972197800436,1.0155473947525024,-2.4578896204577845
1708436430.3761609,-2.1538190841674805,-1.3370466244271775,-2.5256667772876185,6.139914023667135,1.0155547857284546,-2.4578476587878626
1708436430.3781552,-2.153844118118286,-1.3370597970536728,-2.5256791750537317,6.139967787056722,1.0155503749847412,-2.457855288182394
1708436430.3801568,-2.1538734436035156,-1.337067262535431,-2.5257120768176478,6.13986753204421,1.0155681371688843,-2.4578805605517786
1708436430.382153,-2.1538610458374023,-1.3370672774365921,-2.5256837050067347,6.13988088348464,1.0155503749847412,-2.4578397909747522
1708436430.3841603,-2.1539084911346436,-1.337091178899147,-2.5256791750537317,6.139950024872579,1.0155503749847412,-2.4578805605517786
1708436430.386155,-2.1538021564483643,-1.337071717982628,-2.525674645100729,6.139967787056722,1.0155296325683594,-2.4578476587878626
1708436430.388175,-2.1538643836975098,-1.337083564405777,-2.5256956259356897,6.139897215157308,1.0155667066574097,-2.4578433672534388
1708436430.3901517,-2.153848648071289,-1.3370300245336075,-2.5256791750537317,6.139934766083517,1.0155177116394043,-2.4578760305987757
1708436430.3922017,-2.1538779735565186,-1.3370911192945023,-2.5257282892810267,6.13993917682723,1.0155459642410278,-2.4578924814807337
1708436430.3941667,-2.1538894176483154,-1.3370509904674073,-2.5257211367236536,6.139951097756185,1.015559196472168,-2.4578641096698206
1708436430.3961596,-2.1538643836975098,-1.3371372085860749,-2.525677744542257,6.139963376313009,1.015520691871643,-2.4578595797168177
1708436430.3981564,-2.1538689136505127,-1.3370748323253174,-2.525691095982687,6.139922845154562,1.01555335521698,-2.4578595797168177
1708436430.4001508,-2.153839588165283,-1.3370791983655472,-2.525691095982687,6.139984118729391,1.0155836343765259,-2.4578924814807337
1708436430.4021497,-2.1538190841674805,-1.3370541793159028,-2.525670353566305,6.139966356545248,1.0155459642410278,-2.4578805605517786
1708436430.4041703,-2.1538474559783936,-1.3371043068221589,-2.525674645100729,6.139892804413595,1.0155866146087646,-2.4578805605517786
1708436430.4061525,-2.1538894176483154,-1.3370509904674073,-2.525707546864645,6.13998423793868,1.0155370235443115,-2.4579206148730677
1708436430.4081876,-2.1538259983062744,-1.3370880049518128,-2.525686804448263,6.139954316407003,1.0155622959136963,-2.457834307347433
1708436430.4101443,-2.1538894176483154,-1.3370791983655472,-2.5256956259356897,6.139934766083517,1.0155880451202393,-2.4578188101397913
1708436430.4121866,-2.1538474559783936,-1.3370300394347687,-2.525723997746603,6.139927375107565,1.0155622959136963,-2.4578760305987757
1708436430.4141502,-2.1538734436035156,-1.3370704662850876,-2.525691095982687,6.139892685204305,1.0156192779541016,-2.4578760305987757
1708436430.4161558,-2.1538734436035156,-1.3370629113963624,-2.525723997746603,6.1399303553398035,1.01555335521698,-2.4578924814807337
1708436430.4181757,-2.1538431644439697,-1.337099866276123,-2.5257166067706507,6.139946687012472,1.0155985355377197,-2.4578760305987757
1708436430.4201808,-2.1538689136505127,-1.3370509904674073,-2.525707546864645,6.139855611115255,1.0155822038650513,-2.4578760305987757
1708436430.4221606,-2.1538734436035156,-1.3370911192945023,-2.5257285276996058,6.139934766083517,1.0155866146087646,-2.457879130040304
1708436430.42418,-2.1538259983062744,-1.3370212626508255,-2.525674883519308,6.139976727753439,1.0155746936798096,-2.4579086939441126
1708436430.4261549,-2.1538305282592773,-1.3370672774365921,-2.5257375876056116,6.139885413437643,1.0156282186508179,-2.4578595797168177
1708436430.4281738,-2.1538846492767334,-1.337079183464386,-2.525752369557516,6.139922845154562,1.0155792236328125,-2.4579132238971155
1708436430.4301438,-2.1538021564483643,-1.337095485334732,-2.525698486958639,6.139915096550741,1.0156073570251465,-2.457899872456686
1708436430.432143,-2.1538758277893066,-1.3370791983655472,-2.525707546864645,6.139934766083517,1.015602946281433,-2.4579044024096888
1708436430.4341452,-2.15384840965271,-1.3370629113963624,-2.525740448628561,6.139914023667135,1.0155866146087646,-2.4578521887408655
1708436430.4361517,-2.153839588165283,-1.3370998364738007,-2.525677744542257,6.139943706780233,1.0156118869781494,-2.457830015813009
1708436430.4381444,-2.1538519859313965,-1.337095485334732,-2.525698486958639,6.1398810026939294,1.015591025352478,-2.4578715006457728
1708436430.440188,-2.1538431644439697,-1.3371252727559586,-2.525731388722555,6.139943706780233,1.0155746936798096,-2.4579504171954554
1708436430.442159,-2.1538643836975098,-1.3370672774365921,-2.525714937840597,6.139910685807028,1.0156359672546387,-2.4579623381244105
1708436430.444165,-2.1538565158843994,-1.3370748323253174,-2.5257402102099817,6.139888393669882,1.0155985355377197,-2.4578476587878626
1708436430.4461458,-2.1538939476013184,-1.3371208620122452,-2.525691095982687,6.1399258253868005,1.0155941247940063,-2.4578924814807337
1708436430.4481764,-2.1538643836975098,-1.3370911192945023,-2.525723997746603,6.139885294228353,1.0155822038650513,-2.4578715006457728
1708436430.450158,-2.1538610458374023,-1.3371326637319108,-2.525738779698507,6.139919507294454,1.0156059265136719,-2.4578715006457728
1708436430.452158,-2.1538734436035156,-1.3371196401170273,-2.525714937840597,6.139922845154562,1.0156192779541016,-2.4578641096698206
1708436430.4541583,-2.153900623321533,-1.3370672774365921,-2.525723997746603,6.139922845154562,1.0156104564666748,-2.4578433672534388
1708436430.456149,-2.1538190841674805,-1.337005005483963,-2.525686804448263,6.1398987648780725,1.0155866146087646,-2.4579132238971155
1708436430.4581702,-2.1538259983062744,-1.3370597970536728,-2.525698486958639,6.139882433205404,1.0156315565109253,-2.4578924814807337
1708436430.4601562,-2.1538689136505127,-1.3370791983655472,-2.525723997746603,6.139922845154562,1.0155702829360962,-2.4579044024096888
1708436430.4621513,-2.1538236141204834,-1.3371240061572571,-2.525703016911642,6.139885413437643,1.0156148672103882,-2.4578715006457728
1708436430.4641557,-2.1538350582122803,-1.3370509308627625,-2.525747839604513,6.1399361965949915,1.0156478881835938,-2.4579251448260706
1708436430.4661508,-2.1538846492767334,-1.3370911192945023,-2.525703016911642,6.139915096550741,1.0155822038650513,-2.4578715006457728
1708436430.468146,-2.1538350582122803,-1.337095485334732,-2.5257611910449427,6.139931785851278,1.0155985355377197,-2.4578805605517786
1708436430.4701412,-2.1538350582122803,-1.3370704662850876,-2.5257015864001673,6.139903175621786,1.015602946281433,-2.4579132238971155
1708436430.472149,-2.1538779735565186,-1.3371164512685318,-2.5256956259356897,6.139906155854025,1.015602946281433,-2.4579044024096888
1708436430.4741561,-2.1538069248199463,-1.337083564405777,-2.525707546864645,6.139931785851278,1.0156148672103882,-2.4578879515277308
1708436430.4761508,-2.153839588165283,-1.3370617044023057,-2.525703016911642,6.139915096550741,1.0155985355377197,-2.4579206148730677
1708436430.478197,-2.1538689136505127,-1.3370334518006821,-2.525703016911642,6.139912235527792,1.0155866146087646,-2.4578879515277308
1708436430.48015,-2.1538281440734863,-1.337049738769867,-2.525703016911642,6.139878022461691,1.0155985355377197,-2.4578715006457728
1708436430.4821544,-2.1538734436035156,-1.3370585900596161,-2.5257194677936,6.139889824181356,1.015627145767212,-2.457879130040304
1708436430.4842145,-2.1538565158843994,-1.3371120405248185,-2.525794331227438,6.139886843949117,1.0156192779541016,-2.457858149205343
1708436430.4861465,-2.1538326740264893,-1.3370791536620636,-2.5257194677936,6.139805066376486,1.0156192779541016,-2.457855288182394
1708436430.4881732,-2.153839588165283,-1.3370791983655472,-2.525723997746603,6.1398987648780725,1.015627145767212,-2.457883421574728
1708436430.4901452,-2.1538519859313965,-1.337049738769867,-2.52568227449526,6.139886843949117,1.0156059265136719,-2.457899872456686
1708436430.492151,-2.1538565158843994,-1.3370672774365921,-2.525723997746603,6.1398987648780725,1.0155866146087646,-2.4579044024096888
1708436430.4941616,-2.1538610458374023,-1.3371164512685318,-2.525698486958639,6.1399046061332605,1.0156059265136719,-2.4578879515277308
1708436430.4961407,-2.1538474559783936,-1.3370629113963624,-2.525707546864645,6.139874923020162,1.0156073570251465,-2.4578924814807337
1708436430.4981549,-2.153898239135742,-1.3370998364738007,-2.525731388722555,6.139886843949117,1.0155941247940063,-2.4579206148730677
1708436430.5001447,-2.1538431644439697,-1.3370867532542725,-2.52570611635317,6.1398671744163416,1.0155822038650513,-2.4579044024096888
1708436430.5021722,-2.1538069248199463,-1.3370822978070755,-2.525723997746603,6.139814007073202,1.0156104564666748,-2.457916323338644
1708436430.5041533,-2.1538519859313965,-1.3370256584933777,-2.525740448628561,6.139834511071005,1.0155985355377197,-2.4579251448260706
1708436430.5061758,-2.1538519859313965,-1.3370541793159028,-2.525731388722555,6.139871585160055,1.0156148672103882,-2.457916323338644
1708436430.5081701,-2.1538565158843994,-1.3370880049518128,-2.525723997746603,6.139830100327291,1.0155614614486694,-2.4578715006457728
1708436430.5101593,-2.1538689136505127,-1.3371315163424988,-2.525735918675558,6.139737355500021,1.0155445337295532,-2.457879130040304
1708436430.512191,-2.1538281440734863,-1.3370300245336075,-2.52574330965151,6.139807569771566,1.015573263168335,-2.4579251448260706
1708436430.5141606,-2.1538431644439697,-1.3370911192945023,-2.525714937840597,6.139823901444235,1.0155445337295532,-2.4578805605517786
1708436430.516151,-2.15384840965271,-1.33709108949218,-2.525731388722555,6.139807569771566,1.0156073570251465,-2.457899872456686
1708436430.5181496,-2.1538236141204834,-1.3370585453561326,-2.525698486958639,6.139786827355184,1.015602946281433,-2.457891050969259
1708436430.520164,-2.1538643836975098,-1.3371209365180512,-2.5257719198810022,6.139746296196737,1.0155985355377197,-2.457944456730978
1708436430.5221539,-2.153839588165283,-1.3370954406312485,-2.525723997746603,6.1397660849388025,1.0156104564666748,-2.4578879515277308
1708436430.5241618,-2.1538519859313965,-1.3370585453561326,-2.5257285276996058,6.1397671578224084,1.0155866146087646,-2.457883421574728
1708436430.5261497,-2.1538519859313965,-1.337049738769867,-2.5257285276996058,6.139792668610372,1.015577793121338,-2.457899872456686
1708436430.5281785,-2.1538519859313965,-1.3370748323253174,-2.5257328192340296,6.139791238098898,1.015579342842102,-2.4578879515277308
1708436430.5301504,-2.1538734436035156,-1.3370748472264786,-2.525707546864645,6.139780509262838,1.0156059265136719,-2.4579415957080286
1708436430.5321758,-2.1538655757904053,-1.3370660555413743,-2.525707546864645,6.139713156014242,1.015627145767212,-2.457886521016256
1708436430.5341544,-2.153844118118286,-1.3371076893857499,-2.5257120768176478,6.13976405838088,1.015602946281433,-2.4579489866839808
1708436430.536156,-2.1538894176483154,-1.3370954555324097,-2.5257194677936,6.139699923783102,1.0156315565109253,-2.457907263432638
1708436430.5381503,-2.1538474559783936,-1.3370672774365921,-2.525677744542257,6.139791238098898,1.0155985355377197,-2.4579251448260706
1708436430.540146,-2.1538236141204834,-1.3370378774455567,-2.525734249745504,6.139776098519125,1.0156059265136719,-2.457862679158346
1708436430.5421374,-2.1538190841674805,-1.337049738769867,-2.525752369557516,6.139783847122946,1.0155658721923828,-2.4579415957080286
1708436430.5441468,-2.153798818588257,-1.3370867681554337,-2.525714937840597,6.1397626278694055,1.0155941247940063,-2.457928244267599
1708436430.5461473,-2.153785467147827,-1.3370379519513627,-2.52574330965151,6.139792668610372,1.0156073570251465,-2.457899872456686
1708436430.5481548,-2.1538102626800537,-1.3371283125928421,-2.525714937840597,6.1396968243415735,1.0156148672103882,-2.4579535166369837
1708436430.5501528,-2.153785467147827,-1.3370213967612763,-2.525703016911642,6.139812099724569,1.0156148672103882,-2.457944456730978
1708436430.552142,-2.1538610458374023,-1.3370343458703537,-2.525723997746603,6.139752256661215,1.0155704021453857,-2.457932774220602
1708436430.5541449,-2.1538610458374023,-1.3370998066714783,-2.5257194677936,6.139816629677572,1.0155577659606934,-2.457932774220602
1708436430.5561779,-2.1537742614746094,-1.3370880049518128,-2.525723997746603,6.139800178795614,1.0155985355377197,-2.457907263432638
1708436430.5581436,-2.1538689136505127,-1.3370093417218705,-2.525703016911642,6.139701473503866,1.0155822038650513,-2.457867209111349
1708436430.5601692,-2.1538326740264893,-1.337037907247879,-2.5257194677936,6.139825451164999,1.015579342842102,-2.4578970114337366
1708436430.5621502,-2.153799057006836,-1.3370629262975235,-2.525707546864645,6.139797198563375,1.0155822038650513,-2.4579206148730677
1708436430.564171,-2.1538822650909424,-1.337074802522995,-2.525723997746603,6.1397461769874475,1.0155985355377197,-2.457911793385641
1708436430.5661407,-2.153843879699707,-1.3370835942080994,-2.5257120768176478,6.13975082614974,1.0155614614486694,-2.4579580465899866
1708436430.56816,-2.1538610458374023,-1.3370256435922165,-2.525673214589254,6.139780509262838,1.0155985355377197,-2.457891050969259
1708436430.5701497,-2.1538069248199463,-1.3370748472264786,-2.525723997746603,6.139714824944296,1.0155614614486694,-2.457940165196554
1708436430.5721471,-2.1538236141204834,-1.3370585602572937,-2.525691095982687,6.139779317169943,1.0155866146087646,-2.457923714314596
1708436430.5741684,-2.1538519859313965,-1.3370660853436966,-2.525752369557516,6.139779317169943,1.0155956745147705,-2.457874600087301
1708436430.5761487,-2.153811454772949,-1.337043212061264,-2.525735918675558,6.139812099724569,1.0155941247940063,-2.457911793385641
1708436430.5781581,-2.153815746307373,-1.3370585155538102,-2.52574330965151,6.139792668610372,1.015595555305481,-2.457858149205343
1708436430.5801566,-2.153844118118286,-1.337038741712906,-2.5257566610919397,6.139749395638265,1.0155822038650513,-2.457940165196554
1708436430.5821457,-2.153869867324829,-1.337099866276123,-2.5257285276996058,6.139788257866659,1.015591025352478,-2.457928244267599
1708436430.5841548,-2.1537978649139404,-1.3370717030814667,-2.525691095982687,6.139779317169943,1.0155746936798096,-2.457911793385641
1708436430.5861368,-2.15381121635437,-1.3370704364827652,-2.525707546864645,6.139743315964498,1.0155489444732666,-2.457935635243551
1708436430.588157,-2.15384840965271,-1.3370704811862488,-2.525707546864645,6.139774906426229,1.0156402587890625,-2.457944456730978
1708436430.5901415,-2.1538069248199463,-1.3370660257390519,-2.525735918675558,6.139746296196737,1.0155702829360962,-2.457923714314596
1708436430.5921474,-2.153778553009033,-1.337095470433571,-2.525682036076681,6.1397671578224084,1.015623688697815,-2.457891050969259
1708436430.5941668,-2.1538190841674805,-1.3370213371566315,-2.5257120768176478,6.139788257866659,1.015591025352478,-2.457928244267599
1708436430.59615,-2.1538565158843994,-1.337107704286911,-2.525703016911642,6.139755236893453,1.0155370235443115,-2.457935635243551
1708436430.5981498,-2.153794527053833,-1.3370748174241562,-2.525707546864645,6.1397671578224084,1.0155822038650513,-2.457982365285055
1708436430.6001408,-2.1538236141204834,-1.337092400794365,-2.5257194677936,6.139755236893453,1.015595555305481,-2.457930866871969
1708436430.6021383,-2.153785467147827,-1.3371164512685318,-2.5257328192340296,6.1397167322929285,1.0156235694885254,-2.457944695149557
1708436430.6041343,-2.15384840965271,-1.337095485334732,-2.525674645100729,6.139710294991293,1.0156162977218628,-2.4579899946795862
1708436430.6061318,-2.1538474559783936,-1.3370137524655838,-2.525723997746603,6.139710294991293,1.0155792236328125,-2.457893673573629
1708436430.6081722,-2.1538326740264893,-1.3370584857514878,-2.5257373491870325,6.139813649445333,1.0155866146087646,-2.457944456730978
1708436430.610162,-2.1538350582122803,-1.3370748323253174,-2.525703016911642,6.139729964524069,1.015595555305481,-2.457944456730978
1708436430.612181,-2.153844118118286,-1.3370704811862488,-2.5257194677936,6.139738905220785,1.0155746936798096,-2.457935635243551
1708436430.614155,-2.1538021564483643,-1.3370454174331208,-2.5257285276996058,6.139788257866659,1.0155576467514038,-2.4579599539386194
1708436430.6161528,-2.153839588165283,-1.3370704513839264,-2.525723997746603,6.139788257866659,1.015607237815857,-2.457940165196554
1708436430.6181583,-2.1538655757904053,-1.3370629113963624,-2.5256956259356897,6.139722215920248,1.0155489444732666,-2.457926575337545
1708436430.6202528,-2.15384840965271,-1.3370542389205475,-2.5257285276996058,6.139759647637167,1.0155866146087646,-2.4579690138446253
1708436430.6221974,-2.153811454772949,-1.337104247217514,-2.5257194677936,6.1397626278694055,1.0155792236328125,-2.457919184361593
1708436430.624188,-2.153794527053833,-1.3370497238687058,-2.525703016911642,6.1397671578224084,1.015591025352478,-2.457931105290548
1708436430.6261582,-2.153846025466919,-1.3370497834733506,-2.5257194677936,6.13975082614974,1.015571117401123,-2.457935635243551
1708436430.6281528,-2.1538190841674805,-1.3370910745910187,-2.525723997746603,6.139775979309835,1.0155547857284546,-2.4579764048205774
1708436430.6301596,-2.15381121635437,-1.337086783056595,-2.5257285276996058,6.139779317169943,1.0155459642410278,-2.45799428621401
1708436430.6321566,-2.153852939605713,-1.3370998066714783,-2.5257285276996058,6.139746296196737,1.0155043601989746,-2.457930866871969
1708436430.6341596,-2.1538565158843994,-1.3371283274940033,-2.525674645100729,6.139759647637167,1.0155177116394043,-2.4578891436206263
1708436430.6361547,-2.1538236141204834,-1.3370867681554337,-2.5257166067706507,6.139688002854147,1.0155667066574097,-2.4579301516162317
1708436430.63816,-2.153811454772949,-1.33709108949218,-2.5256791750537317,6.13975082614974,1.0155799388885498,-2.4579346815692347
1708436430.6401865,-2.1538326740264893,-1.3370334667018433,-2.525698486958639,6.139809000283041,1.015513300895691,-2.4579764048205774
1708436430.6421487,-2.153844118118286,-1.3370585602572937,-2.525735918675558,6.1397626278694055,1.0155547857284546,-2.4579926172839563
1708436430.6441643,-2.1538190841674805,-1.3371533912471314,-2.5257492701159876,6.139741885453024,1.015559196472168,-2.4579928557025355
1708436430.6461499,-2.153815746307373,-1.3370497983745118,-2.525674645100729,6.13976417759017,1.0155221223831177,-2.4579525629626673
1708436430.648157,-2.153839588165283,-1.3370954555324097,-2.525740448628561,6.139746296196737,1.0154935121536255,-2.4579599539386194
1708436430.65016,-2.1538145542144775,-1.3370835495046158,-2.5257373491870325,6.139755236893453,1.0154935121536255,-2.4579644838916224
1708436430.6521525,-2.15383243560791,-1.3370423477939148,-2.525691095982687,6.139780509262838,1.0155187845230103,-2.4579599539386194
1708436430.654151,-2.1538326740264893,-1.337128372197487,-2.5256534258471888,6.139795648842611,1.0154980421066284,-2.457935635243551
1708436430.65616,-2.1538102626800537,-1.3370585453561326,-2.5257001558886927,6.139747845917501,1.0154905319213867,-2.4579673449145716
1708436430.6581547,-2.1538326740264893,-1.3370466989329834,-2.5257001558886927,6.139755236893453,1.01548171043396,-2.4579806963550013
1708436430.6601543,-2.15384840965271,-1.33704228818927,-2.5256791750537317,6.139726626663961,1.0154409408569336,-2.4579599539386194
1708436430.6621525,-2.1538069248199463,-1.3371077340892334,-2.5256791750537317,6.1397671578224084,1.0154861211776733,-2.4579718748675745
1708436430.664157,-2.1538779735565186,-1.3370497238687058,-2.5256622473346155,6.1397132752235315,1.015482783317566,-2.4579806963550013
1708436430.6661463,-2.153839588165283,-1.3370379519513627,-2.5256956259356897,6.139746296196737,1.015499472618103,-2.4579926172839563
1708436430.6681488,-2.153836965560913,-1.3371151846698304,-2.5256791750537317,6.139765965729513,1.01544988155365,-2.4579971472369593
1708436430.6701877,-2.153778553009033,-1.3371120554259797,-2.5256622473346155,6.139801728516378,1.015457272529602,-2.4579582850085657
1708436430.6721554,-2.1538236141204834,-1.3370748174241562,-2.525723997746603,6.139729964524069,1.015457272529602,-2.4580217043506067
1708436430.674157,-2.1538519859313965,-1.3371120554259797,-2.5257046858416956,6.139829861908712,1.0154616832733154,-2.458008114491598
1708436430.6761594,-2.1538326740264893,-1.337038741712906,-2.525707546864645,6.139786827355184,1.015515923500061,-2.4579883257495325
1708436430.678159,-2.1538236141204834,-1.3370704811862488,-2.525691095982687,6.139795648842611,1.0154873132705688,-2.457953993474142
1708436430.6801414,-2.1538519859313965,-1.3370542240193863,-2.525674645100729,6.139758217125692,1.0154905319213867,-2.45801288286318
1708436430.6821449,-2.153798818588257,-1.3370300394347687,-2.5257166067706507,6.139795648842611,1.0154379606246948,-2.4580090681659144
1708436430.6841755,-2.15381121635437,-1.3370379966548462,-2.5256622473346155,6.139774906426229,1.0154379606246948,-2.4579747358905237
1708436430.6861393,-2.15381121635437,-1.3370542091182251,-2.5257166067706507,6.139807569771566,1.0154706239700317,-2.4579628149615687
1708436430.6881657,-2.1538565158843994,-1.337079183464386,-2.5256956259356897,6.139795648842611,1.0154916048049927,-2.458008114491598
1708436430.6901553,-2.15384840965271,-1.3370911043933411,-2.5256956259356897,6.139804589539327,1.0154542922973633,-2.4579957167254847
1708436430.6921601,-2.153852939605713,-1.3370911043933411,-2.5257046858416956,6.139737355500021,1.0154706239700317,-2.4579911867724817
1708436430.6941633,-2.1538021564483643,-1.3371196699193497,-2.5257089773761194,6.139820921211996,1.01544988155365,-2.4579957167254847
1708436430.696141,-2.153844118118286,-1.3370585602572937,-2.5256882349597376,6.139823901444235,1.0154423713684082,-2.458024565373556
1708436430.69815,-2.1538610458374023,-1.3371164065650483,-2.5256503264056605,6.139736044197836,1.0153915882110596,-2.4580534140216272
1708436430.7001603,-2.153844118118286,-1.3370835197022934,-2.5256791750537317,6.139849650650778,1.0154423713684082,-2.458024565373556
1708436430.7021337,-2.1538519859313965,-1.3371196252158661,-2.5256548563586634,6.139774906426229,1.0154258012771606,-2.4580698649035853
1708436430.7041519,-2.153785228729248,-1.3371120554259797,-2.5256622473346155,6.139749395638265,1.0154632329940796,-2.4580608049975794
1708436430.7061493,-2.1538350582122803,-1.3370911192945023,-2.5256758371936243,6.139798748284139,1.0154454708099365,-2.4580443541156214
1708436430.7081575,-2.1538145542144775,-1.3370704811862488,-2.5256956259356897,6.139753806381979,1.0154138803482056,-2.4580488840686243
1708436430.710155,-2.1538610458374023,-1.337119684820511,-2.5256713072406214,6.139798748284139,1.0154829025268555,-2.4580279032336634
1708436430.7121449,-2.15384840965271,-1.3370791983655472,-2.525674645100729,6.139798748284139,1.0154794454574585,-2.4580443541156214
1708436430.7141454,-2.153794527053833,-1.3370791983655472,-2.5256927649127405,6.139789926796713,1.01544988155365,-2.4580310026751917
1708436430.716172,-2.153844118118286,-1.3370867532542725,-2.5256927649127405,6.139769065171041,1.0154423713684082,-2.4580472151385706
1708436430.7181773,-2.153844118118286,-1.3370911043933411,-2.5256927649127405,6.139786827355184,1.0154335498809814,-2.4580934683429163
1708436430.720176,-2.1538565158843994,-1.3370704811862488,-2.525691095982687,6.139875995903768,1.0154616832733154,-2.4580472151385706
1708436430.7221587,-2.1538236141204834,-1.3370542091182251,-2.5256577173816126,6.139823901444235,1.0154542922973633,-2.4580562750445765
1708436430.7241588,-2.1538610458374023,-1.337112085228302,-2.5256460348712366,6.139843213349142,1.0154587030410767,-2.4581218401538294
1708436430.7261844,-2.1538326740264893,-1.3370911043933411,-2.5256622473346155,6.139929878502645,1.0154513120651245,-2.4581309000598353
1708436430.7281651,-2.153895616531372,-1.3370791536620636,-2.5257163683520716,6.139862763672628,1.0154750347137451,-2.4580755869494837
1708436430.7301395,-2.15384840965271,-1.3371402484229584,-2.5257001558886927,6.139882433205404,1.0154423713684082,-2.4580681959735315
1708436430.7321773,-2.15384840965271,-1.3370496940663834,-2.525686804448263,6.139912235527792,1.0154212713241577,-2.4580636660205286
1708436430.734147,-2.1538610458374023,-1.3371164512685318,-2.5257001558886927,6.139919507294454,1.0154212713241577,-2.458059374486105
1708436430.7361453,-2.1538519859313965,-1.3371033680490036,-2.5257046858416956,6.1399303553398035,1.0154927968978882,-2.4581008593188685
1708436430.738148,-2.1538519859313965,-1.3370453131249924,-2.525707546864645,6.139970767288961,1.0154423713684082,-2.458103958760397
1708436430.7401557,-2.153839588165283,-1.3370660257390519,-2.5256713072406214,6.139984118729391,1.0154542922973633,-2.458103958760397
1708436430.7421308,-2.1538190841674805,-1.33709108949218,-2.5256503264056605,6.139916884690084,1.0154632329940796,-2.4581292311297815
1708436430.744144,-2.15378999710083,-1.3370902252248307,-2.5257166067706507,6.13998709896163,1.0154423713684082,-2.4581010977374476
1708436430.74615,-2.1538069248199463,-1.337193415766098,-2.5256927649127405,6.139933335572042,1.0154168605804443,-2.4581084887133997
1708436430.7481601,-2.153844118118286,-1.3370911043933411,-2.5256338755237024,6.139966356545248,1.015479564666748,-2.458120409642355
1708436430.7501345,-2.1538939476013184,-1.3370497685721894,-2.5256758371936243,6.139966356545248,1.015430212020874,-2.458099428807394
1708436430.7521567,-2.1538069248199463,-1.3371077191880723,-2.5256622473346155,6.13998709896163,1.0154379606246948,-2.458115879689352
1708436430.7541614,-2.1538281440734863,-1.3370911192945023,-2.5256882349597376,6.140039551049032,1.0154675245285034,-2.4581475893603724
1708436430.7561498,-2.153869867324829,-1.337107704286911,-2.5256577173816126,6.1400112984474084,1.0154213905334473,-2.458165709172384
1708436430.758147,-2.153844118118286,-1.337057353263237,-2.525691095982687,6.139978277474203,1.0154794454574585,-2.458214823399679
1708436430.7601507,-2.153852939605713,-1.337131456737854,-2.5256837050067347,6.140003549843588,1.0153961181640625,-2.458165709172384
1708436430.7621384,-2.1538023948669434,-1.3370911043933411,-2.5257001558886927,6.139994609146871,1.0154542922973633,-2.4581313768969935
1708436430.7641633,-2.1538565158843994,-1.3370989126018067,-2.5257089773761194,6.139982688217916,1.0154379606246948,-2.458189312611715
1708436430.766139,-2.153852939605713,-1.3370672774365921,-2.5256503264056605,6.140005337982931,1.0154335498809814,-2.4581313768969935
1708436430.768188,-2.1538565158843994,-1.3371151995709916,-2.5256622473346155,6.139982688217916,1.0154706239700317,-2.458149258290426
1708436430.7701373,-2.1538519859313965,-1.3370735806277771,-2.525707546864645,6.139988887100973,1.0154335498809814,-2.4581475893603724
1708436430.7721443,-2.1538305282592773,-1.3371430796435853,-2.5256622473346155,6.1400558827217,1.01544988155365,-2.4581521193133753
1708436430.7741413,-2.1538565158843994,-1.337061659698822,-2.5256758371936243,6.1400067684944055,1.0154169797897339,-2.458153788243429
1708436430.776145,-2.1538689136505127,-1.337094561462738,-2.525686566029684,6.139990079193868,1.0154423713684082,-2.4581313768969935
1708436430.778176,-2.1538519859313965,-1.3371596497348328,-2.5256882349597376,6.140002357750692,1.0154423713684082,-2.45820123354067
1708436430.780137,-2.1538281440734863,-1.3371596795371552,-2.5256713072406214,6.140014278679647,1.0154750347137451,-2.4581356684314173
1708436430.7821481,-2.153839588165283,-1.3370988977006455,-2.5256667772876185,6.140068042069235,1.0154423713684082,-2.4581566492663782
1708436430.7842028,-2.1538734436035156,-1.337122769360878,-2.5256791750537317,6.1400887844856165,1.0154794454574585,-2.4581714312182825
1708436430.7861366,-2.1538305282592773,-1.3371196252158661,-2.5256548563586634,6.140099274903097,1.0154423713684082,-2.458115879689352
1708436430.7881656,-2.1538474559783936,-1.3371021908572693,-2.5256338755237024,6.1400948641593835,1.0154423713684082,-2.4581731001483362
1708436430.7901678,-2.1538190841674805,-1.3370989126018067,-2.5256791750537317,6.1400112984474084,1.0154335498809814,-2.458172861729757
1708436430.7921612,-2.1538145542144775,-1.3371552985957642,-2.5257089773761194,6.140048730164327,1.0154571533203125,-2.4581685701953333
1708436430.7941606,-2.1538102626800537,-1.3371430796435853,-2.5256927649127405,6.140139806061544,1.0154335498809814,-2.4581714312182825
1708436430.7961512,-2.1538305282592773,-1.337147445683815,-2.5256577173816126,6.1401264546211145,1.01544988155365,-2.458205763493673
1708436430.7981691,-2.1538190841674805,-1.337085948591568,-2.5256956259356897,6.140187728195944,1.0154587030410767,-2.458153788243429
1708436430.800185,-2.1538734436035156,-1.3371358972838898,-2.5257418791400355,6.140180218010702,1.01539146900177,-2.4581475893603724
1708436430.8021498,-2.1538689136505127,-1.3371196252158661,-2.5257166067706507,6.140122043877401,1.0154335498809814,-2.45809775987734
1708436430.8041747,-2.1538779735565186,-1.3371552985957642,-2.5256837050067347,6.14019666889266,1.0154335498809814,-2.4581566492663782
1708436430.806155,-2.1538145542144775,-1.3371227544597168,-2.5256791750537317,6.1401758072669885,1.0154738426208496,-2.4581313768969935
1708436430.8081644,-2.1538803577423096,-1.3371430498412629,-2.525740448628561,6.14014612415389,1.01544988155365,-2.4581640402423304
1708436430.810156,-2.1539130210876465,-1.3371553283980866,-2.5257166067706507,6.140183198242941,1.015412449836731,-2.4581566492663782
1708436430.8121428,-2.1538519859313965,-1.3370735806277771,-2.5257046858416956,6.140144574433126,1.0154783725738525,-2.4581804911242884
1708436430.8141692,-2.1538350582122803,-1.3370902103236695,-2.5256667772876185,6.140226709633627,1.0154616832733154,-2.4581356684314173
1708436430.8161616,-2.1538846492767334,-1.3371227544597168,-2.5256460348712366,6.140226709633627,1.01544988155365,-2.458174530659811
1708436430.8181717,-2.1538565158843994,-1.337097780113556,-2.5256503264056605,6.140161025315084,1.0154750347137451,-2.458083216344015
1708436430.8201714,-2.153900623321533,-1.3371673089316864,-2.5257001558886927,6.14023123958663,1.0154829025268555,-2.458099428807394
1708436430.8221672,-2.1538734436035156,-1.3370859038880845,-2.5256622473346155,6.140210377960958,1.0154662132263184,-2.458103958760397
1708436430.8241892,-2.1538474559783936,-1.3371108335307618,-2.5256667772876185,6.140140163689413,1.015499472618103,-2.458186690007345
1708436430.826165,-2.1538519859313965,-1.337192253475525,-2.5257328192340296,6.140210377960958,1.0154905319213867,-2.458149496709005
1708436430.828166,-2.1538431644439697,-1.3371021908572693,-2.5256927649127405,6.1402178881462,1.0154829025268555,-2.4580801169024866
1708436430.830159,-2.153900623321533,-1.3371196401170273,-2.5256837050067347,6.140204417496481,1.0154950618743896,-2.4580355326281946
1708436430.8321621,-2.153844118118286,-1.3371227544597168,-2.525686566029684,6.140219199448385,1.015499472618103,-2.4580398241626185
1708436430.8341522,-2.15385103225708,-1.3371552985957642,-2.5257211367236536,6.140255319863119,1.0154616832733154,-2.458020035420553
1708436430.8361466,-2.153855562210083,-1.337151051764824,-2.5257120768176478,6.140226709633627,1.0155038833618164,-2.457981888447897
1708436430.8381577,-2.1538846492767334,-1.3370846521905442,-2.5257254282580774,6.14019404628829,1.0154772996902466,-2.4579718748675745
1708436430.840168,-2.1538519859313965,-1.3371422451785584,-2.5256667772876185,6.140222298889913,1.0155024528503418,-2.457931105290548
1708436430.8421612,-2.1538431644439697,-1.3371140372804184,-2.5256577173816126,6.140201437264242,1.0155397653579712,-2.457881752644674
1708436430.8441603,-2.1538069248199463,-1.3371628683856507,-2.5257089773761194,6.1402509091194055,1.0154695510864258,-2.457899872456686
1708436430.846165,-2.1538431644439697,-1.3371422451785584,-2.5256791750537317,6.14019404628829,1.01548171043396,-2.4578924814807337
1708436430.848167,-2.1538758277893066,-1.337151051764824,-2.5256338755237024,6.1402344582374475,1.0155680179595947,-2.4577961603747767
1708436430.8501716,-2.153900623321533,-1.3371422451785584,-2.5256667772876185,6.140208947449484,1.015498161315918,-2.4578097502337855
1708436430.8521454,-2.1538846492767334,-1.3371704381755372,-2.5256460348712366,6.14021776893691,1.0155221223831177,-2.457749668751852
1708436430.8541656,-2.1538758277893066,-1.3371989738992234,-2.5256837050067347,6.140235650330343,1.0155712366104126,-2.4577723185168665
1708436430.8561673,-2.1538872718811035,-1.337158517246582,-2.5256713072406214,6.140225636750021,1.0155428647994995,-2.457710568104879
1708436430.8581436,-2.153838634490967,-1.3371541512063523,-2.525691095982687,6.140197026520529,1.0155792236328125,-2.457695786152975
1708436430.8601723,-2.15386700630188,-1.3372085404447098,-2.5257211367236536,6.14021776893691,1.0155881643295288,-2.4575894514666956
1708436430.8621488,-2.1538734436035156,-1.3371836257031937,-2.525670353566305,6.140291440277853,1.0155622959136963,-2.457562033330099
1708436430.8641841,-2.1538643836975098,-1.337186725144722,-2.525686566029684,6.140274631768026,1.0155622959136963,-2.4575021902667444
1708436430.8661537,-2.153859853744507,-1.3371422302773972,-2.5256713072406214,6.140262710839071,1.0155836343765259,-2.457545582448141
1708436430.8681505,-2.1538431644439697,-1.3371335130980988,-2.5256972948657435,6.1402824995811365,1.0155746936798096,-2.4574106375323694
1708436430.8701432,-2.153838634490967,-1.3371422600797196,-2.5256791750537317,6.140225636750021,1.01555335521698,-2.4573336283313196
1708436430.872154,-2.1538519859313965,-1.3371954423240204,-2.525714937840597,6.140241968422689,1.0155792236328125,-2.457280937825338
1708436430.8741553,-2.153838634490967,-1.337186725144722,-2.5256758371936243,6.140276062279501,1.0155746936798096,-2.457221571599142
1708436430.8762038,-2.1538689136505127,-1.337186725144722,-2.5256956259356897,6.140246379166403,1.015591025352478,-2.4571250120746058
1708436430.8781576,-2.153916358947754,-1.3371673238328476,-2.525674645100729,6.140241968422689,1.0155459642410278,-2.457102362309591
1708436430.8801575,-2.1539342403411865,-1.3371791702559968,-2.5256837050067347,6.14021776893691,1.0155746936798096,-2.4569693247424524
1708436430.8821483,-2.1538846492767334,-1.3371212643435975,-2.5256667772876185,6.140253889351644,1.0155370235443115,-2.4568520228015345
1708436430.8841736,-2.1538519859313965,-1.3371878874352952,-2.5256927649127405,6.140233027725973,1.0156015157699585,-2.4567607084857386
1708436430.8861434,-2.153855562210083,-1.3371704381755372,-2.5257001558886927,6.14021776893691,1.0156148672103882,-2.4566355387317103
1708436430.8881607,-2.1538784503936768,-1.3371616315892716,-2.5256882349597376,6.140258300095358,1.0156282186508179,-2.4565134684192103
1708436430.8901534,-2.153834104537964,-1.3371378642371674,-2.5256837050067347,6.140208828240194,1.0156104564666748,-2.4564810434924524
1708436430.8921592,-2.1538734436035156,-1.337158517246582,-2.5256837050067347,6.140249359398641,1.0155895948410034,-2.456311051045553
1708436430.894166,-2.1539041996002197,-1.3371836108020325,-2.5256956259356897,6.140246379166403,1.0156521797180176,-2.456240955983297
1708436430.8961895,-2.1538960933685303,-1.337174804215767,-2.5256667772876185,6.140246379166403,1.0156136751174927,-2.4560051600085657
1708436430.8981593,-2.1538758277893066,-1.3371628832868119,-2.5256758371936243,6.140267240792074,1.0156015157699585,-2.4559393564807337
1708436430.900179,-2.1538872718811035,-1.3371954423240204,-2.5256882349597376,6.140304672508993,1.0155971050262451,-2.45577842393984
1708436430.9021478,-2.1539254188537598,-1.3371704381755372,-2.5256460348712366,6.1403002617652795,1.0156315565109253,-2.4556716124164026
1708436430.9041607,-2.1538784503936768,-1.3371335130980988,-2.5257001558886927,6.140256869583883,1.0156182050704956,-2.4554479757892054
1708436430.9061537,-2.153838634490967,-1.337186725144722,-2.5256667772876185,6.14028691032485,1.0156136751174927,-2.45534593263735
1708436430.9081464,-2.1538784503936768,-1.3371628832868119,-2.5256837050067347,6.140249359398641,1.0156588554382324,-2.4552393595324915
1708436430.9101553,-2.1538827419281006,-1.3372077208808442,-2.5256837050067347,6.140261280327596,1.0156466960906982,-2.455020014439718
1708436430.9121985,-2.153895139694214,-1.3371989589980622,-2.5256667772876185,6.140271770745077,1.0156959295272827,-2.4549134413348597
1708436430.9141603,-2.1539254188537598,-1.3371867102435608,-2.525707546864645,6.14026569107131,1.015654444694519,-2.4547739664660853
1708436430.9161901,-2.153895139694214,-1.3371378642371674,-2.5256791750537317,6.140312182694235,1.015654444694519,-2.4545889536487024
1708436430.9182055,-2.1538712978363037,-1.3371748191169281,-2.5256791750537317,6.140295731812277,1.0157078504562378,-2.454432551060812
1708436430.9201767,-2.1538712978363037,-1.3371409487775345,-2.5257328192340296,6.140250789910116,1.0156633853912354,-2.4542813936816614
1708436430.9222093,-2.1539041996002197,-1.3371704530766984,-2.525686566029684,6.140241968422689,1.015687108039856,-2.4540801684008997
1708436430.9242253,-2.1538872718811035,-1.3371791702559968,-2.5256534258471888,6.14023898819045,1.015699028968811,-2.453871790562765
1708436430.9261649,-2.153900623321533,-1.337108076815941,-2.5257001558886927,6.140267121582784,1.0156946182250977,-2.453695837651388
1708436430.9281895,-2.1538803577423096,-1.3371704530766984,-2.525735918675558,6.1402121661003015,1.0156245231628418,-2.4535275141345423
1708436430.9301615,-2.153899669647217,-1.3371910911849518,-2.5257373491870325,6.140219676285543,1.015699028968811,-2.4533589521991175
1708436430.932155,-2.1538476943969727,-1.3371453446200867,-2.525691095982687,6.140244948654928,1.0156782865524292,-2.4531312624560755
1708436430.934165,-2.153846502304077,-1.3371422451785584,-2.525723997746603,6.140270340233602,1.0157530307769775,-2.4529100100146692
1708436430.936139,-2.153900623321533,-1.3371497851661225,-2.5256577173816126,6.140221226006307,1.015699028968811,-2.4527104536639612
1708436430.9381416,-2.153899669647217,-1.3371910613826294,-2.5257328192340296,6.140246379166403,1.015720009803772,-2.4524946848498743
1708436430.9401665,-2.1538431644439697,-1.3371628832868119,-2.525691095982687,6.140261280327596,1.0157067775726318,-2.452303711568014
1708436430.9421456,-2.1538712978363037,-1.3371866953423996,-2.525661293660299,6.140195596009054,1.0157486200332642,-2.452000443135397
1708436430.9441736,-2.15386700630188,-1.3371945184520264,-2.525707546864645,6.140237557678976,1.0157157182693481,-2.4518144766436976
1708436430.9461756,-2.1538476943969727,-1.3371541661075135,-2.5256791750537317,6.140258300095358,1.015702247619629,-2.4515836874591272
1708436430.948174,-2.153873920440674,-1.3371661019376297,-2.5257285276996058,6.140237438469686,1.0156737565994263,-2.451312843953268
1708436430.9501452,-2.1538872718811035,-1.337186725144722,-2.525735918675558,6.140216576844015,1.015718936920166,-2.4510114828692835
1708436430.9521844,-2.1539084911346436,-1.3372076910785218,-2.525665823613302,6.140274631768026,1.0156935453414917,-2.4506805578814905
1708436430.954151,-2.1538784503936768,-1.3371791702559968,-2.525740448628561,6.140230047493734,1.0157101154327393,-2.4504781405078333
1708436430.9561703,-2.15386700630188,-1.3371497851661225,-2.525703016911642,6.140258300095358,1.015751600265503,-2.4502020517932337
1708436430.958151,-2.1538467407226562,-1.337206409578659,-2.525723997746603,6.140241968422689,1.0157712697982788,-2.44995886484255
1708436430.9601493,-2.153899669647217,-1.3371901226094742,-2.525756899510519,6.140253889351644,1.0157264471054077,-2.449667278920309
1708436430.9621751,-2.1538872718811035,-1.3371453297189255,-2.525703016911642,6.140221226006307,1.0157219171524048,-2.449348751698629
1708436430.9641888,-2.1538918018341064,-1.3372239780477067,-2.525703016911642,6.140246379166403,1.0157145261764526,-2.4490185419665735
1708436430.9661381,-2.1538827419281006,-1.3371378642371674,-2.5257566610919397,6.140249359398641,1.0157712697982788,-2.4487441221820276
1708436430.9681652,-2.153899669647217,-1.337174804215767,-2.525738779698507,6.140188085823812,1.015730857849121,-2.448476854954855
1708436430.9701462,-2.153871536254883,-1.337140978579857,-2.525703016911642,6.140246379166403,1.0157560110092163,-2.4481518904315394
1708436430.9721513,-2.15386700630188,-1.3371453446200867,-2.525759998952047,6.14021776893691,1.0157427787780762,-2.447815243397848
1708436430.9741552,-2.153927803039551,-1.337203325038292,-2.525780741368429,6.140295731812277,1.015730857849121,-2.4474945704089563
1708436430.9761639,-2.1538712978363037,-1.3371660721353074,-2.525747839604513,6.140221106797018,1.0157594680786133,-2.4471667448626917
1708436430.9781957,-2.1538758277893066,-1.337203325038292,-2.525738779698507,6.1402344582374475,1.0157382488250732,-2.4467979113208216
1708436430.9801693,-2.1539130210876465,-1.3371628832868119,-2.5257566610919397,6.1402015564735315,1.0157638788223267,-2.446496311818258
1708436430.9821434,-2.1538712978363037,-1.3371836108020325,-2.525722328816549,6.140222298889913,1.0157471895217896,-2.4460962454425257
1708436430.9841502,-2.1538712978363037,-1.337203325038292,-2.525752369557516,6.140213358193197,1.0157712697982788,-2.44568640390505
1708436430.9861693,-2.1538827419281006,-1.3371989738992234,-2.525734249745504,6.140222179680624,1.015717625617981,-2.445388142262594
1708436430.9881978,-2.1538643836975098,-1.337186725144722,-2.525747839604513,6.140247928887167,1.015750527381897,-2.4450531641589563
1708436430.9901605,-2.1539084911346436,-1.3371823591044922,-2.5257673899279993,6.140246379166403,1.0157549381256104,-2.444662634526388
1708436430.992125,-2.1538474559783936,-1.337186725144722,-2.5256970564471644,6.14021776893691,1.0157668590545654,-2.444286886845724
1708436430.9941514,-2.1538758277893066,-1.3371704381755372,-2.525785271321432,6.140271651535787,1.0157876014709473,-2.4439225832568567
1708436430.99617,-2.1539299488067627,-1.3371998381665726,-2.5257750193225306,6.140226709633627,1.0157787799835205,-2.4435742537127894
1708436430.9981678,-2.1539299488067627,-1.3371823591044922,-2.5257886091815394,6.140221106797018,1.015762448310852,-2.4432275930987757
1708436431.000168,-2.1539254188537598,-1.3371553283980866,-2.5257704893695276,6.140250789910116,1.0157819986343384,-2.442800823842184
1708436431.0021589,-2.1538758277893066,-1.337158517246582,-2.5257795492755335,6.140210377960958,1.0158253908157349,-2.442388121281759
1708436431.0041585,-2.1538827419281006,-1.3371945184520264,-2.5258124510394495,6.140189635544576,1.0158283710479736,-2.441963020955221
1708436431.0061512,-2.1538476943969727,-1.3371823591044922,-2.5257960001574915,6.14019404628829,1.0157954692840576,-2.441620413457052
1708436431.008156,-2.153834104537964,-1.3371616315892716,-2.5258033911334437,6.140210377960958,1.0157909393310547,-2.441170040761129
1708436431.010151,-2.1538689136505127,-1.3371945184520264,-2.5257704893695276,6.1402028677757166,1.0158401727676392,-2.440707270299093
1708436431.0121567,-2.1539041996002197,-1.3371791404536744,-2.5257869402514856,6.140211808472433,1.0158194303512573,-2.440366570149557
1708436431.0141559,-2.1538872718811035,-1.337186725144722,-2.5258620421039026,6.140165436058798,1.0158357620239258,-2.439863983784811
1708436431.0161567,-2.153862476348877,-1.337174804215767,-2.525794331227438,6.140096652298727,1.0158030986785889,-2.4394028822528284
1708436431.0181487,-2.1539041996002197,-1.3371945184520264,-2.5258243719684046,6.140149104386129,1.0158313512802124,-2.4389963785754603
1708436431.0201838,-2.1538803577423096,-1.3371345114758988,-2.5258033911334437,6.140133845597067,1.0157809257507324,-2.43849760690798
1708436431.0221627,-2.1538712978363037,-1.3371616315892716,-2.525806252156393,6.140089261322775,1.0158765316009521,-2.4381189982043665
1708436431.0241718,-2.1538918018341064,-1.3371910911849518,-2.525853220616476,6.140114533692159,1.0158225297927856,-2.437650267277853
1708436431.0261645,-2.1538960933685303,-1.337173507814743,-2.525877062474386,6.140127885132589,1.0158255100250244,-2.4371684233294886
1708436431.0281444,-2.1539041996002197,-1.3371823591044922,-2.52580172220339,6.140099274903097,1.0158555507659912,-2.436753813420431
1708436431.0301573,-2.1538803577423096,-1.3371910762837906,-2.525851551686422,6.140074121743002,1.0158135890960693,-2.436300579701559
1708436431.032173,-2.1538872718811035,-1.337207631473877,-2.5258424917804163,6.140029179840841,1.0158721208572388,-2.435815159474508
1708436431.034174,-2.1538872718811035,-1.3371704530766984,-2.5258262793170374,6.1400829432304285,1.0158765316009521,-2.4353874365436
1708436431.0361476,-2.153855562210083,-1.3371616464904328,-2.525864903126852,6.140021669655599,1.0158464908599854,-2.4349187056170862
1708436431.0381758,-2.1538643836975098,-1.3372282844832917,-2.5258782545672815,6.1400335905845544,1.015858769416809,-2.43443471590151
1708436431.0401964,-2.1539254188537598,-1.337124691610672,-2.5258753935443323,6.139981257706442,1.0158705711364746,-2.4339619318591517
1708436431.0421607,-2.1538960933685303,-1.3372195822051545,-2.5259037653552454,6.140060412674703,1.0158751010894775,-2.4335349241839808
1708436431.0441728,-2.1538350582122803,-1.337174804215767,-2.5258918444262903,6.139990079193868,1.0158661603927612,-2.4330127874957483
1708436431.0461657,-2.153838634490967,-1.3371466112187882,-2.5259082953082483,6.139996039658346,1.015924334526062,-2.432544771824972
1708436431.0481737,-2.1538305282592773,-1.3371954423240204,-2.5258918444262903,6.139951097756185,1.015908122062683,-2.4320877234088343
1708436431.0501478,-2.1538643836975098,-1.3371945035508652,-2.5259252230273646,6.139907586365499,1.0158740282058716,-2.4316075483905237
1708436431.0521643,-2.1538758277893066,-1.337166042332985,-2.525907341633932,6.139910685807028,1.015923023223877,-2.431086603795187
1708436431.0541449,-2.1538214683532715,-1.337212012415268,-2.5258918444262903,6.1398987648780725,1.0159066915512085,-2.4306886831866663
1708436431.0561512,-2.1538519859313965,-1.3371541512063523,-2.5258901754962366,6.139882433205404,1.0159274339675903,-2.430157248173849
1708436431.058155,-2.1538350582122803,-1.3371466112187882,-2.5259116331683558,6.139915096550741,1.0159021615982056,-2.429701868687765
1708436431.06017,-2.1538305282592773,-1.3371878874352952,-2.525923554097311,6.139862763672628,1.0159399509429932,-2.429185215626852
1708436431.0621612,-2.1538069248199463,-1.3371660721353074,-2.5259206930743616,6.139769065171041,1.0159636735916138,-2.428675953541891
1708436431.0641923,-2.153844118118286,-1.3371422302773972,-2.525919024144308,6.1397660849388025,1.0159878730773926,-2.4281962553607386
1708436431.0661438,-2.1538326740264893,-1.337146596317627,-2.525972906743185,6.139741885453024,1.0159800052642822,-2.4276416937457483
1708436431.06815,-2.15378999710083,-1.3371140223792572,-2.5259607473956507,6.139696943550863,1.0159789323806763,-2.427161518727438
1708436431.0701442,-2.1538078784942627,-1.337158517246582,-2.5259771982776087,6.139673101692953,1.0159952640533447,-2.4267271200763147
1708436431.0721476,-2.1537716388702393,-1.337174804215767,-2.525980297719137,6.139683234482565,1.016037106513977,-2.426230017338888
1708436431.074193,-2.153733491897583,-1.3371227544597168,-2.525959316884176,6.139652001648702,1.0160315036773682,-2.4257667700396937
1708436431.076157,-2.153775930404663,-1.337158517246582,-2.52592641512026,6.139618980675497,1.0160226821899414,-2.425288979207174
1708436431.078165,-2.153726100921631,-1.337122694855072,-2.52595025697817,6.13962339141921,1.0160764455795288,-2.4248138109790247
1708436431.0801523,-2.1537680625915527,-1.3371823740056534,-2.525954786931173,6.1395290968711755,1.0160807371139526,-2.42427641550173
1708436431.0821795,-2.1537556648254395,-1.3370933842710038,-2.525975767766134,6.1395394680793665,1.016100525856018,-2.423812452946798
1708436431.0841925,-2.1537106037139893,-1.3371212941459198,-2.525971237813131,6.139528977661886,1.0160930156707764,-2.4233248869525355
1708436431.0861533,-2.1536991596221924,-1.337146596317627,-2.5259998480426233,6.139479625016012,1.0161246061325073,-2.4228232542621058
1708436431.0881486,-2.1536965370178223,-1.3371673238328476,-2.5260120073901575,6.139422881394186,1.0161319971084595,-2.4223175684558313
1708436431.0901604,-2.1536853313446045,-1.337146596317627,-2.5259788672076624,6.139428722649374,1.0160796642303467,-2.4219027201281946
1708436431.0921829,-2.1536309719085693,-1.3371596944383164,-2.5260120073901575,6.139337408333578,1.0161439180374146,-2.421363655720846
1708436431.0941644,-2.153621196746826,-1.3371922832778473,-2.526048008595602,6.139340388565817,1.0161558389663696,-2.420894447957174
1708436431.0961578,-2.1535842418670654,-1.3371715408614655,-2.526026789342062,6.139220821648397,1.0161683559417725,-2.4204145113574427
1708436431.0981746,-2.153531312942505,-1.337094546561577,-2.52606445947756,6.139231192856588,1.0161964893341064,-2.419891659413473
1708436431.1002092,-2.1535286903381348,-1.3371386987021943,-2.526038948689596,6.139199602394857,1.0162039995193481,-2.419400755559103
1708436431.1021655,-2.1535003185272217,-1.337119684820511,-2.526043478642599,6.139150249748983,1.0162280797958374,-2.4189403692828577
1708436431.1041822,-2.1534640789031982,-1.3370735806277771,-2.526084009801046,6.1391112683113,1.0162580013275146,-2.4184115568744105
1708436431.1061504,-2.1534030437469482,-1.337061734204628,-2.5260959307300013,6.139022815018453,1.0162479877471924,-2.4180052916156214
1708436431.108177,-2.1533665657043457,-1.3370541495135804,-2.5261152426349085,6.138982283860006,1.0162806510925293,-2.417544428502218
1708436431.1101687,-2.1533756256103516,-1.3371164512685318,-2.5260749498950403,6.13893889167861,1.016243577003479,-2.417058531438009
1708436431.1121533,-2.153332471847534,-1.3370672476342698,-2.5261316935168665,6.138940322190084,1.016304850578308,-2.4165449778186243
1708436431.1141639,-2.153291702270508,-1.337071717982628,-2.5261486212359827,6.13884602764205,1.0163583755493164,-2.4160528818713587
1708436431.1161585,-2.1532351970672607,-1.3370255839875718,-2.526163403187887,6.138778674393453,1.0163363218307495,-2.415598217641012
1708436431.1181862,-2.15324068069458,-1.337010921244957,-2.526135031376974,6.1387096522148035,1.0162948369979858,-2.415067497883932
1708436431.1202097,-2.1531929969787598,-1.3370717030814667,-2.526179854069845,6.138708221703329,1.0163767337799072,-2.414567534123556
1708436431.1222012,-2.1531789302825928,-1.3369855892709275,-2.526196304951803,6.138574945717611,1.0163967609405518,-2.414119545613424
1708436431.1242263,-2.1531453132629395,-1.3370343905738373,-2.5261917749988,6.1385406134422205,1.016433835029602,-2.4136794249164026
1708436431.126174,-2.1530649662017822,-1.337015227680542,-2.5262354055987757,6.1384644387061975,1.0164533853530884,-2.4131723085986536
1708436431.1281557,-2.153048038482666,-1.337038831119873,-2.526242796574728,6.138337123184957,1.0164852142333984,-2.412717644368307
1708436431.130164,-2.152979850769043,-1.3370685440352936,-2.526254717503683,6.138320314675131,1.0164719820022583,-2.41225773492922
1708436431.1321542,-2.1529641151428223,-1.3370030683330079,-2.526259247456686,6.138178455620565,1.0165631771087646,-2.411802355443136
1708436431.1341596,-2.152966022491455,-1.337035597567894,-2.526278797780172,6.138131606369772,1.0165334939956665,-2.411257807408468
1708436431.136178,-2.1528890132904053,-1.3369836074164887,-2.5263074080096644,6.138088214188375,1.0165647268295288,-2.4108641783343714
1708436431.1381662,-2.1528890132904053,-1.3370399934104462,-2.5263238588916224,6.13799678066329,1.0165351629257202,-2.410400454198019
1708436431.1401663,-2.152862787246704,-1.337011770611145,-2.5263357798205774,6.137833702355184,1.0166457891464233,-2.409910027180807
1708436431.142172,-2.152785062789917,-1.3369126927903672,-2.52637488046755,6.137838113098898,1.0166040658950806,-2.4094374815570276
1708436431.1441677,-2.1528160572052,-1.336978093986847,-2.526388470326559,6.137712228089132,1.016602873802185,-2.4090681711779993
1708436431.1461487,-2.152705430984497,-1.3369463247111817,-2.526379410420553,6.137583482056417,1.016652226448059,-2.408623520527975
1708436431.1481638,-2.152665615081787,-1.3369432252696534,-2.526412312184469,6.137553322106161,1.0166881084442139,-2.4082041422473353
1708436431.1501563,-2.152646064758301,-1.3369018894485016,-2.526440683995382,6.137387382775106,1.0167078971862793,-2.4077277819262903
1708436431.1521487,-2.152578115463257,-1.336913750772812,-2.5264318625079554,6.137275445252218,1.0167574882507324,-2.407262150441305
1708436431.1541412,-2.152571201324463,-1.336944357757904,-2.5264468828784388,6.137171852379598,1.0167901515960693,-2.4068272749530237
1708436431.1561565,-2.1525189876556396,-1.336935655479767,-2.5264843145953577,6.137080418854513,1.0168260335922241,-2.406469170247213
1708436431.158168,-2.1524014472961426,-1.3369031113437195,-2.526479784642355,6.136981594353475,1.0168460607528687,-2.4059608618365687
1708436431.1601655,-2.1524369716644287,-1.3369487536004563,-2.526499334965841,6.136882769852438,1.0168895721435547,-2.4055798689471644
1708436431.1621819,-2.1523749828338623,-1.3368585717729111,-2.526548687611715,6.136700141220846,1.0169376134872437,-2.4051268736468714
1708436431.1641648,-2.152303457260132,-1.336895541553833,-2.5265682379352015,6.136605727463522,1.0169495344161987,-2.4047234694110315
1708436431.166152,-2.1522514820098877,-1.3368716847947617,-2.526641909276144,6.1365558979804895,1.0169813632965088,-2.4043241182910364
1708436431.1681519,-2.1521947383880615,-1.3368682724288483,-2.526632849370138,6.136413681298055,1.0170173645019531,-2.4038503805743616
1708436431.1701558,-2.152147054672241,-1.3367868822864075,-2.5266431013690394,6.136298525124349,1.0171070098876953,-2.4034884611712855
1708436431.1721447,-2.152057647705078,-1.3368279051831742,-2.5266311804400843,6.136199342995443,1.0171056985855103,-2.4030264059649866
1708436431.1741476,-2.1520111560821533,-1.336820275788643,-2.5266762415515345,6.135988819390096,1.0171881914138794,-2.4026392141925257
1708436431.1761405,-2.15195631980896,-1.3368116331151505,-2.526691261922018,6.135942208557882,1.017232060432434,-2.402243677769796
1708436431.1781392,-2.151841163635254,-1.3367836636355896,-2.526736323033468,6.1358553049858,1.0172512531280518,-2.4017697016345423
1708436431.180144,-2.151818037033081,-1.336752013569214,-2.5268052260028284,6.135656344681539,1.0172666311264038,-2.4013896624194544
1708436431.182149,-2.1517646312713623,-1.3367845428041,-2.5267468134509485,6.1356156943138025,1.0172861814498901,-2.4010477701770228
1708436431.1841524,-2.1517117023468018,-1.336752028470375,-2.5267751852618616,6.13544641712264,1.0173629522323608,-2.400642220173971
1708436431.1861577,-2.1516366004943848,-1.336707131271698,-2.526820484791891,6.135331260948934,1.0174229145050049,-2.4002507368670862
1708436431.1881456,-2.151563882827759,-1.3366714429906388,-2.526853386555807,6.135240900307455,1.0174425840377808,-2.3998711744891565
1708436431.1901474,-2.1515183448791504,-1.3366310161403199,-2.5268142859088343,6.135124313622274,1.0175070762634277,-2.399438206349508
1708436431.1921382,-2.1513917446136475,-1.3366814714721222,-2.5268710295306605,6.1349148629005334,1.0175594091415405,-2.3990584055529993
1708436431.1941445,-2.151315927505493,-1.3366564375213166,-2.5269208590136927,6.1348070977027795,1.0175704956054688,-2.3986828962909144
1708436431.1961558,-2.1512625217437744,-1.3366117042354126,-2.526898209248678,6.134708273201742,1.0176513195037842,-2.3983481566058558
1708436431.1981606,-2.15120530128479,-1.3366160553744812,-2.526931111012594,6.134577858238973,1.0176961421966553,-2.397979799901144
1708436431.2001576,-2.1511080265045166,-1.3365563464215775,-2.5270255247699183,6.13438771942214,1.0177562236785889,-2.3975499312030237
1708436431.202153,-2.151078462600708,-1.3365803223899384,-2.5270031134234827,6.134285557060995,1.0177925825119019,-2.3971973101245325
1708436431.2041636,-2.150977611541748,-1.3365978461555024,-2.527073685322897,6.134137379914083,1.0177944898605347,-2.396841828023092
1708436431.2061448,-2.1508631706237793,-1.3365486425212403,-2.5270677248584192,6.133972871094503,1.017863392829895,-2.3964744249926966
1708436431.2081673,-2.150813102722168,-1.3365498197129746,-2.5270960966693323,6.133809435158529,1.017944574356079,-2.396163527165548
1708436431.2101605,-2.1507530212402344,-1.336496279840805,-2.5270870367633265,6.133587109833517,1.0179879665374756,-2.395841423665182
1708436431.2121458,-2.150735855102539,-1.3365050119212647,-2.527130667363302,6.133493768959799,1.0180076360702515,-2.395468060170309
1708436431.2141752,-2.150656223297119,-1.3364398938468476,-2.5271876494037073,6.133314001351156,1.0180809497833252,-2.395125214253561
1708436431.2161665,-2.150590658187866,-1.336489052777626,-2.5272372404681605,6.133128273278036,1.0181528329849243,-2.3947725931750696
1708436431.218168,-2.150481939315796,-1.3364783388427277,-2.5272563139544886,6.132982837944784,1.0182088613510132,-2.394508663808004
1708436431.2201874,-2.1504476070404053,-1.3364291948131104,-2.52726394334902,6.132810580521383,1.01826012134552,-2.3941052595721644
1708436431.2221897,-2.150334358215332,-1.3364007335952302,-2.5272539297686976,6.132744419365682,1.01832914352417,-2.393813673649923
1708436431.2241788,-2.1502878665924072,-1.3364423376372834,-2.5273268858539026,6.132475006371298,1.01842200756073,-2.3934534231769007
1708436431.2261498,-2.1501779556274414,-1.3363562536290665,-2.527372185383932,6.132327186852255,1.0184284448623657,-2.393106524144308
1708436431.2281597,-2.1501481533050537,-1.3363946688226243,-2.527396027241842,6.132098066597738,1.0185092687606812,-2.392826859151022
1708436431.2301683,-2.150052070617676,-1.3363903921893616,-2.5273991266833704,6.131983864098348,1.0185859203338623,-2.392465893422262
1708436431.2321675,-2.149996280670166,-1.3363125783256073,-2.5274019877063196,6.1318654892738245,1.018625259399414,-2.392186228428976
1708436431.2341535,-2.1499032974243164,-1.3363498610309144,-2.527475420628683,6.131660210877218,1.0187257528305054,-2.391874376927511
1708436431.2361462,-2.1498374938964844,-1.3363336038640519,-2.527487341557638,6.131488311081686,1.018785834312439,-2.391554657612936
1708436431.2381604,-2.1497726440429688,-1.3363095086864014,-2.5275116602527063,6.131380426674642,1.0188668966293335,-2.391209904347555
1708436431.240153,-2.1496427059173584,-1.336294413810112,-2.5275548140155237,6.131172287255087,1.0188730955123901,-2.390951935444967
1708436431.2421372,-2.1496262550354004,-1.3362943542054673,-2.527583662663595,6.131013500481405,1.0189660787582397,-2.390618387852804
1708436431.2441921,-2.149559259414673,-1.3362912398627778,-2.527628485356466,6.130894887238302,1.0190308094024658,-2.3903470675097864
1708436431.246149,-2.1494662761688232,-1.3362258237651368,-2.5276225248919886,6.130628692894735,1.0190746784210205,-2.3900590578662317
1708436431.2481546,-2.1493780612945557,-1.3362750124982377,-2.527679506932394,6.130457746773519,1.0191140174865723,-2.389787260686056
1708436431.2501462,-2.149315357208252,-1.3362139028361817,-2.527665917073385,6.1303467629249475,1.0191693305969238,-2.389475170766012
1708436431.2521484,-2.149181842803955,-1.336181030874588,-2.5277350584613245,6.130150544434347,1.019247055053711,-2.3891614119159144
1708436431.2541625,-2.149122476577759,-1.336108462219574,-2.5277753512011927,6.129970776825704,1.0193326473236084,-2.3888617197619837
1708436431.2561657,-2.149050235748291,-1.33617057025943,-2.527787510548727,6.129774200707235,1.0193301439285278,-2.3885582129107874
1708436431.2581606,-2.148921012878418,-1.3361095947078248,-2.527856413518087,6.12960313537673,1.019406795501709,-2.388256613408224
1708436431.2601721,-2.148883581161499,-1.3360976439765473,-2.5278473536120813,6.129447090416708,1.019450306892395,-2.387970272694723
1708436431.2621582,-2.148787021636963,-1.336066023712494,-2.5278504530536097,6.12928723075942,1.019535779953003,-2.387636963521139
1708436431.2641604,-2.14871883392334,-1.3360822659781952,-2.527907435094015,6.129149067192831,1.0195633172988892,-2.3873372713672083
1708436431.2661471,-2.148648500442505,-1.3360942167094727,-2.52794319788088,6.12891577461318,1.0196022987365723,-2.3870447317706507
1708436431.2681594,-2.1485848426818848,-1.3360540729812165,-2.5279720465289515,6.128814446717062,1.0196504592895508,-2.3867984453784388
1708436431.270142,-2.1484601497650146,-1.335997388964035,-2.527949635182516,6.1285520670707605,1.0197641849517822,-2.386484448109762
1708436431.272162,-2.1484034061431885,-1.3359691959670563,-2.52804404893984,6.128441917687216,1.019836187362671,-2.3862291018115442
1708436431.2741592,-2.1483490467071533,-1.3359735918096085,-2.5280965010272425,6.128318893700399,1.0198473930358887,-2.3858946005450647
1708436431.2761614,-2.1481993198394775,-1.3359626096538086,-2.5281367937671106,6.128183948784628,1.0199521780014038,-2.3856359163867396
1708436431.278165,-2.1481661796569824,-1.3359626096538086,-2.5281816164599817,6.12794195392684,1.0200167894363403,-2.3853729406939905
1708436431.2801669,-2.148040533065796,-1.33590521038089,-2.5281880537616175,6.127811300545492,1.0200438499450684,-2.385089699422018
1708436431.2821608,-2.1479904651641846,-1.3359315258315583,-2.5281625429736536,6.1276272414024255,1.0200920104980469,-2.384780232106344
1708436431.2841623,-2.1479108333587646,-1.3358812493136902,-2.528202835713522,6.127418863564291,1.0201776027679443,-2.3845420519458216
1708436431.2861571,-2.147810220718384,-1.3359565895846863,-2.528243366871969,6.127333390503683,1.0201879739761353,-2.384303394948141
1708436431.288178,-2.1477272510528564,-1.3359236729196091,-2.5282629171954554,6.127080547600546,1.020264744758606,-2.3839474360095423
1708436431.2901685,-2.1476502418518066,-1.3358823370984574,-2.5282538572894495,6.1269158003623865,1.0202884674072266,-2.3836517969714563
1708436431.2921574,-2.14753794670105,-1.33588361859832,-2.528355900441305,6.126722919731893,1.0202996730804443,-2.3834293524371546
1708436431.2941496,-2.147510528564453,-1.335858167415001,-2.528375212346212,6.126563775330343,1.0204310417175293,-2.3831785360919397
1708436431.2961714,-2.1473870277404785,-1.335826800470688,-2.528358761464254,6.1263548014457605,1.020416498184204,-2.382839028035299
1708436431.2981653,-2.1473100185394287,-1.3358355921557923,-2.5284279028521937,6.126240241318502,1.0204768180847168,-2.382609192525045
1708436431.3001645,-2.147221565246582,-1.3357876998237153,-2.5284560362445276,6.126077520638265,1.020532488822937,-2.382378641759054
1708436431.3021526,-2.1471829414367676,-1.3357954782298584,-2.528483215962545,6.125958192139425,1.0205894708633423,-2.3821025530444544
1708436431.3041615,-2.147120237350464,-1.3356942993453522,-2.5284248034106653,6.125743853836813,1.0206581354141235,-2.3818004767047327
1708436431.3061583,-2.14703631401062,-1.3357074421695252,-2.5284908453570765,6.125563132553854,1.020666241645813,-2.381524387990133
1708436431.3081677,-2.146946907043457,-1.3356943887523194,-2.5285266081439417,6.1254204390342615,1.0206767320632935,-2.381263796483175
1708436431.310156,-2.1469101905822754,-1.3356789213470002,-2.528592650090353,6.125306355744161,1.0207711458206177,-2.3809965292560022
1708436431.3121622,-2.146791458129883,-1.3356832575849076,-2.5285912195788782,6.12511025646285,1.020774245262146,-2.380716149006979
1708436431.314167,-2.14668607711792,-1.3356429201415558,-2.5286241213427942,6.124891865044393,1.0207850933074951,-2.3804941813098353
1708436431.3161607,-2.146667957305908,-1.3356551241925736,-2.5286274592029017,6.12480782249526,1.0208165645599365,-2.3801727930652063
1708436431.3181581,-2.146624803543091,-1.335616187458374,-2.5286482016192835,6.124553310662069,1.0208932161331177,-2.379871431981222
1708436431.3201654,-2.1465587615966797,-1.3356032234481354,-2.5286765734301966,6.124445783882894,1.0209543704986572,-2.3796451727496546
1708436431.3221855,-2.146470308303833,-1.3356206280044098,-2.528630320225851,6.124377715378561,1.0208951234817505,-2.3793652693377894
1708436431.324163,-2.1463840007781982,-1.335625023846962,-2.5286992231952112,6.124192464142599,1.0210177898406982,-2.3790765444384974
1708436431.3261578,-2.146345615386963,-1.3355638843825837,-2.528719965611593,6.124031770020284,1.0210506916046143,-2.3788121382342737
1708436431.3281598,-2.1462528705596924,-1.3355325025371094,-2.5287397543536585,6.123895633011617,1.0210493803024292,-2.378474299107687
1708436431.3301687,-2.1462388038635254,-1.335552842622139,-2.5287233034717005,6.123805629998007,1.0210734605789185,-2.378219191228048
1708436431.3321648,-2.1461539268493652,-1.335499570970871,-2.5287683645831507,6.123518693238058,1.0210809707641602,-2.3779383341418665
1708436431.334152,-2.1461071968078613,-1.3355084222606202,-2.528733793889181,6.123465764313497,1.0211378335952759,-2.377655092869894
1708436431.336167,-2.1459782123565674,-1.3354758334210892,-2.528721634541647,6.12332974651412,1.0211246013641357,-2.3773251215564173
1708436431.338157,-2.145925998687744,-1.3354890209487458,-2.5287638346301478,6.123136508255758,1.021165370941162,-2.3771076838122767
1708436431.3401592,-2.1459076404571533,-1.3354517084411164,-2.528733555470602,6.123041975289144,1.0211443901062012,-2.37683612505068
1708436431.3421504,-2.1458237171173096,-1.3354366582683106,-2.528766695653097,6.1228651879127405,1.0212384462356567,-2.376531426106588
1708436431.3441966,-2.14575457572937,-1.3353996884873887,-2.5287261644946497,6.1227993843849084,1.0212221145629883,-2.3762479464160364
1708436431.3461611,-2.145723819732666,-1.3354692471078415,-2.528754774724142,6.1225775358970544,1.0212132930755615,-2.3759267965899866
1708436431.3481665,-2.1456716060638428,-1.3353593212417145,-2.528745714818136,6.122502553253927,1.0212162733078003,-2.375626866017477
1708436431.3501444,-2.145664691925049,-1.3353679788163682,-2.528733555470602,6.122333991318502,1.0212864875793457,-2.3753462473498743
1708436431.3521698,-2.145580768585205,-1.335409776573517,-2.528766695653097,6.122256982117452,1.0212748050689697,-2.3750670591937464
