Eg3-git/Classifiers/Data Collection/u4/u4cir2_ur3e_joint_states.csv
time,elbow_joint,shoulder_lift_joint,shoulder_pan_joint,wrist_1_joint,wrist_2_joint,wrist_3_joint
1708436370.7618687,-2.15383243560791,-1.3365528744510193,-2.5236154238330286,6.137758719712057,1.011622428894043,-2.328198258076803
1708436370.7638705,-2.1538565158843994,-1.3365333688310166,-2.5235796610461634,6.137775051384725,1.011680006980896,-2.3281951586352747
1708436370.7658467,-2.1538519859313965,-1.3365367215922852,-2.5235584417926233,6.137770521431722,1.0116504430770874,-2.328226629887716
1708436370.767858,-2.153843879699707,-1.3365486425212403,-2.5235629717456263,6.137754189759054,1.0116386413574219,-2.3282278219806116
1708436370.7698698,-2.1538190841674805,-1.3365693551352997,-2.5235961119281214,6.13774203041152,1.011680006980896,-2.32820707956423
1708436370.7718825,-2.1538238525390625,-1.3365367215922852,-2.5235961119281214,6.13778983333663,1.0116757154464722,-2.328182045613424
1708436370.773868,-2.1538238525390625,-1.336512879734375,-2.5236333052264612,6.137721049576559,1.011622428894043,-2.328193966542379
1708436370.7758257,-2.153844118118286,-1.3365163070014496,-2.5236199537860315,6.1377988932426355,1.0116310119628906,-2.328186337147848
1708436370.7778697,-2.153794527053833,-1.3364635568908234,-2.523572031651632,6.137761699944296,1.0116058588027954,-2.328198258076803
1708436370.7798703,-2.1538281440734863,-1.3365656596473237,-2.5235841909991663,6.137766110688009,1.0116548538208008,-2.3282068411456507
1708436370.781847,-2.15384840965271,-1.336508647804596,-2.5236006418811243,6.137775170594015,1.0116429328918457,-2.328186337147848
1708436370.7838402,-2.153852939605713,-1.3365205538323899,-2.5235796610461634,6.1377824423606775,1.0116504430770874,-2.328174416218893
1708436370.7858574,-2.153799057006836,-1.3365248006633301,-2.5235629717456263,6.137758719712057,1.0116267204284668,-2.328170124684469
1708436370.7878852,-2.153799057006836,-1.336593971853592,-2.5235796610461634,6.137775170594015,1.0116298198699951,-2.3281622568713587
1708436370.789849,-2.153820037841797,-1.3365442764810105,-2.5236335436450403,6.137770521431722,1.0116058588027954,-2.328202549611227
1708436370.7918756,-2.153815746307373,-1.3365048629096528,-2.5235989729510706,6.1377121088798425,1.0116026401519775,-2.328157965336935
1708436370.793831,-2.1538069248199463,-1.3365367215922852,-2.5235870520221155,6.137816774636068,1.0116180181503296,-2.3281875292407435
1708436370.7958257,-2.153836965560913,-1.3364763420871277,-2.5235796610461634,6.137745249062338,1.0116267204284668,-2.328182045613424
1708436370.7978399,-2.1538238525390625,-1.3365248006633301,-2.5235961119281214,6.137773620873251,1.011618971824646,-2.328190628682272
1708436370.7998352,-2.153799057006836,-1.3365613681128998,-2.5236125628100794,6.137745368271627,1.0116429328918457,-2.3281665484057825
1708436370.8018234,-2.1538281440734863,-1.3365528893521805,-2.5235961119281214,6.137712228089132,1.0116504430770874,-2.3281448523150843
1708436370.803837,-2.153852701187134,-1.336512879734375,-2.5235841909991663,6.1377824423606775,1.0116310119628906,-2.328202549611227
1708436370.8058434,-2.153799057006836,-1.3365333539298554,-2.5236199537860315,6.13778697231368,1.011622428894043,-2.3281622568713587
1708436370.8078532,-2.153839588165283,-1.3365367215922852,-2.5236080328570765,6.13776324966506,1.0116472244262695,-2.32814604440798
1708436370.809836,-2.153794527053833,-1.3365315806916733,-2.5236125628100794,6.13774203041152,1.011696696281433,-2.3281787077533167
1708436370.8118193,-2.153799057006836,-1.336516336803772,-2.5236364046679896,6.137713777809896,1.0116267204284668,-2.328141752873556
1708436370.813865,-2.1538288593292236,-1.3365613681128998,-2.5235796610461634,6.13776324966506,1.0116188526153564,-2.328157965336935
1708436370.8158462,-2.153839588165283,-1.3365409535220643,-2.5236170927630823,6.137758719712057,1.0116386413574219,-2.328170124684469
1708436370.8178728,-2.1537742614746094,-1.3365248006633301,-2.5235915819751185,6.137745249062338,1.0116591453552246,-2.3281503359424036
1708436370.819859,-2.153787612915039,-1.3365656596473237,-2.5236290136920374,6.1377001879508875,1.0116268396377563,-2.328137222920553
1708436370.8218563,-2.15378737449646,-1.3365290325931092,-2.5236290136920374,6.137754189759054,1.0116310119628906,-2.328170124684469
1708436370.8238766,-2.15384578704834,-1.3365367215922852,-2.523593250905172,6.137688267021932,1.0115654468536377,-2.328141514454977
1708436370.8258486,-2.153783082962036,-1.3365571361831208,-2.5235751310931605,6.137721049576559,1.0116634368896484,-2.3281622568713587
1708436370.8278682,-2.153843879699707,-1.3365333390286942,-2.5236290136920374,6.137758719712057,1.0116267204284668,-2.3281832377063196
1708436370.829847,-2.153783082962036,-1.3365290325931092,-2.523567501698629,6.137819993286886,1.0116267204284668,-2.328174416218893
1708436370.8318412,-2.153836965560913,-1.3365290325931092,-2.5235841909991663,6.137734520226278,1.0116310119628906,-2.328153435383932
1708436370.8338513,-2.1538069248199463,-1.3365495067885895,-2.5236006418811243,6.1378004429634,1.011635422706604,-2.3281665484057825
1708436370.8358493,-2.153799057006836,-1.3365333539298554,-2.5236216227160853,6.137730109482565,1.0116188526153564,-2.328141514454977
1708436370.8378727,-2.153787612915039,-1.336549536590912,-2.5235870520221155,6.137725579529562,1.0116397142410278,-2.3281589190112513
1708436370.8398716,-2.153820037841797,-1.3365367215922852,-2.5235961119281214,6.137725698738851,1.0116310119628906,-2.328190628682272
1708436370.84184,-2.153783082962036,-1.3365333539298554,-2.5235870520221155,6.137721049576559,1.0116429328918457,-2.32814604440798
1708436370.8438818,-2.153790235519409,-1.3365409535220643,-2.523593250905172,6.137754189759054,1.011663556098938,-2.3282082716571253
1708436370.8458514,-2.1538078784942627,-1.3365452152541657,-2.5235708395587366,6.137734520226278,1.011635422706604,-2.3281708399402063
1708436370.8478498,-2.1538033485412598,-1.3365451705506821,-2.5235629717456263,6.137759911804952,1.0115777254104614,-2.32814604440798
1708436370.8498597,-2.1537961959838867,-1.3365367215922852,-2.5236333052264612,6.137709247856893,1.0115939378738403,-2.3281622568713587
1708436370.8518715,-2.153787612915039,-1.3365528893521805,-2.523597780858175,6.137713777809896,1.011614441871643,-2.328157965336935
1708436370.8538795,-2.153754949569702,-1.336545155649521,-2.523637835179464,6.137749779015341,1.0116472244262695,-2.3281787077533167
1708436370.8558962,-2.153759241104126,-1.3365248453668137,-2.5235887209521692,6.13771818855361,1.011614441871643,-2.328125063573019
1708436370.8579223,-2.153820276260376,-1.3364678186229249,-2.5235841909991663,6.13774203041152,1.0116267204284668,-2.3281503359424036
1708436370.8598745,-2.1538245677948,-1.336483658557274,-2.5236080328570765,6.137750971108236,1.0116188526153564,-2.3281503359424036
1708436370.8618445,-2.153750419616699,-1.3365333688310166,-2.5235629717456263,6.137770521431722,1.011601448059082,-2.3281665484057825
1708436370.863853,-2.153787612915039,-1.336504877810814,-2.5235841909991663,6.137734639435568,1.0116188526153564,-2.3281338850604456
1708436370.8658466,-2.153791904449463,-1.336512879734375,-2.5236154238330286,6.137734520226278,1.0115777254104614,-2.3281381765948694
1708436370.8678536,-2.1538121700286865,-1.3364678186229249,-2.523572031651632,6.137746441155233,1.011582851409912,-2.3281787077533167
1708436370.8698583,-2.153780460357666,-1.336549536590912,-2.5236006418811243,6.137734520226278,1.0116188526153564,-2.3282113710986536
1708436370.8718596,-2.153791904449463,-1.3365528893521805,-2.5235796610461634,6.137701856880941,1.0115784406661987,-2.328174416218893
1708436370.8739002,-2.153780460357666,-1.336524785762169,-2.5235796610461634,6.1377553818519495,1.0116362571716309,-2.328157965336935
1708436370.8758788,-2.1538076400756836,-1.3364763122848053,-2.5235841909991663,6.13769410827712,1.0116231441497803,-2.3281381765948694
1708436370.8778627,-2.153759241104126,-1.3364879053882142,-2.5235162417041224,6.137746441155233,1.0115907192230225,-2.3281589190112513
1708436370.8798919,-2.153759241104126,-1.336569370036461,-2.5236290136920374,6.137730109482565,1.0116397142410278,-2.3281338850604456
1708436370.8818464,-2.153783082962036,-1.3364516508630295,-2.5236051718341272,6.137730109482565,1.0116231441497803,-2.32814604440798
1708436370.883871,-2.1538121700286865,-1.336549536590912,-2.5235989729510706,6.137754070549764,1.0116397142410278,-2.3281622568713587
1708436370.885857,-2.153775930404663,-1.336549536590912,-2.5235841909991663,6.137701856880941,1.011614441871643,-2.32814604440798
1708436370.887854,-2.15376353263855,-1.3365248006633301,-2.5236006418811243,6.137788522034445,1.0115950107574463,-2.3281338850604456
1708436370.8898573,-2.1537716388702393,-1.3365086329034348,-2.5236125628100794,6.137737500458517,1.0115907192230225,-2.3281424681292933
1708436370.8918486,-2.153791904449463,-1.3364879053882142,-2.523630444203512,6.137713658600607,1.0115982294082642,-2.3281589190112513
1708436370.893841,-2.1538007259368896,-1.3365007203868409,-2.5235629717456263,6.137713777809896,1.011627435684204,-2.32810885110964
1708436370.89586,-2.15378737449646,-1.3365333688310166,-2.5235915819751185,6.137730109482565,1.0116156339645386,-2.328125063573019
1708436370.8978534,-2.153750419616699,-1.3365290474942704,-2.5236216227160853,6.137680637627401,1.0116026401519775,-2.32814604440798
1708436370.899865,-2.153841257095337,-1.3364921373179932,-2.523572031651632,6.137713777809896,1.0116156339645386,-2.3281338850604456
1708436370.901841,-2.153763771057129,-1.3365367215922852,-2.5236035029040735,6.137759911804952,1.0116112232208252,-2.328137222920553
1708436370.90386,-2.153763771057129,-1.3365333688310166,-2.5235870520221155,6.137721049576559,1.0116188526153564,-2.328146759663717
1708436370.905855,-2.153820037841797,-1.3365248006633301,-2.52356464067568,6.137700307160177,1.011627435684204,-2.3282113710986536
1708436370.90785,-2.1538052558898926,-1.3365086329034348,-2.523567501698629,6.13771818855361,1.0115950107574463,-2.3281665484057825
1708436370.9098501,-2.153825521469116,-1.3364558976939698,-2.5236170927630823,6.137746441155233,1.0115784406661987,-2.3281787077533167
1708436370.9118445,-2.1538245677948,-1.336504877810814,-2.5236216227160853,6.1377272484596155,1.0115950107574463,-2.3281381765948694
1708436370.913849,-2.153791904449463,-1.3365248006633301,-2.5235796610461634,6.137673127442159,1.011569857597351,-2.3281829992877405
1708436370.9158401,-2.153791904449463,-1.3364963990500947,-2.5236006418811243,6.137725698738851,1.011627435684204,-2.328208033238546
1708436370.917856,-2.1538333892822266,-1.3365172010711213,-2.523609463368551,6.1376850483711145,1.0115994215011597,-2.3281503359424036
1708436370.9198375,-2.1537673473358154,-1.3365043860724946,-2.5235887209521692,6.137689578324117,1.011569857597351,-2.3281219641314905
1708436370.9218307,-2.1538121700286865,-1.3365248006633301,-2.5236199537860315,6.137722599297323,1.0116112232208252,-2.3281055132495325
1708436370.9238474,-2.153780460357666,-1.336553694014885,-2.5235915819751185,6.1377107975776575,1.011582851409912,-2.32814604440798
1708436370.9258435,-2.1537961959838867,-1.336512879734375,-2.523555580769674,6.13771818855361,1.011627435684204,-2.3281338850604456
1708436370.9278562,-2.1537513732910156,-1.3364439767650147,-2.5236051718341272,6.137734639435568,1.0115950107574463,-2.3281424681292933
1708436370.9298472,-2.153754711151123,-1.3365940314582367,-2.5235584417926233,6.137731659203329,1.0115872621536255,-2.3281424681292933
1708436370.931846,-2.153787612915039,-1.3365536344102402,-2.5235870520221155,6.137673127442159,1.011582851409912,-2.3281753698932093
1708436370.9338634,-2.15383243560791,-1.3364848804524918,-2.5235629717456263,6.137703048973837,1.011582851409912,-2.3281503359424036
1708436370.935874,-2.153754949569702,-1.3365290325931092,-2.5235841909991663,6.1377227185066126,1.011569857597351,-2.3281829992877405
1708436370.937879,-2.153759241104126,-1.3365086329034348,-2.523572031651632,6.13769410827712,1.0116069316864014,-2.3281589190112513
1708436370.9398925,-2.153787612915039,-1.3365248006633301,-2.523593250905172,6.1377508518989465,1.0115784406661987,-2.328141752873556
1708436370.941837,-2.1537892818450928,-1.3365375262549897,-2.523567501698629,6.13771818855361,1.0115994215011597,-2.328157965336935
1708436370.943868,-2.153776168823242,-1.3364879053882142,-2.5235961119281214,6.137686598091879,1.0115662813186646,-2.32810885110964
1708436370.9458315,-2.153791904449463,-1.336553694014885,-2.523567501698629,6.1376224634941,1.0115872621536255,-2.328179661427633
1708436370.947856,-2.1538290977478027,-1.3364921820214768,-2.5235796610461634,6.137760031014242,1.011620044708252,-2.3281589190112513
1708436370.9498606,-2.153780460357666,-1.3365007203868409,-2.523551050816671,6.1376850483711145,1.011570692062378,-2.3281381765948694
1708436370.9518688,-2.153759241104126,-1.336489037876465,-2.523572031651632,6.137680637627401,1.0115575790405273,-2.328157965336935
1708436370.9538643,-2.1537716388702393,-1.3365375262549897,-2.5235796610461634,6.137722599297323,1.0115662813186646,-2.3281381765948694
1708436370.955857,-2.1538121700286865,-1.3365333688310166,-2.523597780858175,6.137689578324117,1.011582851409912,-2.3281012217151087
1708436370.9578574,-2.153790235519409,-1.3365172010711213,-2.5236006418811243,6.1377062676246545,1.011542558670044,-2.3281338850604456
1708436370.9598904,-2.1537461280822754,-1.3365007203868409,-2.5235796610461634,6.137689578324117,1.0115512609481812,-2.32814604440798
1708436370.9618547,-2.1538076400756836,-1.3365043860724946,-2.5235887209521692,6.13769410827712,1.0115587711334229,-2.3281293551074427
1708436370.963839,-2.153815746307373,-1.3365205538323899,-2.5235796610461634,6.1377062676246545,1.01156747341156,-2.3281424681292933
1708436370.9658387,-2.1538121700286865,-1.3365333688310166,-2.5236006418811243,6.13769410827712,1.0115346908569336,-2.3281219641314905
1708436370.9678488,-2.1538078784942627,-1.3364921373179932,-2.5235584417926233,6.1376850483711145,1.0114856958389282,-2.328134838734762
1708436370.9698458,-2.153791904449463,-1.3364516508630295,-2.523597780858175,6.137747990875997,1.0115476846694946,-2.3281622568713587
1708436370.9718642,-2.153784990310669,-1.3365205240300675,-2.523597780858175,6.137685167580404,1.0114703178405762,-2.3281338850604456
1708436370.9738417,-2.153799057006836,-1.336521328692772,-2.5235629717456263,6.137722599297323,1.0115106105804443,-2.3281882444964808
1708436370.9758472,-2.1537673473358154,-1.3365043860724946,-2.5235841909991663,6.137649404793539,1.0114943981170654,-2.3281665484057825
1708436370.9778461,-2.1538245677948,-1.3365205091289063,-2.523567501698629,6.137628185539999,1.0115227699279785,-2.3281622568713587
1708436370.9798455,-2.1537961959838867,-1.3364805293134232,-2.5235751310931605,6.137701856880941,1.0114659070968628,-2.328129593526022
1708436370.9818437,-2.153799057006836,-1.3365290474942704,-2.5235887209521692,6.137689578324117,1.0114572048187256,-2.328129593526022
1708436370.9838479,-2.1538288593292236,-1.3365333092263718,-2.523572031651632,6.13771818855361,1.0114986896514893,-2.3281176725970667
1708436370.9858363,-2.153791904449463,-1.3364848655513306,-2.5235887209521692,6.137701856880941,1.0115149021148682,-2.3281622568713587
1708436370.9878461,-2.153780460357666,-1.336480588918068,-2.523576561604635,6.1377272484596155,1.0114703178405762,-2.3281787077533167
1708436370.9898443,-2.153759241104126,-1.3365049374154587,-2.523576561604635,6.137736069947042,1.011474609375,-2.3281503359424036
1708436370.9918668,-2.1537461280822754,-1.336521328692772,-2.523551050816671,6.137701856880941,1.0115106105804443,-2.3281875292407435
1708436370.9938767,-2.15378737449646,-1.3364963990500947,-2.52354342142214,6.1377107975776575,1.0114541053771973,-2.3281131426440638
1708436370.9958417,-2.1537961959838867,-1.3365248155644913,-2.523609463368551,6.1377272484596155,1.0114778280258179,-2.3281875292407435
1708436370.9978802,-2.1537442207336426,-1.3365495067885895,-2.523572031651632,6.137680518418112,1.0115073919296265,-2.3281546274768274
1708436370.999836,-2.1537961959838867,-1.3365247559598465,-2.523555580769674,6.137722599297323,1.0115031003952026,-2.3281546274768274
1708436371.0018303,-2.153776168823242,-1.3364975464395066,-2.5235961119281214,6.1376703856285,1.0114821195602417,-2.328157965336935
1708436371.0039024,-2.1538033485412598,-1.3365007054856797,-2.5235887209521692,6.137689578324117,1.011486530303955,-2.3281338850604456
1708436371.0058753,-2.1538078784942627,-1.336512879734375,-2.5236006418811243,6.137677657395162,1.0114943981170654,-2.3281665484057825
1708436371.007879,-2.153787612915039,-1.3365325045636673,-2.523567501698629,6.13767026641921,1.0114986896514893,-2.3281503359424036
1708436371.009854,-2.1538245677948,-1.3365375113538285,-2.523609463368551,6.137689578324117,1.0115314722061157,-2.3281503359424036
1708436371.0118508,-2.153787612915039,-1.336467908029892,-2.5235887209521692,6.137680637627401,1.0115116834640503,-2.3281381765948694
1708436371.0139058,-2.1538245677948,-1.3365205538323899,-2.523534361516134,6.137673127442159,1.0114821195602417,-2.3281503359424036
1708436371.0158687,-2.153820037841797,-1.3365290474942704,-2.5235541502581995,6.137671696930685,1.0115236043930054,-2.3281875292407435
1708436371.0178792,-2.153815746307373,-1.3365213137916108,-2.523534361516134,6.137682187348165,1.0114986896514893,-2.3281338850604456
1708436371.019852,-2.153783082962036,-1.3364720356515427,-2.5235841909991663,6.137701856880941,1.011486530303955,-2.328170124684469
1708436371.0218344,-2.1537938117980957,-1.336443991666176,-2.523581091557638,6.13763593414382,1.0115236043930054,-2.3281753698932093
1708436371.0238762,-2.153754949569702,-1.3364963990500947,-2.5236006418811243,6.137689578324117,1.0115031003952026,-2.3281787077533167
1708436371.0258281,-2.153780460357666,-1.3364360642484208,-2.5236216227160853,6.137676226883688,1.011462688446045,-2.328190628682272
1708436371.0278585,-2.153791904449463,-1.336484969859459,-2.523534361516134,6.137722599297323,1.011486530303955,-2.32814604440798
1708436371.0298412,-2.153759241104126,-1.3364677739194413,-2.523567501698629,6.137689578324117,1.0115031003952026,-2.3281503359424036
1708436371.0318472,-2.153783082962036,-1.336472065453865,-2.523560110722677,6.13771818855361,1.011490821838379,-2.3281708399402063
1708436371.0338624,-2.153783082962036,-1.3365172010711213,-2.5235887209521692,6.137685167580404,1.0114734172821045,-2.3282156626330774
1708436371.0358465,-2.1538166999816895,-1.336557851438858,-2.523552481328146,6.1377272484596155,1.0114789009094238,-2.328141752873556
1708436371.037875,-2.153780460357666,-1.3365289878896256,-2.5235887209521692,6.1377107975776575,1.0114821195602417,-2.3281622568713587
1708436371.0398595,-2.1537961959838867,-1.336464376454689,-2.523597780858175,6.137710916786947,1.0115031003952026,-2.328165833150045
1708436371.041858,-2.1537680625915527,-1.336508647804596,-2.523576561604635,6.1377062676246545,1.0114821195602417,-2.328190628682272
1708436371.0439122,-2.153780460357666,-1.3364805442145844,-2.523572031651632,6.137736069947042,1.0114378929138184,-2.3281994501696985
1708436371.0458426,-2.1538033485412598,-1.3364849102548142,-2.5235841909991663,6.137673127442159,1.0115236043930054,-2.328165833150045
1708436371.0478706,-2.1538076400756836,-1.336472899918892,-2.5236125628100794,6.13769410827712,1.0115193128585815,-2.3281829992877405
1708436371.049864,-2.1538121700286865,-1.336529017691948,-2.523555580769674,6.137664305954733,1.011490821838379,-2.328190628682272
1708436371.0518472,-2.153759241104126,-1.336537481551506,-2.523534361516134,6.137652385025778,1.0114821195602417,-2.3281787077533167
1708436371.0539238,-2.153776168823242,-1.3365571659854432,-2.523572031651632,6.13769410827712,1.0114856958389282,-2.328202549611227
1708436371.0558937,-2.153759241104126,-1.336517648105957,-2.5235300699817103,6.1376850483711145,1.0114703178405762,-2.328190628682272
1708436371.0578775,-2.153783082962036,-1.33651718616996,-2.523576561604635,6.13769410827712,1.0115149021148682,-2.328198258076803
1708436371.0598588,-2.1538209915161133,-1.3365049076131363,-2.5235841909991663,6.137698638230123,1.0114541053771973,-2.3282278219806116
1708436371.0618618,-2.153780460357666,-1.3365091246417542,-2.523534361516134,6.137747990875997,1.0114778280258179,-2.328190628682272
1708436371.0638778,-2.1538164615631104,-1.3364848804524918,-2.5235210100757044,6.137731659203329,1.0114659070968628,-2.328210417424337
1708436371.065848,-2.153787612915039,-1.336512879734375,-2.523515049611227,6.13771532753066,1.0114951133728027,-2.3281896750079554
1708436371.067861,-2.1538076400756836,-1.3365416836789628,-2.523567501698629,6.137701856880941,1.0115031003952026,-2.3282068411456507
1708436371.069873,-2.1538164615631104,-1.3365247708610077,-2.523567501698629,6.137689578324117,1.011486530303955,-2.328157965336935
1708436371.0718765,-2.15378475189209,-1.3365048927119751,-2.523572031651632,6.1376850483711145,1.011490821838379,-2.328190628682272
1708436371.0738819,-2.1538076400756836,-1.3365007203868409,-2.5235841909991663,6.13771818855361,1.0114692449569702,-2.328186337147848
1708436371.0758588,-2.153841257095337,-1.3365290772965928,-2.52356464067568,6.1377272484596155,1.011486530303955,-2.3282111326800745
1708436371.077861,-2.153836965560913,-1.3365172010711213,-2.523581091557638,6.137724149018087,1.0115073919296265,-2.328186337147848
1708436371.079837,-2.153796434402466,-1.3365536493114014,-2.523534361516134,6.137686717301168,1.0114986896514893,-2.328202549611227
1708436371.0818355,-2.153796434402466,-1.3365495663932343,-2.523593250905172,6.137698519020834,1.0114943981170654,-2.328251902257101
1708436371.0838706,-2.1538076400756836,-1.33646875739608,-2.52354342142214,6.137656676560201,1.0115149021148682,-2.328202549611227
1708436371.0858555,-2.153754711151123,-1.3365128499320527,-2.52356464067568,6.137665855675497,1.011490821838379,-2.328226629887716
1708436371.087848,-2.153763771057129,-1.3365128946355362,-2.523538891469137,6.137734520226278,1.0114659070968628,-2.328182045613424
1708436371.0898414,-2.1538076400756836,-1.3364763271859665,-2.523534361516134,6.13765977600173,1.0115443468093872,-2.328243080769674
1708436371.0918431,-2.153780460357666,-1.3365213435939332,-2.523536030446188,6.1377062676246545,1.011490821838379,-2.3282135168658655
1708436371.0938396,-2.1538033485412598,-1.3365290325931092,-2.523538891469137,6.137664305954733,1.0114789009094238,-2.3282747904406946
1708436371.0958395,-2.153791904449463,-1.3364921820214768,-2.523609463368551,6.137668716698446,1.0114821195602417,-2.3282910029040735
1708436371.0978386,-2.153841257095337,-1.3364963990500947,-2.523567501698629,6.137709247856893,1.0114703178405762,-2.3282790819751185
1708436371.0998409,-2.1537892818450928,-1.3365213584950943,-2.5236051718341272,6.137628185539999,1.0114778280258179,-2.328270498906271
1708436371.1018486,-2.153798818588257,-1.3364558827928086,-2.523531500493185,6.137730109482565,1.011473536491394,-2.3282738367663782
1708436371.1038756,-2.1538288593292236,-1.336492196922638,-2.523547951375143,6.137668716698446,1.0115031003952026,-2.328298870717184
1708436371.1058712,-2.153775930404663,-1.3365656000426789,-2.523576561604635,6.13771818855361,1.01144540309906,-2.328282419835226
1708436371.1078553,-2.1538333892822266,-1.336489037876465,-2.523555580769674,6.137764560967245,1.0114778280258179,-2.32825738588442
1708436371.1098604,-2.153742551803589,-1.336489037876465,-2.523572031651632,6.137697326927938,1.011486530303955,-2.3282747904406946
1708436371.1118395,-2.1537716388702393,-1.3365417283824463,-2.523547951375143,6.137719857483663,1.0114778280258179,-2.328261915837423
1708436371.113868,-2.153754711151123,-1.3365048629096528,-2.523547951375143,6.137692916184225,1.0114821195602417,-2.328278128300802
1708436371.115847,-2.153791904449463,-1.336549462085106,-2.5235887209521692,6.1377272484596155,1.0114994049072266,-2.328249756489889
1708436371.1178596,-2.153852701187134,-1.3365213137916108,-2.523518149052755,6.13771818855361,1.0114778280258179,-2.328322712575094
1708436371.1198437,-2.1538121700286865,-1.3365007203868409,-2.523538891469137,6.1377062676246545,1.0114659070968628,-2.328298870717184
1708436371.1218238,-2.1537961959838867,-1.336464450960495,-2.5236006418811243,6.137709247856893,1.0114986896514893,-2.328261915837423
1708436371.1238554,-2.153750419616699,-1.3364721101573487,-2.523567501698629,6.137730109482565,1.0114541053771973,-2.328278128300802
1708436371.1258492,-2.1538288593292236,-1.3365213137916108,-2.523567501698629,6.137697326927938,1.0114986896514893,-2.328261677418844
1708436371.1278434,-2.1537742614746094,-1.336504415874817,-2.523567501698629,6.137730109482565,1.0115073919296265,-2.328278128300802
1708436371.129859,-2.1538033485412598,-1.3365495067885895,-2.523538891469137,6.137697326927938,1.0115031003952026,-2.328327004109518
1708436371.1318715,-2.153798818588257,-1.33651718616996,-2.523597780858175,6.13771818855361,1.0115073919296265,-2.328322712575094
1708436371.1338437,-2.153738021850586,-1.3365248304656525,-2.523526970540182,6.137732970505514,1.0115149021148682,-2.3283141295062464
1708436371.1358466,-2.1538290977478027,-1.336489052777626,-2.523569170628683,6.137697326927938,1.011486530303955,-2.328355375920431
1708436371.1378415,-2.153791904449463,-1.336500735288002,-2.523572031651632,6.13771818855361,1.0115149021148682,-2.32831842104067
1708436371.1398594,-2.1537468433380127,-1.3364890676787873,-2.52354342142214,6.13771818855361,1.0114986896514893,-2.32831842104067
1708436371.1418414,-2.153783082962036,-1.336517648105957,-2.52354342142214,6.137754189759054,1.0115278959274292,-2.328343693410055
1708436371.1438613,-2.153820037841797,-1.3365048629096528,-2.523552481328146,6.137721049576559,1.0115116834640503,-2.3283098379718226
1708436371.1458423,-2.1538007259368896,-1.3365007203868409,-2.523547951375143,6.137701856880941,1.0115031003952026,-2.3283665815936487
1708436371.147838,-2.153787612915039,-1.3365290474942704,-2.523555580769674,6.137710916786947,1.0114943981170654,-2.328362290059225
1708436371.1498783,-2.153815746307373,-1.3365374964526673,-2.523560110722677,6.137770521431722,1.011461615562439,-2.3283546606646937
1708436371.1518667,-2.1537680625915527,-1.3365048629096528,-2.523602310811178,6.137680637627401,1.0114659070968628,-2.3283632437335413
1708436371.153857,-2.1538333892822266,-1.33645253003154,-2.523552481328146,6.13770471790389,1.011490821838379,-2.328394953404562
1708436371.1559432,-2.153841495513916,-1.3365172010711213,-2.523581091557638,6.137779581337728,1.0115314722061157,-2.3283546606646937
1708436371.1578996,-2.153787612915039,-1.33646014452491,-2.523560110722677,6.137758719712057,1.011486530303955,-2.328390661870138
1708436371.1599367,-2.153787612915039,-1.336529017691948,-2.523606840764181,6.137700307160177,1.0114821195602417,-2.3283665815936487
1708436371.1618676,-2.1537716388702393,-1.3364932549050828,-2.523581091557638,6.137713777809896,1.0115073919296265,-2.328378502522604
1708436371.1638677,-2.15383243560791,-1.336489037876465,-2.523555580769674,6.137713777809896,1.011474609375,-2.3284364382373255
1708436371.1658363,-2.1538121700286865,-1.3364921671203156,-2.523547951375143,6.1377001879508875,1.0114986896514893,-2.328406874333517
1708436371.167839,-2.153783082962036,-1.33651718616996,-2.523526970540182,6.137758719712057,1.0114822387695312,-2.3284223715411585
1708436371.1698313,-2.1538245677948,-1.336537466650345,-2.523569170628683,6.13771818855361,1.0115073919296265,-2.328419033681051
1708436371.171829,-2.153841495513916,-1.336489037876465,-2.523552481328146,6.13778697231368,1.011489987373352,-2.328419033681051
1708436371.1738563,-2.1538281440734863,-1.3364721101573487,-2.523572031651632,6.137737500458517,1.0114821195602417,-2.328423325215475
1708436371.175839,-2.153820037841797,-1.3364609789899369,-2.523581091557638,6.137709247856893,1.011535882949829,-2.3284428755389612
1708436371.1778429,-2.1538033485412598,-1.3364879351905365,-2.523531500493185,6.137795913010397,1.0115073919296265,-2.3284428755389612
1708436371.1798677,-2.153790235519409,-1.336540938620903,-2.523547951375143,6.137761580735006,1.0114986896514893,-2.328402582799093
1708436371.1818423,-2.153794527053833,-1.336533324127533,-2.523536030446188,6.137754189759054,1.011490821838379,-2.3283610979663294
1708436371.1838446,-2.1538245677948,-1.336489037876465,-2.523572031651632,6.137795913010397,1.0114986896514893,-2.3283897081958216
1708436371.1858447,-2.153811454772949,-1.336484895353653,-2.523536030446188,6.137829172402181,1.0114821195602417,-2.3283897081958216
1708436371.1878412,-2.153776168823242,-1.3365255457213898,-2.523538891469137,6.137757169991293,1.0114821195602417,-2.3284104506122034
1708436371.1898727,-2.153787612915039,-1.3364806038192292,-2.523581091557638,6.137766110688009,1.011461615562439,-2.328397337590353
1708436371.1918461,-2.1538288593292236,-1.3364963841489335,-2.523526970540182,6.137782561569967,1.0115031003952026,-2.3283656279193323
1708436371.1938794,-2.153820037841797,-1.3364921671203156,-2.523581091557638,6.13778697231368,1.0115236043930054,-2.3284104506122034
1708436371.195848,-2.1538069248199463,-1.336529017691948,-2.523536030446188,6.137815582543173,1.0115031003952026,-2.3284266630755823
1708436371.1978505,-2.1538333892822266,-1.3365367215922852,-2.523538891469137,6.137788641243734,1.0114778280258179,-2.3284266630755823
1708436371.199989,-2.153815746307373,-1.3364602786353608,-2.523538891469137,6.137823092728414,1.0115236043930054,-2.328402582799093
1708436371.201851,-2.1538290977478027,-1.3365048629096528,-2.523623291646139,6.137806641846456,1.011486530303955,-2.3284223715411585
1708436371.2038536,-2.153820037841797,-1.3364721101573487,-2.5235570112811487,6.137861954956808,1.0114659070968628,-2.3283897081958216
1708436371.2058468,-2.153820276260376,-1.3364921671203156,-2.523547951375143,6.137891876488485,1.0115476846694946,-2.3284342924701136
1708436371.207843,-2.1538281440734863,-1.3365086627057572,-2.523567501698629,6.137886035233297,1.0114986896514893,-2.328430954610006
1708436371.2098415,-2.153799057006836,-1.3364771169475098,-2.523531500493185,6.137915956764974,1.0115106105804443,-2.3283982912646692
1708436371.2118745,-2.1538023948669434,-1.3365007203868409,-2.5235570112811487,6.1378905651863,1.0114821195602417,-2.3283897081958216
1708436371.2138712,-2.153798818588257,-1.3364879798940201,-2.523536030446188,6.13791440704421,1.0114779472351074,-2.3284061590777796
1708436371.215846,-2.153787612915039,-1.3365213137916108,-2.523576561604635,6.1379278776939294,1.0114821195602417,-2.3284266630755823
1708436371.2178626,-2.153783082962036,-1.336557076578476,-2.523522440587179,6.137889015465536,1.011461615562439,-2.328439537678854
1708436371.2198644,-2.15378999710083,-1.3364879798940201,-2.523585621510641,6.137959348946371,1.0115149021148682,-2.3283939997302454
1708436371.2218451,-2.153852939605713,-1.3364879798940201,-2.523585383092062,6.137896406441488,1.0114822387695312,-2.328430954610006
1708436371.2238362,-2.153820037841797,-1.336540938620903,-2.5235405603991907,6.1379339573676965,1.0114943981170654,-2.3283894697772425
1708436371.2258296,-2.153794527053833,-1.3365048629096528,-2.523515049611227,6.137921798020162,1.0115073919296265,-2.328419033681051
1708436371.2278469,-2.1537742614746094,-1.336484895353653,-2.523552481328146,6.137941467552938,1.0115149021148682,-2.3284147421466272
1708436371.2298615,-2.153799057006836,-1.336537466650345,-2.523531500493185,6.137971269875326,1.0115193128585815,-2.328394953404562
1708436371.2318513,-2.153843879699707,-1.3365172010711213,-2.523536030446188,6.13792501667098,1.0114986896514893,-2.328419033681051
1708436371.2338314,-2.153815746307373,-1.3365090799382706,-2.523547951375143,6.137969720154562,1.0115149021148682,-2.3283775488482874
1708436371.2358584,-2.15378999710083,-1.336472899918892,-2.5235405603991907,6.137993800431051,1.0115106105804443,-2.32843524614443
1708436371.2378445,-2.153787612915039,-1.3365528595498581,-2.523552481328146,6.137998211174764,1.0114951133728027,-2.3284266630755823
1708436371.2398555,-2.1538023948669434,-1.3364837628654023,-2.523510519658224,6.137966739922323,1.0115106105804443,-2.3284428755389612
1708436371.241853,-2.15383243560791,-1.336489037876465,-2.5235405603991907,6.1379278776939294,1.0114659070968628,-2.3283732573138636
1708436371.243859,-2.153785467147827,-1.3365367364934464,-2.52354342142214,6.137969720154562,1.0115031003952026,-2.3284180800067347
1708436371.245849,-2.153820037841797,-1.3365739595941086,-2.523552481328146,6.13796220996932,1.0114821195602417,-2.3284223715411585
1708436371.2478514,-2.1538236141204834,-1.3364932549050828,-2.523505989705221,6.137945878296652,1.0115116834640503,-2.3284061590777796
1708436371.2498515,-2.1538734436035156,-1.3365172010711213,-2.523560110722677,6.137969720154562,1.0115031003952026,-2.3284342924701136
1708436371.2518516,-2.153852939605713,-1.33651718616996,-2.523526970540182,6.1379443285758875,1.011527180671692,-2.3284018675433558
1708436371.253874,-2.153839588165283,-1.3365007203868409,-2.523552481328146,6.13796220996932,1.0115031003952026,-2.3284593264209192
1708436371.25588,-2.1538801193237305,-1.336545155649521,-2.523498598729269,6.137978660851278,1.0114703178405762,-2.328364674245016
1708436371.2578447,-2.153843879699707,-1.3365536493114014,-2.523515049611227,6.137974130898275,1.0114986896514893,-2.328440014516012
1708436371.2598636,-2.1538610458374023,-1.336540938620903,-2.5235782305346888,6.1379339573676965,1.0114821195602417,-2.328386131917135
1708436371.2618742,-2.1538822650909424,-1.3364921671203156,-2.523555580769674,6.13797293880538,1.0115193128585815,-2.328419033681051
1708436371.2638664,-2.153839588165283,-1.33651718616996,-2.523536030446188,6.13804172256545,1.0114986896514893,-2.3283775488482874
1708436371.2658885,-2.1538519859313965,-1.3364356619170685,-2.523510519658224,6.1379607794578455,1.011474609375,-2.328406874333517
1708436371.2678435,-2.1538686752319336,-1.3365656000426789,-2.523538891469137,6.137953388481893,1.0114659070968628,-2.3283820788012903
1708436371.269834,-2.1538734436035156,-1.336537466650345,-2.523547951375143,6.137965190201559,1.0114734172821045,-2.3283982912646692
1708436371.2718782,-2.1538519859313965,-1.3364964139512558,-2.5235405603991907,6.138005721360006,1.0114573240280151,-2.328440252934591
1708436371.2738476,-2.1538350582122803,-1.3365172010711213,-2.52356464067568,6.137986409455099,1.0114821195602417,-2.3284133116351526
1708436371.2758553,-2.1538305282592773,-1.3365086627057572,-2.523503128682272,6.13797293880538,1.011552095413208,-2.328402582799093
1708436371.2778478,-2.1539173126220703,-1.33651718616996,-2.523581091557638,6.137965190201559,1.0114778280258179,-2.3284102121936243
1708436371.2798638,-2.1538350582122803,-1.3365528744510193,-2.523573700581686,6.138036000519552,1.0114986896514893,-2.3284266630755823
1708436371.281847,-2.1538565158843994,-1.3364728850177308,-2.52356464067568,6.138014662056722,1.011474609375,-2.3284431139575403
1708436371.2838714,-2.1538937091827393,-1.336540938620903,-2.523531500493185,6.137996661454,1.0115031003952026,-2.328468147908346
1708436371.2858417,-2.1538891792297363,-1.3365255457213898,-2.523560110722677,6.138036000519552,1.011486530303955,-2.328411642705099
1708436371.2878578,-2.1538305282592773,-1.3365248006633301,-2.523531500493185,6.137981879502096,1.0114994049072266,-2.3284147421466272
1708436371.289865,-2.153855562210083,-1.3365172010711213,-2.523547951375143,6.138002860337057,1.011535882949829,-2.3284223715411585
1708436371.291838,-2.153839588165283,-1.3365451854518433,-2.5235241095172327,6.137993800431051,1.0115193128585815,-2.328395191823141
1708436371.2938752,-2.1538960933685303,-1.3365086627057572,-2.5235241095172327,6.137986409455099,1.0115159749984741,-2.328468624745504
1708436371.2958279,-2.153843879699707,-1.3364964139512558,-2.523526970540182,6.137998211174764,1.0115149021148682,-2.3284598032580774
1708436371.2978733,-2.1538827419281006,-1.336489037876465,-2.523547951375143,6.138022410660543,1.0114986896514893,-2.3284221331225794
1708436371.2998428,-2.1538777351379395,-1.336520568733551,-2.523536030446188,6.138005721360006,1.0114787817001343,-2.3284385840045374
1708436371.3018446,-2.1538801193237305,-1.3365333539298554,-2.52351957956423,6.137969720154562,1.0114821195602417,-2.328381601964132
1708436371.3038585,-2.1538431644439697,-1.3364921671203156,-2.5235570112811487,6.138032781868734,1.0114943981170654,-2.3284311930285853
1708436371.3058405,-2.1538217067718506,-1.336512879734375,-2.523536030446188,6.138014662056722,1.0115106105804443,-2.3283727804767054
1708436371.307861,-2.1538519859313965,-1.3364559572986145,-2.523569170628683,6.138066994934835,1.0114778280258179,-2.3284385840045374
1708436371.309832,-2.1538262367248535,-1.3365367215922852,-2.5235286394702356,6.137975919037618,1.0115149021148682,-2.3284130732165735
1708436371.3118658,-2.1538758277893066,-1.3365367215922852,-2.523503128682272,6.138013469963827,1.0115278959274292,-2.3284598032580774
1708436371.3138685,-2.1539084911346436,-1.3364805740169068,-2.52351957956423,6.137989389687338,1.0114734172821045,-2.3284462133990687
1708436371.3158443,-2.1539454460144043,-1.3364921671203156,-2.523498598729269,6.138026940613546,1.0115357637405396,-2.3283847014056605
1708436371.3178675,-2.1539084911346436,-1.3365495067885895,-2.52351957956423,6.137969720154562,1.0114821195602417,-2.3284476439105433
1708436371.3198907,-2.1538872718811035,-1.3364837032607575,-2.5235167185412806,6.1379443285758875,1.0114822387695312,-2.3284476439105433
1708436371.3219063,-2.153898000717163,-1.3364559572986145,-2.5235405603991907,6.137992250710287,1.0114821195602417,-2.328393522893087
1708436371.323881,-2.1538476943969727,-1.3364879351905365,-2.5235405603991907,6.1379713890846155,1.0115031003952026,-2.3284431139575403
1708436371.325825,-2.15390944480896,-1.3364763420871277,-2.5234864393817347,6.138020860939779,1.0114703178405762,-2.3284266630755823
1708436371.3278518,-2.1538872718811035,-1.3365086180022736,-2.5235570112811487,6.138013469963827,1.0115193128585815,-2.3284266630755823
1708436371.3298407,-2.153860092163086,-1.3365048629096528,-2.523536030446188,6.138062584191122,1.0114821195602417,-2.3284507433520716
1708436371.3318326,-2.1538643836975098,-1.336598278289177,-2.5235286394702356,6.138004529267111,1.0115106105804443,-2.3284295240985315
1708436371.3338473,-2.153851270675659,-1.3365528744510193,-2.5235405603991907,6.138032662659445,1.011486530303955,-2.3284626642810267
1708436371.3358493,-2.1539084911346436,-1.3365213435939332,-2.5235076586352747,6.138127314835348,1.0115562677383423,-2.3284640947925013
1708436371.3378506,-2.1538872718811035,-1.336520568733551,-2.523503128682272,6.13808964469985,1.0114943981170654,-2.3284462133990687
1708436371.3398402,-2.1538915634155273,-1.3364114177278061,-2.523531500493185,6.138127195626058,1.0115193128585815,-2.3284507433520716
1708436371.3418353,-2.1539039611816406,-1.3364921671203156,-2.5235615412341517,6.138146507530966,1.0115193128585815,-2.3284793535815638
1708436371.3438485,-2.1539084911346436,-1.3365290325931092,-2.5235405603991907,6.138097035675802,1.0114573240280151,-2.3284385840045374
1708436371.3458304,-2.1538872718811035,-1.336520568733551,-2.5235076586352747,6.138146507530966,1.0114943981170654,-2.3284176031695765
1708436371.3478343,-2.1538872718811035,-1.3365248006633301,-2.523552481328146,6.138141977577963,1.0115031003952026,-2.3284011522876185
1708436371.3498325,-2.1539084911346436,-1.3365007203868409,-2.523547951375143,6.138130175858297,1.0114986896514893,-2.3284881750689905
1708436371.351842,-2.153855562210083,-1.3364921671203156,-2.523602310811178,6.13817189910964,1.0114943981170654,-2.3284671942340296
1708436371.3538578,-2.1539251804351807,-1.3365495067885895,-2.52354342142214,6.138141977577963,1.0114943981170654,-2.3284717241870325
1708436371.3558586,-2.1538689136505127,-1.3365409535220643,-2.523503128682272,6.138158428459921,1.0115031003952026,-2.3284760157214563
1708436371.3578944,-2.153859853744507,-1.3365213435939332,-2.523522440587179,6.138130056649008,1.0115106105804443,-2.3284176031695765
1708436371.3599215,-2.1538643836975098,-1.336516336803772,-2.523585621510641,6.138113724976339,1.0114986896514893,-2.3284252325641077
1708436371.3618362,-2.153838634490967,-1.3365007203868409,-2.52356464067568,6.138068663864889,1.0115106105804443,-2.3284507433520716
1708436371.3638432,-2.1538872718811035,-1.3364879351905365,-2.52356464067568,6.1380807040031335,1.0114943981170654,-2.32851225534548
1708436371.3658376,-2.1538915634155273,-1.3364963990500947,-2.52354342142214,6.138122784882345,1.0114986896514893,-2.3284462133990687
1708436371.3678482,-2.153851270675659,-1.3364921671203156,-2.5235286394702356,6.138116705208578,1.0114986896514893,-2.328545157109396
1708436371.3698277,-2.153899669647217,-1.3365239363959809,-2.523515049611227,6.138127195626058,1.0115302801132202,-2.328470293675558
1708436371.3718467,-2.1538846492767334,-1.3364805740169068,-2.523573700581686,6.138162839203634,1.0114943981170654,-2.3284416834460657
1708436371.3738475,-2.15385103225708,-1.3364963990500947,-2.5235241095172327,6.138100373535909,1.0115193128585815,-2.328449312840597
1708436371.3758264,-2.15386700630188,-1.3365495067885895,-2.523573700581686,6.138127195626058,1.0115149021148682,-2.328470293675558
1708436371.3778431,-2.1538262367248535,-1.3364678782275696,-2.523522440587179,6.138125645905294,1.0115227699279785,-2.328486744557516
1708436371.379846,-2.1538872718811035,-1.3365451854518433,-2.523569170628683,6.138071763306417,1.0114821195602417,-2.328465763722555
1708436371.381854,-2.153873920440674,-1.3365495067885895,-2.523526970540182,6.1380852339561365,1.011489987373352,-2.328444782887594
1708436371.3838391,-2.1538686752319336,-1.336512879734375,-2.5235827604876917,6.138137566834249,1.0114703178405762,-2.328498665486471
1708436371.3858342,-2.1539251804351807,-1.3364805740169068,-2.5235899130450647,6.138113724976339,1.0114778280258179,-2.328536335621969
1708436371.3878448,-2.1538801193237305,-1.336512879734375,-2.5235286394702356,6.13808964469985,1.0114856958389282,-2.32847768465151
1708436371.3898814,-2.1539411544799805,-1.3365248006633301,-2.523552481328146,6.1380642531211755,1.0115106105804443,-2.328510824834005
1708436371.3918657,-2.1538758277893066,-1.3364678782275696,-2.523560110722677,6.13817189910964,1.0114943981170654,-2.328510824834005
1708436371.3938801,-2.1539039611816406,-1.336504415874817,-2.523552481328146,6.138130175858297,1.0115227699279785,-2.32847768465151
1708436371.395845,-2.153855562210083,-1.3365409535220643,-2.523547951375143,6.138097035675802,1.011527180671692,-2.3284733931170862
1708436371.3978505,-2.15386700630188,-1.3365740340999146,-2.523552481328146,6.138109314232626,1.0115433931350708,-2.3285227457629603
1708436371.3998532,-2.1538915634155273,-1.336512879734375,-2.5235570112811487,6.138092624932089,1.0115106105804443,-2.328531805668966
1708436371.4018397,-2.153862714767456,-1.3365451854518433,-2.523522440587179,6.138142096787252,1.0115314722061157,-2.3285062948810022
1708436371.4038627,-2.15386700630188,-1.336512879734375,-2.523498598729269,6.138080584793844,1.0114691257476807,-2.3285513559924524
1708436371.4058468,-2.15386700630188,-1.3364921671203156,-2.523552481328146,6.138076174050131,1.0115346908569336,-2.3285558859454554
1708436371.40785,-2.1539039611816406,-1.3364635568908234,-2.523602072392599,6.1380642531211755,1.0115314722061157,-2.328494135533468
1708436371.409869,-2.15385103225708,-1.3364763420871277,-2.52356464067568,6.138113724976339,1.011527180671692,-2.328527275715963
1708436371.4118416,-2.1539173126220703,-1.3365213435939332,-2.5235076586352747,6.1381510374839685,1.011506199836731,-2.328531805668966
1708436371.4138603,-2.1538431644439697,-1.3365290325931092,-2.5235405603991907,6.1381347058113,1.0114976167678833,-2.3285091559039515
1708436371.4158473,-2.153871536254883,-1.3365333539298554,-2.52356464067568,6.138116705208578,1.0115314722061157,-2.328531805668966
1708436371.4178457,-2.1538872718811035,-1.3365007203868409,-2.5235405603991907,6.138101565628805,1.0115184783935547,-2.328527275715963
1708436371.4198523,-2.1539039611816406,-1.3365248006633301,-2.523552481328146,6.1380958435829065,1.011506199836731,-2.328527275715963
1708436371.4218464,-2.1538846492767334,-1.3365409535220643,-2.523593250905172,6.1380642531211755,1.0115476846694946,-2.328515354787008
1708436371.4238465,-2.1538643836975098,-1.3365324896625062,-2.52351957956423,6.138130056649008,1.0114976167678833,-2.3285604158984583
1708436371.4258478,-2.1539039611816406,-1.3365172010711213,-2.52351957956423,6.1380687830741785,1.0115184783935547,-2.3285215536700647
1708436371.4278598,-2.1538872718811035,-1.336504415874817,-2.5235570112811487,6.138076174050131,1.011555552482605,-2.3285136858569544
1708436371.4298563,-2.153860092163086,-1.3365324896625062,-2.523536030446188,6.138125645905294,1.0115302801132202,-2.3285468260394495
1708436371.431852,-2.1539084911346436,-1.3364763420871277,-2.5235570112811487,6.138101565628805,1.0115717649459839,-2.3285093943225306
1708436371.433852,-2.1539084911346436,-1.3365367215922852,-2.523572031651632,6.138073313027181,1.011555552482605,-2.3285632769214075
1708436371.435862,-2.15391206741333,-1.3365290325931092,-2.5235887209521692,6.138094055443563,1.0115468502044678,-2.3285723368274134
1708436371.437831,-2.1538846492767334,-1.3364805740169068,-2.523531500493185,6.138047921448507,1.0115749835968018,-2.3285093943225306
1708436371.4398847,-2.153855562210083,-1.3365007203868409,-2.523503128682272,6.138159978180685,1.011583685874939,-2.3285349051104944
1708436371.4418693,-2.1539039611816406,-1.3365495067885895,-2.523531500493185,6.138106095581808,1.011554479598999,-2.3285604158984583
1708436371.4438345,-2.153920888900757,-1.3364721101573487,-2.523531500493185,6.138122784882345,1.011603832244873,-2.3285136858569544
1708436371.445842,-2.1538712978363037,-1.3364963990500947,-2.523551050816671,6.138127195626058,1.0115662813186646,-2.3285720984088343
1708436371.4478686,-2.15385365486145,-1.3365077835372468,-2.523581091557638,6.1380536434944055,1.0115915536880493,-2.3285332361804407
1708436371.4498377,-2.1538758277893066,-1.3365409535220643,-2.523569170628683,6.138105976372518,1.0115872621536255,-2.3285394350634974
1708436371.4518504,-2.153920888900757,-1.3364921671203156,-2.523576561604635,6.138127195626058,1.0115784406661987,-2.3285468260394495
1708436371.453872,-2.153920888900757,-1.336508647804596,-2.523552481328146,6.138068902283468,1.0115994215011597,-2.3285182158099573
1708436371.4560134,-2.153871536254883,-1.3365290325931092,-2.523526970540182,6.138073313027181,1.0115950107574463,-2.3285964171039026
1708436371.457899,-2.1538872718811035,-1.3365333539298554,-2.523597780858175,6.138098585396566,1.011635422706604,-2.3285394350634974
1708436371.4598446,-2.1539254188537598,-1.336504415874817,-2.523526970540182,6.1380687830741785,1.0115864276885986,-2.3285496870623987
1708436371.4618204,-2.1539039611816406,-1.3364879351905365,-2.523547951375143,6.138073313027181,1.0116318464279175,-2.3285258452044886
1708436371.4638188,-2.1538758277893066,-1.3365248006633301,-2.523555580769674,6.138059723168173,1.0116440057754517,-2.3285439650165003
1708436371.4658563,-2.15389084815979,-1.3365324896625062,-2.523531500493185,6.138131606369772,1.011574149131775,-2.3285513559924524
1708436371.4678495,-2.1538801193237305,-1.3365333539298554,-2.523518149052755,6.138091194420614,1.0116026401519775,-2.3285136858569544
1708436371.4698386,-2.1538915634155273,-1.3365290325931092,-2.523576561604635,6.138077723770895,1.0115950107574463,-2.3285349051104944
1708436371.4718175,-2.1538846492767334,-1.336520568733551,-2.523547951375143,6.1380687830741785,1.0116069316864014,-2.3286052385913294
1708436371.4738276,-2.1538915634155273,-1.3365333539298554,-2.523560110722677,6.138094055443563,1.0116080045700073,-2.3285332361804407
1708436371.4758184,-2.1539039611816406,-1.336484895353653,-2.523522440587179,6.138014781266012,1.0115994215011597,-2.3285887877093714
1708436371.4778266,-2.1539039611816406,-1.3365459603122254,-2.52356464067568,6.138122784882345,1.0115864276885986,-2.3285468260394495
1708436371.4798346,-2.1539039611816406,-1.3365333539298554,-2.523567501698629,6.138086783676901,1.0116231441497803,-2.3285468260394495
1708436371.4818306,-2.153899669647217,-1.3365248006633301,-2.523572031651632,6.138149606972494,1.0116318464279175,-2.3285754362689417
1708436371.4838452,-2.1539084911346436,-1.3365205836347123,-2.523518149052755,6.138056862145223,1.0115950107574463,-2.3285842577563685
1708436371.4858258,-2.153862714767456,-1.336492196922638,-2.5235512892352503,6.138037311821737,1.011582851409912,-2.3285513559924524
1708436371.487848,-2.1538758277893066,-1.336533324127533,-2.523522679005758,6.138025390892782,1.0116112232208252,-2.3285918871508997
1708436371.4898617,-2.1538872718811035,-1.3364602339318772,-2.523593250905172,6.13804172256545,1.0116231441497803,-2.328545395527975
1708436371.4918494,-2.1538915634155273,-1.3365048629096528,-2.523576561604635,6.138074862747946,1.0116112232208252,-2.3285678068744105
1708436371.4938405,-2.1538960933685303,-1.336504415874817,-2.523560110722677,6.138066994934835,1.011582851409912,-2.3285303751574915
1708436371.4958353,-2.153899669647217,-1.3365528595498581,-2.52356464067568,6.137995469361105,1.011574149131775,-2.3285136858569544
1708436371.4978578,-2.15386700630188,-1.336512879734375,-2.523552481328146,6.138028251915731,1.0116482973098755,-2.3285258452044886
1708436371.499839,-2.1538872718811035,-1.336512879734375,-2.52356464067568,6.138020860939779,1.011582851409912,-2.3285227457629603
1708436371.5018368,-2.1538872718811035,-1.3365536046079178,-2.523567501698629,6.138050663262167,1.0115907192230225,-2.3285048643695276
1708436371.5038369,-2.1538918018341064,-1.3365281981280823,-2.52356464067568,6.138050782471456,1.0116037130355835,-2.3285887877093714
1708436371.5058458,-2.1538643836975098,-1.336533324127533,-2.523576561604635,6.1380642531211755,1.0116199254989624,-2.32853347459902
1708436371.5078564,-2.1539218425750732,-1.3365044456771393,-2.5235629717456263,6.13795171955184,1.011569857597351,-2.3285496870623987
1708436371.5098808,-2.153838634490967,-1.3365044456771393,-2.523572031651632,6.137945878296652,1.0115907192230225,-2.3285632769214075
1708436371.511896,-2.153830051422119,-1.3364837628654023,-2.523551050816671,6.137981879502096,1.0115872621536255,-2.3285542170154017
1708436371.5138721,-2.1539254188537598,-1.336561308508255,-2.5235796610461634,6.137966739922323,1.011627435684204,-2.3285587469684046
1708436371.515846,-2.1539084911346436,-1.3364879798940201,-2.523576561604635,6.1379549382026575,1.011569857597351,-2.3285632769214075
1708436371.5178595,-2.153859853744507,-1.3364806038192292,-2.523569170628683,6.1379384873206995,1.0115864276885986,-2.3285632769214075
1708436371.5198567,-2.1538758277893066,-1.336492196922638,-2.52356464067568,6.137921798020162,1.011582851409912,-2.3285394350634974
1708436371.5218408,-2.153895139694214,-1.336508647804596,-2.523517910634176,6.137872683792867,1.0115784406661987,-2.3286128679858606
1708436371.5238497,-2.1538829803466797,-1.33651718616996,-2.5235887209521692,6.137930738716879,1.0116069316864014,-2.3285513559924524
1708436371.525863,-2.153871536254883,-1.3365325045636673,-2.523576561604635,6.137984621315756,1.0116112232208252,-2.3285678068744105
1708436371.5278459,-2.153871536254883,-1.3364879351905365,-2.523560110722677,6.137930738716879,1.0115864276885986,-2.3285513559924524
1708436371.5298352,-2.1538915634155273,-1.3365565699389954,-2.523576561604635,6.137905466347494,1.0115994215011597,-2.3285349051104944
1708436371.5318577,-2.1539340019226074,-1.3364879351905365,-2.523585621510641,6.137884485512533,1.0115489959716797,-2.3285182158099573
1708436371.533868,-2.153838872909546,-1.3365205836347123,-2.523581091557638,6.137926208763876,1.0116243362426758,-2.3285709063159388
1708436371.5358298,-2.1539084911346436,-1.3365290325931092,-2.5235300699817103,6.137889015465536,1.0115907192230225,-2.3285587469684046
1708436371.5378485,-2.1538712978363037,-1.336492196922638,-2.523555580769674,6.1378681538398645,1.0116069316864014,-2.3285349051104944
1708436371.539856,-2.153860092163086,-1.3365172010711213,-2.5236051718341272,6.137905466347494,1.011620044708252,-2.3285513559924524
1708436371.5418665,-2.1538829803466797,-1.336533324127533,-2.523572031651632,6.137881624489584,1.0116318464279175,-2.3286173979388636
1708436371.5438507,-2.15385103225708,-1.3365044456771393,-2.523593250905172,6.137815701752462,1.011614441871643,-2.3285678068744105
1708436371.5458324,-2.153860092163086,-1.3365528595498581,-2.5235961119281214,6.137850034027853,1.011574149131775,-2.3285394350634974
1708436371.5478334,-2.1538801193237305,-1.336561308508255,-2.5236006418811243,6.137914287834921,1.0115950107574463,-2.3285799662219446
1708436371.5498323,-2.1538915634155273,-1.336492196922638,-2.523555580769674,6.137909877091207,1.0115784406661987,-2.3285754362689417
1708436371.5518358,-2.1538758277893066,-1.3365002137473603,-2.5235887209521692,6.137930738716879,1.011569857597351,-2.3285709063159388
1708436371.5538514,-2.1538758277893066,-1.336508647804596,-2.523555580769674,6.137897956162252,1.0116318464279175,-2.3285587469684046
1708436371.555881,-2.1538915634155273,-1.3365367215922852,-2.523547951375143,6.137930738716879,1.0116069316864014,-2.3286007086383265
1708436371.557852,-2.153860092163086,-1.3365248006633301,-2.523534361516134,6.137860405236044,1.0115950107574463,-2.3285918871508997
1708436371.5598612,-2.153851270675659,-1.336484895353653,-2.523552481328146,6.137896406441488,1.0116112232208252,-2.3285587469684046
1708436371.5618339,-2.1539251804351807,-1.3365416836789628,-2.523536030446188,6.13789068439559,1.0115456581115723,-2.3285496870623987
1708436371.5638494,-2.1538915634155273,-1.33651718616996,-2.523551050816671,6.137872683792867,1.0115907192230225,-2.3285799662219446
1708436371.5658906,-2.1538643836975098,-1.336537466650345,-2.523522440587179,6.137873875885763,1.011574149131775,-2.3285844961749476
1708436371.5678442,-2.1538872718811035,-1.336540938620903,-2.523576561604635,6.137887227326193,1.0116026401519775,-2.3285709063159388
1708436371.569843,-2.1539127826690674,-1.3365007203868409,-2.523567501698629,6.137864815979757,1.011614441871643,-2.3285709063159388
1708436371.5718553,-2.1538686752319336,-1.3365086627057572,-2.523567501698629,6.137948620110311,1.0115907192230225,-2.3285799662219446
1708436371.5739207,-2.153920888900757,-1.336533324127533,-2.523560110722677,6.137897956162252,1.0116318464279175,-2.3285496870623987
1708436371.5758693,-2.153871536254883,-1.3365172010711213,-2.523534361516134,6.137866484909811,1.0115950107574463,-2.3285513559924524
1708436371.5778491,-2.153871536254883,-1.3365325045636673,-2.52360970178713,6.13786934593276,1.011574149131775,-2.3285422960864466
1708436371.5798812,-2.1539130210876465,-1.3365002137473603,-2.523547951375143,6.137820231705465,1.011569857597351,-2.3285587469684046
1708436371.5818503,-2.153900384902954,-1.3365290325931092,-2.523551050816671,6.137915956764974,1.0116069316864014,-2.328582827244894
1708436371.5838358,-2.1538686752319336,-1.3365536046079178,-2.523567501698629,6.137932288437643,1.011569857597351,-2.3285678068744105
1708436371.5858443,-2.1538643836975098,-1.3365333539298554,-2.523522440587179,6.137861954956808,1.0115950107574463,-2.3285182158099573
1708436371.5878491,-2.1538431644439697,-1.3365248006633301,-2.5235465208636683,6.137833702355184,1.0115575790405273,-2.3285303751574915
1708436371.58985,-2.1538960933685303,-1.3365333390286942,-2.5236006418811243,6.137864815979757,1.0116112232208252,-2.3285468260394495
1708436371.59185,-2.1538643836975098,-1.336529017691948,-2.523555580769674,6.1378410933311365,1.0115907192230225,-2.3285918871508997
1708436371.593936,-2.1538801193237305,-1.3365451854518433,-2.523555580769674,6.13786934593276,1.011627435684204,-2.3285303751574915
1708436371.5958648,-2.1538846492767334,-1.336512879734375,-2.523531500493185,6.137911426811971,1.0115907192230225,-2.3285754362689417
1708436371.5978544,-2.1538643836975098,-1.3365290325931092,-2.523534361516134,6.137882816582479,1.0116112232208252,-2.3286007086383265
1708436371.5998476,-2.1538476943969727,-1.3365333539298554,-2.523547951375143,6.137833583145895,1.0116112232208252,-2.3285632769214075
1708436371.6018507,-2.15385103225708,-1.336484895353653,-2.5235887209521692,6.137804972916403,1.011574149131775,-2.3285496870623987
1708436371.6038485,-2.1538758277893066,-1.336529017691948,-2.523581091557638,6.137850153237142,1.0116026401519775,-2.3285632769214075
1708436371.6058416,-2.1538758277893066,-1.33646875739608,-2.52354342142214,6.13783215263442,1.0115994215011597,-2.3285258452044886
1708436371.6078465,-2.1538960933685303,-1.3365333539298554,-2.5235841909991663,6.137844073563375,1.0115413665771484,-2.3285394350634974
1708436371.6098518,-2.1538643836975098,-1.336540938620903,-2.523547951375143,6.1378962872321985,1.0115994215011597,-2.3285303751574915
1708436371.6118407,-2.1538846492767334,-1.3364763718894501,-2.523555580769674,6.137870895653524,1.011582851409912,-2.3285394350634974
1708436371.61386,-2.1538689136505127,-1.3365374964526673,-2.523572031651632,6.13784550407485,1.0115907192230225,-2.3285799662219446
1708436371.6158605,-2.1538872718811035,-1.3364763718894501,-2.523567501698629,6.137845623284139,1.011570692062378,-2.3285754362689417
1708436371.6178386,-2.153900623321533,-1.336516336803772,-2.523555580769674,6.137894975930013,1.0115618705749512,-2.3285215536700647
1708436371.6198368,-2.1539084911346436,-1.33651718616996,-2.5236170927630823,6.1378201124961755,1.0115907192230225,-2.3285709063159388
1708436371.621833,-2.1538801193237305,-1.3365248006633301,-2.523567501698629,6.137824761658468,1.0116156339645386,-2.3285678068744105
1708436371.6238534,-2.1539173126220703,-1.336557076578476,-2.523597780858175,6.137866365700521,1.011603832244873,-2.3285258452044886
1708436371.6258461,-2.1538758277893066,-1.3365002137473603,-2.523547951375143,6.137829172402181,1.0115994215011597,-2.3285632769214075
1708436371.627838,-2.153900384902954,-1.3365044456771393,-2.523572031651632,6.137852895050802,1.011627435684204,-2.3285632769214075
1708436371.6298368,-2.153900384902954,-1.3365409535220643,-2.523560110722677,6.137857425003805,1.0115907192230225,-2.3285542170154017
1708436371.6318455,-2.1538431644439697,-1.3365620386651536,-2.523547951375143,6.13784550407485,1.0116112232208252,-2.3285542170154017
1708436371.6338453,-2.1538915634155273,-1.3365451854518433,-2.5235798994647425,6.137866484909811,1.0115896463394165,-2.3285468260394495
1708436371.635839,-2.153871536254883,-1.3365409535220643,-2.523576561604635,6.137870895653524,1.0115820169448853,-2.3285918871508997
1708436371.6378367,-2.15386700630188,-1.336533324127533,-2.5235887209521692,6.137863504677572,1.0116037130355835,-2.3285587469684046
1708436371.6398373,-2.1538643836975098,-1.3364721101573487,-2.5236051718341272,6.1378410933311365,1.0116231441497803,-2.3285754362689417
1708436371.641834,-2.1538846492767334,-1.3365896803191681,-2.5235887209521692,6.137824761658468,1.0115784406661987,-2.328648869191305
1708436371.6438704,-2.1538846492767334,-1.3365205836347123,-2.5235465208636683,6.137887227326193,1.0116232633590698,-2.3285332361804407
1708436371.6458473,-2.1538960933685303,-1.3365120154670258,-2.5235629717456263,6.137870895653524,1.0115907192230225,-2.328528944646017
1708436371.647853,-2.1538758277893066,-1.336582065825798,-2.5235887209521692,6.137870895653524,1.011615514755249,-2.3285587469684046
1708436371.6498854,-2.153855562210083,-1.336533324127533,-2.523518149052755,6.137850034027853,1.0116188526153564,-2.3285093943225306
1708436371.6518507,-2.153905153274536,-1.3365374964526673,-2.5235841909991663,6.137817013054647,1.0116143226623535,-2.328566376362936
1708436371.6539254,-2.1538827419281006,-1.3365367215922852,-2.523555580769674,6.1378259537513635,1.0116440057754517,-2.328566376362936
1708436371.6558652,-2.1538734436035156,-1.3365281981280823,-2.523614231740133,6.137859093933859,1.0115982294082642,-2.328517023717062
1708436371.6579492,-2.1538431644439697,-1.3365982186845322,-2.5235663096057337,6.137812483101644,1.0116266012191772,-2.3285587469684046
1708436371.6599016,-2.1538643836975098,-1.3365205836347123,-2.523572031651632,6.1378410933311365,1.011635422706604,-2.3285587469684046
1708436371.6618745,-2.1539130210876465,-1.3365086627057572,-2.523572031651632,6.137887227326193,1.0116097927093506,-2.32860237756838
1708436371.6638808,-2.1538846492767334,-1.3364964139512558,-2.5235796610461634,6.137824761658468,1.0116026401519775,-2.328606907521383
1708436371.665852,-2.15382981300354,-1.3365367215922852,-2.523572031651632,6.137845623284139,1.0116397142410278,-2.32860237756838
1708436371.6678612,-2.1538643836975098,-1.336540938620903,-2.5236125628100794,6.137858974724569,1.0116429328918457,-2.3285649458514612
1708436371.6698585,-2.1538519859313965,-1.3365325045636673,-2.5235887209521692,6.137870895653524,1.0116188526153564,-2.328590456639425
1708436371.6718495,-2.1538872718811035,-1.3364879798940201,-2.5235915819751185,6.137854444771566,1.0116355419158936,-2.328627888356344
1708436371.6738951,-2.1538829803466797,-1.3365451705506821,-2.5236170927630823,6.137833702355184,1.0116007328033447,-2.328594986592428
1708436371.6758552,-2.153839588165283,-1.336626188164093,-2.5236006418811243,6.137845623284139,1.0116591453552246,-2.328615967427389
1708436371.6778653,-2.1538431644439697,-1.336512879734375,-2.523538891469137,6.137847173004904,1.011622428894043,-2.328611437474386
1708436371.6798425,-2.1538734436035156,-1.336557076578476,-2.523604933415548,6.137800562172689,1.0116504430770874,-2.328618828450338
1708436371.6818612,-2.1538801193237305,-1.336533324127533,-2.5235629717456263,6.137887227326193,1.011671543121338,-2.3286474386798304
1708436371.6838725,-2.1538519859313965,-1.3365528744510193,-2.5235915819751185,6.137812483101644,1.0116922855377197,-2.3286264578448694
1708436371.6858475,-2.1538643836975098,-1.336492196922638,-2.5236006418811243,6.1378365633781335,1.0116593837738037,-2.3286309877978724
1708436371.6878777,-2.1538689136505127,-1.336508647804596,-2.5235961119281214,6.137861954956808,1.0116791725158691,-2.3286848703967493
1708436371.6898737,-2.1538643836975098,-1.3365367215922852,-2.5235253016101282,6.137824761658468,1.011657953262329,-2.328712050114767
1708436371.6918695,-2.1538519859313965,-1.3364964139512558,-2.5235751310931605,6.137817013054647,1.0116714239120483,-2.3286715189563196
1708436371.6938994,-2.153871536254883,-1.3365333539298554,-2.5235796610461634,6.137895095139303,1.0116922855377197,-2.328669850026266
1708436371.6958377,-2.1538643836975098,-1.336512879734375,-2.5236216227160853,6.137821423798361,1.0116626024246216,-2.3286834398852747
1708436371.6978703,-2.1538350582122803,-1.3365613383105774,-2.5235870520221155,6.137845623284139,1.011695384979248,-2.328674379979269
1708436371.69984,-2.1538689136505127,-1.3365367215922852,-2.5235870520221155,6.137870895653524,1.0117030143737793,-2.328707520161764
1708436371.7018392,-2.1538519859313965,-1.3365486425212403,-2.5235796610461634,6.137830364495077,1.011704683303833,-2.328698460255758
1708436371.7038715,-2.1538801193237305,-1.3365048629096528,-2.5235796610461634,6.137821423798361,1.0117074251174927,-2.328707520161764
1708436371.7058876,-2.1538565158843994,-1.3365324896625062,-2.5235915819751185,6.1378905651863,1.011698603630066,-2.328735891972677
1708436371.7078614,-2.1538305282592773,-1.3365528744510193,-2.5236244837390345,6.1378410933311365,1.0117149353027344,-2.328702990208761
1708436371.7098637,-2.1538686752319336,-1.3365172010711213,-2.5236364046679896,6.1378575442130945,1.0117149353027344,-2.3287316004382532
1708436371.7118382,-2.1538846492767334,-1.3364963990500947,-2.5236080328570765,6.137842643051901,1.0117483139038086,-2.3287106196032923
1708436371.7138817,-2.1538431644439697,-1.3365367364934464,-2.5236318747149866,6.137854444771566,1.0116851329803467,-2.3287389914142054
1708436371.7158432,-2.153859853744507,-1.3365248006633301,-2.5236199537860315,6.137820231705465,1.0117392539978027,-2.328719679509298
1708436371.717877,-2.153860092163086,-1.3365528744510193,-2.5236454645739954,6.137900936394491,1.0117392539978027,-2.3287556807147425
1708436371.719835,-2.1538960933685303,-1.3364916306785126,-2.5235944429980677,6.137820231705465,1.0117511749267578,-2.3287435213672083
1708436371.7218435,-2.1538827419281006,-1.3365528744510193,-2.5236216227160853,6.137866365700521,1.011784315109253,-2.3287842909442347
1708436371.7238955,-2.1538190841674805,-1.3365693551352997,-2.5236485640155237,6.137852895050802,1.0117348432540894,-2.3287511507617396
1708436371.7258384,-2.153860092163086,-1.3365333539298554,-2.523665253316061,6.137779700547018,1.0117675065994263,-2.3287180105792444
1708436371.727859,-2.1538891792297363,-1.3364916306785126,-2.523660723363058,6.137911426811971,1.0117347240447998,-2.3287556807147425
1708436371.7298353,-2.1538350582122803,-1.3364964139512558,-2.523693625126974,6.137886035233297,1.0117586851119995,-2.3287270704852503
1708436371.7318358,-2.1538643836975098,-1.3365855079940339,-2.523677174245016,6.137894975930013,1.011807918548584,-2.3287344614612024
1708436371.733874,-2.1538918018341064,-1.336520568733551,-2.52372652689089,6.137911426811971,1.0117708444595337,-2.3287435213672083
1708436371.735857,-2.1538476943969727,-1.3365324896625062,-2.5236709753619593,6.1378259537513635,1.0118250846862793,-2.3287316004382532
1708436371.7378414,-2.153860092163086,-1.3365120154670258,-2.5236709753619593,6.137870895653524,1.0117496252059937,-2.3287299315081995
1708436371.7398524,-2.153900384902954,-1.336516336803772,-2.523717466984884,6.137854444771566,1.0118114948272705,-2.3287766615497034
1708436371.741838,-2.1538519859313965,-1.3365613383105774,-2.5237160364734095,6.137918817787924,1.0118368864059448,-2.3287766615497034
1708436371.7438567,-2.1538519859313965,-1.3365571063807984,-2.5236874262439173,6.137852895050802,1.0118025541305542,-2.32878548303713
1708436371.7458317,-2.153838872909546,-1.336520568733551,-2.5237491766559046,6.137878286629476,1.0117663145065308,-2.3287645022021692
1708436371.7478461,-2.153905153274536,-1.3364921671203156,-2.5237084070788782,6.137895095139303,1.011827826499939,-2.3287480513202112
1708436371.7498276,-2.1538565158843994,-1.3365571063807984,-2.5237069765674036,6.137878405838766,1.0118772983551025,-2.328665320073263
1708436371.75184,-2.1538519859313965,-1.3365821254304429,-2.5237446467029017,6.1378905651863,1.0118309259414673,-2.328686539326803
1708436371.7538369,-2.1538643836975098,-1.3365735870650788,-2.5236695448504847,6.137882816582479,1.0118218660354614,-2.328669850026266
1708436371.755867,-2.153839588165283,-1.3364879947951813,-2.5237279574023646,6.137878405838766,1.0118639469146729,-2.328608576451437
1708436371.7578714,-2.1538565158843994,-1.3365452003530045,-2.5237324873553675,6.137886035233297,1.0117765665054321,-2.3286624590503138
1708436371.7598562,-2.1538734436035156,-1.3365693551352997,-2.5237370173083704,6.137878286629476,1.0118427276611328,-2.328620497380392
1708436371.7618332,-2.1538431644439697,-1.3365486425212403,-2.5237911383258265,6.137864815979757,1.0118924379348755,-2.3286264578448694
1708436371.763879,-2.1538758277893066,-1.3365324896625062,-2.5237069765674036,6.137881624489584,1.011866807937622,-2.328569237385885
1708436371.7658684,-2.1538147926330566,-1.3365486425212403,-2.523735586796896,6.1378575442130945,1.0119121074676514,-2.328611437474386
1708436371.767834,-2.1538565158843994,-1.3365855079940339,-2.5237401167498987,6.137857425003805,1.0119165182113647,-2.3285496870623987
1708436371.7698567,-2.1538891792297363,-1.3365409535220643,-2.5237446467029017,6.137881505280294,1.0119043588638306,-2.3285062948810022
1708436371.7718344,-2.1538476943969727,-1.3365613383105774,-2.5237234274493616,6.13783215263442,1.0119043588638306,-2.328449074422018
1708436371.773862,-2.1538305282592773,-1.3365812760642548,-2.5237069765674036,6.137904035836019,1.0118999481201172,-2.328437153493063
1708436371.7758393,-2.1538519859313965,-1.3365528744510193,-2.523709837590353,6.137907016068258,1.011903166770935,-2.3284295240985315
1708436371.7778392,-2.1538519859313965,-1.3365821254304429,-2.5237279574023646,6.137855875283041,1.0119194984436035,-2.3284385840045374
1708436371.7798448,-2.15390944480896,-1.3365486425212403,-2.523735586796896,6.137864935189047,1.0119314193725586,-2.328364912663595
1708436371.7818515,-2.1538281440734863,-1.3365324896625062,-2.5237730185138147,6.137881624489584,1.0119150876998901,-2.3283003012286585
1708436371.7838545,-2.153843879699707,-1.3365486425212403,-2.523752037678854,6.1378365633781335,1.0119194984436035,-2.328252617512838
1708436371.7858536,-2.1538023948669434,-1.3365324896625062,-2.5237401167498987,6.137881624489584,1.0119314193725586,-2.328265968953268
1708436371.787834,-2.1538803577423096,-1.336516336803772,-2.523801628743307,6.137918817787924,1.011935830116272,-2.3281520048724573
1708436371.7898405,-2.1538474559783936,-1.3364837032607575,-2.523709837590353,6.137902366905966,1.0119194984436035,-2.3281412760363978
1708436371.7918591,-2.1538846492767334,-1.3365693551352997,-2.5237894693957728,6.137895095139303,1.0119602680206299,-2.3280931154834192
1708436371.7938282,-2.153790235519409,-1.3364751648953934,-2.523797098790304,6.137947428017416,1.0119105577468872,-2.3280916849719446
1708436371.7958345,-2.1538519859313965,-1.3365693551352997,-2.523771349583761,6.137889015465536,1.011976718902588,-2.327932421361105
1708436371.7978404,-2.153898000717163,-1.336516262297966,-2.523801628743307,6.13789068439559,1.0119179487228394,-2.327888790761129
1708436371.7998435,-2.1538350582122803,-1.336577833896019,-2.523780409489767,6.137914287834921,1.011967658996582,-2.3277881781207483
1708436371.8018618,-2.1538846492767334,-1.3365486425212403,-2.523797098790304,6.137897956162252,1.0119632482528687,-2.3276668230639856
1708436371.8038743,-2.1538937091827393,-1.3365528744510193,-2.523735586796896,6.137877094536581,1.0119917392730713,-2.3275960127459925
1708436371.8058531,-2.1538610458374023,-1.3365846437266846,-2.523742977772848,6.137926327973165,1.0120007991790771,-2.3274593989001673
1708436371.80785,-2.1538686752319336,-1.336605892782547,-2.523768488560812,6.137945878296652,1.0119503736495972,-2.3273888270007532
1708436371.809893,-2.1538519859313965,-1.3365324896625062,-2.5237730185138147,6.137943017273702,1.012036681175232,-2.327251974736349
1708436371.811856,-2.1538801193237305,-1.3365571361831208,-2.523792568837301,6.1379127381141565,1.0120080709457397,-2.3270869890796106
1708436371.8138597,-2.1538326740264893,-1.336589739923813,-2.523766819630758,6.137969720154562,1.011999249458313,-2.3268843332873743
1708436371.8158507,-2.153839588165283,-1.3365528744510193,-2.5238211790667933,6.138023721962728,1.012011170387268,-2.3267656008349817
1708436371.8178656,-2.1538565158843994,-1.3365451109460373,-2.523783508931295,6.137948739319601,1.011999249458313,-2.3266213575946253
1708436371.8198755,-2.153839588165283,-1.3365693551352997,-2.523783508931295,6.137981879502096,1.0120244026184082,-2.326468292866842
1708436371.8218946,-2.1538190841674805,-1.3365693551352997,-2.523804489766256,6.137974250107565,1.0119872093200684,-2.3262503782855433
1708436371.8238592,-2.153811454772949,-1.336520568733551,-2.5237954298602503,6.137981879502096,1.0120322704315186,-2.3261616865741175
1708436371.825835,-2.153785467147827,-1.336573527460434,-2.5238285700427454,6.13797293880538,1.0120534896850586,-2.325930420552389
1708436371.8278847,-2.1538777351379395,-1.33652816832576,-2.5238330999957483,6.138002860337057,1.0120186805725098,-2.325742546712057
1708436371.829835,-2.1538147926330566,-1.3365409535220643,-2.5237789789782923,6.137990939408102,1.0120817422866821,-2.325583283101217
1708436371.8318493,-2.1538245677948,-1.3365290325931092,-2.523788038884298,6.137986409455099,1.01206374168396,-2.325362507496969
1708436371.8338459,-2.1538190841674805,-1.336605892782547,-2.5237954298602503,6.13800727108077,1.0120277404785156,-2.325129572545187
1708436371.8358486,-2.153815746307373,-1.3365324896625062,-2.5238495508777063,6.137977468758383,1.0120232105255127,-2.324921194707052
1708436371.8378694,-2.153778553009033,-1.3365855079940339,-2.5238404909717005,6.137974250107565,1.01206374168396,-2.3247016111956995
1708436371.8398435,-2.1538238525390625,-1.3365239363959809,-2.5237908999072474,6.137986528664388,1.0120890140533447,-2.3244360128985804
1708436371.8418386,-2.153799057006836,-1.336548627620079,-2.5238688627826136,6.13797293880538,1.0120474100112915,-2.3241878191577356
1708436371.8438468,-2.153790235519409,-1.3365333688310166,-2.5238030592547815,6.137986409455099,1.0121086835861206,-2.323979202901022
1708436371.8458664,-2.153775930404663,-1.336569295530655,-2.5238404909717005,6.137992250710287,1.0120593309402466,-2.323731247578756
1708436371.8478322,-2.1538069248199463,-1.3365239363959809,-2.5238404909717005,6.137986528664388,1.012054681777954,-2.3234625498401087
1708436371.8498645,-2.15381121635437,-1.3365727227977295,-2.5238855520831507,6.137965190201559,1.0120997428894043,-2.32316500345339
1708436371.851836,-2.1537537574768066,-1.3365571063807984,-2.5238855520831507,6.137974250107565,1.012078881263733,-2.322876755391256
1708436371.853861,-2.153794527053833,-1.3365325045636673,-2.5238612333880823,6.138005721360006,1.0120817422866821,-2.322592798863546
1708436371.8558636,-2.153798818588257,-1.3364709329656144,-2.523871962224142,6.138016211777487,1.0121103525161743,-2.322251860295431
1708436371.857878,-2.1538078784942627,-1.3365565699389954,-2.523888651524679,6.137947189598837,1.0121479034423828,-2.3219109217273157
1708436371.8598983,-2.153787612915039,-1.3365571063807984,-2.5238855520831507,6.137977349549093,1.0121270418167114,-2.3216119448291224
1708436371.861936,-2.153750419616699,-1.3365290325931092,-2.523834292088644,6.138005721360006,1.0121866464614868,-2.3212409655200403
1708436371.8638532,-2.153815746307373,-1.3365239363959809,-2.523921553288595,6.137945997505941,1.0121135711669922,-2.3209059874164026
1708436371.8658416,-2.1538245677948,-1.3365769547275086,-2.523888651524679,6.137953388481893,1.0121886730194092,-2.3205366770373743
1708436371.8678424,-2.1538333892822266,-1.3365855079940339,-2.523900572453634,6.137957799225607,1.0121960639953613,-2.3201807180987757
1708436371.8698723,-2.1537771224975586,-1.3365239363959809,-2.523846213017599,6.13796220996932,1.0121841430664062,-2.319810930882589
1708436371.8718536,-2.1538007259368896,-1.336576910024025,-2.5238915125476282,6.137936937599935,1.0122096538543701,-2.3194342295276087
1708436371.8738382,-2.1537556648254395,-1.3364993196776886,-2.523945395146505,6.137971269875326,1.0122079849243164,-2.319023911152975
1708436371.8758347,-2.1537680625915527,-1.3365120750716706,-2.523928944264547,6.137957799225607,1.0122079849243164,-2.318631951008932
1708436371.877847,-2.1537487506866455,-1.336544321184494,-2.5239034334765833,6.1379384873206995,1.0122292041778564,-2.318186108266012
1708436371.879849,-2.1537725925445557,-1.3365855079940339,-2.5239318052874964,6.1379127381141565,1.0122201442718506,-2.3177834192859095
1708436371.8818572,-2.1537556648254395,-1.3365281534245987,-2.5239575544940394,6.13787995555953,1.0122411251068115,-2.3173638025866907
1708436371.8838737,-2.1536858081817627,-1.336531625395157,-2.5238736311541956,6.137914287834921,1.0122439861297607,-2.3168895880328577
1708436371.885833,-2.1537272930145264,-1.336540089254715,-2.5239725748645228,6.137872564583578,1.0122394561767578,-2.3164899984942835
1708436371.8878553,-2.153740644454956,-1.336516336803772,-2.5239349047290247,6.137852895050802,1.0122230052947998,-2.316036049519674
1708436371.8898504,-2.1537325382232666,-1.3365486425212403,-2.5239439646350306,6.137861954956808,1.012256145477295,-2.3155255953418177
1708436371.8918622,-2.153662919998169,-1.336495817904808,-2.5239349047290247,6.137833583145895,1.0122965574264526,-2.315082613621847
1708436371.893841,-2.153684139251709,-1.3365528744510193,-2.52394682565798,6.137878405838766,1.0122921466827393,-2.3146091143237513
1708436371.8958516,-2.1536436080932617,-1.3365571063807984,-2.52394682565798,6.137823092728414,1.0122785568237305,-2.314108912144796
1708436371.8978403,-2.1536221504211426,-1.3365367215922852,-2.5239513556109827,6.137817013054647,1.0123447179794312,-2.3135903517352503
1708436371.8998322,-2.1536645889282227,-1.3365443658879776,-2.523958985005514,6.137809622078695,1.0123239755630493,-2.3130911032306116
1708436371.901847,-2.1536266803741455,-1.336504415874817,-2.524029556904928,6.137791502266683,1.0123569965362549,-2.312561813985006
1708436371.9038374,-2.1536645889282227,-1.3365324896625062,-2.524003807698385,6.137773620873251,1.0123480558395386,-2.3120811621295374
1708436371.90584,-2.1536240577697754,-1.336593971853592,-2.52399188676943,6.13770471790389,1.0123717784881592,-2.311561409627096
1708436371.9078288,-2.1535756587982178,-1.3365358275226136,-2.5240700880633753,6.1376850483711145,1.0123851299285889,-2.3109424749957483
1708436371.9098601,-2.1535632610321045,-1.3366380792907258,-2.5240564982043665,6.13767026641921,1.0124142169952393,-2.31041127840151
1708436371.9118493,-2.153580904006958,-1.3365367215922852,-2.5240159670459192,6.137643325119772,1.0123916864395142,-2.3097921053515833
1708436371.9138498,-2.153593063354492,-1.3365846437266846,-2.5240638891803187,6.137580382614889,1.0124530792236328,-2.3091867605792444
1708436371.915852,-2.1535446643829346,-1.3364916008761902,-2.5240638891803187,6.1375476000602625,1.0125101804733276,-2.3085697332965296
1708436371.9178402,-2.153496026992798,-1.3365197491696854,-2.5240474382983606,6.137568461685934,1.012439489364624,-2.3079779783831995
1708436371.9198468,-2.1535444259643555,-1.336548627620079,-2.5240967909442347,6.137563812523641,1.0125384330749512,-2.3073366324054163
1708436371.9218454,-2.1535260677337646,-1.3365846437266846,-2.524100128804342,6.137472617417135,1.012562870979309,-2.3067856470691126
1708436371.9238467,-2.1534764766693115,-1.3365239363959809,-2.524165932332174,6.137445437699117,1.0125584602355957,-2.3061111609088343
1708436371.9258647,-2.1534719467163086,-1.33652816832576,-2.524142090474264,6.137445437699117,1.0125775337219238,-2.305465284978048
1708436371.9278595,-2.153451681137085,-1.3365120750716706,-2.524057690297262,6.137418496399679,1.0125495195388794,-2.304816548024313
1708436371.9298441,-2.1534032821655273,-1.3365443360856553,-2.5241149107562464,6.13735710361556,1.0125596523284912,-2.3041322867022913
1708436371.931845,-2.1534252166748047,-1.3366091710380097,-2.5241239706622522,6.137354242592611,1.0125731229782104,-2.303422276173727
1708436371.9338684,-2.15338397026062,-1.3365120154670258,-2.5241149107562464,6.1373318312461755,1.0126136541366577,-2.302725378667013
1708436371.935873,-2.1534264087677,-1.3364806187203904,-2.5241358915912073,6.137254106789388,1.0126214027404785,-2.3019548098193567
1708436371.93784,-2.1534264087677,-1.3365607869676133,-2.5241597334491175,6.137263047486105,1.0126454830169678,-2.3012951056109827
1708436371.939851,-2.1533327102661133,-1.33652816832576,-2.524170223866598,6.137222635536947,1.0126484632492065,-2.300544325505392
1708436371.9418325,-2.153373956680298,-1.336532474761345,-2.5241718927966517,6.137149321823873,1.012660264968872,-2.2998650709735315
1708436371.9438477,-2.153263568878174,-1.3365367215922852,-2.524237934743063,6.137122261315145,1.0127100944519043,-2.2990384737597864
1708436371.9458604,-2.153313159942627,-1.3365778189948578,-2.524236265813009,6.137077319412985,1.0127129554748535,-2.298286024724142
1708436371.9478395,-2.153236150741577,-1.3365367215922852,-2.524257485066549,6.137120473175802,1.0127792358398438,-2.297532622014181
1708436371.9498732,-2.1532487869262695,-1.336516336803772,-2.5242603460894983,6.136993396073141,1.0127326250076294,-2.296687428151266
1708436371.951836,-2.153229236602783,-1.336548627620079,-2.5242980162249964,6.136965024262228,1.0128015279769897,-2.296006743107931
1708436371.9538708,-2.153184175491333,-1.3365077835372468,-2.5242558161364954,6.136930572777548,1.012780785560608,-2.2952168623553675
1708436371.955849,-2.153066635131836,-1.3365656745484848,-2.5243173281299036,6.136857020645895,1.0128048658370972,-2.2945295015918177
1708436371.9578753,-2.1531665325164795,-1.336508647804596,-2.524245325719015,6.136801707535543,1.0128754377365112,-2.293682638798849
1708436371.9598532,-2.15310001373291,-1.3365651083043595,-2.5242753664599817,6.1368809817130945,1.0128240585327148,-2.292886797581808
1708436371.961842,-2.1531357765197754,-1.3365486574224015,-2.5243235270129603,6.136767256050863,1.0128947496414185,-2.292098347340719
1708436371.9638739,-2.1530280113220215,-1.3365002137473603,-2.5243399778949183,6.13672815540389,1.012923240661621,-2.291284147893087
1708436371.9658399,-2.153045654296875,-1.3365486425212403,-2.5243518988238733,6.136660802155294,1.0129188299179077,-2.290480438862936
1708436371.9678354,-2.1529810428619385,-1.3364959073117753,-2.5243921915637415,6.13659034946517,1.0129505395889282,-2.2896438280688685
1708436371.9698355,-2.1529898643493652,-1.3364958626082917,-2.5244010130511683,6.1365710375602625,1.012953519821167,-2.288726870213644
1708436371.9718585,-2.152968645095825,-1.3365002286485215,-2.524353090916769,6.136510836869039,1.0129773616790771,-2.287926260625021
1708436371.9738557,-2.152937889099121,-1.3365077388337632,-2.524453941975729,6.136475193291464,1.0129773616790771,-2.28709847131838
1708436371.975837,-2.1529059410095215,-1.3365494173816224,-2.524435822163717,6.1363868592079065,1.0129927396774292,-2.2862497011767786
1708436371.9778564,-2.152893543243408,-1.3365693253329773,-2.524435822163717,6.136334407120504,1.013045072555542,-2.285295073186056
1708436371.9798405,-2.1528451442718506,-1.3365495067885895,-2.52446419397463,6.136299955635824,1.0130994319915771,-2.284394089375631
1708436371.9818647,-2.152841329574585,-1.336504415874817,-2.5244794527636927,6.1362188933189294,1.013114094734192,-2.283471171055929
1708436371.9838328,-2.1527974605560303,-1.3365163666060944,-2.5245004335986536,6.1361873028571985,1.0131386518478394,-2.2825925985919397
1708436371.985844,-2.152782440185547,-1.3364837628654023,-2.524536196385519,6.136152851372518,1.0131295919418335,-2.281663242970602
1708436371.987854,-2.152754783630371,-1.3365086627057572,-2.524578634892599,6.1360018132026575,1.0131938457489014,-2.280773941670553
1708436371.9898317,-2.152730941772461,-1.336549462085106,-2.524513546620504,6.1359914419944666,1.0132554769515991,-2.2798784414874476
1708436371.9918387,-2.1526939868927,-1.3365002286485215,-2.5245559851275843,6.135928380280294,1.0132344961166382,-2.278908077870504
1708436371.9938595,-2.15267014503479,-1.3365007203868409,-2.5246201197253626,6.1358715174491785,1.0132616758346558,-2.2780121008502405
1708436371.995845,-2.1526012420654297,-1.3365206283381958,-2.5246413389789026,6.1357741234596155,1.0132931470870972,-2.2770512739764612
1708436371.9978611,-2.1526143550872803,-1.3365172010711213,-2.524639670048849,6.135760891228475,1.0133142471313477,-2.2762015501605433
1708436371.9998696,-2.1525917053222656,-1.3365086627057572,-2.524665419255392,6.135663497238912,1.0134042501449585,-2.2751768271075647
1708436372.001836,-2.1525588035583496,-1.3365248304656525,-2.524677340184347,6.135563123017111,1.0134029388427734,-2.2742651144610804
1708436372.0038447,-2.1525189876556396,-1.3364526194385071,-2.524651829396383,6.13556586483077,1.0134601593017578,-2.2733309904681605
1708436372.0058508,-2.152503252029419,-1.3364806038192292,-2.5247088114367884,6.135447728424825,1.01346755027771,-2.2723878065692347
1708436372.0078585,-2.1524581909179688,-1.3365218800357361,-2.5247088114367884,6.135387885361471,1.0134912729263306,-2.2714393774615687
1708436372.0098653,-2.1524195671081543,-1.3365007203868409,-2.5246952215777796,6.1353444931800745,1.0134854316711426,-2.270421806965963
1708436372.011844,-2.1523265838623047,-1.336472899918892,-2.524719301854269,6.135284292488851,1.0135843753814697,-2.269489113484518
1708436372.013853,-2.152355670928955,-1.3365132969668885,-2.524752203618185,6.135151254921713,1.013542652130127,-2.268571201954977
1708436372.0158331,-2.152315139770508,-1.336412177687027,-2.52478534380068,6.135142075806417,1.0135983228683472,-2.2675369421588343
1708436372.017842,-2.1522629261016846,-1.3364737194827576,-2.5248242060290735,6.135035741120138,1.0136268138885498,-2.2666056791888636
1708436372.019837,-2.1522436141967773,-1.3364737194827576,-2.5248122851001185,6.1349220154579065,1.0136464834213257,-2.265661064778463
1708436372.0218432,-2.152169942855835,-1.3364127290299912,-2.5248332659350794,6.134884226113119,1.013724446296692,-2.264715019856588
1708436372.0238373,-2.152167558670044,-1.3364170354655762,-2.5248122851001185,6.134817349701681,1.013768196105957,-2.2638657728778284
1708436372.0258355,-2.152095079421997,-1.3363804531148453,-2.524893347417013,6.134770858078756,1.0137754678726196,-2.2629154364215296
1708436372.0278697,-2.152087926864624,-1.3363889765790482,-2.52491265932192,6.134652364044943,1.0138236284255981,-2.2620561758624476
1708436372.0298629,-2.15201473236084,-1.3363524687341233,-2.5248916784869593,6.13457618930892,1.013901710510254,-2.261061970387594
1708436372.031839,-2.1519997119903564,-1.3363574308208008,-2.5248616377459925,6.134439813881674,1.013874888420105,-2.260214153920309
1708436372.0338473,-2.1519200801849365,-1.336417780523636,-2.5249112288104456,6.1344008324439905,1.0139079093933105,-2.2592771689044397
1708436372.0358455,-2.1518795490264893,-1.33633707583461,-2.524956289921896,6.1343679306800745,1.0139272212982178,-2.258249107991354
1708436372.0378563,-2.1518361568450928,-1.3363455098918458,-2.524984661732809,6.1342705366905115,1.013960599899292,-2.25727349916567
1708436372.0398502,-2.1517558097839355,-1.3363293719342728,-2.525001112614767,6.134162413864889,1.014020323753357,-2.256364170704977
1708436372.0418687,-2.151752233505249,-1.3363340956023713,-2.524982992802755,6.134057748108663,1.0140520334243774,-2.2553251425372522
1708436372.0438738,-2.1517045497894287,-1.3363179427436371,-2.5250282923327845,6.133900511055746,1.0140639543533325,-2.254341427479879
1708436372.0458462,-2.151665687561035,-1.3362856668284913,-2.5250266234027308,6.133840667992391,1.0141048431396484,-2.25338584581484
1708436372.0478437,-2.1515846252441406,-1.336261824970581,-2.5250640551196497,6.133777606278219,1.014155626296997,-2.25242263475527
1708436372.0498476,-2.1515774726867676,-1.3362004172853013,-2.525079075490133,6.133672821312704,1.0141918659210205,-2.2514360586749476
1708436372.0518339,-2.1515252590179443,-1.3362542253783722,-2.525062624608175,6.133557784348287,1.0142278671264648,-2.2504709402667444
1708436372.0538518,-2.151451826095581,-1.3362334382585068,-2.5251105467425745,6.1334664700324915,1.0142474174499512,-2.2494667212115687
1708436372.0558453,-2.151423692703247,-1.3362584871104737,-2.5251482168780726,6.133345114975729,1.014330267906189,-2.2485230604754847
1708436372.0578883,-2.1514220237731934,-1.3361893457225342,-2.5251768271075647,6.133270251541891,1.014352798461914,-2.247591797505514
1708436372.0598981,-2.151315927505493,-1.336156652574875,-2.525200668965475,6.133237111359396,1.0143885612487793,-2.2465394178973597
1708436372.0618386,-2.1513214111328125,-1.336185024385788,-2.525203529988424,6.133123147278585,1.0144338607788086,-2.245612446461813
1708436372.0638638,-2.1512420177459717,-1.3362342578223725,-2.525203529988424,6.132999050408163,1.0144774913787842,-2.2446401754962366
1708436372.0658643,-2.151218891143799,-1.3362146478942414,-2.5252488295184534,6.132947790413656,1.0144399404525757,-2.243697468434469
1708436372.0678835,-2.1511330604553223,-1.3361620765975495,-2.525313202534811,6.132814872055807,1.0144881010055542,-2.242704216633932
1708436372.0698466,-2.151141881942749,-1.3361586046269913,-2.525250021611349,6.132657754212179,1.014540672302246,-2.241779629384176
1708436372.0718913,-2.151073932647705,-1.3361542981914063,-2.525332752858297,6.132591593056478,1.014604926109314,-2.240772072468893
1708436372.0738685,-2.151008367538452,-1.3361054968884964,-2.525311533604757,6.132492410927572,1.0146456956863403,-2.2398012320147913
1708436372.0758297,-2.151019334793091,-1.3361820441535492,-2.5253852049456995,6.1323832152183435,1.0146727561950684,-2.2387574354754847
1708436372.0778456,-2.1509761810302734,-1.3361055564931412,-2.5253265539752405,6.1322669861610315,1.0147626399993896,-2.237819019948141
1708436372.0798612,-2.1508407592773438,-1.3361063760570069,-2.525400225316183,6.132172214775839,1.0147736072540283,-2.236913029347555
1708436372.0818481,-2.150829315185547,-1.3361430031112214,-2.525400225316183,6.132092940598287,1.0148515701293945,-2.2359355131732386
1708436372.0838873,-2.1508028507232666,-1.3360780638507386,-2.525461260472433,6.131978857308187,1.0148651599884033,-2.2349608580218714
1708436372.0858712,-2.1507248878479004,-1.3360856634429474,-2.525456968938009,6.131880152016439,1.0149013996124268,-2.233994785939352
1708436372.0878823,-2.15073561668396,-1.3360745918801804,-2.5254648367511194,6.13178430774764,1.014937400817871,-2.233094040547506
1708436372.089861,-2.1507129669189453,-1.3360296499780198,-2.5254722277270716,6.131683933525839,1.0149641036987305,-2.2321484724627894
1708436372.0918472,-2.150635004043579,-1.3360296052745362,-2.525458876286642,6.131651031761923,1.015038013458252,-2.2312443892108362
1708436372.093885,-2.150595188140869,-1.3360423010638733,-2.5255377928363245,6.13154302814559,1.0150742530822754,-2.2303159872638147
1708436372.0958416,-2.150536060333252,-1.3360507500222703,-2.525510851536886,6.131426322251119,1.0151188373565674,-2.2294448057757776
1708436372.0978456,-2.1504592895507812,-1.3360303801349183,-2.525532070790426,6.131351339607992,1.0151461362838745,-2.228546444569723
1708436372.0998418,-2.1503820419311523,-1.3360388439944764,-2.5255349318133753,6.131214964180746,1.0152031183242798,-2.227612320576803
1708436372.101845,-2.150376319885254,-1.3360431355289002,-2.5255828539477747,6.131142961769857,1.015279769897461,-2.226692024861471
1708436372.1038446,-2.1503453254699707,-1.336006225352623,-2.52561599413027,6.1309934733207605,1.0152664184570312,-2.2257917563067835
1708436372.105843,-2.1502842903137207,-1.3360189658454438,-2.525644604359762,6.130831944733419,1.015332579612732,-2.224940601979391
1708436372.1078522,-2.150186061859131,-1.336019755606987,-2.525635544453756,6.1307870028312585,1.0153626203536987,-2.224004570637838
1708436372.1098554,-2.1501517295837402,-1.3359909069589158,-2.5256758371936243,6.130702960282125,1.015392541885376,-2.2231057325946253
1708436372.111841,-2.15012526512146,-1.3359540861896058,-2.5257001558886927,6.1306190369422815,1.015455961227417,-2.2221549193011683
1708436372.113856,-2.1500654220581055,-1.3359636676362534,-2.525752369557516,6.130463349610128,1.0154212713241577,-2.2212966124164026
1708436372.11584,-2.1500165462493896,-1.3359390062144776,-2.525734249745504,6.130395877152242,1.0154950618743896,-2.22036582628359
1708436372.117847,-2.1499574184417725,-1.3358979982188721,-2.525759998952047,6.130219089775839,1.0155400037765503,-2.2195141951190394
1708436372.1198552,-2.149871826171875,-1.3358698350242157,-2.5257659594165247,6.130135166435995,1.0155667066574097,-2.2185972372638147
1708436372.1218421,-2.1497957706451416,-1.3358910840800782,-2.5258079210864466,6.130002128868856,1.0155702829360962,-2.217774216328756
1708436372.1238592,-2.149763822555542,-1.3358338189176102,-2.525856081639425,6.129964339524069,1.015655755996704,-2.2168596426593226
1708436372.1258516,-2.1497340202331543,-1.335887686615326,-2.525865141545431,6.129803406983175,1.0156842470169067,-2.216046158467428
1708436372.1278436,-2.1496987342834473,-1.335879699592926,-2.5258634726153772,6.129719364434042,1.015739917755127,-2.2151439825641077
1708436372.1298344,-2.149592638015747,-1.335871235733368,-2.5259295145617884,6.129612910538473,1.0158089399337769,-2.2142160574542444
1708436372.131843,-2.1495978832244873,-1.3358592253974457,-2.5259116331683558,6.129503834038534,1.0158194303512573,-2.213414017354147
1708436372.133867,-2.149524688720703,-1.3358312559178849,-2.525919024144308,6.129367577820577,1.015881061553955,-2.2125070730792444
1708436372.1358411,-2.1495015621185303,-1.3358434003642579,-2.525959316884176,6.12929247596816,1.015896201133728,-2.211675469075338
1708436372.137854,-2.149454116821289,-1.3358354729465027,-2.5259998480426233,6.129201042443075,1.015981674194336,-2.2108524481402796
1708436372.1398385,-2.14939284324646,-1.3358073991588135,-2.5259953180896204,6.1290451166923425,1.0159878730773926,-2.2099645773517054
1708436372.1418443,-2.149379014968872,-1.3357870143703003,-2.5260193983661097,6.128928530007162,1.0160210132598877,-2.209144894276754
1708436372.1438456,-2.149278402328491,-1.3358116310885926,-2.5260899702655237,6.128853428154745,1.016052484512329,-2.208233658467428
1708436372.1458385,-2.149258852005005,-1.3357790124467392,-2.526043478642599,6.128712761193075,1.0160343647003174,-2.207440201436178
1708436372.1478455,-2.149238348007202,-1.3357391220382233,-2.526121441517965,6.128633248596945,1.016148328781128,-2.2065117994891565
1708436372.149863,-2.1491634845733643,-1.335795984869339,-2.5261243025409144,6.128506052284994,1.0161892175674438,-2.205737892781393
1708436372.151848,-2.1491429805755615,-1.335731403236725,-2.5261452833758753,6.128466832428732,1.0162371397018433,-2.204876724873678
1708436372.153842,-2.1490883827209473,-1.335739867096283,-2.5261016527758997,6.128327595978536,1.0162028074264526,-2.2040932814227503
1708436372.155858,-2.1490354537963867,-1.335735635166504,-2.52616793314089,6.128251182823934,1.016255497932434,-2.2033093611346644
1708436372.1578832,-2.1489415168762207,-1.3356956404498597,-2.5261917749988,6.128127085953512,1.0162837505340576,-2.2025001684771937
1708436372.1598723,-2.1488916873931885,-1.3356877130321045,-2.526212517415182,6.128031241684713,1.0163363218307495,-2.20173150697817
1708436372.1619122,-2.1488754749298096,-1.3356188398650666,-2.5262203852282923,6.12789939621047,1.0163559913635254,-2.201005283986227
1708436372.1638994,-2.1488120555877686,-1.3356961470893403,-2.5262609163867396,6.127803551941671,1.0163711309432983,-2.2001822630511683
1708436372.16586,-2.148771047592163,-1.3356843155673523,-2.526259247456686,6.12767921665267,1.0164085626602173,-2.1994174162494105
1708436372.16786,-2.148724317550659,-1.3356843453696747,-2.526292387639181,6.127611624985494,1.0165271759033203,-2.198674027119772
1708436372.1698575,-2.1486668586730957,-1.33562387645755,-2.52635366121401,6.127496468811788,1.0164927244186401,-2.1978800932513636
1708436372.1718748,-2.1486661434173584,-1.3355912429145356,-2.5263283888446253,6.127360451012411,1.0165292024612427,-2.19712478319277
1708436372.173877,-2.148571491241455,-1.3356197488358994,-2.5263448397265833,6.12719892242507,1.0165859460830688,-2.1963709036456507
1708436372.175878,-2.1484999656677246,-1.3356077534011384,-2.5263193289386194,6.12716971614913,1.0165467262268066,-2.195562187825338
1708436372.177876,-2.1484241485595703,-1.3355963391116639,-2.5263598600970667,6.1270413277442834,1.016657829284668,-2.194751564656393
1708436372.179869,-2.148383378982544,-1.3355878752521058,-2.526350800191061,6.126924383431234,1.0166820287704468,-2.194001022969381
1708436372.1819222,-2.148386240005493,-1.3355921071818848,-2.526428763066427,6.126788127213278,1.0167211294174194,-2.1932299772845667
1708436372.1839151,-2.148279905319214,-1.3356005412391205,-2.526362959538595,6.126698004990377,1.0167584419250488,-2.1924918333636683
1708436372.185867,-2.148224353790283,-1.3355844032815476,-2.5264151732074183,6.126581179886617,1.016806721687317,-2.1917431990252894
1708436372.1878724,-2.148176670074463,-1.3355399382165452,-2.526403252278463,6.126485335617819,1.0168217420578003,-2.190970245991842
1708436372.1898847,-2.148059129714966,-1.3355241429856797,-2.526461903248922,6.1263524172599695,1.0168625116348267,-2.1901968161212366
1708436372.1918652,-2.148090124130249,-1.3355249029449006,-2.5264437834369105,6.126253235131063,1.016844630241394,-2.18947679201235
1708436372.1938946,-2.1480424404144287,-1.3354761463454743,-2.5264256636248987,6.126157390862264,1.0169271230697632,-2.1887367407428187
1708436372.1958835,-2.1480019092559814,-1.3355333668044587,-2.526458803807394,6.126111018448629,1.016921043395996,-2.1880114714251917
1708436372.1978588,-2.1478934288024902,-1.3355177503875275,-2.526475254689352,6.125974404602804,1.0169451236724854,-2.1872504393206995
1708436372.1998904,-2.1478657722473145,-1.3354724210551758,-2.526511255894796,6.125853168755331,1.0169737339019775,-2.1865952650653284
1708436372.201863,-2.1478471755981445,-1.3354239624789734,-2.5265234152423304,6.125770675926962,1.0169602632522583,-2.1858251730548304
1708436372.2038643,-2.1477906703948975,-1.3354485642961045,-2.5265489260302942,6.125716912537374,1.0170129537582397,-2.1850884596454065
1708436372.205853,-2.14770245552063,-1.335493103866913,-2.5265591780291956,6.125493752747335,1.0170791149139404,-2.1843798796283167
1708436372.207895,-2.147674083709717,-1.3354535859874268,-2.5265846888171595,6.125383960991659,1.0170567035675049,-2.183634583150045
1708436372.2098994,-2.1476433277130127,-1.3353924614242096,-2.5265682379352015,6.1253241179283044,1.0170893669128418,-2.1829498449908655
1708436372.2118587,-2.1475911140441895,-1.3353975129178544,-2.5266013781176966,6.125142681389608,1.0170966386795044,-2.182312790547506
1708436372.213872,-2.1475346088409424,-1.3353274923614045,-2.5265968481646937,6.125119077950277,1.0171750783920288,-2.181528393422262
1708436372.215858,-2.147458553314209,-1.3353198033622284,-2.526562039052145,6.124949800759115,1.0171571969985962,-2.180901829396383
1708436372.2179008,-2.1474506855010986,-1.3353563410094758,-2.5265818277942103,6.124870765000143,1.0171645879745483,-2.1801798979388636
1708436372.219872,-2.1474053859710693,-1.3353889745524903,-2.5266266504870813,6.124767052918234,1.0172425508499146,-2.1795037428485315
1708436372.2218814,-2.1473464965820312,-1.3353203398040314,-2.5266431013690394,6.124659406929769,1.0172576904296875,-2.178810421620504
1708436372.223877,-2.147331476211548,-1.3353245717338105,-2.5266507307635706,6.124567973404684,1.0172861814498901,-2.178103748952047
1708436372.2258604,-2.1473183631896973,-1.3353172105601807,-2.5266295115100306,6.124442207604208,1.017397403717041,-2.1774218718158167
1708436372.227906,-2.147230625152588,-1.33526764929805,-2.5267167727099817,6.1243194220359705,1.0173430442810059,-2.1767504850970667
1708436372.2298467,-2.1471962928771973,-1.3353257340243836,-2.5267213026629847,6.124292361527242,1.017382264137268,-2.1760404745685022
1708436372.2318547,-2.147186756134033,-1.3353130680373688,-2.526670281087057,6.124188887863912,1.017386794090271,-2.175429646168844
1708436372.2338665,-2.1470947265625,-1.3352812093547364,-2.526703182850973,6.12410985210494,1.017418622970581,-2.1747358481036585
1708436372.2358751,-2.1470425128936768,-1.3352769774249573,-2.52669865289797,6.1240107891853235,1.0174140930175781,-2.17411977449526
1708436372.2378933,-2.147003650665283,-1.335289643411972,-2.526719633732931,6.123851763993063,1.0174709558486938,-2.173492733632223
1708436372.2398572,-2.1469383239746094,-1.3352854412845154,-2.526710573826925,6.123744118004598,1.017483115196228,-2.172835652028219
1708436372.2418525,-2.146923303604126,-1.3352735203555604,-2.526727263127462,6.123685586243429,1.0175071954727173,-2.17218524614443
1708436372.2438707,-2.1468632221221924,-1.335245208149292,-2.5267723242389124,6.123585569649496,1.0175071954727173,-2.1715930143939417
1708436372.2458575,-2.146873950958252,-1.335237519150116,-2.5267346541034144,6.123444545059957,1.017498254776001,-2.170920197163717
1708436372.2478487,-2.146812915802002,-1.3351848286441346,-2.5267587343799036,6.123354899674215,1.0175312757492065,-2.1703642050372522
1708436372.249859,-2.146742820739746,-1.3351856035045166,-2.5267468134509485,6.123262035637655,1.0175342559814453,-2.1697920004474085
1708436372.2518594,-2.146688222885132,-1.3352059882930298,-2.5268052260028284,6.12315725067214,1.0175750255584717,-2.1691797415362757
1708436372.2538652,-2.1466522216796875,-1.3351575297168274,-2.5268548170672815,6.123044597893514,1.0176078081130981,-2.168553654347555
