Eg3-git/Classifiers/Data Collection/u4/u4star5_ur3e_joint_states.csv
time,elbow_joint,shoulder_lift_joint,shoulder_pan_joint,wrist_1_joint,wrist_2_joint,wrist_3_joint
1708436329.1435645,-2.152646064758301,-1.3360968393138428,-2.523792568837301,6.135025131493368,1.0119433403015137,-2.64168888727297
1708436329.1455753,-2.1526834964752197,-1.336155043249466,-2.523705546055929,6.135092365532675,1.0119342803955078,-2.6417387167560022
1708436329.14757,-2.1526575088500977,-1.3361629855683823,-2.5237401167498987,6.135046231537618,1.0119386911392212,-2.641773049031393
1708436329.1495745,-2.152674436569214,-1.3361464154771348,-2.523771349583761,6.135070073395529,1.011979579925537,-2.6417134443866175
1708436329.151555,-2.152700424194336,-1.336133451466896,-2.523731056843893,6.135062563210287,1.0119433403015137,-2.641710344945089
1708436329.1535714,-2.152700424194336,-1.336125911479332,-2.523738686238424,6.135067212372579,1.0119342803955078,-2.641759459172384
1708436329.1555855,-2.152678966522217,-1.3361791235259552,-2.523766819630758,6.135050761490621,1.011967658996582,-2.6417341868029993
1708436329.1575894,-2.1527321338653564,-1.336130217914917,-2.523754898701803,6.13500868061141,1.0119513273239136,-2.641763989125387
1708436329.159547,-2.1526620388031006,-1.3361464452794571,-2.523747507725851,6.135029542237081,1.0119603872299194,-2.6417222658740442
1708436329.161546,-2.152704954147339,-1.3361431819251557,-2.5238166491137903,6.135095464974203,1.0119603872299194,-2.64173132578005
1708436329.163586,-2.1526665687561035,-1.3361661744168778,-2.523788038884298,6.135041820793905,1.011976718902588,-2.641759459172384
1708436329.1655567,-2.1526248455047607,-1.3361950379661103,-2.523809019719259,6.135062682419576,1.0119433403015137,-2.641796652470724
1708436329.1676226,-2.152678966522217,-1.3361542981914063,-2.523788038884298,6.135065662651815,1.01195228099823,-2.6417060534106653
1708436329.1696255,-2.152641534805298,-1.336138830786087,-2.52372652689089,6.135029542237081,1.0119812488555908,-2.641714874898092
1708436329.1716435,-2.152704954147339,-1.336134524350502,-2.523792568837301,6.1350207207496545,1.0119314193725586,-2.64168888727297
1708436329.1735997,-2.152704954147339,-1.3361672473004838,-2.5237565676318567,6.135050761490621,1.011947751045227,-2.641752306615011
1708436329.1755838,-2.152637243270874,-1.3361140054515381,-2.523738686238424,6.135095345764913,1.0119014978408813,-2.6417387167560022
1708436329.1775522,-2.152674436569214,-1.336223528986313,-2.523742977772848,6.135067212372579,1.0118942260742188,-2.641693417225973
1708436329.179549,-2.1527230739593506,-1.3361302477172394,-2.523742977772848,6.1350581524665735,1.0119105577468872,-2.6417179743396204
1708436329.1815646,-2.1527163982391357,-1.336076320414879,-2.523780409489767,6.135083544045248,1.0118942260742188,-2.641710344945089
1708436329.1835597,-2.15267014503479,-1.3361345392516633,-2.523742977772848,6.135025131493368,1.0119223594665527,-2.641710344945089
1708436329.185573,-2.1527230739593506,-1.3361629855683823,-2.52378493944277,6.135034072190084,1.011947751045227,-2.641726795827047
1708436329.187589,-2.1527230739593506,-1.336121530537941,-2.5237730185138147,6.135037410050192,1.0119812488555908,-2.641714874898092
1708436329.1895697,-2.1527276039123535,-1.3361464154771348,-2.523731056843893,6.135025131493368,1.0119647979736328,-2.641763989125387
1708436329.1915643,-2.152637243270874,-1.3361464750817795,-2.523763958607809,6.13505374172286,1.0119632482528687,-2.641759459172384
1708436329.1935556,-2.1526575088500977,-1.336167262201645,-2.52378493944277,6.135046231537618,1.0119105577468872,-2.641676966344015
1708436329.1955516,-2.1527321338653564,-1.3361629855683823,-2.523771349583761,6.135034072190084,1.0119060277938843,-2.6416741053210657
1708436329.1975513,-2.1527230739593506,-1.336093471651413,-2.523726765309469,6.135034072190084,1.0119720697402954,-2.64168888727297
1708436329.1995432,-2.15269136428833,-1.3361705255559464,-2.5237892309771937,6.1350207207496545,1.011972188949585,-2.64173132578005
1708436329.2015443,-2.1526575088500977,-1.3361630004695435,-2.523726765309469,6.134996759682455,1.0119386911392212,-2.6417341868029993
1708436329.2035592,-2.152686834335327,-1.3361629855683823,-2.523780409489767,6.13506709316329,1.0119194984436035,-2.641743246709005
1708436329.20555,-2.1527116298675537,-1.33613774300132,-2.52378493944277,6.135046231537618,1.0119433403015137,-2.641702477131979
1708436329.207597,-2.152702808380127,-1.3361052882722397,-2.523759428654806,6.13505374172286,1.0119433403015137,-2.64173132578005
1708436329.2095723,-2.1527116298675537,-1.3360563081553956,-2.523722235356466,6.135055291443624,1.011955738067627,-2.641697947178976
1708436329.2115648,-2.1526575088500977,-1.3361302328160782,-2.523792568837301,6.13506709316329,1.0119194984436035,-2.641702477131979
1708436329.2135656,-2.1527116298675537,-1.3361587089351197,-2.523752037678854,6.135037290840902,1.011947751045227,-2.6417060534106653
1708436329.2155647,-2.1527490615844727,-1.3361629259637375,-2.52378493944277,6.135010230332174,1.0119737386703491,-2.641710344945089
1708436329.217554,-2.1527321338653564,-1.336142123942711,-2.52372652689089,6.135064112931051,1.011955738067627,-2.641702477131979
1708436329.2195477,-2.1526834964752197,-1.3360769611648102,-2.52378493944277,6.1349700568015955,1.0119223594665527,-2.6416741053210657
1708436329.2215648,-2.152705430984497,-1.3361215156367798,-2.523768488560812,6.1350207207496545,1.0119812488555908,-2.641681496297018
1708436329.2235777,-2.1526834964752197,-1.3361550283483048,-2.523731056843893,6.135059702187338,1.0119647979736328,-2.6416905562030237
1708436329.2255557,-2.1526529788970947,-1.3361792129329224,-2.52378493944277,6.135071623116293,1.0119856595993042,-2.641669813786642
1708436329.2275455,-2.15270733833313,-1.3361421388438721,-2.523763958607809,6.135062563210287,1.0119059085845947,-2.6416526476489466
1708436329.229556,-2.152695894241333,-1.3361215156367798,-2.523738686238424,6.135062563210287,1.0119433403015137,-2.641702477131979
1708436329.2315662,-2.152686834335327,-1.3361259412816544,-2.523780409489767,6.135107624321737,1.011935830116272,-2.641697947178976
1708436329.233541,-2.152695894241333,-1.3361302328160782,-2.52378493944277,6.134980428009786,1.011935830116272,-2.641669813786642
1708436329.2355554,-2.1527163982391357,-1.3360977631858368,-2.523722235356466,6.135037290840902,1.0119386911392212,-2.6416199843036097
1708436329.2375576,-2.15270733833313,-1.3361388009837647,-2.523731056843893,6.135067212372579,1.011935830116272,-2.6417112986194056
1708436329.2395527,-2.1526248455047607,-1.336101160650589,-2.523735586796896,6.135079014092245,1.0119314193725586,-2.6416922251330774
1708436329.241546,-2.152698278427124,-1.3361415427974244,-2.523755137120382,6.135046231537618,1.0119270086288452,-2.6416571776019495
1708436329.2435658,-2.1527533531188965,-1.336130217914917,-2.523731056843893,6.1350581524665735,1.0119433403015137,-2.6416922251330774
1708436329.2455597,-2.152674436569214,-1.3361172539046784,-2.5237565676318567,6.13506709316329,1.0119150876998901,-2.6416950861560267
1708436329.2475486,-2.152686834335327,-1.3361258965781708,-2.5237188974963587,6.13500868061141,1.0119150876998901,-2.6416905562030237
1708436329.2495425,-2.15267014503479,-1.336101086144783,-2.523738686238424,6.135041820793905,1.0119603872299194,-2.6416543165790003
1708436329.2515788,-2.152698278427124,-1.3361140203526993,-2.523731056843893,6.1350581524665735,1.0119433403015137,-2.6416831652270716
1708436329.2535634,-2.15269136428833,-1.3361130964807053,-2.523768488560812,6.13505374172286,1.0119150876998901,-2.6416752974139612
1708436329.2555606,-2.152695894241333,-1.3361140054515381,-2.523742977772848,6.1350581524665735,1.011885166168213,-2.6416526476489466
1708436329.2575579,-2.152674436569214,-1.3361421388438721,-2.5237234274493616,6.1350417015846155,1.0119223594665527,-2.6416617075549524
1708436329.2595859,-2.152702808380127,-1.336101086144783,-2.523759428654806,6.13505374172286,1.0119513273239136,-2.6416617075549524
1708436329.2615771,-2.152695894241333,-1.3361672174981614,-2.523752037678854,6.135062563210287,1.0119194984436035,-2.6416996161090296
1708436329.2635527,-2.1527163982391357,-1.336145819430687,-2.523759428654806,6.135029542237081,1.0119342803955078,-2.6416245142566126
1708436329.2655504,-2.1527116298675537,-1.3361630153707047,-2.5237188974963587,6.135016190796652,1.01195228099823,-2.6416905562030237
1708436329.2675676,-2.15267014503479,-1.3361387711814423,-2.523752037678854,6.134999859123983,1.0119314193725586,-2.6416707674609583
1708436329.2696168,-2.15270733833313,-1.3361464154771348,-2.523763958607809,6.135055172234335,1.0119223594665527,-2.6416335741626185
1708436329.2715797,-2.1527366638183594,-1.3361344945481797,-2.523735586796896,6.135046231537618,1.0119603872299194,-2.6416407267199915
1708436329.2735639,-2.152648687362671,-1.3361629408648987,-2.5237401167498987,6.1350581524665735,1.0119433403015137,-2.6416707674609583
1708436329.2755845,-2.152665615081787,-1.3361500215581437,-2.5237730185138147,6.135070073395529,1.011935830116272,-2.6416662375079554
1708436329.277597,-2.152735471725464,-1.3361549836448212,-2.523747507725851,6.135062563210287,1.011935830116272,-2.641651455556051
1708436329.2795618,-2.152704954147339,-1.3361672174981614,-2.523735586796896,6.135029542237081,1.011903166770935,-2.641679588948385
1708436329.2815428,-2.152674436569214,-1.3361507219127198,-2.523768488560812,6.1350909350212,1.0118942260742188,-2.6416214148150843
1708436329.2835422,-2.152702808380127,-1.3361259561828156,-2.523735586796896,6.135037410050192,1.01195228099823,-2.641642395650045
1708436329.2855432,-2.152700424194336,-1.3361097437194367,-2.523747507725851,6.135034072190084,1.0119194984436035,-2.641646925603048
1708436329.2875617,-2.152702808380127,-1.336130217914917,-2.523752037678854,6.135049211769857,1.0119314193725586,-2.641588274632589
1708436329.2895398,-2.152698278427124,-1.3361215454391022,-2.5237401167498987,6.135067212372579,1.0119433403015137,-2.64163047472109
1708436329.2915368,-2.152686834335327,-1.3361259412816544,-2.5237894693957728,6.1350581524665735,1.011935830116272,-2.6416543165790003
1708436329.2935429,-2.152637243270874,-1.336130217914917,-2.5237610975848597,6.135062563210287,1.011935830116272,-2.641613547001974
1708436329.2955341,-2.15267014503479,-1.336158664231636,-2.5237188974963587,6.1350581524665735,1.0119603872299194,-2.641571823750631
1708436329.297559,-2.1527230739593506,-1.336117298608162,-2.523731056843893,6.135041820793905,1.0119060277938843,-2.641573492680685
1708436329.2995422,-2.1526575088500977,-1.3361387711814423,-2.523698155079977,6.13505374172286,1.0118942260742188,-2.6416195074664515
1708436329.3015432,-2.1526780128479004,-1.3361259412816544,-2.5237401167498987,6.1350909350212,1.011947751045227,-2.641604487095968
1708436329.3035402,-2.152702808380127,-1.336158664231636,-2.5237401167498987,6.135061013489523,1.011923909187317,-2.641601626073019
1708436329.30554,-2.1526825428009033,-1.3361312609962006,-2.5237892309771937,6.135067212372579,1.011903166770935,-2.641573492680685
1708436329.3075476,-2.152637243270874,-1.3361464154771348,-2.523731056843893,6.135067212372579,1.0119194984436035,-2.64158541360964
1708436329.3095572,-2.152702808380127,-1.336130217914917,-2.5237279574023646,6.135025131493368,1.01195228099823,-2.641606156026022
1708436329.3115373,-2.1526620388031006,-1.3361387711814423,-2.5237775484668177,6.135032880097189,1.0119285583496094,-2.641597096120016
1708436329.313541,-2.152702808380127,-1.3361748617938538,-2.523742977772848,6.135046231537618,1.0119150876998901,-2.641552511845724
1708436329.3155732,-2.1526620388031006,-1.3361097437194367,-2.523797098790304,6.135062563210287,1.011955738067627,-2.6416106859790247
1708436329.3175788,-2.15269136428833,-1.3361140203526993,-2.5237234274493616,6.13505374172286,1.0119433403015137,-2.6416106859790247
1708436329.3196034,-2.1527187824249268,-1.336105377679207,-2.5237234274493616,6.1350581524665735,1.011903166770935,-2.64162260690798
1708436329.3215544,-2.15275239944458,-1.3360968989184876,-2.5237565676318567,6.135029542237081,1.0119566917419434,-2.641606156026022
1708436329.3235784,-2.1527366638183594,-1.3361377728036423,-2.5237565676318567,6.135029542237081,1.011947751045227,-2.641573492680685
1708436329.3255458,-2.1526825428009033,-1.3361259412816544,-2.5237160364734095,6.135020601540365,1.0119693279266357,-2.641660277043478
1708436329.32759,-2.15270733833313,-1.3361259412816544,-2.523710076008932,6.1350430128868005,1.0119150876998901,-2.641644064580099
1708436329.329531,-2.152702808380127,-1.336187706594803,-2.5237234274493616,6.135137426644125,1.0119105577468872,-2.64156157175173
1708436329.3315518,-2.1527187824249268,-1.336195023064949,-2.5237565676318567,6.135077464371481,1.0119270086288452,-2.641573492680685
1708436329.3335686,-2.15273118019104,-1.3361791384271164,-2.5237205664264124,6.135094153672018,1.011923909187317,-2.641613547001974
1708436329.3355343,-2.1527187824249268,-1.3361215752414246,-2.5237401167498987,6.135098683625021,1.0118986368179321,-2.641568962727682
1708436329.3375673,-2.1527206897735596,-1.3361259412816544,-2.5237234274493616,6.135086405068197,1.011881947517395,-2.641557041798727
1708436329.3395364,-2.1526825428009033,-1.336167262201645,-2.5237279574023646,6.135035741120138,1.011923909187317,-2.64163047472109
1708436329.3415422,-2.152686834335327,-1.3361010414412995,-2.5236993471728724,6.135107624321737,1.0118986368179321,-2.6416106859790247
1708436329.34357,-2.152735471725464,-1.336130217914917,-2.5237370173083704,6.135072934418478,1.0119150876998901,-2.641601626073019
1708436329.3455806,-2.152698278427124,-1.3361464154771348,-2.523729387913839,6.13499532917098,1.011881947517395,-2.641655985509054
1708436329.3475733,-2.1527116298675537,-1.3361791384271164,-2.5236168543445032,6.135037290840902,1.0119150876998901,-2.641568962727682
1708436329.3495529,-2.152698278427124,-1.3361629706672211,-2.523630682622091,6.13506709316329,1.0118987560272217,-2.6416195074664515
1708436329.3515635,-2.152665615081787,-1.3361259412816544,-2.523689095173971,6.135062563210287,1.0119150876998901,-2.64162260690798
1708436329.3535647,-2.152740001678467,-1.3361344945481797,-2.523660723363058,6.135037290840902,1.0118954181671143,-2.641606156026022
1708436329.3555434,-2.15273118019104,-1.3361629408648987,-2.523618284855978,6.135081994324484,1.0119166374206543,-2.64162260690798
1708436329.357552,-2.152740001678467,-1.336158664231636,-2.5236273447619837,6.135068523674764,1.0119043588638306,-2.641606156026022
1708436329.3595586,-2.152695894241333,-1.3361629408648987,-2.523639504109518,6.135049211769857,1.0119566917419434,-2.64158541360964
1708436329.361555,-2.1527185440063477,-1.3361715090325852,-2.5236273447619837,6.135041820793905,1.011923909187317,-2.6416106859790247
1708436329.3635683,-2.1527116298675537,-1.3361215454391022,-2.5236573855029505,6.135081994324484,1.011903166770935,-2.6416149775134485
1708436329.365611,-2.1527187824249268,-1.336105377679207,-2.523618523274557,6.135086405068197,1.0119566917419434,-2.64163047472109
1708436329.3675556,-2.1527116298675537,-1.336105377679207,-2.5236154238330286,6.135086524277487,1.0119075775146484,-2.64163047472109
1708436329.369614,-2.1526567935943604,-1.3361672174981614,-2.523602072392599,6.13511203506545,1.011940360069275,-2.641576353703634
1708436329.3715754,-2.1526825428009033,-1.3361421388438721,-2.5236199537860315,6.135086524277487,1.011903166770935,-2.641606156026022
1708436329.3735929,-2.1527230739593506,-1.336130217914917,-2.5236452261554163,6.135050761490621,1.0119314193725586,-2.641613547001974
1708436329.3755493,-2.15267014503479,-1.336089165215828,-2.5236318747149866,6.135040271073141,1.0119075775146484,-2.641618076954977
1708436329.377547,-2.1526522636413574,-1.336158664231636,-2.5236273447619837,6.1350909350212,1.0119075775146484,-2.6415897051440638
1708436329.3795447,-2.1527187824249268,-1.3361629408648987,-2.5236814657794397,6.135050761490621,1.0119150876998901,-2.64162260690798
1708436329.3815336,-2.1526575088500977,-1.3361097437194367,-2.5236530939685267,6.13511203506545,1.0119075775146484,-2.64162260690798
1708436329.3835537,-2.152698278427124,-1.3361629408648987,-2.523677174245016,6.1350581524665735,1.0119121074676514,-2.6415777842151087
1708436329.385568,-2.1526939868927,-1.3361464154771348,-2.5236573855029505,6.1350909350212,1.0119194984436035,-2.6415987650500696
1708436329.387562,-2.1527442932128906,-1.336089165215828,-2.5236154238330286,6.135110485344686,1.0119075775146484,-2.6416106859790247
1708436329.3895602,-2.152665615081787,-1.3361140054515381,-2.5236786047564905,6.135098683625021,1.011935830116272,-2.641606156026022
1708436329.3915472,-2.1526939868927,-1.3361215752414246,-2.523644034062521,6.135077464371481,1.0119240283966064,-2.641618076954977
1708436329.3935971,-2.1527178287506104,-1.3361063760570069,-2.523677174245016,6.135103213578024,1.011903166770935,-2.6415942350970667
1708436329.395546,-2.1527187824249268,-1.336117298608162,-2.5236318747149866,6.135095345764913,1.0118833780288696,-2.641606156026022
1708436329.3975983,-2.15273118019104,-1.3361421388438721,-2.523594681416647,6.135049211769857,1.0118908882141113,-2.641571823750631
1708436329.3995628,-2.1527230739593506,-1.3361334663680573,-2.5236108938800257,6.135094153672018,1.0119075775146484,-2.6416268984424036
1708436329.4015834,-2.1526851654052734,-1.3361269694617768,-2.5236108938800257,6.135086405068197,1.0118908882141113,-2.6415777842151087
1708436329.4035676,-2.1526939868927,-1.3361269396594544,-2.5236409346209925,6.1350417015846155,1.011935830116272,-2.6415987650500696
1708436329.4055514,-2.15273118019104,-1.3361097437194367,-2.5236199537860315,6.135106074600973,1.011940360069275,-2.6416032950030726
1708436329.4075952,-2.152735471725464,-1.3361791384271164,-2.5236485640155237,6.135128366738119,1.0119075775146484,-2.6415942350970667
1708436329.4095833,-2.152702808380127,-1.3360978227904816,-2.5236979166613978,6.135106074600973,1.0119448900222778,-2.6416271368609827
1708436329.411539,-2.152714252471924,-1.3360978227904816,-2.523602072392599,6.135098683625021,1.0119150876998901,-2.641618076954977
1708436329.413563,-2.152714252471924,-1.3361464154771348,-2.523639504109518,6.135056602745809,1.0119165182113647,-2.641644064580099
1708436329.4155865,-2.152740001678467,-1.3361387711814423,-2.5236697832690638,6.135110485344686,1.011923909187317,-2.641618076954977
1708436329.4175832,-2.152702808380127,-1.3360812974027176,-2.5236228148089808,6.135068523674764,1.0119043588638306,-2.641601626073019
1708436329.4195673,-2.1526894569396973,-1.3361215752414246,-2.523677174245016,6.135115015297689,1.011923909187317,-2.641576115285055
1708436329.4215972,-2.15275239944458,-1.336146430378296,-2.5236199537860315,6.135061013489523,1.0119075775146484,-2.6416152159320276
1708436329.4235823,-2.152768135070801,-1.3361215752414246,-2.523677174245016,6.135072934418478,1.0119448900222778,-2.641606156026022
1708436329.4255507,-2.1526939868927,-1.3361629408648987,-2.5236814657794397,6.1350746033485315,1.0118790864944458,-2.641639534627096
1708436329.4275827,-2.152700901031494,-1.336158664231636,-2.5237024466144007,6.135098683625021,1.0118908882141113,-2.641606156026022
1708436329.429539,-2.15273118019104,-1.3361387711814423,-2.5236859957324427,6.135122406273641,1.0118998289108276,-2.6415777842151087
1708436329.4315372,-2.152698278427124,-1.3361801517060776,-2.5236244837390345,6.135115134506979,1.011956810951233,-2.641644064580099
1708436329.4335387,-2.152705430984497,-1.3361388009837647,-2.5236530939685267,6.135076272278585,1.0118533372879028,-2.641576115285055
1708436329.435543,-2.152726650238037,-1.336167262201645,-2.5236199537860315,6.135109054833212,1.0119285583496094,-2.6416106859790247
1708436329.4375622,-2.1527719497680664,-1.336130217914917,-2.5236108938800257,6.135106074600973,1.0118954181671143,-2.641552511845724
1708436329.4395368,-2.152705430984497,-1.3361259412816544,-2.5236409346209925,6.135106074600973,1.011866807937622,-2.6415987650500696
1708436329.4415488,-2.15275239944458,-1.3361672174981614,-2.5236318747149866,6.135094153672018,1.0119121074676514,-2.641606156026022
1708436329.4435437,-2.1527726650238037,-1.3361387711814423,-2.523590151463644,6.135126936226644,1.0119075775146484,-2.6415942350970667
1708436329.4455562,-2.1527178287506104,-1.3361334663680573,-2.5236485640155237,6.1350897429283044,1.0119121074676514,-2.641635243092672
1708436329.4475577,-2.1527435779571533,-1.3361063760570069,-2.5236318747149866,6.135117995529928,1.0119493007659912,-2.6416314283954065
1708436329.449538,-2.1527178287506104,-1.3361748915961762,-2.5235989729510706,6.135094153672018,1.0118986368179321,-2.6416314283954065
1708436329.4515364,-2.1526825428009033,-1.336101086144783,-2.5235782305346888,6.135131466179647,1.0118578672409058,-2.64158541360964
1708436329.4535427,-2.1527390480041504,-1.3361662191203614,-2.523639504109518,6.135117995529928,1.011877417564392,-2.641618076954977
1708436329.4555452,-2.1527390480041504,-1.3361063760570069,-2.5236905256854456,6.135092603951254,1.0118954181671143,-2.641635243092672
1708436329.4575822,-2.1527435779571533,-1.3361215454391022,-2.5236035029040735,6.135125744133749,1.0119121074676514,-2.6415897051440638
1708436329.4595494,-2.1527414321899414,-1.3361010414412995,-2.5236273447619837,6.135174858361044,1.0119121074676514,-2.641601626073019
1708436329.4615376,-2.1527931690216064,-1.3361791384271164,-2.5236154238330286,6.13517044761733,1.011888027191162,-2.6416152159320276
1708436329.463534,-2.152700901031494,-1.336158664231636,-2.5236318747149866,6.135195958405294,1.0119088888168335,-2.641601626073019
1708436329.4655337,-2.1527504920959473,-1.336105377679207,-2.5236364046679896,6.135178077011862,1.011866807937622,-2.6415897051440638
1708436329.467554,-2.1527934074401855,-1.3361464154771348,-2.5236364046679896,6.135230529099264,1.0118998289108276,-2.6416271368609827
1708436329.4695754,-2.1527719497680664,-1.3361715090325852,-2.5236108938800257,6.1352423308189294,1.0118577480316162,-2.641580645238058
1708436329.4715695,-2.1527504920959473,-1.3361377579024811,-2.5235989729510706,6.135291802674093,1.0118803977966309,-2.64162260690798
1708436329.4735663,-2.1527254581451416,-1.3361344945481797,-2.523613993321554,6.135245430260458,1.011850357055664,-2.641606156026022
1708436329.4755425,-2.1527326107025146,-1.3361834299615403,-2.523644034062521,6.13521825054244,1.0118639469146729,-2.6415868441211146
1708436329.4775543,-2.1527955532073975,-1.3361377728036423,-2.5236199537860315,6.135225999146261,1.011866807937622,-2.6416106859790247
1708436329.4795406,-2.1528046131134033,-1.3361629408648987,-2.523639504109518,6.1352587817008875,1.0118622779846191,-2.641592566167013
1708436329.481546,-2.1527764797210693,-1.3361629408648987,-2.5236228148089808,6.13526617267684,1.0119044780731201,-2.641613308583395
1708436329.4835608,-2.1527798175811768,-1.336105377679207,-2.5236318747149866,6.135240900307455,1.0118848085403442,-2.641580645238058
1708436329.4855537,-2.1527912616729736,-1.3361259412816544,-2.523630682622091,6.135212647705831,1.0118623971939087,-2.641597096120016
1708436329.487556,-2.152820587158203,-1.3361140203526993,-2.523656193410055,6.135209309845724,1.011866807937622,-2.641609017048971
1708436329.489561,-2.1527459621429443,-1.3361672174981614,-2.5236063639270228,6.135240781098165,1.0118924379348755,-2.641618076954977
1708436329.4915526,-2.152761936187744,-1.336118296985962,-2.523634974156515,6.135257231980123,1.0118263959884644,-2.6416106859790247
1708436329.493565,-2.152775287628174,-1.336130217914917,-2.5236318747149866,6.135282981186666,1.0118550062179565,-2.641580645238058
1708436329.495547,-2.1527674198150635,-1.3361344945481797,-2.523665253316061,6.135278451233663,1.011781096458435,-2.641568962727682
1708436329.4975655,-2.152754068374634,-1.3361421388438721,-2.5237069765674036,6.135248291283407,1.0118353366851807,-2.641568962727682
1708436329.499538,-2.152766466140747,-1.336170495753624,-2.5236318747149866,6.13527392128066,1.0118144750595093,-2.6416149775134485
1708436329.5015397,-2.1527912616729736,-1.3361140203526993,-2.5236364046679896,6.13525270202712,1.0118353366851807,-2.6415942350970667
1708436329.5035503,-2.1527798175811768,-1.3361259412816544,-2.5236530939685267,6.1352707026298425,1.0118728876113892,-2.641660515462057
1708436329.5055566,-2.1527583599090576,-1.3360935312560578,-2.5236485640155237,6.13527392128066,1.0118025541305542,-2.641592566167013
1708436329.5075722,-2.1528186798095703,-1.3361506921103974,-2.5235870520221155,6.1352858422096155,1.0117990970611572,-2.641601626073019
1708436329.5095546,-2.152773380279541,-1.336187706594803,-2.5236530939685267,6.135323393135824,1.0118035078048706,-2.641639534627096
1708436329.5115695,-2.1528565883636475,-1.3361377728036423,-2.5235944429980677,6.135294902115621,1.0117871761322021,-2.641648594533102
1708436329.5135677,-2.152822971343994,-1.3361629408648987,-2.5236814657794397,6.135347234993734,1.0118036270141602,-2.6416268984424036
1708436329.5155592,-2.152777910232544,-1.3361377728036423,-2.5236108938800257,6.1352858422096155,1.0117827653884888,-2.641568962727682
1708436329.5177221,-2.152815103530884,-1.3360891205123444,-2.5236697832690638,6.135290372162618,1.0117707252502441,-2.6415897051440638
1708436329.5195522,-2.152766466140747,-1.3361044538072129,-2.5236485640155237,6.135269510536947,1.0118169784545898,-2.641557041798727
1708436329.521551,-2.152838706970215,-1.3361629408648987,-2.5236080328570765,6.135281431465902,1.0117871761322021,-2.641613547001974
1708436329.5235875,-2.152810573577881,-1.3360935312560578,-2.5236273447619837,6.135297763138571,1.0118006467819214,-2.6416314283954065
1708436329.5255442,-2.1528193950653076,-1.3361421388438721,-2.5236318747149866,6.135296571045675,1.011796236038208,-2.6416106859790247
1708436329.5275772,-2.1527488231658936,-1.3361140054515381,-2.523634974156515,6.135326254158773,1.0117675065994263,-2.6415777842151087
1708436329.5295486,-2.152822971343994,-1.3361549836448212,-2.523644034062521,6.135350096016683,1.011796236038208,-2.6415897051440638
1708436329.5315664,-2.1528432369232178,-1.3361388009837647,-2.523644034062521,6.135308372765341,1.011763095855713,-2.641597096120016
1708436329.5335455,-2.152827501296997,-1.3361834299615403,-2.5236364046679896,6.135378825455465,1.01177978515625,-2.641651455556051
1708436329.5355403,-2.152831792831421,-1.3361215752414246,-2.5236485640155237,6.135324704438009,1.011796236038208,-2.641601626073019
1708436329.5375533,-2.1528432369232178,-1.3361259412816544,-2.523677174245016,6.135336625366964,1.011742115020752,-2.6416195074664515
1708436329.539556,-2.152806043624878,-1.3360978227904816,-2.5236950556384485,6.135357844620504,1.0117137432098389,-2.641613547001974
1708436329.5415795,-2.152827501296997,-1.3361542981914063,-2.523644034062521,6.135374176293173,1.0117511749267578,-2.641625944768087
1708436329.5435526,-2.1528186798095703,-1.3361542981914063,-2.5236273447619837,6.135341155319967,1.0117348432540894,-2.641597096120016
1708436329.5455499,-2.1528186798095703,-1.3361464154771348,-2.5236859957324427,6.135395276337423,1.0117555856704712,-2.6415942350970667
1708436329.547562,-2.1528096199035645,-1.336130217914917,-2.5236318747149866,6.135386097222128,1.0117270946502686,-2.641651455556051
1708436329.5495524,-2.152810573577881,-1.3360978227904816,-2.5236108938800257,6.135365354805746,1.0117484331130981,-2.641597096120016
1708436329.5515597,-2.152822971343994,-1.3361225885203858,-2.5236228148089808,6.135399567871847,1.0117225646972656,-2.641609017048971
1708436329.5535877,-2.152834415435791,-1.3361834299615403,-2.5236199537860315,6.1353590367134,1.0117181539535522,-2.641613308583395
1708436329.5555496,-2.152789354324341,-1.3361225885203858,-2.5236318747149866,6.135348903923788,1.0117270946502686,-2.641601626073019
1708436329.5575626,-2.1527974605560303,-1.3361421388438721,-2.5236154238330286,6.135360824852743,1.0117104053497314,-2.6416106859790247
1708436329.559578,-2.152834415435791,-1.3361586791327973,-2.523639504109518,6.135393607407369,1.0117528438568115,-2.641597096120016
1708436329.5615551,-2.152822971343994,-1.3361672174981614,-2.5236530939685267,6.1353951571281335,1.0117149353027344,-2.64158541360964
1708436329.5635836,-2.152834415435791,-1.3361063760570069,-2.5235989729510706,6.135327803879537,1.0116865634918213,-2.641675058995382
1708436329.5655801,-2.152834415435791,-1.336130217914917,-2.5236364046679896,6.135377275734701,1.0117074251174927,-2.64158803621401
1708436329.5675633,-2.1528050899505615,-1.3361549836448212,-2.523602072392599,6.135419237404623,1.0116747617721558,-2.6416268984424036
1708436329.5696044,-2.152825355529785,-1.3361334961703797,-2.5236154238330286,6.135335552483358,1.011688232421875,-2.641609017048971
1708436329.5716183,-2.152836799621582,-1.3361907464316864,-2.5236199537860315,6.1353444931800745,1.011688232421875,-2.641625944768087
1708436329.5736804,-2.152862787246704,-1.3361020994237442,-2.523618523274557,6.135428297310629,1.0116791725158691,-2.6416149775134485
1708436329.5755625,-2.1528165340423584,-1.3361506921103974,-2.5236273447619837,6.135384666710653,1.0117238759994507,-2.6415823141681116
1708436329.5775568,-2.1528143882751465,-1.336167262201645,-2.523594681416647,6.135386097222128,1.0116702318191528,-2.641606156026022
1708436329.5795665,-2.1528751850128174,-1.3361140054515381,-2.5235989729510706,6.135402548104086,1.0117238759994507,-2.6416106859790247
1708436329.5815842,-2.152911424636841,-1.3360978227904816,-2.5236199537860315,6.135360824852743,1.0116955041885376,-2.6416149775134485
1708436329.5835726,-2.1528186798095703,-1.3361215752414246,-2.5236697832690638,6.13543854930953,1.011683702468872,-2.64162260690798
1708436329.585551,-2.152834415435791,-1.3361464154771348,-2.5236364046679896,6.13541470745162,1.011683702468872,-2.641573492680685
1708436329.5876648,-2.152836799621582,-1.3361629408648987,-2.5236080328570765,6.135463940888204,1.0117090940475464,-2.641585175191061
1708436329.5895667,-2.152911424636841,-1.3362036508372803,-2.5236199537860315,6.1353890774543665,1.0116747617721558,-2.641613308583395
1708436329.5915897,-2.1528661251068115,-1.3361629706672211,-2.5236244837390345,6.13541470745162,1.0116491317749023,-2.641639534627096
1708436329.593598,-2.152890920639038,-1.3361542981914063,-2.5236199537860315,6.1353845475013635,1.0116580724716187,-2.6416152159320276
1708436329.595555,-2.1528820991516113,-1.3360978227904816,-2.5236006418811243,6.1353890774543665,1.011683702468872,-2.6415942350970667
1708436329.59759,-2.1528618335723877,-1.3361259412816544,-2.5236364046679896,6.135450470238485,1.011667013168335,-2.641655985509054
1708436329.5996068,-2.152898073196411,-1.3361259412816544,-2.5235870520221155,6.13538013675765,1.011662483215332,-2.641601626073019
1708436329.6015832,-2.1528494358062744,-1.3361215752414246,-2.5236168543445032,6.135417687683859,1.0117119550704956,-2.6415897051440638
1708436329.6035852,-2.1529104709625244,-1.3361907464316864,-2.5236318747149866,6.135402548104086,1.011641263961792,-2.6416106859790247
1708436329.605548,-2.1528618335723877,-1.336195023064949,-2.523594681416647,6.135368215828695,1.011688232421875,-2.641618076954977
1708436329.607584,-2.1528573036193848,-1.3361464154771348,-2.5236364046679896,6.135462748795309,1.011683702468872,-2.64163047472109
1708436329.6095622,-2.1528618335723877,-1.3361834299615403,-2.5235796610461634,6.13538013675765,1.011667013168335,-2.641618076954977
1708436329.6115434,-2.1528890132904053,-1.3361550134471436,-2.5235708395587366,6.13543854930953,1.011662483215332,-2.641571585332052
1708436329.613615,-2.1529147624969482,-1.3361377728036423,-2.5236080328570765,6.135434019356527,1.011663794517517,-2.6416106859790247
1708436329.6155486,-2.1529147624969482,-1.336129294042923,-2.5236125628100794,6.135429608612814,1.0116429328918457,-2.641601626073019
1708436329.6175735,-2.1528403759002686,-1.336089165215828,-2.5235915819751185,6.135465609818258,1.011647343635559,-2.641613547001974
1708436329.6195643,-2.1528801918029785,-1.3361097437194367,-2.5235708395587366,6.135440337448873,1.0116548538208008,-2.641618076954977
1708436329.6215625,-2.1529431343078613,-1.3361748617938538,-2.5235708395587366,6.135489451676168,1.0116175413131714,-2.641601626073019
1708436329.623572,-2.1528890132904053,-1.3362198633006592,-2.5236287752734583,6.135464060097494,1.011639952659607,-2.641618076954977
1708436329.6255634,-2.1529059410095215,-1.3361506921103974,-2.5236154238330286,6.135546672135153,1.0116232633590698,-2.6416271368609827
1708436329.6276302,-2.1529386043548584,-1.3361215454391022,-2.5235870520221155,6.135517942696371,1.0116385221481323,-2.641559902821676
1708436329.6295822,-2.1529386043548584,-1.3361629408648987,-2.5235751310931605,6.135506140976705,1.0116310119628906,-2.6415897051440638
1708436329.631563,-2.1529228687286377,-1.336117298608162,-2.5235961119281214,6.135537612229147,1.0116727352142334,-2.641648594533102
1708436329.63357,-2.1529343128204346,-1.336158664231636,-2.523567501698629,6.135574924736776,1.0115725994110107,-2.641639534627096
1708436329.6355622,-2.152913808822632,-1.336158664231636,-2.523567501698629,6.135534393578329,1.0116277933120728,-2.6416268984424036
1708436329.6375968,-2.152909278869629,-1.3361464154771348,-2.523597780858175,6.135549533158102,1.011545181274414,-2.641601626073019
1708436329.6395915,-2.152942180633545,-1.3361629408648987,-2.523604933415548,6.135549533158102,1.0115571022033691,-2.641639534627096
1708436329.6415548,-2.1529557704925537,-1.3361542981914063,-2.5235255400287073,6.135551082878866,1.011591911315918,-2.641601626073019
1708436329.6435676,-2.152963638305664,-1.3361140203526993,-2.5235467592822474,6.135583746224203,1.0115379095077515,-2.641576353703634
1708436329.6455688,-2.152963638305664,-1.3361130964807053,-2.523522679005758,6.1355135319526575,1.0115751028060913,-2.6415897051440638
1708436329.647563,-2.152920722961426,-1.3361259263804932,-2.5235796610461634,6.135591256409445,1.0115587711334229,-2.641644064580099
1708436329.6495512,-2.152959108352661,-1.336130217914917,-2.523572031651632,6.135549533158102,1.0115631818771362,-2.6416271368609827
1708436329.6515763,-2.1529839038848877,-1.3361215454391022,-2.5235512892352503,6.135606515198507,1.0115631818771362,-2.641564432774679
1708436329.6536033,-2.152954578399658,-1.3360935014537354,-2.523580853139059,6.1355405924613855,1.0115437507629395,-2.641601626073019
1708436329.65555,-2.1529884338378906,-1.3361259412816544,-2.52354342142214,6.135516392975607,1.0115468502044678,-2.641606156026022
1708436329.6575785,-2.152954578399658,-1.336187706594803,-2.523538891469137,6.1355405924613855,1.0115379095077515,-2.641639534627096
1708436329.6595628,-2.1529297828674316,-1.3361421388438721,-2.523555580769674,6.13552867153243,1.0115092992782593,-2.641601626073019
1708436329.661548,-2.1529252529144287,-1.3361259412816544,-2.52356464067568,6.135594594269552,1.0115227699279785,-2.641601626073019
1708436329.6636,-2.1529884338378906,-1.3361344945481797,-2.523527208958761,6.135577904969015,1.011539101600647,-2.6415732542621058
1708436329.665558,-2.152942180633545,-1.336118296985962,-2.523580853139059,6.135558593064108,1.011539101600647,-2.641625944768087
1708436329.6675642,-2.152942180633545,-1.3361387711814423,-2.52351957956423,6.135564315110006,1.0115301609039307,-2.641625944768087
1708436329.6695778,-2.152963638305664,-1.3361464154771348,-2.52351957956423,6.135547983437338,1.0115138292312622,-2.641585175191061
1708436329.6716354,-2.1529953479766846,-1.3361215752414246,-2.5235944429980677,6.135568845063009,1.0115183591842651,-2.641644064580099
1708436329.6735835,-2.152954578399658,-1.3361172539046784,-2.5235241095172327,6.13552867153243,1.0115796327590942,-2.641568962727682
1708436329.675556,-2.1529908180236816,-1.3360968989184876,-2.523503128682272,6.135570394783773,1.011539101600647,-2.6416106859790247
1708436329.6775763,-2.152961492538452,-1.3361500215581437,-2.523515049611227,6.135601985245504,1.0114926099777222,-2.6415777842151087
1708436329.6795902,-2.152959108352661,-1.3361140203526993,-2.5235167185412806,6.135582315712728,1.0115559101104736,-2.641644064580099
1708436329.681568,-2.1529953479766846,-1.336170495753624,-2.5235212484942835,6.135552513390341,1.01156485080719,-2.641568962727682
1708436329.6835659,-2.1529200077056885,-1.3361662191203614,-2.5235286394702356,6.135552513390341,1.0115346908569336,-2.6416271368609827
1708436329.68555,-2.153007745742798,-1.3361140054515381,-2.5235331694232386,6.135586726456442,1.0115424394607544,-2.6416149775134485
1708436329.687572,-2.152942180633545,-1.336089165215828,-2.5235496203051966,6.135582315712728,1.0115513801574707,-2.6415658632861536
1708436329.68957,-2.152961492538452,-1.3361464154771348,-2.5234788099872034,6.135552513390341,1.0115481615066528,-2.6416195074664515
1708436329.6915736,-2.152981996536255,-1.336089165215828,-2.5235329310046595,6.1356273768241785,1.0115227699279785,-2.6416032950030726
1708436329.69357,-2.152961492538452,-1.3361464154771348,-2.5234788099872034,6.135582315712728,1.0115272998809814,-2.6415987650500696
1708436329.6955686,-2.153020143508911,-1.3361662191203614,-2.523515049611227,6.135536062508383,1.0115526914596558,-2.641644064580099
1708436329.6975584,-2.1529572010040283,-1.3361629408648987,-2.523503128682272,6.13553153255538,1.01148521900177,-2.6415868441211146
1708436329.699553,-2.1530110836029053,-1.3361992996982117,-2.52351957956423,6.13552092292861,1.011555790901184,-2.6415539423571985
1708436329.7015505,-2.1529898643493652,-1.3361863952926178,-2.52351957956423,6.135545122414388,1.0115183591842651,-2.6415942350970667
1708436329.703595,-2.152998685836792,-1.3361542981914063,-2.52351957956423,6.135568845063009,1.0115060806274414,-2.6415897051440638
1708436329.7055786,-2.1529898643493652,-1.336162031894066,-2.5235286394702356,6.135536062508383,1.0115106105804443,-2.6415868441211146
1708436329.7075906,-2.152966022491455,-1.3361097437194367,-2.523573700581686,6.135549533158102,1.0115240812301636,-2.6415539423571985
1708436329.7095602,-2.1529369354248047,-1.3361215752414246,-2.5235121885882776,6.13550757148818,1.0115272998809814,-2.6415749231921595
1708436329.7115452,-2.153015613555908,-1.336117298608162,-2.5234912077533167,6.1355405924613855,1.0115318298339844,-2.6416001955615442
1708436329.7135773,-2.152977466583252,-1.3361629408648987,-2.5234742800342005,6.135561454087057,1.0114566087722778,-2.6415777842151087
1708436329.7155552,-2.1529572010040283,-1.3361421388438721,-2.5235241095172327,6.135503041535177,1.0114986896514893,-2.6415868441211146
1708436329.7175667,-2.152972936630249,-1.336118296985962,-2.5234714190112513,6.135570394783773,1.0114730596542358,-2.6415420214282435
1708436329.7195508,-2.153003215789795,-1.3360770058682938,-2.5235212484942835,6.135607945709982,1.0115227699279785,-2.6415658632861536
1708436329.7215455,-2.1529810428619385,-1.3361992996982117,-2.5235405603991907,6.13552879074172,1.0115318298339844,-2.641557041798727
1708436329.7235801,-2.152977466583252,-1.3360848289779206,-2.5234954992877405,6.135564434319296,1.01154363155365,-2.6415792147265833
1708436329.725586,-2.1529324054718018,-1.336158664231636,-2.5235331694232386,6.135577785759725,1.01156485080719,-2.641632858906881
1708436329.7276073,-2.152981996536255,-1.336158664231636,-2.5235045591937464,6.135581123619833,1.0115150213241577,-2.6415420214282435
1708436329.729561,-2.152994394302368,-1.3361259412816544,-2.5235000292407435,6.135511982231893,1.011489748954773,-2.6415794531451624
1708436329.7315764,-2.152977466583252,-1.336170495753624,-2.5234833399402063,6.135524260788717,1.0115437507629395,-2.6415377298938196
1708436329.7336023,-2.1529457569122314,-1.3361542981914063,-2.5235000292407435,6.13556586483077,1.0115481615066528,-2.6415510813342493
1708436329.7355547,-2.1529572010040283,-1.336129294042923,-2.5235000292407435,6.135561454087057,1.0115346908569336,-2.6415122191058558
1708436329.737578,-2.1529457569122314,-1.3361421388438721,-2.5234788099872034,6.135601866036215,1.0115196704864502,-2.641593043004171
1708436329.7395709,-2.1529572010040283,-1.3361863803914567,-2.5235000292407435,6.1356109259422205,1.011539101600647,-2.6415584723102015
1708436329.7415826,-2.152994394302368,-1.3361377728036423,-2.5234745184527796,6.135543572693624,1.0115227699279785,-2.6415584723102015
1708436329.7435951,-2.152972936630249,-1.3361629706672211,-2.5235241095172327,6.135606515198507,1.0115346908569336,-2.6415255705462855
1708436329.7455807,-2.153015613555908,-1.3361172539046784,-2.523492399846212,6.135574924736776,1.0115106105804443,-2.6415465513812464
1708436329.7475622,-2.152998685836792,-1.3361629706672211,-2.52351957956423,6.13552867153243,1.0114774703979492,-2.641517702733175
1708436329.7495677,-2.152998685836792,-1.336195023064949,-2.5235286394702356,6.135509121208944,1.0114942789077759,-2.6415255705462855
1708436329.7515569,-2.152977466583252,-1.336105377679207,-2.5234535376178187,6.135603415756979,1.011539101600647,-2.6415482203113
1708436329.7535653,-2.152998685836792,-1.3361334961703797,-2.5235374609576624,6.135603415756979,1.0115346908569336,-2.641513172780172
1708436329.755549,-2.1529526710510254,-1.3361542981914063,-2.5235496203051966,6.135570394783773,1.0114986896514893,-2.641576592122213
1708436329.7575855,-2.152972936630249,-1.3361464154771348,-2.5235374609576624,6.135590064316549,1.0115481615066528,-2.6415510813342493
1708436329.7595825,-2.1529324054718018,-1.3361820888570328,-2.5235000292407435,6.1355570433433435,1.0114942789077759,-2.6415086428271692
1708436329.7615583,-2.152994394302368,-1.3361506921103974,-2.5235045591937464,6.135573375016012,1.011539101600647,-2.6415584723102015
1708436329.7635748,-2.152970552444458,-1.3361377728036423,-2.5234864393817347,6.135537612229147,1.0115227699279785,-2.6414712111102503
1708436329.7655444,-2.152979612350464,-1.3361421388438721,-2.5235000292407435,6.1355405924613855,1.0114820003509521,-2.641473118458883
1708436329.7675424,-2.152972936630249,-1.336130217914917,-2.5234912077533167,6.135570394783773,1.0115227699279785,-2.641493860875265
1708436329.7695453,-2.1530022621154785,-1.3360968989184876,-2.5234697500811976,6.135577785759725,1.0114820003509521,-2.641526762639181
1708436329.7716215,-2.152981996536255,-1.3361662191203614,-2.523498837147848,6.135568845063009,1.0115196704864502,-2.641498390828268
1708436329.7736018,-2.1529862880706787,-1.336146430378296,-2.523503128682272,6.135561454087057,1.0115272998809814,-2.641480271016256
1708436329.7755432,-2.1530110836029053,-1.3361542981914063,-2.5234864393817347,6.135586726456442,1.0115227699279785,-2.641514841710226
1708436329.7775908,-2.1529572010040283,-1.3361377728036423,-2.5235331694232386,6.135558593064108,1.0115106105804443,-2.64150578180422
1708436329.7795603,-2.152968645095825,-1.3361705106547852,-2.523503128682272,6.135500061302938,1.0115183591842651,-2.6415355841266077
1708436329.7815447,-2.1529572010040283,-1.3361421388438721,-2.5234878698932093,6.135586726456442,1.0115015506744385,-2.64146858850588
1708436329.7835486,-2.152970552444458,-1.336146430378296,-2.5234954992877405,6.1355405924613855,1.0115346908569336,-2.641484800969259
1708436329.7855535,-2.152961492538452,-1.336117298608162,-2.523515049611227,6.135536062508383,1.0115106105804443,-2.641552750264303
1708436329.7875776,-2.152994394302368,-1.336117298608162,-2.5235286394702356,6.135603415756979,1.0114820003509521,-2.641526762639181
1708436329.7895548,-2.1529500484466553,-1.3361334961703797,-2.5235331694232386,6.1355570433433435,1.0115106105804443,-2.6414909998523157
1708436329.791551,-2.1529898643493652,-1.336117298608162,-2.5234788099872034,6.135516512184896,1.0115092992782593,-2.6415236631976526
1708436329.7935672,-2.152966022491455,-1.3361748617938538,-2.5234954992877405,6.135545122414388,1.0115227699279785,-2.64148193994631
1708436329.795589,-2.1530067920684814,-1.336117298608162,-2.5235241095172327,6.135495650559225,1.0115480422973633,-2.64148193994631
1708436329.7975943,-2.153012275695801,-1.3361215752414246,-2.5235076586352747,6.135551082878866,1.0114986896514893,-2.6415236631976526
1708436329.7995853,-2.1530022621154785,-1.336105377679207,-2.523510519658224,6.135545122414388,1.0115060806274414,-2.641465489064352
1708436329.80155,-2.152994394302368,-1.3361259412816544,-2.5234833399402063,6.135533201485433,1.0115363597869873,-2.641486469899313
1708436329.803564,-2.1529862880706787,-1.336182103758194,-2.5235167185412806,6.135495650559225,1.0115106105804443,-2.641486469899313
1708436329.8055515,-2.152981996536255,-1.3361705106547852,-2.5234909693347376,6.135549533158102,1.0115513801574707,-2.641493860875265
1708436329.8075833,-2.1529412269592285,-1.336167262201645,-2.52351957956423,6.135504472046652,1.0115227699279785,-2.641489569340841
1708436329.8098366,-2.152961492538452,-1.3361907464316864,-2.5234745184527796,6.135549533158102,1.011468529701233,-2.641427818928854
1708436329.8115704,-2.152998685836792,-1.3361542981914063,-2.5235376993762415,6.135545122414388,1.0115227699279785,-2.6414745489703577
1708436329.813571,-2.152966022491455,-1.3361215752414246,-2.5235539118396204,6.135553943901815,1.0115060806274414,-2.6415072123156946
1708436329.815551,-2.152972936630249,-1.336167262201645,-2.5235570112811487,6.13554214218215,1.011539101600647,-2.641502920781271
1708436329.8175495,-2.152977466583252,-1.3361907464316864,-2.5234864393817347,6.135511982231893,1.0115183591842651,-2.6414909998523157
1708436329.819565,-2.1529457569122314,-1.3361629706672211,-2.5234714190112513,6.135529863625326,1.011539101600647,-2.641456667576925
1708436329.82157,-2.152994394302368,-1.3361834299615403,-2.5234745184527796,6.13548372963027,1.0115183591842651,-2.641557041798727
1708436329.8235543,-2.152977466583252,-1.3361421388438721,-2.5235000292407435,6.135563003807821,1.0115437507629395,-2.641502920781271
1708436329.8255503,-2.152994394302368,-1.3361542981914063,-2.5235241095172327,6.13550757148818,1.0115346908569336,-2.6414411703692835
1708436329.8275552,-2.153012275695801,-1.3361377728036423,-2.5235331694232386,6.135533201485433,1.011539101600647,-2.641502920781271
1708436329.8295634,-2.152972936630249,-1.3361334961703797,-2.5235167185412806,6.135492670326986,1.0115137100219727,-2.641502920781271
1708436329.8315506,-2.152937650680542,-1.3361662191203614,-2.5234671274768274,6.135504472046652,1.0115559101104736,-2.6415117422686976
1708436329.8335514,-2.1529457569122314,-1.3361377728036423,-2.5235000292407435,6.1355135319526575,1.0115092992782593,-2.641477648411886
1708436329.8355587,-2.1529500484466553,-1.3361542981914063,-2.5235045591937464,6.1355299828346155,1.0115437507629395,-2.641486469899313
1708436329.8375604,-2.1529242992401123,-1.3361863803914567,-2.5235121885882776,6.135464060097494,1.0115256309509277,-2.6414909998523157
1708436329.8395565,-2.152966022491455,-1.33616295576606,-2.5235405603991907,6.135452139168539,1.011539101600647,-2.6414909998523157
1708436329.841545,-2.152959108352661,-1.3361907464316864,-2.5235241095172327,6.135492670326986,1.0115796327590942,-2.641498390828268
1708436329.8435726,-2.1529242992401123,-1.336167262201645,-2.523503128682272,6.135484921723165,1.0115227699279785,-2.64148193994631
1708436329.8455572,-2.1529412269592285,-1.336166189318039,-2.5235167185412806,6.135484802513876,1.0115183591842651,-2.641502920781271
1708436329.8475606,-2.1529324054718018,-1.3361421388438721,-2.5235286394702356,6.135426866799154,1.0115346908569336,-2.6414745489703577
1708436329.8495557,-2.153007745742798,-1.3360892695239563,-2.5235827604876917,6.135456669121542,1.0115513801574707,-2.6415355841266077
1708436329.8515563,-2.152961492538452,-1.3361259263804932,-2.5235331694232386,6.135515081673422,1.0115392208099365,-2.641461197529928
1708436329.8536124,-2.152911901473999,-1.3361542981914063,-2.5234954992877405,6.135453688889303,1.0115468502044678,-2.6415000597583216
1708436329.8556201,-2.152970552444458,-1.3361259263804932,-2.52351957956423,6.135436999588766,1.0115841627120972,-2.641465489064352
1708436329.8575559,-2.152977466583252,-1.336129294042923,-2.5235286394702356,6.135396826058187,1.0115468502044678,-2.641465727482931
1708436329.8595533,-2.1530168056488037,-1.3361464154771348,-2.5235241095172327,6.135429608612814,1.0115678310394287,-2.6414909998523157
1708436329.8615718,-2.152998685836792,-1.336166189318039,-2.5235376993762415,6.1354548809821985,1.0116007328033447,-2.641502920781271
1708436329.8636036,-2.152954578399658,-1.3361507219127198,-2.523503128682272,6.135368215828695,1.0115257501602173,-2.641502920781271
1708436329.8656182,-2.152959108352661,-1.3361672174981614,-2.52351957956423,6.135327803879537,1.0115559101104736,-2.6414321104632776
1708436329.8675451,-2.1529412269592285,-1.3361215752414246,-2.5235045591937464,6.135398018151083,1.011572241783142,-2.6414909998523157
1708436329.8695507,-2.152961492538452,-1.3361377877048035,-2.5235000292407435,6.135336744576254,1.0115092992782593,-2.6414321104632776
1708436329.8716228,-2.153024435043335,-1.336137132053711,-2.5234864393817347,6.135374295502462,1.0115631818771362,-2.6414909998523157
1708436329.8735783,-2.152979612350464,-1.3361586195281525,-2.5235450903521937,6.135369765549459,1.0115587711334229,-2.6414366404162806
1708436329.8755467,-2.1529288291931152,-1.3361791682294388,-2.523503128682272,6.135350096016683,1.0115543603897095,-2.641486469899313
1708436329.8775446,-2.1529412269592285,-1.336089165215828,-2.5235450903521937,6.1353667853172205,1.0115256309509277,-2.641470019017355
1708436329.8796368,-2.152954578399658,-1.336145819430687,-2.523498837147848,6.1353444931800745,1.0115346908569336,-2.641502920781271
1708436329.8815787,-2.152966022491455,-1.3361629706672211,-2.52351957956423,6.1353832361991785,1.0115795135498047,-2.6414745489703577
1708436329.8835766,-2.152954578399658,-1.3361334961703797,-2.5235405603991907,6.135348903923788,1.0115424394607544,-2.6414580980883997
1708436329.8855407,-2.152933359146118,-1.336154283290245,-2.5235493818866175,6.135336744576254,1.0115379095077515,-2.641449276600973
1708436329.8875434,-2.1529288291931152,-1.3361714494279404,-2.5235121885882776,6.135292041092672,1.011582851409912,-2.64148193994631
1708436329.8895552,-2.152942180633545,-1.3361292493394394,-2.5235167185412806,6.135333764344015,1.0115796327590942,-2.641477409993307
1708436329.891567,-2.1529297828674316,-1.3361259412816544,-2.52351957956423,6.135338175087728,1.0115796327590942,-2.6415236631976526
1708436329.893555,-2.152966022491455,-1.3361259263804932,-2.5234864393817347,6.13536690452651,1.0115995407104492,-2.641514841710226
1708436329.8955479,-2.152916193008423,-1.33618779600177,-2.523503128682272,6.135362374573507,1.011587381362915,-2.641453568135397
1708436329.897566,-2.1529908180236816,-1.336117298608162,-2.523531500493185,6.135354625969686,1.011582851409912,-2.6414909998523157
1708436329.8995576,-2.152979612350464,-1.3361302477172394,-2.5235121885882776,6.1353129027183435,1.0115995407104492,-2.641470019017355
1708436329.9015448,-2.152942180633545,-1.3361629706672211,-2.5235121885882776,6.135324704438009,1.0116069316864014,-2.6414673964129847
1708436329.9035466,-2.152970552444458,-1.3361097139171143,-2.523531500493185,6.135362374573507,1.011602520942688,-2.641470019017355
1708436329.9055483,-2.152920722961426,-1.3361542981914063,-2.523515049611227,6.135317432671346,1.0116233825683594,-2.641470019017355
1708436329.9075494,-2.1529884338378906,-1.3361747872880478,-2.5235286394702356,6.1353129027183435,1.0116519927978516,-2.6414790789233606
1708436329.9095478,-2.1529297828674316,-1.3361334961703797,-2.5235405603991907,6.1353293536003015,1.0116310119628906,-2.6414745489703577
1708436329.9115477,-2.1529228687286377,-1.3361586791327973,-2.5235241095172327,6.135288703232565,1.0116384029388428,-2.641486469899313
1708436329.913574,-2.1529297828674316,-1.3361549836448212,-2.523515049611227,6.1353293536003015,1.0116519927978516,-2.6415117422686976
1708436329.9155529,-2.1529386043548584,-1.3361097437194367,-2.5235450903521937,6.13526343086318,1.0116593837738037,-2.641552750264303
1708436329.9175756,-2.1529343128204346,-1.3361629408648987,-2.5235658327685755,6.135288703232565,1.0116338729858398,-2.641470019017355
1708436329.9195492,-2.152946710586548,-1.336146430378296,-2.5234864393817347,6.135338294297018,1.0116760730743408,-2.641477648411886
1708436329.9215746,-2.152963638305664,-1.3361215901425858,-2.523552481328146,6.135309922486105,1.0116175413131714,-2.6414955298053187
1708436329.923572,-2.152972459793091,-1.3361629408648987,-2.5235570112811487,6.135317432671346,1.011671543121338,-2.6414366404162806
1708436329.925573,-2.1528923511505127,-1.3361377877048035,-2.523569170628683,6.135335314064779,1.0116548538208008,-2.641543690358297
1708436329.9275553,-2.152937650680542,-1.3361620169929047,-2.5235570112811487,6.135305511742391,1.0116503238677979,-2.6415117422686976
1708436329.9295583,-2.1529557704925537,-1.3362035763314744,-2.5234864393817347,6.135297763138571,1.0116220712661743,-2.64148193994631
1708436329.9315822,-2.1529252529144287,-1.33617156863723,-2.52351957956423,6.135284292488851,1.011671543121338,-2.64148193994631
1708436329.9335995,-2.152963638305664,-1.3361302328160782,-2.5235241095172327,6.135305511742391,1.011662483215332,-2.6415191332446497
1708436329.935553,-2.1529228687286377,-1.3361619871905823,-2.523531500493185,6.135335314064779,1.011688232421875,-2.641461197529928
1708436329.9375646,-2.1529183387756348,-1.3361586791327973,-2.5235212484942835,6.135278451233663,1.011692762374878,-2.641470019017355
1708436329.9395468,-2.1529183387756348,-1.3361421090415497,-2.523515049611227,6.1353280422981165,1.0116791725158691,-2.6414745489703577
1708436329.941544,-2.1528971195220947,-1.3361672323993226,-2.5235450903521937,6.1352707026298425,1.011667013168335,-2.641427818928854
1708436329.9435875,-2.1529431343078613,-1.3361949038556595,-2.5235241095172327,6.135233390122213,1.0116548538208008,-2.6414909998523157
1708436329.9455416,-2.1528971195220947,-1.3361377728036423,-2.523585621510641,6.135249841004171,1.0116503238677979,-2.6415281931506556
1708436329.947579,-2.152898073196411,-1.336146430378296,-2.5235782305346888,6.135246979981222,1.0116413831710815,-2.6414745489703577
1708436329.9495554,-2.1528801918029785,-1.336158649330475,-2.5235570112811487,6.135208117752828,1.0116503238677979,-2.6414580980883997
1708436329.951544,-2.1528971195220947,-1.3361416322043915,-2.523531500493185,6.135249841004171,1.0117164850234985,-2.641470019017355
1708436329.9535725,-2.1529252529144287,-1.3361705106547852,-2.523552481328146,6.135246979981222,1.0116338729858398,-2.641453806553976
1708436329.9555547,-2.1529147624969482,-1.3361421090415497,-2.523515049611227,6.1352542517478845,1.011663794517517,-2.6415072123156946
1708436329.9575667,-2.1529343128204346,-1.3361542981914063,-2.523531500493185,6.135204779892721,1.0117119550704956,-2.64148193994631
1708436329.9595506,-2.1529228687286377,-1.3361549538424988,-2.5235076586352747,6.1352423308189294,1.0116747617721558,-2.641498390828268
1708436329.9615557,-2.1529362201690674,-1.336142123942711,-2.5235405603991907,6.135209309845724,1.0116910934448242,-2.641453806553976
1708436329.9635947,-2.152909278869629,-1.3361791682294388,-2.523547951375143,6.135237920075216,1.011657953262329,-2.641502920781271
1708436329.9655569,-2.1529059410095215,-1.336162031894066,-2.52356464067568,6.135249841004171,1.01166570186615,-2.6415236631976526
1708436329.9675767,-2.1529476642608643,-1.3361863505891343,-2.523531500493185,6.135275113373556,1.0117149353027344,-2.641477648411886
1708436329.9695868,-2.1529104709625244,-1.3361371469548722,-2.523531500493185,6.135249841004171,1.0117193460464478,-2.641493860875265
1708436329.9715948,-2.1528687477111816,-1.3361543279937287,-2.523581091557638,6.1352289793785,1.0116910934448242,-2.6415165106402796
1708436329.9736123,-2.1529014110565186,-1.3361377877048035,-2.523515049611227,6.135225999146261,1.0116866827011108,-2.64144474664797
1708436329.975574,-2.1529271602630615,-1.3361172390035172,-2.523531500493185,6.1352707026298425,1.0116791725158691,-2.6414580980883997
1708436329.9775863,-2.152893543243408,-1.336133525972702,-2.523573700581686,6.135217058449545,1.011682152748108,-2.641522232686178
1708436329.9795527,-2.1529104709625244,-1.3360969734242936,-2.5235899130450647,6.1352587817008875,1.0117238759994507,-2.641461197529928
1708436329.981565,-2.1529271602630615,-1.3361464154771348,-2.523510519658224,6.135217058449545,1.0117194652557373,-2.6414580980883997
1708436329.9835722,-2.1528661251068115,-1.3361377579024811,-2.52356464067568,6.135235059052267,1.0117030143737793,-2.641486469899313
1708436329.9855652,-2.1529014110565186,-1.3361586344293137,-2.52356464067568,6.13526617267684,1.0116910934448242,-2.641510311757223
1708436329.987583,-2.1528847217559814,-1.3360770654729386,-2.523585621510641,6.135235059052267,1.0116658210754395,-2.64148193994631
1708436329.9895513,-2.1529150009155273,-1.3361586344293137,-2.52354342142214,6.135204779892721,1.011683702468872,-2.6414952913867396
1708436329.9915466,-2.152893543243408,-1.3361334961703797,-2.523606602345602,6.135221588402548,1.0116910934448242,-2.641526762639181
1708436329.9935806,-2.1529014110565186,-1.3361173433116456,-2.523552481328146,6.135164725571432,1.0117573738098145,-2.641502920781271
1708436329.9955478,-2.1529059410095215,-1.3361097586205979,-2.523573700581686,6.1352423308189294,1.0117391347885132,-2.641502920781271
1708436329.9976127,-2.1529147624969482,-1.3361499917558213,-2.523576561604635,6.135209309845724,1.0117193460464478,-2.641493860875265
1708436329.9995537,-2.152906894683838,-1.3361464005759736,-2.523567501698629,6.13526331165389,1.0117193460464478,-2.6414790789233606
1708436330.00155,-2.1528360843658447,-1.3361748170903702,-2.523547951375143,6.135200369149008,1.0117270946502686,-2.6414909998523157
1708436330.0035753,-2.1528801918029785,-1.3361586195281525,-2.523527208958761,6.1352423308189294,1.0117149353027344,-2.641502920781271
1708436330.0055563,-2.1529183387756348,-1.336158649330475,-2.523606602345602,6.135251390724935,1.0116822719573975,-2.6415074507342737
1708436330.0076017,-2.1529147624969482,-1.336170495753624,-2.523547951375143,6.1352423308189294,1.011677622795105,-2.6415000597583216
1708436330.0095625,-2.1528449058532715,-1.3361183118871232,-2.523569170628683,6.135192858963766,1.0117193460464478,-2.641493860875265
1708436330.0115533,-2.1529183387756348,-1.3361044240048905,-2.523572031651632,6.135155784874716,1.0117270946502686,-2.6415191332446497
1708436330.0136316,-2.152893543243408,-1.3361715984395524,-2.523602310811178,6.135176527291097,1.0117316246032715,-2.641510311757223
1708436330.0155773,-2.1528732776641846,-1.3361704659513016,-2.523551050816671,6.1352542517478845,1.0117225646972656,-2.6415191332446497
1708436330.0175717,-2.1529059410095215,-1.336130217914917,-2.523602310811178,6.135200369149008,1.0117104053497314,-2.6415191332446497
1708436330.0195577,-2.1529104709625244,-1.3361457896283646,-2.523576561604635,6.135246979981222,1.0117225646972656,-2.64148193994631
1708436330.021562,-2.1529104709625244,-1.3361714494279404,-2.5235796610461634,6.135209309845724,1.0117483139038086,-2.641468350087301
1708436330.023608,-2.1528449058532715,-1.3361216199449082,-2.523642365132467,6.135233509331503,1.0117225646972656,-2.6415191332446497
1708436330.0255797,-2.152898073196411,-1.3361259561828156,-2.5235887209521692,6.135221588402548,1.011682152748108,-2.64150578180422
1708436330.027577,-2.1528890132904053,-1.3361140203526993,-2.5236199537860315,6.135272252350607,1.0117405652999878,-2.641510311757223
1708436330.0295825,-2.152902364730835,-1.3361500215581437,-2.5235796610461634,6.135200369149008,1.0116939544677734,-2.641502920781271
1708436330.0315573,-2.1529271602630615,-1.3361377579024811,-2.5236080328570765,6.135221588402548,1.0117149353027344,-2.6414909998523157
1708436330.0335715,-2.1528234481811523,-1.3361377579024811,-2.5235751310931605,6.135240781098165,1.0117557048797607,-2.6415236631976526
1708436330.0355833,-2.1528778076171875,-1.3361464005759736,-2.5236244837390345,6.135209309845724,1.0117149353027344,-2.641473118458883
1708436330.0375876,-2.1528890132904053,-1.3361173433116456,-2.5236035029040735,6.135291802674093,1.0117437839508057,-2.6415236631976526
1708436330.0395474,-2.152893543243408,-1.3361335110715409,-2.5235961119281214,6.135204779892721,1.0117392539978027,-2.641531054173605
1708436330.041562,-2.1529431343078613,-1.3361543279937287,-2.5235870520221155,6.135245430260458,1.0117511749267578,-2.641519371663229
1708436330.0435767,-2.1529476642608643,-1.3361500066569825,-2.5236364046679896,6.135257231980123,1.0117058753967285,-2.641576592122213
1708436330.0455585,-2.152951955795288,-1.3361506921103974,-2.5235961119281214,6.135291802674093,1.0117104053497314,-2.6415355841266077
1708436330.0475898,-2.1528890132904053,-1.336179108624794,-2.5235751310931605,6.13526617267684,1.0117316246032715,-2.641514841710226
1708436330.0496044,-2.1528687477111816,-1.3361421388438721,-2.5236290136920374,6.135221588402548,1.0117392539978027,-2.641489569340841
1708436330.0515983,-2.1529386043548584,-1.3361377579024811,-2.5236499945269983,6.135212647705831,1.011764645576477,-2.641498390828268
1708436330.0535538,-2.1528820991516113,-1.3361344647458573,-2.5236454645739954,6.135278451233663,1.0117014646530151,-2.641493860875265
1708436330.0555503,-2.1529104709625244,-1.3361011457494278,-2.5235989729510706,6.135257231980123,1.0117225646972656,-2.641543690358297
1708436330.0575614,-2.1528847217559814,-1.3361542534879227,-2.5236244837390345,6.1352542517478845,1.0117392539978027,-2.641517702733175
1708436330.0595582,-2.1529362201690674,-1.3361335110715409,-2.5235870520221155,6.135245430260458,1.0117149353027344,-2.641489330922262
1708436330.0615616,-2.1529147624969482,-1.3361906868270417,-2.5236170927630823,6.135245430260458,1.0117181539535522,-2.641502920781271
1708436330.063559,-2.1529316902160645,-1.3362068992904206,-2.5236108938800257,6.1352587817008875,1.011764645576477,-2.641522232686178
1708436330.0655787,-2.152923822402954,-1.3361585897258301,-2.5236409346209925,6.1352587817008875,1.0117225646972656,-2.6415393988238733
1708436330.0675633,-2.152893543243408,-1.3361464005759736,-2.5236051718341272,6.135282981186666,1.0117181539535522,-2.641522232686178
1708436330.069565,-2.1528661251068115,-1.3361045283130188,-2.5236244837390345,6.13526617267684,1.0117270946502686,-2.641526762639181
1708436330.0715897,-2.1529014110565186,-1.3361500066569825,-2.5236170927630823,6.135249841004171,1.0117555856704712,-2.6415391604052942
1708436330.073664,-2.1528687477111816,-1.3361463856748124,-2.5235496203051966,6.135240781098165,1.0116850137710571,-2.641580883656637
1708436330.075638,-2.1529059410095215,-1.3361949783614655,-2.5236244837390345,6.135240781098165,1.0117511749267578,-2.641517702733175
1708436330.077603,-2.1529147624969482,-1.336170495753624,-2.5235825220691126,6.135249841004171,1.0117348432540894,-2.6415086428271692
1708436330.0795982,-2.1528687477111816,-1.3361377877048035,-2.5236125628100794,6.135221588402548,1.0117392539978027,-2.6415391604052942
1708436330.0815527,-2.1528890132904053,-1.3361130964807053,-2.5235825220691126,6.135240781098165,1.0117180347442627,-2.6415391604052942
1708436330.0836027,-2.1529183387756348,-1.336117298608162,-2.5236621538745325,6.135249841004171,1.0117392539978027,-2.641517702733175
1708436330.0855532,-2.1528732776641846,-1.3361791384271164,-2.5236199537860315,6.135267722397604,1.0117555856704712,-2.6415420214282435
1708436330.0875754,-2.1528775691986084,-1.3361671578935166,-2.5236290136920374,6.1352542517478845,1.0116685628890991,-2.6415556112872522
1708436330.0895534,-2.152902364730835,-1.3361377877048035,-2.5236364046679896,6.135221588402548,1.0117392539978027,-2.6415465513812464
1708436330.091549,-2.1529104709625244,-1.336162031894066,-2.5236108938800257,6.13526617267684,1.0117557048797607,-2.6415556112872522
1708436330.093592,-2.1528687477111816,-1.3361140352538605,-2.5236080328570765,6.135261761933126,1.0117647647857666,-2.641496721898214
1708436330.0955756,-2.1528890132904053,-1.3361907017282029,-2.5236409346209925,6.1352858422096155,1.0117555856704712,-2.6415885130511683
1708436330.097578,-2.152893543243408,-1.3361542981914063,-2.5236199537860315,6.135336863785543,1.0117557048797607,-2.641493860875265
1708436330.0995593,-2.1528890132904053,-1.3361500364593049,-2.5236290136920374,6.135203587799825,1.0117511749267578,-2.641510311757223
1708436330.1015503,-2.1529059410095215,-1.3361662191203614,-2.5235751310931605,6.135257231980123,1.0117675065994263,-2.641517702733175
1708436330.1035964,-2.1529343128204346,-1.3361464005759736,-2.5236364046679896,6.135290252953329,1.0116968154907227,-2.641522232686178
1708436330.1055596,-2.1528847217559814,-1.3361215603402634,-2.5236364046679896,6.135240781098165,1.0117647647857666,-2.6415465513812464
1708436330.1075838,-2.1529059410095215,-1.3361704808524628,-2.5235825220691126,6.13527392128066,1.0117348432540894,-2.641501251851217
1708436330.1095858,-2.1529147624969482,-1.3361377877048035,-2.5236409346209925,6.135282981186666,1.0117980241775513,-2.64150578180422
1708436330.1115506,-2.1528618335723877,-1.33613774300132,-2.5235825220691126,6.1352319596107385,1.0117915868759155,-2.6415482203113
1708436330.113625,-2.152858257293701,-1.3361629259637375,-2.5236080328570765,6.135208117752828,1.0117466449737549,-2.641543690358297
1708436330.11556,-2.152906894683838,-1.336113141184189,-2.5236199537860315,6.135278451233663,1.01175856590271,-2.6415420214282435
1708436330.117593,-2.152902364730835,-1.3361088198474427,-2.5236199537860315,6.135282981186666,1.01177978515625,-2.6415255705462855
1708436330.1195588,-2.1528661251068115,-1.336211161022522,-2.5235796610461634,6.135249841004171,1.01175856590271,-2.641489330922262
1708436330.1215916,-2.152899980545044,-1.3361629408648987,-2.5236364046679896,6.1352587817008875,1.0117348432540894,-2.641513172780172
1708436330.1236095,-2.1528706550598145,-1.3361662191203614,-2.5235915819751185,6.1352423308189294,1.011775255203247,-2.64150578180422
1708436330.125559,-2.1528797149658203,-1.3361790788224717,-2.5236199537860315,6.135225999146261,1.0117377042770386,-2.641522232686178
1708436330.1275868,-2.1528706550598145,-1.3361500364593049,-2.523660723363058,6.135233509331503,1.0117467641830444,-2.641513172780172
1708436330.1295972,-2.1528661251068115,-1.3361377877048035,-2.5236485640155237,6.135209309845724,1.011775255203247,-2.641543690358297
1708436330.1315691,-2.152871608734131,-1.3361629706672211,-2.5235989729510706,6.135184037476339,1.0117676258087158,-2.641484800969259
1708436330.133559,-2.152845859527588,-1.3360764992288132,-2.5236485640155237,6.13526617267684,1.0117663145065308,-2.64150578180422
1708436330.135563,-2.1528096199035645,-1.3361215901425858,-2.523660723363058,6.135221588402548,1.011742115020752,-2.641453806553976
1708436330.1375706,-2.152810573577881,-1.3361500066569825,-2.523630444203512,6.135197508126058,1.0117707252502441,-2.6414411703692835
1708436330.139557,-2.152769088745117,-1.336170495753624,-2.5236697832690638,6.13519440868453,1.0117707252502441,-2.6414883772479456
1708436330.1415486,-2.1528186798095703,-1.3361388009837647,-2.523660723363058,6.1351990578468225,1.0117708444595337,-2.6414580980883997
1708436330.1435864,-2.1528027057647705,-1.3361345690539856,-2.5236273447619837,6.135153996735372,1.0117827653884888,-2.641412083302633
1708436330.1455545,-2.1527912616729736,-1.3360977929881592,-2.5236318747149866,6.1351826069648645,1.0117827653884888,-2.6413901487933558
1708436330.1475928,-2.1527628898620605,-1.336117298608162,-2.5236485640155237,6.135110485344686,1.0118398666381836,-2.6413946787463587
1708436330.1496177,-2.1527628898620605,-1.3361499917558213,-2.523672644292013,6.135106074600973,1.0118683576583862,-2.641352955495016
1708436330.1515675,-2.1527459621429443,-1.336134524350502,-2.523613754902975,6.135025012284078,1.0118099451065063,-2.6413283983813685
1708436330.1535785,-2.1527457237243652,-1.3360978376916428,-2.523656193410055,6.135013091355123,1.0118639469146729,-2.641320768986837
1708436330.1555786,-2.1526894569396973,-1.3360935312560578,-2.523647133504049,6.134953367501058,1.0118803977966309,-2.641252581273214
1708436330.1575708,-2.1526575088500977,-1.336167262201645,-2.523684565220968,6.134932505875387,1.0119376182556152,-2.641303364430563
1708436330.1595652,-2.152678966522217,-1.336158664231636,-2.523630444203512,6.134918916016378,1.0118908882141113,-2.641243282948629
1708436330.1615858,-2.1526665687561035,-1.3361542981914063,-2.523663584386007,6.134841191559591,1.0119044780731201,-2.6412115732776087
1708436330.1635816,-2.1526551246643066,-1.3361586344293137,-2.523647133504049,6.134803998261251,1.0119030475616455,-2.6411169211017054
1708436330.165548,-2.1526031494140625,-1.3361259263804932,-2.523680035267965,6.134769308357992,1.0119075775146484,-2.641068760548727
1708436330.167547,-2.1525771617889404,-1.336106390958168,-2.523675505314962,6.134749638825216,1.0119448900222778,-2.6410539785968226
1708436330.1695898,-2.1525826454162598,-1.3360934865525742,-2.52369195619692,6.134680974274435,1.0119812488555908,-2.6410093943225306
1708436330.1715758,-2.1525464057922363,-1.3361215752414246,-2.523684565220968,6.1346285221870325,1.011955738067627,-2.6409323851214808
1708436330.1736414,-2.152517080307007,-1.3360822212747117,-2.5237792173968714,6.134614932328024,1.011993169784546,-2.64085561433901
1708436330.175601,-2.152555227279663,-1.3361387711814423,-2.5237370173083704,6.134538757592001,1.0119342803955078,-2.6408007780658167
1708436330.1775627,-2.152494192123413,-1.3361097437194367,-2.5237324873553675,6.134403812676229,1.0119872093200684,-2.640711847935812
1708436330.1795585,-2.152503252029419,-1.3360498261502762,-2.5237188974963587,6.134372222214498,1.0120290517807007,-2.640660587941305
1708436330.1815658,-2.1524670124053955,-1.3360574555448075,-2.523780409489767,6.134339320450582,1.0119962692260742,-2.6405885855304163
1708436330.1835663,-2.152374029159546,-1.336094231610634,-2.523792568837301,6.134295809059896,1.012006402015686,-2.6404786745654505
1708436330.185561,-2.1523616313934326,-1.3361107420972367,-2.523766819630758,6.13419400432662,1.0120534896850586,-2.64036208788027
1708436330.187556,-2.152388334274292,-1.3360660982183,-2.523780409489767,6.134089219361105,1.0120444297790527,-2.640305821095602
1708436330.1895664,-2.152355670928955,-1.3360499006560822,-2.523766819630758,6.134033906250753,1.012080192565918,-2.640198294316427
1708436330.1915731,-2.1523194313049316,-1.3360670369914551,-2.5238166491137903,6.1339454529579065,1.012054681777954,-2.640130583439962
1708436330.193586,-2.1522672176361084,-1.3360422265580674,-2.5238166491137903,6.133894312172689,1.0121209621429443,-2.640026871358053
1708436330.195601,-2.1522648334503174,-1.3359933209470292,-2.5238900820361536,6.13382254818038,1.0121119022369385,-2.639928166066305
1708436330.197576,-2.152224063873291,-1.3360550713590165,-2.5238524119006556,6.133767235070028,1.0121523141860962,-2.639777723942892
1708436330.1995585,-2.1521992683410645,-1.336027057175972,-2.5238524119006556,6.133693802147665,1.0121314525604248,-2.6397088209735315
1708436330.2015786,-2.152118682861328,-1.335986689930298,-2.5238269011126917,6.133665191918173,1.0121933221817017,-2.6395378748523157
1708436330.2035792,-2.1521401405334473,-1.3359380823424836,-2.5238524119006556,6.13349341133193,1.0122292041778564,-2.6394169966327112
1708436330.2056015,-2.152038335800171,-1.3359619242003937,-2.523914162312643,6.133421408921041,1.0122652053833008,-2.63931113878359
1708436330.2075613,-2.1520607471466064,-1.3359227788499375,-2.523862902318136,6.133367526322164,1.0122966766357422,-2.63912016550173
1708436330.2095928,-2.1519758701324463,-1.3359270852855225,-2.5239034334765833,6.133243071823873,1.0123298168182373,-2.639033381138937
1708436330.2115433,-2.1519439220428467,-1.335910515194275,-2.5239408651935022,6.133113133698263,1.0123661756515503,-2.638832155858175
1708436330.2135773,-2.1519246101379395,-1.3358867329410096,-2.5239620844470423,6.133129107743063,1.0123403072357178,-2.6386709848987024
1708436330.2155633,-2.1518654823303223,-1.3359443557313462,-2.5239604155169886,6.133012521057882,1.0124017000198364,-2.638547960911886
1708436330.217565,-2.151803493499756,-1.3359149408391495,-2.52394682565798,6.1328821060951135,1.0123882293701172,-2.63835579553713
1708436330.2195623,-2.1517183780670166,-1.3358953607133408,-2.5239771048175257,6.132840144425192,1.0124576091766357,-2.6382530371295374
1708436330.2216158,-2.151658535003662,-1.3358391684344788,-2.524008337651388,6.132703768997946,1.0124576091766357,-2.6381054560290735
1708436330.2235918,-2.1516637802124023,-1.3358433705619355,-2.523982826863424,6.132632005005636,1.0124530792236328,-2.637887779866354
1708436330.2255754,-2.151576519012451,-1.3358392131379624,-2.52403694788088,6.132531511574545,1.0125057697296143,-2.6376739184008997
1708436330.227585,-2.1515278816223145,-1.3358355176499863,-2.5240638891803187,6.132456767349996,1.0124950408935547,-2.6374953428851526
1708436330.2295523,-2.1515138149261475,-1.3358193051866074,-2.5240564982043665,6.13234161117629,1.0125324726104736,-2.6372740904437464
1708436330.231552,-2.1514391899108887,-1.3357671064189454,-2.524071280156271,6.132155763893881,1.0125188827514648,-2.6370580832110804
1708436330.2335727,-2.1514413356781006,-1.3357998442700882,-2.524112049733297,6.132079589157858,1.0126063823699951,-2.6368022600757044
1708436330.2355418,-2.151344060897827,-1.3357518327287217,-2.524177853261129,6.132029878884115,1.0126047134399414,-2.63663894334902
1708436330.237583,-2.1513168811798096,-1.3357389730266114,-2.5241313616382044,6.131918895035543,1.0126590728759766,-2.636402432118551
1708436330.2395515,-2.151289463043213,-1.335747556095459,-2.5241764227496546,6.131746876030721,1.0126769542694092,-2.636099402104513
1708436330.241544,-2.15120530128479,-1.3357637536576767,-2.5241883436786097,6.131700384407797,1.0127100944519043,-2.6358545462237757
1708436330.2435727,-2.1511940956115723,-1.3357194376042862,-2.524228874837057,6.131626951485433,1.0127716064453125,-2.6356330553637903
1708436330.2455468,-2.1510965824127197,-1.335764692430832,-2.5242272059070032,6.131440031319418,1.012770175933838,-2.6353493372546595
1708436330.2475991,-2.1510579586029053,-1.3357160550406952,-2.5242815653430384,6.131370651512899,1.0128105878829956,-2.6349640528308313
1708436330.2495923,-2.151010274887085,-1.3356920194676896,-2.5242679754840296,6.131246554642477,1.0128138065338135,-2.6347463766681116
1708436330.251556,-2.1509060859680176,-1.3356913191131135,-2.5243383089648646,6.131098615914144,1.01287841796875,-2.6343799273120325
1708436330.2535992,-2.1508495807647705,-1.335668222313263,-2.524349037800924,6.13091145732955,1.0129098892211914,-2.6341336409198206
1708436330.2556164,-2.15081524848938,-1.3356152784875412,-2.524337116871969,6.130870926171102,1.0129669904708862,-2.633791987095968
1708436330.2575703,-2.1507585048675537,-1.3356682521155854,-2.524393860493795,6.130702960282125,1.0130271911621094,-2.6334973017321985
1708436330.2595568,-2.150670289993286,-1.3356358420899888,-2.5243712107287806,6.130586015969076,1.0130631923675537,-2.633073870335714
1708436330.2615647,-2.1506214141845703,-1.3356281083873291,-2.524390761052267,6.130437719612875,1.01308274269104,-2.632758680974142
1708436330.2635868,-2.1505656242370605,-1.3356119108251114,-2.524402681981222,6.130327093392172,1.0131022930145264,-2.6324525515185755
1708436330.2655575,-2.150527238845825,-1.3356125813773652,-2.524414841328756,6.130183088570394,1.0131475925445557,-2.63200551668276
1708436330.2675974,-2.150442123413086,-1.335572601561882,-2.5244460741626185,6.130000698357382,1.0131700038909912,-2.6316660086261194
1708436330.269617,-2.1504318714141846,-1.3355930906585236,-2.524503294621603,6.129928576737203,1.0132362842559814,-2.631244484578268
1708436330.2715595,-2.150315046310425,-1.3354997497848053,-2.524486843739645,6.129829752236166,1.013270616531372,-2.6308284441577356
1708436330.2736793,-2.1502573490142822,-1.3355726164630433,-2.5246172587024134,6.129614817887106,1.013253927230835,-2.630460564290182
1708436330.2755702,-2.1502232551574707,-1.335483507519104,-2.5245724360095423,6.1294996617134,1.013351559638977,-2.6300161520587366
1708436330.2776005,-2.1501641273498535,-1.3354793202928086,-2.5246036688434046,6.129388558655538,1.013383388519287,-2.629599634801046
1708436330.2795997,-2.150116443634033,-1.3354802590659638,-2.5246368090258997,6.129253494530477,1.0134645700454712,-2.6291163603412073
1708436330.281558,-2.150057315826416,-1.335496501331665,-2.524672810231344,6.129084336548605,1.0134929418563843,-2.628681246434347
1708436330.283586,-2.149976968765259,-1.335485265856125,-2.52464729944338,6.129009234696188,1.0135321617126465,-2.628232781087057
1708436330.2855935,-2.149914264678955,-1.3354400259307404,-2.5246923605548304,6.128792512207784,1.0135635137557983,-2.6277268568622034
1708436330.2875853,-2.1498610973358154,-1.3354118925384064,-2.5247164408313196,6.128701913147726,1.0136280059814453,-2.6273322741137903
1708436330.2895617,-2.1497762203216553,-1.3354409349015732,-2.524702850972311,6.12857078292922,1.013676404953003,-2.6268182436572474
1708436330.2915635,-2.149721622467041,-1.3354528707316895,-2.52478534380068,6.128401505738058,1.01376211643219,-2.626349989567892
1708436330.2936013,-2.149662494659424,-1.335392327313759,-2.5248168150531214,6.128347384720602,1.0137890577316284,-2.625864092503683
1708436330.2955685,-2.149576425552368,-1.3353880506804963,-2.5248003641711634,6.128166425019064,1.0138400793075562,-2.625362221394674
1708436330.2976115,-2.149526357650757,-1.3353606027415772,-2.5248451868640345,6.128041970520773,1.0138686895370483,-2.6248942057238978
1708436330.299572,-2.1494901180267334,-1.335355283027031,-2.524797026311056,6.127926456719198,1.0139124393463135,-2.624335829411642
1708436330.301592,-2.1493520736694336,-1.3353562665036698,-2.5248871485339563,6.127775180130758,1.013972520828247,-2.623783890401022
1708436330.3036218,-2.1493043899536133,-1.335376815204956,-2.524896208439962,6.127650844841757,1.0140085220336914,-2.6232057253467005
1708436330.3055608,-2.149261474609375,-1.335320235495903,-2.5248871485339563,6.127523290901937,1.0140984058380127,-2.6227226893054407
1708436330.3075821,-2.149238348007202,-1.3352796149304886,-2.524939839039938,6.127387392311849,1.0141212940216064,-2.62209922472109
1708436330.3095806,-2.1491589546203613,-1.3352844429067154,-2.524972740803854,6.127214181214132,1.014143705368042,-2.6215365568744105
1708436330.3115616,-2.1490581035614014,-1.335365818147995,-2.5249710718738,6.127091038018026,1.014229416847229,-2.6209846178637903
1708436330.313579,-2.1490261554718018,-1.3353301298669358,-2.5250209013568323,6.126926767617025,1.014244556427002,-2.62044865289797
1708436330.3155546,-2.148975133895874,-1.335301012997963,-2.5250657240497034,6.126844990044393,1.0143542289733887,-2.6197989622699183
1708436330.3175597,-2.14890718460083,-1.3353301298669358,-2.525059525166647,6.126741516381063,1.014369249343872,-2.6192103067981165
1708436330.3195958,-2.1488423347473145,-1.3352649819901963,-2.525133196507589,6.12658570983962,1.0144202709197998,-2.6186302343951624
1708436330.3215766,-2.1488049030303955,-1.3352692884257813,-2.525079075490133,6.126388656883993,1.014460802078247,-2.6180012861834925
1708436330.3235576,-2.1486897468566895,-1.3352246445468445,-2.5251601378070276,6.126271712570944,1.0145421028137207,-2.617331568394796
1708436330.325546,-2.1486687660217285,-1.3352246147445221,-2.525224510823385,6.1261398670967,1.0145645141601562,-2.616699520741598
1708436330.327544,-2.148621082305908,-1.3352692884257813,-2.525233570729391,6.12598882892684,1.0146756172180176,-2.615971628819601
1708436330.3295527,-2.1485893726348877,-1.3352128130248566,-2.5252562204944056,6.125884401589193,1.0146727561950684,-2.615389887486593
1708436330.331593,-2.1484692096710205,-1.3351760518601914,-2.5252230803119105,6.125826227455892,1.0147627592086792,-2.6147125403033655
1708436330.3335576,-2.1484203338623047,-1.335257963543274,-2.525329653416769,6.125677931099691,1.0147945880889893,-2.614028517399923
1708436330.3355396,-2.148364782333374,-1.3352299195579072,-2.5253611246692103,6.125522005348959,1.0148124694824219,-2.6132779757129114
1708436330.3375423,-2.1482675075531006,-1.3352018159678956,-2.5253401438342493,6.125405180245199,1.0149359703063965,-2.6125949064837855
1708436330.3395467,-2.148242235183716,-1.335209683781006,-2.5253761450396937,6.125257003098287,1.0150091648101807,-2.6118484179126185
1708436330.3415952,-2.1481447219848633,-1.335194156771042,-2.525400225316183,6.125178921013632,1.0150483846664429,-2.611152235661642
1708436330.3435588,-2.148113965988159,-1.3351409149220963,-2.525403086339132,6.125014173775472,1.0150244235992432,-2.6103983561145228
1708436330.3455408,-2.1480469703674316,-1.3351531636765976,-2.5254738966571253,6.124981391220846,1.0150980949401855,-2.609744135533468
1708436330.3475664,-2.147932767868042,-1.3351617467454453,-2.5255544821368616,6.124765860825338,1.015134334564209,-2.608967129384176
1708436330.3495615,-2.1478724479675293,-1.3351172369769593,-2.525519911442892,6.124657857209005,1.0151851177215576,-2.6083129088031214
1708436330.3515518,-2.147874593734741,-1.3351419580033799,-2.5255425612079065,6.124596345215597,1.0153011083602905,-2.6075475851642054
1708436330.353572,-2.1477975845336914,-1.3351333749345322,-2.5255754629718226,6.124500500946798,1.0153071880340576,-2.6067989508258265
1708436330.3555672,-2.1477060317993164,-1.3351386052421113,-2.5256789366351526,6.1243523237998865,1.0153882503509521,-2.606100384389059
1708436330.3575833,-2.1476175785064697,-1.3350652319243927,-2.5256972948657435,6.124199497490682,1.0154061317443848,-2.605314079915182
1708436330.359555,-2.1475729942321777,-1.3350572449019928,-2.5256593863116663,6.124148714333334,1.0154677629470825,-2.6044889132129114
1708436330.361559,-2.147559404373169,-1.3350738000920792,-2.5257328192340296,6.124024259835043,1.0155160427093506,-2.6037545839892786
1708436330.3635957,-2.147493600845337,-1.335094304089882,-2.525759998952047,6.12387894371108,1.0155622959136963,-2.6029003302203577
1708436330.3655713,-2.1474549770355225,-1.3350824278644104,-2.525759998952047,6.123858082085409,1.0156104564666748,-2.6021369139300745
1708436330.3675888,-2.147379159927368,-1.3350377839854737,-2.5258198420154017,6.123745786934652,1.0156961679458618,-2.6013124624835413
1708436330.3695695,-2.1473233699798584,-1.3350128543427964,-2.525827471409933,6.123626100807943,1.015739917755127,-2.6004367510425013
1708436330.3715763,-2.1472971439361572,-1.33504971981559,-2.5259342829333704,6.1235166666801355,1.0157877206802368,-2.5995927492724817
1708436330.373639,-2.147256374359131,-1.3349963438561936,-2.5258901754962366,6.123426663666525,1.015885829925537,-2.598755661641256
1708436330.3756058,-2.1471235752105713,-1.3349888634732743,-2.5259326140033167,6.123307096749105,1.0159200429916382,-2.59788686433901
1708436330.377588,-2.147120237350464,-1.3350463670543213,-2.525968376790182,6.1231809733207605,1.0159518718719482,-2.5969887415515345
1708436330.3795927,-2.14707612991333,-1.335006059413292,-2.5259833971606653,6.123073208123007,1.0160452127456665,-2.5961058775531214
1708436330.3815758,-2.147019624710083,-1.3349739474109192,-2.5259743372546595,6.123002755432882,1.0160434246063232,-2.5952613989459437
1708436330.3835778,-2.146984338760376,-1.3350591969541092,-2.5260403792010706,6.122894990235128,1.0161484479904175,-2.594440523778097
1708436330.3855584,-2.1469409465789795,-1.3350179952434083,-2.526093069707052,6.122790205269613,1.016180157661438,-2.59353214899172
1708436330.3875642,-2.146852731704712,-1.3350060743144532,-2.526088539754049,6.122764813690939,1.016219139099121,-2.592693869267599
1708436330.3895698,-2.146808385848999,-1.3350222718766709,-2.5261078516589563,6.1226104376609705,1.0163620710372925,-2.591818873082296
1708436330.3915641,-2.146796941757202,-1.3349824410727997,-2.526176993046896,6.122559296875753,1.0163486003875732,-2.590881888066427
1708436330.393848,-2.146749258041382,-1.3350060743144532,-2.526175324116842,6.122460591584005,1.0163922309875488,-2.5899205843554896
1708436330.395565,-2.1466970443725586,-1.3349487495473404,-2.5261827150927942,6.122375356941976,1.0164659023284912,-2.589062039052145
1708436330.3975866,-2.146658420562744,-1.3349659454873581,-2.5262654463397425,6.122300374298849,1.0165046453475952,-2.588163201008932
1708436330.399572,-2.1466097831726074,-1.3349653643420716,-2.526280466710226,6.122216808586874,1.0165573358535767,-2.587250534688131
1708436330.4015648,-2.1465725898742676,-1.3350136441043396,-2.5263238588916224,6.1220672009284876,1.0166056156158447,-2.586369578038351
1708436330.4035966,-2.146529197692871,-1.3350136292031785,-2.5263193289386194,6.122044551163473,1.0166656970977783,-2.5854666868792933
1708436330.4055736,-2.1464951038360596,-1.334970311527588,-2.5263689200030726,6.12196837642745,1.0166971683502197,-2.5845301787005823
1708436330.4075644,-2.1464169025421143,-1.3350073111108323,-2.526393000279562,6.121922361641683,1.0167665481567383,-2.5835965315448206
1708436330.4095562,-2.146435022354126,-1.3349986684373398,-2.52643329301943,6.121821987419882,1.0168054103851318,-2.5826292673694056
1708436330.411565,-2.1463828086853027,-1.3349130761674424,-2.5264738241778772,6.121762382775106,1.0168581008911133,-2.581688467656271
1708436330.4136052,-2.1463544368743896,-1.3349824708751221,-2.5264933745013636,6.12164996841506,1.0168986320495605,-2.580698076878683
1708436330.415573,-2.1462819576263428,-1.3349745881608506,-2.526482645665304,6.121572124748983,1.0169917345046997,-2.5797675291644495
1708436330.4175892,-2.1462411880493164,-1.3350030344775696,-2.526499334965841,6.1215470907981775,1.017005205154419,-2.5788593927966517
1708436330.4195945,-2.146193742752075,-1.3349379164031525,-2.5265443960772913,6.121479856758871,1.0170836448669434,-2.578036371861593
1708436330.4215634,-2.1461708545684814,-1.3349173378995438,-2.5266013781176966,6.121401893883505,1.0170893669128418,-2.5770798365222376
1708436330.423593,-2.1461503505706787,-1.3349551123431702,-2.526625458394186,6.121337640076437,1.0172126293182373,-2.576146904622213
1708436330.4255676,-2.1461026668548584,-1.334983156328537,-2.526611868535177,6.121246087342062,1.0172066688537598,-2.5751593748675745
1708436330.4276175,-2.146087884902954,-1.3349875223687668,-2.5266762415515345,6.121277558594503,1.0172593593597412,-2.574285332356588
1708436330.429572,-2.1460659503936768,-1.3349507463029404,-2.5266626516925257,6.121152150421896,1.0173120498657227,-2.573293987904684
1708436330.4315677,-2.145941734313965,-1.3349345487407227,-2.526691261922018,6.121025192528524,1.017374873161316,-2.5723148028003138
1708436330.4336019,-2.1459641456604004,-1.3349217039397736,-2.526752773915426,6.121049153595724,1.017423152923584,-2.571352783833639
1708436330.435582,-2.145862340927124,-1.3349259954741974,-2.5267751852618616,6.1209683296974084,1.0174500942230225,-2.5704126993762415
1708436330.4375665,-2.1458330154418945,-1.3349223893931885,-2.5268035570727747,6.120892274170675,1.0174652338027954,-2.569385353718893
1708436330.4395583,-2.1457979679107666,-1.3349180233529587,-2.526836935673849,6.120820390969076,1.0176094770431519,-2.5683749357806605
1708436330.4416087,-2.1458122730255127,-1.3348985475352784,-2.5268426577197474,6.120810019760885,1.017611026763916,-2.5673657099353235
1708436330.4435687,-2.1457724571228027,-1.3349061918309708,-2.5268967787372034,6.1207079766090295,1.017626166343689,-2.566348139439718
1708436330.4455636,-2.1457014083862305,-1.334901825790741,-2.5269208590136927,6.120653140335836,1.0177074670791626,-2.565336052571432
1708436330.4475708,-2.145684003829956,-1.334901825790741,-2.526914660130636,6.120663630753317,1.0177597999572754,-2.564284626637594
1708436330.4495583,-2.145688533782959,-1.334902824168541,-2.5269625822650355,6.120602237969198,1.0178242921829224,-2.563268009816305
1708436330.4515903,-2.1456239223480225,-1.334837020640709,-2.5270662943469446,6.120570885926046,1.0178558826446533,-2.5621591250049036
1708436330.45359,-2.1456239223480225,-1.3349223893931885,-2.527057472859518,6.120473491936483,1.017906904220581,-2.5611584822284144
1708436330.455577,-2.1455957889556885,-1.334914745097496,-2.527043883000509,6.120467889099874,1.0179097652435303,-2.5601168314563196
1708436330.4575748,-2.145535469055176,-1.334878073339798,-2.5271006266223353,6.120403277664938,1.0180168151855469,-2.5591114203082483
1708436330.4595718,-2.145519495010376,-1.3348866266063233,-2.5271034876452845,6.1202971813972376,1.018022894859314,-2.5579546133624476
1708436330.4616125,-2.1455624103546143,-1.334878073339798,-2.527118508015768,6.1202748892600916,1.018087387084961,-2.5569523016559046
1708436330.46356,-2.1454899311065674,-1.3349071008018036,-2.527168099080221,6.120259749680319,1.0181233882904053,-2.555878464375631
1708436330.465563,-2.145423173904419,-1.334848941569664,-2.5271664301501673,6.120200145035543,1.0182045698165894,-2.5548298994647425
1708436330.4675627,-2.1453680992126465,-1.334878073339798,-2.5271952787982386,6.120110499649801,1.0182483196258545,-2.5536392370807093
1708436330.46956,-2.1453731060028076,-1.334890903239586,-2.5272281805621546,6.120087849884786,1.018312931060791,-2.552636448537008
1708436330.4715648,-2.1454081535339355,-1.3349266660264512,-2.527250353490011,6.120005833893575,1.0183775424957275,-2.551537100468771
1708436330.4736044,-2.1452882289886475,-1.3349061918309708,-2.5273121039019983,6.120004164963522,1.0184043645858765,-2.5504379908191126
1708436330.4756217,-2.1452927589416504,-1.334889994268753,-2.5273314158069056,6.1199426529701135,1.0184948444366455,-2.5492923895465296
1708436330.4775798,-2.145240545272827,-1.3348823499730607,-2.527379576359884,6.119916069298544,1.0185786485671997,-2.5482104460345667
1708436330.47959,-2.1452248096466064,-1.3348618608764191,-2.5273869673358362,6.119914638787069,1.0185515880584717,-2.547127072011129
1708436330.4815667,-2.1452176570892334,-1.334963620906212,-2.5273945967303675,6.119817244797506,1.0186536312103271,-2.546018187199728
1708436330.4835649,-2.1451644897460938,-1.3348694157651444,-2.5274487177478235,6.119784700661459,1.0186973810195923,-2.5449753443347376
1708436330.485571,-2.145129442214966,-1.3348694157651444,-2.527491871510641,6.119774091034689,1.0187623500823975,-2.5438812414752405
1708436330.4875672,-2.1451427936553955,-1.3348866266063233,-2.527461830769674,6.119689214020529,1.0188298225402832,-2.5427373091327112
1708436330.4895651,-2.145085096359253,-1.3349190217307587,-2.5275145212756556,6.1196457026298425,1.0188539028167725,-2.54167086282839
1708436330.4916153,-2.1450374126434326,-1.334902824168541,-2.5275428930865687,6.119642483979025,1.0188732147216797,-2.540588919316427
1708436330.4935915,-2.1450181007385254,-1.3348413866809388,-2.527583662663595,6.119582879334249,1.0189743041992188,-2.5394135157214563
1708436330.4955597,-2.144965887069702,-1.3348627847484131,-2.5276194254504603,6.119505035668173,1.0190430879592896,-2.53818923631777
1708436330.4975915,-2.1449906826019287,-1.3348413866809388,-2.5276766459094446,6.119469034462728,1.0190986394882202,-2.5370383898364466
1708436330.4995675,-2.144918203353882,-1.3348747056773682,-2.527663056050436,6.119504916458883,1.0191558599472046,-2.5359275976764124
1708436330.501553,-2.1448776721954346,-1.3348747056773682,-2.527707878743307,6.1193944094474695,1.0191737413406372,-2.534719769154684
1708436330.5035613,-2.144836902618408,-1.334890903239586,-2.5277560392962855,6.119419801026144,1.0192383527755737,-2.533527437840597
1708436330.505587,-2.144834280014038,-1.3348618608764191,-2.5277679602252405,6.119313704758444,1.0193359851837158,-2.5323622862445276
1708436330.5075686,-2.144777536392212,-1.334889994268753,-2.5278459231006067,6.119274604111471,1.0193437337875366,-2.5312238375293177
1708436330.5095973,-2.1447787284851074,-1.3348704290441056,-2.527848784123556,6.119247901230612,1.0193828344345093,-2.5300095717059534
1708436330.5115979,-2.144721031188965,-1.3348866266063233,-2.5278804937945765,6.119186389237203,1.0194638967514038,-2.5288897196399134
1708436330.5135596,-2.144672393798828,-1.3348876249841233,-2.5278623739825647,6.11914752700881,1.019498586654663,-2.5277021566974085
1708436330.515558,-2.1446621417999268,-1.3348747056773682,-2.52794319788088,6.11908649185256,1.0195590257644653,-2.5264793078051966
1708436330.5175745,-2.1446337699890137,-1.3348876249841233,-2.5279811064349573,6.119087922364034,1.0196354389190674,-2.5252707640277308
1708436330.5196128,-2.144578218460083,-1.334838019018509,-2.5280004183398646,6.11905192115859,1.0196877717971802,-2.5240729490863245
1708436330.5215974,-2.144580125808716,-1.3348423105529328,-2.527961317692892,6.118929374008932,1.0197899341583252,-2.5228338877307337
1708436330.5235693,-2.1445462703704834,-1.3348542314818879,-2.5280228296863,6.118928062706747,1.0198110342025757,-2.521582905446188
1708436330.525562,-2.1444973945617676,-1.3349517595819016,-2.5280707518206995,6.118875968247213,1.0199178457260132,-2.5204268137561243
1708436330.527558,-2.144524335861206,-1.3348465871861954,-2.528111521397726,6.118857848435201,1.0199450254440308,-2.5191713015185755
1708436330.5295584,-2.14444637298584,-1.3348552298596879,-2.528168265019552,6.118817317276754,1.0200051069259644,-2.5179413000689905
1708436330.5315657,-2.1444315910339355,-1.3348757040551682,-2.5281501452075403,6.118769633560934,1.0200231075286865,-2.5167046228991907
1708436330.5336058,-2.1443796157836914,-1.3348300617984314,-2.5282164255725306,6.11869631984786,1.0201445817947388,-2.51552659669985
1708436330.5355775,-2.144343137741089,-1.3348465871861954,-2.528268877659933,6.118645417481222,1.0202140808105469,-2.5142949263202112
1708436330.5375576,-2.144312858581543,-1.3348423105529328,-2.528255287800924,6.1185794947441,1.02023184299469,-2.51315147081484
1708436330.5395436,-2.144277572631836,-1.3348951798728486,-2.5282941500293177,6.1186139462287805,1.0202996730804443,-2.5118773619281214
1708436330.5415795,-2.1442625522613525,-1.3349113476327439,-2.528376881276266,6.118521559029379,1.0204347372055054,-2.5106821695910853
1708436330.543556,-2.144223928451538,-1.3348542314818879,-2.528363291417257,6.118536221771993,1.0204575061798096,-2.5094385782824915
1708436330.545551,-2.144200086593628,-1.3348704290441056,-2.5284233728991907,6.118475186615743,1.0205460786819458,-2.5082297960864466
1708436330.5475655,-2.1441547870635986,-1.3348747056773682,-2.528442684804098,6.118333327561178,1.0206016302108765,-2.5069151560412806
1708436330.5495646,-2.1441426277160645,-1.3348627847484131,-2.5285044352160853,6.118388283043661,1.0206785202026367,-2.5057223478900355
1708436330.5515652,-2.1441445350646973,-1.3348670464805146,-2.5285735766040247,6.118364798813619,1.0207552909851074,-2.504359308873312
1708436330.5535872,-2.1440584659576416,-1.3348337423852463,-2.52860933939089,6.118232595711508,1.0208148956298828,-2.5030322710620325
1708436330.5555577,-2.1440367698669434,-1.334890903239586,-2.5286410490619105,6.118158328324117,1.0208615064620972,-2.501671854649679
1708436330.5575843,-2.143986940383911,-1.3348138642362137,-2.5286558310138147,6.118167269020834,1.0209836959838867,-2.500399414693014
1708436330.559558,-2.143951892852783,-1.3348618608764191,-2.528658692036764,6.118029582291403,1.0210148096084595,-2.499064270650045
1708436330.5615978,-2.1438987255096436,-1.3348300617984314,-2.5287562052356165,6.118047582894125,1.0210044384002686,-2.497733179722921
1708436330.5635827,-2.1439130306243896,-1.3348138642362137,-2.528775755559103,6.117992388993063,1.0211424827575684,-2.4964316526996058
1708436330.5655618,-2.1438112258911133,-1.334850863819458,-2.528811756764547,6.1178908226783655,1.0212267637252808,-2.4950698057757776
1708436330.567591,-2.143746852874756,-1.3348423105529328,-2.5288599173175257,6.117835151940145,1.0212823152542114,-2.4936376253711146
1708436330.5696137,-2.1437602043151855,-1.3348747056773682,-2.528895680104391,6.117812859802999,1.0214040279388428,-2.492276732121603
1708436330.5715654,-2.143765687942505,-1.3348542314818879,-2.5289090315448206,6.117659199028768,1.0214461088180542,-2.490869108830587
1708436330.5736117,-2.143684148788452,-1.3348595064929505,-2.5289631525622767,6.117602216988363,1.02153480052948,-2.4894755522357386
1708436330.5756385,-2.143697500228882,-1.334796742802002,-2.529044214879171,6.117593157082357,1.0216283798217773,-2.488073174153463
1708436330.5776913,-2.143620491027832,-1.3348627847484131,-2.5290709177600306,6.117554294853964,1.0216625928878784,-2.4866579214679163
1708436330.579579,-2.143601179122925,-1.3348627847484131,-2.5291476885425013,6.117477881699362,1.0217468738555908,-2.4853466192828577
1708436330.5815458,-2.143552541732788,-1.3348429811051865,-2.5291596094714563,6.117401945381918,1.0218431949615479,-2.4839022795306605
1708436330.5835729,-2.143517255783081,-1.334867076282837,-2.5292075316058558,6.117289531021871,1.0219364166259766,-2.4826038519488733
1708436330.5855732,-2.1434741020202637,-1.334850863819458,-2.529210631047384,6.117187964707174,1.0220370292663574,-2.481114212666647
1708436330.5875525,-2.143369197845459,-1.334891916518547,-2.5292659441577356,6.117123591690817,1.0220835208892822,-2.479748074208395
1708436330.5895715,-2.143320083618164,-1.3348300617984314,-2.5293095747577112,6.117016064911642,1.0221692323684692,-2.4783151785479944
1708436330.591567,-2.1433167457580566,-1.3348994714072724,-2.5294087568866175,6.11698197105483,1.022294282913208,-2.4769676367389124
1708436330.5935621,-2.1432902812957764,-1.3347986799529572,-2.5294161478625696,6.116963851242819,1.0223617553710938,-2.4754753748523157
1708436330.5955462,-2.1432347297668457,-1.3347900968841095,-2.5294671694384974,6.11688922622756,1.02240788936615,-2.474084202443258
1708436330.597571,-2.1431825160980225,-1.3348429811051865,-2.5295148531543177,6.116730558663168,1.022541880607605,-2.4726246039019983
1708436330.599552,-2.143087863922119,-1.3348225069097062,-2.529551092778341,6.1167019484336755,1.02263343334198,-2.471133295689718
1708436330.6015465,-2.1431076526641846,-1.3348552298596879,-2.5296321550952356,6.116603481560507,1.0227175951004028,-2.469619099293844
1708436330.603561,-2.143035411834717,-1.3348300617984314,-2.52971321741213,6.116531836777487,1.0227687358856201,-2.4681878725634974
1708436330.6055727,-2.142981767654419,-1.3348756444505234,-2.5297353903399866,6.116430508881368,1.0229145288467407,-2.466616694127218
1708436330.607563,-2.142930746078491,-1.3347857308438797,-2.529767100011007,6.11637173870162,1.0230106115341187,-2.4650798479663294
1708436330.6095824,-2.1428627967834473,-1.3348595064929505,-2.5298736731158655,6.116259801178732,1.0230828523635864,-2.4634955565081995
1708436330.6115477,-2.1427881717681885,-1.3348225069097062,-2.529904905949728,6.116209018021383,1.0231988430023193,-2.462017599736349
1708436330.6135657,-2.14274525642395,-1.3348472577384491,-2.5298944155322474,6.116153466492452,1.0233008861541748,-2.4604678789721888
1708436330.615564,-2.1426949501037598,-1.3348397028497239,-2.530004088078634,6.116089570313253,1.023392677307129,-2.458837095891134
1708436330.617606,-2.142664909362793,-1.3348063093474885,-2.5300307909594935,6.115953314095297,1.0234346389770508,-2.457268540059225
1708436330.61955,-2.1426289081573486,-1.334868074660637,-2.530066792164938,6.115953194886007,1.023564100265503,-2.4556766192065638
1708436330.6215582,-2.142526865005493,-1.3347735714963456,-2.530102793370382,6.115805375366964,1.0236736536026,-2.454078737889425
1708436330.6235623,-2.142479419708252,-1.3348670613816758,-2.530137364064352,6.11575602272109,1.0237442255020142,-2.4526200930224817
1708436330.6255763,-2.142397880554199,-1.334798665051796,-2.530252997075216,6.115664827614584,1.0238902568817139,-2.4510484377490442
1708436330.6275644,-2.1423590183258057,-1.3347943884185334,-2.5302873293506067,6.115530240326681,1.0239574909210205,-2.449493471776144
1708436330.6295936,-2.142331838607788,-1.3348235052875062,-2.5302932898150843,6.115492808609762,1.0240281820297241,-2.447965447102682
1708436330.631563,-2.142265796661377,-1.3348267835429688,-2.5304282347308558,6.115343200951376,1.024169683456421,-2.4464638868915003
1708436330.6335669,-2.142134666442871,-1.3348552298596879,-2.530480925236837,6.115247595101156,1.024213194847107,-2.444946829472677
1708436330.635608,-2.142134189605713,-1.3347705465606232,-2.5305033365832728,6.115151989250936,1.0242958068847656,-2.4433656374560755
