Eg3-git/Classifiers/Data Collection/u4/u4star2_ur3e_joint_states.csv
time,elbow_joint,shoulder_lift_joint,shoulder_pan_joint,wrist_1_joint,wrist_2_joint,wrist_3_joint
1708436275.5872295,-2.150982141494751,-1.3366957616857071,-2.5277696291552942,6.134580719261923,1.0194752216339111,-2.584477249776022
1708436275.589198,-2.150949478149414,-1.3366670918515702,-2.5278037230121058,6.134598600655355,1.0194220542907715,-2.584414784108297
1708436275.5912068,-2.151019334793091,-1.3367160272649308,-2.5278037230121058,6.134630071907797,1.0194177627563477,-2.584477249776022
1708436275.593254,-2.150982141494751,-1.3366628301194687,-2.527766291295187,6.134614932328024,1.0194664001464844,-2.584428612385885
1708436275.5951962,-2.1510190963745117,-1.3367279034904023,-2.5277786890613,6.134619343071737,1.0194134712219238,-2.584472958241598
1708436275.5972266,-2.1509952545166016,-1.3367531907609482,-2.52775746980776,6.134619343071737,1.0193849802017212,-2.5844536463366907
1708436275.5991974,-2.1509652137756348,-1.3366837811521073,-2.527774159108297,6.134594070702352,1.0194220542907715,-2.5844951311694544
1708436275.6011987,-2.151014804840088,-1.3366749596646805,-2.5278292338000696,6.1346014616783044,1.0194141864776611,-2.5844035784350794
1708436275.6032076,-2.1510262489318848,-1.336686835890152,-2.527787510548727,6.13461052158431,1.0194544792175293,-2.5843945185290735
1708436275.6052432,-2.1509909629821777,-1.3367159974626084,-2.527761999760763,6.134639012604513,1.019389271736145,-2.584412399922506
1708436275.6072252,-2.151019334793091,-1.3367086958936234,-2.527766291295187,6.134647953301229,1.0194177627563477,-2.5844109694110315
1708436275.6092014,-2.1509742736816406,-1.3367028695395966,-2.5277531782733362,6.134639012604513,1.0194339752197266,-2.5844536463366907
1708436275.611193,-2.1510305404663086,-1.3367770177176972,-2.5277708212481897,6.134626853256979,1.0194177627563477,-2.5844367186175745
1708436275.6132245,-2.1510121822357178,-1.3367400628379364,-2.5277696291552942,6.13467167594985,1.0194458961486816,-2.584444824849264
1708436275.6152027,-2.151007890701294,-1.3366924089244385,-2.5277786890613,6.134622323303976,1.0194177627563477,-2.5844698588000696
1708436275.6171937,-2.1509785652160645,-1.3367365163615723,-2.527782980595724,6.1346133826072595,1.0194382667541504,-2.5844743887530726
1708436275.6192377,-2.150949478149414,-1.3367400926402588,-2.5277589003192347,6.134668814926901,1.0194588899612427,-2.584456745778219
1708436275.6212466,-2.150965452194214,-1.3367489290288468,-2.5277696291552942,6.134582149773397,1.019356608390808,-2.5844278971301478
1708436275.623226,-2.1509671211242676,-1.3367279481938859,-2.52775746980776,6.1346179125602625,1.0193969011306763,-2.5844536463366907
1708436275.6252065,-2.1509909629821777,-1.3367116463235398,-2.5277918020831507,6.134659874230184,1.0194458961486816,-2.5844321886645716
1708436275.627235,-2.150954008102417,-1.3367279332927247,-2.52775746980776,6.13461052158431,1.0194296836853027,-2.5844321886645716
1708436275.629198,-2.1509997844696045,-1.3366868805936356,-2.527766291295187,6.134626853256979,1.0194011926651,-2.5844367186175745
1708436275.6312084,-2.1509740352630615,-1.3367291700891037,-2.527745548878805,6.134668814926901,1.0194382667541504,-2.584444824849264
1708436275.6332395,-2.151003360748291,-1.3366957020810624,-2.527787510548727,6.134607422142782,1.0194382667541504,-2.5844035784350794
1708436275.635194,-2.151007652282715,-1.3367234778455277,-2.527774159108297,6.134652364044943,1.0194220542907715,-2.5844863096820276
1708436275.6372192,-2.150949478149414,-1.3367160123637696,-2.527790371571676,6.1346356747444055,1.0194134712219238,-2.584444824849264
1708436275.6392262,-2.151007890701294,-1.3366956871799012,-2.527811590825216,6.134585130005636,1.0194264650344849,-2.5844455401050013
1708436275.641187,-2.1509625911712646,-1.336719126706459,-2.527754608784811,6.134664404183187,1.0194501876831055,-2.5844367186175745
1708436275.643245,-2.1509652137756348,-1.3367028844407578,-2.527782980595724,6.134603011399069,1.0194501876831055,-2.584444824849264
1708436275.6452403,-2.151003360748291,-1.3367234778455277,-2.5277786890613,6.134626853256979,1.0194588899612427,-2.5843990484820765
1708436275.6472611,-2.151007652282715,-1.3367043298533936,-2.5277589003192347,6.1345910904701135,1.0194544792175293,-2.5844197908984583
1708436275.6492667,-2.150953769683838,-1.336757482295372,-2.5278037230121058,6.134607422142782,1.0193936824798584,-2.5844698588000696
1708436275.6512084,-2.1510190963745117,-1.3367159974626084,-2.527836624776022,6.134585130005636,1.0194134712219238,-2.584423605595724
1708436275.6532106,-2.150954008102417,-1.336740956907608,-2.527782980595724,6.134673225670614,1.0194090604782104,-2.5844066778766077
1708436275.6551933,-2.150986433029175,-1.336683766250946,-2.527811590825216,6.1345866797264,1.0194544792175293,-2.5843990484820765
1708436275.6572118,-2.1510043144226074,-1.336757556801178,-2.527823273335592,6.134664404183187,1.0194220542907715,-2.5844109694110315
1708436275.6591926,-2.1509740352630615,-1.3367147606662293,-2.5277860800372522,6.1345866797264,1.019389271736145,-2.5844698588000696
1708436275.6612382,-2.1510324478149414,-1.3366705936244507,-2.527799193059103,6.134656893997946,1.0194501876831055,-2.5843873659717005
1708436275.6632223,-2.1509909629821777,-1.3366880726865311,-2.527766291295187,6.134643542557516,1.0194501876831055,-2.5844197908984583
1708436275.6651976,-2.1509652137756348,-1.3367488545230408,-2.52775746980776,6.134577739029684,1.019425392150879,-2.5843947569476526
1708436275.6672018,-2.150958299636841,-1.3367279332927247,-2.5277786890613,6.13467167594985,1.019405484199524,-2.5844243208514612
1708436275.669194,-2.150954008102417,-1.3367072504809876,-2.527787510548727,6.134598600655355,1.0194091796875,-2.5844243208514612
1708436275.6711812,-2.1510167121887207,-1.3367322546294709,-2.5277786890613,6.1345956204231165,1.0194532871246338,-2.5844321886645716
1708436275.673216,-2.1509652137756348,-1.3367234629443665,-2.527745548878805,6.134647953301229,1.0194296836853027,-2.5844197908984583
1708436275.675189,-2.150958299636841,-1.33666284502063,-2.527766291295187,6.134647953301229,1.0194751024246216,-2.584412399922506
1708436275.6772213,-2.1509671211242676,-1.336700053220131,-2.5278006235705774,6.134582149773397,1.0194339752197266,-2.584412399922506
1708436275.6791868,-2.1509909629821777,-1.3366880428842087,-2.527790371571676,6.134614932328024,1.019425392150879,-2.5844698588000696
1708436275.6811905,-2.150986671447754,-1.3367531162551423,-2.527811590825216,6.134603011399069,1.0194501876831055,-2.5844786802874964
1708436275.6832469,-2.1510281562805176,-1.3367234480432053,-2.52781588235964,6.134647953301229,1.0194134712219238,-2.5844152609454554
1708436275.6851952,-2.1509671211242676,-1.3367575419000168,-2.527774159108297,6.134626853256979,1.0194501876831055,-2.5844152609454554
1708436275.6871974,-2.151007890701294,-1.3367651861957093,-2.5278189818011683,6.134655344277181,1.0194458961486816,-2.5843754450427454
1708436275.6891959,-2.1509671211242676,-1.336724655037262,-2.5277786890613,6.134603011399069,1.0194134712219238,-2.5844367186175745
1708436275.6911855,-2.150998830795288,-1.3367400628379364,-2.5277634302722376,6.134603011399069,1.019425392150879,-2.5844367186175745
1708436275.6932,-2.1509945392608643,-1.336757556801178,-2.5277786890613,6.134622323303976,1.0194664001464844,-2.584412399922506
1708436275.6951904,-2.1509954929351807,-1.3367043149522324,-2.527799193059103,6.134644734650411,1.0194664001464844,-2.5844197908984583
1708436275.6972039,-2.1509625911712646,-1.3366957020810624,-2.5277918020831507,6.134594070702352,1.019420862197876,-2.5844064394580286
1708436275.699215,-2.1510164737701416,-1.3367488992265244,-2.527761999760763,6.134577739029684,1.0194578170776367,-2.5844197908984583
1708436275.7011971,-2.1509909629821777,-1.3367651414922257,-2.527782980595724,6.134598600655355,1.019420862197876,-2.58441669145693
1708436275.703194,-2.150958299636841,-1.3367574971965333,-2.527794901524679,6.134659874230184,1.0194296836853027,-2.584421221409933
1708436275.7052002,-2.1509997844696045,-1.336713196044304,-2.527787510548727,6.1346778748329065,1.0194621086120605,-2.584372107182638
1708436275.707231,-2.1509785652160645,-1.3367409420064469,-2.527794901524679,6.134551989823141,1.0194909572601318,-2.5844035784350794
1708436275.709195,-2.1509785652160645,-1.3367519539645691,-2.5277708212481897,6.134664284973898,1.0194416046142578,-2.5844255129443567
1708436275.7112021,-2.1509909629821777,-1.3366868805936356,-2.527782980595724,6.13461052158431,1.0194664001464844,-2.5843961874591272
1708436275.7132404,-2.1509909629821777,-1.3367071610740204,-2.5278027693377894,6.134639012604513,1.01947021484375,-2.5843754450427454
1708436275.7151954,-2.1510438919067383,-1.336691291337349,-2.5277786890613,6.134668814926901,1.019425392150879,-2.58441669145693
1708436275.7172132,-2.1510369777679443,-1.3367087554982682,-2.527766291295187,6.134659874230184,1.0194339752197266,-2.5843961874591272
1708436275.7192466,-2.1509828567504883,-1.3367737394622345,-2.5277860800372522,6.134676205902853,1.0194578170776367,-2.5843501726733606
1708436275.7211874,-2.151052951812744,-1.3367043298533936,-2.527761999760763,6.134643542557516,1.019425392150879,-2.5843809286700647
1708436275.7232208,-2.1509954929351807,-1.3367116463235398,-2.5277786890613,6.134625780373373,1.0194664001464844,-2.584404770527975
1708436275.7252119,-2.1510167121887207,-1.3366794002107163,-2.527782980595724,6.134553658753195,1.0194370746612549,-2.584412399922506
1708436275.7272272,-2.150986671447754,-1.3367366057685395,-2.527807060872213,6.13461052158431,1.0194876194000244,-2.5844455401050013
1708436275.7292216,-2.1509742736816406,-1.3367313903621216,-2.527778450642721,6.13461052158431,1.0194578170776367,-2.5843799749957483
1708436275.7311928,-2.1509697437286377,-1.3367365461638947,-2.527790371571676,6.13467167594985,1.0194664001464844,-2.584421221409933
1708436275.7332075,-2.1509368419647217,-1.3367043298533936,-2.527782980595724,6.13461052158431,1.0194370746612549,-2.584404770527975
1708436275.73521,-2.1509368419647217,-1.3367087107947846,-2.527799193059103,6.134603011399069,1.0194416046142578,-2.584372345601217
1708436275.7372124,-2.150986671447754,-1.3367203038981934,-2.527782980595724,6.134622323303976,1.019474744796753,-2.5843756834613245
1708436275.739191,-2.1509828567504883,-1.3367131513408204,-2.52781588235964,6.134647953301229,1.0194578170776367,-2.584388558064596
1708436275.7412052,-2.1509997844696045,-1.3367278587869187,-2.5277531782733362,6.134631264000692,1.0194659233093262,-2.584409300480978
1708436275.7432108,-2.1509997844696045,-1.336736575966217,-2.527774159108297,6.134647953301229,1.019474744796753,-2.584412399922506
1708436275.7452126,-2.1509997844696045,-1.336700053220131,-2.5277918020831507,6.134605991631307,1.0194532871246338,-2.5844090620623987
1708436275.7472334,-2.1509909629821777,-1.336724655037262,-2.527761999760763,6.134603011399069,1.01947021484375,-2.584372345601217
1708436275.7493134,-2.1509671211242676,-1.3367400926402588,-2.527761999760763,6.134577858238973,1.0194578170776367,-2.5843797365771692
1708436275.751291,-2.1510043144226074,-1.3367116463235398,-2.527774159108297,6.1346356747444055,1.0194746255874634,-2.584356133137838
1708436275.7532187,-2.1510121822357178,-1.336753101353981,-2.5277918020831507,6.134655344277181,1.0194242000579834,-2.584409300480978
1708436275.7551844,-2.1509740352630615,-1.3367202889970322,-2.527790371571676,6.134605991631307,1.0195114612579346,-2.584388558064596
1708436275.7572284,-2.1510043144226074,-1.3367694032243271,-2.527811590825216,6.134605991631307,1.0194532871246338,-2.5844412485705774
1708436275.7591972,-2.1509909629821777,-1.3366880428842087,-2.5278080145465296,6.134573209076681,1.0195071697235107,-2.584432903920309
1708436275.7612214,-2.1509830951690674,-1.3367234629443665,-2.5277786890613,6.134632694512167,1.0194370746612549,-2.584376637135641
1708436275.7632394,-2.1509628295898438,-1.3367400926402588,-2.527741257344381,6.134614932328024,1.0194447040557861,-2.584348503743307
1708436275.7652044,-2.150954008102417,-1.3366750341704865,-2.5277786890613,6.134549128800192,1.01944899559021,-2.584360424672262
1708436275.767233,-2.150986433029175,-1.3367322993329545,-2.52781588235964,6.134664284973898,1.01947021484375,-2.5843527952777308
1708436275.7691967,-2.1509909629821777,-1.3367279183915635,-2.527761999760763,6.1345733282859705,1.0194532871246338,-2.5843732992755335
1708436275.7711897,-2.150986671447754,-1.336707205777504,-2.5277918020831507,6.134594189911642,1.0194578170776367,-2.584364716206686
1708436275.7732232,-2.150986671447754,-1.3367043298533936,-2.5277708212481897,6.134647953301229,1.019432783126831,-2.5843196550952356
1708436275.7751985,-2.1509952545166016,-1.336736561065056,-2.527724806462423,6.134647953301229,1.019474744796753,-2.584336582814352
1708436275.7772217,-2.1509830951690674,-1.3367488843253632,-2.527787510548727,6.134646522789755,1.019432783126831,-2.584337298070089
1708436275.7792034,-2.1510167121887207,-1.336686835890152,-2.527836624776022,6.134589540749349,1.0194458961486816,-2.584325377141134
1708436275.781218,-2.150958299636841,-1.3367043149522324,-2.527820412312643,6.1346179125602625,1.0194952487945557,-2.5843239466296595
1708436275.7832286,-2.150958299636841,-1.3367322993329545,-2.527774159108297,6.13461052158431,1.0194790363311768,-2.5842972437488
1708436275.785213,-2.1510167121887207,-1.3367203187993546,-2.527741257344381,6.1346672652061365,1.0194578170776367,-2.584292713795797
1708436275.7872,-2.1509785652160645,-1.3367488992265244,-2.527782980595724,6.13461052158431,1.01947021484375,-2.5842884222613733
1708436275.7892237,-2.1509697437286377,-1.3367202889970322,-2.527827803288595,6.134656893997946,1.0194578170776367,-2.5843165556537073
1708436275.7912045,-2.1509501934051514,-1.3367608201554795,-2.527745548878805,6.1346895573432825,1.01947021484375,-2.584271494542257
1708436275.7932322,-2.1509628295898438,-1.3367202889970322,-2.5277751127826136,6.134640085488119,1.0195026397705078,-2.584259573613302
1708436275.795215,-2.1509716510772705,-1.3367365461638947,-2.527820412312643,6.134650933533468,1.019474744796753,-2.584280316029684
1708436275.797212,-2.150932550430298,-1.3366671365550538,-2.527790609990255,6.134601580887594,1.0194790363311768,-2.584259573613302
1708436275.799231,-2.150959014892578,-1.3366794747165223,-2.527766291295187,6.134644615441122,1.0194790363311768,-2.584247652684347
1708436275.8012106,-2.1509411334991455,-1.3366956573775788,-2.527782980595724,6.134631264000692,1.0194790363311768,-2.584271494542257
1708436275.8060546,-2.1509830951690674,-1.3367365312627335,-2.5277708212481897,6.1345733282859705,1.01944899559021,-2.584259573613302
1708436275.8072352,-2.1509954929351807,-1.3367322993329545,-2.527790371571676,6.134614932328024,1.019425392150879,-2.5842846075641077
1708436275.809228,-2.1509456634521484,-1.336729110484459,-2.527799193059103,6.134640085488119,1.019482135772705,-2.58423883119692
1708436275.811212,-2.1509547233581543,-1.3367234629443665,-2.527750078831808,6.134626853256979,1.019432783126831,-2.5842233339892786
1708436275.8132157,-2.151019334793091,-1.3367531609586258,-2.527761999760763,6.134635793953695,1.0194134712219238,-2.584271494542257
1708436275.8152058,-2.1509876251220703,-1.336723492746689,-2.5277367273913782,6.1346346018608,1.0194578170776367,-2.5843222776996058
1708436275.8172762,-2.1509785652160645,-1.3367116165212174,-2.527807060872213,6.134628283768453,1.01947021484375,-2.5843356291400355
1708436275.8192387,-2.1510324478149414,-1.3367072206786652,-2.5278037230121058,6.134646403580465,1.0194659233093262,-2.584247891102926
1708436275.8212001,-2.1509625911712646,-1.3367322993329545,-2.52781588235964,6.134598600655355,1.019486427307129,-2.584226195012228
1708436275.8232336,-2.1509785652160645,-1.3366956871799012,-2.527782980595724,6.134676325112142,1.019514560699463,-2.5842188040362757
1708436275.8252099,-2.1510281562805176,-1.3367322844317933,-2.5277918020831507,6.134614932328024,1.01944899559021,-2.5843103567706507
1708436275.8272245,-2.150933265686035,-1.336724655037262,-2.5278037230121058,6.134659993439474,1.0194833278656006,-2.5842352549182337
1708436275.8292062,-2.1509742736816406,-1.3367000383189698,-2.5278027693377894,6.13462375381545,1.0194296836853027,-2.5842891375171106
1708436275.8312266,-2.1509876251220703,-1.3367160123637696,-2.527820412312643,6.134614932328024,1.0194458961486816,-2.58425218263735
1708436275.8332436,-2.150953769683838,-1.3366508793881913,-2.527766291295187,6.134655344277181,1.0194578170776367,-2.58425218263735
1708436275.8351982,-2.1510212421417236,-1.3366794151118775,-2.527811590825216,6.134643542557516,1.019474744796753,-2.584259573613302
1708436275.8372126,-2.1509952545166016,-1.3367116910270234,-2.527778450642721,6.134585130005636,1.019474744796753,-2.5842564741717737
1708436275.8391986,-2.150954008102417,-1.3367190671018143,-2.527774159108297,6.134626853256979,1.019498348236084,-2.5842188040362757
1708436275.8412092,-2.1510164737701416,-1.336720274095871,-2.5277589003192347,6.134582268982687,1.019432783126831,-2.5842233339892786
1708436275.843229,-2.1509501934051514,-1.3367116463235398,-2.5277751127826136,6.1346346018608,1.0194501876831055,-2.5842068831073206
1708436275.845186,-2.1509671211242676,-1.336735726600029,-2.527754608784811,6.134668814926901,1.0194578170776367,-2.5842483679400843
1708436275.8472075,-2.1509742736816406,-1.336732269530632,-2.527766291295187,6.134605991631307,1.019482135772705,-2.5842440764056605
1708436275.8492453,-2.1509785652160645,-1.3367694032243271,-2.5277786890613,6.134626853256979,1.0194833278656006,-2.5842395464526575
1708436275.8512714,-2.150991916656494,-1.3366880279830475,-2.5277918020831507,6.134647953301229,1.0194706916809082,-2.5842817465411585
1708436275.8532422,-2.1509876251220703,-1.3366757941297074,-2.527811352406637,6.134605991631307,1.0194416046142578,-2.5842860380755823
1708436275.8552575,-2.1509828567504883,-1.3367445480874558,-2.527754608784811,6.134639012604513,1.0194659233093262,-2.5842159430133265
1708436275.8571825,-2.1509876251220703,-1.336702824836113,-2.527774159108297,6.134577858238973,1.0194370746612549,-2.5841994921313685
1708436275.8591936,-2.1509671211242676,-1.3367116761258622,-2.527794901524679,6.134643542557516,1.0195026397705078,-2.5842233339892786
1708436275.861184,-2.1509547233581543,-1.3367043298533936,-2.5277786890613,6.134652483254232,1.0194416046142578,-2.5842116514789026
1708436275.8631864,-2.1509716510772705,-1.3367235225490113,-2.5277424494372767,6.134573209076681,1.0194532871246338,-2.5842202345477503
1708436275.8652222,-2.150958299636841,-1.3366465133479615,-2.5277751127826136,6.134625780373373,1.0194664001464844,-2.5841994921313685
1708436275.8672338,-2.1509742736816406,-1.336723492746689,-2.5278037230121058,6.134614932328024,1.0194339752197266,-2.5842440764056605
1708436275.8692083,-2.1509742736816406,-1.3367651265910645,-2.527799431477682,6.134630191117086,1.01947021484375,-2.5842483679400843
1708436275.8712072,-2.1509997844696045,-1.3367356818965455,-2.5278247038470667,6.134598600655355,1.0194296836853027,-2.5842321554767054
1708436275.873227,-2.1509909629821777,-1.3367071908763428,-2.5277589003192347,6.134626853256979,1.0194621086120605,-2.5841832796679896
1708436275.8752031,-2.1509716510772705,-1.336675004368164,-2.5277796427356165,6.134549128800192,1.0194621086120605,-2.5841832796679896
1708436275.8772123,-2.1509954929351807,-1.3367202442935486,-2.5277786890613,6.1345866797264,1.0194339752197266,-2.5841670672046106
1708436275.8792021,-2.1509501934051514,-1.3366912615350266,-2.52773362794985,6.134639012604513,1.0194578170776367,-2.58417255083193
1708436275.8812199,-2.1509997844696045,-1.3366912466338654,-2.527787510548727,6.134619343071737,1.0194621086120605,-2.584204975758688
1708436275.8832545,-2.1509456634521484,-1.3367043447545548,-2.5278247038470667,6.1346356747444055,1.0194833278656006,-2.5841594378100794
1708436275.8852048,-2.1509456634521484,-1.3367000383189698,-2.527832333241598,6.134635793953695,1.0194578170776367,-2.5841758886920374
1708436275.887245,-2.1509499549865723,-1.3367322844317933,-2.5277589003192347,6.134631264000692,1.0194133520126343,-2.5841098467456263
1708436275.8891902,-2.150933265686035,-1.3367531907609482,-2.527774159108297,6.134614932328024,1.0194177627563477,-2.584208313618795
1708436275.8912115,-2.1509828567504883,-1.336736575966217,-2.5277963320361536,6.1346014616783044,1.0194296836853027,-2.5841921011554163
1708436275.8932123,-2.1509830951690674,-1.3367000681212922,-2.5277708212481897,6.1346346018608,1.019474744796753,-2.584200684224264
1708436275.895192,-2.1509413719177246,-1.3367488992265244,-2.5277963320361536,6.134589659958639,1.0194706916809082,-2.5842095057116907
1708436275.8971937,-2.1509671211242676,-1.3367445331862946,-2.527754608784811,6.134605991631307,1.0194532871246338,-2.584188763295309
1708436275.8992162,-2.1509742736816406,-1.3366957020810624,-2.527787510548727,6.1346346018608,1.0194134712219238,-2.584217135106222
1708436275.9011824,-2.1509876251220703,-1.3366912317327042,-2.527712885533468,6.134631264000692,1.0194578170776367,-2.584221426640646
1708436275.9032085,-2.1509671211242676,-1.3367663782886048,-2.5277589003192347,6.1346179125602625,1.0193926095962524,-2.584168259297506
1708436275.9052513,-2.1509909629821777,-1.3367574971965333,-2.5277918020831507,6.134647953301229,1.0194501876831055,-2.5841978232013147
1708436275.9072068,-2.1509830951690674,-1.3366794747165223,-2.527750078831808,6.134597170143881,1.0194416046142578,-2.584165159855978
1708436275.9092133,-2.1509244441986084,-1.3367000681212922,-2.5277963320361536,6.134635793953695,1.019425392150879,-2.58412748972048
1708436275.911206,-2.151007652282715,-1.3367203038981934,-2.5277796427356165,6.134655463486471,1.0194751024246216,-2.584165159855978
1708436275.9132142,-2.1509742736816406,-1.3366794449141999,-2.5277426878558558,6.134564387589254,1.0194134712219238,-2.5841475168811243
1708436275.9152255,-2.1509697437286377,-1.3367531162551423,-2.5277589003192347,6.13461052158431,1.0194458961486816,-2.584118668233053
1708436275.9172006,-2.1509997844696045,-1.3367086958936234,-2.5277918020831507,6.134639012604513,1.0194544792175293,-2.584122959767477
1708436275.9192042,-2.1509501934051514,-1.3367694181254883,-2.527750078831808,6.134598600655355,1.0194426774978638,-2.5841570536242884
1708436275.9211903,-2.1509785652160645,-1.3367738139680405,-2.52773362794985,6.13455210903243,1.0194501876831055,-2.5841694513904017
1708436275.923203,-2.1509742736816406,-1.3367290508798142,-2.5277424494372767,6.134664284973898,1.0194296836853027,-2.5841496626483362
1708436275.925222,-2.1509716510772705,-1.3367574673942109,-2.527745787297384,6.134603011399069,1.0194382667541504,-2.5841363112079065
1708436275.9272027,-2.1510043144226074,-1.336700053220131,-2.527766291295187,6.134685146599569,1.0194339752197266,-2.5841570536242884
1708436275.9291847,-2.1509828567504883,-1.3366957318833848,-2.5278037230121058,6.13467167594985,1.0194588899612427,-2.5840914885150355
1708436275.9311955,-2.150933265686035,-1.3367159825614472,-2.527750078831808,6.134643542557516,1.0194544792175293,-2.584055010472433
1708436275.9332197,-2.1509909629821777,-1.3366880279830475,-2.5277589003192347,6.134628283768453,1.0194664001464844,-2.584096972142355
1708436275.9352083,-2.1510043144226074,-1.3366628748229523,-2.527811590825216,6.13461052158431,1.0194098949432373,-2.584055010472433
1708436275.9372284,-2.1509671211242676,-1.336736575966217,-2.527745548878805,6.134676205902853,1.0194177627563477,-2.5840356985675257
1708436275.9392202,-2.150986671447754,-1.3367366206697007,-2.5277708212481897,6.13461052158431,1.0194426774978638,-2.584020439778463
1708436275.941204,-2.1510236263275146,-1.3367279034904023,-2.5277589003192347,6.134605991631307,1.0194098949432373,-2.5840075651751917
1708436275.9432204,-2.1509697437286377,-1.3367246252349396,-2.527729336415426,6.134643542557516,1.0194339752197266,-2.5839837233172815
1708436275.945195,-2.1509742736816406,-1.336711661224701,-2.5277796427356165,6.134650933533468,1.019405484199524,-2.583992306386129
1708436275.947208,-2.1510279178619385,-1.3366957318833848,-2.527754608784811,6.134676205902853,1.0194296836853027,-2.5839675108539026
1708436275.9492118,-2.150982141494751,-1.3367246401361008,-2.527741257344381,6.134664284973898,1.0194382667541504,-2.5839393774615687
1708436275.9512606,-2.1509828567504883,-1.3367444735816498,-2.527717415486471,6.134598600655355,1.0194458961486816,-2.583956782017843
1708436275.9532273,-2.150928020477295,-1.3366912615350266,-2.5277708212481897,6.134650933533468,1.019389271736145,-2.5838916937457483
1708436275.955195,-2.1509997844696045,-1.3367072206786652,-2.527782980595724,6.134643542557516,1.0194416046142578,-2.583858315144674
1708436275.9572332,-2.1509742736816406,-1.3367071908763428,-2.5277751127826136,6.134664404183187,1.0194264650344849,-2.5838359037982386
1708436275.9592526,-2.1510088443756104,-1.3367365908673783,-2.5277796427356165,6.1346346018608,1.0194426774978638,-2.5837577025042933
1708436275.9612334,-2.1509997844696045,-1.3366957169822236,-2.527745787297384,6.134625661164083,1.0194339752197266,-2.5837841669665735
1708436275.9632146,-2.150998830795288,-1.3366957616857071,-2.5277963320361536,6.134655344277181,1.019405484199524,-2.583714548741476
1708436275.9652138,-2.1509628295898438,-1.3367322993329545,-2.5277589003192347,6.1346346018608,1.0193771123886108,-2.583707634602682
1708436275.967225,-2.1510043144226074,-1.3366837811521073,-2.5277634302722376,6.1346672652061365,1.0194177627563477,-2.583637539540426
1708436275.9692037,-2.150986671447754,-1.336688132291176,-2.527754608784811,6.134697067528524,1.0194011926651,-2.583613697682516
1708436275.971212,-2.1509456634521484,-1.3366750192693253,-2.5277589003192347,6.134643542557516,1.0193969011306763,-2.5835745970355433
1708436275.9732313,-2.150958299636841,-1.336708740597107,-2.5277469793902796,6.134662854462423,1.0194426774978638,-2.5835300127612513
1708436275.9752424,-2.1509671211242676,-1.3367116463235398,-2.5277424494372767,6.134676205902853,1.0194141864776611,-2.5835397879229944
1708436275.977225,-2.1509828567504883,-1.3366868805936356,-2.527787510548727,6.134662854462423,1.0194177627563477,-2.583449904118673
1708436275.979199,-2.150986433029175,-1.3366957020810624,-2.5277751127826136,6.1346346018608,1.0194264650344849,-2.583409134541647
1708436275.9812295,-2.151007890701294,-1.3367445182851334,-2.5277751127826136,6.134641992836752,1.0194134712219238,-2.5833867231952112
1708436275.9832091,-2.1510324478149414,-1.336723492746689,-2.5277751127826136,6.134686934738912,1.0194544792175293,-2.5832889715777796
1708436275.9851909,-2.1509997844696045,-1.3366912615350266,-2.5277708212481897,6.134655463486471,1.0194177627563477,-2.583245817814962
1708436275.9872231,-2.1510088443756104,-1.3367202591947098,-2.5277677218066614,6.134628641396322,1.0194307565689087,-2.5832021872149866
1708436275.9891858,-2.1509785652160645,-1.3367234331420441,-2.527754608784811,6.1346346018608,1.0194264650344849,-2.583174530659811
1708436275.9912176,-2.1509759426116943,-1.3367160272649308,-2.527754608784811,6.134691464691915,1.0194011926651,-2.583080593739645
1708436275.9932048,-2.1509501934051514,-1.3366552156260987,-2.527754608784811,6.134642112046041,1.0194098949432373,-2.582987372075216
1708436275.99524,-2.1509716510772705,-1.3366881173900147,-2.5277963320361536,6.134622323303976,1.0194177627563477,-2.5829737822162073
1708436275.9972281,-2.1509909629821777,-1.3366583448699494,-2.527745548878805,6.1346179125602625,1.0194141864776611,-2.582876745854513
1708436275.9991877,-2.1509954929351807,-1.336748869424202,-2.5277708212481897,6.1346672652061365,1.0194220542907715,-2.5828128496753138
1708436276.0012107,-2.1509740352630615,-1.3367400628379364,-2.527766291295187,6.134653913765707,1.0194339752197266,-2.5827601591693323
1708436276.0033934,-2.1509671211242676,-1.3367445480874558,-2.5277634302722376,6.134707796364584,1.0194264650344849,-2.5827508608447474
1708436276.0052133,-2.1509697437286377,-1.336752013569214,-2.5277634302722376,6.134674775391378,1.0193936824798584,-2.5826218763934534
1708436276.0072074,-2.1509909629821777,-1.3366661828807374,-2.5277918020831507,6.134650933533468,1.0194264650344849,-2.5825000444995325
1708436276.009202,-2.1510324478149414,-1.336740867500641,-2.527766291295187,6.134653913765707,1.0194339752197266,-2.582395378743307
1708436276.0112035,-2.150932550430298,-1.3367365461638947,-2.5277424494372767,6.134655344277181,1.0194264650344849,-2.5823240915881556
1708436276.0132093,-2.1509652137756348,-1.3366628003171463,-2.527754608784811,6.134692656784811,1.0194307565689087,-2.5821905771838587
1708436276.0151973,-2.1509909629821777,-1.3367116463235398,-2.5277424494372767,6.134704816132345,1.0194177627563477,-2.5821037928210657
1708436276.0172021,-2.151003360748291,-1.3367160272649308,-2.527745787297384,6.134724247246542,1.0194098949432373,-2.5819793383227747
1708436276.0191927,-2.150982141494751,-1.3367279034904023,-2.5277634302722376,6.134682523995199,1.0194307565689087,-2.5818615595446985
1708436276.021222,-2.150958299636841,-1.3367160123637696,-2.5277751127826136,6.13462113121108,1.019405484199524,-2.5817208925830286
1708436276.0232165,-2.150986671447754,-1.3367488843253632,-2.5277589003192347,6.134649503021993,1.0194382667541504,-2.5816307703601282
1708436276.0251894,-2.1509368419647217,-1.3367401224425812,-2.5277841726886194,6.1346614239509485,1.0194382667541504,-2.581493679677145
1708436276.027206,-2.1510369777679443,-1.3366880726865311,-2.5277796427356165,6.134686934738912,1.0194098949432373,-2.5813823382007044
1708436276.0291884,-2.1509830951690674,-1.3367531162551423,-2.5277963320361536,6.134691464691915,1.0194220542907715,-2.581205193196432
1708436276.031206,-2.1509997844696045,-1.336642177110054,-2.5277751127826136,6.134715306549825,1.0194177627563477,-2.580982271824972
1708436276.0332124,-2.1509499549865723,-1.3367531460574646,-2.5277634302722376,6.134649383812704,1.0194382667541504,-2.5809317270862024
1708436276.0351903,-2.1509909629821777,-1.3366794747165223,-2.527761999760763,6.134691345482626,1.0194469690322876,-2.5807068983661097
1708436276.0372062,-2.150958299636841,-1.3367366057685395,-2.5277305285083216,6.1347272274787805,1.0194544792175293,-2.5805698076831263
1708436276.0391958,-2.1509997844696045,-1.3366956573775788,-2.527787510548727,6.134698974877157,1.0194469690322876,-2.5804155508624476
1708436276.0412145,-2.150949478149414,-1.3366957020810624,-2.5277469793902796,6.134619700699606,1.019405484199524,-2.5802679697619837
1708436276.0431938,-2.1509785652160645,-1.3367322546294709,-2.5277786890613,6.134665834694662,1.0194296836853027,-2.579996172581808
1708436276.0451982,-2.1510121822357178,-1.3367116463235398,-2.527782980595724,6.134686934738912,1.0194426774978638,-2.579852883015768
1708436276.0472019,-2.150949478149414,-1.3367159974626084,-2.527745787297384,6.134682523995199,1.0194134712219238,-2.57967716852297
1708436276.0492263,-2.150954008102417,-1.3367489290288468,-2.527787510548727,6.134728657990255,1.0194098949432373,-2.579444710408346
1708436276.0512552,-2.1509828567504883,-1.3367000681212922,-2.5277708212481897,6.134661304741659,1.0194426774978638,-2.5792327562915247
1708436276.0532196,-2.1509671211242676,-1.336720274095871,-2.5277786890613,6.134633171349325,1.0194458961486816,-2.5789716879474085
1708436276.0551906,-2.1510279178619385,-1.3367159974626084,-2.5277589003192347,6.134727108269491,1.0194141864776611,-2.5788195768939417
1708436276.057181,-2.150958299636841,-1.3367116463235398,-2.527750078831808,6.134719598084249,1.0194621086120605,-2.578574244176046
1708436276.0591903,-2.1509785652160645,-1.3367202889970322,-2.5277786890613,6.134712207108297,1.0194264650344849,-2.578362766896383
1708436276.0611835,-2.150986433029175,-1.3367279332927247,-2.527811590825216,6.134694444924154,1.0194588899612427,-2.5781100432025355
1708436276.0631745,-2.1509828567504883,-1.3367279481938859,-2.527761999760763,6.13464509227828,1.0194578170776367,-2.577850643788473
1708436276.0652113,-2.1510279178619385,-1.3367738288692017,-2.527787510548727,6.134736048966207,1.0194501876831055,-2.5775604883777063
1708436276.0672474,-2.1509742736816406,-1.336711661224701,-2.5277751127826136,6.134694444924154,1.0194501876831055,-2.57729155222048
1708436276.0691988,-2.1509997844696045,-1.336711661224701,-2.527738157902853,6.134678113251486,1.0194177627563477,-2.5770185629474085
1708436276.0712109,-2.1509501934051514,-1.336707205777504,-2.5278037230121058,6.134736048966207,1.0194416046142578,-2.5767269770251673
1708436276.0731947,-2.1509909629821777,-1.3367575419000168,-2.5277589003192347,6.134706365853109,1.0194621086120605,-2.5764387289630335
1708436276.0752223,-2.1509697437286377,-1.3366495978883286,-2.527738157902853,6.134719598084249,1.0194501876831055,-2.5761974493609827
1708436276.0771985,-2.150965452194214,-1.3367563349059601,-2.5277751127826136,6.134670245438375,1.01944899559021,-2.5758448282824915
1708436276.079213,-2.1509671211242676,-1.3367202889970322,-2.5277205149279993,6.134678113251486,1.019420862197876,-2.5755532423602503
1708436276.081217,-2.1510043144226074,-1.3367279332927247,-2.527754608784811,6.134674775391378,1.0194458961486816,-2.5752485434161585
1708436276.0832145,-2.150938034057617,-1.336683766250946,-2.5277543703662317,6.134686934738912,1.01947021484375,-2.574956003819601
1708436276.0852451,-2.1509175300598145,-1.336679385309555,-2.527741257344381,6.134642112046041,1.0194621086120605,-2.574578110371725
1708436276.0872564,-2.1509413719177246,-1.3367322844317933,-2.527787510548727,6.134697067528524,1.0194534063339233,-2.5742014090167444
1708436276.0892444,-2.1509628295898438,-1.3366794449141999,-2.5277751127826136,6.134646522789755,1.0194296836853027,-2.5738521257983606
1708436276.0912075,-2.1510043144226074,-1.3367072206786652,-2.5278037230121058,6.134625661164083,1.0194578170776367,-2.5735002199756067
1708436276.0932415,-2.1509671211242676,-1.3366923344186326,-2.5277751127826136,6.134640085488119,1.0194833278656006,-2.5731268564807337
1708436276.0951943,-2.1509547233581543,-1.3366880726865311,-2.527754608784811,6.134680735855856,1.0194621086120605,-2.572700325642721
1708436276.0972202,-2.1509501934051514,-1.3367651116899033,-2.5277469793902796,6.134594189911642,1.0194659233093262,-2.5724387804614466
1708436276.0991995,-2.150958299636841,-1.336736575966217,-2.5277786890613,6.134605991631307,1.019486427307129,-2.5720213095294397
1708436276.1011937,-2.1509804725646973,-1.3367694181254883,-2.527761999760763,6.134614932328024,1.0194909572601318,-2.5716939608203333
1708436276.1032207,-2.150996446609497,-1.3367000681212922,-2.527745787297384,6.134558069496908,1.0194621086120605,-2.571324888859884
1708436276.105212,-2.150933265686035,-1.3366672408631821,-2.527790371571676,6.134558069496908,1.019498348236084,-2.570916477833883
1708436276.1072245,-2.1509265899658203,-1.3366714280894776,-2.527794901524679,6.134562599449911,1.01947021484375,-2.5704570452319544
1708436276.1092196,-2.150930881500244,-1.336683751349785,-2.527807060872213,6.134547698288717,1.0194578170776367,-2.5700812975512903
1708436276.1112247,-2.1509106159210205,-1.3367334616235276,-2.527836624776022,6.134523498802938,1.0194659233093262,-2.5696516672717493
1708436276.1132154,-2.1509265899658203,-1.336705596452095,-2.5277786890613,6.134495007782736,1.0194778442382812,-2.5692387262927454
1708436276.1152084,-2.1509220600128174,-1.3367116314223786,-2.5278037230121058,6.1344337342079065,1.0195026397705078,-2.56886870065798
1708436276.1172266,-2.150885820388794,-1.3366671663573761,-2.527820412312643,6.134443986206808,1.0194616317749023,-2.5683770815478724
1708436276.119204,-2.150928258895874,-1.3366956573775788,-2.5277751127826136,6.134381282120504,1.0195311307907104,-2.5679202715503138
1708436276.1212254,-2.150907039642334,-1.336659536962845,-2.527745548878805,6.134382831841268,1.019514560699463,-2.5675528685199183
1708436276.1232407,-2.1509034633636475,-1.3367043298533936,-2.527787510548727,6.1343634007270715,1.019510269165039,-2.56714898744692
1708436276.1251924,-2.15087890625,-1.3366957020810624,-2.527750078831808,6.134282576828756,1.019486427307129,-2.566688601170675
1708436276.1272395,-2.15080189704895,-1.336724729543068,-2.5277708212481897,6.134237515717306,1.0195059776306152,-2.5661497751819056
1708436276.1291866,-2.1508681774139404,-1.3367453527501603,-2.5277708212481897,6.134247886925497,1.01947021484375,-2.565725866948263
1708436276.1311908,-2.150789737701416,-1.3367218685201188,-2.527799193059103,6.134168851166525,1.0194897651672363,-2.565223757420675
1708436276.1332126,-2.150855779647827,-1.336668388252594,-2.527794901524679,6.134183633118429,1.019498348236084,-2.564735237752096
1708436276.1351826,-2.1508469581604004,-1.3366880726865311,-2.527807060872213,6.134163963585653,1.0195026397705078,-2.5642009417163294
1708436276.137224,-2.150815963745117,-1.3367175173810502,-2.527761999760763,6.1341309426124475,1.0194952487945557,-2.5637245813952845
1708436276.139223,-2.150803804397583,-1.3366714727929612,-2.527761999760763,6.134096371918478,1.019482135772705,-2.5632241407977503
1708436276.1411855,-2.150808334350586,-1.3366354417851944,-2.527766291295187,6.134035098343649,1.0195059776306152,-2.5627313295947474
1708436276.1432283,-2.150758743286133,-1.3367056113532563,-2.5278027693377894,6.134011375695028,1.019486427307129,-2.5622108618365687
1708436276.1451895,-2.150745153427124,-1.3366639775088807,-2.527761999760763,6.133930432587423,1.019510269165039,-2.561657253895895
1708436276.1472158,-2.150742769241333,-1.3366713982871552,-2.527750078831808,6.133866059571066,1.0194659233093262,-2.5610995928393763
1708436276.1492114,-2.1507270336151123,-1.33664424837146,-2.5277786890613,6.133876549988546,1.0195225477218628,-2.560575071965353
1708436276.151277,-2.1507365703582764,-1.336688981657364,-2.527799193059103,6.133802997856893,1.0194952487945557,-2.560037914906637
1708436276.1532354,-2.1506924629211426,-1.3366608631661911,-2.52781588235964,6.133753883629598,1.0194659233093262,-2.559509340916769
1708436276.1552048,-2.1507084369659424,-1.336688981657364,-2.5277708212481897,6.1336848614509485,1.0194659233093262,-2.558932367955343
1708436276.1572204,-2.1506543159484863,-1.3366116744330903,-2.527766291295187,6.133723485260763,1.0195059776306152,-2.558383051549093
1708436276.1592033,-2.1506268978118896,-1.336672694688179,-2.5277708212481897,6.133644330292501,1.0194778442382812,-2.5578087011920374
1708436276.1611946,-2.1506130695343018,-1.3366529804519196,-2.527750078831808,6.133556234627523,1.0194897651672363,-2.557220522557394
1708436276.1632333,-2.1505818367004395,-1.3365846437266846,-2.5277698675738733,6.133494961052694,1.0194735527038574,-2.5566492716418665
1708436276.1651964,-2.1505792140960693,-1.3366172176650544,-2.527745787297384,6.133475291519918,1.0194616317749023,-2.5560272375689905
1708436276.1672122,-2.150540351867676,-1.3365846437266846,-2.527766291295187,6.133452641754904,1.0195059776306152,-2.5553935209857386
1708436276.1692035,-2.150543212890625,-1.3365727078965683,-2.527799193059103,6.133367526322164,1.019482135772705,-2.554823939000265
1708436276.1711981,-2.1505606174468994,-1.3365890097669144,-2.5277751127826136,6.133299934654989,1.0194659233093262,-2.5541942755328577
1708436276.1732688,-2.1504998207092285,-1.33656399071727,-2.52775746980776,6.1332565424735925,1.01947021484375,-2.5535810629474085
1708436276.175213,-2.1504769325256348,-1.336572752600052,-2.52775746980776,6.1331636784370325,1.019498348236084,-2.552960220967428
1708436276.1772456,-2.1504645347595215,-1.3365367215922852,-2.5278080145465296,6.133141028672018,1.0194573402404785,-2.552343193684713
1708436276.1792016,-2.150416851043701,-1.3365323555520554,-2.527827803288595,6.133057343750753,1.019498348236084,-2.551758352910177
1708436276.1812072,-2.1504628658294678,-1.3365323406508942,-2.5277708212481897,6.132975089340963,1.019498348236084,-2.551131550465719
1708436276.183235,-2.1503682136535645,-1.336496264939644,-2.5278037230121058,6.132956731110372,1.019482135772705,-2.5505080858813685
1708436276.185196,-2.1503496170043945,-1.336512879734375,-2.5278037230121058,6.132822501450338,1.0194659233093262,-2.5498386065112513
1708436276.187239,-2.1503047943115234,-1.3364521873048325,-2.527761999760763,6.132742988854208,1.0194735527038574,-2.549213472996847
1708436276.1892006,-2.1502842903137207,-1.3364803057960053,-2.5277918020831507,6.132732498436727,1.019482135772705,-2.548636023198263
1708436276.191206,-2.1502771377563477,-1.336494655614235,-2.5278189818011683,6.132645594864645,1.019482135772705,-2.5479710737811487
1708436276.1932185,-2.1501824855804443,-1.3364454817822953,-2.527782980595724,6.132551181107321,1.019510269165039,-2.547349993382589
1708436276.195204,-2.1502037048339844,-1.3364617687514802,-2.527811590825216,6.132500278740682,1.01947021484375,-2.5467096010791224
1708436276.197238,-2.15018892288208,-1.336371288900711,-2.527811590825216,6.132391083031454,1.01947021484375,-2.5460544268237513
1708436276.199219,-2.15016508102417,-1.336445466881134,-2.5277205149279993,6.132344710617819,1.0194416046142578,-2.5453727881061
1708436276.2012305,-2.1500871181488037,-1.3364542883685608,-2.527782980595724,6.132256138115682,1.019486427307129,-2.54478103319277
1708436276.2032094,-2.1500654220581055,-1.3363800209811707,-2.527766291295187,6.132209646492758,1.0195026397705078,-2.544119421635763
1708436276.205222,-2.150053024291992,-1.336421401505806,-2.527774159108297,6.1321332333381555,1.019474744796753,-2.5434415976153772
1708436276.2072048,-2.149984836578369,-1.3364019256881257,-2.52781588235964,6.132070410042562,1.0194735527038574,-2.542821470891134
1708436276.2092085,-2.1499602794647217,-1.336364896302559,-2.5277786890613,6.1319535849388025,1.0194778442382812,-2.54209548631777
1708436276.2112026,-2.1499359607696533,-1.3363728684237977,-2.5277786890613,6.131886231690206,1.019482135772705,-2.5413509050952356
1708436276.2132034,-2.1499099731445312,-1.3363990497640152,-2.5277786890613,6.131748544960775,1.0194659233093262,-2.540687386189596
1708436276.2151937,-2.149901866912842,-1.3363423955491562,-2.527790371571676,6.131734597473898,1.0195026397705078,-2.5400026480304163
1708436276.2172189,-2.1498374938964844,-1.3363007021001359,-2.527761999760763,6.13162242153243,1.01947021484375,-2.5393813292132776
1708436276.2192035,-2.1498091220855713,-1.3363138747266312,-2.527799193059103,6.131526696472921,1.019498348236084,-2.538666311894552
1708436276.2212033,-2.1496949195861816,-1.3362574440291901,-2.527832094823019,6.1314501641090295,1.0194790363311768,-2.5380311647998255
1708436276.2232378,-2.1496944427490234,-1.3363214296153565,-2.527782980595724,6.131305086403646,1.0194532871246338,-2.5374227205859583
1708436276.2252357,-2.1496448516845703,-1.3362856668284913,-2.527750078831808,6.131242143898763,1.019498348236084,-2.5367210547076624
1708436276.227219,-2.1496167182922363,-1.3362158399871369,-2.5278189818011683,6.131192433625021,1.019486427307129,-2.5360026995288294
1708436276.2292151,-2.1496386528015137,-1.336232380276062,-2.527832094823019,6.131046402245321,1.019498348236084,-2.5354025999652308
1708436276.23121,-2.1495606899261475,-1.3362587106278916,-2.52781588235964,6.130954491883077,1.0194458961486816,-2.5346275011645716
1708436276.2332382,-2.1495132446289062,-1.3362258237651368,-2.5277531782733362,6.130830514221945,1.0194370746612549,-2.5339954535113733
1708436276.2352083,-2.1495399475097656,-1.3362258237651368,-2.527836624776022,6.130730259209432,1.019498348236084,-2.533289972935812
1708436276.2372165,-2.1494266986846924,-1.3362007302096863,-2.527836624776022,6.130689251213827,1.019486427307129,-2.532632891331808
1708436276.2392058,-2.1494061946868896,-1.3361603927663346,-2.527787510548727,6.130519020348348,1.019474744796753,-2.531976048146383
1708436276.2412028,-2.149378776550293,-1.3361898225596924,-2.527787510548727,6.130427348404684,1.01944899559021,-2.531285111104147
1708436276.2432153,-2.1493310928344727,-1.3361542981914063,-2.527774159108297,6.13034342506484,1.01947021484375,-2.530625645314352
1708436276.2452068,-2.1492953300476074,-1.3361007583192368,-2.527787510548727,6.130268442421713,1.019498348236084,-2.5299320856677454
1708436276.2472196,-2.149263381958008,-1.3361865443042298,-2.527807060872213,6.130124795227804,1.019514560699463,-2.5292232672320765
1708436276.2492223,-2.149186372756958,-1.3361508709243317,-2.527811590825216,6.129958975106039,1.0194491147994995,-2.528539005910055
1708436276.2512963,-2.1491880416870117,-1.3361389499953766,-2.52775746980776,6.129933106690206,1.019482135772705,-2.5278611818896692
1708436276.2532465,-2.149111270904541,-1.3360942167094727,-2.527811590825216,6.129837620049276,1.019498348236084,-2.527151171361105
1708436276.2552197,-2.1490626335144043,-1.3361226630261918,-2.527823273335592,6.129721390991964,1.019482135772705,-2.5265172163592737
1708436276.2572103,-2.149026393890381,-1.3361029487899323,-2.5278027693377894,6.129581081658163,1.0194940567016602,-2.525801483784811
1708436276.2591898,-2.148996353149414,-1.3360910278609772,-2.527807060872213,6.129529583245077,1.0194404125213623,-2.5251296202289026
1708436276.261201,-2.1489930152893066,-1.336107299929001,-2.527794901524679,6.129406320839681,1.019486427307129,-2.5244150797473353
1708436276.2632341,-2.1488916873931885,-1.3360378009131928,-2.527848545704977,6.129237162857809,1.0194735527038574,-2.523792330418722
1708436276.2652216,-2.1488277912139893,-1.3360409152558823,-2.527811590825216,6.1291905520255945,1.019510269165039,-2.5230324904071253
1708436276.2672079,-2.14884090423584,-1.3360791069320221,-2.5278027693377894,6.129017221718588,1.0195015668869019,-2.52244741121401
1708436276.2692256,-2.1487483978271484,-1.3360226911357422,-2.527884546910421,6.128955232888021,1.0195225477218628,-2.5217230955706995
1708436276.2711883,-2.1486916542053223,-1.336010531788208,-2.5278189818011683,6.128813969879904,1.0195181369781494,-2.5210962931262415
1708436276.2732048,-2.1486148834228516,-1.3360105019858857,-2.5278144518481653,6.128677832871237,1.019510269165039,-2.5203970114337366
1708436276.275206,-2.148599624633789,-1.3360029768994828,-2.5277848879443567,6.1285672066505334,1.019485354423523,-2.519756857548849
1708436276.2772262,-2.1485652923583984,-1.3359866601279755,-2.5278354326831263,6.128458964615621,1.0195300579071045,-2.519132677708761
1708436276.279222,-2.148496389389038,-1.3360029768994828,-2.5278266111956995,6.128367411881246,1.0195257663726807,-2.5184581915484827
1708436276.281206,-2.14846134185791,-1.33594665051017,-2.5278549830066126,6.128218638687887,1.0195589065551758,-2.517839018498556
1708436276.2832417,-2.1484124660491943,-1.33594665051017,-2.5279131571399134,6.128147351532736,1.0195589065551758,-2.51715594926943
1708436276.2852244,-2.148407459259033,-1.335901753311493,-2.5278669039355677,6.127958762436666,1.019594430923462,-2.5164862314807337
1708436276.287248,-2.1483101844787598,-1.3359104704907914,-2.527858082448141,6.127891647606649,1.0196679830551147,-2.5158608595477503
1708436276.2892125,-2.148244619369507,-1.3359227192452927,-2.527926746998922,6.127763259201803,1.0196263790130615,-2.515301529561178
1708436276.2912462,-2.1481289863586426,-1.3359104704907914,-2.527947489415304,6.127720343857565,1.019630789756775,-2.51469332376589
1708436276.2932167,-2.1481423377990723,-1.3358581972173234,-2.527931276951925,6.127592670708456,1.0196548700332642,-2.5140393416034144
1708436276.2952368,-2.148078680038452,-1.335895450120308,-2.5279422442065638,6.127488481789388,1.0196375846862793,-2.5134196917163294
1708436276.2972312,-2.147981643676758,-1.335895450120308,-2.5279422442065638,6.127405273705282,1.019670009613037,-2.512723986302511
1708436276.2992089,-2.147937297821045,-1.3358593595078965,-2.528019730244772,6.127225029259481,1.0196986198425293,-2.5121448675738733
1708436276.3012016,-2.147881031036377,-1.3358030331185837,-2.527966086064474,6.127121078758993,1.0196774005889893,-2.511498753224508
1708436276.3032358,-2.147879123687744,-1.3358267855695267,-2.5280242601977747,6.12698124626235,1.0197148323059082,-2.510878864918844
1708436276.3052008,-2.1477861404418945,-1.3358399730971833,-2.528006617222921,6.1269099591071985,1.0197670459747314,-2.510217014943258
1708436276.3071942,-2.1477274894714355,-1.3357833188823243,-2.527989927922384,6.126712190895834,1.0197784900665283,-2.509596888219015
1708436276.3092287,-2.147675037384033,-1.3357507449439545,-2.528018299733297,6.126649725228109,1.019797921180725,-2.5089798609363
1708436276.311191,-2.1476521492004395,-1.3357954782298584,-2.5280633608447474,6.126619446068563,1.0198798179626465,-2.5084155241595667
1708436276.3131976,-2.147594451904297,-1.3357269030860444,-2.5280962626086634,6.126433717995443,1.0198547840118408,-2.5077295939074915
1708436276.3152032,-2.1475017070770264,-1.3357519221356888,-2.528051201497213,6.1262773154075525,1.019895076751709,-2.5071407000171106
1708436276.3172076,-2.147458791732788,-1.3357400012067338,-2.5280423800097864,6.126178252487936,1.0199192762374878,-2.5064953009234827
1708436276.3192108,-2.1474010944366455,-1.335735635166504,-2.528123442326681,6.126083004265585,1.0199638605117798,-2.5059648195849817
1708436276.3212013,-2.1473922729492188,-1.335735635166504,-2.528135363255636,6.126011836319723,1.0199508666992188,-2.5053136984454554
1708436276.3232222,-2.1473121643066406,-1.3356911402991791,-2.528118912373678,6.1258455393608,1.019987940788269,-2.5047128836261194
1708436276.3251991,-2.147230625152588,-1.335684598689415,-2.528168026600973,6.125721442490377,1.0200198888778687,-2.5042107740985315
1708436276.3272061,-2.147195339202881,-1.3357237142375489,-2.5281758944140833,6.125551807671346,1.0200724601745605,-2.5035138765918177
1708436276.329206,-2.1471264362335205,-1.3356831830791016,-2.52820855775942,6.12546061256484,1.0200800895690918,-2.5029874483691614
1708436276.3311987,-2.14711594581604,-1.3356714260629197,-2.5281670729266565,6.12540220001296,1.0201365947723389,-2.50234038034548
1708436276.3331962,-2.1470353603363037,-1.3356638711741944,-2.52818209329714,6.125298964768209,1.0201815366744995,-2.5017886797534388
1708436276.3352027,-2.147066593170166,-1.335598738198616,-2.528226677571432,6.125129806786337,1.0201759338378906,-2.5012486616717737
1708436276.3372142,-2.14695143699646,-1.335615025167801,-2.528238836918966,6.125021683960714,1.0201871395111084,-2.5006514231311243
1708436276.3391945,-2.1469411849975586,-1.3356932413629075,-2.528271738682882,6.124918448715963,1.020260214805603,-2.500070397053854
1708436276.341188,-2.1468985080718994,-1.33560402811084,-2.5283029715167444,6.124795782357015,1.0202796459197998,-2.4994407335864466
1708436276.3431947,-2.1468183994293213,-1.3355670136264344,-2.528306547795431,6.124739038735189,1.0203607082366943,-2.498936478291647
1708436276.345219,-2.1467819213867188,-1.3356369149735947,-2.528318230305807,6.124586212425985,1.0203641653060913,-2.4983800093280237
1708436276.3472052,-2.146746873855591,-1.335587741141655,-2.528363052998678,6.124512898712911,1.0203838348388672,-2.497798029576437
1708436276.3492112,-2.146676778793335,-1.3355789345553895,-2.528363052998678,6.124363052635946,1.020436406135559,-2.4972577730761927
1708436276.3512366,-2.146587371826172,-1.335617111330368,-2.5284038225757044,6.124329793244161,1.02049720287323,-2.4967320601092737
1708436276.3532398,-2.1465816497802734,-1.3355714541724701,-2.5284350554095667,6.124201285630026,1.0205204486846924,-2.4961784521686
1708436276.355207,-2.146555185317993,-1.3355638992837449,-2.5283966700183313,6.12410985210494,1.0205893516540527,-2.49565560022463
1708436276.3572197,-2.146470308303833,-1.3355638992837449,-2.528492037449972,6.123985397606649,1.0206209421157837,-2.495176378880636
1708436276.359204,-2.146409273147583,-1.335559533243515,-2.5285070578204554,6.123872864037313,1.0206615924835205,-2.4946349302874964
1708436276.3612118,-2.146324396133423,-1.3355727207711716,-2.528493944798605,6.1237443564231775,1.0207213163375854,-2.494101587926046
1708436276.3632333,-2.1462979316711426,-1.3355398190072556,-2.5285266081439417,6.123652922898092,1.0207650661468506,-2.4935362974749964
1708436276.365228,-2.1462626457214355,-1.3355084222606202,-2.528620783482687,6.1235811589057825,1.020771861076355,-2.493056122456686
1708436276.3672154,-2.1462230682373047,-1.3355162155679245,-2.528579298649923,6.123513924866476,1.020898699760437,-2.4925344626056116
1708436276.3692298,-2.1461539268493652,-1.3355162155679245,-2.5286105314837855,6.123368608742513,1.0208768844604492,-2.4920626322375696
1708436276.371202,-2.1460700035095215,-1.3355500412038346,-2.5286317507373255,6.123278486519613,1.020961880683899,-2.491594139729635
1708436276.373222,-2.1460349559783936,-1.3354583990624924,-2.528662983571188,6.123166191368856,1.021005392074585,-2.4911134878741663
1708436276.3751953,-2.146003007888794,-1.3354758483222504,-2.5286956469165247,6.123103248863973,1.0210745334625244,-2.4905992189990442
1708436276.3772032,-2.145982503890991,-1.3354636144689103,-2.5287321249591272,6.122944342881002,1.0210933685302734,-2.4901469389544886
1708436276.3792078,-2.145920991897583,-1.3354921352914353,-2.5287514368640345,6.122907030373373,1.0211542844772339,-2.489744249974386
1708436276.3811984,-2.1458263397216797,-1.335509644155838,-2.528759304677145,6.122835027962484,1.0212262868881226,-2.4892573992358606
1708436276.3832474,-2.1458067893981934,-1.3354310405305405,-2.5288084189044397,6.122758734017172,1.0212700366973877,-2.4888225237475794
1708436276.3852086,-2.1457266807556152,-1.335456134085991,-2.5288146177874964,6.122631418495931,1.0213029384613037,-2.488385264073507
1708436276.3872137,-2.1456899642944336,-1.3354353916696091,-2.5288265387164515,6.1225565550620935,1.0213499069213867,-2.4878786245929163
1708436276.3891983,-2.145655870437622,-1.3354116541198273,-2.5288715998279017,6.122478711396017,1.0213981866836548,-2.4874845186816614
1708436276.3911932,-2.1456284523010254,-1.3354516935399552,-2.528923813496725,6.122314083367147,1.021421194076538,-2.487040106450216
1708436276.3932354,-2.145592212677002,-1.3354322922280808,-2.528923813496725,6.122246730118551,1.0215555429458618,-2.486593786870138
1708436276.3952005,-2.1454861164093018,-1.3354322922280808,-2.5289674440967005,6.122200119286337,1.021594524383545,-2.4862023035632532
1708436276.3972101,-2.1454508304595947,-1.3354322922280808,-2.5289915243731897,6.122158396034994,1.0216221809387207,-2.4857283274279993
1708436276.3992016,-2.145406484603882,-1.3354823154262085,-2.529027525578634,6.12200294712142,1.0216987133026123,-2.4853978792773646
1708436276.401198,-2.1454129219055176,-1.3354497414878388,-2.529055897389547,6.12202678897933,1.021755337715149,-2.4849606196032923
1708436276.4032288,-2.145311117172241,-1.3354203712991257,-2.5291009585009974,6.121844637184896,1.021831750869751,-2.4845920244800013
1708436276.405217,-2.145321846008301,-1.3353921634009858,-2.529078785573141,6.121835338860311,1.0218758583068848,-2.484183375035421
1708436276.4072318,-2.1452271938323975,-1.3353921634009858,-2.529151980076925,6.121709692269125,1.0219683647155762,-2.4838033358203333
1708436276.409224,-2.1451921463012695,-1.3353790801814576,-2.529147450123922,6.121659147530355,1.021975040435791,-2.4833934942828577
1708436276.4112186,-2.1451478004455566,-1.3354171973517914,-2.5291999022113245,6.121556031494894,1.022063970565796,-2.4830146471606653
1708436276.413265,-2.1450436115264893,-1.3354422760060807,-2.529177729283468,6.121433603554525,1.0221160650253296,-2.4826584498034876
1708436276.4151998,-2.1450700759887695,-1.3354303550771256,-2.5292421022998255,6.121340858727255,1.0221643447875977,-2.482297484074728
1708436276.4172316,-2.1449642181396484,-1.3354171824506302,-2.529261652623312,6.121286856919088,1.022260308265686,-2.4819334189044397
1708436276.4192069,-2.144958972930908,-1.3354259890368958,-2.529302183781759,6.12121199348525,1.0223325490951538,-2.4815526644336146
1708436276.4212053,-2.1449341773986816,-1.3353855472854157,-2.5293098131762903,6.121074783592977,1.0223851203918457,-2.4811998049365442
1708436276.4232645,-2.144902467727661,-1.3353889745524903,-2.5293543974505823,6.1210341332252405,1.0223958492279053,-2.4808314482318323
1708436276.425216,-2.144834280014038,-1.3353636425784607,-2.5294068495379847,6.120959508209982,1.022468090057373,-2.4804983774768274
1708436276.4272249,-2.1447787284851074,-1.335364894276001,-2.529496494923727,6.1209250567253015,1.0225281715393066,-2.4802187124835413
1708436276.429217,-2.1447389125823975,-1.335376815204956,-2.529480282460348,6.120844232826986,1.0225882530212402,-2.4798370043383997
1708436276.4312117,-2.144707202911377,-1.3353560876897355,-2.529527012501852,6.1207817671592615,1.0226736068725586,-2.4795213381396692
1708436276.4332702,-2.1446621417999268,-1.335336686377861,-2.529513661061422,6.120656001358785,1.0227546691894531,-2.4792044798480433
1708436276.4351976,-2.1445817947387695,-1.335398630504944,-2.529579226170675,6.120633828430929,1.0227771997451782,-2.4788997809039515
1708436276.437246,-2.144571304321289,-1.335312933926918,-2.5296152273761194,6.120537864952841,1.022768497467041,-2.4785950819598597
1708436276.439209,-2.1445462703704834,-1.3353172105601807,-2.5296557585345667,6.120486962586202,1.022910714149475,-2.4782753626452845
1708436276.4412005,-2.144437551498413,-1.3353617799333115,-2.529691759740011,6.120366084366598,1.0229336023330688,-2.478031937276022
1708436276.4432416,-2.144467830657959,-1.335304157142975,-2.5297351519214075,6.120351183205404,1.0230098962783813,-2.477722946797506
1708436276.4452026,-2.1443376541137695,-1.3353455376676102,-2.5297637621508997,6.120270359307089,1.0230244398117065,-2.4774180094348353
1708436276.4472175,-2.144338846206665,-1.3352886748364945,-2.529767100011007,6.12017451503829,1.0230848789215088,-2.4771748224841517
1708436276.4492092,-2.144315004348755,-1.3352755916169663,-2.529823366795675,6.120119559555807,1.0231283903121948,-2.4768362681018274
1708436276.4512386,-2.1442415714263916,-1.3353172105601807,-2.529796902333395,6.120083439141073,1.0232176780700684,-2.476621214543478
1708436276.4532702,-2.1442513465881348,-1.3352800470641633,-2.529858414326803,6.119971382408895,1.023249626159668,-2.4764183203326624
1708436276.4552646,-2.144204616546631,-1.3352974963239213,-2.5299153963672083,6.119886386185446,1.0233631134033203,-2.47612435022463
1708436276.4572847,-2.1441831588745117,-1.3352974963239213,-2.5299554506884974,6.119881856232443,1.02341890335083,-2.4758883158313196
1708436276.459332,-2.1441118717193604,-1.335318462257721,-2.529961649571554,6.1198428747947595,1.023450493812561,-2.47560698190798
1708436276.4612176,-2.14404559135437,-1.3353097450784226,-2.529999319707052,6.119724619179525,1.0234986543655396,-2.4754117170916956
1708436276.4632332,-2.1440234184265137,-1.3352768433145066,-2.5300350824939173,6.119678485184469,1.0235306024551392,-2.4751663843738
1708436276.465181,-2.1440694332122803,-1.335244284277298,-2.530041519795553,6.119581091194906,1.0235503911972046,-2.474983040486471
1708436276.4672132,-2.144050121307373,-1.3352486354163666,-2.530078951512472,6.1195305464561365,1.0236432552337646,-2.474750820790426
1708436276.469218,-2.1440093517303467,-1.3352974963239213,-2.5300937334643763,6.1194825051124475,1.0236507654190063,-2.4745262304889124
1708436276.4712303,-2.143911361694336,-1.3352581870606919,-2.530135695134298,6.119303452759542,1.0237306356430054,-2.4742897192584437
1708436276.473242,-2.1438987255096436,-1.3352661740830918,-2.5301910082446497,6.11938368061141,1.023787498474121,-2.4741464296924036
1708436276.4751997,-2.1438770294189453,-1.3352661740830918,-2.530137602482931,6.1193240759666345,1.0237658023834229,-2.473917309437887
1708436276.477242,-2.1438159942626953,-1.3352943819812317,-2.530202929173605,6.119210707932272,1.0238834619522095,-2.4737826029406946
1708436276.4792066,-2.143824815750122,-1.3351668578437348,-2.5302510897265833,6.119155275612631,1.0239111185073853,-2.47357684770693
1708436276.4812076,-2.143812417984009,-1.3352081936648865,-2.5301976839648646,6.119070040970602,1.0239590406417847,-2.4734373728381556
1708436276.4832335,-2.1437973976135254,-1.335217000251152,-2.5302260557757776,6.119024026184835,1.0239787101745605,-2.4732611815081995
1708436276.4852068,-2.143711566925049,-1.3352010411075135,-2.530282799397604,6.118987905770101,1.0239776372909546,-2.473138157521383
1708436276.4872305,-2.143704652786255,-1.3352141243270417,-2.5303199926959437,6.118857967644491,1.024030327796936,-2.4729891459094446
1708436276.4892197,-2.143676519393921,-1.3352126342109223,-2.5303054491626185,6.118877160340109,1.0241239070892334,-2.4728358427630823
1708436276.4911933,-2.143702983856201,-1.3352244806340714,-2.5303457419024866,6.118788945465841,1.024135947227478,-2.47270113626589
1708436276.4932327,-2.1435835361480713,-1.3352018904737015,-2.5303590933429163,6.118711101799764,1.0242092609405518,-2.4725597540484827
1708436276.495196,-2.143580198287964,-1.3352213662913819,-2.5303831736194056,6.118690359383383,1.0241917371749878,-2.472424332295553
1708436276.497226,-2.143557071685791,-1.3351573658040543,-2.53038198152651,6.118570673256674,1.0242114067077637,-2.472321335469381
1708436276.4992225,-2.1435322761535645,-1.3351725202849885,-2.5303950945483606,6.118585693627157,1.024259328842163,-2.472229067479269
1708436276.501213,-2.1435298919677734,-1.3351824593595047,-2.530386273060934,6.118526088982382,1.0242674350738525,-2.47209602991213
1708436276.5032206,-2.1435136795043945,-1.3351617616466065,-2.5303950945483606,6.1184542057807825,1.0243074893951416,-2.4719799200641077
1708436276.5052342,-2.143436908721924,-1.3351451468518754,-2.53040582338442,6.1184390662010095,1.0243359804153442,-2.4719417730914515
1708436276.5072124,-2.1434166431427,-1.3351736825755616,-2.5304344336139124,6.118386733322897,1.0243884325027466,-2.471811596547262
1708436276.5092154,-2.14341402053833,-1.3351780486157914,-2.5304344336139124,6.1182912466819666,1.024346947669983,-2.471752707158224
1708436276.5112054,-2.143418312072754,-1.3351868999055405,-2.530443255101339,6.118262755661764,1.0243754386901855,-2.4716721216784876
1708436276.5132113,-2.1433370113372803,-1.335136429672577,-2.5304344336139124,6.118174659996786,1.0244160890579224,-2.4716044108020228
1708436276.515204,-2.143296718597412,-1.3350888353637238,-2.5303879419909876,6.118106114655294,1.024427890777588,-2.4715357462512415
1708436276.517222,-2.1433229446411133,-1.3351138544133683,-2.5304389635669153,6.118086445122518,1.0244311094284058,-2.4715822378741663
1708436276.519203,-2.143277883529663,-1.3351257604411622,-2.530422035847799,6.118044483452596,1.0244520902633667,-2.4714885393725794
1708436276.521189,-2.143217086791992,-1.335101918583252,-2.530459705983297,6.11792944648818,1.0244520902633667,-2.471417252217428
1708436276.52321,-2.143230438232422,-1.3350768846324463,-2.5304506460772913,6.117911445885458,1.0244355201721191,-2.4713805357562464
1708436276.525194,-2.1431894302368164,-1.3350693595460434,-2.530426327382223,6.117842900543966,1.0244193077087402,-2.47138482729067
1708436276.5272093,-2.1431870460510254,-1.3350650382092972,-2.5304463545428675,6.117768156319418,1.0244311094284058,-2.4713576475726526
1708436276.529226,-2.143209218978882,-1.3350825023702164,-2.530430857335226,6.117662179261007,1.024423599243164,-2.4713128248797815
1708436276.5311966,-2.143113851547241,-1.3350825321725388,-2.530430857335226,6.117627608567037,1.0244563817977905,-2.471329991017477
1708436276.5332375,-2.1431102752685547,-1.3350333732417603,-2.5304551760302942,6.117641079216757,1.024427890777588,-2.471337620412008
1708436276.5352097,-2.1431236267089844,-1.3350912195495148,-2.530430857335226,6.117503511696615,1.0243951082229614,-2.471353356038229
1708436276.5372393,-2.1430060863494873,-1.3350420457175751,-2.5303731600390833,6.117455470352926,1.024460792541504,-2.4713857809649866
1708436276.539221,-2.1430482864379883,-1.3350877922824402,-2.5304132143603724,6.117397415428915,1.0243873596191406,-2.471372906361715
1708436276.541206,-2.143040657043457,-1.335039035683014,-2.5304551760302942,6.1173987267311,1.0243785381317139,-2.4713919798480433
1708436276.5432162,-2.1429741382598877,-1.334948481326439,-2.530418936406271,6.117264377861776,1.0244169235229492,-2.4715104738818567
1708436276.5452256,-2.1429803371429443,-1.3350354445031662,-2.530398193989889,6.117232787400045,1.0243916511535645,-2.471497360860006
1708436276.5472238,-2.1429264545440674,-1.3349702966264267,-2.530393664036886,6.117174732476034,1.0244004726409912,-2.471591059361593
1708436276.5492308,-2.1429193019866943,-1.3349868667176743,-2.5303996245013636,6.117102968483724,1.0243600606918335,-2.4715855757342737
1708436276.5512397,-2.14286732673645,-1.3350206327489396,-2.530386273060934,6.11702190616683,1.0243315696716309,-2.4716580549823206
1708436276.553326,-2.142876148223877,-1.3349702966264267,-2.5303502718554896,6.1169845936592,1.0243197679519653,-2.4717024008380335
1708436276.555223,-2.1428513526916504,-1.3349659007838746,-2.5303624312030237,6.116860854416647,1.0242955684661865,-2.471771303807394
1708436276.557259,-2.1428558826446533,-1.3349539947560807,-2.530304018651144,6.116842734604635,1.0242462158203125,-2.471839968358175
1708436276.5592093,-2.1427972316741943,-1.334930182700493,-2.5303009192096155,6.116787540703573,1.0242137908935547,-2.4718216101275843
1708436276.5612295,-2.1427578926086426,-1.3349433851293107,-2.5303590933429163,6.116739618569174,1.0242018699645996,-2.471894089375631
1708436276.563225,-2.142717123031616,-1.3348941516927262,-2.530314270650045,6.116647112160482,1.0242071151733398,-2.4719834963427942
1708436276.565209,-2.142751693725586,-1.3348822754672547,-2.5303054491626185,6.116615402489462,1.0241996049880981,-2.4720471541034144
1708436276.5672746,-2.142725944519043,-1.3348734688809891,-2.5303054491626185,6.116609442024984,1.024166464805603,-2.4721110502826136
1708436276.5692408,-2.1426994800567627,-1.3349116754582901,-2.530252758656637,6.116533267288961,1.0241632461547852,-2.4721625486956995
1708436276.5712197,-2.1426870822906494,-1.3348464679769059,-2.530245367680685,6.116476285248556,1.0240933895111084,-2.472316567097799
1708436276.5732155,-2.14272403717041,-1.3348465424827118,-2.5302184263812464,6.116355407028951,1.0240695476531982,-2.472431484852926
1708436276.5752127,-2.1426429748535156,-1.3348224324039002,-2.5302138964282435,6.116333114891805,1.024107575416565,-2.4725523630725306
1708436276.5771945,-2.14272141456604,-1.334834249024727,-2.5302065054522913,6.116240131645956,1.0240509510040283,-2.472640577946798
1708436276.579232,-2.142611265182495,-1.3347819161466141,-2.5302184263812464,6.116205918579855,1.0240015983581543,-2.4727445284472864
1708436276.5811973,-2.1426315307617188,-1.3348224622062226,-2.530177895222799,6.1161160347755334,1.0239613056182861,-2.4728758970843714
1708436276.5832372,-2.142606735229492,-1.334761620765068,-2.530165735875265,6.116040217667379,1.0239088535308838,-2.4729719797717493
1708436276.585189,-2.142615556716919,-1.3347540658763428,-2.5301390329944056,6.116062509804525,1.0239348411560059,-2.473135296498434
1708436276.5872087,-2.142608642578125,-1.3347950291684647,-2.530125681553976,6.115949022560873,1.0239229202270508,-2.4732847849475306
1708436276.5892045,-2.1425724029541016,-1.3347422939589997,-2.5300849119769495,6.115906703263082,1.023837685585022,-2.473461691533224
1708436276.5911968,-2.1425962448120117,-1.3347268116525193,-2.5301061312304896,6.115842568665304,1.02378511428833,-2.4735775629626673
1708436276.5931993,-2.1425678730010986,-1.3346777272275467,-2.5300326983081263,6.115785705834188,1.0237820148468018,-2.473705832158224
1708436276.5951939,-2.142559766769409,-1.3347311925939103,-2.530012909566061,6.115690219193258,1.0236804485321045,-2.4738615194903772
1708436276.5972214,-2.142482280731201,-1.3346939098886033,-2.5300548712359827,6.115630614548483,1.023669719696045,-2.4740551153766077
1708436276.5992136,-2.1425819396972656,-1.3347486865571518,-2.5300098101245325,6.1156619665916345,1.023620367050171,-2.4742234388934534
1708436276.6012177,-2.142516613006592,-1.3347486418536683,-2.5299771467791956,6.115536320000448,1.0235930681228638,-2.474326197301046
1708436276.6032197,-2.1425695419311523,-1.3346541088870545,-2.5299649874316614,6.115427243500509,1.0235817432403564,-2.4744988123523157
1708436276.605204,-2.1425209045410156,-1.3346875619939347,-2.529937807713644,6.115358459740438,1.0235131978988647,-2.4747167269336146
1708436276.6072369,-2.1425085067749023,-1.3346585643342515,-2.529921595250265,6.115352260857382,1.0234899520874023,-2.4748767058001917
1708436276.6092417,-2.1424431800842285,-1.3346431267312546,-2.5299184958087366,6.115268456726827,1.0234167575836182,-2.47498327890505
1708436276.6112094,-2.142489194869995,-1.3346760284951706,-2.5299184958087366,6.115171539574423,1.0233525037765503,-2.475245777760641
1708436276.6132085,-2.142472267150879,-1.3346725565246125,-2.5298538843738,6.1151699898536584,1.023317575454712,-2.475377146397726
1708436276.6152077,-2.1424407958984375,-1.3346474778703232,-2.529829804097311,6.115089285164633,1.0232528448104858,-2.475520674382345
1708436276.6172402,-2.1424407958984375,-1.3346149188331147,-2.5298014322863978,6.114988076477804,1.0231678485870361,-2.4757333437549036
1708436276.619209,-2.1423840522766113,-1.3346026551774521,-2.5297775904284876,6.114944326668539,1.023152470588684,-2.4758480230914515
1708436276.6212044,-2.142400026321411,-1.3345832985690613,-2.5297744909869593,6.114938366204061,1.023059368133545,-2.4761062304126185
1708436276.6233346,-2.142354726791382,-1.334593118434288,-2.5297425428973597,6.11490677574233,1.0229995250701904,-2.4763222376452845
1708436276.6252286,-2.142406463623047,-1.3345312637141724,-2.5297308603869837,6.114823090821066,1.0229806900024414,-2.4764860312091272
1708436276.62722,-2.142347812652588,-1.3345963817885895,-2.529693667088644,6.114796268730917,1.0229119062423706,-2.476689879094259
1708436276.6292233,-2.1423611640930176,-1.334547520881035,-2.529654328023092,6.114670860558309,1.0228641033172607,-2.47691256204714
1708436276.6312206,-2.142392873764038,-1.334563822751381,-2.52964693704714,6.114667880326071,1.0227755308151245,-2.477067772542135
1708436276.6332312,-2.142390251159668,-1.3345202517560502,-2.529581371937887,6.114640939026632,1.0227229595184326,-2.477276388798849
1708436276.6352012,-2.142357587814331,-1.3345324707082291,-2.5295661131488245,6.114580976753988,1.0226835012435913,-2.4774611631976526
1708436276.6372375,-2.1423091888427734,-1.3345945340446015,-2.5295422712909144,6.114459740906515,1.0225863456726074,-2.4777091185199183
1708436276.6392086,-2.1423046588897705,-1.3344964993051072,-2.529489580784933,6.114440667420187,1.0225183963775635,-2.477898422871725
1708436276.6412084,-2.14229679107666,-1.334468202,-2.5295279661761683,6.114404666214742,1.022507667541504,-2.478086058293478
1708436276.6432345,-2.142275333404541,-1.3344920438579102,-2.5294626394854944,6.114243137627401,1.0224134922027588,-2.478285853062765
1708436276.6451912,-2.142270088195801,-1.3344562661698838,-2.529393736516134,6.1142358658607385,1.0223784446716309,-2.4785223642932337
1708436276.647232,-2.142240285873413,-1.3344277304461976,-2.529353443776266,6.114177453308859,1.0223227739334106,-2.478711191807882
1708436276.6492057,-2.142270088195801,-1.3344606173089524,-2.5294068495379847,6.114153373032369,1.0222673416137695,-2.478887144719259
1708436276.6512034,-2.1422410011291504,-1.3344277453473588,-2.529367510472433,6.113990294724264,1.0222070217132568,-2.4791184107409876
1708436276.653301,-2.142265796661377,-1.3344408881715317,-2.529289786015646,6.113992202072897,1.0221061706542969,-2.479401175175802
1708436276.6552782,-2.1422226428985596,-1.3344202798656006,-2.52927810350527,6.11392496803359,1.0220465660095215,-2.479527298604147
1708436276.6572223,-2.142200231552124,-1.3343833994916459,-2.5293119589435022,6.113905298500814,1.0220026969909668,-2.4797592798816126
1708436276.6592224,-2.142204761505127,-1.3343476218036194,-2.5292392412768763,6.113824355393209,1.02196204662323,-2.479992453251974
1708436276.6612086,-2.1421775817871094,-1.3343591553023835,-2.529182259236471,6.113851415901937,1.0218979120254517,-2.480184857045309
1708436276.6632214,-2.142181873321533,-1.334413931970932,-2.5291417280780237,6.1136886952217,1.0218418836593628,-2.4804206530200403
1708436276.6652071,-2.142165184020996,-1.3343607050231476,-2.5291298071490687,6.113625752716818,1.0217862129211426,-2.480661932622091
1708436276.6672235,-2.1421613693237305,-1.3343531799367447,-2.5290938059436243,6.11364375331954,1.0217173099517822,-2.480886522923605
1708436276.6692083,-2.1421172618865967,-1.334336594944336,-2.529083315526144,6.113537776261129,1.0216608047485352,-2.4810577074633997
1708436276.6711962,-2.1421499252319336,-1.3343321842006226,-2.5290263334857386,6.113507735520162,1.0216331481933594,-2.4812989870654505
1708436276.6732256,-2.1421263217926025,-1.33427548528228,-2.5290141741382044,6.1133943674858,1.0215522050857544,-2.48151141801943
1708436276.6752155,-2.1420960426330566,-1.3342798811248322,-2.5289738813983362,6.11332534530715,1.0215458869934082,-2.4817593733416956
1708436276.6772296,-2.1420633792877197,-1.3343136471560975,-2.528929058705465,6.1132744429405115,1.0214977264404297,-2.4819183985339563
1708436276.6791978,-2.14211106300354,-1.3342679899981995,-2.5289631525622767,6.11322187164382,1.0214285850524902,-2.4821439425097864
1708436276.681197,-2.1420934200286865,-1.3342798364213486,-2.5289226214038294,6.113204228668966,1.0213521718978882,-2.482340637837545
1708436276.683195,-2.142057418823242,-1.3343179684928437,-2.528849426900045,6.11314736583785,1.021313190460205,-2.4825597445117396
1708436276.6852236,-2.1420414447784424,-1.3343224090388794,-2.5288553873645228,6.113104212075033,1.0212733745574951,-2.4828127066241663
1708436276.6871948,-2.1419990062713623,-1.334272400741913,-2.528780523930685,6.113015639572897,1.0212090015411377,-2.4829893747912806
1708436276.6891983,-2.142009735107422,-1.3342323017171402,-2.5287371317492884,6.113005387573995,1.0211610794067383,-2.4831932226764124
1708436276.69127,-2.1419973373413086,-1.334245355134346,-2.5287657419787806,6.112989413529196,1.021116018295288,-2.483393971120016
1708436276.6932337,-2.1420228481292725,-1.3342616272023697,-2.5287306944476526,6.1128636477287195,1.0210440158843994,-2.4836230913745325
1708436276.6952147,-2.1419620513916016,-1.3342160147479554,-2.5287306944476526,6.112845408707418,1.021012544631958,-2.4838836828814905
1708436276.6972084,-2.1419663429260254,-1.3342334491065522,-2.5286858717547815,6.112802016526022,1.020989179611206,-2.4840884844409388
1708436276.699205,-2.1419496536254883,-1.3341593009284516,-2.528682533894674,6.1127710221107385,1.020855188369751,-2.484295670186178
1708436276.7012067,-2.1419053077697754,-1.334217132335045,-2.5286291281329554,6.112701880722799,1.0208768844604492,-2.484483305607931
1708436276.7032235,-2.1419548988342285,-1.334147335296013,-2.5286436716662806,6.112703549652853,1.0208035707473755,-2.484685007725851
1708436276.7052436,-2.141908645629883,-1.3341930520585557,-2.528623644505636,6.1126394150550745,1.0207639932632446,-2.484877411519186
1708436276.7072341,-2.1418895721435547,-1.3341366809657593,-2.528619352971212,6.112537848740377,1.0207245349884033,-2.485053602849142
1708436276.7092319,-2.1418585777282715,-1.3341679734042664,-2.528562847767965,6.1125032780464075,1.0207008123397827,-2.4852383772479456
1708436276.7111983,-2.141826629638672,-1.3341692251018067,-2.528513256703512,6.112467276840963,1.0206360816955566,-2.4854746500598353
1708436276.7132218,-2.141792058944702,-1.3341482889703293,-2.528510395680563,6.112362730294027,1.0206079483032227,-2.485596005116598
1708436276.715207,-2.1417739391326904,-1.3341570657542725,-2.5284820238696497,6.112331259041586,1.0205312967300415,-2.4858384768115442
1708436276.7172222,-2.1417489051818848,-1.3342105013183136,-2.5284457842456263,6.112229573517599,1.0205280780792236,-2.4860437552081507
1708436276.7192104,-2.1417622566223145,-1.3341899526170273,-2.528421942387716,6.112222063332357,1.020438313484192,-2.486206356679098
1708436276.7212436,-2.1417667865753174,-1.3341082048467179,-2.5284157435046595,6.112171518593588,1.0204277038574219,-2.4863954226123255
1708436276.7232523,-2.141763925552368,-1.3340799671462555,-2.528414551411764,6.112093317299642,1.0203739404678345,-2.486575428639547
1708436276.7252061,-2.141718864440918,-1.3342073273709794,-2.5283663908587855,6.112059223442831,1.0203182697296143,-2.486800018941061
1708436276.7272468,-2.141716480255127,-1.3341213178685685,-2.5283618609057825,6.112011301308431,1.0203194618225098,-2.486939016972677
1708436276.729221,-2.1416544914245605,-1.3341334921172638,-2.5283542315112513,6.111930954247274,1.0202834606170654,-2.4871535936938685
1708436276.7312157,-2.141655206680298,-1.3341334772161026,-2.5282843748675745,6.111899363785543,1.0202791690826416,-2.4872968832599085
1708436276.7332408,-2.1415810585021973,-1.3341334474137803,-2.528334919606344,6.11182318904952,1.0202100276947021,-2.487464968358175
1708436276.7352026,-2.141496419906616,-1.3341005754521866,-2.5282986799823206,6.111854421883383,1.020198941230774,-2.487613026295797
1708436276.7372441,-2.141510486602783,-1.3341005754521866,-2.5283153692828577,6.111740815430441,1.0202120542526245,-2.487781349812643
1708436276.739207,-2.141514778137207,-1.3341203790954133,-2.528330389653341,6.111673342972555,1.020155429840088,-2.4879947344409388
1708436276.741213,-2.141458511352539,-1.3341037643006821,-2.5283029715167444,6.111649977951803,1.0200941562652588,-2.4880598227130335
1708436276.743229,-2.141462802886963,-1.3341453683427353,-2.5282660166369837,6.111536013870992,1.0200788974761963,-2.488278929387228
1708436276.7452188,-2.1413822174072266,-1.3341290962747117,-2.5282660166369837,6.111527192383566,1.02003812789917,-2.488425318394796
1708436276.7472305,-2.141400098800659,-1.3341613423875351,-2.5282703081714075,6.111441600113668,1.0200350284576416,-2.488582436238424
1708436276.7492328,-2.141343593597412,-1.3341497492841263,-2.5282331148730677,6.111415135651388,1.0200231075286865,-2.4887056986438196
1708436276.7511997,-2.1413116455078125,-1.3340962094119568,-2.5283330122577112,6.111359584122457,1.0200068950653076,-2.488854710255758
1708436276.7533205,-2.1412763595581055,-1.3341050159982224,-2.528249804173605,6.111250388413229,1.020003318786621,-2.4890030066119593
1708436276.7552774,-2.141153573989868,-1.334121288066246,-2.5282748381244105,6.111244547158041,1.0199346542358398,-2.489220682774679
1708436276.7572322,-2.1411757469177246,-1.3341788810542603,-2.5282791296588343,6.1111217615898035,1.0199594497680664,-2.4893558661090296
1708436276.759217,-2.1411476135253906,-1.3341213029674073,-2.52826172510256,6.111071097641744,1.0198853015899658,-2.489464346562521
1708436276.7612104,-2.141097068786621,-1.3341542047313233,-2.5282540957080286,6.110999452858724,1.0198982954025269,-2.4895549456225794
1708436276.763237,-2.141040802001953,-1.3340768081000824,-2.5282748381244105,6.1109022972877405,1.0199027061462402,-2.4896824995623987
1708436276.7652097,-2.141000747680664,-1.334141121511795,-2.5282824675189417,6.110779630928793,1.019931435585022,-2.4897995630847376
1708436276.767241,-2.140953302383423,-1.3341911298087616,-2.5282912890063685,6.110739457398214,1.0199027061462402,-2.489903752003805
1708436276.7692297,-2.14083194732666,-1.334158570771553,-2.5282779375659388,6.110709416657247,1.0198702812194824,-2.4900267759906214
1708436276.7712324,-2.1407721042633057,-1.3341005754521866,-2.528306547795431,6.110568868904867,1.0199278593063354,-2.490209404622213
1708436276.7732413,-2.140712022781372,-1.3341082793525239,-2.5283196608172815,6.110510456352987,1.019865870475769,-2.4903090635882776
1708436276.7752247,-2.1406774520874023,-1.3341005456498642,-2.5283404032336634,6.1103612063224695,1.0199192762374878,-2.490436617528097
1708436276.777253,-2.1405882835388184,-1.3341571551612397,-2.528310839329855,6.110296952515402,1.0199192762374878,-2.490504328404562
1708436276.7792046,-2.140486717224121,-1.3341986250928421,-2.528363052998678,6.110168564110555,1.0199027061462402,-2.4906376043902796
1708436276.7812154,-2.140388011932373,-1.3341168475202103,-2.528330389653341,6.11007713058547,1.0199061632156372,-2.490704600011007
1708436276.7832353,-2.1403603553771973,-1.3341453832438965,-2.528372112904684,6.1099411127860925,1.0199638605117798,-2.49080473581423
1708436276.7852066,-2.140253782272339,-1.3341453832438965,-2.528375212346212,6.109833466797628,1.0199302434921265,-2.490917984639303
1708436276.7872405,-2.1401662826538086,-1.3341570657542725,-2.5283706823932093,6.109692919045248,1.019995927810669,-2.49099308649172
1708436276.7892282,-2.1400115489959717,-1.3341570359519501,-2.528386894856588,6.109513389855184,1.019978404045105,-2.4910605589496058
1708436276.7912004,-2.139925003051758,-1.3341854822686692,-2.5284200350390833,6.10945092418746,1.0199705362319946,-2.4911988417254847
1708436276.7932227,-2.1398766040802,-1.3341526252082367,-2.5284889380084437,6.109311568527975,1.0200077295303345,-2.4912245909320276
1708436276.7952104,-2.1397006511688232,-1.3342303198627015,-2.528446976338522,6.109166610031881,1.0200481414794922,-2.4913747946368616
1708436276.7972128,-2.1395726203918457,-1.3342866760543366,-2.5284786860095423,6.10906075218276,1.0200231075286865,-2.491433922444479
1708436276.7992256,-2.139462471008301,-1.334261642103531,-2.5284953753100794,6.108876693039694,1.0200963020324707,-2.4914823214160364
1708436276.8011963,-2.1393704414367676,-1.3342453253320237,-2.5284982363330286,6.108736026078024,1.0200669765472412,-2.49158746400942
1708436276.803225,-2.1392176151275635,-1.3342159402421494,-2.5285466353045862,6.108532893448629,1.0201191902160645,-2.49164325395693
1708436276.8052225,-2.1390464305877686,-1.3343223345330735,-2.5285704771624964,6.108364331513204,1.0201311111450195,-2.4917269388781946
1708436276.8072445,-2.138913631439209,-1.3342798811248322,-2.5285986105548304,6.108292567520895,1.0201759338378906,-2.4917708078967493
1708436276.8092463,-2.1388041973114014,-1.3343215894750138,-2.5286274592029017,6.108062016754904,1.0202163457870483,-2.49181038538088
1708436276.8112001,-2.138640880584717,-1.3343321543983002,-2.5286675135241907,6.107875096588888,1.0202033519744873,-2.4918864409076136
1708436276.8132327,-2.1385180950164795,-1.334340126519539,-2.5286977926837366,6.107707845955648,1.0202440023422241,-2.4919186274157923
1708436276.8152413,-2.1382718086242676,-1.3343723577312012,-2.528764788304464,6.107568847924032,1.0203051567077637,-2.491957489644186
1708436276.8172545,-2.138160228729248,-1.3343798381141205,-2.5287635962115687,6.107403027802267,1.0203039646148682,-2.4920266310321253
1708436276.8192565,-2.1379897594451904,-1.3344158989242096,-2.528783384953634,6.1072189686592,1.020372748374939,-2.4920504728900355
1708436276.8212068,-2.1377999782562256,-1.3344277453473588,-2.5288100878344935,6.107023465424337,1.0204012393951416,-2.4920976797686976
1708436276.8232393,-2.137629508972168,-1.3345094484141846,-2.5288427511798304,6.106770264893331,1.020468831062317,-2.4921377340899866
1708436276.8251994,-2.1374547481536865,-1.3344996136477967,-2.52891189256777,6.106533038407125,1.0205130577087402,-2.492192093526022
1708436276.8272333,-2.137233018875122,-1.3344864708236237,-2.5289271513568323,6.106396782189169,1.0205565690994263,-2.4921982924090784
1708436276.8292136,-2.1370556354522705,-1.3346019995263596,-2.5290003458606165,6.106135594635763,1.020678997039795,-2.4922834078418177
1708436276.8312109,-2.136871576309204,-1.3345757138780137,-2.529064718876974,6.105966198235311,1.0206897258758545,-2.492220942174093
1708436276.833208,-2.1366896629333496,-1.3346325171044846,-2.5290425459491175,6.105772006302633,1.0207202434539795,-2.492282215748922
1708436276.8351943,-2.136431932449341,-1.3346680861762543,-2.529098097478048,6.1054208157356165,1.0208133459091187,-2.4923434893237513
1708436276.8372157,-2.1362500190734863,-1.3347082895091553,-2.5291760603534144,6.105226385384359,1.0208046436309814,-2.492354694996969
1708436276.8392007,-2.136026382446289,-1.3347399842790146,-2.529259983693258,6.105008113175192,1.0209258794784546,-2.492366615925924
1708436276.8412075,-2.1357545852661133,-1.334768460398056,-2.529311243687765,6.104651081352987,1.021026372909546,-2.4923742453204554
1708436276.8432486,-2.13549542427063,-1.3347776544145127,-2.5293710867511194,6.104438888817587,1.0211313962936401,-2.4924142996417444
1708436276.8452299,-2.135227680206299,-1.3348160100034256,-2.529463593159811,6.10413812378005,1.0211740732192993,-2.4924142996417444
1708436276.84721,-2.1349828243255615,-1.3348508489182969,-2.529547993336813,6.103879558831014,1.0212382078170776,-2.4924262205706995
1708436276.8492174,-2.1347532272338867,-1.3348376911929627,-2.5296018759356897,6.103616702347555,1.0213061571121216,-2.4924305121051233
1708436276.851216,-2.13447642326355,-1.3349520874074479,-2.529687229787008,6.1033164141471765,1.0214024782180786,-2.4924023787127894
1708436276.8532875,-2.134186267852783,-1.3349508357099076,-2.529783312474386,6.1030722735221765,1.021531343460083,-2.4923861662494105
1708436276.8552349,-2.1339025497436523,-1.3350103360465546,-2.529907766972677,6.102715480118551,1.0216810703277588,-2.492361370717184
1708436276.857254,-2.1336209774017334,-1.3350913238576432,-2.5299883524524134,6.1024324772651575,1.021772861480713,-2.4924100081073206
1708436276.8592224,-2.1332905292510986,-1.3351432097009202,-2.5301335493670862,6.102126109391012,1.0218561887741089,-2.4924142996417444
1708436276.8612003,-2.1329476833343506,-1.3351451617530365,-2.5301879088031214,6.101770508080282,1.0219794511795044,-2.4923980871783655
1708436276.8632,-2.1326136589050293,-1.335227222447731,-2.530304733906881,6.101357924729147,1.022120475769043,-2.4923861662494105
1708436276.8652623,-2.132240056991577,-1.3352705103209992,-2.5303590933429163,6.101019727974691,1.0222808122634888,-2.492422882710592
1708436276.8671956,-2.131925582885742,-1.3353172105601807,-2.5305119196521204,6.100670444756307,1.0223958492279053,-2.4923461119281214
1708436276.8691921,-2.1315581798553467,-1.3354140681079407,-2.5305915514575403,6.100326406746664,1.0225456953048706,-2.492354694996969
1708436276.8712041,-2.1311614513397217,-1.335473583345749,-2.5307276884662073,6.099885332375326,1.0227022171020508,-2.492297951375143
1708436276.8732193,-2.1308345794677734,-1.3355589520982285,-2.5308433214770716,6.099617707520284,1.0228999853134155,-2.492248598729269
1708436276.8752222,-2.1304070949554443,-1.335600809460022,-2.5310140291797083,6.099139797478475,1.0230185985565186,-2.492241684590475
1708436276.8772354,-2.1300697326660156,-1.3357130152038117,-2.5310683886157435,6.098782408028402,1.0231881141662598,-2.492241684590475
1708436276.8791866,-2.1296262741088867,-1.3357606095126648,-2.531198803578512,6.098368632584371,1.023384928703308,-2.4921897093402308
1708436276.8812084,-2.1291868686676025,-1.33586539447818,-2.531344000493185,6.097933399468221,1.0235774517059326,-2.4921627680407923
1708436276.883218,-2.128779411315918,-1.3359445941499253,-2.53150445619692,6.097571480065145,1.0237001180648804,-2.492112700139181
1708436276.8852558,-2.1283109188079834,-1.3360358637622376,-2.5316858927356165,6.097047197609701,1.023926019668579,-2.4921589533435267
1708436276.8872108,-2.1279425621032715,-1.3361684095910569,-2.531792227421896,6.0966447470481775,1.0240538120269775,-2.492077175770895
1708436276.8892176,-2.1274373531341553,-1.336243362431862,-2.5319975058185022,6.096181380539694,1.0242178440093994,-2.4920125643359583
1708436276.8912375,-2.1269733905792236,-1.3363106709769745,-2.53215200105776,6.095698821335592,1.0243817567825317,-2.49200946489443
1708436276.8932319,-2.126549005508423,-1.3364510995200654,-2.5323215166675013,6.095240700035848,1.0245662927627563,-2.4919560591327112
1708436276.8952117,-2.1260745525360107,-1.3364977699569245,-2.53253418604006,6.094750869065084,1.0248005390167236,-2.4919913450824183
1708436276.8972108,-2.12553334236145,-1.336666153078415,-2.5326488653766077,6.094236480980673,1.024979829788208,-2.491901222859518
1708436276.8992176,-2.1250834465026855,-1.3367202889970322,-2.532870356236593,6.093729960709371,1.0251511335372925,-2.4918692747699183
1708436276.9012442,-2.1245481967926025,-1.3369229596904297,-2.532987658177511,6.09322344043807,1.0253483057022095,-2.491800371800558
1708436276.903237,-2.1240737438201904,-1.3369563084891816,-2.5332050959216517,6.092689740448751,1.0255898237228394,-2.4917405287372034
1708436276.9052346,-2.1235432624816895,-1.3370760840228577,-2.533384625111715,6.092170822411337,1.0257482528686523,-2.491737190877096
1708436276.9072294,-2.123023509979248,-1.3371847134879609,-2.533581320439474,6.0916128037269495,1.0259896516799927,-2.491663996373312
1708436276.9092245,-2.1224937438964844,-1.3373480898192902,-2.53379732767214,6.091070043831625,1.0261939764022827,-2.491617027913229
1708436276.9112177,-2.1219053268432617,-1.3374349039844056,-2.5339682737933558,6.090496408730306,1.0264263153076172,-2.4915245215045374
1708436276.9132285,-2.121340274810791,-1.337631644015648,-2.5342546145068567,6.089877831726827,1.0266708135604858,-2.491450611745016
1708436276.9152138,-2.1207115650177,-1.337729201917984,-2.5344253222094935,6.089324819832601,1.0269067287445068,-2.4914520422564905
1708436276.9172444,-2.120124101638794,-1.3379238110831757,-2.534616295491354,6.088681566506185,1.0271843671798706,-2.49131948152651
1708436276.9192305,-2.11958384513855,-1.3380254817060013,-2.5347991625415247,6.088143574982443,1.027457594871521,-2.491283718739645
1708436276.9212341,-2.1189398765563965,-1.3381448996118088,-2.5350194613086146,6.087465154915609,1.0276576280593872,-2.4912479559527796
1708436276.9232416,-2.118356466293335,-1.3383096617511292,-2.5352354685412806,6.086848485260763,1.027856469154358,-2.4911063353167933
1708436276.925249,-2.1176764965057373,-1.3384860914996644,-2.535513703023092,6.086212980538168,1.0281593799591064,-2.491067711506979
1708436276.9272442,-2.117090940475464,-1.338672624235489,-2.535741392766134,6.085580456047811,1.0284194946289062,-2.491028134022848
1708436276.9292321,-2.116384983062744,-1.3388250333121796,-2.535907570515768,6.084889876633444,1.0286545753479004,-2.4909141699420374
1708436276.9312234,-2.115684747695923,-1.3389179420522233,-2.536184612904684,6.084189402848043,1.0289760828018188,-2.4908555189715784
1708436276.9332569,-2.115016460418701,-1.339158759718277,-2.5364094416247767,6.083554851799764,1.029252290725708,-2.490701500569479
1708436276.9352162,-2.114304780960083,-1.339264528160431,-2.5366044680224817,6.082840549736776,1.0295002460479736,-2.4906495253192347
1708436276.9372747,-2.1136369705200195,-1.3394740533879776,-2.536872688923971,6.082175242691793,1.0297319889068604,-2.490561548863546
1708436276.9392288,-2.1129212379455566,-1.339632050400116,-2.537117306386129,6.081493603974142,1.0299882888793945,-2.490441385899679
1708436276.9412296,-2.112210988998413,-1.3398072582534333,-2.5373407045947474,6.080787765770712,1.0303339958190918,-2.490378204976217
1708436276.943236,-2.1115169525146484,-1.339983509188034,-2.5376132170306605,6.0800689337547205,1.0305945873260498,-2.490321461354391
1708436276.9452455,-2.110822916030884,-1.3402662587216874,-2.5378688017474573,6.079399215966024,1.030826210975647,-2.49024206796755
1708436276.9472516,-2.110116958618164,-1.3403631907752533,-2.5380876700030726,6.078754889756002,1.0311963558197021,-2.4901209513293665
1708436276.9492488,-2.1093907356262207,-1.3405873340419312,-2.5383523146258753,6.077970135002889,1.031432032585144,-2.4900575319873255
1708436276.951213,-2.1086056232452393,-1.3407864433578034,-2.5386536757098597,6.0773197291191,1.0317655801773071,-2.4899242560016077
1708436276.9532425,-2.1079001426696777,-1.3409685653499146,-2.538884703313009,6.076508390694418,1.0320497751235962,-2.4897833506213587
1708436276.9552546,-2.1070430278778076,-1.341195897465088,-2.5391278902636927,6.075696575432577,1.0323385000228882,-2.4897411505328577
1708436276.9572592,-2.1063358783721924,-1.3414572042277833,-2.539440933858053,6.074948656349935,1.0326142311096191,-2.489629570637838
1708436276.959243,-2.105531692504883,-1.3416231286576767,-2.5396769682513636,6.074172365456381,1.0329359769821167,-2.4894943873034876
1708436276.9612112,-2.1047465801239014,-1.3418667179397126,-2.539936129246847,6.073393571167745,1.0332280397415161,-2.489370648060934
1708436276.9632251,-2.103991746902466,-1.3420059543899079,-2.5401998201953333,6.072656619339742,1.0335538387298584,-2.4892874399768274
1708436276.9652178,-2.103224039077759,-1.342290000324585,-2.540452543889181,6.071876513748922,1.033805012702942,-2.489155356084005
1708436276.9672363,-2.1024093627929688,-1.342479721908905,-2.540683094655172,6.071124303131857,1.0340979099273682,-2.4890714327441614
1708436276.9692116,-2.1015779972076416,-1.3427154582789917,-2.5409932772265833,6.070286738663473,1.0344794988632202,-2.488906208668844
1708436276.9712164,-2.1007344722747803,-1.3430374723723908,-2.5412843863116663,6.069427120476522,1.0347505807876587,-2.4888022581683558
1708436276.973256,-2.0999085903167725,-1.3432556253722687,-2.5414989630328577,6.068672883301534,1.0351155996322632,-2.4887152353869837
1708436276.975209,-2.0991199016571045,-1.3434406083873291,-2.5417988936053675,6.067781793862142,1.0354608297348022,-2.488577191029684
1708436276.9772382,-2.0982871055603027,-1.3437080842307587,-2.542095963154928,6.067064749985494,1.0357574224472046,-2.4884329477893274
1708436276.9792514,-2.09747576713562,-1.3439475458911438,-2.5423594156848353,6.066214549332418,1.036069631576538,-2.4883747736560267
1708436276.9812124,-2.0966098308563232,-1.3441732686809083,-2.54262358347048,6.06542597988204,1.0363584756851196,-2.4882221857654017
1708436276.9832463,-2.0957913398742676,-1.344466046696045,-2.5429442564593714,6.064604627877035,1.0366915464401245,-2.4880576769458216
1708436276.9852295,-2.0948798656463623,-1.344675288801529,-2.543182913457052,6.063689934998312,1.036983847618103,-2.487948719655172
1708436276.987256,-2.093979835510254,-1.344947175388672,-2.5434871355639856,6.062934624939718,1.0372880697250366,-2.4877803961383265
1708436276.9892194,-2.0931129455566406,-1.345231370334961,-2.543784205113546,6.06202923038558,1.037653923034668,-2.4876602331744593
1708436276.9912202,-2.092251777648926,-1.3454916936210175,-2.544046703969137,6.061104404717245,1.0379830598831177,-2.4875500837909144
1708436276.9932365,-2.0913000106811523,-1.3456678253463288,-2.5443432966815394,6.0602444289024255,1.0382577180862427,-2.487401072178976
1708436276.9952092,-2.0904312133789062,-1.3459729862264176,-2.544664446507589,6.059400546341696,1.0385953187942505,-2.487227265034811
1708436276.9972432,-2.0895278453826904,-1.3462372434190293,-2.54496413866152,6.058489429741659,1.0389360189437866,-2.487079445515768
1708436276.999244,-2.0886471271514893,-1.3464716237834473,-2.5452597776996058,6.057620274811544,1.0392770767211914,-2.486911121998922
1708436277.0012167,-2.0877177715301514,-1.3467753392509003,-2.5455427805529993,6.0567147610481165,1.0396084785461426,-2.4867997805224817
1708436277.0032265,-2.086751699447632,-1.346968026166298,-2.545892302189962,6.055786597519674,1.0399582386016846,-2.486610714589254
1708436277.0052176,-2.085756778717041,-1.3472641867450257,-2.54623252550234,6.054763543396749,1.0402750968933105,-2.4865363279925745
1708436277.007235,-2.0848195552825928,-1.347576455479004,-2.546507183705465,6.053864824562826,1.040595531463623,-2.486321751271383
1708436277.0092227,-2.08386492729187,-1.3478230398944397,-2.5467668215381067,6.052951919823446,1.0408754348754883,-2.4861584345446985
1708436277.011212,-2.082895040512085,-1.3481054914048691,-2.547086540852682,6.0520352003868005,1.04121732711792,-2.485973660145895
1708436277.0132608,-2.0819451808929443,-1.3483997595361252,-2.5473862330066126,6.05106400230483,1.0415626764297485,-2.485814158116476
1708436277.0152063,-2.080981731414795,-1.3486180317452927,-2.5477102438556116,6.0501394150550745,1.0418132543563843,-2.4856165091144007
1708436277.0172474,-2.079954147338867,-1.3489784610322495,-2.5480714480029505,6.049075829773702,1.0421794652938843,-2.4854686895953577
1708436277.0192065,-2.078944683074951,-1.349232555632927,-2.5483997503863733,6.048163878708639,1.0424872636795044,-2.4852758089648646
1708436277.0212178,-2.0779316425323486,-1.3495933276465912,-2.548711363469259,6.047149526863851,1.0428407192230225,-2.4851117769824427
1708436277.023225,-2.0769426822662354,-1.3498606544784089,-2.549030844365255,6.0462005017097376,1.0431605577468872,-2.4849348703967493
1708436277.0252032,-2.075929641723633,-1.3501950067332764,-2.549351755772726,6.045195805817404,1.043468713760376,-2.4847310225116175
1708436277.027247,-2.0749452114105225,-1.3504733753255387,-2.5496507326709192,6.044243442803182,1.0437772274017334,-2.4845593611346644
1708436277.0292203,-2.073850393295288,-1.3508261305144806,-2.5499754587756556,6.043167221337118,1.0440572500228882,-2.4843748251544397
1708436277.0312405,-2.072809934616089,-1.351120651965477,-2.5502591768847864,6.042160379677572,1.0444154739379883,-2.484150234852926
1708436277.033241,-2.0718348026275635,-1.3513896775296708,-2.550570789967672,6.041220891266622,1.044698715209961,-2.4839823881732386
1708436277.0352216,-2.07075834274292,-1.3517629665187378,-2.5509236494647425,6.0401954529579065,1.0450561046600342,-2.483802143727438
1708436277.0372398,-2.06974720954895,-1.3520547312549134,-2.551194492970602,6.039136397629537,1.0453728437423706,-2.4836130777942103
1708436277.0392222,-2.068619728088379,-1.352389619951584,-2.551465098057882,6.038123237877645,1.0457587242126465,-2.4833646456347864
1708436277.041209,-2.0675368309020996,-1.3527993124774476,-2.551814381276266,6.037074553757467,1.0460299253463745,-2.483140293751852
1708436277.0432384,-2.0665135383605957,-1.3530768317035218,-2.5521140734301966,6.036031710892477,1.0463424921035767,-2.482964579259054
1708436277.0452144,-2.065415382385254,-1.353435830479004,-2.5524542967425745,6.035001981049337,1.0466465950012207,-2.4827120939837855
1708436277.0472803,-2.0643670558929443,-1.3538179856589814,-2.5527175108539026,6.034042346268453,1.046954870223999,-2.4824956099139612
1708436277.0492494,-2.0633254051208496,-1.3541288834861298,-2.553082291279928,6.03297125080184,1.0472595691680908,-2.4823036829577845
1708436277.0512135,-2.0622456073760986,-1.3544877034476777,-2.553345266972677,6.031984674721517,1.0475972890853882,-2.482075039540426
1708436277.053243,-2.0611588954925537,-1.3549005550197144,-2.553603712712423,6.030906069069662,1.04787278175354,-2.481875483189718
1708436277.0552874,-2.060023784637451,-1.3552215856364747,-2.553919855748312,6.029738294869222,1.0481702089309692,-2.4816306273089808
1708436277.0572343,-2.058967113494873,-1.3555892270854493,-2.55431038538088,6.0287078497703455,1.0484693050384521,-2.4813736120807093
1708436277.0592282,-2.0577940940856934,-1.355943576698639,-2.5545478502856653,6.027573931008138,1.0487459897994995,-2.481194321309225
1708436277.0612514,-2.056682586669922,-1.3563054364970704,-2.5548728148089808,6.026501762657919,1.0490715503692627,-2.480945650731222
1708436277.0632534,-2.0556113719940186,-1.3566150230220337,-2.5551608244525355,6.025486457138815,1.0493319034576416,-2.4807215372668665
1708436277.065217,-2.054506301879883,-1.3570105892470856,-2.5554683844195765,6.024380790978231,1.0496159791946411,-2.4804964701281946
1708436277.0672476,-2.053436279296875,-1.357352854018547,-2.5557594935046595,6.023300277977743,1.0499376058578491,-2.4802849928485315
1708436277.0692317,-2.052311897277832,-1.3577401351979752,-2.5560925642596644,6.0221420405204675,1.0502138137817383,-2.4800718466388147
1708436277.0712187,-2.051135540008545,-1.3581243318370362,-2.5563681761371058,6.0212005255515955,1.0505504608154297,-2.47977859178652
1708436277.0732362,-2.0500519275665283,-1.358432189827301,-2.5566681067096155,6.019993173867025,1.050797462463379,-2.479563061391012
1708436277.0752172,-2.04892897605896,-1.3588565748981019,-2.5569878260241907,6.018933522492208,1.051051139831543,-2.4793506304370325
1708436277.0772462,-2.0477852821350098,-1.3592690837434311,-2.557239834462301,6.017795431404867,1.0512664318084717,-2.4790125528918665
1708436277.0792172,-2.046653985977173,-1.35963827491317,-2.5575345198260706,6.016687261849203,1.0515516996383667,-2.478833262120382
1708436277.0812194,-2.045499324798584,-1.360013560657837,-2.5578017870532435,6.0155759928520105,1.0518207550048828,-2.478605333958761
