Eg3-git/Classifiers/Data Collection/u4/u4star4_ur3e_joint_states.csv
time,elbow_joint,shoulder_lift_joint,shoulder_pan_joint,wrist_1_joint,wrist_2_joint,wrist_3_joint
1708436309.7394457,-2.1551806926727295,-1.3368187856725235,-2.523332182561056,6.140935408860006,1.011207103729248,-2.584280316029684
1708436309.7414384,-2.155137062072754,-1.3368637424758454,-2.523336712514059,6.1408517239387415,1.0111243724822998,-2.58425480524172
1708436309.7434351,-2.155148506164551,-1.3368929040483017,-2.5232752005206507,6.140881526261129,1.011173963546753,-2.5842793623553675
1708436309.745475,-2.1551806926727295,-1.3369048249772568,-2.5233500639544886,6.14092646816329,1.0111817121505737,-2.584259335194723
1708436309.7474658,-2.155189037322998,-1.3368561130813141,-2.523320023213522,6.140865194588461,1.0112160444259644,-2.5842972437488
1708436309.7494416,-2.1551737785339355,-1.3368679595044632,-2.5232749621020716,6.140865194588461,1.0111711025238037,-2.584309164677755
1708436309.7514637,-2.155139923095703,-1.3368561130813141,-2.523332182561056,6.140836465149679,1.011152982711792,-2.584247414265768
1708436309.7534397,-2.1551241874694824,-1.3368764531663437,-2.523311201726095,6.140886056214132,1.01116943359375,-2.584251944218771
1708436309.7554512,-2.155104398727417,-1.3368963313153763,-2.523303810750143,6.140914308815756,1.011152982711792,-2.5842893759356897
1708436309.7574577,-2.1551084518432617,-1.3368399900249024,-2.523303810750143,6.140884387284078,1.0111620426177979,-2.584297482167379
1708436309.7594435,-2.155104160308838,-1.3368679595044632,-2.5232961813556116,6.14085744598464,1.0111784934997559,-2.584247652684347
1708436309.7614248,-2.1551284790039062,-1.3368518215468903,-2.5233081022845667,6.140852916031637,1.0111783742904663,-2.5842564741717737
1708436309.7634547,-2.1551127433776855,-1.3368518215468903,-2.5232706705676478,6.140888917237081,1.0111455917358398,-2.5842819849597376
1708436309.7654822,-2.155144214630127,-1.3368929040483017,-2.523303810750143,6.1409562704856775,1.0111784934997559,-2.5842157045947474
1708436309.7674336,-2.1551566123962402,-1.336843417291977,-2.523336712514059,6.1409069178398035,1.0111620426177979,-2.5841501394854944
1708436309.7694685,-2.155104398727417,-1.3368679595044632,-2.5233379046069544,6.140881526261129,1.0110957622528076,-2.584250036870138
1708436309.7714484,-2.1551241874694824,-1.336810828452446,-2.5233288447009485,6.140832054405966,1.0111664533615112,-2.58419639268984
1708436309.7734838,-2.1551284790039062,-1.3367904138616105,-2.5233004728900355,6.140841114311971,1.0111829042434692,-2.584163490925924
1708436309.775443,-2.1551241874694824,-1.3368844103864213,-2.523287359868185,6.14087079742507,1.0111576318740845,-2.58417255083193
1708436309.7774315,-2.1551003456115723,-1.3368963313153763,-2.523266379033224,6.140856253891744,1.0111829042434692,-2.5842202345477503
1708436309.7794535,-2.155137062072754,-1.336827279334404,-2.523311201726095,6.14091573932723,1.011195182800293,-2.5842037836657923
1708436309.7814162,-2.1551201343536377,-1.3368844103864213,-2.5233245531665247,6.14085744598464,1.011152982711792,-2.58417255083193
1708436309.783422,-2.1551127433776855,-1.336834878926613,-2.523352924977438,6.140852916031637,1.0111289024353027,-2.584191862736837
1708436309.7854145,-2.155148506164551,-1.336831496363022,-2.523336712514059,6.140852916031637,1.011152982711792,-2.584151569996969
1708436309.7874305,-2.1551241874694824,-1.3368074160865326,-2.52329928079714,6.140832054405966,1.0111457109451294,-2.5841711203204554
1708436309.7895205,-2.155137062072754,-1.3368764829686661,-2.52329928079714,6.140877115517416,1.0111411809921265,-2.584226195012228
1708436309.7914867,-2.155148506164551,-1.336843417291977,-2.523336712514059,6.140832054405966,1.0111501216888428,-2.58419639268984
1708436309.7935112,-2.1551127433776855,-1.336827279334404,-2.5233243147479456,6.140881526261129,1.011195182800293,-2.584151808415548
1708436309.7954607,-2.1551566123962402,-1.336810828452446,-2.5233410040484827,6.140881526261129,1.0111711025238037,-2.584205214177267
1708436309.797448,-2.155083417892456,-1.3368518215468903,-2.5232961813556116,6.1408365843589685,1.0111784934997559,-2.584156099949972
1708436309.7994387,-2.155139923095703,-1.3368230772069474,-2.5233750979052942,6.140827643662252,1.0111784934997559,-2.584200922642843
1708436309.801483,-2.155139923095703,-1.336831496363022,-2.5233288447009485,6.1408530352409265,1.0111664533615112,-2.5841382185565394
1708436309.803453,-2.1551764011383057,-1.3368391257575531,-2.523352924977438,6.140865194588461,1.0111784934997559,-2.584165398274557
1708436309.8054752,-2.1551527976989746,-1.3368031245521088,-2.5232961813556116,6.140886056214132,1.0110958814620972,-2.584113899861471
1708436309.807458,-2.1551570892333984,-1.3368066561273118,-2.5233126322375696,6.140953409462728,1.0111167430877686,-2.584179941807882
1708436309.809452,-2.1551284790039062,-1.336815045481064,-2.523336712514059,6.1409023878868005,1.0111333131790161,-2.584147278462545
1708436309.8114796,-2.1551284790039062,-1.3368518215468903,-2.5233288447009485,6.140883075981893,1.0111664533615112,-2.5841055552112024
1708436309.8134754,-2.1551170349121094,-1.3368560683778306,-2.523320023213522,6.140923249512472,1.0111078023910522,-2.58417255083193
1708436309.8154647,-2.155165195465088,-1.3368518215468903,-2.5232961813556116,6.140852916031637,1.0111122131347656,-2.5841437021838587
1708436309.8174703,-2.155125617980957,-1.3368476194194336,-2.5232632795916956,6.140889036446371,1.0111664533615112,-2.584156099949972
1708436309.8194468,-2.1551127433776855,-1.336831496363022,-2.5233245531665247,6.140852916031637,1.0111457109451294,-2.584156099949972
1708436309.8214324,-2.1551284790039062,-1.3368844103864213,-2.5232706705676478,6.140909778862753,1.0111756324768066,-2.5841482321368616
1708436309.823487,-2.15513277053833,-1.3368108731559296,-2.5233126322375696,6.140874135285177,1.0111470222473145,-2.584177080784933
1708436309.8254416,-2.1551764011383057,-1.336855263715126,-2.5232916514026087,6.140923249512472,1.0111289024353027,-2.584165398274557
1708436309.8274531,-2.1551170349121094,-1.3368235391429444,-2.523320023213522,6.140890586167135,1.0111546516418457,-2.5841272513019007
1708436309.8294475,-2.1551003456115723,-1.3368963313153763,-2.523327891026632,6.140832054405966,1.0111638307571411,-2.584177080784933
1708436309.8315074,-2.1551084518432617,-1.336831496363022,-2.5232587496386927,6.1408859370048425,1.0111620426177979,-2.5841317812549036
1708436309.8334522,-2.1551170349121094,-1.3368764531663437,-2.5232916514026087,6.140848386078634,1.0111593008041382,-2.584165159855978
1708436309.83543,-2.15513277053833,-1.3368031245521088,-2.5233126322375696,6.140811192780294,1.0111289024353027,-2.5841437021838587
1708436309.8374448,-2.1551764011383057,-1.3368476343205948,-2.5232794920550745,6.140849935799398,1.0111379623413086,-2.5841193834887903
1708436309.8394315,-2.155137062072754,-1.336843417291977,-2.523303810750143,6.140856253891744,1.0111212730407715,-2.5840938727008265
1708436309.8414264,-2.155137062072754,-1.3368065369180222,-2.5232916514026087,6.140843856125631,1.0111379623413086,-2.5841453711139124
1708436309.8434994,-2.155165195465088,-1.3368679595044632,-2.523320023213522,6.140897857933798,1.0111258029937744,-2.5841272513019007
1708436309.845433,-2.155137062072754,-1.3368391257575531,-2.523282829915182,6.140852916031637,1.0111289024353027,-2.5840984026538294
1708436309.8474667,-2.1551527976989746,-1.336855248813965,-2.5233243147479456,6.140848505287924,1.011116623878479,-2.5840893427478235
1708436309.849421,-2.1550633907318115,-1.336831496363022,-2.5232961813556116,6.140874135285177,1.0111334323883057,-2.5840535799609583
1708436309.8514228,-2.155172109603882,-1.3367861968329926,-2.5232961813556116,6.140861975937643,1.0111289024353027,-2.5841410795794886
1708436309.8534703,-2.155139923095703,-1.3368637424758454,-2.5233126322375696,6.140893447190084,1.0111258029937744,-2.5841029326068323
1708436309.8554213,-2.155148506164551,-1.336810828452446,-2.5233126322375696,6.140852916031637,1.0111289024353027,-2.584128443394796
1708436309.8574536,-2.155148506164551,-1.3368518215468903,-2.5232752005206507,6.14085744598464,1.0111212730407715,-2.5840700308429163
1708436309.8594394,-2.1551783084869385,-1.3368518215468903,-2.5232961813556116,6.1409023878868005,1.0111756324768066,-2.584128443394796
1708436309.8614333,-2.1551170349121094,-1.3368802082589646,-2.5232721010791224,6.140854584961691,1.0111167430877686,-2.584076229725973
1708436309.8634522,-2.1551694869995117,-1.3368722212365647,-2.5232916514026087,6.140911328583517,1.0111593008041382,-2.584111992512838
1708436309.8654394,-2.15513277053833,-1.3368510615876694,-2.5233081022845667,6.140848386078634,1.0111212730407715,-2.584100071583883
1708436309.8674443,-2.1551284790039062,-1.3367904138616105,-2.5233007113086146,6.140869605332174,1.011093020439148,-2.584045712147848
1708436309.8694153,-2.155137062072754,-1.3368108582547684,-2.523266379033224,6.1408742544944666,1.0111122131347656,-2.584163490925924
1708436309.8714252,-2.15513277053833,-1.3368518215468903,-2.523282829915182,6.140909778862753,1.0111379623413086,-2.584125343953268
1708436309.8734725,-2.1551527976989746,-1.336827279334404,-2.5232706705676478,6.140836465149679,1.011109471321106,-2.5840638319598597
1708436309.8754163,-2.155148506164551,-1.3368307066014786,-2.523320023213522,6.140841114311971,1.0111424922943115,-2.584097210560934
1708436309.877446,-2.155148506164551,-1.3368962866118927,-2.5232465902911585,6.14085744598464,1.0111424922943115,-2.584097210560934
1708436309.8794327,-2.1551694869995117,-1.3368877929500123,-2.5232961813556116,6.1409023878868005,1.0110975503921509,-2.58407169977297
1708436309.881443,-2.1551806926727295,-1.3368391406587143,-2.5233410040484827,6.140890586167135,1.0111093521118164,-2.584097210560934
1708436309.883491,-2.155165195465088,-1.3368272346309205,-2.523320023213522,6.140845525055685,1.0111182928085327,-2.584100071583883
1708436309.885431,-2.1551527976989746,-1.3368637424758454,-2.5232465902911585,6.140829193383016,1.0111258029937744,-2.584092680607931
1708436309.8874598,-2.155148506164551,-1.3368357133916398,-2.523303810750143,6.140869605332174,1.011109471321106,-2.5840638319598597
1708436309.8895104,-2.1551737785339355,-1.3367916655591507,-2.5232961813556116,6.140894996910848,1.0111184120178223,-2.5840683619128626
1708436309.8914545,-2.15513277053833,-1.336844192152359,-2.5232961813556116,6.1408201334770105,1.0111110210418701,-2.584038321171896
1708436309.893493,-2.155165195465088,-1.3368759763291855,-2.523287359868185,6.140953290253439,1.0110642910003662,-2.584054772053854
1708436309.8954656,-2.1551413536071777,-1.3368518215468903,-2.5232632795916956,6.140843975334921,1.0111514329910278,-2.584092680607931
1708436309.897422,-2.1551413536071777,-1.3368759465268631,-2.5232391993152063,6.140881526261129,1.0111110210418701,-2.5840898195849817
1708436309.8994458,-2.155125617980957,-1.3368595403483887,-2.5233081022845667,6.14087866523818,1.011077880859375,-2.5840638319598597
1708436309.9014642,-2.1551003456115723,-1.336831496363022,-2.5232542196856897,6.140883075981893,1.011094570159912,-2.584101740513937
1708436309.903479,-2.15513277053833,-1.3368390959552308,-2.5233169237719935,6.1408859370048425,1.0110688209533691,-2.5840593020068567
1708436309.9054627,-2.155104637145996,-1.336847649221756,-2.5233245531665247,6.140827524452963,1.0110610723495483,-2.584101740513937
1708436309.907465,-2.155144214630127,-1.3368349534324189,-2.5233333746539515,6.140839445381918,1.0111182928085327,-2.584085289631979
1708436309.9094288,-2.1551806926727295,-1.3368518215468903,-2.5233333746539515,6.140836465149679,1.0110447406768799,-2.5840073267566126
1708436309.9114223,-2.1551241874694824,-1.3368561130813141,-2.5232794920550745,6.1409069178398035,1.0111019611358643,-2.5840564409839075
1708436309.9134524,-2.1551084518432617,-1.3368764531663437,-2.5232794920550745,6.14087866523818,1.011061191558838,-2.5840943495379847
1708436309.9154482,-2.1551806926727295,-1.3368844103864213,-2.523320023213522,6.140827643662252,1.011082410812378,-2.5840354601489466
1708436309.9174583,-2.1551849842071533,-1.3368476194194336,-2.5233126322375696,6.140806782036581,1.011094570159912,-2.5840192476855677
1708436309.9194365,-2.1551737785339355,-1.3369090420058747,-2.5233007113086146,6.1408904669578455,1.011061191558838,-2.5840354601489466
1708436309.9214323,-2.1551566123962402,-1.3368561428836365,-2.5232961813556116,6.14085744598464,1.011061191558838,-2.5839744249926966
1708436309.9234538,-2.1551127433776855,-1.3368679595044632,-2.5232961813556116,6.140881526261129,1.011099100112915,-2.5840771834002894
1708436309.9254513,-2.1551315784454346,-1.336779685025551,-2.5233050028430384,6.1408859370048425,1.0110913515090942,-2.5840399901019495
1708436309.927467,-2.1551284790039062,-1.3368518215468903,-2.523292843495504,6.140839564591207,1.011056661605835,-2.5839908758746546
1708436309.9294345,-2.155121326446533,-1.3368595403483887,-2.5232961813556116,6.140869605332174,1.0110657215118408,-2.5840235392199915
1708436309.9314637,-2.155172109603882,-1.3369370859912415,-2.5233050028430384,6.140841114311971,1.011052131652832,-2.5840027968036097
1708436309.9334426,-2.1551849842071533,-1.3368150752833863,-2.5232794920550745,6.140848386078634,1.0110657215118408,-2.584036890660421
1708436309.935506,-2.15513277053833,-1.3368679595044632,-2.5232542196856897,6.140865194588461,1.0110657215118408,-2.5839701334582728
1708436309.937447,-2.1551241874694824,-1.3368476194194336,-2.5232883135425013,6.140865075379171,1.0110538005828857,-2.5839996973620813
1708436309.9394317,-2.1551413536071777,-1.336872251038887,-2.5233007113086146,6.140843975334921,1.0111019611358643,-2.5839996973620813
1708436309.9414668,-2.1551895141601562,-1.336855263715126,-2.5233126322375696,6.1408575651939294,1.0110869407653809,-2.5840161482440394
1708436309.9434922,-2.155144214630127,-1.3368637424758454,-2.5232883135425013,6.14085744598464,1.011077880859375,-2.5839996973620813
1708436309.9454415,-2.155134439468384,-1.3368637424758454,-2.5232632795916956,6.140889036446371,1.011099100112915,-2.5839625040637415
1708436309.9474466,-2.155160903930664,-1.3368399900249024,-2.523254458104269,6.140888917237081,1.0110657215118408,-2.5839625040637415
1708436309.9494522,-2.1551570892333984,-1.3368560832789917,-2.5232721010791224,6.14087866523818,1.0110329389572144,-2.583975855504171
1708436309.951448,-2.1551525592803955,-1.3368963313153763,-2.5232794920550745,6.140860664635458,1.011061191558838,-2.5839951674090784
1708436309.9534612,-2.1551694869995117,-1.3368391555598755,-2.5233007113086146,6.140841114311971,1.0111064910888672,-2.5840488115893763
1708436309.9554503,-2.155184745788574,-1.3368192476085206,-2.5232721010791224,6.140894996910848,1.011077880859375,-2.5840042273150843
1708436309.957456,-2.15513277053833,-1.3368475896171113,-2.5232706705676478,6.140841114311971,1.011094570159912,-2.5839996973620813
1708436309.9594715,-2.1550960540771484,-1.336872251038887,-2.523320023213522,6.140811192780294,1.011082410812378,-2.5839770475970667
1708436309.9614239,-2.1551084518432617,-1.3368356984904786,-2.5233243147479456,6.140890586167135,1.011077880859375,-2.584025208150045
1708436309.9634683,-2.155139923095703,-1.3368074011853714,-2.5232916514026087,6.140808331757345,1.011099100112915,-2.5839908758746546
1708436309.9654696,-2.15513277053833,-1.3368441772511979,-2.5233171621905726,6.140865194588461,1.0110493898391724,-2.5840490500079554
1708436309.9674683,-2.1551284790039062,-1.3368476194194336,-2.5232794920550745,6.140843975334921,1.011052131652832,-2.584045950566427
1708436309.9694238,-2.1551084518432617,-1.336810828452446,-2.5232632795916956,6.140903937607565,1.011099100112915,-2.583996836339132
1708436309.9714212,-2.1551241874694824,-1.3368679297021409,-2.5233333746539515,6.140821683197775,1.0110856294631958,-2.5840325991259974
1708436309.973455,-2.155160903930664,-1.3368356835893174,-2.5232840220080774,6.140874135285177,1.011082410812378,-2.584041420613424
1708436309.9754329,-2.155104637145996,-1.336787374024727,-2.5232678095446985,6.140852916031637,1.011061191558838,-2.583992306386129
1708436309.9774566,-2.1551241874694824,-1.3368399900249024,-2.5232883135425013,6.1409069178398035,1.0110447406768799,-2.5839877764331263
1708436309.9794483,-2.1550707817077637,-1.336827279334404,-2.5233126322375696,6.140877115517416,1.011073350906372,-2.5840325991259974
1708436309.9814334,-2.1551241874694824,-1.3368399900249024,-2.5232632795916956,6.140874135285177,1.011077880859375,-2.5840042273150843
1708436309.9834528,-2.1551284790039062,-1.336811588411667,-2.523320023213522,6.140918719559469,1.011094570159912,-2.584008757268087
1708436309.9854405,-2.155144214630127,-1.3368929040483017,-2.523303810750143,6.140806782036581,1.0110900402069092,-2.5840280691729944
1708436309.9874928,-2.155188798904419,-1.3368844103864213,-2.5232675711261194,6.140852916031637,1.0110688209533691,-2.583992306386129
1708436309.9894764,-2.155104398727417,-1.3368399900249024,-2.5232840220080774,6.140897857933798,1.0110644102096558,-2.5840161482440394
1708436309.9914608,-2.1551806926727295,-1.336872176533081,-2.523320023213522,6.140894996910848,1.011082410812378,-2.5840206781970423
1708436309.9935095,-2.15513277053833,-1.3368235391429444,-2.5232752005206507,6.140883075981893,1.011077880859375,-2.583937470112936
1708436309.995438,-2.1551525592803955,-1.3368801933578034,-2.5233126322375696,6.140899407654562,1.011094570159912,-2.5839877764331263
1708436309.9974704,-2.1551413536071777,-1.336827279334404,-2.5232706705676478,6.140861856728353,1.011073350906372,-2.5839713255511683
1708436309.9994266,-2.1551764011383057,-1.336819277410843,-2.5233007113086146,6.140874135285177,1.0111019611358643,-2.58403450647463
1708436310.0014243,-2.1551527976989746,-1.3368476194194336,-2.5233081022845667,6.140852916031637,1.0111483335494995,-2.5839789549456995
1708436310.0034547,-2.1551527976989746,-1.336827279334404,-2.5232961813556116,6.140827643662252,1.0110855102539062,-2.584025208150045
1708436310.005443,-2.1551694869995117,-1.3368476194194336,-2.523266379033224,6.140914308815756,1.011094570159912,-2.584024969731466
1708436310.0074687,-2.155104398727417,-1.336843417291977,-2.5232420603381556,6.14085744598464,1.0110810995101929,-2.584024969731466
1708436310.0094507,-2.1551527976989746,-1.3368391257575531,-2.5232794920550745,6.140890586167135,1.0111138820648193,-2.584024969731466
1708436310.0114362,-2.155165195465088,-1.336798907523491,-2.5233421961413782,6.140890586167135,1.0110975503921509,-2.584041420613424
1708436310.0134656,-2.155148506164551,-1.336798907523491,-2.523303810750143,6.140866386681356,1.0111138820648193,-2.584025208150045
1708436310.0154345,-2.155148506164551,-1.336831496363022,-2.5232587496386927,6.140865194588461,1.011093020439148,-2.5840206781970423
1708436310.0174515,-2.1551694869995117,-1.3368518215468903,-2.5233007113086146,6.140881526261129,1.011116623878479,-2.5840206781970423
1708436310.0194385,-2.155137062072754,-1.3368399900249024,-2.523303810750143,6.140889036446371,1.0111379623413086,-2.5840206781970423
1708436310.0214474,-2.1551127433776855,-1.3368595403483887,-2.5232794920550745,6.140865075379171,1.0111591815948486,-2.5839877764331263
1708436310.0234842,-2.1551570892333984,-1.3368722361377259,-2.5233126322375696,6.140914189606466,1.0111212730407715,-2.584057871495382
1708436310.0254235,-2.1551570892333984,-1.336815045481064,-2.523245636616842,6.140815722733297,1.0111664533615112,-2.584008757268087
1708436310.0274274,-2.1551170349121094,-1.33680313945327,-2.5232678095446985,6.14085744598464,1.0111289024353027,-2.584062401448385
1708436310.0294287,-2.155148506164551,-1.3368399900249024,-2.5233333746539515,6.140897857933798,1.0111783742904663,-2.5839713255511683
1708436310.03142,-2.155121326446533,-1.3368476194194336,-2.5233081022845667,6.140860664635458,1.0111711025238037,-2.5840161482440394
1708436310.0334396,-2.1551241874694824,-1.3368759465268631,-2.5232632795916956,6.140887486725607,1.0111829042434692,-2.583985153828756
1708436310.035421,-2.1550960540771484,-1.3368272644332428,-2.5233455340014856,6.140866505890646,1.0111501216888428,-2.583949391041891
1708436310.0374722,-2.155139923095703,-1.336794765000679,-2.5233171621905726,6.140892135887899,1.0111379623413086,-2.584029499684469
1708436310.0394242,-2.1551284790039062,-1.336815045481064,-2.5233169237719935,6.140836465149679,1.0111620426177979,-2.58401328722109
1708436310.04141,-2.155104398727417,-1.336888701920845,-2.5233126322375696,6.140841114311971,1.011157512664795,-2.5839834848987024
1708436310.0434463,-2.1551084518432617,-1.3368235391429444,-2.5233288447009485,6.140865194588461,1.0111244916915894,-2.5840206781970423
1708436310.0454228,-2.155137062072754,-1.3368844103864213,-2.523352924977438,6.140894996910848,1.0111289024353027,-2.5840445200549524
1708436310.04746,-2.1550917625427246,-1.3368476194194336,-2.5232916514026087,6.1408904669578455,1.0111784934997559,-2.5839625040637415
1708436310.0494375,-2.1551241874694824,-1.3368399900249024,-2.5232961813556116,6.14087079742507,1.0111620426177979,-2.5839908758746546
1708436310.0514224,-2.1551527976989746,-1.3368476194194336,-2.5233333746539515,6.140843975334921,1.0111783742904663,-2.5839789549456995
1708436310.053471,-2.1551241874694824,-1.336856098180153,-2.5232916514026087,6.140866386681356,1.0111440420150757,-2.584057871495382
1708436310.0554292,-2.155125617980957,-1.3368637275746842,-2.523266140614645,6.140848386078634,1.0111829042434692,-2.5839744249926966
1708436310.057469,-2.155148506164551,-1.3368108731559296,-2.5233500639544886,6.140866505890646,1.011186122894287,-2.5839417616473597
1708436310.0594482,-2.1551084518432617,-1.3368476194194336,-2.523348633443014,6.140889036446371,1.011152982711792,-2.5839996973620813
1708436310.061438,-2.155144214630127,-1.336916671400406,-2.5233288447009485,6.140860664635458,1.0111784934997559,-2.5840206781970423
1708436310.0634472,-2.1551284790039062,-1.336831511264183,-2.52329928079714,6.140887605934896,1.01119065284729,-2.584001604710714
1708436310.0654414,-2.1551003456115723,-1.336827279334404,-2.523332182561056,6.14085744598464,1.011207103729248,-2.5839954058276575
1708436310.0674539,-2.155148506164551,-1.336810828452446,-2.5232871214496058,6.140899407654562,1.0112025737762451,-2.5839954058276575
1708436310.069461,-2.155165195465088,-1.3368065816215058,-2.523266140614645,6.1408365843589685,1.011152982711792,-2.583996836339132
1708436310.071442,-2.1551849842071533,-1.336831496363022,-2.523303810750143,6.14085744598464,1.011195182800293,-2.584024969731466
1708436310.0734518,-2.1551284790039062,-1.3368518066457291,-2.523315731679098,6.14085744598464,1.0111815929412842,-2.584053341542379
1708436310.0754292,-2.1551694869995117,-1.3368434023908158,-2.5233050028430384,6.140839564591207,1.011186122894287,-2.5840206781970423
1708436310.0774648,-2.15513277053833,-1.3368023198894043,-2.5233500639544886,6.14085744598464,1.0112223625183105,-2.5840206781970423
1708436310.0794406,-2.155104637145996,-1.3368235242417832,-2.5233081022845667,6.140866386681356,1.0111935138702393,-2.584024969731466
1708436310.0814385,-2.1550960540771484,-1.3367904138616105,-2.523315493260519,6.14085744598464,1.0112144947052002,-2.5839670340167444
1708436310.0834298,-2.155160903930664,-1.3368518215468903,-2.5233410040484827,6.140927779465475,1.0112687349319458,-2.584025208150045
1708436310.0854537,-2.1551241874694824,-1.3368920993855973,-2.523336712514059,6.140890586167135,1.011267066001892,-2.584078852330343
1708436310.0874403,-2.1551084518432617,-1.336900533442833,-2.523311201726095,6.140881526261129,1.0112223625183105,-2.584024969731466
1708436310.0894732,-2.1551764011383057,-1.3368595105460663,-2.523320023213522,6.140852916031637,1.0112433433532715,-2.5839877764331263
1708436310.0915103,-2.1551973819732666,-1.33689637601886,-2.5232706705676478,6.140869605332174,1.0111963748931885,-2.5839534441577356
1708436310.0934792,-2.1551694869995117,-1.3368595403483887,-2.523315493260519,6.140808331757345,1.0112462043762207,-2.5839834848987024
1708436310.0954375,-2.1551737785339355,-1.33684757471595,-2.523336712514059,6.140850055008688,1.011267066001892,-2.5840161482440394
1708436310.0974565,-2.1551694869995117,-1.3368229430964966,-2.523352924977438,6.140861975937643,1.0111963748931885,-2.5839951674090784
1708436310.0994368,-2.1551527976989746,-1.3368278008750458,-2.523303810750143,6.140832054405966,1.0112535953521729,-2.584036890660421
1708436310.10143,-2.1551694869995117,-1.3368108582547684,-2.523327891026632,6.140845525055685,1.011303424835205,-2.5840073267566126
1708436310.1034389,-2.1551170349121094,-1.3368192476085206,-2.523336712514059,6.140848386078634,1.011244535446167,-2.5840354601489466
1708436310.1054478,-2.155148506164551,-1.3368318688920517,-2.523336712514059,6.140861856728353,1.011261224746704,-2.5840070883380335
1708436310.1074448,-2.1551170349121094,-1.3368561428836365,-2.523332182561056,6.140936720162191,1.0113410949707031,-2.58401328722109
1708436310.109466,-2.155104398727417,-1.3368476045182724,-2.523320023213522,6.140824782639303,1.0112476348876953,-2.5840354601489466
1708436310.1114488,-2.1551170349121094,-1.336880163555481,-2.523336712514059,6.140841114311971,1.0113242864608765,-2.5840488115893763
1708436310.1134448,-2.1551284790039062,-1.336806596522667,-2.5233617464648646,6.140852916031637,1.0113409757614136,-2.5840445200549524
1708436310.115479,-2.1551084518432617,-1.3368805807879944,-2.5233352820025843,6.140851604729452,1.0112899541854858,-2.5840488115893763
1708436310.117472,-2.155139923095703,-1.3368678998998185,-2.523339811955587,6.140869605332174,1.0112882852554321,-2.5839951674090784
1708436310.1194317,-2.155104398727417,-1.3368315261653443,-2.523365084324972,6.140852916031637,1.0113348960876465,-2.5840192476855677
1708436310.121432,-2.1551003456115723,-1.3368391406587143,-2.523323361073629,6.140890586167135,1.0113258361816406,-2.5839863459216517
1708436310.1234698,-2.1551084518432617,-1.3368678998998185,-2.523360792790548,6.140869605332174,1.0113017559051514,-2.5840206781970423
1708436310.1254354,-2.1551127433776855,-1.3368229877999802,-2.5233846346484583,6.140930998116293,1.011346697807312,-2.5840652624713343
1708436310.1274586,-2.1551284790039062,-1.3368552190116425,-2.523339573537008,6.140861856728353,1.0112926959991455,-2.584085289631979
1708436310.1294339,-2.1551127433776855,-1.336807445888855,-2.523356262837545,6.1408859370048425,1.0113050937652588,-2.5840728918658655
1708436310.1314468,-2.1551127433776855,-1.3368399900249024,-2.52338153520693,6.1408904669578455,1.0113800764083862,-2.5840445200549524
1708436310.1334236,-2.1551284790039062,-1.336815060382225,-2.52338153520693,6.140832054405966,1.0113377571105957,-2.5840399901019495
1708436310.135414,-2.155121326446533,-1.3368679297021409,-2.523332182561056,6.140865194588461,1.011404037475586,-2.5840235392199915
1708436310.1374352,-2.1551482677459717,-1.3368400198272248,-2.5233519713031214,6.140799271851339,1.011366605758667,-2.5840817133532923
1708436310.1394358,-2.15513277053833,-1.3368356835893174,-2.5233352820025843,6.140918719559469,1.0113495588302612,-2.5841105620013636
1708436310.1414526,-2.1551170349121094,-1.3368518215468903,-2.5233519713031214,6.140894996910848,1.0113829374313354,-2.5839982668506067
1708436310.1434543,-2.155137062072754,-1.336851791744568,-2.5233681837665003,6.14085744598464,1.01139497756958,-2.5840354601489466
1708436310.145448,-2.1551284790039062,-1.336831496363022,-2.523356262837545,6.1409069178398035,1.01139497756958,-2.5840683619128626
1708436310.1474652,-2.1551201343536377,-1.3368357133916398,-2.5233429113971155,6.140803801804342,1.0113542079925537,-2.58407169977297
1708436310.149456,-2.15513277053833,-1.3367989224246521,-2.5233846346484583,6.1408742544944666,1.011358618736267,-2.584080759678976
1708436310.1514525,-2.1551170349121094,-1.3369090569070359,-2.5233636538134974,6.140874135285177,1.0113495588302612,-2.584121052418844
1708436310.1534324,-2.1551358699798584,-1.3368357133916398,-2.5233846346484583,6.1409023878868005,1.011387586593628,-2.58410889307131
1708436310.1554577,-2.1551806926727295,-1.3368595403483887,-2.5233636538134974,6.140874135285177,1.0113741159439087,-2.584100071583883
1708436310.1574466,-2.155087471008301,-1.3368595403483887,-2.5233548323260706,6.140860664635458,1.011387586593628,-2.584045712147848
1708436310.159476,-2.155104398727417,-1.336810828452446,-2.5233920256244105,6.140869605332174,1.0113948583602905,-2.584120814000265
1708436310.1614628,-2.155083417892456,-1.336815045481064,-2.523350540791647,6.1409069178398035,1.0113621950149536,-2.5841239134417933
1708436310.1634393,-2.1550960540771484,-1.336798907523491,-2.5233636538134974,6.140865194588461,1.0113694667816162,-2.584121052418844
1708436310.165474,-2.1551170349121094,-1.3368272495320817,-2.5233832041369837,6.140848386078634,1.0113621950149536,-2.5841193834887903
1708436310.1674557,-2.155104637145996,-1.336843417291977,-2.5234039465533655,6.140897857933798,1.0114026069641113,-2.5840984026538294
1708436310.1694329,-2.1551284790039062,-1.336831511264183,-2.5233758131610315,6.140886056214132,1.011387586593628,-2.5840984026538294
1708436310.1714714,-2.1551084518432617,-1.336855248813965,-2.5233755747424524,6.14085744598464,1.0113829374313354,-2.5841193834887903
1708436310.1734438,-2.1551003456115723,-1.3368679297021409,-2.5234161059008997,6.140829193383016,1.0113948583602905,-2.5841029326068323
1708436310.175421,-2.1551284790039062,-1.3368518215468903,-2.523411575947897,6.140865194588461,1.0113332271575928,-2.5841100851642054
1708436310.177439,-2.155125617980957,-1.3368116331151505,-2.5234459082232874,6.140812742501058,1.011383056640625,-2.5841363112079065
1708436310.1794648,-2.155148506164551,-1.3368759912303467,-2.523428265248434,6.140861975937643,1.0113829374313354,-2.5841527620898646
1708436310.1814249,-2.1551284790039062,-1.3368399751237412,-2.5234206358539026,6.140893447190084,1.0113829374313354,-2.5841527620898646
1708436310.1834254,-2.155125617980957,-1.3368314814618607,-2.5234161059008997,6.1408365843589685,1.0113495588302612,-2.5841482321368616
1708436310.1854205,-2.15510892868042,-1.336815045481064,-2.5234161059008997,6.140894996910848,1.011398196220398,-2.584165159855978
1708436310.1874251,-2.1550791263580322,-1.336810828452446,-2.5234249273883265,6.140897857933798,1.0113859176635742,-2.5841363112079065
1708436310.189441,-2.155137062072754,-1.3368722659400483,-2.5234039465533655,6.140843975334921,1.0113993883132935,-2.5841272513019007
1708436310.1915443,-2.1551170349121094,-1.3368434023908158,-2.523419443761007,6.140832054405966,1.0113948583602905,-2.5841317812549036
1708436310.1934748,-2.155083417892456,-1.3368759763291855,-2.523407284413473,6.14087854602889,1.0113904476165771,-2.5841272513019007
1708436310.1954336,-2.1551127433776855,-1.3368679595044632,-2.523428265248434,6.140848505287924,1.0113948583602905,-2.5841391722308558
1708436310.1974556,-2.155104637145996,-1.336872251038887,-2.523411575947897,6.140897857933798,1.0113904476165771,-2.5841391722308558
1708436310.199431,-2.155104637145996,-1.3368399751237412,-2.523407284413473,6.140909778862753,1.0113694667816162,-2.5841227213488978
1708436310.2014213,-2.1550917625427246,-1.3368229877999802,-2.5233786741839808,6.140827643662252,1.0113495588302612,-2.584156099949972
1708436310.2034595,-2.1551003456115723,-1.3367873591235657,-2.5234459082232874,6.140865194588461,1.0114071369171143,-2.584179941807882
1708436310.2054281,-2.1550960540771484,-1.3368637424758454,-2.5234578291522425,6.140874135285177,1.0113948583602905,-2.584193293248312
1708436310.2074542,-2.1550748348236084,-1.3368349534324189,-2.5234370867358606,6.14087866523818,1.0114235877990723,-2.584184471760885
1708436310.2094307,-2.1551003456115723,-1.3368433576873322,-2.5234039465533655,6.140869605332174,1.011420726776123,-2.5841317812549036
1708436310.2114217,-2.1550960540771484,-1.336855263715126,-2.5233758131610315,6.1408742544944666,1.011404037475586,-2.584160629902975
1708436310.2134788,-2.15510892868042,-1.3368637424758454,-2.523411575947897,6.140861856728353,1.0113576650619507,-2.584205214177267
1708436310.2154415,-2.155125617980957,-1.3368636977723618,-2.5233951250659388,6.14087866523818,1.0113948583602905,-2.584184471760885
1708436310.2174573,-2.1551084518432617,-1.3368679595044632,-2.523428265248434,6.140923249512472,1.0113531351089478,-2.58417255083193
1708436310.2194426,-2.15510892868042,-1.3369082373431702,-2.5234084765063685,6.140794861107626,1.0113948583602905,-2.584193531666891
1708436310.2214248,-2.1551737785339355,-1.3368518215468903,-2.523432795201437,6.140852916031637,1.0113904476165771,-2.5841637293445032
1708436310.223455,-2.155137062072754,-1.3368031543544312,-2.5233951250659388,6.1408859370048425,1.0113576650619507,-2.584168020878927
1708436310.2254212,-2.15510892868042,-1.336823583846428,-2.5233920256244105,6.140881526261129,1.0114160776138306,-2.584205214177267
1708436310.2274716,-2.1551284790039062,-1.336827279334404,-2.5234370867358606,6.140841114311971,1.011366605758667,-2.584200922642843
1708436310.2294328,-2.1551570892333984,-1.3368318539908906,-2.523432795201437,6.14085744598464,1.0113904476165771,-2.584226195012228
1708436310.2314434,-2.155137062072754,-1.336810828452446,-2.5234206358539026,6.140841114311971,1.011383056640625,-2.584212843571798
1708436310.2334478,-2.1550633907318115,-1.3368442070535203,-2.5234039465533655,6.140852916031637,1.0113948583602905,-2.584229294453756
1708436310.2354445,-2.1551127433776855,-1.3368390810540696,-2.523407284413473,6.140877115517416,1.0113694667816162,-2.58417255083193
1708436310.237468,-2.1551413536071777,-1.3368602854064484,-2.5234370867358606,6.140845525055685,1.0113621950149536,-2.5841546694384974
1708436310.2394285,-2.15513277053833,-1.3368886423162003,-2.5234623591052454,6.140848386078634,1.0113741159439087,-2.5841875712024134
1708436310.241444,-2.1551170349121094,-1.3368023347905655,-2.5234206358539026,6.140852916031637,1.0113576650619507,-2.5841591993915003
1708436310.243434,-2.15510892868042,-1.3368552339128037,-2.5233963171588343,6.14085744598464,1.0114026069641113,-2.584177080784933
1708436310.2454224,-2.155125617980957,-1.3368273091367264,-2.5234039465533655,6.1409023878868005,1.0113993883132935,-2.5841427485095423
1708436310.2474518,-2.155137062072754,-1.3369048249772568,-2.5234206358539026,6.140874135285177,1.0113813877105713,-2.584191862736837
1708436310.249419,-2.1551170349121094,-1.3368679595044632,-2.5233786741839808,6.140836465149679,1.0113829374313354,-2.584229056035177
1708436310.2514155,-2.15513014793396,-1.3368065369180222,-2.5234039465533655,6.140874135285177,1.011378526687622,-2.5841591993915003
1708436310.2534394,-2.1551458835601807,-1.3368561130813141,-2.5233877340899866,6.140815603524008,1.0113859176635742,-2.584163490925924
1708436310.2554603,-2.155076265335083,-1.3368560683778306,-2.5234161059008997,6.14085744598464,1.0114116668701172,-2.584189001713888
1708436310.2574637,-2.1551003456115723,-1.3368031245521088,-2.5234084765063685,6.140787112503805,1.0114116668701172,-2.584175411854879
1708436310.259473,-2.15510892868042,-1.336843417291977,-2.5233951250659388,6.140829193383016,1.0114071369171143,-2.5841546694384974
1708436310.2614272,-2.155059576034546,-1.3368192476085206,-2.5234416166888636,6.140866386681356,1.0113450288772583,-2.584179941807882
1708436310.263467,-2.15510892868042,-1.3368518364480515,-2.5234206358539026,6.140836465149679,1.0113904476165771,-2.5841994921313685
1708436310.2654495,-2.1551458835601807,-1.336794690494873,-2.5233712832080286,6.14085744598464,1.01139497756958,-2.584217135106222
1708436310.2674959,-2.1551003456115723,-1.3368518215468903,-2.5234623591052454,6.140832054405966,1.011437177658081,-2.584179941807882
1708436310.2694674,-2.155134439468384,-1.336872176533081,-2.5234039465533655,6.140812742501058,1.0113531351089478,-2.584179941807882
1708436310.27143,-2.15508770942688,-1.336815045481064,-2.523350540791647,6.1408753273780725,1.0113741159439087,-2.58423358598818
1708436310.2734578,-2.155071973800659,-1.3368679595044632,-2.5233550707446497,6.140775310784139,1.0113451480865479,-2.5841873327838343
1708436310.2754796,-2.1550920009613037,-1.33684757471595,-2.5234370867358606,6.14083360412673,1.0113576650619507,-2.584266487752096
1708436310.2774482,-2.155083417892456,-1.3368108582547684,-2.5234535376178187,6.140824663430013,1.011362075805664,-2.5842157045947474
1708436310.2794557,-2.1550467014312744,-1.3368356984904786,-2.5234039465533655,6.140829193383016,1.0113468170166016,-2.584208313618795
1708436310.2814286,-2.1550965309143066,-1.3368476194194336,-2.5234039465533655,6.14087079742507,1.0113542079925537,-2.5841994921313685
1708436310.2834895,-2.155104637145996,-1.3368108731559296,-2.52342397371401,6.140907037049093,1.011366605758667,-2.584191862736837
1708436310.285441,-2.155104637145996,-1.3368273091367264,-2.5234161059008997,6.140817272454061,1.011387586593628,-2.584229056035177
1708436310.2874634,-2.15508770942688,-1.336851881151535,-2.5233874956714075,6.1408201334770105,1.011340618133545,-2.5842366854297083
1708436310.289734,-2.1550791263580322,-1.3368356984904786,-2.5234535376178187,6.140903937607565,1.011346697807312,-2.5841994921313685
1708436310.2914975,-2.155083417892456,-1.3368722063354035,-2.5234370867358606,6.140836465149679,1.0113286972045898,-2.5842276255237024
1708436310.2934804,-2.155121326446533,-1.3368929040483017,-2.5234294573413294,6.1408307431037805,1.011346697807312,-2.5841711203204554
1708436310.2954383,-2.1550920009613037,-1.3368235391429444,-2.5233994166003626,6.140866386681356,1.0113712549209595,-2.584208313618795
1708436310.29746,-2.1550920009613037,-1.3368023347905655,-2.5233832041369837,6.14087079742507,1.0113259553909302,-2.5841501394854944
1708436310.2994428,-2.155071973800659,-1.336835728292801,-2.5234039465533655,6.140824663430013,1.01136314868927,-2.584245506917135
1708436310.3015761,-2.155104637145996,-1.3368441623500367,-2.5233758131610315,6.140858995705404,1.0113468170166016,-2.58419639268984
1708436310.303476,-2.155064105987549,-1.3368801784566422,-2.523411575947897,6.140826213150778,1.0113422870635986,-2.5842157045947474
1708436310.3054752,-2.1550683975219727,-1.3368315261653443,-2.5233832041369837,6.140849935799398,1.0113303661346436,-2.584179941807882
1708436310.307442,-2.1550676822662354,-1.3368963313153763,-2.5233874956714075,6.140835153847494,1.011351227760315,-2.5842366854297083
1708436310.3094704,-2.15508770942688,-1.3368518513492127,-2.5234459082232874,6.140829074173727,1.0113675594329834,-2.584226195012228
1708436310.3114314,-2.1550633907318115,-1.3368476194194336,-2.5233963171588343,6.1408049938972376,1.0113184452056885,-2.5842700640307825
1708436310.3134546,-2.1550960540771484,-1.3368518066457291,-2.5233963171588343,6.140821683197775,1.011261224746704,-2.5842655340777796
1708436310.3154392,-2.1550791263580322,-1.3368399751237412,-2.5234127680407923,6.140883075981893,1.0113468170166016,-2.5842576662646692
1708436310.317478,-2.1550920009613037,-1.3368525070003052,-2.5233712832080286,6.140784132271566,1.0113394260406494,-2.584191862736837
1708436310.319439,-2.15510892868042,-1.3368679595044632,-2.5234127680407923,6.140826213150778,1.0112972259521484,-2.584212843571798
1708436310.3214629,-2.155076265335083,-1.3369166564992447,-2.5233712832080286,6.140772211342611,1.0113365650177002,-2.584245506917135
1708436310.32353,-2.1550676822662354,-1.3368356984904786,-2.5233832041369837,6.140784132271566,1.011261224746704,-2.5842247645007532
1708436310.325473,-2.1551413536071777,-1.3368476194194336,-2.5234039465533655,6.140835153847494,1.0113062858581543,-2.5842247645007532
1708436310.327475,-2.155076265335083,-1.3368595403483887,-2.5233994166003626,6.140812742501058,1.0112568140029907,-2.5842037836657923
1708436310.329435,-2.155080795288086,-1.336888701920845,-2.5233874956714075,6.140797602921285,1.011261224746704,-2.58423358598818
1708436310.3314323,-2.15513014793396,-1.3368235391429444,-2.5233846346484583,6.1408307431037805,1.0112535953521729,-2.5842157045947474
1708436310.3334658,-2.155071973800659,-1.336827279334404,-2.5234084765063685,6.1408049938972376,1.0112568140029907,-2.584221665059225
1708436310.3354516,-2.155055284500122,-1.3368065667203446,-2.523400847111837,6.140752661019125,1.0112581253051758,-2.5841873327838343
1708436310.337435,-2.1550676822662354,-1.3368517768434067,-2.523417297993795,6.14083360412673,1.01127028465271,-2.5841756502734583
1708436310.3394601,-2.1550920009613037,-1.3368518215468903,-2.5233636538134974,6.1408049938972376,1.0112837553024292,-2.5841994921313685
1708436310.3414383,-2.155083417892456,-1.336831496363022,-2.5233874956714075,6.140814053803243,1.0112581253051758,-2.584245506917135
1708436310.3434644,-2.15510892868042,-1.336815045481064,-2.5233712832080286,6.140802132874288,1.0112090110778809,-2.584208313618795
1708436310.3454378,-2.1550676822662354,-1.3368603748134156,-2.5233874956714075,6.140835153847494,1.0112581253051758,-2.584229056035177
1708436310.3474283,-2.155104637145996,-1.3368476045182724,-2.523421589528219,6.140790211945333,1.0112134218215942,-2.5841756502734583
1708436310.349447,-2.15508770942688,-1.336888701920845,-2.5234337488757532,6.140748250275411,1.0112507343292236,-2.5842157045947474
1708436310.3514428,-2.15510892868042,-1.3368476045182724,-2.5234039465533655,6.140781271248617,1.0112462043762207,-2.584212843571798
1708436310.3534687,-2.155113458633423,-1.3368065369180222,-2.5233963171588343,6.140790211945333,1.011255145072937,-2.5841546694384974
1708436310.3554392,-2.1550676822662354,-1.3368637424758454,-2.5233994166003626,6.140752541809835,1.0112388134002686,-2.584212843571798
1708436310.357437,-2.1550185680389404,-1.3368518215468903,-2.5233963171588343,6.140797602921285,1.0112009048461914,-2.5841994921313685
1708436310.3594272,-2.155104637145996,-1.3368441772511979,-2.5233755747424524,6.1408307431037805,1.0112099647521973,-2.584191862736837
1708436310.36143,-2.155055284500122,-1.3368561130813141,-2.5233994166003626,6.1407930729682825,1.0112009048461914,-2.5842247645007532
1708436310.3634477,-2.155080795288086,-1.336831511264183,-2.5233758131610315,6.140752541809835,1.011227011680603,-2.58423358598818
1708436310.3654447,-2.1550965309143066,-1.3368065369180222,-2.523421589528219,6.140781271248617,1.0111936330795288,-2.5841994921313685
1708436310.367493,-2.15508770942688,-1.3368476194194336,-2.5233681837665003,6.140731799393453,1.0112009048461914,-2.5841591993915003
1708436310.3694465,-2.1551003456115723,-1.336872251038887,-2.5233920256244105,6.140769350319662,1.0111815929412842,-2.584229056035177
1708436310.3714468,-2.15510892868042,-1.336843417291977,-2.5234039465533655,6.140781152039327,1.0111936330795288,-2.5842321554767054
1708436310.3734567,-2.15510892868042,-1.336827741270401,-2.5233352820025843,6.140764820366659,1.0112053155899048,-2.584191862736837
1708436310.3754752,-2.15508770942688,-1.3368273091367264,-2.5233474413501185,6.140782820969381,1.0111817121505737,-2.584168020878927
1708436310.3774657,-2.155071973800659,-1.3368150007775803,-2.523372475300924,6.140769350319662,1.0111815929412842,-2.584208313618795
1708436310.379451,-2.155076265335083,-1.3368273091367264,-2.523372475300924,6.140769350319662,1.0111936330795288,-2.584221665059225
1708436310.3814697,-2.15508770942688,-1.3368235391429444,-2.523400847111837,6.140769350319662,1.0112143754959106,-2.5842202345477503
1708436310.3835325,-2.15513014793396,-1.3368065667203446,-2.5233801046954554,6.140781271248617,1.0111771821975708,-2.5842111746417444
1708436310.3854384,-2.155125617980957,-1.336831496363022,-2.5233846346484583,6.14078568199233,1.0111817121505737,-2.584245506917135
1708436310.387463,-2.155134439468384,-1.3368518215468903,-2.5233681837665003,6.140860545426168,1.01119065284729,-2.584229056035177
1708436310.3894482,-2.1550850868225098,-1.3368230176023026,-2.523388926182882,6.140797602921285,1.011173963546753,-2.5841830412494105
1708436310.3915114,-2.155104637145996,-1.3368229579976578,-2.5233801046954554,6.140757071762838,1.0111907720565796,-2.584191862736837
1708436310.3934617,-2.1551177501678467,-1.3368399751237412,-2.5233352820025843,6.140778291016378,1.0112189054489136,-2.5841875712024134
1708436310.3954792,-2.155125617980957,-1.3368434023908158,-2.5233920256244105,6.14074062088088,1.0111995935440063,-2.584200922642843
1708436310.3974912,-2.155113458633423,-1.33684757471595,-2.523388926182882,6.140808093338766,1.0112279653549194,-2.5841756502734583
1708436310.3994277,-2.1551458835601807,-1.3368433874896546,-2.523365084324972,6.140776741295614,1.011164903640747,-2.5841336886035364
1708436310.4014282,-2.1550676822662354,-1.3369089525989075,-2.5233846346484583,6.140772211342611,1.011173963546753,-2.584212843571798
1708436310.4034405,-2.15513014793396,-1.3368636977723618,-2.5233801046954554,6.140776741295614,1.011173963546753,-2.5841994921313685
1708436310.4054372,-2.155125617980957,-1.3368679148009797,-2.523323361073629,6.14078568199233,1.0111995935440063,-2.584208313618795
1708436310.4074376,-2.155137062072754,-1.336823047404625,-2.523372475300924,6.14078568199233,1.011157512664795,-2.5841949621783655
1708436310.4094439,-2.1551170349121094,-1.3368679297021409,-2.5233307520495813,6.140769231110372,1.0111783742904663,-2.5842247645007532
1708436310.4114354,-2.155076265335083,-1.3368356984904786,-2.523385826741354,6.140749680786886,1.011157512664795,-2.5841873327838343
1708436310.413457,-2.1551177501678467,-1.3368476045182724,-2.523365084324972,6.140811073571005,1.0111620426177979,-2.58419639268984
1708436310.4154284,-2.15510892868042,-1.3368561130813141,-2.523294750844137,6.140806543618002,1.01119065284729,-2.5841711203204554
1708436310.4174595,-2.15508770942688,-1.3368273240378876,-2.523348395024435,6.140802013664999,1.0111198425292969,-2.584208313618795
1708436310.419439,-2.155080795288086,-1.3367789548686524,-2.523385826741354,6.140778291016378,1.0111122131347656,-2.5841637293445032
1708436310.421449,-2.155055284500122,-1.336827741270401,-2.523344103490011,6.140736210137167,1.0111546516418457,-2.584179941807882
1708436310.4234622,-2.155125617980957,-1.3368595105460663,-2.523360792790548,6.140803563385763,1.0111379623413086,-2.58419639268984
1708436310.4254744,-2.155121326446533,-1.3368074160865326,-2.523294750844137,6.140745270043173,1.0111874341964722,-2.584189001713888
1708436310.4274528,-2.155076265335083,-1.336831496363022,-2.52329928079714,6.14074062088088,1.0111455917358398,-2.5841546694384974
1708436310.4294317,-2.1550509929656982,-1.336859570150711,-2.523311201726095,6.14078568199233,1.0111289024353027,-2.58419639268984
1708436310.4314613,-2.155104637145996,-1.3368644428304215,-2.523336712514059,6.140794622689047,1.0111289024353027,-2.584179941807882
1708436310.4334407,-2.1550965309143066,-1.336834893827774,-2.523369614277975,6.140736210137167,1.0111379623413086,-2.584205452595846
1708436310.4354303,-2.1550633907318115,-1.3368434023908158,-2.523336712514059,6.140776741295614,1.0111711025238037,-2.584184471760885
1708436310.437435,-2.15508770942688,-1.3368030947497864,-2.52329928079714,6.140790092736044,1.0111546516418457,-2.584208313618795
1708436310.4394426,-2.155104637145996,-1.3368595403483887,-2.523294989262716,6.140731680184164,1.0111501216888428,-2.58417255083193
1708436310.441436,-2.155125617980957,-1.3368518066457291,-2.523336712514059,6.140715348511495,1.0111334323883057,-2.584177080784933
1708436310.4434533,-2.155076265335083,-1.3367670339396973,-2.523315493260519,6.140760409622946,1.0111711025238037,-2.584160629902975
1708436310.4454358,-2.15510892868042,-1.336819277410843,-2.523320023213522,6.140790211945333,1.0111546516418457,-2.584214512501852
1708436310.4474437,-2.155059576034546,-1.3368434470942994,-2.52329928079714,6.140799271851339,1.011199712753296,-2.584184471760885
1708436310.4494514,-2.1550676822662354,-1.3368679297021409,-2.523327891026632,6.140781271248617,1.0111424922943115,-2.584158960972921
1708436310.4514384,-2.155055284500122,-1.3368434321931382,-2.523287359868185,6.140790092736044,1.0111501216888428,-2.584177080784933
1708436310.4534445,-2.155071973800659,-1.3368722808412095,-2.523320023213522,6.1407872317130945,1.011109471321106,-2.5841756502734583
1708436310.4554384,-2.15508770942688,-1.336831496363022,-2.523261849080221,6.140820014267721,1.0111379623413086,-2.584221665059225
1708436310.4574614,-2.155083417892456,-1.3368433874896546,-2.5232961813556116,6.140802013664999,1.0111334323883057,-2.58417255083193
1708436310.4594777,-2.1551003456115723,-1.3368441772511979,-2.523327891026632,6.140815484314718,1.0111424922943115,-2.584212843571798
1708436310.4614408,-2.155083417892456,-1.3368679595044632,-2.5233288447009485,6.140752541809835,1.0111514329910278,-2.584229294453756
1708436310.4634514,-2.155071973800659,-1.3368235540441056,-2.5233050028430384,6.140715348511495,1.0111212730407715,-2.584205452595846
1708436310.4655852,-2.1551458835601807,-1.3368963164142151,-2.5233169237719935,6.140752541809835,1.0111048221588135,-2.584226195012228
1708436310.467473,-2.15510892868042,-1.3368679297021409,-2.523315493260519,6.1407720921333215,1.0111258029937744,-2.58417255083193
1708436310.4694633,-2.155121326446533,-1.3368603450110932,-2.5233169237719935,6.140769350319662,1.0111302137374878,-2.584168020878927
1708436310.4714572,-2.1551051139831543,-1.3368518215468903,-2.5233243147479456,6.140797602921285,1.0111347436904907,-2.584242645894186
1708436310.4734426,-2.1551051139831543,-1.3368679297021409,-2.523287359868185,6.140760409622946,1.011093020439148,-2.584189001713888
1708436310.4754493,-2.155125617980957,-1.3368920397809525,-2.523249928151266,6.140790211945333,1.0111347436904907,-2.584151808415548
1708436310.477444,-2.1550965309143066,-1.3368434023908158,-2.523282829915182,6.14074062088088,1.0111138820648193,-2.584212843571798
1708436310.4794497,-2.155059576034546,-1.3368476194194336,-2.523249928151266,6.140815603524008,1.0111182928085327,-2.584200922642843
1708436310.4814353,-2.1550676822662354,-1.336848334675171,-2.523352924977438,6.140794741898336,1.011093020439148,-2.5841591993915003
1708436310.4834523,-2.155080795288086,-1.3367789697698136,-2.5233410040484827,6.140773761063375,1.011142611503601,-2.58419639268984
1708436310.4854658,-2.15510892868042,-1.3368637424758454,-2.5233410040484827,6.140794741898336,1.0110975503921509,-2.584184471760885
1708436310.4874566,-2.1550726890563965,-1.3368434470942994,-2.523320023213522,6.14078568199233,1.0111514329910278,-2.584184471760885
1708436310.4894378,-2.15510892868042,-1.3368277561715622,-2.5232749621020716,6.140719878464498,1.0111424922943115,-2.584208313618795
1708436310.491525,-2.155125617980957,-1.3368235391429444,-2.5232794920550745,6.140793192177572,1.011088490486145,-2.584160629902975
1708436310.4935117,-2.155125617980957,-1.3368273091367264,-2.5232840220080774,6.140769231110372,1.0111637115478516,-2.58413011232485
1708436310.495427,-2.15510892868042,-1.3368843656829377,-2.5232678095446985,6.140797602921285,1.0111424922943115,-2.5841591993915003
1708436310.4974577,-2.1551413536071777,-1.3368637424758454,-2.523336712514059,6.140724289208212,1.0111258029937744,-2.584156099949972
1708436310.4994376,-2.1550965309143066,-1.3368764084628602,-2.523266140614645,6.140781271248617,1.0111258029937744,-2.584184471760885
1708436310.5014558,-2.15513014793396,-1.3368476194194336,-2.5232706705676478,6.140781152039327,1.0111756324768066,-2.584202591572897
1708436310.503478,-2.1550965309143066,-1.3368722063354035,-2.5233126322375696,6.140781271248617,1.0111212730407715,-2.58413011232485
1708436310.5054572,-2.155165910720825,-1.336867944603302,-2.5233288447009485,6.1407391903694055,1.0111048221588135,-2.58417255083193
1708436310.507495,-2.155113458633423,-1.3368074160865326,-2.5233574549304407,6.140781152039327,1.0111138820648193,-2.584177080784933
1708436310.509441,-2.155113458633423,-1.3368595403483887,-2.523315493260519,6.14072738864974,1.0111302137374878,-2.584168020878927
1708436310.5114477,-2.15510892868042,-1.3368476194194336,-2.5233243147479456,6.140769350319662,1.0111212730407715,-2.584160629902975
1708436310.513476,-2.1551177501678467,-1.3368962866118927,-2.523303810750143,6.1407885430152795,1.0111470222473145,-2.584125820790426
1708436310.515438,-2.1551616191864014,-1.3368887466243287,-2.523320023213522,6.14078568199233,1.011093020439148,-2.5841591993915003
1708436310.517455,-2.1551458835601807,-1.336815060382225,-2.5233288447009485,6.14075123050765,1.0111093521118164,-2.584160629902975
1708436310.519465,-2.1551220417022705,-1.3368801784566422,-2.5233288447009485,6.14078568199233,1.0111212730407715,-2.584208313618795
1708436310.5214481,-2.15510892868042,-1.3368150156787415,-2.52329928079714,6.140790211945333,1.0111303329467773,-2.584151808415548
1708436310.523496,-2.1551501750946045,-1.3368230325034638,-2.5233288447009485,6.140769350319662,1.0111048221588135,-2.5841591993915003
1708436310.525451,-2.155134439468384,-1.3368476194194336,-2.523311201726095,6.140806543618002,1.01118004322052,-2.584179941807882
1708436310.5274496,-2.1550850868225098,-1.3368475300124665,-2.523287359868185,6.1408095238502405,1.0111546516418457,-2.584168020878927
1708436310.5294535,-2.155080795288086,-1.3368674975684662,-2.5233288447009485,6.140758740692892,1.0111501216888428,-2.584184471760885
1708436310.5314727,-2.1551003456115723,-1.3368602854064484,-2.5233081022845667,6.140764820366659,1.0111334323883057,-2.584168020878927
1708436310.533473,-2.15513014793396,-1.3368759912303467,-2.5233617464648646,6.140776741295614,1.0111801624298096,-2.584160629902975
1708436310.5354624,-2.1551170349121094,-1.336815060382225,-2.5233498255359095,6.140851604729452,1.0111501216888428,-2.58417255083193
1708436310.5374646,-2.155113458633423,-1.3368235242417832,-2.523323361073629,6.1408095238502405,1.0111457109451294,-2.584214512501852
1708436310.5394282,-2.155125617980957,-1.336843417291977,-2.523348395024435,6.1407720921333215,1.0111501216888428,-2.5841711203204554
1708436310.5414727,-2.1551008224487305,-1.3367989522269745,-2.5233243147479456,6.140794741898336,1.0111334323883057,-2.584189001713888
1708436310.5434644,-2.155104637145996,-1.3368399900249024,-2.523282829915182,6.140778410225668,1.0111244916915894,-2.584151808415548
1708436310.5454369,-2.155071973800659,-1.3368759763291855,-2.5233455340014856,6.140813934593954,1.0111576318740845,-2.5842352549182337
1708436310.5474753,-2.15508770942688,-1.3368476194194336,-2.523315731679098,6.140835153847494,1.011195182800293,-2.584189001713888
1708436310.5494576,-2.155121326446533,-1.3368391406587143,-2.523344103490011,6.140829193383016,1.0111620426177979,-2.58419639268984
1708436310.55145,-2.1551544666290283,-1.3368552339128037,-2.523320023213522,6.14086793640212,1.0111783742904663,-2.584177080784933
1708436310.5534496,-2.15513014793396,-1.3368518215468903,-2.523287359868185,6.140812623291769,1.011186122894287,-2.584147278462545
1708436310.5554402,-2.1551170349121094,-1.33680313945327,-2.5233498255359095,6.140802132874288,1.011186122894287,-2.5841546694384974
1708436310.5574687,-2.155071973800659,-1.3368962866118927,-2.523352924977438,6.1408095238502405,1.0111620426177979,-2.5842202345477503
1708436310.559437,-2.155071973800659,-1.336843417291977,-2.52329928079714,6.140838014870443,1.0112234354019165,-2.5841637293445032
1708436310.5614288,-2.155137062072754,-1.3368510615876694,-2.523360792790548,6.140884387284078,1.011195182800293,-2.584168020878927
1708436310.5634673,-2.15508770942688,-1.336831496363022,-2.523282829915182,6.140781152039327,1.0111457109451294,-2.584205214177267
1708436310.5654411,-2.1551127433776855,-1.3368273091367264,-2.523278299962179,6.140776741295614,1.0111980438232422,-2.584191862736837
1708436310.567496,-2.1551501750946045,-1.3368272495320817,-2.52329928079714,6.140863406449117,1.011186122894287,-2.58417255083193
1708436310.5694685,-2.1551413536071777,-1.3367988926223298,-2.523360792790548,6.140797722130575,1.0111485719680786,-2.5841994921313685
1708436310.5714478,-2.1550920009613037,-1.3368679297021409,-2.5233035723315638,6.140814053803243,1.011186122894287,-2.584205214177267
1708436310.5734854,-2.1550920009613037,-1.3368273091367264,-2.523360792790548,6.140861975937643,1.0111725330352783,-2.5841591993915003
1708436310.5754285,-2.1550920009613037,-1.3368391406587143,-2.523278538380758,6.1408753273780725,1.0112053155899048,-2.584208313618795
1708436310.577478,-2.1551003456115723,-1.336831496363022,-2.523365084324972,6.140796053200521,1.0111771821975708,-2.58417255083193
1708436310.5794451,-2.1551413536071777,-1.3368356984904786,-2.523336712514059,6.140826213150778,1.0111980438232422,-2.584189001713888
1708436310.5814583,-2.1551387310028076,-1.3368349534324189,-2.523369614277975,6.140838014870443,1.0112223625183105,-2.584212843571798
1708436310.5834599,-2.15510892868042,-1.3368595403483887,-2.523311201726095,6.140842664032736,1.0112642049789429,-2.584189001713888
1708436310.5854335,-2.15510892868042,-1.3368637424758454,-2.523332182561056,6.140812742501058,1.0112314224243164,-2.5841861406909388
1708436310.5875306,-2.1551501750946045,-1.3368878227523346,-2.523360792790548,6.140808331757345,1.0112053155899048,-2.584184471760885
1708436310.5894475,-2.155083417892456,-1.3368518215468903,-2.523339573537008,6.140796053200521,1.0112099647521973,-2.584217135106222
1708436310.5914571,-2.1550748348236084,-1.3368679297021409,-2.523360792790548,6.140755760460653,1.011227011680603,-2.584200922642843
1708436310.5935123,-2.15510892868042,-1.3368518215468903,-2.523369614277975,6.140863525658407,1.0112179517745972,-2.5841501394854944
1708436310.595454,-2.15513014793396,-1.3369130802205582,-2.523385826741354,6.140854465752401,1.0112178325653076,-2.584156099949972
1708436310.5974996,-2.155104637145996,-1.3368844103864213,-2.523348395024435,6.140842664032736,1.0112342834472656,-2.584163490925924
1708436310.5994468,-2.1551177501678467,-1.336844117646553,-2.5233519713031214,6.140892135887899,1.0112507343292236,-2.5841637293445032
1708436310.6014318,-2.15510892868042,-1.3368759763291855,-2.523360792790548,6.140851604729452,1.0112372636795044,-2.584151808415548
1708436310.603465,-2.155113458633423,-1.3368722063354035,-2.523372475300924,6.140845525055685,1.0112342834472656,-2.584179941807882
1708436310.6054623,-2.15510892868042,-1.3368632805398484,-2.5233145395862024,6.140808331757345,1.011267066001892,-2.58417255083193
1708436310.6074555,-2.155165910720825,-1.3368349534324189,-2.523356262837545,6.140784251480856,1.0112793445587158,-2.584168020878927
1708436310.6094356,-2.1550965309143066,-1.336827279334404,-2.523360554371969,6.140817272454061,1.0112943649291992,-2.584168020878927
1708436310.6114602,-2.1551003456115723,-1.3368273091367264,-2.5233307520495813,6.140845525055685,1.01127028465271,-2.584221665059225
1708436310.6134825,-2.1551003456115723,-1.3368399751237412,-2.5233474413501185,6.14087866523818,1.0112535953521729,-2.584177080784933
1708436310.6154442,-2.155104637145996,-1.3368399900249024,-2.523393456135885,6.140829074173727,1.01127028465271,-2.584177080784933
1708436310.6174393,-2.155125617980957,-1.3368391406587143,-2.5233517328845423,6.140824663430013,1.01128089427948,-2.58420974413027
1708436310.6194432,-2.1550791263580322,-1.3368595403483887,-2.523356262837545,6.140796053200521,1.0112354755401611,-2.5841756502734583
1708436310.621455,-2.155055284500122,-1.3368518215468903,-2.5233548323260706,6.140808331757345,1.0112972259521484,-2.5841756502734583
1708436310.623485,-2.1550960540771484,-1.3368722063354035,-2.5233758131610315,6.140786993294515,1.0113184452056885,-2.5841591993915003
1708436310.6254525,-2.15508770942688,-1.3368637424758454,-2.523372475300924,6.14085744598464,1.0112853050231934,-2.58419639268984
1708436310.627485,-2.155083417892456,-1.3369285327247162,-2.5233755747424524,6.140852916031637,1.0113106966018677,-2.584208313618795
1708436310.6294384,-2.15508770942688,-1.3368399751237412,-2.5233681837665003,6.140842664032736,1.0113438367843628,-2.584191862736837
1708436310.6314569,-2.1551003456115723,-1.3368273091367264,-2.5233681837665003,6.140800583153524,1.011314034461975,-2.5841711203204554
1708436310.633461,-2.15508770942688,-1.3368476194194336,-2.5233801046954554,6.140852916031637,1.011351227760315,-2.584165398274557
1708436310.635598,-2.1551003456115723,-1.3368187856725235,-2.5233593622790735,6.140815603524008,1.0113722085952759,-2.584184471760885
1708436310.6374497,-2.1551003456115723,-1.3368637424758454,-2.523372475300924,6.140811192780294,1.0113303661346436,-2.584212843571798
1708436310.6394255,-2.15510892868042,-1.3368230325034638,-2.5233801046954554,6.140829193383016,1.0113378763198853,-2.5841756502734583
1708436310.6414669,-2.155121326446533,-1.3368356984904786,-2.5233846346484583,6.140894996910848,1.0113542079925537,-2.584191862736837
1708436310.6434639,-2.1551458835601807,-1.3368759763291855,-2.5233386198626917,6.140872585564413,1.0113495588302612,-2.584200922642843
1708436310.6454246,-2.1550965309143066,-1.3368844103864213,-2.523388926182882,6.140852916031637,1.0113542079925537,-2.584254566823141
1708436310.6474402,-2.1551003456115723,-1.3368518215468903,-2.5233874956714075,6.140890586167135,1.0113332271575928,-2.584217373524801
1708436310.6494377,-2.155071973800659,-1.336892158990242,-2.5233832041369837,6.140881526261129,1.0113495588302612,-2.584229294453756
1708436310.651432,-2.1551003456115723,-1.3368391555598755,-2.5233340899096888,6.14086805561141,1.0113495588302612,-2.584212843571798
1708436310.6534383,-2.15513277053833,-1.3368273091367264,-2.5234039465533655,6.140876996308126,1.011378526687622,-2.5842247645007532
1708436310.6554399,-2.155104637145996,-1.3368192625096817,-2.5233681837665003,6.140897977143087,1.011336088180542,-2.5841873327838343
1708436310.6574793,-2.155104637145996,-1.3368273389390488,-2.5234161059008997,6.140888917237081,1.0113468170166016,-2.58419639268984
1708436310.6594577,-2.155134439468384,-1.3368716847947617,-2.5233801046954554,6.140914308815756,1.0113712549209595,-2.584229294453756
1708436310.6614518,-2.155104637145996,-1.336843417291977,-2.5234249273883265,6.140879976540365,1.0113993883132935,-2.584168020878927
1708436310.6634388,-2.1551284790039062,-1.3368920546821137,-2.5233712832080286,6.140920388489523,1.0114296674728394,-2.584292475377218
1708436310.6654413,-2.1550960540771484,-1.3368595403483887,-2.5233431498156946,6.140903937607565,1.0114071369171143,-2.5842037836657923
1708436310.6674902,-2.1550748348236084,-1.3368518215468903,-2.5234127680407923,6.140981900482931,1.0113904476165771,-2.584212843571798
1708436310.669443,-2.15510892868042,-1.336896227007248,-2.523417059575216,6.140958058625021,1.011340618133545,-2.5842247645007532
1708436310.6714544,-2.15510892868042,-1.3368356835893174,-2.5234039465533655,6.141019451409139,1.0113829374313354,-2.5842157045947474
1708436310.6734483,-2.15510892868042,-1.3368476641229172,-2.5233758131610315,6.14098476150588,1.0113451480865479,-2.584240976964132
1708436310.675433,-2.15513014793396,-1.3368518215468903,-2.5234039465533655,6.141022312432089,1.0113904476165771,-2.5841875712024134
1708436310.6775315,-2.1551570892333984,-1.3368637424758454,-2.5233994166003626,6.141013371735372,1.0113859176635742,-2.584208313618795
1708436310.6794803,-2.1551413536071777,-1.3369208586267014,-2.5234127680407923,6.140972840576925,1.0113741159439087,-2.5841458479510706
1708436310.681435,-2.155134439468384,-1.3368674975684662,-2.523350540791647,6.141002642899313,1.011398196220398,-2.5842037836657923
1708436310.6835055,-2.1551177501678467,-1.3368595254472275,-2.523400847111837,6.140931117325582,1.0114071369171143,-2.5841665903674524
1708436310.685447,-2.155121326446533,-1.336860330109932,-2.5234206358539026,6.140968310623922,1.0113904476165771,-2.584208313618795
1708436310.6874716,-2.15510892868042,-1.3368637424758454,-2.5233712832080286,6.140944707184591,1.0113650560379028,-2.584245506917135
1708436310.6894362,-2.155158758163452,-1.3368518215468903,-2.523358170186178,6.140969979553976,1.0114235877990723,-2.5842531363116663
1708436310.6914847,-2.155113458633423,-1.3368187558702012,-2.5233548323260706,6.140956628113546,1.0114353895187378,-2.5842366854297083
1708436310.6935058,-2.1550791263580322,-1.3368722212365647,-2.523411575947897,6.141010510712423,1.0113859176635742,-2.5842366854297083
1708436310.695445,-2.1551413536071777,-1.3368518066457291,-2.523350540791647,6.14104317405776,1.0114190578460693,-2.5842037836657923
1708436310.6974554,-2.15508770942688,-1.3368678849986573,-2.523384396229879,6.14100598075942,1.0114026069641113,-2.5842202345477503
1708436310.699465,-2.155076265335083,-1.3368602854064484,-2.5233920256244105,6.1410149214561365,1.0113904476165771,-2.5841739813434046
1708436310.701437,-2.1551170349121094,-1.33680313945327,-2.523428265248434,6.141013371735372,1.0114026069641113,-2.5842247645007532
1708436310.703481,-2.155125617980957,-1.3368561130813141,-2.5234039465533655,6.140989291458883,1.0114235877990723,-2.5842157045947474
1708436310.7054334,-2.155076265335083,-1.3368963313153763,-2.5233874956714075,6.141017782479086,1.011383056640625,-2.5841756502734583
1708436310.7074697,-2.15513014793396,-1.3368187856725235,-2.523400847111837,6.140993821411886,1.0113531351089478,-2.5842066446887415
1708436310.7094407,-2.155113458633423,-1.3368399900249024,-2.5234294573413294,6.1410149214561365,1.0113441944122314,-2.5842612425433558
1708436310.7114592,-2.155113458633423,-1.336883620624878,-2.5234039465533655,6.140972959786215,1.0113904476165771,-2.584208313618795
1708436310.7134774,-2.1551170349121094,-1.336843417291977,-2.5233948866473597,6.140993702202596,1.0114116668701172,-2.5842230955706995
1708436310.7154543,-2.1551003456115723,-1.3368717294982453,-2.5233874956714075,6.140914428025045,1.0114145278930664,-2.5841830412494105
1708436310.7175143,-2.155087471008301,-1.3368637424758454,-2.5234039465533655,6.140997040062704,1.01139497756958,-2.5842564741717737
1708436310.7194529,-2.155104637145996,-1.3367981177619477,-2.5234206358539026,6.1410103915031335,1.0113813877105713,-2.5842564741717737
1708436310.7214515,-2.155125617980957,-1.3368510466865082,-2.5234461466418665,6.140980350762167,1.0114160776138306,-2.5842321554767054
1708436310.7234788,-2.155125617980957,-1.3367661845735093,-2.5233920256244105,6.141010510712423,1.011398196220398,-2.5842564741717737
1708436310.725429,-2.155125617980957,-1.3368510913899918,-2.5234039465533655,6.141008841782369,1.0114189386367798,-2.5842774550067347
1708436310.7274725,-2.155113458633423,-1.3368518215468903,-2.523417297993795,6.14100598075942,1.0114189386367798,-2.5842486063586634
1708436310.7294369,-2.1551527976989746,-1.3368391257575531,-2.5234084765063685,6.140986311226644,1.0114071369171143,-2.5842440764056605
1708436310.731449,-2.155137062072754,-1.3368595403483887,-2.5234294573413294,6.141035902291097,1.0114054679870605,-2.5842440764056605
1708436310.7334583,-2.15513014793396,-1.3369082522443314,-2.523357931767599,6.140968310623922,1.0114264488220215,-2.5841992537127894
1708436310.7354352,-2.1551413536071777,-1.3368518215468903,-2.5234084765063685,6.141029703408041,1.0113813877105713,-2.5842610041247767
1708436310.7374666,-2.155137062072754,-1.336834878926613,-2.523382012044088,6.141001450806417,1.0114099979400635,-2.5842321554767054
1708436310.7394342,-2.1551616191864014,-1.3368561130813141,-2.5234416166888636,6.141010510712423,1.0114145278930664,-2.5842564741717737
1708436310.7414641,-2.1551501750946045,-1.336843417291977,-2.523411575947897,6.140977370529928,1.011393666267395,-2.5842321554767054
1708436310.7434611,-2.15519380569458,-1.3368023347905655,-2.523428265248434,6.141001450806417,1.0114235877990723,-2.5842486063586634
1708436310.7454412,-2.1551413536071777,-1.3368349087289353,-2.5234161059008997,6.140980231552877,1.0114279985427856,-2.5842819849597376
1708436310.7475038,-2.1551170349121094,-1.3368963313153763,-2.5234039465533655,6.1410103915031335,1.0113904476165771,-2.584251944218771
1708436310.7494385,-2.1551458835601807,-1.3368801933578034,-2.523444716130392,6.140975820809164,1.0113859176635742,-2.584247652684347
1708436310.7514431,-2.15513014793396,-1.3368679595044632,-2.5234039465533655,6.14104317405776,1.011393666267395,-2.584284845982687
1708436310.7534435,-2.155113458633423,-1.3368801933578034,-2.5234161059008997,6.140980231552877,1.0114026069641113,-2.584284845982687
1708436310.7554328,-2.15513014793396,-1.3367947053960343,-2.5233920256244105,6.140959369927206,1.0114099979400635,-2.584280316029684
1708436310.7574959,-2.1551170349121094,-1.3368307066014786,-2.523411575947897,6.140951978951254,1.011393666267395,-2.584280316029684
1708436310.7594686,-2.1550633907318115,-1.336831496363022,-2.523432795201437,6.141001450806417,1.0114026069641113,-2.584330145512716
1708436310.7614486,-2.1551806926727295,-1.336843417291977,-2.5233951250659388,6.1410268423850916,1.011398196220398,-2.5842910448657435
1708436310.763448,-2.1551413536071777,-1.3368759912303467,-2.5233951250659388,6.141010510712423,1.0113904476165771,-2.5843544642077845
1708436310.7654467,-2.1551284790039062,-1.3368518215468903,-2.523432795201437,6.140968310623922,1.0114145278930664,-2.584341828023092
1708436310.7674518,-2.15508770942688,-1.3368552339128037,-2.5234206358539026,6.141008841782369,1.0114235877990723,-2.5842867533313196
1708436310.7694545,-2.155161142349243,-1.336810366516449,-2.5234039465533655,6.14098476150588,1.0113650560379028,-2.5843589941607874
1708436310.7714508,-2.1551413536071777,-1.3368637424758454,-2.5233874956714075,6.141029703408041,1.011393666267395,-2.5843046347247522
1708436310.7734902,-2.15513277053833,-1.3368679595044632,-2.5233994166003626,6.140975820809164,1.011410117149353,-2.5843210856067103
1708436310.77543,-2.1551003456115723,-1.3368801933578034,-2.5234084765063685,6.141038763314047,1.011393666267395,-2.584337298070089
1708436310.7774405,-2.1551198959350586,-1.3368399900249024,-2.5233832041369837,6.141022431641378,1.0114071369171143,-2.584313694630758
1708436310.7794425,-2.1551413536071777,-1.3368348640254517,-2.5234039465533655,6.141025292664327,1.0113813877105713,-2.5842958132373255
1708436310.7814476,-2.155148506164551,-1.3368752014688035,-2.523440186177389,6.140993702202596,1.0114145278930664,-2.5842838923083704
1708436310.7834523,-2.1551284790039062,-1.3368679595044632,-2.5234127680407923,6.141029703408041,1.0114071369171143,-2.584318224583761
1708436310.7854311,-2.1551284790039062,-1.3369039607099076,-2.5234206358539026,6.14100598075942,1.0113815069198608,-2.5843001047717493
1708436310.7874773,-2.155165195465088,-1.3368229877999802,-2.523428265248434,6.14100598075942,1.0114026069641113,-2.584262196217672
1708436310.7894533,-2.15508770942688,-1.3368349087289353,-2.5234084765063685,6.141010510712423,1.0113695859909058,-2.5843709150897425
1708436310.7914505,-2.15513277053833,-1.336815045481064,-2.523390595112936,6.141050565033712,1.0114145278930664,-2.5843210856067103
1708436310.7934968,-2.1551084518432617,-1.3368878078511734,-2.5234161059008997,6.141017782479086,1.0113694667816162,-2.584337298070089
1708436310.795436,-2.1551003456115723,-1.3368476194194336,-2.5234490076648157,6.141046154289999,1.0114071369171143,-2.5843330065356653
1708436310.7974448,-2.155144214630127,-1.3368510764888306,-2.5234294573413294,6.140992510109701,1.0113904476165771,-2.5843239466296595
1708436310.7994354,-2.1551413536071777,-1.336831496363022,-2.5233712832080286,6.141052233963766,1.0113815069198608,-2.5842910448657435
1708436310.801435,-2.155121326446533,-1.3368759912303467,-2.523432795201437,6.141017901688375,1.0114235877990723,-2.5843210856067103
1708436310.803438,-2.1551198959350586,-1.336863712673523,-2.5233994166003626,6.141004431038656,1.0113904476165771,-2.5843210856067103
1708436310.805433,-2.1551413536071777,-1.3368510168841858,-2.5233920256244105,6.140992510109701,1.0113904476165771,-2.5843120257007044
1708436310.807449,-2.155148506164551,-1.336900458937027,-2.523444477711813,6.141055094986715,1.0113407373428345,-2.5842881838427942
1708436310.8094304,-2.155148506164551,-1.3368679595044632,-2.523440186177389,6.140999901085653,1.0114026069641113,-2.584341828023092
1708436310.8114593,-2.155160903930664,-1.3367981177619477,-2.523460928593771,6.141046154289999,1.0113650560379028,-2.5842793623553675
1708436310.8134406,-2.155137062072754,-1.3368023347905655,-2.523428265248434,6.141022431641378,1.0114071369171143,-2.5842838923083704
1708436310.8154318,-2.1551616191864014,-1.3369209629348298,-2.5233994166003626,6.141041743546285,1.0113904476165771,-2.5843001047717493
1708436310.8174877,-2.155148506164551,-1.3368595254472275,-2.523407284413473,6.141020881920614,1.0114071369171143,-2.5842838923083704
1708436310.8194454,-2.1551084518432617,-1.336883620624878,-2.5234249273883265,6.141026961594381,1.0113948583602905,-2.584275786076681
1708436310.8214493,-2.15513277053833,-1.3368963313153763,-2.5233786741839808,6.14100598075942,1.0113993883132935,-2.584292713795797
1708436310.823439,-2.155139923095703,-1.3368759614280243,-2.5234161059008997,6.141058313637533,1.0114189386367798,-2.584275786076681
1708436310.8254325,-2.155148506164551,-1.3368510466865082,-2.5234084765063685,6.141017782479086,1.0113948583602905,-2.584284845982687
1708436310.8274596,-2.1550960540771484,-1.3368759912303467,-2.5234535376178187,6.141008960991659,1.0113859176635742,-2.584271256123678
1708436310.829427,-2.155148506164551,-1.3368801486543198,-2.523374382649557,6.141013371735372,1.0113904476165771,-2.5842140356646937
1708436310.8314266,-2.155148506164551,-1.3368391257575531,-2.523432795201437,6.140983569412985,1.0113694667816162,-2.5842729250537317
1708436310.8334363,-2.1551170349121094,-1.3368229877999802,-2.5233786741839808,6.140992510109701,1.0113904476165771,-2.5842230955706995
1708436310.835433,-2.155172109603882,-1.336871699695923,-2.5233951250659388,6.140999901085653,1.0113694667816162,-2.584208313618795
1708436310.8374693,-2.1551413536071777,-1.336827279334404,-2.523411575947897,6.1410162327583215,1.0114116668701172,-2.584134642277853
1708436310.8395333,-2.1551737785339355,-1.3368759912303467,-2.5234370867358606,6.141034233361044,1.0113739967346191,-2.5841696898089808
1708436310.841457,-2.155139923095703,-1.336883620624878,-2.523390595112936,6.141034233361044,1.0113576650619507,-2.5841272513019007
1708436310.8434563,-2.1551566123962402,-1.336883620624878,-2.523411575947897,6.141008960991659,1.0113576650619507,-2.5841074625598353
1708436310.8454351,-2.1551852226257324,-1.3368595403483887,-2.5234161059008997,6.141008960991659,1.0113859176635742,-2.584054772053854
1708436310.847469,-2.155139923095703,-1.3368391257575531,-2.5233832041369837,6.141017782479086,1.0113450288772583,-2.584038321171896
1708436310.8494298,-2.155139923095703,-1.336855248813965,-2.5234084765063685,6.140983569412985,1.0113741159439087,-2.5839982668506067
1708436310.8514657,-2.155144214630127,-1.3368391257575531,-2.5233832041369837,6.1410207627113245,1.0113741159439087,-2.5839789549456995
1708436310.8534439,-2.155148506164551,-1.3368229877999802,-2.5233786741839808,6.141017901688375,1.0113859176635742,-2.584001604710714
1708436310.8554425,-2.155104637145996,-1.3368759912303467,-2.5234039465533655,6.140999901085653,1.0114279985427856,-2.5839064756976526
1708436310.8574812,-2.1551525592803955,-1.3368510466865082,-2.5234578291522425,6.141020881920614,1.011420726776123,-2.5839110056506556
1708436310.8594472,-2.155148506164551,-1.3368595403483887,-2.5234161059008997,6.1410372135932825,1.0113904476165771,-2.583883587514059
1708436310.8614388,-2.1551284790039062,-1.3368674975684662,-2.5233951250659388,6.141029703408041,1.0113712549209595,-2.583810631428854
1708436310.8634648,-2.1551809310913086,-1.3368674975684662,-2.523444477711813,6.1410372135932825,1.0113904476165771,-2.58376914659609
1708436310.8654444,-2.1552133560180664,-1.336900533442833,-2.5234416166888636,6.141095626145162,1.011420726776123,-2.58374268213381
1708436310.8674786,-2.1551525592803955,-1.336916671400406,-2.523374382649557,6.141058313637533,1.0113741159439087,-2.5837069193469446
1708436310.8694704,-2.1551170349121094,-1.336871699695923,-2.523440186177389,6.1410207627113245,1.0113948583602905,-2.583670679722921
1708436310.8714392,-2.155168056488037,-1.3368349087289353,-2.5234249273883265,6.141102778702535,1.0113921165466309,-2.5836105982409876
1708436310.873472,-2.1551198959350586,-1.3369082522443314,-2.5233951250659388,6.14107762554244,1.011383056640625,-2.583529535924093
1708436310.8754318,-2.1552019119262695,-1.3368878078511734,-2.5234161059008997,6.141020881920614,1.0113859176635742,-2.58346134821047
1708436310.8774476,-2.155172109603882,-1.3368679595044632,-2.5234039465533655,6.140954720764913,1.0113739967346191,-2.5834057966815394
1708436310.879461,-2.155144214630127,-1.3368674975684662,-2.523428265248434,6.141068804055013,1.0113543272018433,-2.583362642918722
1708436310.8814337,-2.155139923095703,-1.3368229877999802,-2.523390595112936,6.1410982487495325,1.01139497756958,-2.583336416875021
1708436310.8834424,-2.1551284790039062,-1.3368476194194336,-2.523432795201437,6.141025292664327,1.0113576650619507,-2.5831475893603724
1708436310.8854165,-2.1551525592803955,-1.3368674975684662,-2.523374382649557,6.14105390289382,1.011340618133545,-2.5830934683429163
1708436310.8874564,-2.1551313400268555,-1.3369039607099076,-2.5233951250659388,6.141056883126058,1.0113829374313354,-2.5829761664019983
1708436310.8894296,-2.1551482677459717,-1.3368595403483887,-2.523407284413473,6.141089308052816,1.0114085674285889,-2.5828805605517786
1708436310.891416,-2.1552088260650635,-1.3368759912303467,-2.5233951250659388,6.14110158660964,1.0113993883132935,-2.5827797094928187
1708436310.893528,-2.1551566123962402,-1.3368595403483887,-2.523407284413473,6.141110408097067,1.0113286972045898,-2.582684342061178
1708436310.8954694,-2.155172109603882,-1.3369243753007432,-2.5234490076648157,6.141128647118368,1.011420726776123,-2.582560364400045
1708436310.8974981,-2.155184745788574,-1.3369039607099076,-2.52342397371401,6.141142117768087,1.0113450288772583,-2.582419220601217
1708436310.8995676,-2.1551764011383057,-1.3368510466865082,-2.5234490076648157,6.141116368561544,1.0113948583602905,-2.5822492281543177
1708436310.901437,-2.1551566123962402,-1.336883620624878,-2.523428265248434,6.141140568047323,1.011378526687622,-2.582111899052755
1708436310.903465,-2.155188798904419,-1.3368759912303467,-2.5233874956714075,6.141131508141317,1.0113741159439087,-2.581984345112936
1708436310.9054375,-2.1551764011383057,-1.3369116497090836,-2.5233994166003626,6.141143429070272,1.0113756656646729,-2.5818806330310267
1708436310.907463,-2.155144214630127,-1.3368476194194336,-2.5234161059008997,6.141140568047323,1.011378526687622,-2.581712309514181
1708436310.9094405,-2.1551525592803955,-1.3368595403483887,-2.523411575947897,6.141152488976278,1.0113495588302612,-2.5816152731524866
1708436310.9114504,-2.155200481414795,-1.3368836057237168,-2.5234039465533655,6.141147839813986,1.011366605758667,-2.5814173857318323
1708436310.91346,-2.155200481414795,-1.3368921142867585,-2.523411575947897,6.141098367958822,1.0113258361816406,-2.5812435785876673
1708436310.9154475,-2.15513277053833,-1.3369362217238923,-2.5234039465533655,6.1411688206489465,1.0113542079925537,-2.5811007658587855
1708436310.9174652,-2.1551525592803955,-1.336900533442833,-2.523428265248434,6.141144978791036,1.0113587379455566,-2.580939833317892
1708436310.9194417,-2.1551272869110107,-1.3368391257575531,-2.5233832041369837,6.141180979996481,1.0113542079925537,-2.580755058919088
1708436310.9214287,-2.155168056488037,-1.3368349087289353,-2.5233951250659388,6.141203629761495,1.0113922357559204,-2.5805776754962366
1708436310.9235768,-2.1551566123962402,-1.3368391257575531,-2.5234084765063685,6.141227352410116,1.0113167762756348,-2.580369536076681
1708436310.925447,-2.1552088260650635,-1.3368674975684662,-2.523444477711813,6.141180979996481,1.011387586593628,-2.5801690260516565
1708436310.9274697,-2.1552090644836426,-1.3368794184974213,-2.523407284413473,6.141152488976278,1.0113542079925537,-2.5799742380725306
1708436310.9294348,-2.155172109603882,-1.336872251038887,-2.523432795201437,6.141182172089376,1.011366605758667,-2.5797985235797327
1708436310.9314284,-2.155221462249756,-1.3368921142867585,-2.5233994166003626,6.1411688206489465,1.0113921165466309,-2.5794904867755335
1708436310.9334724,-2.155184745788574,-1.336912454371788,-2.5234490076648157,6.141225564270773,1.0113542079925537,-2.579337183629171
1708436310.9354765,-2.1551482677459717,-1.3368595403483887,-2.5234490076648157,6.141143429070272,1.011387586593628,-2.579062048588888
1708436310.9374692,-2.1551437377929688,-1.3368426275304337,-2.5234816710101526,6.141185509949484,1.011404037475586,-2.5788498560534876
1708436310.9394348,-2.1551437377929688,-1.336871699695923,-2.523411575947897,6.141192900925436,1.0113712549209595,-2.578571859990255
1708436310.9414318,-2.1551549434661865,-1.3369124692729493,-2.523407284413473,6.14123164394454,1.0113921165466309,-2.578336540852682
1708436310.9434657,-2.1551761627197266,-1.336900533442833,-2.5233951250659388,6.141188490181722,1.01136314868927,-2.578043524418966
1708436310.9454837,-2.1551637649536133,-1.3368307066014786,-2.5234206358539026,6.141127097397604,1.011358618736267,-2.577808682118551
1708436310.9474447,-2.1552541255950928,-1.3368632805398484,-2.5233593622790735,6.141180979996481,1.011404037475586,-2.5775073210345667
1708436310.9494374,-2.1551549434661865,-1.3369193536094208,-2.5234370867358606,6.141234624176779,1.0113587379455566,-2.5772135893451136
1708436310.9514272,-2.155168056488037,-1.3368674975684662,-2.523411575947897,6.141185509949484,1.0113965272903442,-2.576908890401022
1708436310.9534507,-2.1551804542541504,-1.3368590635112305,-2.523428265248434,6.141126978188314,1.0113495588302612,-2.5765677134143274
1708436310.955442,-2.155196189880371,-1.3369200837663193,-2.5234206358539026,6.141176569252767,1.0113123655319214,-2.576268736516134
1708436310.9575145,-2.155217409133911,-1.3368878227523346,-2.523432795201437,6.141210901528158,1.0113542079925537,-2.5759478251086634
1708436310.9594448,-2.1551594734191895,-1.3369074326804657,-2.5234039465533655,6.141164290695944,1.0113378763198853,-2.5756598154651087
1708436310.9614775,-2.155168056488037,-1.3369116646102448,-2.5234490076648157,6.141192900925436,1.011366605758667,-2.575339142476217
1708436310.963475,-2.1552088260650635,-1.336871699695923,-2.5234084765063685,6.141197311669149,1.0113801956176758,-2.5750065485583704
1708436310.9654355,-2.1551594734191895,-1.3368878227523346,-2.5233832041369837,6.141188490181722,1.011362075805664,-2.5746246019946497
1708436310.9674604,-2.1551506519317627,-1.3368632805398484,-2.523407284413473,6.141192900925436,1.011358618736267,-2.5742600599872034
1708436310.9694579,-2.1551918983459473,-1.336867482667305,-2.5234337488757532,6.14113603809432,1.0113495588302612,-2.57391864458193
1708436310.9714458,-2.1551549434661865,-1.3368752014688035,-2.5233994166003626,6.141213762551107,1.0113450288772583,-2.573538366948263
1708436310.9734433,-2.1551804542541504,-1.3368997436812897,-2.5233874956714075,6.141164290695944,1.0113921165466309,-2.573163096104757
1708436310.975458,-2.1551594734191895,-1.3369278025678177,-2.5234206358539026,6.141239034920492,1.0114251375198364,-2.572740141545431
1708436310.9774427,-2.155143976211548,-1.3369116497090836,-2.52342397371401,6.141180979996481,1.0113587379455566,-2.572289768849508
1708436310.979453,-2.1551549434661865,-1.3368595403483887,-2.5234697500811976,6.141176569252767,1.011358618736267,-2.571878258381979
1708436310.9814487,-2.1551358699798584,-1.3368590784123917,-2.5234161059008997,6.141185509949484,1.011404037475586,-2.5715141932116907
1708436310.983473,-2.1551873683929443,-1.3368921142867585,-2.5234249273883265,6.141197311669149,1.0113286972045898,-2.5710490385638636
1708436310.985422,-2.1552131175994873,-1.336863325243332,-2.523432795201437,6.141176450043478,1.0113712549209595,-2.5706144014941614
1708436310.9874372,-2.1551525592803955,-1.3368997436812897,-2.5234161059008997,6.14121829250411,1.0113621950149536,-2.5702067057238978
1708436310.989424,-2.1551761627197266,-1.336883620624878,-2.523390595112936,6.141176569252767,1.0113829374313354,-2.569819752370016
1708436310.9914222,-2.1551566123962402,-1.3368921142867585,-2.523472849522726,6.141180979996481,1.011366605758667,-2.5693166891681116
1708436310.9935024,-2.155196189880371,-1.336867482667305,-2.523440186177389,6.141197430878439,1.0113712549209595,-2.5688746611224573
1708436310.995523,-2.1551918983459473,-1.336883620624878,-2.523460928593771,6.141163098603048,1.0113576650619507,-2.5684152285205286
1708436310.9974496,-2.1551716327667236,-1.3368510764888306,-2.5234161059008997,6.141242372780599,1.0113331079483032,-2.567946497594015
1708436310.9994593,-2.1551918983459473,-1.3368955117515107,-2.523432795201437,6.141176569252767,1.0113829374313354,-2.567510430012838
1708436311.0014398,-2.1551761627197266,-1.3368997436812897,-2.523428265248434,6.141146290093221,1.011340618133545,-2.5670536200152796
1708436311.0034642,-2.155188798904419,-1.336810366516449,-2.523407284413473,6.141188490181722,1.011404037475586,-2.5665205160724085
1708436311.005436,-2.1552131175994873,-1.336895541553833,-2.5234816710101526,6.141221153527059,1.0113286972045898,-2.5660136381732386
1708436311.007465,-2.155146360397339,-1.3368590784123917,-2.52340275446047,6.141216742783346,1.0113451480865479,-2.5655131975757044
1708436311.0094557,-2.1551918983459473,-1.3368307066014786,-2.52342397371401,6.141164409905233,1.0113757848739624,-2.56502873102297
1708436311.0114298,-2.1552131175994873,-1.336866782312729,-2.523440186177389,6.141197430878439,1.0113576650619507,-2.5645037333117884
1708436311.0134525,-2.1551761627197266,-1.3368349832347413,-2.523374382649557,6.141260254174032,1.01139497756958,-2.564000431691305
1708436311.0154448,-2.1551804542541504,-1.336846799855568,-2.52340275446047,6.141213762551107,1.011383056640625,-2.5634411017047327
1708436311.0174763,-2.1551873683929443,-1.336895541553833,-2.52344781557192,6.141230094223776,1.011378526687622,-2.562881056462423
1708436311.019438,-2.1551830768585205,-1.336928592329361,-2.523440186177389,6.141230213433065,1.011378526687622,-2.5623191038714808
1708436311.0214553,-2.1551761627197266,-1.336810366516449,-2.5234490076648157,6.1412004111106775,1.0113576650619507,-2.5617826620685022
1708436311.0234733,-2.1551716327667236,-1.3368510913899918,-2.5234950224505823,6.141254174500265,1.0113904476165771,-2.5611425081836146
1708436311.025434,-2.155196189880371,-1.336879388695099,-2.5234490076648157,6.141204821854391,1.0113948583602905,-2.5606001059161585
1708436311.0274813,-2.155184745788574,-1.336940513258316,-2.523468319569723,6.141159760742941,1.0113813877105713,-2.5600250403033655
1708436311.0294874,-2.1551549434661865,-1.3368759912303467,-2.523435656224386,6.141206371575155,1.011387586593628,-2.5595267454730433
1708436311.0314472,-2.1551549434661865,-1.3369201135686417,-2.523456637059347,6.141155349999227,1.0114116668701172,-2.5588792006122034
1708436311.0334792,-2.1551918983459473,-1.336883620624878,-2.523456637059347,6.141221153527059,1.0114235877990723,-2.5583489576922815
1708436311.035476,-2.155217409133911,-1.3368921142867585,-2.523440186177389,6.141192900925436,1.0114116668701172,-2.557734791432516
1708436311.0374477,-2.155172109603882,-1.3369243753007432,-2.523468319569723,6.141204821854391,1.0113859176635742,-2.557134453450338
1708436311.039461,-2.1551764011383057,-1.3368675124696274,-2.523432795201437,6.141197430878439,1.0114235877990723,-2.556463066731588
1708436311.0414562,-2.1551594734191895,-1.336879388695099,-2.523447577153341,6.1411839602287195,1.0114189386367798,-2.5558548609363
1708436311.043477,-2.1551716327667236,-1.3368752014688035,-2.523472849522726,6.141246783524313,1.0114116668701172,-2.555253569279806
1708436311.0454452,-2.1551549434661865,-1.3369116646102448,-2.523489300404684,6.141188490181722,1.0114235877990723,-2.5546041170703333
1708436311.0474572,-2.1551673412323,-1.3369200837663193,-2.5234225432025355,6.141216742783346,1.011410117149353,-2.5539706389056605
1708436311.049443,-2.1551761627197266,-1.336903230553009,-2.5234180132495325,6.141230213433065,1.0114386081695557,-2.553317133580343
1708436311.0514228,-2.155184745788574,-1.3368751865676423,-2.5234506765948694,6.141221153527059,1.011452078819275,-2.5526767412768763
1708436311.0534625,-2.1551918983459473,-1.3368548613837739,-2.523452107106344,6.141192900925436,1.0114552974700928,-2.552096668873922
1708436311.0554256,-2.1552131175994873,-1.3368675273707886,-2.5234671274768274,6.14124225357131,1.0114552974700928,-2.551451031361715
1708436311.0574543,-2.1551437377929688,-1.3368674975684662,-2.5235255400287073,6.141230094223776,1.0114507675170898,-2.5508132616626185
1708436311.0594614,-2.1551637649536133,-1.336883620624878,-2.5234552065478724,6.141127097397604,1.0114552974700928,-2.5501444975482386
1708436311.061436,-2.1551637649536133,-1.3369320344975968,-2.5234716574298304,6.141180979996481,1.011446237564087,-2.549487892781393
1708436311.0634866,-2.1552047729492188,-1.3369481575540085,-2.523464028035299,6.1411688206489465,1.011462688446045,-2.5488789717303675
1708436311.0654488,-2.155172109603882,-1.3368468296578904,-2.5235045591937464,6.141206371575155,1.0114954710006714,-2.5481882731067103
1708436311.0674734,-2.155184745788574,-1.336883620624878,-2.5235210100757044,6.14121829250411,1.0114582777023315,-2.5475531260119837
1708436311.0694513,-2.155172109603882,-1.336895541553833,-2.5234878698932093,6.141115176468649,1.0114507675170898,-2.546870295201437
1708436311.0714567,-2.155168056488037,-1.3368752014688035,-2.5235374609576624,6.1411839602287195,1.0115032196044922,-2.5462163130389612
1708436311.073445,-2.1551506519317627,-1.336883620624878,-2.523529831563131,6.141190039902487,1.0114820003509521,-2.5455666224109095
1708436311.0754554,-2.1552045345306396,-1.3368625354817887,-2.5235241095172327,6.141128647118368,1.011474609375,-2.544828478490011
1708436311.0774825,-2.155184745788574,-1.3368264895728608,-2.5235167185412806,6.141168939858236,1.0114954710006714,-2.5442209879504603
1708436311.0794458,-2.155168056488037,-1.3369642806104203,-2.5235241095172327,6.141161429672994,1.0115150213241577,-2.543539349232809
1708436311.0814455,-2.1551637649536133,-1.3368674975684662,-2.5235493818866175,6.141180979996481,1.0115106105804443,-2.5428743998156946
1708436311.0834818,-2.1552088260650635,-1.3369439256242295,-2.5235210100757044,6.141172039299764,1.011486530303955,-2.5421481768237513
1708436311.085443,-2.1551637649536133,-1.3369608384421845,-2.523536030446188,6.141115176468649,1.0114896297454834,-2.5414863268481653
1708436311.0874918,-2.1551637649536133,-1.3369235408357163,-2.5235522429095667,6.141164290695944,1.0115437507629395,-2.540809933339254
1708436311.0894694,-2.155200481414795,-1.3369200390628357,-2.5234699884997767,6.1411733506019495,1.0115183591842651,-2.5400784651385706
1708436311.0914533,-2.155139446258545,-1.3368632805398484,-2.5235851446734827,6.141265022545614,1.0115437507629395,-2.5394132773028772
1708436311.0934937,-2.1551716327667236,-1.3368913394263764,-2.52351957956423,6.141180979996481,1.0115513801574707,-2.538715902959005
1708436311.0954967,-2.155184745788574,-1.3369235557368775,-2.52351957956423,6.141152488976278,1.0115678310394287,-2.538022820149557
1708436311.097581,-2.155188798904419,-1.336911679511406,-2.523531738911764,6.141190039902487,1.0115633010864258,-2.5373249689685267
1708436311.0995066,-2.1551313400268555,-1.3369193834117432,-2.5235241095172327,6.141140568047323,1.0115678310394287,-2.5366109053241175
1708436311.101512,-2.1551804542541504,-1.3369074624827881,-2.523580853139059,6.141119706421652,1.011582851409912,-2.535938326512472
1708436311.1034515,-2.155193328857422,-1.3368913394263764,-2.523515288029806,6.141190039902487,1.011545181274414,-2.535275999699728
1708436311.1054432,-2.155200481414795,-1.3369151812842865,-2.523531500493185,6.14118109920577,1.011561632156372,-2.5345433394061487
1708436311.1074874,-2.155139446258545,-1.336923600440361,-2.5235558191882532,6.1411568997199915,1.011582851409912,-2.533888880406515
1708436311.1094542,-2.155196189880371,-1.3368948113969346,-2.523593012486593,6.141153919487753,1.0116159915924072,-2.5331900755511683
1708436311.1114614,-2.1552090644836426,-1.3368425828269501,-2.523576323186056,6.141158449440756,1.0115950107574463,-2.5324564615832728
1708436311.1134474,-2.1551594734191895,-1.336935506468155,-2.523531738911764,6.141144978791036,1.0115978717803955,-2.5318544546710413
1708436311.11544,-2.155172109603882,-1.3369039756110688,-2.523613754902975,6.141107427864828,1.0116444826126099,-2.5310779253589075
1708436311.117455,-2.155168056488037,-1.336931274538376,-2.523604933415548,6.141083586006918,1.0116444826126099,-2.5304468313800257
1708436311.1194327,-2.1551525592803955,-1.3369032454541703,-2.523593012486593,6.141137587815084,1.0116069316864014,-2.52970797220339
1708436311.1214333,-2.1551525592803955,-1.3369396936944504,-2.523572031651632,6.141137587815084,1.0115978717803955,-2.529076878224508
1708436311.123469,-2.1551313400268555,-1.3368997436812897,-2.5235512892352503,6.141137587815084,1.01158607006073,-2.5283642450915735
1708436311.1254587,-2.1551766395568848,-1.336943895821907,-2.5235798994647425,6.14107762554244,1.0115889310836792,-2.5276811758624476
1708436311.127448,-2.1551525592803955,-1.3369677078774949,-2.523621384297506,6.141084897309103,1.0116113424301147,-2.5269535223590296
1708436311.1294346,-2.1551156044006348,-1.3369355362704773,-2.5235887209521692,6.141075837403097,1.011602520942688,-2.52629262605776
1708436311.131443,-2.155184745788574,-1.336927057509758,-2.5235961119281214,6.141066777497091,1.0116188526153564,-2.5255025068866175
1708436311.1334438,-2.155172109603882,-1.3369313192418595,-2.5236452261554163,6.141088115959921,1.0115904808044434,-2.524869982396261
1708436311.1354344,-2.1551482677459717,-1.3369558316520234,-2.5236125628100794,6.141110527306356,1.0116220712661743,-2.5241242090808313
1708436311.1374598,-2.1551241874694824,-1.3369185787490387,-2.523609224949972,6.141084897309103,1.011672854423523,-2.5234668890582483
1708436311.1394506,-2.155184745788574,-1.336931289439537,-2.5235586802112024,6.14101933219985,1.0116220712661743,-2.5227249304400843
1708436311.1414657,-2.1551198959350586,-1.336987705235817,-2.5236154238330286,6.1410372135932825,1.0116310119628906,-2.5220640341388147
1708436311.1434543,-2.155139923095703,-1.3369635504535218,-2.5236168543445032,6.1410162327583215,1.0116097927093506,-2.521400038396017
1708436311.1454556,-2.1551284790039062,-1.3369589161923905,-2.5236125628100794,6.140992510109701,1.0116548538208008,-2.520743433629171
1708436311.147441,-2.155139923095703,-1.3369347167066117,-2.52364951768984,6.141011822014608,1.011688232421875,-2.5200541655169886
1708436311.1494417,-2.155165195465088,-1.3369551461986084,-2.5236573855029505,6.141034233361044,1.0116702318191528,-2.5193734804736536
1708436311.1514523,-2.155139923095703,-1.3369834286025544,-2.5235543886767786,6.1409880993659876,1.0116791725158691,-2.5186873118029993
1708436311.1534579,-2.155160903930664,-1.337015764122345,-2.5236318747149866,6.141041624336996,1.0117164850234985,-2.5180326143847864
1708436311.155458,-2.155172109603882,-1.3369750541499634,-2.5235992113696497,6.1410268423850916,1.0116702318191528,-2.5173168818103235
1708436311.1574845,-2.1551849842071533,-1.3370200258544465,-2.5235872904406946,6.141008960991659,1.0117030143737793,-2.5167203585254114
1708436311.159445,-2.1551241874694824,-1.3369869452765961,-2.5236528555499476,6.140935647278585,1.0116791725158691,-2.516085211430685
1708436311.1614614,-2.1551694869995117,-1.3369953793338318,-2.5236242453204554,6.141013371735372,1.011661171913147,-2.5154672304736536
1708436311.1634464,-2.1551527976989746,-1.3370004159263154,-2.5236318747149866,6.141001450806417,1.0117361545562744,-2.5147441069232386
1708436311.1654875,-2.155148506164551,-1.3369911474040528,-2.5236695448504847,6.140968310623922,1.011677622795105,-2.5141077677356165
1708436311.1674435,-2.1551084518432617,-1.337015689616539,-2.5236273447619837,6.140993821411886,1.011698603630066,-2.5134552160846155
1708436311.1694381,-2.155137062072754,-1.3370030683330079,-2.523644034062521,6.1409023878868005,1.0117104053497314,-2.5128234068499964
1708436311.1715047,-2.155144214630127,-1.3369716119817276,-2.523656193410055,6.140918957978048,1.0117437839508057,-2.5121527353869837
1708436311.1734617,-2.1551527976989746,-1.3370030683330079,-2.5236318747149866,6.140972959786215,1.0117557048797607,-2.5115371386157435
1708436311.1754494,-2.1550917625427246,-1.3370472353747864,-2.523651901875631,6.140968310623922,1.011784315109253,-2.510867182408468
1708436311.1774454,-2.1550917625427246,-1.3370279383710404,-2.52366811433901,6.141010510712423,1.0117180347442627,-2.510221068059103
1708436311.1794622,-2.1551764011383057,-1.3369995665601273,-2.5236273447619837,6.140968310623922,1.0117303133010864,-2.5095158259021204
1708436311.1814482,-2.155160903930664,-1.3370072704604645,-2.523644034062521,6.140963899880209,1.0117915868759155,-2.508871618901388
1708436311.1834402,-2.155121326446533,-1.3369911772063752,-2.523663584386007,6.1409610388572595,1.0117467641830444,-2.508270565663473
1708436311.1854432,-2.1551284790039062,-1.3370038580945511,-2.523656193410055,6.14098476150588,1.0117708444595337,-2.507585350667135
1708436311.1874673,-2.155148506164551,-1.336958886390068,-2.523693386708395,6.1410313723380945,1.0117944478988647,-2.507005278264181
1708436311.189434,-2.1551084518432617,-1.3369178038886567,-2.52369195619692,6.140956508904257,1.011775255203247,-2.506401602421896
1708436311.1914313,-2.1550791263580322,-1.3369743090919037,-2.523663584386007,6.140993702202596,1.0117990970611572,-2.5057154337512415
1708436311.1934607,-2.155125617980957,-1.3369834435037156,-2.523675505314962,6.140977370529928,1.0118370056152344,-2.505134884511129
1708436311.1954916,-2.1551284790039062,-1.3370030683330079,-2.5236547628985804,6.141031491547384,1.011754035949707,-2.504521433507101
1708436311.1975195,-2.1551527976989746,-1.3370395314744492,-2.523700777684347,6.140998232155599,1.0118489265441895,-2.5038705507861536
1708436311.1994398,-2.1551458835601807,-1.3370195490172883,-2.523696486149923,6.140977370529928,1.0118025541305542,-2.503263537083761
1708436311.2014785,-2.15510892868042,-1.3370195043138047,-2.5237248579608362,6.140947448998251,1.0117990970611572,-2.5026827494250696
1708436311.2034411,-2.1551051139831543,-1.3369953495315094,-2.5236712137805384,6.140989291458883,1.0118353366851807,-2.5020414034472864
1708436311.2054603,-2.15510892868042,-1.3369911474040528,-2.5236993471728724,6.141031253128805,1.0118353366851807,-2.501423422490255
1708436311.207484,-2.1551458835601807,-1.3369665753892441,-2.5237413088427942,6.1409445879753015,1.0118234157562256,-2.500814978276388
1708436311.2094445,-2.15510892868042,-1.336979241376259,-2.5237367788897913,6.140989291458883,1.0118353366851807,-2.5001986662494105
1708436311.211485,-2.1550402641296387,-1.3369750392488022,-2.5237279574023646,6.140940177231588,1.0118353366851807,-2.499633852635519
1708436311.2134454,-2.1550517082214355,-1.3369987916997452,-2.5237446467029017,6.140998232155599,1.0118427276611328,-2.4989832083331507
1708436311.215471,-2.155064105987549,-1.3370363873294373,-2.5236993471728724,6.1410149214561365,1.011892557144165,-2.498366419469015
1708436311.2174432,-2.155134439468384,-1.3370080155185242,-2.523719135914938,6.1409491179283044,1.0119044780731201,-2.4978354612933558
1708436311.2194479,-2.1550726890563965,-1.3370195192149659,-2.5236993471728724,6.140977370529928,1.011871337890625,-2.497235123311178
1708436311.2214496,-2.155113458633423,-1.3369995665601273,-2.5237234274493616,6.140936839371481,1.0118744373321533,-2.4966703096972864
1708436311.2234764,-2.1550559997558594,-1.336963103418686,-2.523714605961935,6.14095817783431,1.0119211673736572,-2.4959939161883753
1708436311.2254457,-2.155130624771118,-1.3369708371213456,-2.5237401167498987,6.1409445879753015,1.0119075775146484,-2.4954803625689905
1708436311.2274466,-2.1550726890563965,-1.3369708073190232,-2.5237236658679407,6.140998232155599,1.0118908882141113,-2.4949079195605677
1708436311.2294495,-2.155076265335083,-1.3370114874890824,-2.523768488560812,6.140974509506979,1.0119150876998901,-2.494343105946676
1708436311.2314634,-2.155031681060791,-1.3369869452765961,-2.523813311253683,6.1409503100212,1.0119105577468872,-2.493741814290182
