Eg3-git/Classifiers/Data Collection/u4/u4star1_ur3e_joint_states.csv
time,elbow_joint,shoulder_lift_joint,shoulder_pan_joint,wrist_1_joint,wrist_2_joint,wrist_3_joint
1708436227.8768995,-2.1420726776123047,-1.3333681386760254,-2.525877062474386,6.110222208290853,1.0158742666244507,-2.9000101725207728
1708436227.8789392,-2.142059326171875,-1.3333397668651124,-2.52580172220339,6.110239851265707,1.0159153938293457,-2.8999818007098597
1708436227.8809102,-2.142029047012329,-1.333375797872879,-2.525827471409933,6.110239493637838,1.015861988067627,-2.9000025431262415
1708436227.8829205,-2.1420342922210693,-1.3333440583995362,-2.525806252156393,6.110296237259664,1.0158751010894775,-2.8999937216388147
1708436227.8849163,-2.1420795917510986,-1.333323599105217,-2.525860611592428,6.110200989037313,1.0158751010894775,-2.8999438921557825
1708436227.886906,-2.1420254707336426,-1.3333559793284913,-2.5257914702044886,6.110263693123617,1.0158344507217407,-2.8999744097339075
1708436227.8889072,-2.1420342922210693,-1.3333159548095246,-2.525848690663473,6.1102754948432825,1.0158960819244385,-2.899950091038839
1708436227.8908956,-2.1420342922210693,-1.3333440583995362,-2.52577788034548,6.110198485642233,1.0158675909042358,-2.8999455610858362
1708436227.892926,-2.1419882774353027,-1.3333559793284913,-2.5257914702044886,6.1101653454597376,1.0158181190490723,-2.899907652531759
1708436227.8948908,-2.1420164108276367,-1.3333516132882615,-2.5257914702044886,6.110149013787069,1.0158641338348389,-2.8999698797809046
1708436227.8969145,-2.1420140266418457,-1.3333321672729035,-2.5257914702044886,6.1102309105689905,1.0158474445343018,-2.899900499974386
1708436227.898902,-2.1420016288757324,-1.3333192479661484,-2.5258410612689417,6.110174524575033,1.015798807144165,-2.899921242390768
1708436227.9008944,-2.142037868499756,-1.3333602410605927,-2.5258243719684046,6.110178816109457,1.0158107280731201,-2.8998854796039026
1708436227.9029102,-2.142000436782837,-1.3333202463439484,-2.5257869402514856,6.1102040884788416,1.0157699584960938,-2.899925772343771
1708436227.9048898,-2.1420140266418457,-1.3333278757384797,-2.5257628599749964,6.110171305924215,1.0158237218856812,-2.899846855794088
1708436227.906914,-2.142037868499756,-1.333336429005005,-2.5258079210864466,6.110199796944418,1.0157536268234253,-2.8998854796039026
1708436227.908891,-2.1420094966888428,-1.3333397668651124,-2.5257960001574915,6.110207307129659,1.0157787799835205,-2.899872128163473
1708436227.9108975,-2.1420183181762695,-1.3333440583995362,-2.5257960001574915,6.11023627498702,1.0157943964004517,-2.8999019304858606
1708436227.9129012,-2.1420512199401855,-1.333332137470581,-2.5257960001574915,6.110189306526937,1.0157743692398071,-2.899860207234518
1708436227.9148934,-2.142037868499756,-1.3332951676896592,-2.5257719198810022,6.1101266024406335,1.0157506465911865,-2.899831835423605
1708436227.91694,-2.1420602798461914,-1.3333080571940918,-2.5257509390460413,6.11013816574172,1.0157506465911865,-2.899848286305563
1708436227.918914,-2.142063856124878,-1.3333080869964142,-2.5258169809924524,6.110138523369589,1.0157755613327026,-2.8998282591449183
1708436227.9208908,-2.142063856124878,-1.333352581863739,-2.52576452890505,6.110139715462484,1.0157470703125,-2.899832789097921
1708436227.9228902,-2.1420469284057617,-1.3333483648351212,-2.525717798863546,6.110163795738973,1.0157755613327026,-2.8998823801623743
1708436227.9248905,-2.142000436782837,-1.3333245676806946,-2.5257931391345423,6.110131013184347,1.0157177448272705,-2.8998571077929896
1708436227.9269047,-2.1419970989227295,-1.3333483201316376,-2.52574330965151,6.110097276955404,1.0157102346420288,-2.8998587767230433
1708436227.9289157,-2.1419758796691895,-1.3333037060550232,-2.525705877934591,6.1101651070411584,1.015730857849121,-2.899804655705587
1708436227.9309208,-2.1420094966888428,-1.333308072095253,-2.525705877934591,6.110083448677816,1.015730857849121,-2.8998552004443567
1708436227.9328995,-2.1420557498931885,-1.3333321523717423,-2.525789801274435,6.110114800720968,1.0157265663146973,-2.899834219609396
1708436227.9348967,-2.142000436782837,-1.3332792979529877,-2.525734249745504,6.110127913742819,1.0157067775726318,-2.899801556264059
1708436227.936905,-2.1420469284057617,-1.333323599105217,-2.5257509390460413,6.110193002014913,1.0157146453857422,-2.8998594919787806
1708436227.9388962,-2.141996145248413,-1.3333080273917695,-2.525689427052633,6.110111462860861,1.0156726837158203,-2.899813477193014
1708436227.9409063,-2.1420469284057617,-1.3333534759334107,-2.525714937840597,6.1100830910499475,1.0157023668289185,-2.899776283894674
1708436227.9428988,-2.1420681476593018,-1.33332875490699,-2.525735918675558,6.110074627190389,1.0156826972961426,-2.899752442036764
1708436227.9448955,-2.1420514583587646,-1.3332673621228714,-2.525735918675558,6.110045897751608,1.0157233476638794,-2.8997984568225306
1708436227.9469137,-2.142050266265869,-1.333303691153862,-2.525693957005636,6.1100714085395715,1.0157396793365479,-2.899756971989767
1708436227.9488873,-2.1420388221740723,-1.3332554560950776,-2.525752369557516,6.1100995419319055,1.0156784057617188,-2.8997278849231165
1708436227.9508827,-2.1420512199401855,-1.3333407652429123,-2.5257285276996058,6.1100653288658044,1.0156620740890503,-2.8997793833362024
1708436227.952897,-2.1419970989227295,-1.3332682710937043,-2.525674645100729,6.110096204071798,1.0156545639038086,-2.8997657934771937
1708436227.9549348,-2.1420342922210693,-1.3332994294217606,-2.525735918675558,6.1100830910499475,1.0156588554382324,-2.8997278849231165
1708436227.9570143,-2.142033576965332,-1.333320216541626,-2.525707546864645,6.110026109009542,1.0156337022781372,-2.8997867743121546
1708436227.958934,-2.1420185565948486,-1.3333363992026825,-2.5257001558886927,6.110084402352133,1.0156632661819458,-2.89972955385317
1708436227.9608831,-2.1420469284057617,-1.3333286953023453,-2.5257046858416956,6.110047209053793,1.0156588554382324,-2.8997369448291224
1708436227.9628923,-2.1420388221740723,-1.3332792979529877,-2.5257449785815638,6.110084402352133,1.0156466960906982,-2.8996995131122034
1708436227.964877,-2.1420164108276367,-1.3333245378783722,-2.5256577173816126,6.11011694648818,1.0156632661819458,-2.899710241948263
1708436227.9668746,-2.1420094966888428,-1.333312214618065,-2.525691095982687,6.110002505570211,1.0156511068344116,-2.8997088114367884
1708436227.9688985,-2.1420164108276367,-1.333287851219513,-2.5256927649127405,6.110071289330282,1.0156301259994507,-2.8996952215777796
1708436227.9708867,-2.1420016288757324,-1.3332994294217606,-2.5257092157946985,6.110051619797506,1.0156432390213013,-2.899722162877218
1708436227.9728785,-2.1420469284057617,-1.3333578270724793,-2.5256667772876185,6.110043990402975,1.0156301259994507,-2.899717632924215
1708436227.974889,-2.1420388221740723,-1.3333202463439484,-2.5256577173816126,6.110023247986593,1.0156147480010986,-2.899726454411642
1708436227.9769356,-2.1419970989227295,-1.3333164912513276,-2.5256531874286097,6.110015857010641,1.015634536743164,-2.899726454411642
1708436227.9788883,-2.1420228481292725,-1.3332760047963639,-2.5256927649127405,6.110024916916647,1.015619158744812,-2.89966851869692
1708436227.980887,-2.142059326171875,-1.3333373081735154,-2.5257137457477015,6.110011565476217,1.0155779123306274,-2.899714533482687
1708436227.9829192,-2.1420514583587646,-1.333256022339203,-2.5257166067706507,6.109983074456014,1.0155692100524902,-2.8996411005603235
1708436227.9848804,-2.1419925689697266,-1.3333006215146561,-2.5257120768176478,6.110015857010641,1.0155572891235352,-2.899693791066305
1708436227.9869032,-2.142000436782837,-1.3332844537547608,-2.5256882349597376,6.1100079891975305,1.0156607627868652,-2.8996954599963587
1708436227.9889104,-2.1420185565948486,-1.3333492142013093,-2.5256927649127405,6.109974491387167,1.0155909061431885,-2.899686400090353
1708436227.9909022,-2.1419880390167236,-1.3332921725562592,-2.5256457964526575,6.110032188683309,1.0155866146087646,-2.8996909300433558
1708436227.9928887,-2.1420342922210693,-1.333293081527092,-2.5256972948657435,6.110012280731954,1.0155866146087646,-2.8996411005603235
1708436227.9948823,-2.1420955657958984,-1.333287925725319,-2.5256457964526575,6.1100079891975305,1.0155954360961914,-2.8996744791613978
1708436227.996899,-2.14200496673584,-1.3332801771214982,-2.5256310145007532,6.110027658730306,1.0155253410339355,-2.8996077219592493
1708436227.9989088,-2.1420209407806396,-1.3333207231811066,-2.5256593863116663,6.110003697663107,1.0155835151672363,-2.8995750586139124
1708436228.0008802,-2.1420094966888428,-1.3332844537547608,-2.525684658681051,6.109966623574056,1.0155665874481201,-2.8996411005603235
1708436228.002892,-2.1420254707336426,-1.333256022339203,-2.5256927649127405,6.109991776734152,1.0155665874481201,-2.8995960394488733
1708436228.0048895,-2.1420185565948486,-1.3333037060550232,-2.525614563618795,6.109975683480062,1.0155534744262695,-2.899633232747213
1708436228.006919,-2.1420094966888428,-1.333301604991295,-2.5257063547717493,6.109991776734152,1.0155622959136963,-2.899637762700216
1708436228.0089598,-2.1420557498931885,-1.3332802069238205,-2.525651995335714,6.109975921898641,1.0155665874481201,-2.8996005694018763
1708436228.0109258,-2.142063856124878,-1.3332555156997223,-2.525677506123678,6.110001790314474,1.0155143737792969,-2.899616781865255
1708436228.0129457,-2.1420228481292725,-1.3332560372403641,-2.525644604359762,6.1099809286888025,1.0155222415924072,-2.8996048609363
1708436228.014904,-2.1420209407806396,-1.3332433563521882,-2.525668446217672,6.109944093018331,1.0155515670776367,-2.899555269871847
1708436228.0169294,-2.1420514583587646,-1.3332313311151047,-2.525684658681051,6.109993088036337,1.0155143737792969,-2.899576727543966
1708436228.0189,-2.1420602798461914,-1.333263949756958,-2.5256384054767054,6.109927642136373,1.0155590772628784,-2.899601999913351
1708436228.0208843,-2.1420094966888428,-1.333264635210373,-2.525651995335714,6.109919178276815,1.0155099630355835,-2.8995612303363245
1708436228.0229332,-2.1420209407806396,-1.3332560521415253,-2.525640074406759,6.109939563065328,1.015526533126831,-2.8995686213122767
1708436228.0249155,-2.142050266265869,-1.333280162220337,-2.525602404271261,6.109898316651144,1.0154893398284912,-2.899590078984396
1708436228.0269089,-2.1420512199401855,-1.3333006513169785,-2.525628153477804,6.109944093018331,1.0155186653137207,-2.899590078984396
1708436228.028926,-2.1420140266418457,-1.3332768988660355,-2.525677506123678,6.10989938953475,1.0155143737792969,-2.8995731512652796
1708436228.030932,-2.1420300006866455,-1.3332682710937043,-2.525628153477804,6.109911310463705,1.015486240386963,-2.8995493094073694
1708436228.0329618,-2.1420183181762695,-1.3333092790893097,-2.525619093571798,6.10989938953475,1.0155024528503418,-2.899558130894796
1708436228.034909,-2.1419928073883057,-1.3332768839648743,-2.525606934224264,6.109949457436361,1.0154906511306763,-2.899558130894796
1708436228.0369384,-2.1419928073883057,-1.3332398247769852,-2.525644604359762,6.109937298088827,1.015486240386963,-2.8995254675494593
1708436228.0389063,-2.14200496673584,-1.333268256192543,-2.525574032460348,6.1099527952964685,1.0154949426651,-2.8995254675494593
1708436228.0408838,-2.142033338546753,-1.3332355630448838,-2.52561599413027,6.109916794091024,1.0154905319213867,-2.8995209375964563
1708436228.0429063,-2.142063856124878,-1.3332603436759491,-2.52566105524172,6.10989927032546,1.0154783725738525,-2.899513546620504
1708436228.0448904,-2.1420557498931885,-1.3332365316203614,-2.525562111531393,6.109924423485555,1.0154542922973633,-2.8994808832751673
1708436228.0469017,-2.1420140266418457,-1.3332768839648743,-2.525628153477804,6.109884249954977,1.015458583831787,-2.899459187184469
1708436228.0488932,-2.1420557498931885,-1.3332613420537491,-2.52563721338381,6.109908091812887,1.0154662132263184,-2.8994653860675257
1708436228.0509138,-2.1419928073883057,-1.3332280379584809,-2.525611464177267,6.109855043679037,1.015430212020874,-2.8994773069964808
1708436228.0528862,-2.1420726776123047,-1.3331909489682694,-2.5255828539477747,6.109868037491598,1.0154423713684082,-2.899501625691549
1708436228.0549164,-2.142059326171875,-1.3332646650126954,-2.525628153477804,6.109896170883932,1.015479326248169,-2.899463717137472
1708436228.057014,-2.1420140266418457,-1.3332365167192002,-2.5255828539477747,6.109844076424398,1.0154467821121216,-2.899494234715597
1708436228.0588932,-2.1420209407806396,-1.33331352592025,-2.5255828539477747,6.109876739769735,1.0153974294662476,-2.899439875279562
1708436228.060892,-2.1420297622680664,-1.3332441610148926,-2.5256009737597864,6.109818684845724,1.0154389142990112,-2.8994699160205286
1708436228.0628886,-2.1420254707336426,-1.3332768243602295,-2.5255304018603724,6.1099047539527795,1.015418291091919,-2.8994951883899134
1708436228.064933,-2.1420514583587646,-1.3332689118436356,-2.525573794041769,6.109885322838583,1.0154138803482056,-2.8994534651385706
1708436228.0668814,-2.1420140266418457,-1.3332450997880478,-2.5256131331073206,6.109880912094869,1.0154061317443848,-2.8994460741626185
1708436228.0689573,-2.1420342922210693,-1.333285392527916,-2.5255635420428675,6.109872329026022,1.0154061317443848,-2.8994489351855677
1708436228.0708935,-2.1420300006866455,-1.3332896393588562,-2.5255606810199183,6.109872329026022,1.0153776407241821,-2.899438444768087
1708436228.0729115,-2.1420140266418457,-1.3333135706237336,-2.5255425612079065,6.109867918282308,1.015398621559143,-2.8994296232806605
1708436228.0748978,-2.142011880874634,-1.3332365316203614,-2.5255919138537806,6.109844195633688,1.0153733491897583,-2.899431292210714
1708436228.0769405,-2.1420300006866455,-1.3332038831761857,-2.5255425612079065,6.109824406891622,1.0153377056121826,-2.8994267622577112
1708436228.0789065,-2.1420254707336426,-1.3332484376481553,-2.5255213419543665,6.109915721207418,1.0153876543045044,-2.899414841328756
1708436228.0809104,-2.1420016288757324,-1.333244190817215,-2.5255845228778284,6.109855878144064,1.0153950452804565,-2.899423901234762
1708436228.0829277,-2.1420185565948486,-1.3332365316203614,-2.5255680719958704,6.109848487168112,1.015316367149353,-2.899414841328756
1708436228.0849125,-2.1420209407806396,-1.333195300107338,-2.5255771319018763,6.1098646996314905,1.015337586402893,-2.899381462727682
1708436228.0869288,-2.1420209407806396,-1.3332484376481553,-2.5255349318133753,6.109889733582296,1.0153332948684692,-2.8994103113757532
1708436228.0889144,-2.1420254707336426,-1.3332160425237198,-2.525581661854879,6.109815704613485,1.015317678451538,-2.899348799382345
1708436228.0908957,-2.1420094966888428,-1.3332682859948655,-2.5255726019488733,6.1098153469856165,1.015317678451538,-2.899355951939718
1708436228.092911,-2.1420094966888428,-1.3332203191569825,-2.5255516211139124,6.109778034477987,1.015355110168457,-2.899365011845724
1708436228.0949135,-2.1420388221740723,-1.3332854223302384,-2.525532070790426,6.109848487168112,1.015333890914917,-2.8993502298938196
1708436228.0969174,-2.1420209407806396,-1.3332118701985856,-2.525548521672384,6.10980378368453,1.015305757522583,-2.8993247191058558
1708436228.0988941,-2.1420254707336426,-1.333257020717003,-2.5255349318133753,6.109787452011862,1.015321969985962,-2.8993502298938196
1708436228.100896,-2.1420602798461914,-1.3331995618394394,-2.525527540837423,6.109832155495443,1.015289545059204,-2.8993664423571985
1708436228.1029122,-2.1420254707336426,-1.3332407933524628,-2.5255349318133753,6.1097590802009485,1.0153131484985352,-2.8993621508227747
1708436228.1048944,-2.1419880390167236,-1.3331876558116456,-2.525482479725973,6.109839904099264,1.0152815580368042,-2.8993502298938196
1708436228.106907,-2.142054796218872,-1.3332038235715409,-2.525519911442892,6.109783994942465,1.0153306722640991,-2.8993168512927454
1708436228.108907,-2.1420342922210693,-1.3332689118436356,-2.5255125204669397,6.109824406891622,1.0152740478515625,-2.8993547598468226
1708436228.1108909,-2.1420342922210693,-1.333240808253624,-2.525470558797018,6.109796273499288,1.015346884727478,-2.8993049303637903
1708436228.1129112,-2.1419970989227295,-1.333228961830475,-2.525541130696432,6.109828698426046,1.0152486562728882,-2.8992913405047815
1708436228.114913,-2.1419668197631836,-1.333191917543747,-2.525519911442892,6.10983298996047,1.0152981281280518,-2.899267021809713
1708436228.1169252,-2.1420514583587646,-1.3331919622472306,-2.525494400654928,6.109796154289999,1.0152902603149414,-2.899280611668722
1708436228.118897,-2.142054796218872,-1.3332484525493165,-2.5255289713488978,6.109824406891622,1.0152828693389893,-2.899334971104757
1708436228.120893,-2.1420164108276367,-1.3332279485515137,-2.525487009678976,6.10972689369277,1.0152173042297363,-2.899292532597677
1708436228.122905,-2.1420228481292725,-1.3332441759160538,-2.525498930607931,6.109828698426046,1.0152453184127808,-2.899330441151754
1708436228.1248941,-2.1419713497161865,-1.333179072742798,-2.5255170504199427,6.109824406891622,1.0152541399002075,-2.899268690739767
1708436228.1269145,-2.1420140266418457,-1.3332442057183762,-2.5254512468921106,6.109783994942465,1.0152618885040283,-2.899280611668722
1708436228.1289082,-2.1419849395751953,-1.333187685613968,-2.5254960695849817,6.109788405686178,1.0152662992477417,-2.89927322069277
1708436228.1308944,-2.1420388221740723,-1.3332246106914063,-2.525475088750021,6.109775411873617,1.0152497291564941,-2.8992777506457728
1708436228.132928,-2.1419758796691895,-1.3331877154162903,-2.5254796187030237,6.10980378368453,1.0152465105056763,-2.8992939631091517
1708436228.1348896,-2.142043352127075,-1.3331760180047532,-2.525507990513937,6.109824406891622,1.0151886940002441,-2.899240557347433
1708436228.136906,-2.1420388221740723,-1.3332407933524628,-2.5255005995379847,6.109751808434286,1.0152215957641602,-2.8992777506457728
1708436228.1389265,-2.141996145248413,-1.333228976731636,-2.5254676977740687,6.109788405686178,1.0151852369308472,-2.8993192354785364
1708436228.1409042,-2.1420514583587646,-1.3332451593926926,-2.5254796187030237,6.1097919819648645,1.015213966369629,-2.8992658297168177
1708436228.1429222,-2.1420300006866455,-1.3332246106914063,-2.5254841486560267,6.109800684243002,1.0151690244674683,-2.8992612997638147
1708436228.1449304,-2.142000436782837,-1.3331919026425858,-2.5255005995379847,6.109828698426046,1.0152183771133423,-2.8992777506457728
1708436228.146915,-2.141984701156616,-1.3331919324449082,-2.5254841486560267,6.10972689369277,1.0151734352111816,-2.8992539087878626
1708436228.1489012,-2.142037868499756,-1.3332279485515137,-2.5254603067981165,6.1098049757774255,1.0152183771133423,-2.899231497441427
1708436228.1508994,-2.1419970989227295,-1.3332484525493165,-2.5254014174090784,6.109824406891622,1.0151896476745605,-2.8992777506457728
1708436228.1529176,-2.1420772075653076,-1.3332656186870118,-2.5254767576800745,6.109775292664327,1.0151939392089844,-2.8992612997638147
1708436228.1549122,-2.142042398452759,-1.3332407784513016,-2.5254648367511194,6.109775411873617,1.015210509300232,-2.8992627302752894
1708436228.1569886,-2.1420059204101562,-1.3332322847894211,-2.5254512468921106,6.1098211882408044,1.0151528120040894,-2.89921218553652
1708436228.1589112,-2.1420841217041016,-1.333257035618164,-2.5254512468921106,6.109792697220602,1.0151615142822266,-2.8992582003222864
1708436228.160893,-2.1420209407806396,-1.3332004857114335,-2.5254467169391077,6.109763490944662,1.0151777267456055,-2.8992374579059046
1708436228.162894,-2.1420557498931885,-1.33323226988826,-2.5254557768451136,6.109821307450094,1.0151939392089844,-2.8992131392108362
1708436228.1649046,-2.1420300006866455,-1.3332038235715409,-2.5254648367511194,6.109796273499288,1.0151492357254028,-2.8992701212512415
1708436228.1669238,-2.1420140266418457,-1.3332527440837403,-2.5254388491259974,6.10978256443099,1.0151571035385132,-2.8992329279529017
1708436228.1689107,-2.1420254707336426,-1.3332167279771348,-2.525456968938009,6.109760510712423,1.015144944190979,-2.8992582003222864
1708436228.1708946,-2.1419758796691895,-1.3332612824491044,-2.525435988103048,6.109714734345236,1.0151166915893555,-2.8992465178119105
1708436228.1729262,-2.1420209407806396,-1.3331919026425858,-2.525431458150045,6.109779703408041,1.0151166915893555,-2.8992465178119105
1708436228.174885,-2.1419970989227295,-1.333208979373314,-2.525456968938009,6.109760510712423,1.0151864290237427,-2.8992086092578333
1708436228.1769066,-2.14200496673584,-1.33320805550132,-2.525403086339132,6.109796273499288,1.015144944190979,-2.8991966883288782
1708436228.17894,-2.142010450363159,-1.3331962537816544,-2.5254433790790003,6.1098049757774255,1.0151623487472534,-2.8991878668414515
1708436228.1809123,-2.1420300006866455,-1.333248422746994,-2.525456968938009,6.109756219177999,1.0151787996292114,-2.8992086092578333
1708436228.1829386,-2.1420254707336426,-1.3332047176412125,-2.525440518056051,6.109800565033712,1.0151504278182983,-2.8992419878589075
1708436228.1849098,-2.1420185565948486,-1.3331717562726517,-2.525391165410177,6.109813558846273,1.0151658058166504,-2.8991757074939173
1708436228.1869278,-2.1420514583587646,-1.333228976731636,-2.525398556386129,6.109780776291647,1.0151255130767822,-2.899221960698263
1708436228.188902,-2.1420209407806396,-1.3332038682750245,-2.525431458150045,6.109767782479086,1.0151504278182983,-2.899193827305929
1708436228.1908882,-2.141984701156616,-1.3332203489593049,-2.525407616292135,6.109760629921713,1.0151374340057373,-2.8991850058185022
1708436228.1929035,-2.1420726776123047,-1.3332398247769852,-2.525428597127096,6.109788405686178,1.0151623487472534,-2.899172846470968
1708436228.1952097,-2.1420469284057617,-1.3331876409104844,-2.525449577962057,6.109763490944662,1.015129804611206,-2.899217669163839
1708436228.1969202,-2.1420094966888428,-1.3332289916327973,-2.525391165410177,6.109764802246847,1.0151255130767822,-2.8992345968829554
1708436228.19892,-2.142033338546753,-1.333187611108162,-2.525424067174093,6.109744417458334,1.015092372894287,-2.8991640249835413
1708436228.2009182,-2.1419928073883057,-1.3332613718560715,-2.525403086339132,6.109773504524984,1.015096664428711,-2.8991921583758753
1708436228.2029397,-2.142037868499756,-1.3332485419562836,-2.525440518056051,6.109763371735372,1.0151515007019043,-2.8992188612567347
1708436228.2048972,-2.1420140266418457,-1.3331803989461442,-2.525358263646261,6.109825360565939,1.0151307582855225,-2.8992345968829554
1708436228.2069178,-2.1420209407806396,-1.3332818460515519,-2.525437657033102,6.1097603915031335,1.0151220560073853,-2.899210039769308
1708436228.2089112,-2.142037868499756,-1.3332167130759736,-2.525416676198141,6.109764802246847,1.0150610208511353,-2.899268690739767
1708436228.2109234,-2.1420209407806396,-1.3331962537816544,-2.525369946156637,6.109719025879659,1.0150773525238037,-2.8991685549365442
1708436228.2129393,-2.1420254707336426,-1.3332167130759736,-2.525391165410177,6.109763490944662,1.0151054859161377,-2.8991521040545862
1708436228.2149,-2.1420514583587646,-1.3332451593926926,-2.525367085133688,6.109845387726583,1.0151054859161377,-2.899205509816305
1708436228.2169049,-2.1420140266418457,-1.3332408529571076,-2.525403086339132,6.109813558846273,1.0150610208511353,-2.899177376423971
1708436228.218912,-2.1420094966888428,-1.3333024990609665,-2.5253716150866907,6.109727847367086,1.0150978565216064,-2.899172846470968
1708436228.2208998,-2.1420254707336426,-1.3332407933524628,-2.5254138151751917,6.109792697220602,1.0150654315948486,-2.899184767399923
1708436228.2228904,-2.1420254707336426,-1.333183379178383,-2.525353495274679,6.109796988755026,1.0151110887527466,-2.8991861979113978
1708436228.2249174,-2.1420388221740723,-1.333228961830475,-2.525400225316183,6.109783994942465,1.015086054801941,-2.899189297352926
1708436228.2268863,-2.1420185565948486,-1.3332161021283646,-2.5253880659686487,6.109785067826071,1.015053153038025,-2.899177376423971
1708436228.228975,-2.1420094966888428,-1.333224595790245,-2.525391165410177,6.109776484757223,1.0150903463363647,-2.899226490651266
1708436228.2309098,-2.142042398452759,-1.333200530414917,-2.525404755269186,6.1097320196922205,1.0150654315948486,-2.8991194407092493
1708436228.2329135,-2.1420094966888428,-1.3331599098495026,-2.525416676198141,6.109764802246847,1.015053153038025,-2.8991416136371058
1708436228.2348974,-2.142054796218872,-1.3332209301045914,-2.525367085133688,6.109796988755026,1.0150903463363647,-2.899181906376974
1708436228.2368968,-2.1420209407806396,-1.3332246404937287,-2.525383536015646,6.109757292061605,1.015053153038025,-2.8991861979113978
1708436228.238898,-2.1419970989227295,-1.3332451593926926,-2.5253430048571985,6.109715688019552,1.0150498151779175,-2.899140183125631
1708436228.240887,-2.1420209407806396,-1.3332167279771348,-2.5253716150866907,6.109744417458334,1.0150619745254517,-2.899181906376974
1708436228.2429013,-2.1419758796691895,-1.3331962835839768,-2.525334183369772,6.109735595970907,1.0150662660598755,-2.899149004613058
1708436228.2449162,-2.1420209407806396,-1.3332167279771348,-2.525400225316183,6.109809267311849,1.0150619745254517,-2.899140183125631
1708436228.2468975,-2.1420164108276367,-1.3332047027400513,-2.5253761450396937,6.109752881317892,1.0150575637817383,-2.899128262196676
1708436228.2489324,-2.1420300006866455,-1.3332124215415497,-2.525324885045187,6.109744298249044,1.015049695968628,-2.899169985448019
1708436228.2508872,-2.142050266265869,-1.3332289916327973,-2.5253925959216517,6.1098012802894495,1.0150247812271118,-2.899144713078634
1708436228.252911,-2.142033338546753,-1.3331684631160279,-2.5254016558276575,6.109760510712423,1.015033483505249,-2.899169985448019
1708436228.254889,-2.1420209407806396,-1.3331919473460694,-2.525308434163229,6.1097320196922205,1.0150082111358643,-2.899111811314718
1708436228.2569911,-2.1420469284057617,-1.3332005006125947,-2.5253012816058558,6.109829771309652,1.0150126218795776,-2.8991251627551478
1708436228.258936,-2.1420228481292725,-1.3331996214440842,-2.5253549257861536,6.109776484757223,1.015033483505249,-2.8991172949420374
1708436228.2609096,-2.1420388221740723,-1.3331803989461442,-2.5253971258746546,6.109756219177999,1.0150628089904785,-2.8991416136371058
1708436228.2629035,-2.1420185565948486,-1.3332698208144684,-2.5253265539752405,6.109792697220602,1.0150213241577148,-2.8991416136371058
1708436228.2649412,-2.1420094966888428,-1.3331804138473053,-2.5253806749926966,6.1097320196922205,1.015033483505249,-2.8991342226611536
1708436228.2668948,-2.1419928073883057,-1.3332289469293137,-2.5253101030932825,6.109751808434286,1.0150082111358643,-2.8991580645190638
1708436228.2688992,-2.1419713497161865,-1.333168388610222,-2.5253594557391565,6.109805691033163,1.015005111694336,-2.899169985448019
1708436228.2708905,-2.1420300006866455,-1.3332089346698304,-2.5253716150866907,6.109770285874166,1.0150378942489624,-2.899094883595602
1708436228.272904,-2.1419553756713867,-1.3332005155137558,-2.5253549257861536,6.1098012802894495,1.0150378942489624,-2.8991461435901087
1708436228.2748945,-2.1420016288757324,-1.333208130007126,-2.5253384749041956,6.109780657082357,1.0150213241577148,-2.899144713078634
1708436228.2769327,-2.1420094966888428,-1.333200530414917,-2.5253685156451624,6.109743344574728,1.0149964094161987,-2.899153534566061
1708436228.2789087,-2.1420094966888428,-1.3332578104785462,-2.5253520647632044,6.109764802246847,1.0149844884872437,-2.8991861979113978
1708436228.2809002,-2.142042398452759,-1.3332251918366929,-2.525334183369772,6.109818446427145,1.0149600505828857,-2.899099413548605
1708436228.2828968,-2.1420254707336426,-1.3332407635501404,-2.5253055731402796,6.109748589783468,1.0149725675582886,-2.8991342226611536
1708436228.2848961,-2.1419928073883057,-1.3332089495709916,-2.5253265539752405,6.109761583596029,1.0149600505828857,-2.8991416136371058
1708436228.2869358,-2.1420557498931885,-1.3331876707128067,-2.5253430048571985,6.109780657082357,1.0150007009506226,-2.8991416136371058
1708436228.2889078,-2.141993522644043,-1.333220900302269,-2.5252979437457483,6.109749424248495,1.0150213241577148,-2.8991037050830286
1708436228.290891,-2.1419928073883057,-1.3332527738860627,-2.5253384749041956,6.109723436623373,1.0149643421173096,-2.8991671244250696
1708436228.292924,-2.1420094966888428,-1.3332374107888718,-2.5253520647632044,6.109691965370931,1.0150094032287598,-2.8991099039660853
1708436228.2949002,-2.1419970989227295,-1.3332451295903702,-2.5253430048571985,6.109841692238607,1.0149900913238525,-2.8991461435901087
1708436228.2968876,-2.1420342922210693,-1.3331919324449082,-2.5253220240222376,6.1097158072288416,1.015018105506897,-2.8991506735431116
1708436228.2988944,-2.1420209407806396,-1.3332124513438721,-2.5253265539752405,6.109752881317892,1.014955759048462,-2.8990607897387903
1708436228.3009295,-2.1420388221740723,-1.333208130007126,-2.5253897348987024,6.109711515694418,1.0149974822998047,-2.8991082350360315
1708436228.3028793,-2.1420094966888428,-1.3331760478070755,-2.5253430048571985,6.109809863358297,1.0149855613708496,-2.8991459051715296
1708436228.3049672,-2.1419758796691895,-1.3331919622472306,-2.5253024736987513,6.109716760903158,1.0149931907653809,-2.8991053740130823
1708436228.3069415,-2.1420342922210693,-1.3332167577794571,-2.5253594557391565,6.1097320196922205,1.015005111694336,-2.8991099039660853
1708436228.3089414,-2.1420254707336426,-1.3332005006125947,-2.5253310839282435,6.109715211182394,1.0149812698364258,-2.8991082350360315
1708436228.3108883,-2.1419758796691895,-1.333176077609398,-2.5253594557391565,6.109749305039205,1.0149812698364258,-2.899126116429464
1708436228.3128905,-2.1420094966888428,-1.3331760329059144,-2.5253594557391565,6.109752881317892,1.0149943828582764,-2.8990934530841272
1708436228.314932,-2.1420209407806396,-1.333200530414917,-2.5253639856921595,6.109757292061605,1.0149855613708496,-2.8990770022021692
1708436228.3168824,-2.1420300006866455,-1.3331685078195115,-2.5253220240222376,6.10976921299056,1.0149812698364258,-2.8990917841540735
1708436228.3188906,-2.1419758796691895,-1.3332133007100602,-2.5252862612353724,6.109715211182394,1.0150017738342285,-2.8990607897387903
1708436228.3208902,-2.142054796218872,-1.333188847904541,-2.5253310839282435,6.109749305039205,1.0150343179702759,-2.8990727106677454
1708436228.3228927,-2.1420557498931885,-1.3331919026425858,-2.5253925959216517,6.109740721970358,1.0149731636047363,-2.899086062108175
1708436228.3248782,-2.1419928073883057,-1.3332416874221344,-2.5253639856921595,6.1097168801124475,1.0149681568145752,-2.899065081273214
1708436228.326885,-2.1420300006866455,-1.3332005602172394,-2.5253475348102015,6.109728801041403,1.014976978302002,-2.899069611226217
1708436228.3289037,-2.1420209407806396,-1.3331685078195115,-2.5253265539752405,6.109758126526632,1.0149931907653809,-2.8990891615497034
1708436228.3309035,-2.141996145248413,-1.333213360314705,-2.5253806749926966,6.109770881920614,1.014976978302002,-2.899130646382467
1708436228.332901,-2.1420514583587646,-1.3331561398557206,-2.5253475348102015,6.1097320196922205,1.0149855613708496,-2.899109665547506
1708436228.3349106,-2.1420469284057617,-1.3331153851798554,-2.5253594557391565,6.109696376114645,1.0149943828582764,-2.899069611226217
1708436228.3368924,-2.1420094966888428,-1.3331726652434845,-2.5253146330462855,6.10967110374526,1.0150017738342285,-2.899048630391256
1708436228.33893,-2.1420254707336426,-1.333200530414917,-2.5253430048571985,6.109742986946859,1.0149900913238525,-2.8990605513202112
1708436228.3409119,-2.1419880390167236,-1.333220900302269,-2.5253310839282435,6.109741794853964,1.0149643421173096,-2.8990443388568323
1708436228.342896,-2.1420140266418457,-1.333245189195015,-2.5253430048571985,6.1097004292304895,1.0149686336517334,-2.89907414117922
1708436228.3449028,-2.1420254707336426,-1.3331919324449082,-2.5253401438342493,6.109679329186239,1.0150017738342285,-2.899102274571554
1708436228.3468778,-2.1419713497161865,-1.333168478017189,-2.5253236929522913,6.109692799835958,1.0150179862976074,-2.89907414117922
1708436228.3489194,-2.1419970989227295,-1.333200604920723,-2.5253503958331507,6.1097004292304895,1.0149725675582886,-2.899029318486349
1708436228.3508863,-2.1420140266418457,-1.3331519228271027,-2.5253594557391565,6.109688269882955,1.0149855613708496,-2.8990159670459192
1708436228.3529482,-2.1420254707336426,-1.3331931096366425,-2.5253520647632044,6.109660017281332,1.0149438381195068,-2.899062220250265
1708436228.3549044,-2.1420228481292725,-1.3331561547568818,-2.5253430048571985,6.109660017281332,1.0149686336517334,-2.899045769368307
1708436228.356925,-2.142042398452759,-1.3331477505019684,-2.5253430048571985,6.109676348954,1.0149686336517334,-2.8991039435016077
1708436228.3589363,-2.1420140266418457,-1.333159939651825,-2.5253475348102015,6.109648334770956,1.0149900913238525,-2.899081532155172
1708436228.360968,-2.1420254707336426,-1.333200530414917,-2.5253265539752405,6.109640705376425,1.0149600505828857,-2.899020496998922
1708436228.363,-2.1420254707336426,-1.3331598949483414,-2.5253594557391565,6.109620201378622,1.0150268077850342,-2.899071280156271
1708436228.364923,-2.1419644355773926,-1.333200530414917,-2.5253594557391565,6.109579193383016,1.014955759048462,-2.89905029932131
1708436228.3669326,-2.1420300006866455,-1.3332089942744751,-2.5253220240222376,6.109629976540365,1.0149931907653809,-2.899057690297262
1708436228.36891,-2.1420254707336426,-1.3331684482148667,-2.5253310839282435,6.109646665840902,1.0149974822998047,-2.899025026951925
1708436228.3709028,-2.1420469284057617,-1.3332005453160782,-2.5253730455981653,6.109609353333273,1.0149931907653809,-2.89907414117922
1708436228.3729248,-2.1420183181762695,-1.3331684631160279,-2.5253191629992884,6.109592783242025,1.0149974822998047,-2.8990123907672327
1708436228.3748856,-2.1420726776123047,-1.3332005602172394,-2.5253897348987024,6.109576570778646,1.0149812698364258,-2.899057690297262
1708436228.3768952,-2.1420514583587646,-1.3331561398557206,-2.5253294149981897,6.109526741295614,1.0149612426757812,-2.8990169207202356
1708436228.3789032,-2.1420140266418457,-1.3331812632134934,-2.5253685156451624,6.1095430729682825,1.0149812698364258,-2.899045769368307
1708436228.3809283,-2.1420342922210693,-1.3332289916327973,-2.5253430048571985,6.109576570778646,1.0150179862976074,-2.899045769368307
1708436228.3828964,-2.1419880390167236,-1.3332175475410004,-2.5253220240222376,6.109594332962789,1.0149974822998047,-2.899033848439352
1708436228.384909,-2.1419970989227295,-1.3332246553948899,-2.5253685156451624,6.10954378822402,1.0149812698364258,-2.899061981831686
1708436228.3869035,-2.1420094966888428,-1.3331769120744248,-2.5253594557391565,6.10961805561141,1.0150094032287598,-2.899029318486349
1708436228.3889031,-2.1419928073883057,-1.333208979373314,-2.5253971258746546,6.109549271851339,1.0150017738342285,-2.8990169207202356
1708436228.3908968,-2.1419758796691895,-1.3332373660853882,-2.5253236929522913,6.109552132874288,1.0150136947631836,-2.899071280156271
1708436228.392938,-2.1420254707336426,-1.3332047176412125,-2.5253894964801233,6.109591233521261,1.0149844884872437,-2.899041239415304
1708436228.3949127,-2.1420185565948486,-1.3331726056388398,-2.5253401438342493,6.109549271851339,1.0149974822998047,-2.8990665117846888
1708436228.396939,-2.1420094966888428,-1.3331888181022187,-2.5253174940692347,6.109549271851339,1.0150017738342285,-2.899045769368307
1708436228.3989477,-2.1420140266418457,-1.333151937728264,-2.5253639856921595,6.109544861107626,1.0150299072265625,-2.8989997545825403
1708436228.4009368,-2.1420342922210693,-1.3331476759961625,-2.5253220240222376,6.109598386078634,1.0150179862976074,-2.8989954630481165
1708436228.4029396,-2.1420342922210693,-1.3331357550672074,-2.5254135767566126,6.109544980316915,1.014939546585083,-2.899029318486349
1708436228.4049103,-2.1420094966888428,-1.3331888330033799,-2.5253384749041956,6.109561192780294,1.0150063037872314,-2.8990045229541224
1708436228.4069192,-2.1420061588287354,-1.333176926975586,-2.5254016558276575,6.109541880875387,1.0149725675582886,-2.899054829274313
1708436228.40891,-2.1420342922210693,-1.333200530414917,-2.5253265539752405,6.109582054405966,1.0149931907653809,-2.899054829274313
1708436228.4108946,-2.142059326171875,-1.3331685078195115,-2.525367085133688,6.109582054405966,1.014988899230957,-2.8989997545825403
1708436228.4129145,-2.1420273780822754,-1.3331804138473053,-2.5253356138812464,6.109556782036581,1.0150136947631836,-2.899078432713644
1708436228.4149125,-2.1420300006866455,-1.3331847053817292,-2.5253549257861536,6.109565722733297,1.0149812698364258,-2.8990593592273157
1708436228.4169567,-2.142043113708496,-1.3331846457770844,-2.5253265539752405,6.109512793808737,1.0150387287139893,-2.899041239415304
1708436228.418918,-2.1420645713806152,-1.3331647676280518,-2.5253565947162073,6.109577762871542,1.0150136947631836,-2.899045769368307
1708436228.4208872,-2.1420228481292725,-1.3332081151059647,-2.5253310839282435,6.1095290062721155,1.0149855613708496,-2.8990169207202356
1708436228.4229102,-2.142010450363159,-1.3332332086614151,-2.5253761450396937,6.109512793808737,1.0150387287139893,-2.89905029932131
1708436228.424913,-2.142037868499756,-1.3331604164889832,-2.5253384749041956,6.1095290062721155,1.0149887800216675,-2.8990123907672327
1708436228.4269178,-2.1420061588287354,-1.3331442040256043,-2.5253806749926966,6.109606849938192,1.0150343179702759,-2.8990593592273157
1708436228.4289284,-2.141944169998169,-1.3331931096366425,-2.5253685156451624,6.10951708534316,1.0150256156921387,-2.899038378392355
1708436228.4308844,-2.1419601440429688,-1.333188847904541,-2.5252800623523157,6.10951708534316,1.0150378942489624,-2.8990519682513636
1708436228.4328938,-2.1420016288757324,-1.3331726652434845,-2.5253761450396937,6.109537589340963,1.0150256156921387,-2.8989790121661585
1708436228.4348993,-2.1419668197631836,-1.333213360314705,-2.5253594557391565,6.1095290062721155,1.0150063037872314,-2.8990214506732386
1708436228.4373355,-2.1419804096221924,-1.3331726652434845,-2.5253549257861536,6.109508383065023,1.0150213241577148,-2.8990169207202356
1708436228.438901,-2.141948699951172,-1.3332081002048035,-2.5253384749041956,6.109497296601095,1.0150136947631836,-2.899054829274313
1708436228.4408903,-2.1420140266418457,-1.3332089495709916,-2.5253430048571985,6.109574067383566,1.0150541067123413,-2.899054829274313
1708436228.4429293,-2.1420140266418457,-1.3331647676280518,-2.5253503958331507,6.1095290062721155,1.0149931907653809,-2.899043146763937
1708436228.444927,-2.1420273780822754,-1.333180458550789,-2.5253384749041956,6.109557854920187,1.0149812698364258,-2.899033848439352
1708436228.4469357,-2.1420388221740723,-1.3331153851798554,-2.5253716150866907,6.109582054405966,1.0150169134140015,-2.8990090529071253
1708436228.4489124,-2.141984701156616,-1.3331931096366425,-2.5253594557391565,6.109556782036581,1.0150169134140015,-2.8990259806262415
1708436228.4508936,-2.1419970989227295,-1.3331812632134934,-2.5253384749041956,6.109504806786337,1.0150378942489624,-2.899041239415304
1708436228.4529152,-2.1420209407806396,-1.3331280660680314,-2.5253639856921595,6.109582054405966,1.014988899230957,-2.8990874926196497
1708436228.4549108,-2.1420016288757324,-1.333193139438965,-2.525383536015646,6.109549271851339,1.0150299072265625,-2.8990259806262415
1708436228.456948,-2.1420016288757324,-1.3331604313901444,-2.5253761450396937,6.109496223717489,1.015030026435852,-2.899038378392355
1708436228.458983,-2.1420228481292725,-1.3331685078195115,-2.5253761450396937,6.109557854920187,1.0150343179702759,-2.899043146763937
1708436228.460951,-2.1420140266418457,-1.333200530414917,-2.5253458658801478,6.109525668412008,1.015049695968628,-2.8990169207202356
1708436228.462927,-2.1419804096221924,-1.3332175326398392,-2.5253639856921595,6.109569775849142,1.0150213241577148,-2.8990045229541224
1708436228.4648972,-2.1419689655303955,-1.3332133454135437,-2.5253430048571985,6.109549271851339,1.0150213241577148,-2.899029318486349
1708436228.4669065,-2.1419758796691895,-1.3332047176412125,-2.5253503958331507,6.109557854920187,1.015033483505249,-2.89900786081423
1708436228.4688993,-2.1420185565948486,-1.3332017076066514,-2.5252934137927454,6.109569775849142,1.0149931907653809,-2.899054829274313
1708436228.4708874,-2.1419758796691895,-1.3331846457770844,-2.5253761450396937,6.109512793808737,1.0150291919708252,-2.899057690297262
1708436228.472894,-2.1419804096221924,-1.3331357699683686,-2.5253594557391565,6.109561192780294,1.015033483505249,-2.899045769368307
1708436228.474893,-2.141989231109619,-1.3331812781146546,-2.5253310839282435,6.109561192780294,1.015049695968628,-2.899043146763937
1708436228.4769151,-2.1419804096221924,-1.333160401587822,-2.5253880659686487,6.109565484314718,1.015049695968628,-2.8990123907672327
1708436228.4789188,-2.1420140266418457,-1.3332124662450333,-2.5253430048571985,6.1095290062721155,1.0150291919708252,-2.899041239415304
1708436228.480931,-2.141989231109619,-1.33319744587455,-2.5253549257861536,6.109544980316915,1.0150247812271118,-2.899057690297262
1708436228.4829323,-2.141989231109619,-1.3331726652434845,-2.5253639856921595,6.109606849938192,1.0150378942489624,-2.899033848439352
1708436228.484894,-2.1419689655303955,-1.333200530414917,-2.5253925959216517,6.1095290062721155,1.015045404434204,-2.8990474382983606
1708436228.4872036,-2.1420300006866455,-1.3331962686828156,-2.5253806749926966,6.109488475113668,1.0150291919708252,-2.899045769368307
1708436228.48889,-2.1419804096221924,-1.3332167130759736,-2.5253971258746546,6.109504806786337,1.0150082111358643,-2.899045769368307
1708436228.490898,-2.1420185565948486,-1.3331931245378037,-2.5253594557391565,6.109569775849142,1.0150126218795776,-2.8989790121661585
1708436228.492902,-2.1420388221740723,-1.3331931096366425,-2.5253639856921595,6.109533297806539,1.0150697231292725,-2.899033848439352
1708436228.4948947,-2.1420228481292725,-1.333156169658043,-2.5253594557391565,6.109566557198324,1.0150291919708252,-2.899062220250265
1708436228.4969034,-2.141984701156616,-1.3331897866776963,-2.5253594557391565,6.109569656639852,1.015045404434204,-2.8990166823016565
1708436228.4988942,-2.1419689655303955,-1.333193139438965,-2.5253594557391565,6.109578478127279,1.015033483505249,-2.899043146763937
1708436228.5008814,-2.141984701156616,-1.3331768971732636,-2.5254138151751917,6.109537589340963,1.0150378942489624,-2.899038616810934
1708436228.5030396,-2.1419928073883057,-1.33319744587455,-2.5253761450396937,6.109549271851339,1.0150785446166992,-2.899045769368307
1708436228.5048795,-2.1419804096221924,-1.3331846606782456,-2.5253503958331507,6.109521376877584,1.0150785446166992,-2.899024788533346
1708436228.5068977,-2.1420273780822754,-1.3331647527268906,-2.525400225316183,6.109504806786337,1.0150082111358643,-2.899038378392355
1708436228.5089207,-2.141984701156616,-1.3331812483123322,-2.525362555180685,6.109557735710897,1.0150365829467773,-2.89903694788088
1708436228.5109265,-2.141935110092163,-1.3332089495709916,-2.5253852049456995,6.109557854920187,1.0150409936904907,-2.89905029932131
1708436228.5129209,-2.1419837474823,-1.333200530414917,-2.5253716150866907,6.109544861107626,1.0150203704833984,-2.899041239415304
1708436228.5148778,-2.1420016288757324,-1.3331855249455948,-2.5254138151751917,6.109472262650289,1.0150903463363647,-2.899038378392355
1708436228.5168931,-2.1420388221740723,-1.333208979373314,-2.5254135767566126,6.109590637474813,1.0150291919708252,-2.8989997545825403
1708436228.518924,-2.141989231109619,-1.333200530414917,-2.5253594557391565,6.10951720455245,1.0150947570800781,-2.8989833037005823
1708436228.5209334,-2.141948699951172,-1.3331685078195115,-2.525362555180685,6.1095462916191,1.0150697231292725,-2.899082962666647
1708436228.5229278,-2.1419732570648193,-1.333200530414917,-2.5253594557391565,6.109541880875387,1.0150697231292725,-2.8990476767169397
1708436228.5249,-2.1420140266418457,-1.33319744587455,-2.52539569536318,6.109565484314718,1.0150785446166992,-2.899029318486349
1708436228.5269148,-2.141984701156616,-1.333169014458992,-2.5253716150866907,6.109569656639852,1.015053153038025,-2.899059597645895
1708436228.5289264,-2.141944169998169,-1.3331931096366425,-2.525341335927145,6.109566557198324,1.0150935649871826,-2.899033848439352
1708436228.5308983,-2.1420185565948486,-1.3331358295730134,-2.525421206151144,6.109537589340963,1.0150859355926514,-2.899029318486349
1708436228.5329144,-2.141982316970825,-1.3331812632134934,-2.5253685156451624,6.1095622656639,1.015052318572998,-2.899071280156271
1708436228.534894,-2.142043113708496,-1.3332167130759736,-2.5254092852221888,6.109541880875387,1.0150978565216064,-2.8990803400622767
1708436228.536907,-2.1419529914855957,-1.3331930947354813,-2.52537447610964,6.109537589340963,1.0150654315948486,-2.899062220250265
1708436228.5388906,-2.14200496673584,-1.3331238192370911,-2.5253458658801478,6.109549271851339,1.0151065587997437,-2.8989716211902063
1708436228.540891,-2.1420185565948486,-1.333176926975586,-2.525358263646261,6.109484302788534,1.0151022672653198,-2.899045769368307
1708436228.5428996,-2.1419777870178223,-1.333200530414917,-2.525404755269186,6.109533297806539,1.0150654315948486,-2.899038378392355
1708436228.544876,-2.141989231109619,-1.3331962686828156,-2.5253852049456995,6.109508383065023,1.0150654315948486,-2.8990638891803187
1708436228.5469482,-2.1419758796691895,-1.3331238639405747,-2.5253503958331507,6.109541880875387,1.0150859355926514,-2.8990214506732386
1708436228.5489125,-2.1420016288757324,-1.3331726652434845,-2.5253761450396937,6.1095462916191,1.0150978565216064,-2.8990758101092737
1708436228.5508912,-2.142019271850586,-1.333225132232048,-2.5253549257861536,6.1094679711158655,1.0150730609893799,-2.8989997545825403
1708436228.5529141,-2.141989231109619,-1.3331647676280518,-2.525404755269186,6.1095090983207605,1.015053153038025,-2.89905029932131
1708436228.5549483,-2.1420016288757324,-1.3331685078195115,-2.5253880659686487,6.10954641082839,1.0150859355926514,-2.8990214506732386
1708436228.5569406,-2.1420273780822754,-1.33316424608741,-2.5253971258746546,6.109544980316915,1.0151184797286987,-2.8990123907672327
1708436228.5590062,-2.1419970989227295,-1.3332089495709916,-2.52539569536318,6.1095982668693445,1.0150729417800903,-2.899024788533346
1708436228.5609577,-2.1419970989227295,-1.333200530414917,-2.5253880659686487,6.109553444176473,1.0151307582855225,-2.8990259806262415
1708436228.5629537,-2.1420228481292725,-1.333169014458992,-2.5254092852221888,6.109492766648092,1.0150654315948486,-2.899033848439352
1708436228.5649226,-2.1419758796691895,-1.3332261455110093,-2.5253339449511927,6.109500515251913,1.0151054859161377,-2.8990305105792444
1708436228.5669103,-2.1419880390167236,-1.333156169658043,-2.5253458658801478,6.109533417015829,1.015114188194275,-2.8990169207202356
1708436228.5689578,-2.1420185565948486,-1.3331442487290879,-2.5253503958331507,6.109540569573202,1.0151022672653198,-2.899043146763937
1708436228.5708826,-2.1420273780822754,-1.3331804287484665,-2.5253549257861536,6.109541880875387,1.0151054859161377,-2.8990324179278772
1708436228.5729017,-2.1420185565948486,-1.3331962686828156,-2.5253458658801478,6.109595167427816,1.0150730609893799,-2.899054829274313
1708436228.5748966,-2.141989231109619,-1.3332047027400513,-2.5253852049456995,6.109533417015829,1.0151054859161377,-2.8990214506732386
1708436228.5768802,-2.1420185565948486,-1.3331647676280518,-2.5253880659686487,6.109557854920187,1.015114188194275,-2.8990214506732386
1708436228.5789187,-2.1419777870178223,-1.3331726801446457,-2.5253458658801478,6.109561192780294,1.0151022672653198,-2.899045769368307
1708436228.5808842,-2.1420254707336426,-1.3331519973329087,-2.5253716150866907,6.109565484314718,1.0150903463363647,-2.8989952246295374
1708436228.582899,-2.141935110092163,-1.3331642758897324,-2.5253549257861536,6.109606849938192,1.0151065587997437,-2.899059597645895
1708436228.5849056,-2.1419689655303955,-1.333188847904541,-2.5253806749926966,6.109544861107626,1.0150816440582275,-2.899059597645895
1708436228.5868866,-2.1419804096221924,-1.3331642162850876,-2.5253594557391565,6.109561192780294,1.0150654315948486,-2.8990123907672327
1708436228.58892,-2.1420094966888428,-1.3331604313901444,-2.52537447610964,6.109586345940389,1.0150935649871826,-2.899045769368307
1708436228.5908804,-2.1420342922210693,-1.3332046878388901,-2.525325123463766,6.109569656639852,1.0151097774505615,-2.89905029932131
1708436228.592896,-2.1420228481292725,-1.333176926975586,-2.525425736104147,6.109565484314718,1.0151097774505615,-2.8989790121661585
1708436228.594916,-2.142014980316162,-1.3331358295730134,-2.5253549257861536,6.1096229431922815,1.0151264667510986,-2.899043146763937
1708436228.5968852,-2.142014980316162,-1.3331442785314103,-2.525400225316183,6.109556782036581,1.0150935649871826,-2.899043146763937
1708436228.598913,-2.1420016288757324,-1.333200530414917,-2.5253716150866907,6.109491932183065,1.015126347541809,-2.899062220250265
1708436228.600899,-2.1419758796691895,-1.33319744587455,-2.52537447610964,6.109569775849142,1.0151021480560303,-2.8990045229541224
1708436228.602902,-2.1420388221740723,-1.3331854951432724,-2.525358025227682,6.109544980316915,1.0151097774505615,-2.8990135828601282
1708436228.6049027,-2.1420342922210693,-1.33319744587455,-2.5253639856921595,6.109613764076986,1.0151140689849854,-2.8990758101092737
1708436228.6069095,-2.1420185565948486,-1.333200530414917,-2.5253384749041956,6.109564649849691,1.0150892734527588,-2.8989926020251673
1708436228.6089432,-2.141989231109619,-1.3331604462913056,-2.5253549257861536,6.109512674599447,1.0151054859161377,-2.899033848439352
1708436228.610899,-2.141993761062622,-1.333188847904541,-2.5253430048571985,6.109627353935995,1.0150730609893799,-2.8989880720721644
1708436228.6129193,-2.141984701156616,-1.3331726652434845,-2.525437657033102,6.109537589340963,1.0150935649871826,-2.899033848439352
1708436228.6149402,-2.1420061588287354,-1.3332046878388901,-2.525412146245138,6.109520303993978,1.0151140689849854,-2.899043146763937
1708436228.6168923,-2.1420228481292725,-1.333184690480568,-2.525341335927145,6.1095690605934045,1.0151054859161377,-2.8990045229541224
1708436228.618908,-2.1420061588287354,-1.3331519973329087,-2.5253549257861536,6.109622347145834,1.0150773525238037,-2.899025026951925
1708436228.6208887,-2.1419732570648193,-1.333200530414917,-2.525367085133688,6.109605777054586,1.0151054859161377,-2.899054829274313
1708436228.6228883,-2.1420061588287354,-1.333156169658043,-2.5253971258746546,6.109536278038778,1.0150935649871826,-2.8990123907672327
1708436228.624904,-2.1419689655303955,-1.3332294684699555,-2.5253458658801478,6.109562623291769,1.0151097774505615,-2.8989997545825403
1708436228.6268866,-2.1420228481292725,-1.3331519973329087,-2.5253503958331507,6.109561192780294,1.0150935649871826,-2.8989952246295374
1708436228.6289108,-2.141993761062622,-1.3331718754819413,-2.525425736104147,6.109544980316915,1.0151097774505615,-2.899087731038229
1708436228.630892,-2.1420388221740723,-1.333176926975586,-2.5253880659686487,6.109565484314718,1.0151184797286987,-2.8989952246295374
1708436228.6329088,-2.1420016288757324,-1.3331846755794068,-2.525391165410177,6.1095361588294885,1.0151054859161377,-2.8990665117846888
1708436228.6349273,-2.1420016288757324,-1.3332089495709916,-2.5253549257861536,6.109593975334921,1.0150892734527588,-2.8990684191333216
1708436228.636904,-2.1419644355773926,-1.3332133007100602,-2.525412146245138,6.109573352127828,1.0151066780090332,-2.899024788533346
1708436228.6389544,-2.1420061588287354,-1.3331685078195115,-2.5253503958331507,6.10953568199233,1.0151054859161377,-2.8990045229541224
1708436228.64091,-2.1420016288757324,-1.3331930947354813,-2.525425736104147,6.109622347145834,1.015109896659851,-2.89899713197817
1708436228.6428876,-2.1420061588287354,-1.3332251024297257,-2.52539569536318,6.109540569573202,1.0150935649871826,-2.898968760167257
1708436228.6449041,-2.1420228481292725,-1.3331604313901444,-2.525400225316183,6.109618294029989,1.0150935649871826,-2.8989325205432337
1708436228.6468863,-2.1419970989227295,-1.3331685227206727,-2.525407616292135,6.10958098152236,1.015130639076233,-2.898970429097311
1708436228.6489358,-2.1420061588287354,-1.3332047027400513,-2.525383536015646,6.109630334168234,1.0151220560073853,-2.8988760153399866
1708436228.6509118,-2.1419689655303955,-1.333188847904541,-2.5253716150866907,6.109592783242025,1.0150611400604248,-2.8988669554339808
1708436228.6528966,-2.1420016288757324,-1.3332132560065766,-2.5254092852221888,6.1096675274665735,1.015126347541809,-2.8988447825061243
1708436228.6549203,-2.1419758796691895,-1.3332167130759736,-2.5253880659686487,6.109638678818502,1.0150848627090454,-2.8988173643695276
1708436228.6569135,-2.1419804096221924,-1.333176926975586,-2.525383536015646,6.109646665840902,1.0151097774505615,-2.8987696806537073
1708436228.6590137,-2.1420016288757324,-1.3332017076066514,-2.525391165410177,6.109555351525106,1.0151054859161377,-2.898733441029684
1708436228.660959,-2.1419970989227295,-1.3331804287484665,-2.525416676198141,6.109576213150778,1.0151176452636719,-2.898705069218771
1708436228.662919,-2.141984701156616,-1.33316424608741,-2.525400225316183,6.109650480538168,1.015096664428711,-2.898644510899679
1708436228.6649277,-2.141993761062622,-1.3331812632134934,-2.525362555180685,6.109622347145834,1.0151132345199585,-2.89866549173464
1708436228.6669002,-2.1420273780822754,-1.3332578104785462,-2.525341335927145,6.10954378822402,1.0151176452636719,-2.8985469977008265
1708436228.668894,-2.141989231109619,-1.333169014458992,-2.525386635457174,6.109600412636556,1.0151386260986328,-2.898569647465841
1708436228.6709006,-2.142010450363159,-1.333176926975586,-2.525400225316183,6.109637605934896,1.0151132345199585,-2.898553196583883
1708436228.672899,-2.142010450363159,-1.3331846755794068,-2.52537447610964,6.109719621926107,1.0151010751724243,-2.8984647432910364
1708436228.6749072,-2.1420273780822754,-1.333225132232048,-2.525379006062643,6.1097062704856775,1.0151176452636719,-2.8984201590167444
1708436228.6769056,-2.1420228481292725,-1.3331846755794068,-2.525383536015646,6.109693872719564,1.0150935649871826,-2.8983338514911097
1708436228.678916,-2.1419928073883057,-1.333176926975586,-2.525362555180685,6.109679806023397,1.0151622295379639,-2.8983402887927454
1708436228.680891,-2.1420016288757324,-1.3331804287484665,-2.5253880659686487,6.10968695858077,1.0151220560073853,-2.8983009497271937
1708436228.6829019,-2.1419777870178223,-1.3332124513438721,-2.525404755269186,6.109773862152853,1.015096664428711,-2.898191515599386
1708436228.6849153,-2.1420061588287354,-1.3332331788590928,-2.525367085133688,6.109757411270895,1.0151176452636719,-2.898184363042013
1708436228.686916,-2.1420185565948486,-1.3332047027400513,-2.525379006062643,6.1097168801124475,1.0151255130767822,-2.8980911413775843
1708436228.6889071,-2.1419804096221924,-1.3331280660680314,-2.525400225316183,6.109692084580221,1.015129804611206,-2.8980141321765345
1708436228.6909451,-2.1420228481292725,-1.3331931096366425,-2.525362555180685,6.109773862152853,1.0151255130767822,-2.8979502359973353
1708436228.6929662,-2.1420140266418457,-1.33319744587455,-2.5253925959216517,6.1097320196922205,1.015146017074585,-2.8979199568377894
1708436228.694913,-2.1420273780822754,-1.3331685078195115,-2.525379006062643,6.109724509506979,1.0151374340057373,-2.8978269735919397
1708436228.6969287,-2.1419732570648193,-1.333176926975586,-2.525412146245138,6.109751927643575,1.0151702165603638,-2.8977721373187464
1708436228.698919,-2.1420185565948486,-1.3331316274455567,-2.525428597127096,6.1097158072288416,1.015129804611206,-2.8976667563067835
1708436228.7008955,-2.142010450363159,-1.333188847904541,-2.52537447610964,6.109773504524984,1.0151536464691162,-2.897578303013937
1708436228.7029166,-2.1420061588287354,-1.333176926975586,-2.525348965321676,6.1098303673561,1.01515793800354,-2.8974536100970667
1708436228.7049115,-2.1419928073883057,-1.3331477505019684,-2.525412146245138,6.109789478569784,1.0151702165603638,-2.8974204699145716
1708436228.7068982,-2.1419804096221924,-1.333188847904541,-2.52537447610964,6.109792816429891,1.0151658058166504,-2.8972495237933558
1708436228.708919,-2.141982316970825,-1.3332294684699555,-2.525400225316183,6.1098049757774255,1.015144944190979,-2.897153679524557
1708436228.7108903,-2.142010450363159,-1.3331726652434845,-2.525362555180685,6.109829771309652,1.015190839767456,-2.8970378080951136
1708436228.7129235,-2.141989231109619,-1.3331931096366425,-2.525424067174093,6.109791624336996,1.015144944190979,-2.8968926111804407
1708436228.7149014,-2.1419970989227295,-1.333156169658043,-2.525391165410177,6.109758484154501,1.0152270793914795,-2.8967981974231165
1708436228.7169445,-2.1420273780822754,-1.333184690480568,-2.525421206151144,6.109825479775228,1.0151689052581787,-2.896641794835226
1708436228.7189064,-2.1420342922210693,-1.333176926975586,-2.525398556386129,6.109837400704183,1.0152270793914795,-2.896510187779562
1708436228.7208965,-2.1420016288757324,-1.3331238192370911,-2.525391165410177,6.109833943634786,1.0152183771133423,-2.8963492552386683
1708436228.7229233,-2.1420726776123047,-1.3331520420363923,-2.525435988103048,6.10977195480422,1.0152345895767212,-2.896205727254049
1708436228.7248955,-2.1420185565948486,-1.333176077609398,-2.525369946156637,6.109773862152853,1.0152463912963867,-2.8960211912738245
1708436228.7269423,-2.1420273780822754,-1.3332208406976243,-2.52537447610964,6.10975598075942,1.0151972770690918,-2.8958547751056116
1708436228.7289197,-2.1419804096221924,-1.3332089495709916,-2.5253940264331263,6.109796273499288,1.015254020690918,-2.895686690007345
1708436228.7308908,-2.1419713497161865,-1.3332124513438721,-2.525424067174093,6.109796154289999,1.015237808227539,-2.895468060170309
1708436228.7329,-2.1419663429260254,-1.3332047027400513,-2.5254059473620813,6.10981701591567,1.0152453184127808,-2.895257298146383
1708436228.7348964,-2.1419758796691895,-1.3332089495709916,-2.525424067174093,6.1098211882408044,1.0152946710586548,-2.8950563112842005
1708436228.7369392,-2.141989231109619,-1.3332047027400513,-2.5254648367511194,6.109796273499288,1.0152409076690674,-2.8948519865619105
1708436228.7388937,-2.1419970989227295,-1.3332294684699555,-2.5254932085620325,6.109796154289999,1.0152618885040283,-2.8946479002581995
1708436228.740879,-2.1420016288757324,-1.333225132232048,-2.5254433790790003,6.10984097698287,1.0152981281280518,-2.894433323537008
1708436228.7428908,-2.1419575214385986,-1.3331726652434845,-2.5254932085620325,6.10984097698287,1.0153143405914307,-2.894125525151388
1708436228.7448828,-2.1419689655303955,-1.333184690480568,-2.5254676977740687,6.109853970795431,1.015244483947754,-2.893927876149313
1708436228.7469015,-2.1419689655303955,-1.3332017076066514,-2.5255125204669397,6.109799015312948,1.0153262615203857,-2.8936217466937464
1708436228.748932,-2.1420273780822754,-1.3331477505019684,-2.5255726019488733,6.1098235724265955,1.015321969985962,-2.893388096486227
1708436228.750899,-2.1419970989227295,-1.333200530414917,-2.525548521672384,6.109799492150106,1.0153381824493408,-2.8930533568011683
1708436228.7529144,-2.1420140266418457,-1.3332332086614151,-2.5255394617663782,6.109845268517294,1.0153756141662598,-2.8927982489215296
1708436228.7548897,-2.1419880390167236,-1.3332332086614151,-2.5255561510669153,6.109783041268148,1.0153425931930542,-2.8924699465381067
1708436228.7569163,-2.1420388221740723,-1.333225132232048,-2.5255470911609095,6.1098365662391565,1.0153508186340332,-2.8921764532672327
1708436228.7590032,-2.142010450363159,-1.3331685078195115,-2.5255304018603724,6.109848487168112,1.0153626203536987,-2.8918901125537317
1708436228.7609138,-2.1419732570648193,-1.3332332086614151,-2.5255799929248255,6.109839784889974,1.0153249502182007,-2.891543213521139
1708436228.7629387,-2.1420061588287354,-1.3331477505019684,-2.5255709330188196,6.109827863961019,1.0153582096099854,-2.8911832014666956
1708436228.7648985,-2.1420016288757324,-1.3332373809865494,-2.5255964438067835,6.109848487168112,1.0154236555099487,-2.8908024469958704
1708436228.7669027,-2.141989231109619,-1.3331804287484665,-2.5255618731128138,6.109811293869772,1.0154017210006714,-2.89048940340151
1708436228.7689872,-2.1419777870178223,-1.333225132232048,-2.5255845228778284,6.10986493805007,1.0154017210006714,-2.890104118977682
1708436228.7709136,-2.141984701156616,-1.33316424608741,-2.525595013295309,6.109852897911825,1.0154104232788086,-2.8897526899920862
1708436228.7729244,-2.1420228481292725,-1.333176926975586,-2.5255873839007776,6.109802830010214,1.015474796295166,-2.889362160359518
1708436228.7748904,-2.1420319080352783,-1.3332081151059647,-2.525590483342306,6.109848487168112,1.0154542922973633,-2.888953987752096
1708436228.7769308,-2.141993761062622,-1.3332047027400513,-2.525611464177267,6.1098646996314905,1.015461802482605,-2.888494078313009
1708436228.7788954,-2.142014980316162,-1.3331962686828156,-2.5255873839007776,6.109869110375204,1.0155360698699951,-2.888127867375509
1708436228.7808793,-2.142002582550049,-1.333200530414917,-2.525595013295309,6.109848487168112,1.0154905319213867,-2.887691084538595
1708436228.7828822,-2.1420273780822754,-1.3332005453160782,-2.525606934224264,6.1098646996314905,1.015486240386963,-2.8872161547290247
1708436228.784883,-2.1419689655303955,-1.3331962686828156,-2.5256219545947474,6.1098517058189294,1.0155471563339233,-2.8867197672473353
1708436228.786881,-2.141949415206909,-1.3332167130759736,-2.525651995335714,6.109852778702535,1.0155460834503174,-2.8863006273852747
1708436228.788913,-2.141984701156616,-1.333233193760254,-2.52566105524172,6.109877812653341,1.0155746936798096,-2.885885779057638
1708436228.7908998,-2.1420061588287354,-1.3331995767406006,-2.5256503264056605,6.109798300057211,1.0155866146087646,-2.885385576878683
1708436228.792968,-2.1419689655303955,-1.3331962537816544,-2.5256758371936243,6.1098235724265955,1.0155898332595825,-2.8849149386035364
1708436228.7949295,-2.141986608505249,-1.3332332086614151,-2.5256667772876185,6.109860408097067,1.0156071186065674,-2.884483877812521
1708436228.7969427,-2.142019510269165,-1.3332038533738633,-2.5257046858416956,6.109852778702535,1.0156313180923462,-2.8840025107013147
1708436228.7989044,-2.141986608505249,-1.3332451295903702,-2.525691095982687,6.109876620560446,1.015634536743164,-2.8835230509387415
1708436228.8009043,-2.1419405937194824,-1.3332038533738633,-2.5257001558886927,6.109849679261007,1.0156632661819458,-2.8830023447619837
1708436228.8029222,-2.1419663429260254,-1.3332124662450333,-2.5257001558886927,6.109848487168112,1.0156956911087036,-2.882458035145895
1708436228.8049428,-2.1419663429260254,-1.3331846755794068,-2.5257166067706507,6.109852778702535,1.0156913995742798,-2.881967369710104
1708436228.8069115,-2.1420071125030518,-1.3332289469293137,-2.525710407887594,6.109819996147909,1.0156784057617188,-2.881392780934469
1708436228.8089454,-2.1419708728790283,-1.3331846755794068,-2.52576452890505,6.109848487168112,1.0156946182250977,-2.8808615843402308
1708436228.8108902,-2.1419777870178223,-1.3331962686828156,-2.525689427052633,6.109857189446249,1.015715479850769,-2.880305830632345
1708436228.812922,-2.142000198364258,-1.3332441610148926,-2.525731388722555,6.109815704613485,1.015748381614685,-2.879709784184591
1708436228.8148906,-2.141941547393799,-1.3332365316203614,-2.525710407887594,6.109876620560446,1.015796184539795,-2.879157606755392
1708436228.816949,-2.141967535018921,-1.3332613122514267,-2.52574330965151,6.109786379128256,1.0157917737960815,-2.8786023298846644
1708436228.8189354,-2.1419551372528076,-1.333225132232048,-2.5257886091815394,6.1098646996314905,1.0157909393310547,-2.877960268651144
1708436228.820905,-2.1419551372528076,-1.3331919771483918,-2.5258050600634974,6.109848487168112,1.0157655477523804,-2.877368752156393
1708436228.8229227,-2.1418983936309814,-1.3331834089807053,-2.5258005301104944,6.109827983170309,1.0158510208129883,-2.876761261616842
1708436228.8249266,-2.141875982284546,-1.3332332086614151,-2.5258079210864466,6.109857189446249,1.015809416770935,-2.8761101404773157
1708436228.826924,-2.1419007778167725,-1.3331834238818665,-2.5257914702044886,6.109857189446249,1.0159003734588623,-2.8754406611071985
1708436228.8289156,-2.1419053077697754,-1.3332613122514267,-2.5257988611804407,6.109802830010214,1.0158751010894775,-2.874826971684591
1708436228.8308866,-2.141862392425537,-1.3332493913224717,-2.5257447401629847,6.1098646996314905,1.015894889831543,-2.8741582075702112
1708436228.8329003,-2.1419026851654053,-1.3332289320281525,-2.52584416071047,6.109815704613485,1.0159605741500854,-2.873526636754171
1708436228.834909,-2.141914129257202,-1.3332569611123581,-2.52584416071047,6.109863745957174,1.0159887075424194,-2.8727856318103235
1708436228.8369176,-2.1418416500091553,-1.3332124513438721,-2.525884453450338,6.1099047539527795,1.0159549713134766,-2.872101132069723
1708436228.838918,-2.1418912410736084,-1.3331834238818665,-2.5258589426623743,6.109867918282308,1.0159920454025269,-2.871429506932394
1708436228.8408835,-2.1418540477752686,-1.3332203489593049,-2.5258379618274134,6.109848487168112,1.016036868095398,-2.870720688496725
1708436228.842928,-2.1418845653533936,-1.3332332086614151,-2.5258873144732874,6.109869348793783,1.0160149335861206,-2.8699918429004114
1708436228.8448925,-2.1418888568878174,-1.333252714281418,-2.5259037653552454,6.109857189446249,1.0160683393478394,-2.86928373972048
1708436228.8469455,-2.1418800354003906,-1.3332365167192002,-2.5259037653552454,6.109815466194906,1.0160434246063232,-2.868568245564596
1708436228.8489444,-2.141904592514038,-1.3332688820413132,-2.525944534932272,6.1098365662391565,1.0160884857177734,-2.8678763548480433
1708436228.8508909,-2.141859531402588,-1.3332896393588562,-2.525944534932272,6.109861480980673,1.0160422325134277,-2.867141310368673
1708436228.8529298,-2.141855001449585,-1.3332365167192002,-2.525940004979269,6.109799372940817,1.016115665435791,-2.8663840929614466
1708436228.85494,-2.1418585777282715,-1.3332118701985856,-2.52598482767214,6.109783160477438,1.0161405801773071,-2.8656562010394495
1708436228.8569295,-2.1417691707611084,-1.3332569611123581,-2.525971237813131,6.109815704613485,1.0162007808685303,-2.8648956457721155
1708436228.8589697,-2.141859531402588,-1.333252714281418,-2.5259667078601282,6.109819876938619,1.0161876678466797,-2.8641067186938685
1708436228.8609495,-2.1418144702911377,-1.3332484376481553,-2.5259652773486536,6.109819996147909,1.016162633895874,-2.863370482121603
1708436228.8629985,-2.1418099403381348,-1.333261327152588,-2.5259531180011194,6.1098153469856165,1.0161864757537842,-2.8625782171832483
1708436228.864962,-2.141787052154541,-1.3332569611123581,-2.5260494391070765,6.109783994942465,1.0162489414215088,-2.8617802301989954
1708436228.8669071,-2.1417791843414307,-1.3332811307958146,-2.5260615984546106,6.109828817635336,1.0162392854690552,-2.8610051313983362
1708436228.868907,-2.141782522201538,-1.333220363860466,-2.5260313192950647,6.109832036286154,1.0162967443466187,-2.860166374837057
1708436228.870902,-2.1417622566223145,-1.3332038682750245,-2.526093069707052,6.10981701591567,1.0162959098815918,-2.859363857899801
1708436228.8729258,-2.1417622566223145,-1.3332725328258057,-2.526088539754049,6.109706032067098,1.0163493156433105,-2.858530346547262
1708436228.8749099,-2.1418049335479736,-1.3332689118436356,-2.5260794798480433,6.109805094986715,1.0162949562072754,-2.8577027956592005
1708436228.8769288,-2.1417667865753174,-1.3332365465215226,-2.5260794798480433,6.109752881317892,1.0163484811782837,-2.8568907419787806
1708436228.8789244,-2.141730546951294,-1.3332484674504776,-2.5260630289660853,6.1097779152686975,1.0164010524749756,-2.8560474554644983
1708436228.8808968,-2.141756296157837,-1.333223746424057,-2.5260823408709925,6.109773862152853,1.0163922309875488,-2.855202023183004
1708436228.8829138,-2.1417012214660645,-1.3333134812167664,-2.5261486212359827,6.109797227173605,1.0164369344711304,-2.8544328848468226
1708436228.884936,-2.141714572906494,-1.3332964193871994,-2.5261316935168665,6.1097082970436,1.0164852142333984,-2.85360294977297
1708436228.886907,-2.141716718673706,-1.3333048832467576,-2.5261181036578577,6.109696256905355,1.0164763927459717,-2.852745596562521
1708436228.888923,-2.1416783332824707,-1.3333207082799454,-2.526212755833761,6.109749662667074,1.0165002346038818,-2.8518601099597376
1708436228.8909059,-2.1416499614715576,-1.3333207976869126,-2.52616793314089,6.10973738411025,1.016556978225708,-2.851011101399557
1708436228.8929107,-2.1416218280792236,-1.3333329868367692,-2.5262158552752894,6.109704959183492,1.0165646076202393,-2.850142780934469
1708436228.8948963,-2.1416218280792236,-1.333312214618065,-2.5261827150927942,6.109714019089498,1.0165483951568604,-2.8493202368365687
1708436228.896912,-2.141601324081421,-1.33332875490699,-2.5262234846698206,6.109644043236532,1.0166009664535522,-2.8483238855945032
1708436228.8989408,-2.1416420936584473,-1.3333245527795334,-2.5262728373156946,6.109679329186239,1.0165669918060303,-2.847508970891134
1708436228.9009109,-2.141611337661743,-1.3333202314427872,-2.5261977354632776,6.109673487931051,1.0166741609573364,-2.846564833317892
1708436228.902913,-2.1415696144104004,-1.3333080571940918,-2.526242796574728,6.109680878907003,1.0166653394699097,-2.845767323170797
1708436228.9049087,-2.141611337661743,-1.333307446246483,-2.526296917592184,6.109682428627767,1.0166479349136353,-2.8447566668139856
1708436228.9068973,-2.141589879989624,-1.333364487891533,-2.526301447545187,6.109685408860006,1.0166598558425903,-2.8438997904406946
1708436228.9089289,-2.141587495803833,-1.333368108873703,-2.526287857686178,6.109682309418478,1.0167081356048584,-2.8429163138019007
1708436228.9108942,-2.141566038131714,-1.3333809238723298,-2.526300017033712,6.1096287844474695,1.0167360305786133,-2.8420403639422815
1708436228.912916,-2.1415491104125977,-1.3333602410605927,-2.5262938181506556,6.109621274262228,1.0167486667633057,-2.841050688420431
1708436228.914897,-2.14153790473938,-1.3333559495261689,-2.5263448397265833,6.109559881478109,1.0168095827102661,-2.8401439825641077
1708436228.9169114,-2.1415398120880127,-1.3334256273559113,-2.5263357798205774,6.109548198967733,1.0168415307998657,-2.8392089048968714
1708436228.9189363,-2.141465425491333,-1.3334133487990876,-2.5262892881976526,6.109495627671041,1.0168415307998657,-2.8383098284350794
1708436228.9208841,-2.1415016651153564,-1.3333397966674347,-2.526346270238058,6.109516846924581,1.0168894529342651,-2.8374038378344935
1708436228.9229128,-2.141510486602783,-1.333384321337082,-2.526393000279562,6.1095536825950525,1.0168980360031128,-2.8364792505847376
1708436228.924925,-2.1414742469787598,-1.333396242266037,-2.526358429585592,6.1094761965568445,1.0169461965560913,-2.8355420271502894
1708436228.9269316,-2.1414990425109863,-1.3333919656327744,-2.526379410420553,6.10948525646285,1.0169451236724854,-2.8347306887256067
1708436228.9289083,-2.14151930809021,-1.333351657991745,-2.526362959538595,6.109508979111471,1.0169857740402222,-2.8337398211108606
1708436228.9309053,-2.141510486602783,-1.3333928448012848,-2.526370350514547,6.109531509667196,1.0170063972473145,-2.8328688780414026
1708436228.9328918,-2.14145827293396,-1.3333270114711304,-2.5264318625079554,6.109477746277609,1.0170137882232666,-2.8319297472583216
1708436228.9349005,-2.141475200653076,-1.3333638918450852,-2.5264392534839075,6.109428274422445,1.0170173645019531,-2.8310471216784876
1708436228.9369183,-2.14145827293396,-1.3333724302104493,-2.5264814535724085,6.1094655869300745,1.0170655250549316,-2.8301201502429407
1708436228.9389105,-2.141406297683716,-1.3334047955325623,-2.526458803807394,6.109425651818075,1.0170936584472656,-2.8292365709887903
1708436228.9409022,-2.141414165496826,-1.3334048104337235,-2.526442352925436,6.109422433167257,1.0171098709106445,-2.828280274068014
1708436228.9429007,-2.141439914703369,-1.3333681386760254,-2.526458803807394,6.109443652420797,1.017122507095337,-2.8273642698871058
1708436228.94491,-2.1414105892181396,-1.3333758127740403,-2.526511255894796,6.109369981079855,1.017128825187683,-2.8264334837542933
1708436228.9468994,-2.1414151191711426,-1.3333022606423874,-2.52649170557131,6.109353768616476,1.0171494483947754,-2.8255322615252894
1708436228.9489217,-2.141390323638916,-1.3333886575749894,-2.526499334965841,6.109365451126852,1.0171778202056885,-2.8246665636645716
1708436228.9509046,-2.1413912773132324,-1.333388627772667,-2.5265067259417933,6.109394061356344,1.0172141790390015,-2.823735062276022
1708436228.9529083,-2.1414127349853516,-1.3333516430905838,-2.5265443960772913,6.109311330109396,1.017270803451538,-2.822815720235006
1708436228.9549038,-2.141322374343872,-1.3333886873773118,-2.5265563170062464,6.109341847687521,1.017274260520935,-2.8220177332507532
1708436228.956919,-2.141387701034546,-1.3334170144847413,-2.5265682379352015,6.109322058945455,1.0172663927078247,-2.821052853261129
1708436228.958958,-2.141352415084839,-1.333383486872055,-2.5266180674182337,6.1093580601509,1.0172611474990845,-2.8201401869403284
1708436228.9609609,-2.141315221786499,-1.333381013279297,-2.5265846888171595,6.109289872437277,1.0173263549804688,-2.8192084471331995
1708436228.9629288,-2.141310930252075,-1.3333431643298645,-2.526609007512228,6.109310376435079,1.0173296928405762,-2.8183141390429896
1708436228.9648974,-2.141357183456421,-1.3333596301129838,-2.526623789464132,6.109310376435079,1.0173540115356445,-2.81739050546755
1708436228.966901,-2.141263246536255,-1.3333645176938553,-2.526637379323141,6.109293925553121,1.0173944234848022,-2.8164623419391077
1708436228.9689207,-2.141319751739502,-1.3334048402360459,-2.526632849370138,6.1092415926750085,1.0174272060394287,-2.8155234495746058
1708436228.9708967,-2.1412949562072754,-1.3333431047252198,-2.5266431013690394,6.109250533371725,1.0173900127410889,-2.8146398703204554
1708436228.9728959,-2.1412765979766846,-1.3333876144937058,-2.5266266504870813,6.109255182534017,1.0174262523651123,-2.8136664072619837
1708436228.9748793,-2.1412765979766846,-1.333343119626381,-2.5266311804400843,6.1091651795204065,1.017479419708252,-2.8127880732165735
1708436228.9769127,-2.1412923336029053,-1.3334285926869889,-2.5266221205340784,6.109174358635702,1.0174576044082642,-2.811803404484884
1708436228.9789023,-2.1412720680236816,-1.3333876442960282,-2.5266671816455286,6.109180915146627,1.0174697637557983,-2.8109636942492884
1708436228.980881,-2.141247272491455,-1.3333193522742768,-2.5266929308520716,6.109181988030233,1.0175025463104248,-2.809969488774435
1708436228.9829004,-2.141235828399658,-1.3333552789739151,-2.5266884008990687,6.109109151154318,1.0175429582595825,-2.8090315500842493
1708436228.984884,-2.141235828399658,-1.3334158223918458,-2.5266507307635706,6.109183060913839,1.017562747001648,-2.808140818272726
1708436228.9868882,-2.141181707382202,-1.3334004890969773,-2.526691261922018,6.109163629799642,1.0175583362579346,-2.807236973439352
1708436228.9889283,-2.141235828399658,-1.3333842915347596,-2.526736323033468,6.109117376595297,1.0176151990890503,-2.8063092867480677
1708436228.9908948,-2.1412198543548584,-1.3334243458560486,-2.526706043873922,6.109175908356466,1.0176184177398682,-2.8053892294513147
1708436228.9929338,-2.141166925430298,-1.333343119626381,-2.526727263127462,6.109142768173971,1.0176271200180054,-2.804502312337057
1708436228.9948971,-2.141183614730835,-1.333388627772667,-2.5267346541034144,6.109123456269064,1.0176305770874023,-2.8036893049823206
1708436228.9969265,-2.141188144683838,-1.3333714318326493,-2.5267587343799036,6.109106766968527,1.0176546573638916,-2.8028093020068567
1708436228.9989302,-2.141183614730835,-1.3334490221789856,-2.5267332235919397,6.109086143761434,1.0176546573638916,-2.801891867314474
1708436229.000894,-2.141183614730835,-1.3334084910205384,-2.526799027119772,6.109175669937887,1.0177028179168701,-2.8010411898242396
1708436229.0029154,-2.1411969661712646,-1.3334084761193772,-2.5267661253558558,6.109066831856527,1.017707347869873,-2.800227467213766
1708436229.0048935,-2.1411430835723877,-1.3333473813584824,-2.526827875767843,6.109083163529196,1.017730951309204,-2.799328390751974
1708436229.006898,-2.1411633491516113,-1.3334041100791474,-2.5268681685077112,6.109092223435201,1.0177061557769775,-2.798450533543722
1708436229.0089266,-2.141118049621582,-1.333338813190796,-2.5269058386432093,6.109059083252706,1.0177254676818848,-2.797537628804342
1708436229.0108936,-2.1411404609680176,-1.3333681386760254,-2.5268996397601526,6.109042751580038,1.0177913904190063,-2.7966910044299524
1708436229.012904,-2.141131639480591,-1.33340476573024,-2.5268996397601526,6.109055745392599,1.0177913904190063,-2.7958083788501185
1708436229.0149004,-2.1410953998565674,-1.3334048402360459,-2.5269208590136927,6.10906349399642,1.0178313255310059,-2.7949536482440394
1708436229.0168965,-2.1410839557647705,-1.3334199500134964,-2.5268951098071497,6.10910056808547,1.0178065299987793,-2.7940731684314173
1708436229.018897,-2.1410715579986572,-1.333375797872879,-2.526977841054098,6.109030949860372,1.0178183317184448,-2.7932961622821253
1708436229.020902,-2.1410953998565674,-1.3334048253348847,-2.526919190083639,6.108999240189352,1.0178546905517578,-2.7923904101001185
1708436229.0228949,-2.1411287784576416,-1.3333919656327744,-2.526935640965597,6.10901569107131,1.0178589820861816,-2.791523520146505
1708436229.0248942,-2.1410973072052,-1.3333919805339356,-2.526919190083639,6.109003531723776,1.0179036855697632,-2.7907210032092493
1708436229.0269217,-2.141099691390991,-1.3334285777858277,-2.526968781148092,6.109023320465841,1.0179036855697632,-2.7898648420916956
1708436229.0289006,-2.141047716140747,-1.3333962273648758,-2.5269506613360804,6.108983027725973,1.0179357528686523,-2.7889979521380823
1708436229.0309024,-2.1410679817199707,-1.3333843362382432,-2.5269838015185755,6.108991610794821,1.0179400444030762,-2.788247887288229
1708436229.0329149,-2.1410181522369385,-1.333380089407303,-2.5269702116595667,6.109048712044515,1.0179388523101807,-2.7873557249652308
1708436229.034895,-2.1410181522369385,-1.3334404540112992,-2.5270121733294886,6.108942615776815,1.0179550647735596,-2.7865565458880823
1708436229.0369272,-2.141040563583374,-1.3333714616349717,-2.5269866625415247,6.108966457634725,1.0179660320281982,-2.785668675099508
1708436229.038916,-2.1410655975341797,-1.333387629394867,-2.526994053517477,6.108918773918905,1.018024206161499,-2.7848406473742884
1708436229.0409207,-2.1410317420959473,-1.3334090423635026,-2.5270360151873987,6.108958947449484,1.0180763006210327,-2.7839823404895228
1708436229.0429077,-2.1410655975341797,-1.333408461218216,-2.527043883000509,6.108927476197042,1.0180554389953613,-2.783220354710714
1708436229.0448935,-2.1410157680511475,-1.3333843362382432,-2.526977602635519,6.108901965409078,1.018067717552185,-2.7822962442981165
1708436229.046937,-2.1410629749298096,-1.3334084910205384,-2.527017895375387,6.108944165497579,1.0181245803833008,-2.7815232912646692
1708436229.0489068,-2.14103627204895,-1.3333957505277176,-2.527008835469381,6.108906495362081,1.018087387084961,-2.7806969324695032
1708436229.0508797,-2.1409964561462402,-1.3334072989276429,-2.5270960966693323,6.108960258751669,1.0181363821029663,-2.7798402945147913
1708436229.0528903,-2.1409919261932373,-1.3333843064359208,-2.5271292368518274,6.108927476197042,1.0181233882904053,-2.778983179722921
1708436229.0549316,-2.1410248279571533,-1.3334127229503174,-2.5271170775042933,6.1089351055915735,1.0181028842926025,-2.77813965479006
1708436229.056896,-2.141026735305786,-1.3334127080491562,-2.5271275679217737,6.108899104386129,1.0181474685668945,-2.777285401021139
1708436229.058919,-2.141005277633667,-1.333396242266037,-2.5270496050464075,6.1089080450828455,1.0181964635849,-2.776506487523214
1708436229.0610092,-2.14103364944458,-1.3333639365485688,-2.527123037968771,6.10887502410964,1.0182031393051147,-2.7756951490985315
1708436229.0629222,-2.1409637928009033,-1.3334327948144455,-2.5270779768573206,6.108907925873556,1.018195629119873,-2.7748990694629114
1708436229.064896,-2.141026735305786,-1.3334127378514786,-2.5271201769458216,6.108870851784506,1.0181703567504883,-2.774113718663351
1708436229.0669346,-2.14100980758667,-1.3333511662534256,-2.527156178151266,6.1088589308555505,1.0182359218597412,-2.773248020802633
1708436229.0688953,-2.1409928798675537,-1.3333999824574967,-2.527106587086813,6.108883130341329,1.018247127532959,-2.7725089232074183
1708436229.0709045,-2.141014337539673,-1.333411605363228,-2.52714711824526,6.10887502410964,1.0183212757110596,-2.7716904322253626
1708436229.0729284,-2.1409308910369873,-1.3333681386760254,-2.527168099080221,6.108944761544027,1.0183289051055908,-2.770923916493551
1708436229.0748906,-2.14094877243042,-1.3333834570697327,-2.527175490056173,6.108882772713461,1.0182750225067139,-2.7700703779803675
1708436229.0769198,-2.1409318447113037,-1.333424301152565,-2.5272417704211634,6.108838665276327,1.018308162689209,-2.769336525593893
1708436229.0788863,-2.140911340713501,-1.3334157478860398,-2.527184549962179,6.1088353274162195,1.0183027982711792,-2.7685228029834192
1708436229.0808947,-2.1409337520599365,-1.3333792698434372,-2.5271785894977015,6.10889612415389,1.0183604955673218,-2.767768208180563
1708436229.0829506,-2.1409363746643066,-1.3334199798158188,-2.5272162596331995,6.108900296479025,1.0183595418930054,-2.7669740358935755
1708436229.0849214,-2.1409294605255127,-1.3333706718734284,-2.5271876494037073,6.108879554062643,1.0183924436569214,-2.7661979834186
1708436229.0869238,-2.1409451961517334,-1.3334084910205384,-2.5271831194507044,6.108891713410177,1.0184086561203003,-2.765404764805929
1708436229.0889103,-2.1409451961517334,-1.333383486872055,-2.5272117296801966,6.108835446625509,1.018404245376587,-2.76460844675173
1708436229.0909073,-2.140920400619507,-1.3333914887956162,-2.5271907488452356,6.108892428665914,1.018399953842163,-2.763853375111715
1708436229.0929291,-2.1409294605255127,-1.3333800596049805,-2.5272236506091517,6.10889612415389,1.0184327363967896,-2.7631056944476526
1708436229.094939,-2.1409382820129395,-1.3334646087935944,-2.527247492467062,6.108826744347372,1.0184359550476074,-2.7623418013202112
1708436229.0969458,-2.1408798694610596,-1.3334522557309647,-2.527221981679098,6.108872163086691,1.018484115600586,-2.761566940938131
1708436229.098943,-2.1409542560577393,-1.3334084761193772,-2.527247492467062,6.108876573830404,1.018484115600586,-2.760782305394308
1708436229.1009204,-2.140900135040283,-1.3334646087935944,-2.5272627512561243,6.1088188765342615,1.0185291767120361,-2.760043446217672
1708436229.1029377,-2.1409292221069336,-1.333404154782631,-2.527224842702047,6.108823168068685,1.0185291767120361,-2.7593217531787317
1708436229.104913,-2.1408684253692627,-1.333411530857422,-2.52727181116213,6.108863699227133,1.018450379371643,-2.7585178057300013
1708436229.1069133,-2.140904664993286,-1.3334447306445618,-2.5272656122790735,6.108904707222738,1.0185691118240356,-2.75774056116213
1708436229.1089175,-2.1408932209014893,-1.3333957207253953,-2.5273075739489954,6.108863580017843,1.018563985824585,-2.7570202986346644
1708436229.1108932,-2.1409213542938232,-1.333407313828804,-2.5273359457599085,6.108872163086691,1.018563985824585,-2.7561236063586634
1708436229.112914,-2.14093017578125,-1.3334438812783738,-2.5273223559008997,6.108908879547872,1.0185385942459106,-2.755451265965597
1708436229.1149063,-2.140925884246826,-1.3334523749402543,-2.5273314158069056,6.108855950623312,1.0186207294464111,-2.7546897570239466
1708436229.1169403,-2.140913486480713,-1.3334191751531144,-2.5273268858539026,6.108855950623312,1.0185916423797607,-2.7538602987872522
1708436229.1189024,-2.1408817768096924,-1.333419145350792,-2.527372185383932,6.10881124713973,1.0186488628387451,-2.7531004587756556
1708436229.120893,-2.140897512435913,-1.3334603917649765,-2.5273223559008997,6.108908998757162,1.0185871124267578,-2.752352539693014
1708436229.1229262,-2.1408684253692627,-1.333451734190323,-2.527339045201437,6.108851659088888,1.0186611413955688,-2.75157076517214
1708436229.124889,-2.1408603191375732,-1.3334320199540635,-2.527417246495382,6.108859288483419,1.018688440322876,-2.750798288975851
1708436229.1269264,-2.1408560276031494,-1.3334267896464844,-2.527391497288839,6.108851659088888,1.0186558961868286,-2.7501004377948206
1708436229.1289232,-2.140836477279663,-1.333419145350792,-2.527396027241842,6.108916508942404,1.0187093019485474,-2.7492287794696253
1708436229.130911,-2.140856981277466,-1.333394543533661,-2.52743369737734,6.108867871552267,1.0187244415283203,-2.74850041071047
1708436229.1329572,-2.140836477279663,-1.3334073287299653,-2.5273991266833704,6.1088751433189294,1.018703818321228,-2.7477362791644495
1708436229.1348903,-2.140864849090576,-1.3334073287299653,-2.5273659865008753,6.1088589308555505,1.018703818321228,-2.7469683329211634
1708436229.1369512,-2.140869379043579,-1.3334604364684601,-2.5273991266833704,6.108839738159933,1.0187649726867676,-2.746249262486593
1708436229.1388898,-2.140873908996582,-1.3334106367877503,-2.5274110476123255,6.108900296479025,1.0187768936157227,-2.7454708258258265
1708436229.140896,-2.1408603191375732,-1.33338716745887,-2.5274532477008265,6.108855950623312,1.0187606811523438,-2.7447190920459192
1708436229.142911,-2.1408908367156982,-1.333463729625084,-2.527430597935812,6.1088353274162195,1.0187804698944092,-2.7439573446856897
1708436229.144897,-2.140838861465454,-1.3334439259818573,-2.527414147053854,6.108879554062643,1.0187803506851196,-2.7432566324817103
1708436229.1469162,-2.140906572341919,-1.3334885102561493,-2.527409617100851,6.108842956810751,1.018771767616272,-2.742399279271261
1708436229.148902,-2.140819787979126,-1.3334191006473084,-2.527463499699728,6.108879554062643,1.0188448429107666,-2.741666857396261
1708436229.1509044,-2.1408863067626953,-1.333439664249756,-2.527496401463644,6.108879554062643,1.0188250541687012,-2.7410176436053675
1708436229.1529293,-2.1408932209014893,-1.333479956989624,-2.527430597935812,6.108891713410177,1.0188984870910645,-2.7403138319598597
1708436229.154897,-2.140873908996582,-1.3335284453681489,-2.527475420628683,6.10887240150527,1.0188610553741455,-2.73958403268923
1708436229.1569173,-2.1408908367156982,-1.3334832352450867,-2.527433458958761,6.108870851784506,1.0188854932785034,-2.7388725916491907
1708436229.158902,-2.140869379043579,-1.3335041415742417,-2.527479950581686,6.108891713410177,1.018885612487793,-2.7381022612201136
1708436229.1610124,-2.1408727169036865,-1.333531768327095,-2.527445379887716,6.108838665276327,1.0189135074615479,-2.7373607794391077
1708436229.1629531,-2.140878438949585,-1.3334705096534272,-2.5274997393237513,6.108833658486166,1.018925428390503,-2.7366374174701136
1708436229.164946,-2.140873908996582,-1.3335233491710206,-2.5275161902057093,6.108887421875753,1.0189168453216553,-2.7359469572650355
1708436229.1669636,-2.14084792137146,-1.3335636121085663,-2.5274952093707483,6.108911263733663,1.0189377069473267,-2.7351844946490687
1708436229.168911,-2.140841007232666,-1.3335764420083542,-2.5274906794177454,6.108945476799764,1.0189366340637207,-2.734490935002462
1708436229.1709127,-2.140845537185669,-1.3335679185441514,-2.5275309721576136,6.108890044480123,1.0189614295959473,-2.733816687260763
1708436229.172899,-2.140843391418457,-1.333547444348671,-2.5275071302997034,6.108911144524374,1.0189409255981445,-2.733086411152975
1708436229.1748943,-2.140852451324463,-1.333502934580185,-2.5274680296527308,6.108924138336935,1.0189976692199707,-2.732361380253927
1708436229.1768954,-2.14084792137146,-1.3335394871285935,-2.5274844805346888,6.108870851784506,1.0190337896347046,-2.731701199208395
1708436229.1789126,-2.140856981277466,-1.33357127130542,-2.5275219122516077,6.108882772713461,1.0190424919128418,-2.730943743382589
1708436229.1809046,-2.1408231258392334,-1.3335636121085663,-2.5275309721576136,6.108947145729818,1.0189965963363647,-2.730255667363302
1708436229.1828942,-2.1408817768096924,-1.3336005818894883,-2.5275219122516077,6.1089515564735315,1.0190293788909912,-2.7295716444598597
1708436229.1849198,-2.14081072807312,-1.3335755330375214,-2.5275593439685267,6.108972418099203,1.019070029258728,-2.7288840452777308
1708436229.1868966,-2.1408603191375732,-1.333559350376465,-2.5275593439685267,6.108931052475729,1.0190613269805908,-2.72815972963442
1708436229.1889157,-2.1408560276031494,-1.333599643116333,-2.5275548140155237,6.108944165497579,1.0190613269805908,-2.727508846913473
1708436229.190944,-2.140864849090576,-1.3335840565017243,-2.527566973363058,6.1089292643363855,1.0190491676330566,-2.726847235356466
1708436229.1928983,-2.1408908367156982,-1.3336157363704224,-2.527562443410055,6.10895453670577,1.019073247909546,-2.7261133829699915
1708436229.1948972,-2.140878438949585,-1.3335389357856293,-2.527541224156515,6.109024512558737,1.0190775394439697,-2.72541314760317
1708436229.1969202,-2.140841007232666,-1.3335465651801606,-2.527600113545553,6.108990180283346,1.0190937519073486,-2.7247324625598353
1708436229.198916,-2.140856981277466,-1.3335669201663514,-2.527562443410055,6.109002101212301,1.019097089767456,-2.7240644137011927
1708436229.2009146,-2.1408603191375732,-1.3335755181363602,-2.5275700728045862,6.10906337478713,1.019134521484375,-2.7233436743365687
1708436229.202895,-2.140841007232666,-1.3335261207870026,-2.527633015309469,6.109035241394796,1.01914644241333,-2.7226386705981653
1708436229.2049184,-2.140856981277466,-1.3335834306529541,-2.5275939146624964,6.109005319863119,1.0191333293914795,-2.7219725290881556
1708436229.206912,-2.140895128250122,-1.3335797649673005,-2.5275865236865442,6.109091865807333,1.0191214084625244,-2.721245829259054
1708436229.2089665,-2.140791416168213,-1.333526761536934,-2.5276058355914515,6.109087574272909,1.0191051959991455,-2.7205923239337366
1708436229.2109215,-2.1408274173736572,-1.3335138869336625,-2.5276406447040003,6.109106766968527,1.0191171169281006,-2.719848696385519
1708436229.212903,-2.140864849090576,-1.3336039197495957,-2.5276389757739466,6.109120118408956,1.0191411972045898,-2.7191391626941126
1708436229.2149308,-2.14084792137146,-1.333600566988327,-2.5276270548449915,6.109095084458151,1.0191693305969238,-2.718466822301046
1708436229.2168937,-2.140841007232666,-1.3336115193418046,-2.5276766459094446,6.1091264365013025,1.0191574096679688,-2.7177191416369837
1708436229.218929,-2.140782356262207,-1.3335267019322892,-2.5276270548449915,6.109154689102926,1.0191736221313477,-2.7170255819903772
1708436229.220948,-2.1408612728118896,-1.3335261356881638,-2.5276721159564417,6.109092938690939,1.019209861755371,-2.716325108204977
1708436229.2228851,-2.14083194732666,-1.3335749220899125,-2.5276721159564417,6.109187829285421,1.019168496131897,-2.715569321309225
1708436229.224928,-2.140864849090576,-1.3335431826165696,-2.5276511351214808,6.109186160355367,1.0192142724990845,-2.7149043718921106
1708436229.2268918,-2.1408498287200928,-1.3335755181363602,-2.5276764074908655,6.109202611237325,1.0192012786865234,-2.7142062822925013
1708436229.2289262,-2.140878438949585,-1.3335877519897004,-2.527663056050436,6.109195101052084,1.0192131996154785,-2.71350866953005
1708436229.2308962,-2.140882730484009,-1.3335834306529541,-2.5276930967914026,6.10919069030837,1.0192294120788574,-2.7127230803119105
1708436229.232905,-2.140878438949585,-1.333562732940056,-2.527637545262472,6.10919069030837,1.019274353981018,-2.712121311818258
1708436229.234912,-2.1408286094665527,-1.3336209815791626,-2.527684036885397,6.109160887985983,1.0192819833755493,-2.7113946119891565
1708436229.2369525,-2.14082407951355,-1.3335919690183182,-2.527695957814352,6.109242784767904,1.0192328691482544,-2.7106598059283655
1708436229.2388875,-2.140873908996582,-1.3336401593736191,-2.527686897908346,6.109268533974447,1.0192581415176392,-2.7099743525134485
1708436229.24089,-2.1408908367156982,-1.333530308013298,-2.527665917073385,6.109238374024191,1.0193233489990234,-2.7093008200274866
1708436229.242887,-2.1408863067626953,-1.3336039197495957,-2.52767783800234,6.109250533371725,1.019261360168457,-2.7086098829852503
1708436229.2449057,-2.14084792137146,-1.3335669499686738,-2.527674976979391,6.109280454903402,1.0192656517028809,-2.707982842122213
1708436229.2468874,-2.1408908367156982,-1.3335834306529541,-2.527691427861349,6.109295236855306,1.019277572631836,-2.7071810404406946
1708436229.2489288,-2.140873908996582,-1.33357127130542,-2.527686897908346,6.1092203734214685,1.0192897319793701,-2.706524435673849
1708436229.250893,-2.140873908996582,-1.3335627031377335,-2.527698818837301,6.10930751541213,1.0193265676498413,-2.70575195947756
1708436229.2529442,-2.1408603191375732,-1.3336031150868912,-2.5277321974383753,6.10925708988265,1.019305944442749,-2.70504600206484
1708436229.2548916,-2.14083194732666,-1.33356265843425,-2.5277231375323694,6.1092896340186975,1.0193103551864624,-2.7043772379504603
1708436229.256888,-2.14083194732666,-1.3336115193418046,-2.527698818837301,6.109342562943258,1.0192973613739014,-2.7036662737475794
1708436229.2588954,-2.140873908996582,-1.333608166580536,-2.5277231375323694,6.10934733131484,1.019264578819275,-2.70301324525942
1708436229.2609496,-2.1408817768096924,-1.3335303676179429,-2.527707878743307,6.109341728478231,1.019317865371704,-2.7023728529559534
1708436229.262967,-2.14083194732666,-1.3335834306529541,-2.527715269719259,6.109391557961263,1.0193344354629517,-2.7016127745257776
1708436229.2649078,-2.140873908996582,-1.3336039197495957,-2.5277062098132532,6.109353649407186,1.019317865371704,-2.700881544743673
1708436229.2668867,-2.140845537185669,-1.3335303676179429,-2.527698818837301,6.109365570336141,1.0193135738372803,-2.7001784483539026
1708436229.2689042,-2.1408274173736572,-1.3335920137218018,-2.5277441183673304,6.109377252846517,1.019309163093567,-2.6994951407061976
1708436229.2709093,-2.140843391418457,-1.3335626733354111,-2.527698818837301,6.109405982285299,1.0193257331848145,-2.698754612599508
1708436229.2729223,-2.14083194732666,-1.3335669499686738,-2.5277350584613245,6.109501468926229,1.0193660259246826,-2.6981237570392054
1708436229.2748945,-2.140873908996582,-1.333559365277626,-2.5277231375323694,6.109376179962911,1.0193498134613037,-2.6973333994494837
1708436229.2769105,-2.140841007232666,-1.3335465502789994,-2.5276852289782923,6.109441745072164,1.0193498134613037,-2.696706835423605
1708436229.2789068,-2.140869379043579,-1.3335962456515809,-2.5277724901782435,6.109430181771078,1.0193411111831665,-2.6960111300097864
1708436229.280896,-2.140856981277466,-1.3335834306529541,-2.5277350584613245,6.109445917397299,1.0193901062011719,-2.6953378359424036
1708436229.282925,-2.140841007232666,-1.3336157661727448,-2.5277753512011927,6.1094127772148035,1.0193378925323486,-2.694644276295797
1708436229.2849052,-2.140815019607544,-1.3335584116033097,-2.5277469793902796,6.109474169998922,1.0193825960159302,-2.693958107625143
1708436229.2869115,-2.140899658203125,-1.3335834306529541,-2.5277424494372767,6.109467017441549,1.0193530321121216,-2.6932104269610804
1708436229.2889102,-2.140856981277466,-1.3336072725108643,-2.5277889410602015,6.109462249069967,1.019329309463501,-2.692496363316671
1708436229.290913,-2.140852451324463,-1.3336039197495957,-2.5277231375323694,6.109453666001119,1.0193455219268799,-2.6917956511126917
1708436229.2928865,-2.140899658203125,-1.3335431826165696,-2.5277679602252405,6.1094257710273645,1.0193783044815063,-2.691148344670431
1708436229.2948816,-2.140873908996582,-1.3336072725108643,-2.5276926199542444,6.109430062561788,1.0193248987197876,-2.6903751532184046
1708436229.296933,-2.140869379043579,-1.333579183822014,-2.5277589003192347,6.109440672188558,1.0193486213684082,-2.6897476355182093
1708436229.2989278,-2.140869379043579,-1.3336189550212403,-2.5277708212481897,6.1094374535377405,1.0194075107574463,-2.6890206972705286
1708436229.3008907,-2.140864849090576,-1.3336072874120255,-2.5277753512011927,6.109461176186361,1.019373893737793,-2.688227955495016
1708436229.302895,-2.140856981277466,-1.3335869324258347,-2.5278175512896937,6.109457957535543,1.0193945169448853,-2.6875391642199915
1708436229.3049479,-2.140815019607544,-1.3335498583367844,-2.5277424494372767,6.109502661019125,1.0193945169448853,-2.6867364088641565
1708436229.306929,-2.140852451324463,-1.3335584563067933,-2.5277753512011927,6.1094374535377405,1.0193901062011719,-2.686091725026266
1708436229.3089356,-2.140873908996582,-1.3336115640452881,-2.5277589003192347,6.1094655869300745,1.0194023847579956,-2.685369316731588
1708436229.3109174,-2.140895128250122,-1.3336524379304429,-2.527745310460226,6.109440672188558,1.0194185972213745,-2.684643093739645
1708436229.3129585,-2.140815019607544,-1.3335902404836197,-2.5277543703662317,6.1094655869300745,1.0194141864776611,-2.6838956514941614
1708436229.3149033,-2.140819787979126,-1.3335869026235123,-2.5277798811541956,6.109498369484701,1.0194141864776611,-2.6832595507251185
1708436229.316933,-2.1408908367156982,-1.3336230975440522,-2.527785841618673,6.109456884651937,1.0193979740142822,-2.682565514241354
1708436229.3189123,-2.140852451324463,-1.3336430501988907,-2.5277543703662317,6.1094939587409876,1.0194098949432373,-2.6818388144122522
1708436229.320901,-2.140869379043579,-1.3336634647897263,-2.527832571660177,6.109469163208761,1.0194469690322876,-2.68113357225527
1708436229.3229272,-2.140841007232666,-1.3336145889810105,-2.527749840413229,6.109490859299459,1.0194141864776611,-2.680406634007589
1708436229.3248963,-2.1408603191375732,-1.3336396229318161,-2.527757231389181,6.109461176186361,1.0194307565689087,-2.679688040410177
1708436229.3268971,-2.1408286094665527,-1.333667815928795,-2.5277708212481897,6.109457957535543,1.0194098949432373,-2.678957764302389
1708436229.3289294,-2.140841007232666,-1.3336668771556397,-2.527749840413229,6.109445917397299,1.0193936824798584,-2.6782076994525355
1708436229.3309093,-2.1408374309539795,-1.3336824637702485,-2.527828041707174,6.1094127772148035,1.0193849802017212,-2.677542511616842
1708436229.332932,-2.140795946121216,-1.3336918962052842,-2.527828041707174,6.109445917397299,1.0194098949432373,-2.676797930394308
1708436229.3349016,-2.1407887935638428,-1.3336747747710724,-2.5278144518481653,6.109430062561788,1.0194098949432373,-2.676093641911642
1708436229.3369396,-2.1407854557037354,-1.3337071400931855,-2.5277558008777063,6.109459030419149,1.0194098949432373,-2.6754162947284144
1708436229.3388941,-2.1407310962677,-1.3337156933597107,-2.5278640429126185,6.109405982285299,1.0194544792175293,-2.6746519247638147
1708436229.3408923,-2.140740156173706,-1.3336293262294312,-2.5278144518481653,6.109324443131246,1.0194501876831055,-2.673910681401388
1708436229.3429155,-2.1406731605529785,-1.3337062758258362,-2.5278971830951136,6.109311330109396,1.0194296836853027,-2.673235003148214
1708436229.3448985,-2.1406571865081787,-1.3336824786714097,-2.5278382937060755,6.10929690578536,1.0194621086120605,-2.6724630037890833
1708436229.3469272,-2.1406209468841553,-1.33369433999572,-2.5278337637530726,6.109257924347677,1.0195114612579346,-2.671743933354513
1708436229.348904,-2.1406052112579346,-1.3337309819510956,-2.5278127829181116,6.109229314118185,1.019482135772705,-2.6710386911975306
1708436229.3509002,-2.140573263168335,-1.3337105375579377,-2.527883593236105,6.109246003418722,1.0194984674453735,-2.670328680668966
1708436229.352928,-2.1405370235443115,-1.333767057662346,-2.527886454259054,6.109221923142233,1.0195027589797974,-2.6695786158191126
1708436229.3549044,-2.140550374984741,-1.333778904085495,-2.527907435094015,6.10919069030837,1.0195517539978027,-2.668875519429342
1708436229.3569205,-2.140505313873291,-1.3337670427611847,-2.527914826069967,6.109162318497457,1.019485354423523,-2.6681862513171595
1708436229.358894,-2.1404547691345215,-1.333770365720131,-2.52791935602297,6.1090887663658044,1.0195181369781494,-2.6674559752093714
1708436229.3609731,-2.1403450965881348,-1.3337823015502472,-2.5279601255999964,6.1090489504630945,1.0195589065551758,-2.6666885058032435
1708436229.3629854,-2.1403331756591797,-1.3338156354478379,-2.52794319788088,6.1090500233467,1.0195543766021729,-2.666039053593771
1708436229.364908,-2.140289783477783,-1.333766133790352,-2.5279465357409876,6.109002101212301,1.0195577144622803,-2.6653128306018274
