Eg3-git/Classifiers/Data Collection/u4/u4star3_ur3e_joint_states.csv
time,elbow_joint,shoulder_lift_joint,shoulder_pan_joint,wrist_1_joint,wrist_2_joint,wrist_3_joint
1708436292.9453151,-2.1475534439086914,-1.3352017861655732,-2.5260823408709925,6.1244815466697595,1.016308069229126,-2.532572333012716
1708436292.947327,-2.1474978923797607,-1.3351941418698807,-2.5261243025409144,6.124346244126119,1.0163486003875732,-2.5326064268695276
1708436292.9493659,-2.1474502086639404,-1.3351419431022187,-2.5261107126819056,6.124259459763326,1.0163767337799072,-2.532513205205099
1708436292.9513073,-2.147414445877075,-1.3350804907134552,-2.5261107126819056,6.124129164009847,1.0163767337799072,-2.5324907938586634
1708436292.9533036,-2.1472904682159424,-1.3350814443877717,-2.5261107126819056,6.123964535980978,1.0163559913635254,-2.5324247519122522
1708436292.9553607,-2.1472301483154297,-1.335093380217888,-2.526151482258932,6.123732077866354,1.0163888931274414,-2.5323973337756556
1708436292.9573305,-2.1472082138061523,-1.3350942593863984,-2.526139561329977,6.123652922898092,1.0164085626602173,-2.5323663393603724
1708436292.9593244,-2.147151231765747,-1.335046337251999,-2.526156012211935,6.123537528305807,1.0163755416870117,-2.532285277043478
1708436292.9612978,-2.1470587253570557,-1.3350130033544083,-2.526135031376974,6.123301017075338,1.0163922309875488,-2.5322986284839075
1708436292.9633322,-2.1470322608947754,-1.334997446542122,-2.526142422352926,6.123194563179769,1.0164415836334229,-2.5322426001178187
1708436292.9653363,-2.1469807624816895,-1.3350222420743485,-2.526142422352926,6.123010265618124,1.0164085626602173,-2.5322113672839563
1708436292.9673505,-2.146847724914551,-1.3350222271731873,-2.526172463093893,6.1228439686592,1.016411542892456,-2.5321794191943567
1708436292.9693184,-2.146869659423828,-1.3349824708751221,-2.526170794163839,6.122781145363607,1.016465663909912,-2.53203255334963
1708436292.9713092,-2.146801471710205,-1.334961713557579,-2.526154343281881,6.122607338219442,1.0164238214492798,-2.53204590479006
1708436292.9733117,-2.146716833114624,-1.3349910986474534,-2.526179854069845,6.12241409996108,1.0164642333984375,-2.5319529215442103
1708436292.9753523,-2.1466524600982666,-1.3349788349917908,-2.526187245045797,6.122322904854574,1.0164490938186646,-2.5319047609912317
1708436292.9773107,-2.1466293334960938,-1.3349303168109437,-2.526187245045797,6.122183668404379,1.0164852142333984,-2.5319018999682825
1708436292.9793127,-2.1465630531311035,-1.3349018406919022,-2.5261917749988,6.122031318932333,1.0164927244186401,-2.5318449179278772
1708436292.9813051,-2.146477699279785,-1.3348738265088578,-2.526203695927755,6.121841418534078,1.0164597034454346,-2.531760279332296
1708436292.9833112,-2.1464667320251465,-1.334886611705162,-2.5262280146228235,6.121781813889303,1.016497254371643,-2.531790796910421
1708436292.9853241,-2.14639949798584,-1.3348670464805146,-2.5261946360217493,6.12163673618392,1.0164719820022583,-2.5317261854754847
1708436292.9873068,-2.1463420391082764,-1.3348215532353898,-2.5262067953692835,6.12153040149764,1.0165499448776245,-2.531670633946554
1708436292.9893053,-2.1462364196777344,-1.3348704439452668,-2.526205603276388,6.121402013092794,1.0165075063705444,-2.5316010157214563
1708436292.9913101,-2.1462106704711914,-1.3348472875407715,-2.5262399355517786,6.121227252274313,1.016573429107666,-2.5315192381488245
1708436292.9933116,-2.1461753845214844,-1.334801973109581,-2.5262022654162806,6.1210341332252405,1.0165408849716187,-2.5314679781543177
1708436292.9953277,-2.146131992340088,-1.3347864162972947,-2.5262609163867396,6.120943057328024,1.0165364742279053,-2.5314903895007532
1708436292.9973109,-2.146087646484375,-1.3348029416850586,-2.5262280146228235,6.120829450875082,1.0165157318115234,-2.5313907305346888
1708436292.999307,-2.1460232734680176,-1.334754378800728,-2.5262609163867396,6.120668279915609,1.016539454460144,-2.5313642660724085
1708436293.0013127,-2.145897388458252,-1.3347302091172715,-2.5262444655047815,6.1205739853675745,1.0165603160858154,-2.531299654637472
1708436293.003333,-2.1459121704101562,-1.3347552579692383,-2.5262354055987757,6.120401966362753,1.016588807106018,-2.5312634150134485
1708436293.005346,-2.1458511352539062,-1.3347596389106293,-2.5262563864337366,6.120265948563375,1.016539454460144,-2.531240526829855
1708436293.0073395,-2.145798921585083,-1.3347225499204178,-2.526242796574728,6.120126950531759,1.0165635347366333,-2.531240526829855
1708436293.009326,-2.145697832107544,-1.3347354245236893,-2.5262308756457728,6.120026576309957,1.016593337059021,-2.531156603490011
1708436293.0113223,-2.145712375640869,-1.3347269159606476,-2.5262683073626917,6.119953381806173,1.0166010856628418,-2.531106774006979
1708436293.0133517,-2.1456403732299805,-1.3346789342216034,-2.526205603276388,6.119766819268026,1.0165798664093018,-2.531072203313009
1708436293.0153334,-2.1456196308135986,-1.3346631240895768,-2.5262308756457728,6.119645821839132,1.016581416130066,-2.53103214899172
1708436293.0173163,-2.145569324493408,-1.334670366053917,-2.5262518564807337,6.119581091194906,1.0166414976119995,-2.5309837500201624
1708436293.019404,-2.1454906463623047,-1.3346679520658036,-2.5262473265277308,6.119445311814108,1.0165832042694092,-2.530940119420187
1708436293.0213623,-2.1454601287841797,-1.3346441996148606,-2.5263012091266077,6.119300234108724,1.0166369676589966,-2.5308948198901575
1708436293.0233366,-2.1453771591186523,-1.334623636012413,-2.526210133229391,6.119209039002218,1.0166162252426147,-2.5308874289142054
1708436293.025325,-2.14534068107605,-1.3346312952092667,-2.52625018755068,6.119094240456381,1.0166611671447754,-2.5308519045459192
1708436293.0273514,-2.145345687866211,-1.3346280020526429,-2.526259247456686,6.118965494423666,1.0166488885879517,-2.5308080355273646
1708436293.0293014,-2.1453192234039307,-1.3346236509135743,-2.5262637774096888,6.118862497597494,1.016603946685791,-2.530771795903341
1708436293.0313017,-2.145209312438965,-1.3346038323691864,-2.526259247456686,6.118762123375692,1.0166817903518677,-2.530715290700094
1708436293.0333314,-2.145188808441162,-1.3345671904138108,-2.526275936757223,6.118670928269186,1.016672968864441,-2.5306907335864466
1708436293.0353162,-2.1451425552368164,-1.3345671904138108,-2.52625018755068,6.118504988938131,1.0166281461715698,-2.530664030705587
1708436293.03734,-2.145106554031372,-1.3345357042602082,-2.526245896016256,6.118481027870931,1.016623616218567,-2.530576292668478
1708436293.0393069,-2.1449921131134033,-1.3344987344792862,-2.526300017033712,6.11838840225295,1.0166476964950562,-2.5305960814105433
1708436293.0413046,-2.1450419425964355,-1.3345885288766404,-2.5262821356402796,6.118210303574362,1.016672968864441,-2.530539576207296
1708436293.043322,-2.1449790000915527,-1.3345927459052582,-2.5262742678271692,6.118239152222433,1.0166685581207275,-2.530522410069601
1708436293.0453029,-2.144892692565918,-1.3345039647868653,-2.5262699762927454,6.1181151745613,1.0166478157043457,-2.5304623285876673
1708436293.0473318,-2.144890785217285,-1.3345158857158204,-2.526275936757223,6.1180250523384,1.0166985988616943,-2.530442539845602
1708436293.0493252,-2.1447982788085938,-1.334495337014534,-2.526278797780172,6.117934095650472,1.016705870628357,-2.530355993901388
1708436293.0512962,-2.144843101501465,-1.3344920438579102,-2.526266876851217,6.117812859802999,1.016652226448059,-2.5303831736194056
1708436293.0533223,-2.144730567932129,-1.3344925952008744,-2.5262742678271692,6.1177875874336145,1.0166566371917725,-2.530405584965841
1708436293.0553045,-2.1446728706359863,-1.334456281071045,-2.5262954870807093,6.117663728981771,1.0166685581207275,-2.5302820841418665
1708436293.0573184,-2.1447157859802246,-1.3344358217767258,-2.526262346898214,6.117593157082357,1.0166552066802979,-2.5302792231189173
1708436293.0593104,-2.1446638107299805,-1.3344487112811585,-2.5263403097735804,6.1174930212791345,1.0166685581207275,-2.530266825352804
1708436293.0613058,-2.144538402557373,-1.334419311290123,-2.526283327733175,6.117325770645895,1.0167059898376465,-2.530222241078512
1708436293.0633214,-2.1445555686950684,-1.334383637910225,-2.5263119379626673,6.117341983109274,1.016701579093933,-2.530202929173605
1708436293.0652916,-2.1444814205169678,-1.334392176275589,-2.526278797780172,6.117212283402242,1.0166926383972168,-2.5301664511310022
1708436293.0673432,-2.1444716453552246,-1.334400789146759,-2.52631646791567,6.117137181549825,1.0166807174682617,-2.530113760625021
1708436293.0693407,-2.1444592475891113,-1.334412620668747,-2.526320759450094,6.117069828301229,1.0166717767715454,-2.5301392714129847
1708436293.0713086,-2.144443988800049,-1.334432215695717,-2.5263119379626673,6.1169400093849084,1.016701579093933,-2.5300946871386927
1708436293.0733008,-2.144362211227417,-1.3344050657800217,-2.526349131261007,6.116893636971273,1.0167256593704224,-2.530038897191183
1708436293.0753071,-2.1443839073181152,-1.3343680959990998,-2.5262909571277063,6.11676965931014,1.016716718673706,-2.530050818120138
1708436293.0772982,-2.144347667694092,-1.3343851578286667,-2.5263312498675745,6.116747009545126,1.0166836977005005,-2.5300169626819056
1708436293.079292,-2.1443605422973633,-1.334376500254013,-2.5262864271747034,6.116675722389974,1.0167211294174194,-2.529987398778097
1708436293.0812995,-2.14424204826355,-1.3343765449574967,-2.5263238588916224,6.116587149887838,1.0167123079299927,-2.529947106038229
1708436293.0833387,-2.1442761421203613,-1.3343042147210618,-2.5263074080096644,6.116507875710287,1.0166926383972168,-2.5298944155322474
1708436293.0853043,-2.144224166870117,-1.3342833381942292,-2.5263283888446253,6.116480934410848,1.016704797744751,-2.5298782030688685
1708436293.0873158,-2.144217014312744,-1.334336594944336,-2.5262940565692347,6.1162792322929285,1.0167003870010376,-2.5298662821399134
1708436293.0893078,-2.1441965103149414,-1.3343127530864258,-2.5263403097735804,6.116316783219137,1.0167256593704224,-2.529846731816427
1708436293.0913117,-2.1441473960876465,-1.3343171042254944,-2.5263147989856165,6.116195547371664,1.0167003870010376,-2.52985126176943
1708436293.0933278,-2.1441121101379395,-1.334321380858757,-2.5263267199145716,6.1161688444908044,1.0167078971862793,-2.5297980944262903
1708436293.0953047,-2.144141674041748,-1.3343171042254944,-2.5263357798205774,6.1161460755165,1.0167078971862793,-2.5297535101519983
1708436293.0975819,-2.144096851348877,-1.3342314821532746,-2.5263734499560755,6.116003978043356,1.0167405605316162,-2.529729668294088
1708436293.0995717,-2.144076347351074,-1.3342358332923432,-2.5263267199145716,6.115998613625326,1.0167242288589478,-2.5297141710864466
1708436293.1015656,-2.1440324783325195,-1.3342733693173905,-2.5263357798205774,6.115865218430319,1.0167286396026611,-2.5297096411334437
1708436293.1033127,-2.1440324783325195,-1.33427249014888,-2.5263312498675745,6.115883219033041,1.016737461090088,-2.529675070439474
1708436293.105315,-2.143975019454956,-1.334301472907402,-2.5263147989856165,6.1157946465309045,1.0167078971862793,-2.529670540486471
1708436293.1073036,-2.1440048217773438,-1.334260569219925,-2.5263267199145716,6.115697490959921,1.0167330503463745,-2.529646698628561
1708436293.1093178,-2.1439523696899414,-1.3343024414828797,-2.5263643900500696,6.115705120354452,1.0167574882507324,-2.5296557585345667
1708436293.1112976,-2.1439290046691895,-1.3342128855041047,-2.5263686815844935,6.115558612137594,1.0167405605316162,-2.5295613447772425
1708436293.113337,-2.143916606903076,-1.3342376959374924,-2.5263341108905237,6.115527379303732,1.0166959762573242,-2.5295658747302454
1708436293.115302,-2.1438682079315186,-1.334224746828415,-2.5263267199145716,6.115467417031088,1.016737461090088,-2.529532496129171
1708436293.1173427,-2.143892765045166,-1.3342214983752747,-2.5263102690326136,6.115449535637655,1.0167618989944458,-2.529470745717184
1708436293.1193979,-2.143868923187256,-1.3341920983842392,-2.526367489491598,6.11538981178359,1.0167405605316162,-2.5295429865466517
1708436293.121373,-2.143795967102051,-1.3341973286918183,-2.526372019444601,6.11528371551589,1.0167449712753296,-2.5295146147357386
1708436293.1233592,-2.1438465118408203,-1.3341726076653977,-2.5263477007495325,6.115276443749227,1.0167485475540161,-2.5294812361346644
1708436293.125372,-2.1438255310058594,-1.3341726076653977,-2.526350800191061,6.11522530296401,1.0167405605316162,-2.5294812361346644
1708436293.1273332,-2.1437816619873047,-1.3341811460307618,-2.526393000279562,6.115140068321981,1.0167529582977295,-2.529482905064718
1708436293.1293306,-2.1438076496124268,-1.3341441464475174,-2.5263431707965296,6.115097152977743,1.0167574882507324,-2.5294376055346888
1708436293.131301,-2.143711805343628,-1.334124968653061,-2.5263598600970667,6.115101563721456,1.0167242288589478,-2.5294271151172083
1708436293.1333506,-2.143732786178589,-1.3341496747783204,-2.526304070149557,6.1150457737739465,1.0167485475540161,-2.5294509569751185
1708436293.1353323,-2.1437160968780518,-1.3341213029674073,-2.5263176600085657,6.115030872612753,1.0167529582977295,-2.5294435659991663
1708436293.1373234,-2.1437249183654785,-1.3341411811164399,-2.5263386408435267,6.1149173853691,1.0167738199234009,-2.5293856302844446
1708436293.139342,-2.143681049346924,-1.33407615244899,-2.526367489491598,6.114947306900778,1.0167620182037354,-2.529358212147848
1708436293.1413507,-2.143685817718506,-1.3341540110162278,-2.526379410420553,6.114842641144552,1.0167316198349,-2.529358212147848
1708436293.1433423,-2.1436543464660645,-1.334093139772751,-2.526372019444601,6.114809620171346,1.0167272090911865,-2.5293458143817347
1708436293.1453197,-2.1436452865600586,-1.33411359906707,-2.526367489491598,6.114790427475729,1.0167648792266846,-2.529320303593771
1708436293.1473346,-2.1436049938201904,-1.3340931993773957,-2.526329580937521,6.1146888611610315,1.016793131828308,-2.5293131510363978
1708436293.1493158,-2.143625259399414,-1.3340647381595154,-2.526346270238058,6.114723074227133,1.0167648792266846,-2.5293472448932093
1708436293.151307,-2.143629550933838,-1.3340647530606766,-2.526379410420553,6.114654528885641,1.0167560577392578,-2.5293100515948694
1708436293.1533241,-2.1435775756835938,-1.3340855550817032,-2.526367489491598,6.114593136101522,1.0167975425720215,-2.529260222111837
1708436293.1553192,-2.1435482501983643,-1.3340647530606766,-2.526379410420553,6.1145750162895105,1.0167560577392578,-2.529269282017843
1708436293.1573668,-2.1435256004333496,-1.3340812635472794,-2.526362959538595,6.114558803826132,1.0167856216430664,-2.529278341923849
1708436293.1593027,-2.1435298919677734,-1.3340984147838135,-2.526350800191061,6.114500272064962,1.0167560577392578,-2.5292633215533655
1708436293.1613042,-2.143521785736084,-1.3340527427247544,-2.526400152836935,6.1144436476524255,1.0168098211288452,-2.5292261282550257
1708436293.1633236,-2.1434779167175293,-1.334016279583313,-2.526383940373556,6.114382493286886,1.0167843103408813,-2.529205385838644
1708436293.1653063,-2.1434779167175293,-1.334085540180542,-2.526379410420553,6.114379274636068,1.0167723894119263,-2.5292215983020228
1708436293.1673284,-2.1434240341186523,-1.3340744090131302,-2.526350800191061,6.114327299385824,1.0167560577392578,-2.529188934956686
1708436293.1693215,-2.1434786319732666,-1.334077702169754,-2.526452604924337,6.114279258042135,1.0167964696884155,-2.529163662587301
1708436293.1713176,-2.1434741020202637,-1.334049553876259,-2.526428763066427,6.1142639992530725,1.016829490661621,-2.5291996637927454
1708436293.173363,-2.143474578857422,-1.334058166747429,-2.526341978703634,6.114249217301168,1.0168172121047974,-2.5291908423053187
1708436293.1753545,-2.1434011459350586,-1.3340170693448563,-2.526379410420553,6.114237057953634,1.0167964696884155,-2.529132906590597
1708436293.1773605,-2.1433982849121094,-1.3340300184539338,-2.526383940373556,6.114193784981527,1.016793131828308,-2.529109064732687
1708436293.179294,-2.1433982849121094,-1.3339921993068238,-2.526421133671896,6.11416112163619,1.016812801361084,-2.5291252771960657
1708436293.181302,-2.14336895942688,-1.334058166747429,-2.526395861302511,6.114080416947164,1.016808271408081,-2.5291462580310267
1708436293.183355,-2.1433732509613037,-1.3340094548514863,-2.526440683995382,6.114016043930807,1.0168460607528687,-2.5291059652911585
1708436293.1852937,-2.1433792114257812,-1.3340256971171875,-2.526403252278463,6.113987791329183,1.016862392425537,-2.5290680567370813
1708436293.1873198,-2.143338203430176,-1.3339485091022034,-2.526403252278463,6.113969552307882,1.016808271408081,-2.529086176549093
1708436293.189304,-2.14333438873291,-1.33394409835849,-2.526362959538595,6.113884317665853,1.0168371200561523,-2.52912408510317
1708436293.191348,-2.1433029174804688,-1.3340430420688172,-2.52637488046755,6.113888847618856,1.0168460607528687,-2.529036823903219
1708436293.193403,-2.143327236175537,-1.3340149235776444,-2.5264318625079554,6.113857495575704,1.0168578624725342,-2.52905780473818
1708436293.1953084,-2.1432411670684814,-1.334018127327301,-2.526386801396505,6.1138051626975916,1.0168038606643677,-2.529029432927267
1708436293.1973453,-2.1432650089263916,-1.3339128357223053,-2.5264363924609583,6.113818633347311,1.0168534517288208,-2.5289672056781214
1708436293.1993215,-2.1432995796203613,-1.334002972846367,-2.5264318625079554,6.113741147309103,1.0168579816818237,-2.529029432927267
1708436293.2013052,-2.143221855163574,-1.333953933124878,-2.526407782231466,6.113737809448995,1.0168371200561523,-2.5290430227862757
1708436293.2033217,-2.1432671546936035,-1.3339745712331315,-2.526416603718893,6.113718497544088,1.016832709312439,-2.5290313402758997
1708436293.2052894,-2.143230438232422,-1.333938719039299,-2.526370350514547,6.113670933037557,1.0168815851211548,-2.5289927164660853
1708436293.2073178,-2.1432154178619385,-1.3339417588761826,-2.5263899008380335,6.113609540253439,1.0168282985687256,-2.528973404561178
1708436293.2093027,-2.1432065963745117,-1.3339417737773438,-2.5263822714435022,6.113586890488424,1.016898274421692,-2.528989855443136
1708436293.211311,-2.143191337585449,-1.3339096319726487,-2.5263987223254603,6.113628732949056,1.0168238878250122,-2.528961483632223
1708436293.2133553,-2.143202781677246,-1.3339431148818512,-2.526391331349508,6.1135151264961145,1.0168238878250122,-2.528928820286886
1708436293.2153459,-2.1431665420532227,-1.3339300912669678,-2.5263987223254603,6.113512146263876,1.016893982887268,-2.528937641774313
1708436293.2173598,-2.143101692199707,-1.3338976216367264,-2.526403252278463,6.113483893662252,1.0168609619140625,-2.52893311182131
1708436293.2193322,-2.1431350708007812,-1.3338976216367264,-2.5264483133899134,6.113406288414755,1.0168534517288208,-2.5288849512683313
1708436293.2213702,-2.1431102752685547,-1.3338896942189713,-2.526419703160421,6.113448130875387,1.0168653726577759,-2.5288730303393763
1708436293.2233353,-2.1430776119232178,-1.33388967931781,-2.526386801396505,6.113434660225668,1.016844630241394,-2.528877560292379
1708436293.225339,-2.1430985927581787,-1.3338778477958222,-2.5264061133014124,6.11338351944045,1.0168895721435547,-2.528898302708761
1708436293.2272968,-2.143131971359253,-1.333845393066742,-2.526424233113424,6.113385069161215,1.0168609619140625,-2.528882090245382
1708436293.2292955,-2.1430468559265137,-1.3338409674218674,-2.5264151732074183,6.113325583725729,1.0168817043304443,-2.528861109410421
1708436293.2313263,-2.1430187225341797,-1.333907039170601,-2.5264151732074183,6.113283502846517,1.016893982887268,-2.528861109410421
1708436293.2332983,-2.143082618713379,-1.3338810813478013,-2.5264273325549524,6.11320315578536,1.0168728828430176,-2.5288620630847376
1708436293.2353208,-2.1430482864379883,-1.3338907671025773,-2.5263987223254603,6.113249051361837,1.0168728828430176,-2.5288170019732874
1708436293.2373035,-2.143059492111206,-1.3338821691325684,-2.5263941923724573,6.11321650722579,1.016814947128296,-2.528825823460714
1708436293.2393003,-2.143003463745117,-1.3338408929160614,-2.5264151732074183,6.113189446717062,1.0168238878250122,-2.5288079420672815
1708436293.241293,-2.142991065979004,-1.3339070987752457,-2.5264437834369105,6.113154995232382,1.0168609619140625,-2.5288472811328333
1708436293.243311,-2.142974376678467,-1.3338907969048996,-2.5263987223254603,6.113108742028036,1.0168728828430176,-2.5287559668170374
1708436293.2453117,-2.142918109893799,-1.3338374507478257,-2.5264437834369105,6.113145935326376,1.0168938636779785,-2.528764788304464
1708436293.2473068,-2.143016815185547,-1.3338627231172104,-2.5263808409320276,6.113084900170126,1.0168861150741577,-2.528745476399557
1708436293.249306,-2.142939805984497,-1.3338583272746583,-2.5264151732074183,6.113111841469564,1.0168850421905518,-2.528769318257467
1708436293.251316,-2.1429476737976074,-1.3338670444539567,-2.526419703160421,6.11301730850295,1.0168520212173462,-2.5287120977984827
1708436293.2532997,-2.1429150104522705,-1.3338907820037385,-2.526407782231466,6.112927901535787,1.016844630241394,-2.5287166277514856
1708436293.2553108,-2.142932415008545,-1.3338582974723359,-2.5263689200030726,6.113014328270712,1.0168728828430176,-2.5287419001208704
1708436293.2573144,-2.1429026126861572,-1.3338659268668671,-2.526428524647848,6.11293243148879,1.0168609619140625,-2.52875000635256
1708436293.2593195,-2.1428918838500977,-1.333867074256279,-2.5264437834369105,6.112933623581686,1.0168895721435547,-2.5287330786334437
1708436293.2612917,-2.1429033279418945,-1.3338670295527955,-2.5264437834369105,6.112888920098104,1.016893982887268,-2.5286758581744593
1708436293.2633228,-2.1428465843200684,-1.3337977987578888,-2.526440683995382,6.112862098007955,1.0168850421905518,-2.5287137667285364
1708436293.2652931,-2.142855167388916,-1.333826870923378,-2.5264602343188685,6.112854468613424,1.0168895721435547,-2.5287018457995813
1708436293.2673209,-2.14285945892334,-1.3338505041650315,-2.5264602343188685,6.112818705826559,1.0168850421905518,-2.528689448033468
1708436293.2692933,-2.1427934169769287,-1.3338374507478257,-2.5264228026019495,6.1128108380134485,1.0168850421905518,-2.528665606175558
1708436293.2713115,-2.1428020000457764,-1.3338268858245392,-2.5264480749713343,6.112753140717306,1.0168895721435547,-2.5286412874804896
1708436293.2733443,-2.1427862644195557,-1.333810643558838,-2.5264228026019495,6.1127755520637415,1.0168805122375488,-2.528653685246603
1708436293.2753153,-2.142766237258911,-1.3338756424239655,-2.526436154042379,6.1127052185829065,1.016893982887268,-2.5286501089679163
1708436293.2773106,-2.1428275108337402,-1.33376498640094,-2.5264151732074183,6.112633454590597,1.0168728828430176,-2.5286129156695765
1708436293.2793152,-2.1427836418151855,-1.3338299256614228,-2.5264151732074183,6.112689959793844,1.0168850421905518,-2.5285921732531946
1708436293.281356,-2.1427879333496094,-1.3338299256614228,-2.5264559427844446,6.112707841187277,1.0168683528900146,-2.5285845438586634
1708436293.2833066,-2.1427435874938965,-1.3337897223285218,-2.5264812151538294,6.1126513359840295,1.016877293586731,-2.5285726229297083
1708436293.2853146,-2.142705202102661,-1.3338063222220917,-2.5264318625079554,6.112598883896627,1.0168490409851074,-2.5285564104663294
1708436293.28732,-2.1427268981933594,-1.3337897670320054,-2.5264318625079554,6.112530457764425,1.0168431997299194,-2.528569761906759
1708436293.2893276,-2.1427223682403564,-1.3337984842113038,-2.5264318625079554,6.112562882691183,1.016877293586731,-2.5285618940936487
1708436293.2913184,-2.142674207687378,-1.3338062775186081,-2.5263822714435022,6.112524258881368,1.0168805122375488,-2.5285149256335657
1708436293.2933164,-2.1427559852600098,-1.3337897521308442,-2.5264273325549524,6.112498867302694,1.0168850421905518,-2.528527323399679
1708436293.2953084,-2.142735481262207,-1.3337865632823487,-2.5264018217669886,6.112471806793966,1.0168850421905518,-2.52854830423464
1708436293.297342,-2.14272403717041,-1.3337865483811875,-2.5264106432544153,6.112426984101095,1.0168609619140625,-2.5285211245166224
1708436293.2993696,-2.1427040100097656,-1.3338356030038376,-2.5263689200030726,6.112440454750814,1.0168683528900146,-2.5284927527057093
1708436293.301332,-2.1426749229431152,-1.3337822419456025,-2.5263825098620813,6.112416732102194,1.0168850421905518,-2.5284882227527063
1708436293.303347,-2.142679214477539,-1.3337951761535187,-2.5264106432544153,6.112358200341024,1.0168895721435547,-2.5284720102893274
1708436293.3053136,-2.1426634788513184,-1.333757222895958,-2.5264015833484095,6.112368809967794,1.016893982887268,-2.5284386316882532
1708436293.3073106,-2.142667770385742,-1.3337703210166474,-2.5264106432544153,6.1123520014579675,1.0168490409851074,-2.528440062199728
1708436293.3093224,-2.1426520347595215,-1.3337703210166474,-2.5264273325549524,6.112323987274923,1.0168817043304443,-2.528440062199728
1708436293.3113086,-2.142627239227295,-1.3337584000876923,-2.526419703160421,6.112287986069479,1.0168728828430176,-2.528431002293722
1708436293.3133051,-2.142667770385742,-1.3337746423533936,-2.5264392534839075,6.112297045975485,1.0168238878250122,-2.528411928807394
1708436293.3153355,-2.142665386199951,-1.3337703210166474,-2.5263941923724573,6.112287986069479,1.0168520212173462,-2.5283923784839075
1708436293.3173757,-2.142620086669922,-1.3337919873050232,-2.5264273325549524,6.112272846489706,1.0168565511703491,-2.5284252802478235
1708436293.3193648,-2.142611503601074,-1.3337584000876923,-2.5264812151538294,6.112240063935079,1.016877293586731,-2.5284133593188685
1708436293.3214262,-2.1426401138305664,-1.3337714088014145,-2.5263944307910364,6.112223732262411,1.0168850421905518,-2.5283761660205286
1708436293.323406,-2.142575263977051,-1.3337627214244385,-2.5264273325549524,6.112199890404501,1.016893982887268,-2.5283589998828333
1708436293.325353,-2.1426610946655273,-1.3337584000876923,-2.5264812151538294,6.112199771195211,1.0168565511703491,-2.5283716360675257
1708436293.3273282,-2.1425881385803223,-1.3337267202189942,-2.5264347235309046,6.112187969475546,1.0168761014938354,-2.528368059788839
1708436293.329312,-2.1426005363464355,-1.333718092446663,-2.5264392534839075,6.112086283951559,1.0168895721435547,-2.528360191975729
1708436293.3313048,-2.142609119415283,-1.333771438603737,-2.526419703160421,6.112078892975607,1.0168639421463013,-2.5283528009997767
1708436293.3333266,-2.1425724029541016,-1.3337461662343522,-2.5264106432544153,6.112122165947714,1.016844630241394,-2.528294626866476
1708436293.3353293,-2.14261794090271,-1.333722398882248,-2.5264063517199915,6.112056243210592,1.016893982887268,-2.5283079783069056
1708436293.337352,-2.1425728797912598,-1.3336985570243378,-2.5264480749713343,6.112119304924764,1.016877293586731,-2.528299156819479
1708436293.339307,-2.1425161361694336,-1.333714799290039,-2.5264318625079554,6.1120232222373865,1.0168609619140625,-2.5283079783069056
1708436293.341316,-2.1425554752349854,-1.3337061715177079,-2.5264480749713343,6.111999380379476,1.0168609619140625,-2.5283213297473353
1708436293.3433402,-2.1425561904907227,-1.3337505620769043,-2.5264604727374476,6.112039911537924,1.0168728828430176,-2.5283005873309534
1708436293.3452938,-2.1425204277038574,-1.3337267351201554,-2.5264437834369105,6.111996519356527,1.0168861150741577,-2.528259817753927
1708436293.3473291,-2.1425561904907227,-1.3337678176215668,-2.5263987223254603,6.112029301911154,1.0168609619140625,-2.528243605290548
1708436293.3493183,-2.142516613006592,-1.3337191206267853,-2.526452604924337,6.111972677498617,1.0168565511703491,-2.528247896824972
1708436293.3512948,-2.1425037384033203,-1.3336942505887528,-2.5264392534839075,6.111960756569662,1.0168358087539673,-2.528198782597677
1708436293.3533213,-2.1425533294677734,-1.333772138958313,-2.5264483133899134,6.11195324638442,1.0168565511703491,-2.52822715440859
1708436293.3553338,-2.1425042152404785,-1.3337515902570267,-2.5264061133014124,6.111944305687704,1.0168565511703491,-2.528198782597677
1708436293.3573077,-2.142446279525757,-1.3337267202189942,-2.5264106432544153,6.111948835640707,1.0168402194976807,-2.5282376448260706
1708436293.3593106,-2.1425085067749023,-1.3337396693280716,-2.5264318625079554,6.111938106804647,1.0168358087539673,-2.528181854878561
1708436293.3613005,-2.1425015926361084,-1.333722398882248,-2.5264273325549524,6.111884104996481,1.0168609619140625,-2.528181854878561
1708436293.3633258,-2.1424973011016846,-1.3337353628924866,-2.5264106432544153,6.111868130951681,1.016844630241394,-2.5281906763659876
1708436293.3653145,-2.1424672603607178,-1.3336985570243378,-2.526391331349508,6.11183654048995,1.0168609619140625,-2.5282331148730677
1708436293.3673356,-2.142467975616455,-1.3336856228164216,-2.5264318625079554,6.11189495304183,1.0168861150741577,-2.528205219899313
1708436293.3693175,-2.142484664916992,-1.333723471765854,-2.5264273325549524,6.111852872162618,1.0168861150741577,-2.5281499067889612
1708436293.3713295,-2.1424479484558105,-1.3336288791945954,-2.5263941923724573,6.1118695614631555,1.0168565511703491,-2.528170887623922
1708436293.3733406,-2.1424155235290527,-1.3336996895125885,-2.5264273325549524,6.111845481186666,1.016877293586731,-2.5282302538501185
1708436293.3753011,-2.1424198150634766,-1.333751620059349,-2.526433054600851,6.111767756729879,1.016832709312439,-2.52820068994631
1708436293.3773453,-2.142465114593506,-1.3336790365031739,-2.5263822714435022,6.111820089607992,1.0168490409851074,-2.528172556553976
1708436293.3793187,-2.1424288749694824,-1.3337115061334153,-2.526452604924337,6.111866223603048,1.0168460607528687,-2.528147284184591
1708436293.3813198,-2.1424450874328613,-1.3336790365031739,-2.5263941923724573,6.111821639328756,1.0168358087539673,-2.528147284184591
1708436293.3833435,-2.1424622535705566,-1.3336624813130875,-2.526403252278463,6.111831772118368,1.0168204307556152,-2.5281649271594446
1708436293.3853033,-2.1424202919006348,-1.3336942505887528,-2.5264318625079554,6.111818420677938,1.0168534517288208,-2.528090540562765
1708436293.38735,-2.1424002647399902,-1.333719090824463,-2.5264318625079554,6.111806380539694,1.016832709312439,-2.528160635625021
1708436293.389329,-2.142404556274414,-1.333653838639595,-2.5263899008380335,6.111757266312399,1.0168038606643677,-2.528127733861105
1708436293.391343,-2.1424500942230225,-1.333683432345726,-2.5263987223254603,6.1118109104926965,1.0168402194976807,-2.528127733861105
1708436293.3933284,-2.1424288749694824,-1.3336506348899384,-2.526424233113424,6.111787426262655,1.0168416500091553,-2.5281084219561976
1708436293.3953261,-2.14235520362854,-1.333683432345726,-2.5264151732074183,6.111742365151205,1.0168460607528687,-2.5280914942370813
1708436293.3973784,-2.14235520362854,-1.3336430352977295,-2.526403252278463,6.111697423249044,1.016832709312439,-2.5281367937671106
1708436293.3993187,-2.142381191253662,-1.3336581748775025,-2.526386801396505,6.1116524813468835,1.0168238878250122,-2.5281158129321497
1708436293.401315,-2.1424262523651123,-1.3336833876422425,-2.5263944307910364,6.1116946814353845,1.016808271408081,-2.5281220118152063
1708436293.403325,-2.142442226409912,-1.3336910170367737,-2.5263734499560755,6.111647951393881,1.0168217420578003,-2.5281410853015345
1708436293.4053223,-2.1424062252044678,-1.3336755347302933,-2.5264151732074183,6.111665951996603,1.0168249607086182,-2.5281129519092005
1708436293.4073663,-2.1423234939575195,-1.3336473566344758,-2.526424233113424,6.111649858742513,1.0167994499206543,-2.5281129519092005
1708436293.4093115,-2.142397403717041,-1.3336344075253983,-2.5263822714435022,6.111609208374777,1.0168416500091553,-2.5280795733081263
1708436293.4113066,-2.142381191253662,-1.3336549562266846,-2.526423994694845,6.111670362740316,1.016770839691162,-2.5281246344195765
1708436293.4133196,-2.1423768997192383,-1.333671198492386,-2.526403252278463,6.111660349159994,1.016808271408081,-2.5281220118152063
1708436293.415319,-2.142361640930176,-1.3336506348899384,-2.526428763066427,6.111597406655111,1.0167964696884155,-2.528113905583517
1708436293.4173503,-2.1423826217651367,-1.3336462390473862,-2.526419703160421,6.111651408463278,1.0168054103851318,-2.5280304590808313
1708436293.4193108,-2.1423654556274414,-1.3336996746114274,-2.526428524647848,6.111568796425619,1.0168172121047974,-2.5280304590808313
1708436293.4214053,-2.1424012184143066,-1.3336592775634308,-2.5263987223254603,6.11156593540267,1.0168339014053345,-2.528022352849142
1708436293.423367,-2.142336368560791,-1.3337039959481736,-2.526407782231466,6.1115256426628015,1.0167887210845947,-2.5280469099627894
1708436293.4253547,-2.1423163414001465,-1.3336963814548035,-2.5263987223254603,6.111492979317465,1.0168054103851318,-2.528013531361715
1708436293.4273436,-2.142300605773926,-1.333671198492386,-2.526412312184469,6.111500370293417,1.016800880432129,-2.528060261403219
1708436293.429313,-2.1423163414001465,-1.333671198492386,-2.5263689200030726,6.111574876099386,1.0168304443359375,-2.528026882802145
1708436293.4313061,-2.142300605773926,-1.3336311143687745,-2.5263822714435022,6.111567365914144,1.0168260335922241,-2.528097454701559
1708436293.4333167,-2.1423659324645996,-1.3336344075253983,-2.526416603718893,6.111537921219625,1.0167975425720215,-2.528048340474264
1708436293.4353185,-2.142333507537842,-1.3335694533637543,-2.5264151732074183,6.111513602524557,1.0167560577392578,-2.5280075708972376
1708436293.4373126,-2.142333507537842,-1.3336387139609833,-2.5263987223254603,6.111534583359518,1.0167678594589233,-2.5279985109912317
1708436293.439341,-2.142301082611084,-1.3336963814548035,-2.5263825098620813,6.111518251686849,1.0167856216430664,-2.5280402342425745
1708436293.4413056,-2.1422924995422363,-1.3336473566344758,-2.5263660589801233,6.1115198014076135,1.016793131828308,-2.528048340474264
1708436293.4433546,-2.14227557182312,-1.333671198492386,-2.526445213948385,6.111494052201071,1.0167529582977295,-2.5280194918261927
1708436293.445343,-2.1422617435455322,-1.3336473566344758,-2.52637488046755,6.111527073174276,1.0167841911315918,-2.5280314127551478
1708436293.4473107,-2.142301082611084,-1.3336387139609833,-2.5263660589801233,6.11141203620986,1.0167560577392578,-2.5280240217791956
1708436293.4493186,-2.1422970294952393,-1.3336387139609833,-2.5263825098620813,6.111515271454611,1.0167768001556396,-2.528060261403219
1708436293.4513097,-2.1422529220581055,-1.3336473566344758,-2.5263825098620813,6.111449467926779,1.016793131828308,-2.5280314127551478
1708436293.4533303,-2.1423134803771973,-1.333675504927971,-2.5263941923724573,6.111462819367208,1.0168348550796509,-2.5280194918261927
1708436293.455312,-2.1422486305236816,-1.3336842221072693,-2.526391331349508,6.111488091736593,1.016793131828308,-2.5280149618731897
1708436293.457325,-2.1422641277313232,-1.333700792198517,-2.526403252278463,6.111492621689596,1.0167516469955444,-2.5280359427081507
1708436293.4593518,-2.1422886848449707,-1.3336267930320282,-2.526407782231466,6.111434566765585,1.016769289970398,-2.528010431920187
1708436293.4613287,-2.1422841548919678,-1.3336267930320282,-2.5263822714435022,6.111459481507101,1.0167648792266846,-2.5280240217791956
1708436293.4633608,-2.1423139572143555,-1.3336397421411057,-2.526423994694845,6.111410605698385,1.0167516469955444,-2.528052870427267
1708436293.4653182,-2.1422812938690186,-1.3336430352977295,-2.526423994694845,6.111431467324056,1.016769289970398,-2.5279725233661097
1708436293.4673326,-2.1422812938690186,-1.333614559178688,-2.5264106432544153,6.111449467926779,1.0167901515960693,-2.5280404726611536
1708436293.4693263,-2.1422574520111084,-1.3336137694171448,-2.526407782231466,6.111398446350851,1.0167841911315918,-2.528060261403219
1708436293.4713137,-2.142265796661377,-1.3336679947427292,-2.526428763066427,6.111391055374899,1.0167604684829712,-2.528060261403219
1708436293.4733486,-2.142294406890869,-1.3336102378419419,-2.5263941923724573,6.111398446350851,1.0167272090911865,-2.528010431920187
1708436293.4753244,-2.1422576904296875,-1.3336030405810853,-2.526395861302511,6.111386644631185,1.0167485475540161,-2.5279906431781214
1708436293.477309,-2.142294406890869,-1.3336224865964432,-2.526395861302511,6.111337053566732,1.016769289970398,-2.5280447641955774
1708436293.4793048,-2.142213821411133,-1.3336030405810853,-2.526395861302511,6.111322271614828,1.0168054103851318,-2.5280314127551478
1708436293.481304,-2.1422252655029297,-1.3336267930320282,-2.5263987223254603,6.111370193749227,1.0167768001556396,-2.528053108845846
1708436293.4833186,-2.1422576904296875,-1.3336355102113266,-2.526386801396505,6.1113459942634485,1.016769289970398,-2.5280829111682337
1708436293.4853203,-2.1422295570373535,-1.3335900169662018,-2.52637488046755,6.111305939942159,1.0167975425720215,-2.5280583540545862
1708436293.4873354,-2.1422252655029297,-1.3336430352977295,-2.526391331349508,6.111338722496786,1.016793131828308,-2.5280359427081507
1708436293.48932,-2.142213821411133,-1.333598644738533,-2.526337448750631,6.111322271614828,1.0167485475540161,-2.5280075708972376
1708436293.491308,-2.1422226428985596,-1.3336016100696106,-2.5263660589801233,6.111352073937216,1.0167516469955444,-2.5280032793628138
1708436293.4933255,-2.142200231552124,-1.3336311143687745,-2.526395861302511,6.111326801567831,1.0167560577392578,-2.5280404726611536
1708436293.4953394,-2.1421687602996826,-1.3336355102113266,-2.5263541380511683,6.111305939942159,1.0167316198349,-2.528069321309225
1708436293.497318,-2.1422226428985596,-1.3336679947427292,-2.526395861302511,6.1113237021263025,1.0167604684829712,-2.528052870427267
1708436293.4993079,-2.1422338485717773,-1.333651752477028,-2.526424233113424,6.111302959709921,1.0167529582977295,-2.5280194918261927
1708436293.5013201,-2.1421802043914795,-1.3336430352977295,-2.526412312184469,6.111332642823019,1.0167768001556396,-2.5280285517321985
1708436293.503326,-2.1422338485717773,-1.3336430352977295,-2.526386801396505,6.111220586090841,1.016769289970398,-2.5280330816852015
1708436293.505305,-2.142258405685425,-1.3336267930320282,-2.526424233113424,6.111307370453634,1.0168260335922241,-2.5280240217791956
1708436293.5073698,-2.142242670059204,-1.3336311143687745,-2.526391331349508,6.1112578985984705,1.0167635679244995,-2.5280149618731897
1708436293.509326,-2.142197608947754,-1.3336397421411057,-2.526454273854391,6.111304509430685,1.0168304443359375,-2.5280285517321985
1708436293.5113032,-2.1422176361083984,-1.3336267930320282,-2.526370350514547,6.111238586693563,1.016781210899353,-2.5279861132251185
1708436293.513321,-2.1421687602996826,-1.333660290842392,-2.5263822714435022,6.111242997437277,1.0167768001556396,-2.5280240217791956
1708436293.515307,-2.1422133445739746,-1.3336059165051957,-2.5263541380511683,6.111311781197347,1.016800880432129,-2.5280664602862757
1708436293.5172958,-2.142165184020996,-1.3336231869510193,-2.526403252278463,6.111255037575521,1.0167723894119263,-2.5280404726611536
1708436293.5193014,-2.1421775817871094,-1.3336102676442643,-2.526370350514547,6.11127136924819,1.016793131828308,-2.5279787222491663
1708436293.5213761,-2.1422019004821777,-1.3336189550212403,-2.526407782231466,6.11129246929244,1.0168172121047974,-2.528069321309225
1708436293.5233839,-2.1421196460723877,-1.333591030245163,-2.526403252278463,6.111218917160787,1.016800880432129,-2.5280359427081507
1708436293.5253263,-2.1421613693237305,-1.333591030245163,-2.526416603718893,6.111227857857504,1.016767978668213,-2.5280075708972376
1708436293.5273056,-2.1421890258789062,-1.3336559248021622,-2.526403252278463,6.1112475273902795,1.016793131828308,-2.5280240217791956
1708436293.5293107,-2.142186164855957,-1.333675504927971,-2.526379410420553,6.111202823906698,1.0167768001556396,-2.5280285517321985
1708436293.531324,-2.1421256065368652,-1.3336430352977295,-2.526416603718893,6.111244547158041,1.0168054103851318,-2.5280194918261927
1708436293.5333297,-2.1421613693237305,-1.3336072725108643,-2.526407782231466,6.111198413162985,1.0168216228485107,-2.5280075708972376
1708436293.5353172,-2.1421570777893066,-1.3335953515819092,-2.5263541380511683,6.111190902977743,1.016800880432129,-2.52805740038027
1708436293.5373402,-2.142141342163086,-1.333598644738533,-2.5263660589801233,6.1111910221870325,1.0168054103851318,-2.5280359427081507
1708436293.5393338,-2.1421656608581543,-1.3335900616696854,-2.5263822714435022,6.111145841866293,1.0168038606643677,-2.5280149618731897
1708436293.5413227,-2.14216947555542,-1.3336311143687745,-2.5264106432544153,6.111183512001791,1.0168217420578003,-2.5280121008502405
1708436293.5433304,-2.142152786254883,-1.3336189699224015,-2.526407782231466,6.111208903580465,1.0167964696884155,-2.5280404726611536
1708436293.5453346,-2.142113208770752,-1.3336159449866791,-2.526419703160421,6.111184704094686,1.016878604888916,-2.5280314127551478
1708436293.5473115,-2.1421780586242676,-1.333618940120079,-2.5264318625079554,6.11117576339797,1.0167797803878784,-2.5280619303332728
1708436293.549327,-2.1421737670898438,-1.3335738641074677,-2.5264437834369105,6.111147510796346,1.016808271408081,-2.5280194918261927
1708436293.5513155,-2.1421499252319336,-1.3336115938476105,-2.526370350514547,6.111139762192526,1.0167664289474487,-2.5280495325671595
1708436293.5533159,-2.1421430110931396,-1.3336311143687745,-2.526403252278463,6.111148702889242,1.016844630241394,-2.5280285517321985
1708436293.555328,-2.1421005725860596,-1.3336145293763657,-2.526370350514547,6.11113070228652,1.016829490661621,-2.5280149618731897
1708436293.5573642,-2.142129898071289,-1.3335824620774765,-2.526403252278463,6.111098038941183,1.0168697834014893,-2.5280376116382044
1708436293.5593104,-2.1421656608581543,-1.3336318147233506,-2.5264151732074183,6.111139762192526,1.0168534517288208,-2.5279861132251185
1708436293.56131,-2.1421384811401367,-1.3336473119309922,-2.5263987223254603,6.111106979637899,1.016898274421692,-2.5280240217791956
1708436293.5633023,-2.1421499252319336,-1.3336355102113266,-2.526403252278463,6.111139762192526,1.0168402194976807,-2.5280359427081507
1708436293.565305,-2.1421005725860596,-1.3336102378419419,-2.5264106432544153,6.111156570702352,1.0168371200561523,-2.5280359427081507
1708436293.5673544,-2.1421430110931396,-1.3336355102113266,-2.526386801396505,6.111141192704,1.016844630241394,-2.5280311743365687
1708436293.5693479,-2.142129898071289,-1.3336231869510193,-2.5263987223254603,6.111071097641744,1.0168653726577759,-2.5280149618731897
1708436293.5713155,-2.14211368560791,-1.3336397421411057,-2.5264151732074183,6.111111509590902,1.0168609619140625,-2.5280032793628138
1708436293.5733182,-2.142084836959839,-1.3335868132165452,-2.526407782231466,6.111091005593099,1.0168817043304443,-2.528005901967184
1708436293.5753136,-2.1421048641204834,-1.333598644738533,-2.526419703160421,6.111074316292562,1.0168194770812988,-2.528005901967184
1708436293.5773408,-2.1420979499816895,-1.333591030245163,-2.5264061133014124,6.111095416336813,1.0168194770812988,-2.528026882802145
1708436293.579312,-2.1420602798461914,-1.3336030703834076,-2.5264106432544153,6.111136662750997,1.0168683528900146,-2.528005901967184
1708436293.5812995,-2.1421048641204834,-1.3335986745408555,-2.5264151732074183,6.111092078476705,1.0168476104736328,-2.5280404726611536
1708436293.5833004,-2.1420724391937256,-1.3335824024728318,-2.5264318625079554,6.111117708473959,1.0169016122817993,-2.5280194918261927
1708436293.5852978,-2.1420602798461914,-1.333644063477852,-2.526452604924337,6.111086475640096,1.0169017314910889,-2.528064791356222
1708436293.5873084,-2.1420514583587646,-1.3336072725108643,-2.5264318625079554,6.111092078476705,1.016893982887268,-2.528090302144186
1708436293.5893064,-2.1420514583587646,-1.3335781407407303,-2.5263944307910364,6.11108015754775,1.0169179439544678,-2.528113905583517
1708436293.5913079,-2.1420557498931885,-1.3336030405810853,-2.5264604727374476,6.111113297730245,1.0168927907943726,-2.528060261403219
1708436293.5933046,-2.1420769691467285,-1.3336646121791382,-2.526419703160421,6.111060845642843,1.0169553756713867,-2.528048340474264
1708436293.595297,-2.142117977142334,-1.333591030245163,-2.5264559427844446,6.1111042378242395,1.0168683528900146,-2.5280194918261927
1708436293.597307,-2.142139196395874,-1.3336318147233506,-2.5264273325549524,6.111051904946127,1.0168805122375488,-2.528055731450216
1708436293.5993037,-2.14211368560791,-1.333618940120079,-2.5264483133899134,6.111092078476705,1.0169180631637573,-2.52808124223818
1708436293.6012974,-2.142117977142334,-1.3336159002831955,-2.5264273325549524,6.111084568291464,1.0169135332107544,-2.528104845677511
1708436293.6033041,-2.142106533050537,-1.3336274933866044,-2.5264061133014124,6.111092078476705,1.0169342756271362,-2.528084103261129
1708436293.6052926,-2.1420774459838867,-1.3335868132165452,-2.5264483133899134,6.11103521564559,1.016909122467041,-2.528076712285177
1708436293.6073074,-2.1421022415161133,-1.3336072725108643,-2.5264692942248743,6.111051904946127,1.016921043395996,-2.528084103261129
1708436293.6093285,-2.1420769691467285,-1.3336355102113266,-2.5264766852008265,6.111105429917135,1.0168718099594116,-2.528064791356222
1708436293.6113126,-2.1420774459838867,-1.3336189550212403,-2.5264228026019495,6.111065256386556,1.0169121026992798,-2.528085772191183
1708436293.6133337,-2.1420602798461914,-1.333614559178688,-2.5264182726489466,6.111117589264669,1.016928791999817,-2.5280631224261683
1708436293.615331,-2.142061710357666,-1.3335910004428406,-2.5264437834369105,6.1110771773155115,1.016953945159912,-2.528043810521261
1708436293.6173174,-2.142073154449463,-1.333627463584282,-2.5264347235309046,6.111098158150472,1.0169540643692017,-2.528043810521261
1708436293.6193278,-2.142033100128174,-1.3335868132165452,-2.5264604727374476,6.111060845642843,1.016978144645691,-2.5280314127551478
1708436293.6213965,-2.1420860290527344,-1.3336115938476105,-2.5264318625079554,6.1110113737876794,1.0169525146484375,-2.528113905583517
1708436293.6233513,-2.142057418823242,-1.3335986596396943,-2.5264514128314417,6.111053097039022,1.016928791999817,-2.5280631224261683
1708436293.6253877,-2.142057418823242,-1.3336473566344758,-2.5264514128314417,6.111015784531393,1.016936182975769,-2.528076712285177
1708436293.6274393,-2.142059087753296,-1.3336317849210282,-2.5264559427844446,6.111041176110067,1.0169451236724854,-2.528064791356222
1708436293.6293259,-2.1420905590057373,-1.333598644738533,-2.526512686406271,6.1110278246696375,1.0169481039047241,-2.528060261403219
1708436293.631333,-2.1420984268188477,-1.3336159002831955,-2.5264182726489466,6.111003863602438,1.016978144645691,-2.528022352849142
1708436293.6333635,-2.142057418823242,-1.3335834604552765,-2.5264931360827845,6.111017334252157,1.0169273614883423,-2.5280795733081263
1708436293.6353207,-2.1420860290527344,-1.3336355102113266,-2.526479784642355,6.111017334252157,1.0169857740402222,-2.528039518986837
1708436293.6373277,-2.142061710357666,-1.3336159002831955,-2.5264437834369105,6.111032235413351,1.0169976949691772,-2.5281174818622034
1708436293.6393487,-2.142061710357666,-1.3336115938476105,-2.5264347235309046,6.111012923508444,1.0169976949691772,-2.528072182332174
1708436293.6413317,-2.142016649246216,-1.3335953515819092,-2.5264678637133997,6.111020314484396,1.0169646739959717,-2.5280960241900843
1708436293.6433651,-2.1420774459838867,-1.3336362105659028,-2.5264888445483606,6.110987174301901,1.0169481039047241,-2.5280795733081263
1708436293.645314,-2.14206600189209,-1.3336189550212403,-2.5264514128314417,6.110982763558187,1.0169813632965088,-2.528081003819601
1708436293.6473482,-2.142050266265869,-1.3335625541261216,-2.5264347235309046,6.111012923508444,1.0170066356658936,-2.5281248728381556
1708436293.649318,-2.142033576965332,-1.3336115938476105,-2.526442352925436,6.110991704254904,1.0169769525527954,-2.528104845677511
1708436293.6513062,-2.1420817375183105,-1.3336072576097031,-2.5264392534839075,6.110938536911764,1.0169932842254639,-2.528109375630514
1708436293.6533525,-2.142016649246216,-1.3336030405810853,-2.5264256636248987,6.110956179886617,1.016972541809082,-2.5281131903277796
1708436293.6553175,-2.1420531272888184,-1.3336440038732071,-2.5264347235309046,6.11099802234725,1.0169888734817505,-2.5280960241900843
1708436293.6573517,-2.1420905590057373,-1.3335668754628678,-2.526458803807394,6.11100064495162,1.0169932842254639,-2.5280585924731653
1708436293.6593175,-2.142005205154419,-1.333623157148697,-2.5264843145953577,6.11099802234725,1.0169769525527954,-2.528104845677511
1708436293.6613169,-2.142000913619995,-1.3335943234017869,-2.5264678637133997,6.110951769142904,1.017005205154419,-2.5281339327441614
1708436293.6633282,-2.1420416831970215,-1.3336231869510193,-2.526463333760397,6.110993492394247,1.016972541809082,-2.528088633214132
1708436293.6653352,-2.1420774459838867,-1.3336072725108643,-2.5264678637133997,6.1109022972877405,1.017021894454956,-2.528064791356222
1708436293.6673322,-2.142054557800293,-1.3336115789464493,-2.52649170557131,6.11099802234725,1.017005205154419,-2.5281294027911585
1708436293.6693523,-2.1419966220855713,-1.3336040389588852,-2.526499334965841,6.110920178681173,1.017042636871338,-2.5280795733081263
1708436293.6713212,-2.1420862674713135,-1.3336231720498581,-2.526482645665304,6.110944020539083,1.0170425176620483,-2.5280960241900843
1708436293.6733346,-2.142005205154419,-1.333599643116333,-2.5264723936664026,6.1109574911888025,1.017005205154419,-2.528095070515768
1708436293.675332,-2.142005205154419,-1.3335824471763154,-2.52651292482485,6.11090241649703,1.016972541809082,-2.5280914942370813
1708436293.6773555,-2.142037868499756,-1.3336614531329651,-2.5264468828784388,6.1109410403068445,1.0170173645019531,-2.5280869642840784
1708436293.679325,-2.1420297622680664,-1.333579109316208,-2.526508394871847,6.110953080445089,1.0170096158981323,-2.5280750433551233
1708436293.6813319,-2.1419973373413086,-1.3336115938476105,-2.526475254689352,6.11097418048934,1.0169843435287476,-2.5281739870654505
1708436293.6833487,-2.1420209407806396,-1.3336159002831955,-2.526475254689352,6.11091576793746,1.017000675201416,-2.5280631224261683
1708436293.685327,-2.1420297622680664,-1.3336318147233506,-2.5264514128314417,6.11089454868392,1.017005205154419,-2.5281410853015345
1708436293.687349,-2.1420140266418457,-1.3335996580174942,-2.526463333760397,6.110948550492086,1.017005205154419,-2.5281084219561976
1708436293.6893172,-2.1420140266418457,-1.3335258525661011,-2.52649170557131,6.110908019333639,1.0170261859893799,-2.5281084219561976
1708436293.6913183,-2.1420254707336426,-1.3335496050170441,-2.526503864918844,6.110943901329794,1.0170129537582397,-2.5280960241900843
1708436293.6933582,-2.1420834064483643,-1.3335996729186554,-2.526449743901388,6.110920297890463,1.017005205154419,-2.5281084219561976
1708436293.695341,-2.142033576965332,-1.3335791242173691,-2.52651292482485,6.1108916876609705,1.017021894454956,-2.528099600468771
1708436293.697346,-2.1419930458068848,-1.3336083453944703,-2.526421372090475,6.1109574911888025,1.017005205154419,-2.5281158129321497
1708436293.6993213,-2.1420254707336426,-1.3336362105659028,-2.526470724736349,6.11091576793746,1.017005205154419,-2.5280869642840784
1708436293.7013245,-2.1420254707336426,-1.3336231720498581,-2.52651292482485,6.11097418048934,1.017005205154419,-2.5281158129321497
1708436293.703345,-2.1420183181762695,-1.333620311026909,-2.5264678637133997,6.110912549286642,1.0170502662658691,-2.5280869642840784
1708436293.705317,-2.1420254707336426,-1.3335791689208527,-2.526508394871847,6.110978829651632,1.017005205154419,-2.5280960241900843
1708436293.7073355,-2.142042398452759,-1.333530069594719,-2.526433531438009,6.110936629563131,1.0169813632965088,-2.5280914942370813
1708436293.7093148,-2.1420183181762695,-1.3335431081107636,-2.5264573732959192,6.110896098404684,1.017005205154419,-2.5281129519092005
1708436293.7113125,-2.142031192779541,-1.3335582327893754,-2.526496235524313,6.110884296685018,1.0169888734817505,-2.5281038920031946
1708436293.7133138,-2.142026901245117,-1.3335878264955063,-2.5264843145953577,6.110884296685018,1.017021894454956,-2.5281367937671106
1708436293.7153223,-2.1420059204101562,-1.3335953515819092,-2.526503864918844,6.110916960030355,1.0169963836669922,-2.5281294027911585
1708436293.7173314,-2.1419806480407715,-1.3336126965335389,-2.526458803807394,6.110868203430929,1.016972541809082,-2.5281084219561976
1708436293.719343,-2.1419930458068848,-1.33358687282119,-2.526433531438009,6.110896217613973,1.017005205154419,-2.5280705134021204
1708436293.7213695,-2.1419763565063477,-1.3335463565639039,-2.526482645665304,6.110860335617819,1.0169514417648315,-2.5281129519092005
1708436293.723361,-2.1420140266418457,-1.333587796693184,-2.526515785847799,6.110872733383932,1.0169962644577026,-2.5280585924731653
1708436293.7253606,-2.1420340538024902,-1.333574802880623,-2.526454273854391,6.110897648125448,1.016984462738037,-2.5281038920031946
1708436293.727334,-2.1420297622680664,-1.333543137913086,-2.526433531438009,6.110890495568075,1.017000675201416,-2.528100554143087
1708436293.7293136,-2.14201021194458,-1.3335705709508439,-2.526463333760397,6.110888707428732,1.017054796218872,-2.528095070515768
1708436293.7312953,-2.1420016288757324,-1.3335506331971665,-2.526463333760397,6.1109139797981165,1.017005205154419,-2.5281458536731165
1708436293.7333195,-2.141964912414551,-1.3336289387992402,-2.526479784642355,6.110827553063192,1.017005205154419,-2.5280824343310755
1708436293.7353156,-2.1420183181762695,-1.3335953515819092,-2.526463333760397,6.1108529446418665,1.016972541809082,-2.5280960241900843
1708436293.7373292,-2.1419973373413086,-1.3336115640452881,-2.526479784642355,6.110811221390524,1.017054796218872,-2.5280912558185022
1708436293.7393122,-2.1419930458068848,-1.3335834306529541,-2.526499334965841,6.110779630928793,1.0169963836669922,-2.5280869642840784
1708436293.7413085,-2.1419849395751953,-1.3335953515819092,-2.526458803807394,6.11085461357192,1.0170592069625854,-2.5281084219561976
1708436293.7433167,-2.1419577598571777,-1.333566890364029,-2.526442352925436,6.110803472786703,1.017021894454956,-2.5281322638141077
1708436293.7452998,-2.1419930458068848,-1.3335178357413788,-2.526496235524313,6.11082016208724,1.0170425176620483,-2.5281084219561976
1708436293.7473195,-2.141993522644043,-1.3335506629994889,-2.526475254689352,6.110824572830953,1.016972541809082,-2.5281322638141077
1708436293.749336,-2.1420016288757324,-1.3336126518300553,-2.5264678637133997,6.110788571625509,1.017021894454956,-2.5281294027911585
1708436293.7513056,-2.1420183181762695,-1.3335474294475098,-2.526499334965841,6.110787021904745,1.0170382261276245,-2.5281174818622034
1708436293.7533097,-2.1420059204101562,-1.333579109316208,-2.52651292482485,6.110776650696554,1.0170140266418457,-2.5281458536731165
1708436293.7553158,-2.141989231109619,-1.3335550439408799,-2.526454273854391,6.110812413483419,1.0170173645019531,-2.5281203428851526
1708436293.75732,-2.1419763565063477,-1.3335755926421662,-2.526461664830343,6.110803472786703,1.0170096158981323,-2.5280659834491175
1708436293.7593172,-2.1419777870178223,-1.3336202812245865,-2.526475254689352,6.110790121346273,1.0170140266418457,-2.5281203428851526
1708436293.7613134,-2.1419806480407715,-1.3335582625916977,-2.526466194783346,6.110755789070883,1.017005205154419,-2.5280795733081263
1708436293.763313,-2.141989231109619,-1.3335668754628678,-2.526458803807394,6.110794532089987,1.0169932842254639,-2.5281294027911585
1708436293.7653074,-2.1419577598571777,-1.3335667860559006,-2.52649170557131,6.110706317215719,1.0170096158981323,-2.5280497709857386
1708436293.7673197,-2.1419734954833984,-1.3336040687612076,-2.52651292482485,6.110731947212972,1.0169726610183716,-2.5280705134021204
1708436293.7693179,-2.141993522644043,-1.3335496050170441,-2.526503864918844,6.1108155129249475,1.016972541809082,-2.5280750433551233
1708436293.7713096,-2.1419849395751953,-1.3335747879794617,-2.5264843145953577,6.11078559139327,1.0169888734817505,-2.528100554143087
1708436293.7733588,-2.141982078552246,-1.3335755926421662,-2.526442352925436,6.1107287285621545,1.0169681310653687,-2.5281084219561976
1708436293.7753122,-2.1419663429260254,-1.3336083900979538,-2.526503864918844,6.110782730370321,1.016972541809082,-2.5280869642840784
1708436293.7773352,-2.141993522644043,-1.3336040687612076,-2.526437822972433,6.110719787865438,1.0170021057128906,-2.528100554143087
1708436293.7793026,-2.1419777870178223,-1.3335668754628678,-2.526482645665304,6.11067961433486,1.0169976949691772,-2.5280914942370813
1708436293.7813034,-2.1419410705566406,-1.333620311026909,-2.5264304319964808,6.11067961433486,1.0170096158981323,-2.5280378500567835
1708436293.7833087,-2.141953945159912,-1.3336158406785508,-2.5264843145953577,6.110702025681295,1.0169646739959717,-2.5280960241900843
1708436293.785303,-2.141941547393799,-1.3335668754628678,-2.526383701954977,6.110713827400961,1.0170140266418457,-2.5280912558185022
1708436293.7873135,-2.141982078552246,-1.333575577741005,-2.526482645665304,6.110702025681295,1.0169559717178345,-2.528088633214132
1708436293.7893095,-2.141982078552246,-1.3335506331971665,-2.526496235524313,6.110709416657247,1.0169647932052612,-2.5280633608447474
1708436293.7913027,-2.1419663429260254,-1.3335755926421662,-2.526437822972433,6.110680806427755,1.0169514417648315,-2.5280914942370813
1708436293.7933106,-2.1419169902801514,-1.333510310654976,-2.526475254689352,6.110698687821188,1.016990303993225,-2.528088633214132
1708436293.795353,-2.1419453620910645,-1.3335755926421662,-2.526475254689352,6.11066900470809,1.0169813632965088,-2.528072182332174
1708436293.797339,-2.141921281814575,-1.3335506331971665,-2.5264843145953577,6.110631930619039,1.0169603824615479,-2.528088633214132
1708436293.799329,-2.141970634460449,-1.3335265529206772,-2.526421372090475,6.1106241820152185,1.0169769525527954,-2.5280540625201624
1708436293.801307,-2.1419670581817627,-1.3335843098214646,-2.5264888445483606,6.110673415451803,1.0169363021850586,-2.528064791356222
1708436293.8033373,-2.141932964324951,-1.3335388016751786,-2.526463333760397,6.110640990525045,1.0169692039489746,-2.5280349890338343
1708436293.8053176,-2.141937255859375,-1.333547444348671,-2.526449743901388,6.110661494522848,1.0169813632965088,-2.528060261403219
1708436293.807331,-2.1419503688812256,-1.333612636928894,-2.526458803807394,6.110591399460592,1.0169481039047241,-2.5280466715442103
1708436293.8093224,-2.141934394836426,-1.3335713011077424,-2.526479784642355,6.1106454012687585,1.0169363021850586,-2.528022352849142
1708436293.8113153,-2.141932964324951,-1.3335798990777512,-2.5264392534839075,6.110630142479696,1.0169692039489746,-2.528026882802145
1708436293.813364,-2.141913414001465,-1.333550603394844,-2.5264888445483606,6.110530125885763,1.0169436931610107,-2.528088633214132
1708436293.8153412,-2.141962766647339,-1.3335474294475098,-2.5263927618609827,6.11059735992507,1.0169858932495117,-2.528026882802145
1708436293.8173425,-2.1419177055358887,-1.3335885566524048,-2.5264559427844446,6.11059735992507,1.0169692039489746,-2.5280149618731897
1708436293.819343,-2.141913414001465,-1.3335474145463486,-2.526442352925436,6.110556947975912,1.0169570446014404,-2.528076712285177
1708436293.8213544,-2.1419546604156494,-1.333575577741005,-2.5264931360827845,6.11057339885787,1.0169614553451538,-2.527989689503805
1708436293.8233976,-2.141963243484497,-1.3335103702596207,-2.5264468828784388,6.11057339885787,1.016978144645691,-2.528102223073141
1708436293.8253996,-2.1419177055358887,-1.3335798990777512,-2.526487175618307,6.110524165421285,1.0169904232025146,-2.5280349890338343
1708436293.8274176,-2.141908884048462,-1.3335431230119248,-2.526503864918844,6.110488164215841,1.0169451236724854,-2.528048340474264
1708436293.8293297,-2.141885280609131,-1.3335878413966675,-2.526438061391012,6.110542046814718,1.0169737339019775,-2.528064791356222
1708436293.8313115,-2.1419177055358887,-1.3335308891585846,-2.526475254689352,6.110483753472128,1.0169570446014404,-2.5280948320971888
1708436293.8333604,-2.1418895721435547,-1.3335680824569245,-2.5264843145953577,6.110543596535482,1.0169658660888672,-2.5280149618731897
1708436293.8353004,-2.1418581008911133,-1.333575652246811,-2.5265005270587366,6.110476243286886,1.0169076919555664,-2.5280330816852015
1708436293.8373222,-2.1419010162353516,-1.3335388016751786,-2.5264678637133997,6.110527264862814,1.0169451236724854,-2.5280709902392786
1708436293.8393078,-2.141913890838623,-1.3335233640721817,-2.526508394871847,6.110530125885763,1.0169122219085693,-2.5280404726611536
1708436293.8413012,-2.141824722290039,-1.3335308742574234,-2.526442352925436,6.110530125885763,1.0168839693069458,-2.5280330816852015
1708436293.8433492,-2.1419010162353516,-1.3335593056729813,-2.526442352925436,6.110461342125692,1.0168958902359009,-2.528039518986837
1708436293.8453352,-2.1418542861938477,-1.3335431230119248,-2.5264273325549524,6.110435592919149,1.0168883800506592,-2.5279741922961634
1708436293.8473265,-2.1419053077697754,-1.3334898811629792,-2.5264843145953577,6.1104986546333215,1.0169135332107544,-2.5280619303332728
1708436293.8493104,-2.1418938636779785,-1.3335233491710206,-2.5264514128314417,6.110491263657369,1.0168839693069458,-2.5279906431781214
1708436293.851302,-2.141909599304199,-1.3335388016751786,-2.52640945116152,6.1104822037513635,1.0169464349746704,-2.52800423303713
1708436293.8533163,-2.141862630844116,-1.3335388463786622,-2.5264678637133997,6.1104256985481165,1.0168958902359009,-2.5280376116382044
1708436293.8553083,-2.1418752670288086,-1.3335103553584595,-2.5264766852008265,6.1104256985481165,1.0169298648834229,-2.5279458204852503
1708436293.8573356,-2.1418416500091553,-1.3335352700999756,-2.526508394871847,6.110437142639913,1.0168805122375488,-2.527971331273214
1708436293.8593178,-2.1418752670288086,-1.3335233491710206,-2.5264931360827845,6.110401499062338,1.016897201538086,-2.5279741922961634
1708436293.8613195,-2.1418333053588867,-1.3334941428950806,-2.5264843145953577,6.110450613289633,1.0169135332107544,-2.5279997030841272
1708436293.8633277,-2.1418709754943848,-1.333600865011551,-2.526442352925436,6.110441791802206,1.0168895721435547,-2.527947489415304
1708436293.8653295,-2.141850471496582,-1.3335395765355607,-2.5264468828784388,6.11038504818038,1.0168718099594116,-2.52794319788088
1708436293.8673525,-2.1418840885162354,-1.3335604679635544,-2.526479784642355,6.110392558365621,1.0168476104736328,-2.527954880391256
1708436293.8693342,-2.1418673992156982,-1.3335146319917222,-2.5264468828784388,6.110386597901144,1.0169342756271362,-2.528001133595602
1708436293.871345,-2.141854763031006,-1.3335146617940445,-2.5264347235309046,6.110374676972189,1.0168927907943726,-2.527975861226217
1708436293.8733532,-2.1418631076812744,-1.3335071218064805,-2.5264392534839075,6.110374676972189,1.0169298648834229,-2.52791935602297
1708436293.8753157,-2.1418304443359375,-1.333551825290062,-2.5264468828784388,6.11039565780715,1.016897201538086,-2.52794319788088
1708436293.8773444,-2.141854763031006,-1.3335233938745041,-2.526475254689352,6.110374676972189,1.0168718099594116,-2.5279772917376917
1708436293.8793063,-2.1418137550354004,-1.333520085816719,-2.5265007654773157,6.1103083966071985,1.0169180631637573,-2.527944628392355
1708436293.881316,-2.141839027404785,-1.333609403376915,-2.5264931360827845,6.110371458321371,1.0168927907943726,-2.5279820601092737
1708436293.8833528,-2.1418347358703613,-1.3335276705077668,-2.5264931360827845,6.110411989479818,1.0168927907943726,-2.5279727617846888
1708436293.885302,-2.1418142318725586,-1.3335146021893998,-2.5264931360827845,6.110329735070028,1.0168927907943726,-2.527935568486349
1708436293.8873386,-2.1417899131774902,-1.3335438531688233,-2.5264514128314417,6.110313045769491,1.0169179439544678,-2.5279110113727015
1708436293.8893154,-2.1418347358703613,-1.3335561615279694,-2.526487175618307,6.1103505966956995,1.0169017314910889,-2.527940098439352
1708436293.891337,-2.1417856216430664,-1.3335395616343995,-2.5264514128314417,6.110347616463461,1.0168728828430176,-2.5279157797442835
1708436293.893348,-2.1417899131774902,-1.3335028004697342,-2.5264468828784388,6.110338675766744,1.0169179439544678,-2.5279863516436976
1708436293.8953192,-2.1417856216430664,-1.3335689914277573,-2.5264843145953577,6.110352027207174,1.0169717073440552,-2.527864996586935
1708436293.8973413,-2.1417899131774902,-1.3334984493306656,-2.5265050570117396,6.110335337906637,1.0169135332107544,-2.5278857390033167
1708436293.8993227,-2.1418352127075195,-1.333523304467537,-2.526479784642355,6.1102731106574915,1.0169017314910889,-2.5279157797442835
1708436293.901311,-2.1418070793151855,-1.3335190278342743,-2.5264843145953577,6.11027883270339,1.016897201538086,-2.5279462973224085
1708436293.9033093,-2.141787052154541,-1.3335071367076416,-2.526479784642355,6.110332834511556,1.0169179439544678,-2.5279327074633997
1708436293.905318,-2.141749382019043,-1.3335041415742417,-2.5264843145953577,6.110287773400106,1.0168895721435547,-2.527875010167257
1708436293.9073071,-2.1418099403381348,-1.3335766804269333,-2.5264888445483606,6.110241400986471,1.0169105529785156,-2.5279067198382776
1708436293.909345,-2.141787052154541,-1.3334704053452988,-2.5264843145953577,6.110262381821432,1.0168895721435547,-2.5279083887683313
1708436293.911332,-2.1417789459228516,-1.3335233193686982,-2.5264301935779017,6.110250580101766,1.0168565511703491,-2.527870480214254
1708436293.9133544,-2.1417789459228516,-1.3334746819785614,-2.5264766852008265,6.110257851868429,1.0169017314910889,-2.5279038588153284
1708436293.9153032,-2.1418113708496094,-1.3335156750730057,-2.5264514128314417,6.110205518990316,1.0168639421463013,-2.5279129187213343
1708436293.917352,-2.1417746543884277,-1.3335353446057816,-2.5264256636248987,6.110266911774435,1.0169017314910889,-2.5278993288623255
1708436293.9193234,-2.1417956352233887,-1.3334983450225373,-2.5264559427844446,6.1102263806159876,1.0169135332107544,-2.527874771748678
1708436293.9213288,-2.1417622566223145,-1.33345419288192,-2.5264678637133997,6.110202896385946,1.0168895721435547,-2.527830425892965
1708436293.9234166,-2.1417579650878906,-1.3335114431432267,-2.5264347235309046,6.110263931542196,1.0168805122375488,-2.527837578450338
1708436293.9253178,-2.1417295932769775,-1.333515615468361,-2.526479784642355,6.1102144596870325,1.0168805122375488,-2.5278964678393763
1708436293.9273567,-2.1417622566223145,-1.3334997457316895,-2.5264559427844446,6.110214578896322,1.0169017314910889,-2.527858559285299
1708436293.929328,-2.141749382019043,-1.3334831905416031,-2.52649170557131,6.110227811127462,1.0168850421905518,-2.52787954012026
1708436293.9313014,-2.1418070793151855,-1.3334746372750779,-2.5264392534839075,6.110199916153707,1.0168805122375488,-2.5278049151050013
1708436293.9333842,-2.1417295932769775,-1.3334997457316895,-2.526479784642355,6.110239732056417,1.016876220703125,-2.527860228215353
1708436293.9353397,-2.1417384147644043,-1.3334911924651642,-2.526442352925436,6.110190975456991,1.0169061422348022,-2.527884070073263
1708436293.9373326,-2.1417253017425537,-1.3334584099105378,-2.526458803807394,6.110190975456991,1.0168805122375488,-2.527888361607687
1708436293.9393127,-2.141779661178589,-1.3334669482759018,-2.5264843145953577,6.110235321312704,1.016876220703125,-2.527867619191305
1708436293.9413083,-2.1417508125305176,-1.333504171376564,-2.5264843145953577,6.110216247826376,1.0168850421905518,-2.5278764406787317
1708436293.9433405,-2.1417295932769775,-1.3335405600121994,-2.526442352925436,6.110187756806173,1.0169061422348022,-2.527905527745382
1708436293.9453137,-2.1417622566223145,-1.3335199815085907,-2.5265005270587366,6.110181915550985,1.016897201538086,-2.527884070073263
1708436293.9473104,-2.141721725463867,-1.333471344118454,-2.526479784642355,6.110154974251547,1.0169641971588135,-2.527854029332296
1708436293.9493403,-2.141775369644165,-1.3335004907897492,-2.526437822972433,6.11015938499526,1.0169001817703247,-2.527863089238302
1708436293.9513044,-2.141730308532715,-1.3334422570518036,-2.5264843145953577,6.110171305924215,1.0168805122375488,-2.527863089238302
1708436293.953348,-2.1416735649108887,-1.3335362386754532,-2.5265050570117396,6.110151636391439,1.0168850421905518,-2.527900997792379
1708436293.955316,-2.141726016998291,-1.3335438978723069,-2.526475254689352,6.110175835877218,1.0169003009796143,-2.5278213659869593
1708436293.9573407,-2.1417508125305176,-1.3334955138019104,-2.526458803807394,6.110117423325338,1.0169179439544678,-2.527888361607687
1708436293.9593341,-2.141714572906494,-1.3335200262120743,-2.5264468828784388,6.1101053831870935,1.0168672800064087,-2.527905527745382
1708436293.9613402,-2.141721725463867,-1.333523304467537,-2.5264139811145228,6.110201108246603,1.016909122467041,-2.5278764406787317
1708436293.963328,-2.1416945457458496,-1.3335156750730057,-2.526463333760397,6.110098111420431,1.0169135332107544,-2.527884070073263
1708436293.9653153,-2.141726016998291,-1.3334627163461228,-2.5264888445483606,6.1101382849510095,1.0168927907943726,-2.527900997792379
1708436293.9673386,-2.1417384147644043,-1.3334756803563614,-2.5264256636248987,6.11015938499526,1.0169342756271362,-2.527834955845968
1708436293.9693546,-2.1417031288146973,-1.333519996409752,-2.5264182726489466,6.110093581467428,1.0169179439544678,-2.5279038588153284
1708436293.97131,-2.1417102813720703,-1.3334831607392807,-2.5264723936664026,6.110112893372335,1.016921043395996,-2.5278964678393763
1708436293.9733462,-2.1417555809020996,-1.333483175640442,-2.526496235524313,6.110151636391439,1.0169332027435303,-2.527863089238302
1708436293.9753294,-2.141714572906494,-1.3334421676448365,-2.526479784642355,6.11015938499526,1.0169122219085693,-2.527900997792379
1708436293.9773357,-2.1417388916015625,-1.333540604715683,-2.5265172163592737,6.110189187317648,1.0169122219085693,-2.527888361607687
1708436293.9793375,-2.14168643951416,-1.3334746372750779,-2.526458803807394,6.110144245415487,1.016921043395996,-2.527867619191305
1708436293.9813254,-2.14168643951416,-1.3334344786456604,-2.526454273854391,6.110111462860861,1.0169332027435303,-2.527867619191305
1708436293.9833674,-2.141690731048584,-1.3334912073663254,-2.526496235524313,6.110121953278341,1.016953945159912,-2.5278874079333704
1708436293.9853315,-2.1417102813720703,-1.333548129802086,-2.526479784642355,6.110114443093099,1.0169737339019775,-2.527938191090719
1708436293.9873247,-2.141711711883545,-1.3334713590196152,-2.526437822972433,6.11011158207015,1.0169481039047241,-2.527900997792379
1708436293.9893277,-2.141723155975342,-1.3335114282420655,-2.526496235524313,6.110105502396383,1.0169737339019775,-2.5278964678393763
1708436293.9913142,-2.141658067703247,-1.3335286986878891,-2.5264301935779017,6.110177266388693,1.0169451236724854,-2.527863089238302
1708436293.9933276,-2.141711711883545,-1.3334799867919465,-2.526463333760397,6.110193598061361,1.0169481039047241,-2.527910057698385
1708436293.9953341,-2.1416537761688232,-1.3335041415742417,-2.526433531438009,6.110107052117147,1.0169646739959717,-2.527872149144308
1708436293.997313,-2.1417031288146973,-1.3334875416806717,-2.5264678637133997,6.110130893975057,1.0169363021850586,-2.52787954012026
1708436293.999309,-2.141723155975342,-1.333471344118454,-2.526508394871847,6.110130893975057,1.0169932842254639,-2.5278964678393763
1708436294.0013094,-2.141669750213623,-1.333471344118454,-2.526487175618307,6.110177266388693,1.0169813632965088,-2.527846638356344
1708436294.0033197,-2.1416945457458496,-1.3335318875363846,-2.526487175618307,6.110177266388693,1.0170021057128906,-2.527888361607687
1708436294.0053053,-2.1417274475097656,-1.333455116753914,-2.5264301935779017,6.110144245415487,1.0169976949691772,-2.52787954012026
1708436294.007331,-2.141666889190674,-1.3334997457316895,-2.526499334965841,6.110118973046102,1.0169932842254639,-2.5278964678393763
1708436294.0093439,-2.141674041748047,-1.3334713590196152,-2.526496235524313,6.110102522164144,1.0169769525527954,-2.5278809706317347
1708436294.0113237,-2.141723155975342,-1.3334627759507676,-2.526482645665304,6.1100772497947595,1.016972541809082,-2.527842108403341
1708436294.0133631,-2.141665458679199,-1.3335276258042832,-2.526454273854391,6.110163914948263,1.0169769525527954,-2.52785569826235
1708436294.0153441,-2.141707420349121,-1.3334997308305283,-2.52651292482485,6.110102522164144,1.0169932842254639,-2.5278213659869593
1708436294.0173552,-2.14168643951416,-1.3334475022605439,-2.526449743901388,6.11010097244338,1.0170425176620483,-2.527900997792379
1708436294.0193245,-2.1417081356048584,-1.3334919226220627,-2.526520315800802,6.110163914948263,1.0169800519943237,-2.527851168309347
1708436294.02133,-2.1417031288146973,-1.3334713590196152,-2.526449743901388,6.110135304718771,1.0169800519943237,-2.5279129187213343
1708436294.0234246,-2.1417031288146973,-1.3334842932275315,-2.526499334965841,6.110130893975057,1.0170754194259644,-2.527863089238302
1708436294.0253582,-2.1416335105895996,-1.3335084927133103,-2.5265279451953333,6.110151636391439,1.017005205154419,-2.52792197862734
1708436294.0273502,-2.1416871547698975,-1.3335156601718445,-2.526466194783346,6.110127794533529,1.017021894454956,-2.527858559285299
1708436294.0293477,-2.141666889190674,-1.333471344118454,-2.526512686406271,6.110151636391439,1.017038106918335,-2.52787954012026
1708436294.0313232,-2.1417274475097656,-1.3334875863841553,-2.526511255894796,6.1101486561592,1.0169963836669922,-2.527830425892965
1708436294.033363,-2.141695022583008,-1.3334997308305283,-2.526503864918844,6.110098111420431,1.0170336961746216,-2.527825657521383
1708436294.035322,-2.141695022583008,-1.333454118376114,-2.526515785847799,6.110135304718771,1.017004132270813,-2.5278964678393763
1708436294.037334,-2.141662359237671,-1.3335041117719193,-2.5264692942248743,6.110154974251547,1.017004132270813,-2.527917448674337
1708436294.039325,-2.141723155975342,-1.3334911924651642,-2.5265188852893274,6.110151636391439,1.0170533657073975,-2.527846876774923
1708436294.0413501,-2.1417274475097656,-1.3334875863841553,-2.526548687611715,6.110115873604574,1.0170665979385376,-2.527905527745382
1708436294.043323,-2.141662359237671,-1.3334831905416031,-2.526548687611715,6.110118973046102,1.0170247554779053,-2.527905527745382
1708436294.045316,-2.1416995525360107,-1.3334997308305283,-2.5264902750598353,6.110114443093099,1.0170655250549316,-2.527842108403341
1708436294.0473356,-2.14168643951416,-1.3334464889815827,-2.5265443960772913,6.110095131188192,1.0170818567276,-2.527872149144308
1708436294.0493329,-2.1417038440704346,-1.333471344118454,-2.526511255894796,6.110098111420431,1.0171012878417969,-2.527827326451437
1708436294.051318,-2.1416828632354736,-1.3334334057620545,-2.526494805012838,6.110193598061361,1.0170804262161255,-2.527854029332296
1708436294.0533354,-2.1417081356048584,-1.3335200560143967,-2.5265324751483362,6.1101605770881555,1.017052412033081,-2.527854029332296
1708436294.0553114,-2.141662359237671,-1.3334918928197403,-2.5265517870532435,6.110139715462484,1.017064094543457,-2.527867619191305
1708436294.0573587,-2.1416335105895996,-1.3335041415742417,-2.5265279451953333,6.110156166344442,1.0171012878417969,-2.5278919378863733
1708436294.059337,-2.1416494846343994,-1.333459423189499,-2.5265591780291956,6.110118973046102,1.017118215560913,-2.527888361607687
1708436294.0613444,-2.1416995525360107,-1.3334746074727555,-2.5265188852893274,6.110114443093099,1.0171136856079102,-2.52785569826235
1708436294.0633347,-2.14164137840271,-1.3334832054427643,-2.5265188852893274,6.110156166344442,1.0171375274658203,-2.527888361607687
1708436294.065337,-2.1417274475097656,-1.3335200560143967,-2.5265710989581507,6.11007713058547,1.017146348953247,-2.527858559285299
1708436294.067394,-2.1417274475097656,-1.3334997457316895,-2.5265472571002405,6.110181677132406,1.0171167850494385,-2.527884070073263
1708436294.0693715,-2.141658067703247,-1.333491937523224,-2.5265262762652796,6.110115873604574,1.0171406269073486,-2.527863089238302
1708436294.0713382,-2.141666889190674,-1.333508462910988,-2.5265710989581507,6.110156166344442,1.0171661376953125,-2.52792197862734
1708436294.0733438,-2.141690731048584,-1.3334713739207764,-2.5265710989581507,6.11007713058547,1.0171910524368286,-2.527876679097311
1708436294.07533,-2.1416828632354736,-1.3334756803563614,-2.526562039052145,6.1101605770881555,1.0171483755111694,-2.527875010167257
1708436294.0773413,-2.1416828632354736,-1.3335362833789368,-2.526533905659811,6.1100772497947595,1.017176866531372,-2.527872149144308
1708436294.0833635,-2.141669750213623,-1.3335041415742417,-2.5265923182116907,6.110164987831869,1.017160177230835,-2.527884070073263
1708436294.085311,-2.1416988372802734,-1.3334680807641526,-2.526611868535177,6.110135304718771,1.017242431640625,-2.5278764406787317
1708436294.0873327,-2.1416537761688232,-1.3334756803563614,-2.526578728352682,6.110135304718771,1.0172590017318726,-2.527867619191305
1708436294.0893188,-2.141662359237671,-1.3334955138019104,-2.5265665690051478,6.110118853836813,1.0172336101531982,-2.52792197862734
1708436294.0913,-2.1416494846343994,-1.3334756952575226,-2.526599947606222,6.110151636391439,1.0172172784805298,-2.527813975011007
1708436294.093332,-2.141666889190674,-1.3335318875363846,-2.526602808629171,6.110147225647726,1.017214298248291,-2.527867619191305
1708436294.095317,-2.141695022583008,-1.3334800016931077,-2.526557509099142,6.110118973046102,1.0172665119171143,-2.527876679097311
1708436294.0973191,-2.141674041748047,-1.333508477812149,-2.5266266504870813,6.110201108246603,1.0172743797302246,-2.5278809706317347
1708436294.0993536,-2.141695022583008,-1.3335071069053193,-2.526548449193136,6.110142695694723,1.0172531604766846,-2.527876679097311
1708436294.1013186,-2.1417038440704346,-1.3334997457316895,-2.5265982786761683,6.110184776573934,1.0172654390335083,-2.527813975011007
1708436294.1033509,-2.1416871547698975,-1.3334713590196152,-2.5266147295581263,6.110189187317648,1.0172576904296875,-2.527860228215353
1708436294.1053236,-2.141690731048584,-1.3334997457316895,-2.526635710393087,6.110171305924215,1.0173265933990479,-2.52781850496401
1708436294.1073368,-2.14164137840271,-1.3334790033153077,-2.526619259511129,6.11018322685317,1.0172743797302246,-2.527839247380392
1708436294.1095679,-2.141695022583008,-1.3335041266730805,-2.526623789464132,6.1101921675498865,1.0172772407531738,-2.5278146902667444
1708436294.1117785,-2.141662359237671,-1.333478943710663,-2.5266597906695765,6.1101876375968835,1.0173027515411377,-2.527839247380392
1708436294.1133378,-2.1416544914245605,-1.3334756654552002,-2.5266101996051233,6.1101965782936,1.0173133611679077,-2.527822796498434
1708436294.1153867,-2.1416783332824707,-1.333430365925171,-2.5266221205340784,6.110226738243856,1.0173265933990479,-2.5278075377093714
1708436294.1173537,-2.141658067703247,-1.333524302845337,-2.5266760031329554,6.110156047135153,1.0172808170318604,-2.527788225804464
1708436294.1193337,-2.141662359237671,-1.3335156452706833,-2.5266132990466517,6.11018322685317,1.0173207521438599,-2.5277465025531214
1708436294.1213806,-2.141711711883545,-1.333496169453003,-2.5266597906695765,6.1101382849510095,1.017358422279358,-2.5277865568744105
1708436294.1234362,-2.141666889190674,-1.3334746819785614,-2.5265849272357386,6.110133754998007,1.0173088312149048,-2.52777344385256
1708436294.1253626,-2.141674041748047,-1.3335084182075043,-2.5266297499286097,6.110199796944418,1.0173207521438599,-2.5277400652514856
1708436294.1274097,-2.1416914463043213,-1.3335071367076416,-2.5266597906695765,6.11020444610671,1.0173245668411255,-2.5277283827411097
1708436294.1293676,-2.1417248249053955,-1.3334789735129853,-2.526695791875021,6.1101921675498865,1.0173451900482178,-2.527687374745504
1708436294.1313512,-2.141666889190674,-1.3334918779185791,-2.5266671816455286,6.110199916153707,1.0173659324645996,-2.527668062840597
1708436294.1333747,-2.141662359237671,-1.3334955436042328,-2.5266626516925257,6.110227811127462,1.0173988342285156,-2.5276272932635706
1708436294.135338,-2.141711711883545,-1.33347042024646,-2.526712242756979,6.110171305924215,1.0173944234848022,-2.5275841395007532
1708436294.1373703,-2.141669750213623,-1.3335524809411545,-2.526691261922018,6.110171305924215,1.0173945426940918,-2.5275593439685267
1708436294.1393332,-2.141620397567749,-1.3334997606328507,-2.526712242756979,6.110199916153707,1.0174095630645752,-2.5274608770953577
1708436294.1413271,-2.141707420349121,-1.3335352700999756,-2.526719633732931,6.110182034760275,1.0174140930175781,-2.527442518864767
1708436294.1433647,-2.141658067703247,-1.333548129802086,-2.526731793080465,6.1101653454597376,1.0173856019973755,-2.527421538029806
1708436294.1453242,-2.141662359237671,-1.3334911924651642,-2.526686731969015,6.110220777779379,1.0174469947814941,-2.5274232069598597
1708436294.14733,-2.1416828632354736,-1.3335318577340622,-2.526694122944967,6.110227811127462,1.017479658126831,-2.5273993651019495
1708436294.1493418,-2.141674041748047,-1.3335233491710206,-2.526727263127462,6.110214578896322,1.017433762550354,-2.527320925389425
1708436294.1513255,-2.141674041748047,-1.3334627759507676,-2.526727263127462,6.110257732659139,1.017466425895691,-2.527334276829855
1708436294.1533723,-2.14164137840271,-1.3335200411132355,-2.5267677942859095,6.1102263806159876,1.0174741744995117,-2.5273121039019983
1708436294.1553319,-2.141637086868286,-1.3334669482759018,-2.526736323033468,6.110227930336752,1.0174697637557983,-2.5272651354419153
1708436294.157396,-2.141666889190674,-1.333540604715683,-2.5267227331744593,6.110203015595236,1.0174951553344727,-2.5271807352649134
1708436294.1593437,-2.1416828632354736,-1.3334831607392807,-2.5267391840564173,6.110259401589193,1.0174907445907593,-2.5272441546069544
1708436294.161333,-2.141658067703247,-1.3334746372750779,-2.5267604033099573,6.1102521298225305,1.0175145864486694,-2.527140442525045
1708436294.1633847,-2.141718864440918,-1.333523378973343,-2.5267301241504114,6.110260951309957,1.0175223350524902,-2.527165953313009
1708436294.1653106,-2.141666889190674,-1.3335481149009247,-2.5267542044269007,6.110264050751486,1.0175548791885376,-2.5271030108081263
1708436294.1673274,-2.1416871547698975,-1.3335568618825455,-2.5267468134509485,6.110234129219808,1.0175548791885376,-2.5270655790912073
1708436294.1693203,-2.1417081356048584,-1.3335114282420655,-2.5267916361438196,6.11025499084548,1.0175583362579346,-2.527033869420187
1708436294.17131,-2.141695022583008,-1.3335439425757905,-2.5267751852618616,6.110229718476095,1.0175504684448242,-2.5269814173327845
1708436294.1733608,-2.1417038440704346,-1.333502785568573,-2.5268035570727747,6.110217439919271,1.0175868272781372,-2.5269575754748743
1708436294.1753252,-2.141695022583008,-1.333531917338707,-2.526778046284811,6.11026548126296,1.0175824165344238,-2.526935402547018
1708436294.1773353,-2.141645669937134,-1.3335395914367218,-2.52682334581484,6.110271322518148,1.0176153182983398,-2.5268612543689173
1708436294.179312,-2.141645669937134,-1.333539531832077,-2.526827875767843,6.110271441727438,1.0176438093185425,-2.5268383661853235
1708436294.1813476,-2.141658067703247,-1.3334997606328507,-2.5268307367907923,6.110250580101766,1.0176305770874023,-2.5267236868487757
1708436294.1833313,-2.1416501998901367,-1.3335481447032471,-2.526802364979879,6.110259520798483,1.0176424980163574,-2.5266645590411585
1708436294.18531,-2.141666889190674,-1.3335318726352234,-2.5268517176257532,6.110221850662985,1.0176753997802734,-2.526654068623678
1708436294.1873446,-2.1416544914245605,-1.3334997755340119,-2.5268681685077112,6.110234129219808,1.01767098903656,-2.5265589396106165
1708436294.1893282,-2.1416828632354736,-1.3335308891585846,-2.5268426577197474,6.110275852471151,1.017699122428894,-2.5264678637133997
1708436294.191327,-2.1416995525360107,-1.3334984493306656,-2.5268591086017054,6.11025499084548,1.0176740884780884,-2.526423994694845
1708436294.1933486,-2.1416711807250977,-1.333519072537758,-2.5268545786487024,6.110234129219808,1.0177147388458252,-2.526332203541891
1708436294.1953268,-2.1416220664978027,-1.3334912222674866,-2.5268755594836634,6.1103073237235925,1.017722249031067,-2.5262630621539515
1708436294.1973417,-2.1416501998901367,-1.3335635972074051,-2.526931111012594,6.110287773400106,1.0177385807037354,-2.5261624495135706
1708436294.1993353,-2.1416306495666504,-1.3335276556066056,-2.526902739201681,6.110234129219808,1.0177507400512695,-2.526099983845846
1708436294.201326,-2.141606330871582,-1.3335352700999756,-2.5269654432879847,6.110274302750387,1.017786979675293,-2.5260029474841517
1708436294.2033396,-2.1415982246398926,-1.3335071218064805,-2.526872460042135,6.110213029175558,1.0177826881408691,-2.5259063879596155
1708436294.2053156,-2.1415982246398926,-1.3335028153708954,-2.526935640965597,6.1103179333503626,1.0177944898605347,-2.5257602373706263
1708436294.2073457,-2.1416149139404297,-1.3335567873767395,-2.5269506613360804,6.110280382424154,1.0178393125534058,-2.525705401097433
1708436294.2093732,-2.1415858268737793,-1.3335233342698594,-2.5269339720355433,6.110217439919271,1.0179007053375244,-2.5255942980395716
1708436294.2113645,-2.1416149139404297,-1.3335276407054444,-2.5270047823535364,6.110246050148763,1.0179007053375244,-2.525461498891012
1708436294.2133605,-2.141611099243164,-1.3335134846023102,-2.5269866625415247,6.110246050148763,1.017894983291626,-2.5253451506244105
1708436294.2153358,-2.1415786743164062,-1.333507092004158,-2.5270076433764856,6.110208499222555,1.0178905725479126,-2.525212828313009
1708436294.2173333,-2.1415293216705322,-1.333584265117981,-2.5270403067218226,6.110320794373312,1.0179401636123657,-2.5250712076770228
1708436294.219356,-2.1415538787841797,-1.3335518401912232,-2.527052942906515,6.110246050148763,1.0179922580718994,-2.524914089833395
1708436294.2213132,-2.141591787338257,-1.3335395765355607,-2.527055803929464,6.110263931542196,1.0179756879806519,-2.5248118082629603
1708436294.2233737,-2.141587972640991,-1.3335233640721817,-2.5270586649524134,6.110317814141073,1.0179954767227173,-2.524642531071798
1708436294.2253551,-2.1415467262268066,-1.3335878264955063,-2.527072016392843,6.11025499084548,1.017991065979004,-2.5245052019702356
1708436294.2273483,-2.141571044921875,-1.3335233491710206,-2.5270825068103235,6.110287773400106,1.0180598497390747,-2.524324957524435
1708436294.229326,-2.1415228843688965,-1.3335506331971665,-2.5271320978747767,6.110221850662985,1.0180721282958984,-2.5242272059070032
1708436294.2313397,-2.141510486602783,-1.3335604232600708,-2.527073685322897,6.110283243447103,1.0180633068084717,-2.5240727106677454
1708436294.2333558,-2.1414709091186523,-1.333506019120552,-2.5271320978747767,6.110271322518148,1.0180916786193848,-2.523874346409933
1708436294.2353115,-2.1414833068847656,-1.333584265117981,-2.527163569127218,6.110243069916525,1.0181366205215454,-2.5236197153674524
1708436294.237325,-2.1414794921875,-1.3335103553584595,-2.527154509221212,6.1102144596870325,1.018164038658142,-2.5235019365893763
1708436294.239315,-2.1414356231689453,-1.33356365681205,-2.5271921793567103,6.110305654793539,1.0181552171707153,-2.5233143011676233
1708436294.2413056,-2.141496181488037,-1.3335886311582108,-2.5271695295916956,6.11019395568923,1.0182207822799683,-2.523083511983053
1708436294.243328,-2.141423225402832,-1.3335561615279694,-2.5272162596331995,6.110256540566244,1.018195629119873,-2.522846762334005
1708436294.2453392,-2.1414151191711426,-1.3335103553584595,-2.5272446314441126,6.110218989640035,1.0182241201400757,-2.5226262251483362
1708436294.2473266,-2.1413824558258057,-1.3335474294475098,-2.5272355715381067,6.1102099297340295,1.0182360410690308,-2.522459093724386
1708436294.2493103,-2.1413824558258057,-1.3335834306529541,-2.5272355715381067,6.110223400383749,1.018288254737854,-2.522209707890646
1708436294.251308,-2.14139986038208,-1.333559365277626,-2.527245823537008,6.110220777779379,1.018296480178833,-2.5219479242907923
1708436294.25332,-2.1414082050323486,-1.333559350376465,-2.5272367636310022,6.110133754998007,1.0183364152908325,-2.5217276255237024
1708436294.2553277,-2.1413674354553223,-1.333537833099701,-2.5272582213031214,6.1101382849510095,1.0183606147766113,-2.5215380827533167
1708436294.25733,-2.1413803100585938,-1.3335878264955063,-2.5272539297686976,6.110180365830221,1.0183805227279663,-2.5212929884540003
1708436294.2593176,-2.1413559913635254,-1.3335550439408799,-2.5273402372943323,6.110109913140096,1.0183836221694946,-2.5210276285754603
1708436294.2613125,-2.1413733959198,-1.33357127130542,-2.527339045201437,6.1101218340690515,1.018452525138855,-2.5207234064685267
1708436294.2633157,-2.141315460205078,-1.3335921180299302,-2.52738863626589,6.110086071282186,1.0184766054153442,-2.520405117665426
1708436294.2653127,-2.1412546634674072,-1.33357127130542,-2.527375046406881,6.110141265183248,1.018549919128418,-2.5201450029956263
1708436294.2673273,-2.141263484954834,-1.333559350376465,-2.5274036566363733,6.11002932766036,1.0185366868972778,-2.5198164621936243
1708436294.2693408,-2.1412835121154785,-1.3335431081107636,-2.5274322668658655,6.110038029938497,1.0186011791229248,-2.519491497670309
1708436294.2713187,-2.1412510871887207,-1.3335791242173691,-2.5274065176593226,6.110080110817709,1.0185638666152954,-2.519179169331686
1708436294.273321,-2.141235828399658,-1.3335953515819092,-2.527414147053854,6.110081660538473,1.0186045169830322,-2.5188496748553675
1708436294.2753358,-2.1412272453308105,-1.3335550290397187,-2.527491871510641,6.110027777939596,1.0186612606048584,-2.518571440373556
1708436294.277326,-2.141251564025879,-1.3335834306529541,-2.527487341557638,6.109966742783346,1.0186721086502075,-2.518238369618551
1708436294.2793171,-2.1411707401275635,-1.333546296959259,-2.527482811604635,6.109926211624899,1.0186796188354492,-2.517905298863546
1708436294.2813334,-2.1411995887756348,-1.333558277492859,-2.527520481740133,6.109944093018331,1.0187783241271973,-2.517629925404684
1708436294.2833204,-2.1411924362182617,-1.333562583928444,-2.5275400320636194,6.109915482788839,1.0187650918960571,-2.5172224680529993
1708436294.2853122,-2.1411967277526855,-1.3335668754628678,-2.5275099913226526,6.109879839211263,1.0188088417053223,-2.51682955423464
1708436294.2873433,-2.1411404609680176,-1.3336189550212403,-2.5275474230395716,6.109893190651693,1.0188417434692383,-2.516575638447897
1708436294.2893348,-2.1410911083221436,-1.3335868281177063,-2.527533833180563,6.109839546471395,1.0188567638397217,-2.5162251631366175
1708436294.2913218,-2.141115665435791,-1.3335996580174942,-2.527583662663595,6.109808075218954,1.0189093351364136,-2.5159109274493616
1708436294.2933261,-2.141071319580078,-1.3335878264955063,-2.527628485356466,6.109846699028768,1.018945336341858,-2.5155206362353724
1708436294.2953265,-2.141079902648926,-1.3336030554822464,-2.5276780764209192,6.109821545868673,1.0189785957336426,-2.5151103178607386
1708436294.2973282,-2.1410844326019287,-1.3336040389588852,-2.5275984446154993,6.109722840576925,1.019026279449463,-2.514700237904684
1708436294.2993138,-2.141084671020508,-1.333591030245163,-2.5276432673083704,6.109736192017355,1.0189965963363647,-2.514350239430563
1708436294.3013237,-2.141056537628174,-1.3336115789464493,-2.5276556650744837,6.109682547837057,1.0190820693969727,-2.5139086882220667
1708436294.303319,-2.1410679817199707,-1.333603025679924,-2.527724091206686,6.109707939415731,1.0190569162368774,-2.513528649006979
1708436294.3053172,-2.141036033630371,-1.3336274933866044,-2.527633253728048,6.109704959183492,1.0191466808319092,-2.5131123701678675
1708436294.3073177,-2.141000270843506,-1.3336397272399445,-2.5276809374438685,6.109706151276388,1.0191454887390137,-2.5126541296588343
1708436294.3093178,-2.141040325164795,-1.3336274784854432,-2.527689758931295,6.109682428627767,1.0191454887390137,-2.512217108403341
1708436294.3113189,-2.1409668922424316,-1.3336440187743683,-2.5277815500842493,6.109610903054037,1.0191770792007446,-2.5118125120746058
1708436294.3133316,-2.1409640312194824,-1.3336189550212403,-2.5277798811541956,6.109567272454061,1.0192174911499023,-2.5113590399371546
1708436294.3153133,-2.140984058380127,-1.3336115789464493,-2.5277679602252405,6.109634744911947,1.0192906856536865,-2.5109029451953333
1708436294.3173275,-2.1409926414489746,-1.3336189550212403,-2.5277753512011927,6.109540211945333,1.0192972421646118,-2.5104334990130823
1708436294.319352,-2.140944480895996,-1.3336189550212403,-2.527766291295187,6.109601604729452,1.0193674564361572,-2.5099435488330286
1708436294.3213036,-2.1409249305725098,-1.3335738343051453,-2.527785841618673,6.109588134079733,1.0193661451339722,-2.5094767252551478
1708436294.3233633,-2.140899419784546,-1.3336189550212403,-2.527773920689718,6.109595763474264,1.019406795501709,-2.5089789072619837
1708436294.3253727,-2.140864372253418,-1.3336225312999268,-2.5278382937060755,6.1095536825950525,1.0194264650344849,-2.5084355513202112
1708436294.3274727,-2.1408886909484863,-1.3335942935994645,-2.5278473536120813,6.109521257668295,1.0194339752197266,-2.5079432169543665
1708436294.329374,-2.140875816345215,-1.3336473119309922,-2.5278623739825647,6.1094716666038416,1.0194984674453735,-2.5074427763568323
1708436294.3313322,-2.1408519744873047,-1.3336102229407807,-2.5278881231891077,6.109530198365011,1.0195343494415283,-2.5069103876696985
1708436294.3333218,-2.140864849090576,-1.333667979841568,-2.527900044118063,6.1095313904579065,1.019546389579773,-2.506383482609884
1708436294.3353102,-2.140803337097168,-1.3336679500392457,-2.527877394353048,6.109451997071066,1.019590139389038,-2.5057831446277063
1708436294.33735,-2.1408538818359375,-1.3336711835912247,-2.527931276951925,6.109477746277609,1.0196142196655273,-2.505256001149313
1708436294.3393269,-2.1408329010009766,-1.3335781407407303,-2.5279510656939905,6.109416711121359,1.0196681022644043,-2.5047453085528772
1708436294.3413446,-2.1408205032348633,-1.3336517226747056,-2.527926746998922,6.109421121865072,1.0196338891983032,-2.504087511693136
1708436294.3434043,-2.1407556533813477,-1.3336592626622696,-2.5279510656939905,6.109389650612631,1.0196919441223145,-2.5035398642169397
1708436294.345345,-2.1407470703125,-1.3336387288621445,-2.5279510656939905,6.109405982285299,1.0197149515151978,-2.503000799809591
1708436294.3473294,-2.1408090591430664,-1.3336592626622696,-2.528019968663351,6.109459626465597,1.0197628736495972,-2.5024235884295862
1708436294.349317,-2.1407358646392822,-1.3335738343051453,-2.528019968663351,6.109360921173849,1.019770622253418,-2.5017157236682337
1708436294.3513212,-2.1407852172851562,-1.3336549562266846,-2.528015438710348,6.109386312752523,1.0197902917861938,-2.501078192387716
1708436294.3533375,-2.1407482624053955,-1.3336268079331894,-2.528018299733297,6.1094103930290125,1.0198591947555542,-2.5004900137530726
1708436294.3553202,-2.140798330307007,-1.3336344224265595,-2.5280228296863,6.109349119454183,1.0198547840118408,-2.4997904936419886
1708436294.3573499,-2.140777349472046,-1.3336712282947083,-2.5280543009387415,6.1093671200569055,1.0198864936828613,-2.4992056528674524
1708436294.3593159,-2.1407532691955566,-1.3336473417333146,-2.5280588308917444,6.109346139221945,1.0199114084243774,-2.4984903971301478
1708436294.3613095,-2.1407251358032227,-1.3336182099631806,-2.5280783812152308,6.109305965691366,1.019980788230896,-2.497857395802633
1708436294.363331,-2.140720844268799,-1.3336387288621445,-2.528090302144186,6.109298455506124,1.0200122594833374,-2.4971354643451136
1708436294.3653119,-2.140709400177002,-1.3336376559785386,-2.528111521397726,6.109342801361837,1.0199674367904663,-2.496476713811056
1708436294.3673215,-2.1407291889190674,-1.3336387288621445,-2.528163735066549,6.109339940338888,1.0199705362319946,-2.49585467973818
1708436294.3693514,-2.140702247619629,-1.3336797815612336,-2.528163735066549,6.109317528992452,1.0200682878494263,-2.4951353708850306
1708436294.3713157,-2.1406643390655518,-1.33368772388015,-2.5281382242785853,6.109277236252584,1.020063877105713,-2.494497601185934
1708436294.373356,-2.140648603439331,-1.3336462688497086,-2.5281806627856653,6.10930751541213,1.0201324224472046,-2.4937246481524866
1708436294.375317,-2.1406240463256836,-1.3336841774037858,-2.5281761328326624,6.109241473465719,1.0201116800308228,-2.4930530230151575
1708436294.3773477,-2.1406407356262207,-1.3336462688497086,-2.5282297770129603,6.109287845879354,1.0201716423034668,-2.49227744737734
1708436294.379324,-2.1406731605529785,-1.3336506497910996,-2.5282490889178675,6.109250533371725,1.020179271697998,-2.4915648142444056
1708436294.381316,-2.140657424926758,-1.3336387288621445,-2.528214756642477,6.109274375229635,1.0201717615127563,-2.4908438364612024
1708436294.3833234,-2.140657901763916,-1.3336592626622696,-2.5281999746905726,6.109238374024191,1.0202199220657349,-2.4901469389544886
1708436294.385344,-2.140657901763916,-1.3336635690978547,-2.5281909147845667,6.109253513603964,1.0202440023422241,-2.4894796053515833
1708436294.3873463,-2.1406168937683105,-1.3336704236320038,-2.528243366871969,6.109189259796896,1.0202966928482056,-2.4886885325061243
1708436294.3893173,-2.1405844688415527,-1.333683432345726,-2.528222147618429,6.109201061516561,1.020270824432373,-2.487943236027853
1708436294.3913136,-2.140622615814209,-1.333715872173645,-2.528226677571432,6.109189259796896,1.0202996730804443,-2.487141195927755
1708436294.3933513,-2.1406054496765137,-1.33368772388015,-2.5282133261310022,6.10921739318923,1.020328164100647,-2.4864330927478235
1708436294.3953323,-2.140622615814209,-1.3336790365031739,-2.5282629171954554,6.109144437104025,1.0203475952148438,-2.485609833394186
1708436294.3973222,-2.140573263168335,-1.3336592626622696,-2.5282629171954554,6.109215962677755,1.0202984809875488,-2.4848695437060755
1708436294.3993192,-2.140605926513672,-1.3336624813130875,-2.5282447973834437,6.109223472862997,1.0203553438186646,-2.484131638203756
1708436294.4013402,-2.140610456466675,-1.333711491232254,-2.5283244291888636,6.109141099243917,1.0204076766967773,-2.483431879674093
1708436294.403329,-2.1406023502349854,-1.33370395124469,-2.5282822291003626,6.1091534970100305,1.0203794240951538,-2.482690397893087
1708436294.4053357,-2.140568971633911,-1.333666892056801,-2.528310839329855,6.109223472862997,1.0204286575317383,-2.4819486776935022
1708436294.4073417,-2.1405820846557617,-1.3336711835912247,-2.528327290211813,6.109193789749899,1.020457148551941,-2.481175724660055
1708436294.409338,-2.140561103820801,-1.3336452704719086,-2.528334919606344,6.109180438309469,1.0204110145568848,-2.4804673830615442
1708436294.4113622,-2.1405529975891113,-1.3336581897786637,-2.5283318201648157,6.109178769379415,1.020451307296753,-2.4796486536609095
1708436294.4133568,-2.1405487060546875,-1.3336747300675889,-2.528313700352804,6.109136807709493,1.0204887390136719,-2.478872601185934
1708436294.4153655,-2.140517234802246,-1.333711491232254,-2.528384033833639,6.109187710076132,1.0205131769180298,-2.4780920187579554
1708436294.41739,-2.140532970428467,-1.333715872173645,-2.528379742299215,6.1091922400291345,1.0204843282699585,-2.4772983233081263
1708436294.4193332,-2.140532970428467,-1.3336704236320038,-2.5283377806292933,6.1091803191001794,1.0205577611923218,-2.4765318075763147
1708436294.4213195,-2.1405258178710938,-1.333682344560959,-2.5283826033221644,6.109124886780538,1.0204622745513916,-2.475739304219381
1708436294.4233744,-2.140561580657959,-1.333707184796669,-2.5283542315112513,6.1091099856193445,1.0204962491989136,-2.4749515692340296
1708436294.425379,-2.1405301094055176,-1.3336790365031739,-2.5283706823932093,6.109133708267965,1.0204998254776,-2.474117104207174
1708436294.4273841,-2.1405415534973145,-1.3336790365031739,-2.528381649647848,6.109126317292013,1.0204955339431763,-2.4732347170459192
1708436294.429339,-2.1404881477355957,-1.3336704236320038,-2.5284205118762415,6.109144198685446,1.020552158355713,-2.472495142613546
1708436294.4313395,-2.140561580657959,-1.3336704236320038,-2.5283690134631556,6.109151708870687,1.0205683708190918,-2.4716113249408167
1708436294.4333503,-2.1405258178710938,-1.333711491232254,-2.5283950010882776,6.109118926316061,1.0205762386322021,-2.4707751909839075
1708436294.4353337,-2.1405301094055176,-1.333694265489914,-2.5284398237811487,6.109190451889791,1.020585060119629,-2.4699490706073206
1708436294.437384,-2.1404924392700195,-1.333710492854454,-2.528397862111227,6.109093296318807,1.0205836296081543,-2.4691267649279993
1708436294.439335,-2.140472173690796,-1.333702878361084,-2.528409783040182,6.109093415528097,1.0206091403961182,-2.4682727495776575
