Eg3-git/Classifiers/Data Collection/u4/u4www2_ur3e_joint_states.csv
time,elbow_joint,shoulder_lift_joint,shoulder_pan_joint,wrist_1_joint,wrist_2_joint,wrist_3_joint
1708436498.2196577,-2.141913890838623,-1.3334158223918458,-2.5261109511004847,6.11019645908431,1.016347050666809,-2.70975906053652
1708436498.2216744,-2.1418709754943848,-1.3334694814733048,-2.5261109511004847,6.110151636391439,1.0163679122924805,-2.7097633520709437
1708436498.2236884,-2.1418416500091553,-1.3333997887424012,-2.5261314550982874,6.1101726172264,1.016347050666809,-2.7097764650927942
1708436498.2256377,-2.1418583393096924,-1.333371178512909,-2.526102368031637,6.110155927925863,1.0163604021072388,-2.7097676436053675
1708436498.227693,-2.14186692237854,-1.3334114265492936,-2.5261314550982874,6.110089528351583,1.0163307189941406,-2.709730927144186
1708436498.2296524,-2.1418416500091553,-1.3334086251309891,-2.526151482258932,6.110138404160299,1.0163352489471436,-2.7097471396075647
1708436498.231639,-2.141911029815674,-1.3334130507758637,-2.5261107126819056,6.1101146815116785,1.0163307189941406,-2.709780995045797
1708436498.2336915,-2.1418585777282715,-1.3334233325770875,-2.5261033217059534,6.110130893975057,1.0163588523864746,-2.7097676436053675
1708436498.2356446,-2.141829013824463,-1.3334158074906846,-2.526101891194479,6.110090720444479,1.0163723230361938,-2.709809128438131
1708436498.2376802,-2.141845941543579,-1.3333953630975266,-2.5261486212359827,6.110135304718771,1.0163979530334473,-2.7097838560687464
1708436498.2396376,-2.1418824195861816,-1.3333636981299897,-2.5261271635638636,6.110193359642782,1.0163559913635254,-2.7097471396075647
1708436498.2416365,-2.1419177055358887,-1.3333919656327744,-2.5261569658862513,6.110144006996908,1.0163559913635254,-2.709698502217428
1708436498.2437363,-2.1419179439544678,-1.3333874505809327,-2.526118580495016,6.1101428149040125,1.0163273811340332,-2.709797207509176
1708436498.2456603,-2.141824722290039,-1.3333998185447236,-2.5261107126819056,6.110184538155355,1.0163679122924805,-2.709730927144186
1708436498.2476294,-2.141862630844116,-1.3333800298026581,-2.5261061827289026,6.110126483231344,1.0163440704345703,-2.7097275892840784
1708436498.249631,-2.1418981552124023,-1.3334070456079026,-2.5261152426349085,6.110086428910055,1.0163352489471436,-2.709674660359518
1708436498.251648,-2.1418752670288086,-1.3333954078010102,-2.526135031376974,6.1100745079811,1.016339659690857,-2.7097070852862757
1708436498.2536712,-2.14186692237854,-1.3334484559348603,-2.5261405150042933,6.110130893975057,1.0163352489471436,-2.7097275892840784
1708436498.2556565,-2.14189076423645,-1.3333874952844162,-2.5261486212359827,6.110095131188192,1.0163185596466064,-2.709726635609762
1708436498.2576857,-2.141850233078003,-1.3334364754012604,-2.52614409128298,6.110095131188192,1.016339659690857,-2.709686581288473
1708436498.2596548,-2.1419222354888916,-1.3334113520434876,-2.5260942617999476,6.110084521561422,1.0163649320602417,-2.7097395102130335
1708436498.2616305,-2.141906499862671,-1.3333919805339356,-2.5261107126819056,6.1099727032478235,1.0163440704345703,-2.7097676436053675
1708436498.263655,-2.141902208328247,-1.333387480383255,-2.5261362234698694,6.110035288124838,1.0163440704345703,-2.709690872822897
1708436498.265638,-2.141902208328247,-1.3333831590465088,-2.5261061827289026,6.110093223839559,1.0163273811340332,-2.7097037474261683
1708436498.2676294,-2.141862630844116,-1.3333698970130463,-2.526172463093893,6.110030877381124,1.0163649320602417,-2.7097438017474573
1708436498.269638,-2.141902208328247,-1.3333756488612671,-2.5261107126819056,6.110047209053793,1.0163604021072388,-2.7097232977496546
1708436498.2716558,-2.141878128051758,-1.3334498268416901,-2.5260732809649866,6.110085832863607,1.0163066387176514,-2.7096875349627894
1708436498.2736762,-2.141878128051758,-1.3334409904531022,-2.5261123816119593,6.110060441284933,1.0163319110870361,-2.709686581288473
1708436498.275626,-2.141902208328247,-1.3333998185447236,-2.5261033217059534,6.110027777939596,1.0163649320602417,-2.709662739430563
1708436498.277648,-2.1418709754943848,-1.3334041249803086,-2.5261316935168665,6.110023367195883,1.0163846015930176,-2.7097156683551233
1708436498.279661,-2.1418709754943848,-1.3334617179683228,-2.526135031376974,6.110007154732504,1.0163140296936035,-2.7096670309649866
1708436498.281628,-2.141862630844116,-1.3334041398814698,-2.5261486212359827,6.110003697663107,1.0163440704345703,-2.7096994558917444
1708436498.2836392,-2.1418981552124023,-1.3334114116481324,-2.5261486212359827,6.109999286919393,1.0163649320602417,-2.709658686314718
1708436498.2856803,-2.141878128051758,-1.3334246289781113,-2.5261271635638636,6.110024678498068,1.016339659690857,-2.7097037474261683
1708436498.2876525,-2.14186692237854,-1.333440975551941,-2.5261226336108606,6.110027777939596,1.0163273811340332,-2.7096832434283655
1708436498.289641,-2.1419222354888916,-1.3333787483027955,-2.5261107126819056,6.110060322075643,1.0163559913635254,-2.7096670309649866
1708436498.2916338,-2.1418416500091553,-1.3334607046893616,-2.5261226336108606,6.10998164394454,1.0163767337799072,-2.7096756140338343
1708436498.293652,-2.141885280609131,-1.3333954525044938,-2.5261316935168665,6.1100889323051355,1.0163110494613647,-2.709637467061178
1708436498.2956345,-2.141862630844116,-1.3334277433208008,-2.5261107126819056,6.10999487617568,1.0163319110870361,-2.7096951643573206
1708436498.2976723,-2.1418542861938477,-1.3334246140769501,-2.5261226336108606,6.110023367195883,1.0163649320602417,-2.709658686314718
1708436498.2996638,-2.141829013824463,-1.3333919954350968,-2.5260942617999476,6.110024678498068,1.0163229703903198,-2.7096951643573206
1708436498.3016427,-2.141911029815674,-1.3333831888488312,-2.5261197725879114,6.110047209053793,1.016339659690857,-2.709691826497213
1708436498.30364,-2.1418585777282715,-1.3334440749934693,-2.5261152426349085,6.11006377914504,1.016339659690857,-2.709658447896139
1708436498.3056324,-2.1418631076812744,-1.333413065677025,-2.5261531511889856,6.110060322075643,1.0163737535476685,-2.7096832434283655
1708436498.3076928,-2.1418583393096924,-1.3334188026240845,-2.526160542164938,6.110027777939596,1.0163559913635254,-2.709658686314718
1708436498.3097012,-2.1418752670288086,-1.3334246140769501,-2.5261107126819056,6.110068189888754,1.0163812637329102,-2.709658447896139
1708436498.3116982,-2.1418709754943848,-1.3334201288274308,-2.526160542164938,6.110048401146688,1.0163352489471436,-2.709700886403219
1708436498.313649,-2.141845941543579,-1.3334364754012604,-2.5261152426349085,6.110047209053793,1.0163319110870361,-2.709658686314718
1708436498.31564,-2.14186692237854,-1.333362342124321,-2.5261362234698694,6.110047089844503,1.0163604021072388,-2.709691826497213
1708436498.3176794,-2.141902208328247,-1.333460734491684,-2.526139561329977,6.110109555512228,1.0163486003875732,-2.709658686314718
1708436498.3196363,-2.1418416500091553,-1.3334233474782486,-2.526130501423971,6.110042798310079,1.0163229703903198,-2.709663216267721
1708436498.321637,-2.1418895721435547,-1.3333668273738404,-2.5261226336108606,6.110051619797506,1.0163273811340332,-2.709700886403219
1708436498.323637,-2.14186692237854,-1.3333998334458848,-2.5261061827289026,6.110044109612264,1.0163856744766235,-2.709667746220724
1708436498.3256497,-2.1418583393096924,-1.3334440302899857,-2.5261648336993616,6.110035288124838,1.0163273811340332,-2.709646288548605
1708436498.3276546,-2.1419262886047363,-1.3333756637624283,-2.5261316935168665,6.110059368401327,1.0163486003875732,-2.7096875349627894
1708436498.3296714,-2.1418864727020264,-1.3334086400321503,-2.5261197725879114,6.110064732819357,1.0162992477416992,-2.709712568913595
1708436498.3316624,-2.1418709754943848,-1.333371178512909,-2.5261693636523646,6.1100560305412195,1.0163440704345703,-2.709691826497213
1708436498.3336399,-2.1418709754943848,-1.3334201288274308,-2.52614409128298,6.110030877381124,1.0163363218307495,-2.709708038960592
1708436498.3356311,-2.1418373584747314,-1.3333787781051178,-2.5261316935168665,6.110109555512228,1.016339659690857,-2.709633175526754
1708436498.3376331,-2.14186692237854,-1.333407000904419,-2.5261152426349085,6.110030877381124,1.0163273811340332,-2.709634606038229
1708436498.3396366,-2.1419267654418945,-1.3333756637624283,-2.526113573704855,6.110048520355978,1.0163319110870361,-2.7096875349627894
1708436498.3416436,-2.141895294189453,-1.3334069711020966,-2.5260987917529505,6.109999286919393,1.0163273811340332,-2.709641758595602
1708436498.3436458,-2.1418216228485107,-1.3333998334458848,-2.5261152426349085,6.110035288124838,1.016357421875,-2.709684435521261
1708436498.3456604,-2.1418752670288086,-1.333384470348694,-2.5261152426349085,6.110032188683309,1.0163363218307495,-2.7096543947802942
1708436498.3476355,-2.1419179439544678,-1.333436445598938,-2.5261078516589563,6.110068309098043,1.0163036584854126,-2.709658686314718
1708436498.3496273,-2.14186692237854,-1.3334233325770875,-2.5261316935168665,6.110048401146688,1.0162992477416992,-2.709667746220724
1708436498.351625,-2.1418824195861816,-1.3333668273738404,-2.5261738936053675,6.110035288124838,1.016282558441162,-2.709700886403219
1708436498.3536286,-2.1418752670288086,-1.3333919805339356,-2.5261226336108606,6.109986054688253,1.0163289308547974,-2.709712568913595
1708436498.3556364,-2.14189076423645,-1.3334484857371827,-2.526068989430563,6.110005843430319,1.016340732574463,-2.7096543947802942
1708436498.3576412,-2.1418631076812744,-1.3333919805339356,-2.5261362234698694,6.110084521561422,1.0162992477416992,-2.709663216267721
1708436498.3596423,-2.14189076423645,-1.3334114265492936,-2.5260868708239954,6.110051619797506,1.0163110494613647,-2.709719959889547
1708436498.361627,-2.141845941543579,-1.3334114116481324,-2.5261362234698694,6.110010134964742,1.0163663625717163,-2.709717098866598
1708436498.3636289,-2.1419267654418945,-1.3334086400321503,-2.5260942617999476,6.110038387566366,1.0162736177444458,-2.7096126715289515
1708436498.3656273,-2.1418585777282715,-1.3334130507758637,-2.5261362234698694,6.1100560305412195,1.0162992477416992,-2.709663216267721
1708436498.36763,-2.141862630844116,-1.3333756041577836,-2.526172463093893,6.110027777939596,1.0162913799285889,-2.7096756140338343
1708436498.3696237,-2.141873836517334,-1.3334364754012604,-2.5261405150042933,6.110035288124838,1.0162869691848755,-2.70968467393984
1708436498.3716466,-2.141817569732666,-1.3333998185447236,-2.526128594075338,6.110039698868551,1.016282558441162,-2.7096713224994105
1708436498.3736658,-2.1418416500091553,-1.3334364605000992,-2.5261061827289026,6.110039698868551,1.0163036584854126,-2.7096875349627894
1708436498.3756504,-2.1418895721435547,-1.333387480383255,-2.5261033217059534,6.110044109612264,1.0162913799285889,-2.7096713224994105
1708436498.3776793,-2.1418864727020264,-1.333362416630127,-2.5260661284076136,6.110081422119894,1.0163363218307495,-2.7096543947802942
1708436498.379652,-2.1418585777282715,-1.3333874952844162,-2.5261316935168665,6.11000274398879,1.016319990158081,-2.709646288548605
1708436498.3816533,-2.141796588897705,-1.333439664249756,-2.5260568300830286,6.110068189888754,1.0163244009017944,-2.7096713224994105
1708436498.383684,-2.141911029815674,-1.3334321540645142,-2.5261226336108606,6.1100560305412195,1.0163155794143677,-2.709700886403219
1708436498.3856573,-2.1418631076812744,-1.3333845001510163,-2.5260987917529505,6.110068189888754,1.016319990158081,-2.709696356450216
1708436498.387691,-2.1418542861938477,-1.333445356493332,-2.5261123816119593,6.110019075661459,1.0162959098815918,-2.709691826497213
1708436498.3896518,-2.14186692237854,-1.3333919805339356,-2.5261152426349085,6.110072600632467,1.0162837505340576,-2.7096543947802942
1708436498.3916662,-2.141902208328247,-1.3334086400321503,-2.5261107126819056,6.1100560305412195,1.0162495374679565,-2.7096288839923304
1708436498.3936632,-2.1418752670288086,-1.3334114116481324,-2.5261226336108606,6.1100560305412195,1.0163004398345947,-2.709634606038229
1708436498.3956356,-2.1418895721435547,-1.3334321242621918,-2.5261405150042933,6.110064732819357,1.0163215398788452,-2.7096720377551478
1708436498.3976464,-2.1418981552124023,-1.3333711487105866,-2.5260780493365687,6.109986054688253,1.0163496732711792,-2.709630076085226
1708436498.3996384,-2.1418709754943848,-1.333396391277649,-2.5261362234698694,6.1100560305412195,1.0163289308547974,-2.709680143986837
1708436498.4016483,-2.141845941543579,-1.3333954078010102,-2.5260615984546106,6.110030877381124,1.0163289308547974,-2.709684435521261
1708436498.403677,-2.1418864727020264,-1.3334364754012604,-2.5261197725879114,6.110039698868551,1.0163289308547974,-2.709641758595602
1708436498.405639,-2.1419179439544678,-1.3334246140769501,-2.5261243025409144,6.11005066612319,1.0163497924804688,-2.709646288548605
1708436498.407645,-2.1418709754943848,-1.333417461519577,-2.5261016527758997,6.110051619797506,1.016312599182129,-2.709700886403219
1708436498.4096556,-2.1418631076812744,-1.3334201288274308,-2.5260794798480433,6.11006926277236,1.0162792205810547,-2.7096875349627894
1708436498.41179,-2.1418333053588867,-1.3333593171885987,-2.5261033217059534,6.110072600632467,1.0162718296051025,-2.7096756140338343
1708436498.4137692,-2.1418373584747314,-1.3333548170379181,-2.5261033217059534,6.110051619797506,1.0163004398345947,-2.709658686314718
1708436498.4156592,-2.1418752670288086,-1.3333831590465088,-2.5260704199420374,6.110030877381124,1.016312599182129,-2.7096508185016077
1708436498.417659,-2.1418864727020264,-1.3333910417607804,-2.5261107126819056,6.110014545708456,1.0162465572357178,-2.709700886403219
1708436498.4196396,-2.1418216228485107,-1.3334041398814698,-2.5261078516589563,6.110068189888754,1.0162583589553833,-2.709717098866598
1708436498.4216356,-2.141906499862671,-1.3334364754012604,-2.5261197725879114,6.1100560305412195,1.0163170099258423,-2.7096501032458704
1708436498.4236717,-2.1418416500091553,-1.3334290248206635,-2.5260942617999476,6.110068189888754,1.0162913799285889,-2.709658686314718
1708436498.4256337,-2.141902208328247,-1.3334174317172547,-2.5261107126819056,6.110039698868551,1.0163214206695557,-2.709667746220724
1708436498.4276304,-2.1418583393096924,-1.3333831590465088,-2.5260823408709925,6.110047209053793,1.0163244009017944,-2.7096551100360315
1708436498.429751,-2.141892671585083,-1.3334130507758637,-2.5261197725879114,6.110030877381124,1.0163378715515137,-2.7096474806415003
1708436498.4316723,-2.1418752670288086,-1.3333593171885987,-2.5261362234698694,6.110035288124838,1.0163333415985107,-2.709667746220724
1708436498.433642,-2.1418542861938477,-1.3334321689656754,-2.5261243025409144,6.11007701137618,1.0163171291351318,-2.70974046388735
1708436498.4356391,-2.1418709754943848,-1.333374337559082,-2.5261197725879114,6.110035288124838,1.016312599182129,-2.709708038960592
1708436498.437635,-2.1418673992156982,-1.3333998185447236,-2.5260823408709925,6.110064732819357,1.016308069229126,-2.709705177937643
1708436498.4396431,-2.141862630844116,-1.3333756488612671,-2.5260987917529505,6.110051619797506,1.016308069229126,-2.709641758595602
1708436498.44164,-2.14189076423645,-1.3333668273738404,-2.5261152426349085,6.1100560305412195,1.0162869691848755,-2.709712568913595
1708436498.4436321,-2.1418416500091553,-1.3334041398814698,-2.526128594075338,6.110019075661459,1.0162959098815918,-2.709696356450216
1708436498.445655,-2.1418373584747314,-1.3334041398814698,-2.5260749498950403,6.110032188683309,1.0162628889083862,-2.709696356450216
1708436498.4476388,-2.141902208328247,-1.3334008020213624,-2.5260914007769983,6.110048401146688,1.0162913799285889,-2.7096756140338343
1708436498.449646,-2.1418631076812744,-1.3334617179683228,-2.5261033217059534,6.110032188683309,1.016282558441162,-2.709637467061178
1708436498.4516354,-2.1418371200561523,-1.333417461519577,-2.5260987917529505,6.110039698868551,1.0163378715515137,-2.7096756140338343
1708436498.4536629,-2.1418631076812744,-1.3333874952844162,-2.5261197725879114,6.11006377914504,1.016304850578308,-2.709646288548605
1708436498.455662,-2.1418259143829346,-1.3334114265492936,-2.5260661284076136,6.11006377914504,1.0163004398345947,-2.709712568913595
1708436498.4576373,-2.141829013824463,-1.3333580058864136,-2.5261152426349085,6.1100560305412195,1.0163004398345947,-2.709637467061178
1708436498.45964,-2.1418416500091553,-1.3334086251309891,-2.5261152426349085,6.1100114462669275,1.0162869691848755,-2.7096789518939417
1708436498.4616427,-2.141906499862671,-1.3334321540645142,-2.5261316935168665,6.110060322075643,1.0162959098815918,-2.709724251423971
1708436498.4636283,-2.1418585777282715,-1.3333756488612671,-2.5260987917529505,6.110042798310079,1.0163289308547974,-2.709630076085226
1708436498.4656358,-2.141850233078003,-1.3333756637624283,-2.5261240641223353,6.110081422119894,1.0162510871887207,-2.7096875349627894
1708436498.4676487,-2.1418864727020264,-1.3334041398814698,-2.5260794798480433,6.110105263977804,1.0162869691848755,-2.7096543947802942
1708436498.469689,-2.141845703125,-1.3334246140769501,-2.5260704199420374,6.110039698868551,1.016312599182129,-2.7096670309649866
1708436498.4716647,-2.1418542861938477,-1.333440975551941,-2.5260914007769983,6.110039698868551,1.016325831413269,-2.709696356450216
1708436498.4736567,-2.1418416500091553,-1.333387480383255,-2.5260987917529505,6.110023486405172,1.016308069229126,-2.709696356450216
1708436498.475646,-2.1418373584747314,-1.333342657690384,-2.5260661284076136,6.110100734024801,1.0163333415985107,-2.709712568913595
1708436498.4776652,-2.1418709754943848,-1.3334041398814698,-2.5260959307300013,6.110048401146688,1.0163170099258423,-2.7096832434283655
1708436498.4796517,-2.1418631076812744,-1.3334041398814698,-2.5261078516589563,6.110023367195883,1.016288161277771,-2.709719959889547
1708436498.4816744,-2.1418304443359375,-1.3333548170379181,-2.5261362234698694,6.109993803292074,1.0162628889083862,-2.7097037474261683
1708436498.4836445,-2.1418585777282715,-1.333396391277649,-2.5260658899890345,6.109998214035787,1.0163171291351318,-2.7097318808185022
1708436498.4856434,-2.141895294189453,-1.3333919805339356,-2.5260823408709925,6.110044109612264,1.0163004398345947,-2.7096713224994105
1708436498.4876556,-2.1418137550354004,-1.333436445598938,-2.5260780493365687,6.110039698868551,1.016312599182129,-2.7097318808185022
1708436498.4896367,-2.141817569732666,-1.3333416742137452,-2.5260749498950403,6.110080110817709,1.0162925720214844,-2.7097156683551233
1708436498.4916654,-2.1418542861938477,-1.3334158223918458,-2.5261033217059534,6.110081422119894,1.0162913799285889,-2.7097037474261683
1708436498.4936297,-2.1418259143829346,-1.3334041398814698,-2.5260749498950403,6.110030877381124,1.0163333415985107,-2.7096994558917444
1708436498.4956527,-2.141850471496582,-1.3334130209735413,-2.5261197725879114,6.110014545708456,1.0162992477416992,-2.709690872822897
1708436498.4976451,-2.141850471496582,-1.333371178512909,-2.5260794798480433,6.110023367195883,1.016308069229126,-2.7096951643573206
1708436498.499629,-2.1418373584747314,-1.3333919805339356,-2.5261243025409144,6.1099904654319666,1.0163451433181763,-2.7096789518939417
1708436498.5016282,-2.1418333053588867,-1.3334086400321503,-2.5261316935168665,6.110068189888754,1.0162465572357178,-2.7096458117114466
1708436498.5036275,-2.1418333053588867,-1.333440975551941,-2.5260451475726526,6.110015857010641,1.0163036584854126,-2.70966607729067
1708436498.5056403,-2.1418347358703613,-1.3333711487105866,-2.5260868708239954,6.110068189888754,1.016340732574463,-2.7096832434283655
1708436498.5076332,-2.1418585777282715,-1.3334484857371827,-2.5260661284076136,6.1100114462669275,1.0163363218307495,-2.709690872822897
1708436498.5096734,-2.1418304443359375,-1.3333593171885987,-2.5260704199420374,6.110042798310079,1.016308069229126,-2.709724251423971
1708436498.5117552,-2.1418347358703613,-1.333440975551941,-2.5261033217059534,6.11006377914504,1.0162748098373413,-2.7097070852862757
1708436498.5137892,-2.1418673992156982,-1.3333998185447236,-2.526128594075338,6.110005724221029,1.0163289308547974,-2.709691826497213
1708436498.5156684,-2.1418137550354004,-1.333440975551941,-2.5261362234698694,6.110023367195883,1.016340732574463,-2.7097156683551233
1708436498.5176663,-2.1418864727020264,-1.3334334206632157,-2.5261243025409144,6.110068189888754,1.016357421875,-2.7097190062152308
1708436498.5196438,-2.141850471496582,-1.3334130507758637,-2.5261405150042933,6.110060322075643,1.0163244009017944,-2.7097352186786097
1708436498.5216396,-2.1418373584747314,-1.3333338362029572,-2.5261197725879114,6.110072600632467,1.0162869691848755,-2.709686581288473
1708436498.5236557,-2.141843318939209,-1.3334041398814698,-2.5260823408709925,6.11000274398879,1.016308069229126,-2.7097395102130335
1708436498.5256732,-2.1418092250823975,-1.3334527772716065,-2.5260868708239954,6.110060322075643,1.0163155794143677,-2.7097232977496546
1708436498.5276792,-2.141818046569824,-1.3333787483027955,-2.5261574427234095,6.110044109612264,1.0163363218307495,-2.7097232977496546
1708436498.5296414,-2.141854763031006,-1.3334114116481324,-2.5260823408709925,6.1099904654319666,1.0162913799285889,-2.709686581288473
1708436498.5316691,-2.141818046569824,-1.3333874952844162,-2.5261152426349085,6.110007154732504,1.016319990158081,-2.7097471396075647
1708436498.533654,-2.1418099403381348,-1.3334573072246094,-2.5261243025409144,6.110035288124838,1.0163486003875732,-2.7097232977496546
1708436498.535641,-2.1417970657348633,-1.3333514791778107,-2.526128594075338,6.1100114462669275,1.0163155794143677,-2.7097352186786097
1708436498.5376787,-2.141794204711914,-1.3334086400321503,-2.5261152426349085,6.11000274398879,1.0163363218307495,-2.7097514311419886
1708436498.5396464,-2.141818046569824,-1.333387480383255,-2.5261033217059534,6.110081422119894,1.0163319110870361,-2.709730927144186
1708436498.5416365,-2.1418185234069824,-1.333362416630127,-2.5261123816119593,6.110039698868551,1.0163486003875732,-2.709797207509176
1708436498.5436468,-2.141826629638672,-1.333387480383255,-2.5261243025409144,6.1100114462669275,1.0163273811340332,-2.7098014990436
1708436498.5456467,-2.1418099403381348,-1.333396391277649,-2.5261243025409144,6.110027777939596,1.0163319110870361,-2.709738079701559
1708436498.5476577,-2.141822338104248,-1.333350495701172,-2.5260704199420374,6.110027777939596,1.016339659690857,-2.709820572529928
1708436498.5496943,-2.141794204711914,-1.3334130507758637,-2.5260868708239954,6.109986054688253,1.016369342803955,-2.7097914854632776
1708436498.5516543,-2.1418099403381348,-1.3333831590465088,-2.5261152426349085,6.11004518249587,1.0163559913635254,-2.7097209135638636
1708436498.5536978,-2.141805648803711,-1.3333460849574585,-2.5261107126819056,6.110024678498068,1.0163604021072388,-2.709742848073141
1708436498.555646,-2.1417784690856934,-1.333387480383255,-2.5260987917529505,6.110014664917745,1.0163604021072388,-2.70974570909609
1708436498.5576618,-2.1418309211730957,-1.333440975551941,-2.526145044957296,6.110048401146688,1.0163486003875732,-2.7097719351397913
1708436498.5596442,-2.141782760620117,-1.333387480383255,-2.5261033217059534,6.1100573418434045,1.0163559913635254,-2.70978814760317
1708436498.5616345,-2.1417856216430664,-1.333363727932312,-2.5260584990130823,6.110098826676168,1.0163319110870361,-2.709754292164938
1708436498.5636551,-2.141847610473633,-1.3334041398814698,-2.5260868708239954,6.109962570458212,1.016347050666809,-2.7097795645343226
1708436498.5656612,-2.1418185234069824,-1.3333711487105866,-2.5261531511889856,6.110020386963644,1.0163185596466064,-2.70974570909609
1708436498.567661,-2.141787052154541,-1.3334617179683228,-2.5261316935168665,6.109959113388815,1.0163604021072388,-2.709816280995504
1708436498.569646,-2.1417617797851562,-1.3333787483027955,-2.5261061827289026,6.110000479012289,1.0163229703903198,-2.7098119894610804
1708436498.571634,-2.141839027404785,-1.333440975551941,-2.5261226336108606,6.109991776734152,1.0163559913635254,-2.7097838560687464
1708436498.573652,-2.141826629638672,-1.3333711487105866,-2.5261316935168665,6.109999167710104,1.0163633823394775,-2.709813419972555
1708436498.5757318,-2.1417784690856934,-1.3334321540645142,-2.5261243025409144,6.11000810840682,1.0163604021072388,-2.70982534090151
1708436498.5776687,-2.141798496246338,-1.3333668273738404,-2.5261316935168665,6.109939682274618,1.0163397789001465,-2.709813419972555
1708436498.5796614,-2.1418228149414062,-1.3334041398814698,-2.5261107126819056,6.110004889756002,1.0163800716400146,-2.70975906053652
1708436498.5816627,-2.1418352127075195,-1.333396391277649,-2.5261107126819056,6.110012399941244,1.0163711309432983,-2.7097838560687464
1708436498.5836618,-2.1417784690856934,-1.3333919805339356,-2.5261061827289026,6.109993326454916,1.0163381099700928,-2.709816280995504
1708436498.585647,-2.1417746543884277,-1.3333681386760254,-2.5260987917529505,6.109959232598104,1.0164012908935547,-2.7097838560687464
1708436498.58768,-2.1418070793151855,-1.3334007573178788,-2.5260914007769983,6.109951603203573,1.0164012908935547,-2.709832493458883
1708436498.5896552,-2.141794204711914,-1.3334290546229859,-2.5261152426349085,6.109981047898092,1.0163381099700928,-2.709820572529928
1708436498.5916455,-2.1417784690856934,-1.333420143728592,-2.5261107126819056,6.109906780510702,1.0163755416870117,-2.7097633520709437
1708436498.5936878,-2.14176607131958,-1.3333919805339356,-2.526068989430563,6.109927761345663,1.0164085626602173,-2.7098119894610804
1708436498.5956514,-2.1417956352233887,-1.3334086400321503,-2.5261152426349085,6.109940993576803,1.0164130926132202,-2.709816280995504
1708436498.5976744,-2.1418228149414062,-1.3333787483027955,-2.52614409128298,6.10989927032546,1.0163878202438354,-2.709750000630514
1708436498.5996482,-2.1418142318725586,-1.3334086400321503,-2.5261648336993616,6.109911191254415,1.016404151916504,-2.70982534090151
1708436498.6016362,-2.1417746543884277,-1.3333756488612671,-2.526172463093893,6.109908091812887,1.0163922309875488,-2.70978814760317
1708436498.6036665,-2.141831636428833,-1.3334158223918458,-2.52614409128298,6.109945404320516,1.0163711309432983,-2.7097957769977015
1708436498.6056423,-2.14176607131958,-1.333362416630127,-2.52614409128298,6.109900581627645,1.016404151916504,-2.7097719351397913
1708436498.6076558,-2.141787052154541,-1.3333800745061417,-2.5261271635638636,6.109928715019979,1.0164204835891724,-2.7097957769977015
1708436498.6096694,-2.141770362854004,-1.3333756488612671,-2.526139561329977,6.109904992371359,1.016404151916504,-2.7097795645343226
1708436498.611766,-2.1417622566223145,-1.3333954078010102,-2.5261152426349085,6.109866726189413,1.016416072845459,-2.7097795645343226
1708436498.6137257,-2.1418113708496094,-1.333396391277649,-2.526085440312521,6.109908091812887,1.0163922309875488,-2.7097752729998987
1708436498.6156604,-2.1417746543884277,-1.3334290546229859,-2.5261197725879114,6.1099125025566,1.0164282321929932,-2.7097676436053675
1708436498.6176863,-2.1417789459228516,-1.3334246438792725,-2.5261648336993616,6.109842884331503,1.016411542892456,-2.7097089926349085
1708436498.6196449,-2.1417746543884277,-1.333387480383255,-2.5261152426349085,6.109854805260458,1.0164568424224854,-2.7098119894610804
1708436498.621645,-2.141787052154541,-1.3333909970572968,-2.526031557713644,6.109879839211263,1.016404151916504,-2.7097633520709437
1708436498.6236682,-2.14182710647583,-1.3333711487105866,-2.5261271635638636,6.109855997353353,1.0164371728897095,-2.7097795645343226
1708436498.6256504,-2.1417789459228516,-1.3334008020213624,-2.5261226336108606,6.109916794091024,1.0163908004760742,-2.7097719351397913
1708436498.6276722,-2.1417579650878906,-1.3333998185447236,-2.5261107126819056,6.109867918282308,1.0164238214492798,-2.709754530583517
1708436498.6296506,-2.1417746543884277,-1.3334246438792725,-2.5261152426349085,6.1099092839057825,1.0164568424224854,-2.7097929159747522
1708436498.631641,-2.1417746543884277,-1.3333919805339356,-2.5261152426349085,6.109830963402548,1.016432762145996,-2.7097838560687464
1708436498.6336749,-2.1417667865753174,-1.3334041398814698,-2.5261271635638636,6.109867918282308,1.0164401531219482,-2.70978814760317
1708436498.6356363,-2.1417462825775146,-1.3334008020213624,-2.5261226336108606,6.10994182804183,1.016453504562378,-2.709742848073141
1708436498.637659,-2.141741991043091,-1.3333470684340973,-2.5261362234698694,6.109896170883932,1.016411542892456,-2.7097914854632776
1708436498.639645,-2.1417622566223145,-1.3334661287120362,-2.5260942617999476,6.109835374146261,1.0164401531219482,-2.709742848073141
1708436498.6416395,-2.1417462825775146,-1.3333787483027955,-2.5261107126819056,6.109904992371359,1.0164433717727661,-2.7097914854632776
1708436498.6436505,-2.1417622566223145,-1.3333800596049805,-2.5261033217059534,6.109896170883932,1.0164192914962769,-2.70975906053652
1708436498.645667,-2.1417508125305176,-1.3334086251309891,-2.5261152426349085,6.109827863961019,1.0164371728897095,-2.7097633520709437
1708436498.6476383,-2.1417877674102783,-1.333362416630127,-2.5261648336993616,6.109906303673544,1.0164523124694824,-2.709750000630514
1708436498.649632,-2.141741991043091,-1.333350495701172,-2.526097361241476,6.109904873162069,1.0164568424224854,-2.7097676436053675
1708436498.6516438,-2.1417579650878906,-1.3334219616702576,-2.5260987917529505,6.109876739769735,1.0164356231689453,-2.709738079701559
1708436498.6536968,-2.1417622566223145,-1.3333954078010102,-2.5260897318469446,6.109819876938619,1.0164282321929932,-2.709754530583517
1708436498.6556501,-2.1417667865753174,-1.3333800596049805,-2.5261226336108606,6.109860408097067,1.0164268016815186,-2.7097838560687464
1708436498.6576912,-2.141753673553467,-1.3334246438792725,-2.5261197725879114,6.109867918282308,1.016432762145996,-2.7097633520709437
1708436498.659645,-2.141771078109741,-1.3333668273738404,-2.5261197725879114,6.109876739769735,1.0164612531661987,-2.7097633520709437
1708436498.661644,-2.1417622566223145,-1.3333681535771866,-2.5260780493365687,6.109913694649496,1.0164523124694824,-2.709726635609762
1708436498.6636798,-2.1417295932769775,-1.3334246289781113,-2.5261107126819056,6.1099092839057825,1.0164579153060913,-2.7097633520709437
1708436498.6656404,-2.1417622566223145,-1.333384485249855,-2.5260987917529505,6.109835374146261,1.0164686441421509,-2.709733788167135
1708436498.6676507,-2.1417462825775146,-1.3333888959935685,-2.52614409128298,6.109876739769735,1.0164026021957397,-2.7097957769977015
1708436498.6696556,-2.1417622566223145,-1.333396391277649,-2.5261061827289026,6.109806763916769,1.0164401531219482,-2.709722105656759
1708436498.6716473,-2.1417295932769775,-1.3333954525044938,-2.5261078516589563,6.10986481884078,1.0164657831192017,-2.709733788167135
1708436498.673648,-2.1417877674102783,-1.3333919805339356,-2.5261197725879114,6.109861719399252,1.016411542892456,-2.709730927144186
1708436498.6756485,-2.1417086124420166,-1.3334086400321503,-2.5260825792895716,6.109794842987814,1.0164071321487427,-2.7097633520709437
1708436498.6776714,-2.1417622566223145,-1.333359346990921,-2.526139561329977,6.1098365662391565,1.0164775848388672,-2.709742848073141
1708436498.679758,-2.1417462825775146,-1.3333963614753266,-2.5261197725879114,6.109857308655538,1.016431212425232,-2.7097514311419886
1708436498.6816783,-2.141791343688965,-1.3334364605000992,-2.5261648336993616,6.109816896706381,1.016431212425232,-2.709714714680807
1708436498.6836665,-2.1417295932769775,-1.3333470684340973,-2.5261226336108606,6.109815585404196,1.0164445638656616,-2.70975906053652
1708436498.685651,-2.141741991043091,-1.3334008020213624,-2.5261271635638636,6.1097707627113245,1.0164027214050293,-2.709750000630514
1708436498.6877007,-2.1417462825775146,-1.3334097129157563,-2.5261033217059534,6.109808075218954,1.0164490938186646,-2.709785048161642
1708436498.6896791,-2.1417667865753174,-1.3333711487105866,-2.5260825792895716,6.1098331091697595,1.0164027214050293,-2.709717575703756
1708436498.6916552,-2.1417622566223145,-1.3333514791778107,-2.5261648336993616,6.109819876938619,1.0164356231689453,-2.7097294966327112
1708436498.6936684,-2.1417789459228516,-1.3333668273738404,-2.5261107126819056,6.1098331091697595,1.0164445638656616,-2.7097676436053675
1708436498.695673,-2.1417295932769775,-1.3333919805339356,-2.5261197725879114,6.109857308655538,1.016431212425232,-2.7097135225879114
1708436498.697692,-2.1417295932769775,-1.3333963465741654,-2.5260942617999476,6.109819996147909,1.016453504562378,-2.7097471396075647
1708436498.6996622,-2.1417295932769775,-1.3333845001510163,-2.5261240641223353,6.109861719399252,1.0164071321487427,-2.70972186723818
1708436498.7016408,-2.1417667865753174,-1.3334086400321503,-2.5260897318469446,6.109778630524435,1.0164746046066284,-2.7097557226764124
1708436498.7036679,-2.1417462825775146,-1.3334333908608933,-2.5261197725879114,6.109808075218954,1.0164238214492798,-2.7097719351397913
1708436498.705641,-2.1417622566223145,-1.3334130507758637,-2.5260897318469446,6.10984097698287,1.0164282321929932,-2.7097352186786097
1708436498.707641,-2.1417667865753174,-1.3333338362029572,-2.5261271635638636,6.109857308655538,1.016404151916504,-2.7097676436053675
1708436498.7096395,-2.1417622566223145,-1.3334174913218995,-2.526139561329977,6.109833228379049,1.016432762145996,-2.709726635609762
1708436498.7117193,-2.1417508125305176,-1.333384485249855,-2.5261316935168665,6.1098365662391565,1.0163997411727905,-2.7097352186786097
1708436498.7137184,-2.1417462825775146,-1.3333593171885987,-2.5261152426349085,6.109861719399252,1.0163744688034058,-2.709694210683004
1708436498.715686,-2.141733407974243,-1.333302454357483,-2.5261107126819056,6.109763252526083,1.016404151916504,-2.709690872822897
1708436498.71764,-2.141775369644165,-1.3333756637624283,-2.526101891194479,6.109794842987814,1.0164204835891724,-2.7097395102130335
1708436498.7196255,-2.1417579650878906,-1.3333889555982132,-2.5261107126819056,6.109782922058859,1.016432762145996,-2.7096455732928675
1708436498.7216434,-2.141742706298828,-1.3333548170379181,-2.5261619726764124,6.109815585404196,1.0163908004760742,-2.7096951643573206
1708436498.7236636,-2.1417129039764404,-1.3333889704993744,-2.526139561329977,6.1098365662391565,1.0163878202438354,-2.7096994558917444
1708436498.7256339,-2.1417086124420166,-1.3333514791778107,-2.5261316935168665,6.109782922058859,1.0164085626602173,-2.7096875349627894
1708436498.7276428,-2.1417508125305176,-1.3333919805339356,-2.5261061827289026,6.109812485962667,1.016366720199585,-2.7097156683551233
1708436498.7296433,-2.1417956352233887,-1.3333831590465088,-2.5260987917529505,6.1098331091697595,1.0164294242858887,-2.7096951643573206
1708436498.7316895,-2.1417622566223145,-1.333387480383255,-2.5261061827289026,6.109824406891622,1.016404151916504,-2.7096713224994105
1708436498.7336347,-2.1417789459228516,-1.3333800596049805,-2.5261152426349085,6.109811174660482,1.016404151916504,-2.7096789518939417
1708436498.7356296,-2.141741991043091,-1.3334201139262696,-2.5261226336108606,6.109866130142965,1.0163967609405518,-2.709733311329977
1708436498.7376428,-2.141775369644165,-1.3333756786635895,-2.5261271635638636,6.109825718193807,1.0163755416870117,-2.709724251423971
1708436498.7396321,-2.1417384147644043,-1.3333471280387421,-2.5260823408709925,6.109791862755575,1.0163425207138062,-2.7096756140338343
1708436498.741653,-2.1417462825775146,-1.33340077221904,-2.5261107126819056,6.109849798470297,1.0164085626602173,-2.709680143986837
1708436498.7436335,-2.1417622566223145,-1.3333470684340973,-2.5260780493365687,6.1098543284233,1.016347050666809,-2.709634606038229
1708436498.745655,-2.1417341232299805,-1.333354891543724,-2.5261362234698694,6.109796154289999,1.016347050666809,-2.709641758595602
1708436498.747677,-2.1417462825775146,-1.33342199147258,-2.5261107126819056,6.109819996147909,1.0163604021072388,-2.709663216267721
1708436498.749628,-2.1417746543884277,-1.3333382320455094,-2.5260661284076136,6.1098331091697595,1.0163633823394775,-2.7096756140338343
1708436498.7516458,-2.1417789459228516,-1.3334130507758637,-2.5261107126819056,6.1098705408866785,1.0163559913635254,-2.7096756140338343
1708436498.7536297,-2.1417789459228516,-1.3334174764207383,-2.5261061827289026,6.109845387726583,1.0163967609405518,-2.7096713224994105
1708436498.7556374,-2.1417622566223145,-1.333342657690384,-2.5260987917529505,6.109857308655538,1.016339659690857,-2.709663216267721
1708436498.7576401,-2.1418044567108154,-1.3334007573178788,-2.5261107126819056,6.10985420921401,1.0163273811340332,-2.7096551100360315
1708436498.7596426,-2.1417508125305176,-1.3333681386760254,-2.5261405150042933,6.109825718193807,1.0163604021072388,-2.7096508185016077
1708436498.7616456,-2.1417622566223145,-1.3333933812430878,-2.5261107126819056,6.109791862755575,1.0163319110870361,-2.709667746220724
1708436498.76365,-2.1417384147644043,-1.3333800447038193,-2.5260570685016077,6.109849798470297,1.0163273811340332,-2.7096720377551478
1708436498.7657106,-2.1417551040649414,-1.3333919805339356,-2.5261271635638636,6.1098365662391565,1.0163319110870361,-2.7096720377551478
1708436498.7676802,-2.1417622566223145,-1.333421916966774,-2.5261316935168665,6.10985420921401,1.0163486003875732,-2.709637467061178
1708436498.769624,-2.1417746543884277,-1.3333889854005356,-2.5261152426349085,6.109866130142965,1.016357421875,-2.7096431891070765
1708436498.771667,-2.1417341232299805,-1.3333593171885987,-2.5261316935168665,6.1097707627113245,1.016340732574463,-2.7096720377551478
1708436498.7736382,-2.1417667865753174,-1.3333711487105866,-2.5261197725879114,6.109779584198751,1.0163244009017944,-2.70968467393984
1708436498.7756276,-2.1417956352233887,-1.3333919805339356,-2.5260868708239954,6.109791862755575,1.016319990158081,-2.709646288548605
1708436498.7776675,-2.141771078109741,-1.3333604347756882,-2.526133124028341,6.109861719399252,1.0163618326187134,-2.709646288548605
1708436498.779678,-2.1417622566223145,-1.333387480383255,-2.5261123816119593,6.109815585404196,1.016340732574463,-2.709646288548605
1708436498.7816472,-2.1417789459228516,-1.3333889108947297,-2.5261033217059534,6.1098660109336755,1.0162869691848755,-2.7096508185016077
1708436498.783648,-2.1417579650878906,-1.3333514791778107,-2.5261197725879114,6.1098331091697595,1.0163497924804688,-2.7096551100360315
1708436498.7856543,-2.14172101020813,-1.3333919656327744,-2.5260987917529505,6.109833228379049,1.016312599182129,-2.7096806208239954
1708436498.7876692,-2.1417622566223145,-1.3333593022874375,-2.5260914007769983,6.109742986946859,1.0162913799285889,-2.70968467393984
1708436498.7896461,-2.141737699508667,-1.333372638826706,-2.5261152426349085,6.109845387726583,1.0162869691848755,-2.709667746220724
1708436498.7916389,-2.141775369644165,-1.3334158223918458,-2.5260749498950403,6.109866130142965,1.0163170099258423,-2.709625546132223
1708436498.7936516,-2.1417789459228516,-1.3333637428334733,-2.5261243025409144,6.109845387726583,1.0162837505340576,-2.709634606038229
1708436498.7956545,-2.141771078109741,-1.333338202243187,-2.5261152426349085,6.109745728760519,1.0162510871887207,-2.7096431891070765
1708436498.7976508,-2.1417295932769775,-1.333363727932312,-2.5260375181781214,6.109758841782369,1.0162718296051025,-2.7096551100360315
1708436498.7996697,-2.1417667865753174,-1.333314449792244,-2.5260914007769983,6.109866130142965,1.0162391662597656,-2.709667984639303
1708436498.8016574,-2.1417746543884277,-1.3333427023938675,-2.5260749498950403,6.109791743546285,1.0162643194198608,-2.7096508185016077
1708436498.8036418,-2.1417789459228516,-1.3334218722632905,-2.526059929524557,6.109808075218954,1.016276240348816,-2.7096594015704554
1708436498.8056495,-2.1417622566223145,-1.3334113967469712,-2.5259817282306116,6.109857308655538,1.0162643194198608,-2.709663216267721
1708436498.807653,-2.1417622566223145,-1.3333681386760254,-2.5260165373431605,6.109775173455038,1.0162479877471924,-2.7096594015704554
1708436498.809752,-2.1418113708496094,-1.3333603900722046,-2.5259621779071253,6.109811293869772,1.0162312984466553,-2.709606472645895
1708436498.8116603,-2.1417789459228516,-1.3332848113826294,-2.5259833971606653,6.109816896706381,1.016223669052124,-2.709641758595602
1708436498.8137662,-2.1417789459228516,-1.3333844256452103,-2.5259459654437464,6.109852897911825,1.0162525177001953,-2.709637467061178
1708436498.81567,-2.1417622566223145,-1.3333800745061417,-2.52600866953005,6.109791743546285,1.0162569284439087,-2.7096594015704554
1708436498.8176515,-2.1417956352233887,-1.3333844554475327,-2.525996748601095,6.109824406891622,1.0162643194198608,-2.709663693104879
1708436498.8196533,-2.141771078109741,-1.3333559495261689,-2.525954786931173,6.109747278481283,1.0162358283996582,-2.709680143986837
1708436498.8216488,-2.1417295932769775,-1.3333559793284913,-2.52600866953005,6.109816896706381,1.0162312984466553,-2.709658686314718
1708436498.8236456,-2.1417253017425537,-1.3333470684340973,-2.525930945073263,6.109791862755575,1.016219139099121,-2.709667746220724
1708436498.8256273,-2.1417746543884277,-1.333405302172043,-2.52595025697817,6.109791743546285,1.0162358283996582,-2.709696356450216
1708436498.8276432,-2.1417622566223145,-1.3334052574685593,-2.525980297719137,6.109783994942465,1.0162403583526611,-2.709602181111471
1708436498.8296335,-2.1417622566223145,-1.333347113137581,-2.525963846837179,6.109806763916769,1.0162403583526611,-2.709634606038229
1708436498.8316505,-2.141737699508667,-1.3333919954350968,-2.5259340445147913,6.109778511315145,1.0162732601165771,-2.7096508185016077
1708436498.8336408,-2.1417551040649414,-1.3333919656327744,-2.525954786931173,6.109832155495443,1.0162147283554077,-2.7096508185016077
1708436498.8356647,-2.1417622566223145,-1.3334098023227234,-2.5259891192065638,6.109910714417257,1.0162447690963745,-2.7096763292895716
1708436498.8376482,-2.1417956352233887,-1.3334096384099503,-2.525980297719137,6.109758841782369,1.016294002532959,-2.709634606038229
1708436498.8396788,-2.1417295932769775,-1.3333514642766495,-2.5259087721454065,6.109852897911825,1.0161950588226318,-2.709634606038229
1708436498.8416867,-2.1417295932769775,-1.3334008169225235,-2.52600866953005,6.109824406891622,1.0162206888198853,-2.7096508185016077
1708436498.843637,-2.1417667865753174,-1.333445356493332,-2.525963846837179,6.1098811505134485,1.0161832571029663,-2.709602181111471
1708436498.8457122,-2.1417508125305176,-1.3333548468402405,-2.525951925908224,6.109766351967611,1.0162206888198853,-2.7096594015704554
1708436498.8476586,-2.141770362854004,-1.3333637130311509,-2.525975767766134,6.109823453217306,1.0161669254302979,-2.7096388975726526
1708436498.849682,-2.1417956352233887,-1.3333726686290284,-2.5260043779956263,6.109849798470297,1.016192078590393,-2.709688965474264
1708436498.8516414,-2.141741991043091,-1.3333637130311509,-2.5260043779956263,6.109873640328207,1.0161550045013428,-2.7096508185016077
1708436498.853676,-2.141753673553467,-1.3333756488612671,-2.525975767766134,6.109841096192159,1.0161832571029663,-2.70968467393984
1708436498.8556757,-2.1417579650878906,-1.3333470982364197,-2.525984589253561,6.109824406891622,1.0161876678466797,-2.709667746220724
1708436498.8576434,-2.141787052154541,-1.333347038631775,-2.52595025697817,6.109808075218954,1.016180157661438,-2.709634606038229
1708436498.8596566,-2.1417622566223145,-1.3333681237748642,-2.5259385744677942,6.109873640328207,1.0162039995193481,-2.7096474806415003
1708436498.8616297,-2.1417579650878906,-1.3333726239255448,-2.525942866002218,6.109796154289999,1.0162206888198853,-2.709634606038229
1708436498.8636422,-2.1417622566223145,-1.3333294254592438,-2.525935475026266,6.109832155495443,1.0162039995193481,-2.709663216267721
1708436498.865641,-2.1417086124420166,-1.3333440583995362,-2.525954786931173,6.109935509949484,1.0161876678466797,-2.709646288548605
1708436498.8676434,-2.141770362854004,-1.3333800745061417,-2.525947395955221,6.1098811505134485,1.0162039995193481,-2.7096594015704554
1708436498.8696597,-2.1417622566223145,-1.3334086549333115,-2.525992457066671,6.109876739769735,1.016212821006775,-2.709630076085226
1708436498.8716278,-2.1417834758758545,-1.3334201288274308,-2.525938336049215,6.10988866069869,1.0161832571029663,-2.7096388975726526
1708436498.8736346,-2.1417622566223145,-1.3334130507758637,-2.525963846837179,6.10988866069869,1.0161876678466797,-2.7096508185016077
1708436498.8756564,-2.1417789459228516,-1.3333470535329361,-2.525959316884176,6.109857308655538,1.0161757469177246,-2.7096388975726526
1708436498.8776717,-2.1418001651763916,-1.3334174317172547,-2.525980297719137,6.109873640328207,1.016241431236267,-2.709609333668844
1708436498.8796475,-2.1417622566223145,-1.3333593171885987,-2.525971237813131,6.109872329026022,1.0161550045013428,-2.7096551100360315
1708436498.8816571,-2.141753673553467,-1.3333919507316132,-2.5259295145617884,6.109897362976827,1.0161638259887695,-2.709646288548605
1708436498.8836646,-2.1417834758758545,-1.3334096831134339,-2.525959316884176,6.109913575440206,1.0161964893341064,-2.709646288548605
1708436498.8856556,-2.1417789459228516,-1.3333919805339356,-2.5259459654437464,6.109871136933126,1.016184687614441,-2.7096551100360315
1708436498.8876545,-2.141770362854004,-1.333405317073204,-2.5259414354907435,6.109897362976827,1.0161727666854858,-2.7096551100360315
1708436498.889657,-2.14176607131958,-1.3333874654820939,-2.525954786931173,6.109872329026022,1.0161594152450562,-2.709630076085226
1708436498.8916514,-2.1418113708496094,-1.3334424209645768,-2.525980059300558,6.1099125025566,1.0161964893341064,-2.709646288548605
1708436498.8936548,-2.14182710647583,-1.3333667528680344,-2.526004139577047,6.109839784889974,1.0161757469177246,-2.709630076085226
1708436498.8956354,-2.141791343688965,-1.3334052574685593,-2.525954786931173,6.109924423485555,1.0161468982696533,-2.709646288548605
1708436498.8976724,-2.1418070793151855,-1.3333427023938675,-2.525980297719137,6.109928834229269,1.0161638259887695,-2.7096226851092737
1708436498.8996422,-2.141749382019043,-1.3333875399878998,-2.5259833971606653,6.109940993576803,1.0162217617034912,-2.7096214930163782
1708436498.9016745,-2.1417899131774902,-1.3333844554475327,-2.5259621779071253,6.109976756363668,1.0161594152450562,-2.7096720377551478
1708436498.9036405,-2.1417789459228516,-1.3333963763764878,-2.525975767766134,6.109915601998129,1.0161638259887695,-2.7096508185016077
1708436498.9056258,-2.1417789459228516,-1.3333514642766495,-2.525942866002218,6.109951603203573,1.016192078590393,-2.709705177937643
1708436498.9076412,-2.141791343688965,-1.3333470833352585,-2.525975767766134,6.109956013947286,1.0161638259887695,-2.709630076085226
1708436498.909649,-2.1418070793151855,-1.3333560091308136,-2.525933806096212,6.109951603203573,1.0161757469177246,-2.709712568913595
1708436498.9116623,-2.1417956352233887,-1.3333637428334733,-2.525954786931173,6.109993207245626,1.0161995887756348,-2.7096508185016077
1708436498.9137747,-2.1417956352233887,-1.3333874952844162,-2.525975767766134,6.109993326454916,1.0162039995193481,-2.709625546132223
1708436498.9156673,-2.1418113708496094,-1.3334453862956543,-2.525980297719137,6.109910356789388,1.016180157661438,-2.709634606038229
1708436498.9176803,-2.1418113708496094,-1.3333548319390793,-2.5259578863727015,6.109972345619955,1.0161876678466797,-2.709637467061178
1708436498.9196315,-2.1418228149414062,-1.3333470684340973,-2.5259385744677942,6.109950291901388,1.0161594152450562,-2.70968467393984
1708436498.921651,-2.1418070793151855,-1.3333800745061417,-2.525963846837179,6.1099785445030115,1.01614248752594,-2.709641758595602
1708436498.9236336,-2.141787052154541,-1.3333844554475327,-2.5259414354907435,6.110012399941244,1.016184687614441,-2.709680143986837
1708436498.9256368,-2.141791343688965,-1.333424599175789,-2.525971237813131,6.109982955246725,1.016180157661438,-2.709680143986837
1708436498.9276526,-2.141787052154541,-1.3334008318236847,-2.5259833971606653,6.110023367195883,1.0161594152450562,-2.7096756140338343
1708436498.9296973,-2.1417741775512695,-1.3333963763764878,-2.5259624163257044,6.110023367195883,1.0161757469177246,-2.709658686314718
1708436498.9316928,-2.14182710647583,-1.333396391277649,-2.526004139577047,6.110039698868551,1.0161594152450562,-2.709700886403219
1708436498.9336421,-2.1417784690856934,-1.3333919805339356,-2.525954786931173,6.110090124398031,1.016162395477295,-2.7097156683551233
1708436498.9356394,-2.1417956352233887,-1.3333055836013337,-2.525954786931173,6.110084521561422,1.0161638259887695,-2.709728781376974
1708436498.9376535,-2.1418228149414062,-1.3334307831576844,-2.525992218648092,6.110072600632467,1.016229510307312,-2.70968467393984
1708436498.9396338,-2.1417746543884277,-1.3333470982364197,-2.5260043779956263,6.110072600632467,1.0161558389663696,-2.7097483317004603
1708436498.9416473,-2.1418395042419434,-1.3333470684340973,-2.525975767766134,6.1100995419319055,1.016180157661438,-2.709712568913595
1708436498.9436674,-2.1418070793151855,-1.333359346990921,-2.5259788672076624,6.110042798310079,1.016180157661438,-2.709744993840353
1708436498.9456632,-2.141787052154541,-1.3333381426385422,-2.5259879271136683,6.110051619797506,1.0161594152450562,-2.7097232977496546
1708436498.947663,-2.141839027404785,-1.3333470684340973,-2.5260043779956263,6.110103952675619,1.0161713361740112,-2.7096789518939417
1708436498.9496367,-2.1418604850769043,-1.333417461519577,-2.52600866953005,6.11008762100295,1.0161550045013428,-2.7096713224994105
1708436498.9516423,-2.1418309211730957,-1.3333800596049805,-2.5259788672076624,6.110059368401327,1.0161638259887695,-2.7097156683551233
1708436498.9536626,-2.1418099403381348,-1.3333470684340973,-2.5260208288775843,6.110149729042806,1.0162010192871094,-2.709712568913595
1708436498.9556415,-2.141805648803711,-1.3333963763764878,-2.5259953180896204,6.1100549576576135,1.0161638259887695,-2.709736172352926
1708436498.9576554,-2.141782760620117,-1.333380089407303,-2.525971237813131,6.11008762100295,1.0161713361740112,-2.709682289754049
1708436498.9596295,-2.1417617797851562,-1.333417461519577,-2.5259414354907435,6.110103952675619,1.0161594152450562,-2.7097395102130335
1708436498.9616299,-2.1417741775512695,-1.333321825867035,-2.52600866953005,6.110062587052145,1.0161995887756348,-2.709702793751852
1708436498.963655,-2.1418309211730957,-1.333411456351616,-2.5259414354907435,6.110055076866903,1.016192078590393,-2.709785286580221
1708436498.965633,-2.1418347358703613,-1.3333844256452103,-2.5259667078601282,6.110090720444479,1.0162326097488403,-2.7097471396075647
1708436498.9676468,-2.1418347358703613,-1.333380089407303,-2.5259745756732386,6.110120165138998,1.0161669254302979,-2.7097514311419886
1708436498.9696288,-2.141850471496582,-1.3334007871202012,-2.5259879271136683,6.110053765564718,1.0162250995635986,-2.7097294966327112
1708436498.9716299,-2.1418347358703613,-1.3333919805339356,-2.5259667078601282,6.110141026764669,1.0161757469177246,-2.7097633520709437
1708436498.9736485,-2.141822338104248,-1.333387480383255,-2.525971237813131,6.110151636391439,1.0161757469177246,-2.7098119894610804
1708436498.9756644,-2.1418304443359375,-1.3333756488612671,-2.5259879271136683,6.110127794533529,1.0161950588226318,-2.7097252050982874
1708436498.9776573,-2.141839027404785,-1.3333963614753266,-2.525992218648092,6.110155927925863,1.0161787271499634,-2.7097957769977015
1708436498.9796393,-2.141818046569824,-1.3333548617414017,-2.5259879271136683,6.110188829689779,1.016241431236267,-2.7097957769977015
1708436498.9816341,-2.141843318939209,-1.3333470535329361,-2.5260043779956263,6.110168206482687,1.0161950588226318,-2.709754769002096
1708436498.9836357,-2.141839027404785,-1.333363727932312,-2.5259788672076624,6.110154974251547,1.0161995887756348,-2.7097795645343226
1708436498.9856367,-2.1417925357818604,-1.3333382171443482,-2.5260208288775843,6.110149490624227,1.0162162780761719,-2.7097752729998987
1708436498.987657,-2.141818046569824,-1.3333681386760254,-2.5259907881366175,6.110235202103414,1.0162039995193481,-2.7098076979266565
1708436498.9896574,-2.1418304443359375,-1.3333514791778107,-2.5259621779071253,6.110166895180502,1.016162395477295,-2.70975906053652
1708436498.9916563,-2.1418092250823975,-1.3333559793284913,-2.525971237813131,6.110185372620382,1.0161832571029663,-2.70975906053652
1708436498.9936457,-2.1418347358703613,-1.3333351475051423,-2.5259998480426233,6.110182273178854,1.016223669052124,-2.709787193928854
1708436498.9956398,-2.1418304443359375,-1.3333889555982132,-2.5260284582721155,6.11017786243514,1.0162162780761719,-2.709787193928854
1708436498.9976797,-2.1418347358703613,-1.3334246438792725,-2.5259624163257044,6.11026822307662,1.0161876678466797,-2.70975906053652
1708436498.999619,-2.1418304443359375,-1.333338127737381,-2.5259879271136683,6.110213267594137,1.0161550045013428,-2.709799114857809
1708436499.00162,-2.1418347358703613,-1.3333668869784852,-2.5259667078601282,6.110238659172811,1.0162162780761719,-2.7097914854632776
1708436499.0036201,-2.1418304443359375,-1.3334086400321503,-2.5259578863727015,6.110201465874471,1.016223669052124,-2.70978814760317
1708436499.005624,-2.1418709754943848,-1.3333603304675599,-2.5260582605945032,6.110247599869528,1.0161950588226318,-2.7098000685321253
1708436499.0076334,-2.1418373584747314,-1.3333756637624283,-2.5260568300830286,6.110194194107809,1.016249179840088,-2.7098196188556116
1708436499.009641,-2.1418585777282715,-1.3333636981299897,-2.5259907881366175,6.11025499084548,1.016223669052124,-2.7098119894610804
1708436499.0116465,-2.1418373584747314,-1.3333874654820939,-2.5259788672076624,6.1102298376853845,1.0162206888198853,-2.7097914854632776
1708436499.0137112,-2.1418752670288086,-1.3333505404046555,-2.5260120073901575,6.110283243447103,1.0162312984466553,-2.7098239103900355
1708436499.015734,-2.141846179962158,-1.3333756488612671,-2.5259788672076624,6.110308635025778,1.0161906480789185,-2.709832493458883
1708436499.0176795,-2.1418631076812744,-1.3334246289781113,-2.5259953180896204,6.110262620240011,1.0161861181259155,-2.709778610860006
1708436499.0196981,-2.1418752670288086,-1.3333800745061417,-2.5259907881366175,6.11027883270339,1.0162358283996582,-2.7097957769977015
1708436499.021644,-2.1419224739074707,-1.3333831441453476,-2.5260120073901575,6.110250580101766,1.0162206888198853,-2.7098119894610804
1708436499.0236394,-2.141902446746826,-1.3333845001510163,-2.5259833971606653,6.110319244652548,1.0162028074264526,-2.709787193928854
1708436499.0256689,-2.141824722290039,-1.3333726239255448,-2.5260029474841517,6.110302912979879,1.0161950588226318,-2.709799114857809
1708436499.0276403,-2.141845941543579,-1.333413065677025,-2.5260239283191126,6.110339629441061,1.016223669052124,-2.709816280995504
1708436499.0296555,-2.141878128051758,-1.3333844554475327,-2.5260327498065394,6.110298502236166,1.016223669052124,-2.709787193928854
1708436499.0316844,-2.1419222354888916,-1.3334263873151322,-2.5260449091540735,6.110286581307211,1.0161983966827393,-2.709787193928854
1708436499.033642,-2.14189076423645,-1.333375633960106,-2.5259998480426233,6.110290992050924,1.0162535905838013,-2.709844414387838
1708436499.0356345,-2.141895294189453,-1.3333889555982132,-2.5260239283191126,6.110241877823629,1.0162028074264526,-2.7098034063922327
1708436499.0376406,-2.1418373584747314,-1.333368108873703,-2.5260148684131067,6.110328066139974,1.0162447690963745,-2.7097914854632776
1708436499.0396433,-2.14189076423645,-1.3333998781493683,-2.5260193983661097,6.110321986466207,1.0161950588226318,-2.709770981465475
1708436499.0416467,-2.14189076423645,-1.3333800596049805,-2.5260165373431605,6.110330807953634,1.0162403583526611,-2.7098119894610804
1708436499.0436378,-2.1418864727020264,-1.3333470982364197,-2.5260239283191126,6.110282289772787,1.016219139099121,-2.7098076979266565
1708436499.045637,-2.1418981552124023,-1.3333998334458848,-2.5259907881366175,6.110282289772787,1.016219139099121,-2.70978290239443
1708436499.0476313,-2.141849994659424,-1.333338202243187,-2.5260029474841517,6.110356199532308,1.0161817073822021,-2.70978290239443
1708436499.0496497,-2.141850233078003,-1.3333844554475327,-2.525977436696188,6.110319244652548,1.0162479877471924,-2.709787193928854
1708436499.0516577,-2.1418650150299072,-1.3333339405110856,-2.5259745756732386,6.110330807953634,1.016219139099121,-2.7098119894610804
1708436499.0536945,-2.14186692237854,-1.3334454160979767,-2.5259998480426233,6.110311734467306,1.0162391662597656,-2.7098315397845667
1708436499.0556812,-2.1418864727020264,-1.3334086251309891,-2.5260329882251185,6.110311734467306,1.0162525177001953,-2.7097914854632776
1708436499.0576384,-2.1418581008911133,-1.3334086549333115,-2.5259984175311487,6.110282170563497,1.0162599086761475,-2.7098358313189905
1708436499.059635,-2.1418824195861816,-1.3334158223918458,-2.5259953180896204,6.110282170563497,1.016276240348816,-2.7098034063922327
1708436499.061658,-2.141909599304199,-1.333387480383255,-2.52600866953005,6.110261308937826,1.016226887702942,-2.7098682562457483
1708436499.0636392,-2.1418540477752686,-1.3333624315312882,-2.5260239283191126,6.110298502236166,1.0162643194198608,-2.7097914854632776
1708436499.0656352,-2.1418824195861816,-1.3333756637624283,-2.5260313192950647,6.110314833908834,1.0162180662155151,-2.7098034063922327
1708436499.0676372,-2.1418581008911133,-1.3333426725915452,-2.5259984175311487,6.110299813538351,1.0162312984466553,-2.7098401228534144
1708436499.0696344,-2.1419219970703125,-1.3333711487105866,-2.5260358492480677,6.110302912979879,1.0162688493728638,-2.7098076979266565
1708436499.071634,-2.14189076423645,-1.3334041696837922,-2.5260193983661097,6.110311734467306,1.0162312984466553,-2.709794823323385
1708436499.0736372,-2.141902208328247,-1.3334219765714188,-2.5259788672076624,6.110314833908834,1.0162180662155151,-2.709787193928854
1708436499.0756319,-2.1419219970703125,-1.3333933663419266,-2.5259984175311487,6.110328066139974,1.016243577003479,-2.709794823323385
1708436499.077644,-2.141866683959961,-1.3333711487105866,-2.5260148684131067,6.1102954027946375,1.0162479877471924,-2.7097957769977015
1708436499.0796459,-2.1418540477752686,-1.333388940697052,-2.5260120073901575,6.11027346828536,1.016205906867981,-2.709815327321188
1708436499.0816367,-2.141913414001465,-1.3334202033332367,-2.5260148684131067,6.110283243447103,1.0162479877471924,-2.709816280995504
1708436499.083685,-2.1418981552124023,-1.3333426874927063,-2.5260193983661097,6.11026560047225,1.0162314176559448,-2.709836784993307
1708436499.0856457,-2.141902208328247,-1.3333919656327744,-2.5260570685016077,6.110355007439413,1.016222596168518,-2.7098239103900355
1708436499.0876284,-2.1419053077697754,-1.333408699636795,-2.526048008595602,6.110330807953634,1.0161939859390259,-2.7098282019244593
1708436499.0896657,-2.1418981552124023,-1.3333874952844162,-2.5260029474841517,6.110344040184774,1.0162479877471924,-2.7098076979266565
1708436499.0916493,-2.1419262886047363,-1.333363727932312,-2.5260313192950647,6.110253679543295,1.016255497932434,-2.70978290239443
1708436499.0936584,-2.1418967247009277,-1.3334086549333115,-2.5260148684131067,6.110261308937826,1.0162479877471924,-2.709843460713522
1708436499.0956256,-2.1419053077697754,-1.3333800745061417,-2.5260148684131067,6.110314833908834,1.0162479877471924,-2.7097914854632776
1708436499.0976238,-2.141880989074707,-1.3333668124726792,-2.5260193983661097,6.110311734467306,1.016288161277771,-2.709811035786764
1708436499.0996308,-2.141934394836426,-1.3334130209735413,-2.5259788672076624,6.110356199532308,1.0162674188613892,-2.709816280995504
1708436499.1016538,-2.1418967247009277,-1.3333548319390793,-2.5260029474841517,6.1103073237235925,1.016255497932434,-2.7098000685321253
1708436499.1036196,-2.1418895721435547,-1.3333831143430253,-2.5260074774371546,6.110270011215963,1.0162718296051025,-2.7098076979266565
1708436499.1056156,-2.141909599304199,-1.3333800447038193,-2.5260329882251185,6.1103694317634485,1.0162391662597656,-2.7098239103900355
1708436499.1076562,-2.1419472694396973,-1.3333548170379181,-2.5260732809649866,6.110299813538351,1.0163135528564453,-2.709811035786764
1708436499.109628,-2.1419177055358887,-1.333338202243187,-2.5259984175311487,6.110328066139974,1.016255497932434,-2.709815327321188
1708436499.1116483,-2.141885280609131,-1.3333427172950287,-2.5260329882251185,6.110286581307211,1.0162718296051025,-2.7098282019244593
1708436499.1136994,-2.141885280609131,-1.3334174317172547,-2.5260148684131067,6.110360610276022,1.0162347555160522,-2.7097914854632776
1708436499.1157207,-2.1419219970703125,-1.3333637875369568,-2.5260029474841517,6.110261308937826,1.0162806510925293,-2.7098076979266565
1708436499.1176493,-2.1419010162353516,-1.3333470982364197,-2.5260403792010706,6.110289799958029,1.0162718296051025,-2.70978290239443
1708436499.1196306,-2.1419386863708496,-1.3333800745061417,-2.5260313192950647,6.110282289772787,1.0162391662597656,-2.7098034063922327
1708436499.1216283,-2.141913890838623,-1.3334041100791474,-2.526010338460104,6.110294210701742,1.0162347555160522,-2.709820572529928
1708436499.1236427,-2.141909599304199,-1.3333680939725419,-2.526038948689596,6.110301720886984,1.0162806510925293,-2.7098282019244593
1708436499.1256611,-2.141962766647339,-1.333413065677025,-2.5260358492480677,6.110249268799581,1.0162850618362427,-2.7098358313189905
1708436499.1276453,-2.141876459121704,-1.3333337616971512,-2.526026789342062,6.110298502236166,1.0162806510925293,-2.7098034063922327
1708436499.129639,-2.1419010162353516,-1.3333756488612671,-2.5259771982776087,6.110295522003927,1.0162479877471924,-2.70978290239443
1708436499.1316662,-2.1418967247009277,-1.333405317073204,-2.526101891194479,6.110282289772787,1.016225814819336,-2.7098239103900355
1708436499.133629,-2.1419219970703125,-1.333350495701172,-2.526052538548605,6.110258090287008,1.0162674188613892,-2.7098034063922327
1708436499.1356423,-2.1418652534484863,-1.3333830845407029,-2.526010338460104,6.110290992050924,1.0163135528564453,-2.7098401228534144
1708436499.1376383,-2.1419053077697754,-1.3333547872355958,-2.526072088872091,6.1102954027946375,1.016309142112732,-2.7098076979266565
1708436499.1396284,-2.141913414001465,-1.333371178512909,-2.526059929524557,6.110347497254171,1.016255497932434,-2.7098034063922327
1708436499.1416361,-2.1418938636779785,-1.3334334206632157,-2.52606445947756,6.110245096474447,1.016288161277771,-2.709820572529928
1708436499.1436393,-2.141909599304199,-1.3333580058864136,-2.526072088872091,6.110384452133932,1.016309142112732,-2.7097795645343226
1708436499.1456263,-2.1419460773468018,-1.3334174764207383,-2.526067558919088,6.110299813538351,1.0162837505340576,-2.7097914854632776
1708436499.1476295,-2.1419713497161865,-1.333371178512909,-2.5261240641223353,6.110323655396261,1.0162837505340576,-2.7098119894610804
1708436499.1496613,-2.1419386863708496,-1.3333875101855774,-2.5260914007769983,6.110319244652548,1.0162792205810547,-2.7098000685321253
1708436499.1516507,-2.1419219970703125,-1.3334008020213624,-2.526160542164938,6.110314833908834,1.0163004398345947,-2.7098034063922327
1708436499.1536534,-2.1418967247009277,-1.3334130507758637,-2.5261181036578577,6.1103073237235925,1.0162869691848755,-2.7097914854632776
1708436499.155636,-2.141930103302002,-1.3334290844253083,-2.5261648336993616,6.1103073237235925,1.0162510871887207,-2.70978290239443
1708436499.1576755,-2.141934394836426,-1.3333874952844162,-2.5261316935168665,6.11031054237441,1.0162525177001953,-2.7098119894610804
1708436499.1596386,-2.141904592514038,-1.3334158223918458,-2.526092831288473,6.110286581307211,1.016276240348816,-2.7098520437823694
1708436499.161653,-2.141937255859375,-1.3334041398814698,-2.526156012211935,6.110306131630697,1.0162391662597656,-2.709778610860006
1708436499.1636825,-2.1419546604156494,-1.3333548170379181,-2.52620512643923,6.110282289772787,1.0162347555160522,-2.7098282019244593
1708436499.1656468,-2.1419670581817627,-1.333387480383255,-2.526130501423971,6.110262501030721,1.016243577003479,-2.709770981465475
1708436499.1676776,-2.141941547393799,-1.3334008020213624,-2.526187245045797,6.11026560047225,1.016205906867981,-2.709766689931051
1708436499.1696513,-2.1419756412506104,-1.3333470684340973,-2.526156012211935,6.110330807953634,1.0162806510925293,-2.7097752729998987
1708436499.1716378,-2.1419546604156494,-1.3334334653666993,-2.526135031376974,6.110360729485311,1.0162599086761475,-2.7097914854632776
1708436499.173666,-2.1419010162353516,-1.3333756190589447,-2.526176993046896,6.110335218697347,1.016226887702942,-2.709816280995504
1708436499.175636,-2.141925573348999,-1.3333668571761628,-2.526154343281881,6.110282289772787,1.0162479877471924,-2.7098119894610804
1708436499.1776505,-2.141878128051758,-1.3333218854716797,-2.526200596486227,6.110302912979879,1.0162479877471924,-2.709787193928854
1708436499.1797464,-2.1419429779052734,-1.3334130209735413,-2.526172463093893,6.110344040184774,1.016304850578308,-2.7097914854632776
1708436499.181654,-2.1419386863708496,-1.3333426725915452,-2.526135031376974,6.110290992050924,1.0162479877471924,-2.7097914854632776
1708436499.1836853,-2.1419053077697754,-1.3333548170379181,-2.5261650721179407,6.1103073237235925,1.0162718296051025,-2.7098119894610804
1708436499.1856341,-2.141953945159912,-1.3334174466184159,-2.5261226336108606,6.110290992050924,1.0162925720214844,-2.709816280995504
1708436499.1876512,-2.141932964324951,-1.3333548468402405,-2.5260987917529505,6.110328066139974,1.0163015127182007,-2.709848705922262
1708436499.189665,-2.1419219970703125,-1.3333919805339356,-2.526160542164938,6.110302912979879,1.016288161277771,-2.7098000685321253
1708436499.191655,-2.141904592514038,-1.3333756935647507,-2.526158873234884,6.110253679543295,1.016330361366272,-2.7098034063922327
1708436499.1936843,-2.1419386863708496,-1.3333505404046555,-2.5261271635638636,6.110347378044882,1.0162599086761475,-2.7098076979266565
1708436499.1956527,-2.1419219970703125,-1.3334497225335618,-2.526156012211935,6.11027883270339,1.0162510871887207,-2.7098282019244593
1708436499.1976655,-2.1418967247009277,-1.3334086251309891,-2.52614409128298,6.110277998238363,1.0162599086761475,-2.7098239103900355
1708436499.1996598,-2.141892194747925,-1.3333919805339356,-2.5261693636523646,6.110314833908834,1.0162959098815918,-2.709860626851217
1708436499.2016528,-2.1419010162353516,-1.3333756190589447,-2.526135031376974,6.11027883270339,1.0162643194198608,-2.7098034063922327
1708436499.2036579,-2.1419460773468018,-1.333404154782631,-2.526101891194479,6.1102744219596765,1.0162358283996582,-2.709836784993307
1708436499.205659,-2.141962766647339,-1.3334041398814698,-2.526160542164938,6.110320555954733,1.016255497932434,-2.7097623983966272
1708436499.2076504,-2.141962766647339,-1.3334174317172547,-2.526126209889547,6.110314833908834,1.0162479877471924,-2.7098076979266565
1708436499.2096417,-2.1419670581817627,-1.3333831888488312,-2.526139561329977,6.110306131630697,1.016288161277771,-2.709832493458883
1708436499.2116582,-2.141958236694336,-1.3333426874927063,-2.526139561329977,6.110221016197958,1.0162347555160522,-2.709804360066549
1708436499.213696,-2.1419713497161865,-1.3333756637624283,-2.526184384022848,6.11031054237441,1.0162599086761475,-2.7098239103900355
1708436499.2157173,-2.1419010162353516,-1.3333756935647507,-2.5261486212359827,6.110356199532308,1.016255497932434,-2.709787193928854
1708436499.2177148,-2.141913414001465,-1.3333874505809327,-2.5261226336108606,6.1103073237235925,1.016243577003479,-2.7098239103900355
1708436499.219699,-2.141904592514038,-1.3334130209735413,-2.52614409128298,6.110286581307211,1.0163259506225586,-2.709848705922262
1708436499.22164,-2.1419503688812256,-1.3334290248206635,-2.526135031376974,6.110347378044882,1.0162674188613892,-2.7098401228534144
1708436499.2236693,-2.141930103302002,-1.3333831888488312,-2.5261152426349085,6.110282170563497,1.0163004398345947,-2.709754769002096
1708436499.2256413,-2.1418967247009277,-1.3334410053542634,-2.5260942617999476,6.110298502236166,1.016276240348816,-2.709832493458883
1708436499.2276697,-2.141925573348999,-1.3333874952844162,-2.5261197725879114,6.11032651641921,1.016255497932434,-2.7098119894610804
1708436499.2296379,-2.141925573348999,-1.333375633960106,-2.5261061827289026,6.110323536186971,1.0162510871887207,-2.7098239103900355
1708436499.2316346,-2.141925573348999,-1.3334453266910096,-2.5261181036578577,6.110314833908834,1.0162479877471924,-2.7097767035113733
1708436499.2336667,-2.141958236694336,-1.3334041398814698,-2.526156012211935,6.110295522003927,1.0162969827651978,-2.709816280995504
1708436499.2356915,-2.1419177055358887,-1.3333668124726792,-2.5261107126819056,6.110311734467306,1.016276240348816,-2.7097795645343226
1708436499.2376733,-2.1419177055358887,-1.3334158223918458,-2.526113573704855,6.110314833908834,1.0162718296051025,-2.7098119894610804
1708436499.239634,-2.1419003009796143,-1.333424673681595,-2.5261226336108606,6.110316145211019,1.0162479877471924,-2.709804360066549
1708436499.2416346,-2.1419053077697754,-1.333421916966774,-2.526176993046896,6.110298502236166,1.0162466764450073,-2.7097416559802454
1708436499.2436588,-2.1419837474823,-1.3333667677691956,-2.5261107126819056,6.110294210701742,1.0162806510925293,-2.709804360066549
1708436499.2456717,-2.1419386863708496,-1.3333592873862763,-2.5261181036578577,6.110299813538351,1.0162806510925293,-2.7097752729998987
1708436499.2476532,-2.141930103302002,-1.3333997887424012,-2.526130501423971,6.110286581307211,1.0162569284439087,-2.7097752729998987
1708436499.249621,-2.141925573348999,-1.333362416630127,-2.5261271635638636,6.11032651641921,1.0162851810455322,-2.709816280995504
1708436499.2516625,-2.1419177055358887,-1.3333505404046555,-2.5261316935168665,6.110314833908834,1.0162806510925293,-2.7097914854632776
1708436499.253702,-2.141930103302002,-1.3334290844253083,-2.526101891194479,6.11037694194869,1.0162599086761475,-2.7098000685321253
1708436499.2556572,-2.141937255859375,-1.3333963763764878,-2.5261486212359827,6.110328066139974,1.0162643194198608,-2.709804360066549
1708436499.2576625,-2.1419219970703125,-1.3333559793284913,-2.526151482258932,6.110282289772787,1.0162347555160522,-2.7097957769977015
1708436499.2596273,-2.141934394836426,-1.3334130209735413,-2.526113573704855,6.110270011215963,1.0162599086761475,-2.7097914854632776
1708436499.2616255,-2.1419503688812256,-1.3334334206632157,-2.5261316935168665,6.110294210701742,1.0162643194198608,-2.7097914854632776
1708436499.263651,-2.141913414001465,-1.3334175062230607,-2.5261240641223353,6.110262501030721,1.0162643194198608,-2.7098000685321253
1708436499.2656405,-2.1419496536254883,-1.333366872077324,-2.5261107126819056,6.110319244652548,1.0162643194198608,-2.7097957769977015
1708436499.267655,-2.1419503688812256,-1.3333470535329361,-2.5261486212359827,6.110270011215963,1.0162628889083862,-2.709754530583517
1708436499.2696745,-2.1419169902801514,-1.3333963763764878,-2.5260987917529505,6.110311734467306,1.0162969827651978,-2.7097178141223353
1708436499.27162,-2.1419503688812256,-1.333441050057747,-2.5260823408709925,6.110319125443258,1.0162969827651978,-2.7097929159747522
1708436499.2736385,-2.141953945159912,-1.3333603602698822,-2.5260987917529505,6.110328066139974,1.016276240348816,-2.70978814760317
1708436499.275625,-2.1418938636779785,-1.3333998185447236,-2.5260942617999476,6.110295522003927,1.0162674188613892,-2.709780995045797
1708436499.2776794,-2.1419386863708496,-1.3333787781051178,-2.5261152426349085,6.110246169358053,1.0162391662597656,-2.70978814760317
1708436499.2796268,-2.1419262886047363,-1.3333668273738404,-2.5260942617999476,6.110249268799581,1.0162643194198608,-2.7097838560687464
1708436499.2816463,-2.141885280609131,-1.3333831888488312,-2.5261271635638636,6.110249268799581,1.0162806510925293,-2.709705654774801
1708436499.283676,-2.141887903213501,-1.3333844554475327,-2.5260914007769983,6.110316145211019,1.016276240348816,-2.7097929159747522
1708436499.285662,-2.1419460773468018,-1.3333954227021714,-2.5261197725879114,6.110250580101766,1.0162925720214844,-2.7098014990436
1708436499.2876513,-2.141962766647339,-1.3333963763764878,-2.5261197725879114,6.110246169358053,1.0162599086761475,-2.7097676436053675
1708436499.2896364,-2.141908884048462,-1.3334334206632157,-2.5261316935168665,6.110320555954733,1.0162925720214844,-2.709730927144186
1708436499.2916517,-2.141941547393799,-1.3334290248206635,-2.5261531511889856,6.110286581307211,1.0162599086761475,-2.7097557226764124
1708436499.2936394,-2.141958236694336,-1.3333800745061417,-2.526101891194479,6.110320555954733,1.0162925720214844,-2.709736172352926
1708436499.2956293,-2.1419219970703125,-1.3333874505809327,-2.5261152426349085,6.110283243447103,1.0162599086761475,-2.7096288839923304
1708436499.297645,-2.1419262886047363,-1.3333580654910584,-2.5261107126819056,6.110242950707235,1.0162391662597656,-2.709667746220724
1708436499.2996328,-2.141908884048462,-1.3333963763764878,-2.5261271635638636,6.110232937126913,1.0163170099258423,-2.709634606038229
1708436499.3016357,-2.141934394836426,-1.3334246438792725,-2.5261226336108606,6.110288727074423,1.0162510871887207,-2.7095988432513636
1708436499.3036473,-2.141962766647339,-1.3334130209735413,-2.5261197725879114,6.110286581307211,1.0162718296051025,-2.70962363878359
1708436499.3056328,-2.1419503688812256,-1.333363727932312,-2.5261316935168665,6.110311734467306,1.016255497932434,-2.709628168736593
1708436499.3076546,-2.141925573348999,-1.3333801192096253,-2.5260914007769983,6.110336887627401,1.0162479877471924,-2.7095869223224085
1708436499.3096976,-2.141887903213501,-1.3334453266910096,-2.5260987917529505,6.110283243447103,1.0162421464920044,-2.70951754251589
1708436499.3116498,-2.141930103302002,-1.3334041249803086,-2.5261107126819056,6.110270011215963,1.0162718296051025,-2.709505621586935
1708436499.313669,-2.141925573348999,-1.3333770495704194,-2.5261362234698694,6.110328066139974,1.0162510871887207,-2.7095144430743616
1708436499.315719,-2.141958236694336,-1.333424688582756,-2.5260942617999476,6.110336768418112,1.016243577003479,-2.709486786519186
1708436499.3176873,-2.1419177055358887,-1.3334174317172547,-2.5261693636523646,6.110275614052572,1.016226887702942,-2.709409300480978
1708436499.3196533,-2.141913414001465,-1.333371178512909,-2.526101891194479,6.110287534981527,1.016255497932434,-2.7094393412219446
1708436499.321631,-2.141925573348999,-1.333351494078972,-2.5260897318469446,6.110238659172811,1.0162643194198608,-2.709386173878805
1708436499.3236246,-2.141934394836426,-1.333342657690384,-2.5260868708239954,6.110283243447103,1.016276240348816,-2.709329907094137
1708436499.3256545,-2.1418721675872803,-1.3333814454129715,-2.526160542164938,6.110250580101766,1.0162347555160522,-2.7092884222613733
1708436499.3276489,-2.1419713497161865,-1.3334008020213624,-2.5260780493365687,6.110234248429098,1.0162391662597656,-2.709313694630758
1708436499.3296664,-2.1419010162353516,-1.3333637428334733,-2.5260914007769983,6.110205638199606,1.0162599086761475,-2.7093473116504114
1708436499.331651,-2.141921281814575,-1.3334174913218995,-2.5261271635638636,6.110275733261862,1.0162510871887207,-2.7092369238482874
1708436499.3336492,-2.141941547393799,-1.3333800447038193,-2.5261107126819056,6.11021767833785,1.0162479877471924,-2.7092090288745325
1708436499.335658,-2.141930103302002,-1.3334041398814698,-2.5260661284076136,6.110256182938375,1.0162643194198608,-2.709193531666891
1708436499.3376312,-2.1418967247009277,-1.3333580058864136,-2.5260987917529505,6.1102343676383875,1.0162688493728638,-2.7091286818133753
1708436499.3396442,-2.141963243484497,-1.3333919805339356,-2.526145044957296,6.110235321312704,1.016243577003479,-2.7091546694384974
1708436499.3416655,-2.1418967247009277,-1.333387480383255,-2.5260868708239954,6.110185491829672,1.016276240348816,-2.709085289631979
1708436499.3436432,-2.1419589519500732,-1.3333831590465088,-2.526145044957296,6.110214578896322,1.016226887702942,-2.7090819517718714
1708436499.3456666,-2.1419010162353516,-1.3334334951690217,-2.5261197725879114,6.110162484436788,1.0162850618362427,-2.7089884916888636
1708436499.347646,-2.1419546604156494,-1.3333800596049805,-2.5260959307300013,6.110178696900167,1.0162688493728638,-2.70896822610964
1708436499.349649,-2.14186954498291,-1.3334041398814698,-2.5261152426349085,6.110178816109457,1.0162312984466553,-2.7089408079730433
1708436499.3516397,-2.141880989074707,-1.3333460849574585,-2.5260780493365687,6.110213148384847,1.016219139099121,-2.7088564077960413
1708436499.3536546,-2.1418967247009277,-1.3333963763764878,-2.526116911564962,6.110168206482687,1.016276240348816,-2.7088001410113733
1708436499.3556447,-2.1418967247009277,-1.3333726239255448,-2.5260959307300013,6.110138404160299,1.0162358283996582,-2.7087720076190394
1708436499.357645,-2.141925573348999,-1.3334052425673981,-2.5260794798480433,6.110151636391439,1.0162358283996582,-2.708728615437643
1708436499.359645,-2.141930103302002,-1.3333055687001725,-2.526088539754049,6.110119092255392,1.0162688493728638,-2.708679978047506
1708436499.361643,-2.141913414001465,-1.333420143728592,-2.526067558919088,6.110105740814962,1.0162073373794556,-2.708616081868307
1708436499.3636374,-2.141925573348999,-1.3333756637624283,-2.526113812123434,6.110118973046102,1.0162569284439087,-2.7085097471820276
1708436499.3656442,-2.1419460773468018,-1.3334130507758637,-2.52600604692568,6.110139715462484,1.0161817073822021,-2.708470408116476
1708436499.3676467,-2.141934394836426,-1.3334130507758637,-2.5259743372546595,6.11017273643569,1.0161983966827393,-2.7084391752826136
1708436499.369712,-2.141925573348999,-1.3333580803922196,-2.5259531180011194,6.110132205277242,1.016211748123169,-2.708350483571188
1708436499.3716595,-2.141925573348999,-1.3333593171885987,-2.5259340445147913,6.110111462860861,1.016249179840088,-2.708285156880514
1708436499.3736525,-2.141979455947876,-1.3333592873862763,-2.5259998480426233,6.110161530762472,1.016223669052124,-2.7082627455340784
1708436499.3756435,-2.141930103302002,-1.333387480383255,-2.5259879271136683,6.1101571200187585,1.0162447690963745,-2.7081783453570765
1708436499.3776608,-2.1418895721435547,-1.3334246438792725,-2.5259833971606653,6.110071289330282,1.0162479877471924,-2.7081180254565638
1708436499.379659,-2.1419053077697754,-1.333436445598938,-2.525938336049215,6.110112654953756,1.0162358283996582,-2.7080205122577112
1708436499.3816392,-2.141885280609131,-1.333387480383255,-2.526001278554098,6.110093343048849,1.0162525177001953,-2.7079904715167444
1708436499.383657,-2.1418967247009277,-1.333392010336258,-2.525963846837179,6.110068189888754,1.0162028074264526,-2.7079060713397425
1708436499.3856459,-2.1419219970703125,-1.333384485249855,-2.525968376790182,6.110007154732504,1.0161983966827393,-2.707804028187887
1708436499.3876345,-2.1418967247009277,-1.3333668571761628,-2.525954786931173,6.110048401146688,1.0161906480789185,-2.707703415547506
1708436499.3896434,-2.1418967247009277,-1.3333756488612671,-2.5259221235858362,6.110007154732504,1.016211748123169,-2.7076285521136683
1708436499.391694,-2.141908884048462,-1.3333963763764878,-2.52592641512026,6.109998214035787,1.0161713361740112,-2.707543913518087
1708436499.3936396,-2.1418967247009277,-1.3333756488612671,-2.525980297719137,6.1100114462669275,1.016211748123169,-2.7074552218066614
1708436499.395631,-2.1418967247009277,-1.3333919805339356,-2.525910202656881,6.110081422119894,1.0161876678466797,-2.707400147114889
1708436499.3976474,-2.1419262886047363,-1.3333381575397034,-2.52592641512026,6.110039698868551,1.0161757469177246,-2.7073071638690394
1708436499.3996437,-2.1419010162353516,-1.3333263260177155,-2.525959316884176,6.10999487617568,1.0161505937576294,-2.7072225252734583
1708436499.401686,-2.1418652534484863,-1.3333681386760254,-2.5259578863727015,6.11000274398879,1.0161550045013428,-2.707179133092062
1708436499.4036233,-2.141885280609131,-1.3333874952844162,-2.5259833971606653,6.1100114462669275,1.0161261558532715,-2.7070630232440394
1708436499.4056263,-2.1419053077697754,-1.3333756488612671,-2.526041809712545,6.110021221428671,1.0161505937576294,-2.7069743315326136
1708436499.4076624,-2.1419472694396973,-1.3333461445621033,-2.5259788672076624,6.110061514168539,1.0161683559417725,-2.7068615595446985
1708436499.4096358,-2.1419219970703125,-1.333396391277649,-2.5259879271136683,6.109996068268575,1.0161550045013428,-2.7067490259753626
1708436499.4116607,-2.1419053077697754,-1.333363727932312,-2.525954786931173,6.110004889756002,1.0161468982696533,-2.706721369420187
1708436499.4136484,-2.1419262886047363,-1.333396391277649,-2.5259879271136683,6.109996068268575,1.0162054300308228,-2.7066412607776087
1708436499.415735,-2.1418895721435547,-1.3333756488612671,-2.525930945073263,6.1100021479423425,1.0161505937576294,-2.706590000783102
1708436499.4177263,-2.1419010162353516,-1.3333756488612671,-2.525954786931173,6.1099352715309045,1.0161638259887695,-2.7065137068377894
1708436499.4196837,-2.141909599304199,-1.3333743822625657,-2.525959316884176,6.10994719245986,1.0161638259887695,-2.706421677266256
1708436499.4216435,-2.141873836517334,-1.3334086251309891,-2.525930945073263,6.109927761345663,1.0161669254302979,-2.7063449064837855
1708436499.4236546,-2.1418721675872803,-1.3333800596049805,-2.525951925908224,6.109893786698141,1.0161638259887695,-2.7061830202685755
1708436499.4256406,-2.1419262886047363,-1.3333998185447236,-2.525992457066671,6.109935390740194,1.0161336660385132,-2.706168238316671
1708436499.4276438,-2.1419219970703125,-1.3333800596049805,-2.525938336049215,6.109878647118368,1.0162010192871094,-2.70609957376589
1708436499.4297178,-2.1418981552124023,-1.333372638826706,-2.525963846837179,6.109928715019979,1.0161638259887695,-2.705954615269796
1708436499.4316578,-2.141885280609131,-1.3333800596049805,-2.525975767766134,6.10989927032546,1.0161291360855103,-2.705930534993307
1708436499.4336545,-2.1418938636779785,-1.333363727932312,-2.525968376790182,6.109908091812887,1.016180157661438,-2.7058468500720423
1708436499.4356227,-2.1418981552124023,-1.333363727932312,-2.5260208288775843,6.109892952233114,1.01614248752594,-2.7057624498950403
1708436499.437637,-2.1419177055358887,-1.333342657690384,-2.525971237813131,6.109835374146261,1.016180157661438,-2.7056992689715784
1708436499.4396496,-2.14186692237854,-1.333363727932312,-2.525951925908224,6.109860408097067,1.0161439180374146,-2.705630604420797
1708436499.441624,-2.141885280609131,-1.3333548468402405,-2.525959316884176,6.109881031304159,1.0161558389663696,-2.705557886754171
1708436499.4436414,-2.141873836517334,-1.3334130507758637,-2.525930945073263,6.109852897911825,1.0161231756210327,-2.705505911503927
1708436499.4456525,-2.1418824195861816,-1.3333998185447236,-2.525942866002218,6.109845387726583,1.0161187648773193,-2.7054336706744593
1708436499.4476457,-2.1418864727020264,-1.333396391277649,-2.525971237813131,6.109824406891622,1.0161068439483643,-2.7054107824908655
1708436499.4496589,-2.141909599304199,-1.3333603751710434,-2.525968376790182,6.1098331091697595,1.0161683559417725,-2.7053664366351526
1708436499.45165,-2.1418709754943848,-1.3333814305118104,-2.525971237813131,6.1098365662391565,1.0161350965499878,-2.7052770296679896
1708436499.4536514,-2.1418824195861816,-1.3333637428334733,-2.525938336049215,6.109816896706381,1.0161439180374146,-2.7052539030658167
1708436499.4556706,-2.1418981552124023,-1.3334130507758637,-2.525980297719137,6.109758841782369,1.0161558389663696,-2.705214325581686
1708436499.457631,-2.1418542861938477,-1.333417461519577,-2.5260208288775843,6.109779584198751,1.0161305665969849,-2.705144468938009
1708436499.4596307,-2.141829013824463,-1.3333505404046555,-2.525954786931173,6.109797107964315,1.016168475151062,-2.7051499525653284
1708436499.4616237,-2.1418752670288086,-1.333449737434723,-2.5259998480426233,6.109772193222799,1.0161594152450562,-2.705109421406881
1708436499.4636953,-2.141846179962158,-1.3334334653666993,-2.525992457066671,6.1097895977790735,1.0161336660385132,-2.7050941626178187
1708436499.4656267,-2.1418585777282715,-1.333396391277649,-2.5260043779956263,6.109794008522787,1.0161594152450562,-2.705025021229879
1708436499.4676514,-2.1418709754943848,-1.333342657690384,-2.525959316884176,6.109718668251791,1.0161505937576294,-2.705020252858297
1708436499.469663,-2.1418259143829346,-1.333482788210251,-2.525971237813131,6.109764802246847,1.0161995887756348,-2.705045525227682
1708436499.4716263,-2.1418416500091553,-1.3333919805339356,-2.5260120073901575,6.109740721970358,1.0161964893341064,-2.7050183455096644
1708436499.4736536,-2.141871690750122,-1.3333351475051423,-2.5259833971606653,6.109809386521139,1.0161669254302979,-2.7050140539752405
1708436499.4756427,-2.1418347358703613,-1.3333396476558228,-2.525971237813131,6.109719979553976,1.0161876678466797,-2.7050803343402308
1708436499.4776516,-2.1418797969818115,-1.3333756488612671,-2.5260284582721155,6.109745132714071,1.0161876678466797,-2.705076042805807
1708436499.4796505,-2.1418590545654297,-1.3333963763764878,-2.5259621779071253,6.109724390297689,1.016192078590393,-2.7050541082965296
1708436499.4816604,-2.141805648803711,-1.3334086400321503,-2.5259621779071253,6.109802830010214,1.016224980354309,-2.7051060835467737
1708436499.4836552,-2.141826629638672,-1.3333756637624283,-2.5260074774371546,6.109712469368734,1.0162073373794556,-2.705163065587179
1708436499.4856484,-2.141822338104248,-1.3333681386760254,-2.5260120073901575,6.109700548439779,1.016224980354309,-2.7052038351642054
1708436499.4876578,-2.1418142318725586,-1.3333668273738404,-2.5259833971606653,6.109672057419576,1.0162206888198853,-2.705243174229757
1708436499.489639,-2.1417741775512695,-1.3333756637624283,-2.5260193983661097,6.109697210579672,1.016261339187622,-2.7052744070636194
1708436499.491644,-2.1418027877807617,-1.3333470684340973,-2.5259488264666956,6.109655725746908,1.0162312984466553,-2.705282513295309
1708436499.4936664,-2.141787052154541,-1.3333919805339356,-2.5260732809649866,6.109675276070394,1.0162569284439087,-2.7053094545947474
1708436499.4956598,-2.141782760620117,-1.3333470684340973,-2.5260120073901575,6.109664666443624,1.0162643194198608,-2.7053995768176478
1708436499.4976711,-2.1418142318725586,-1.3334219616702576,-2.526059929524557,6.109692799835958,1.016325831413269,-2.7054508368121546
1708436499.499648,-2.1417622566223145,-1.3333800596049805,-2.5260403792010706,6.10965262630538,1.0163289308547974,-2.705588165913717
1708436499.5016754,-2.1417579650878906,-1.3333514791778107,-2.526048008595602,6.109657037049093,1.016319990158081,-2.7056577841388147
1708436499.5036657,-2.1418113708496094,-1.3333580058864136,-2.526072088872091,6.109645116120138,1.0163486003875732,-2.7057371775256556
1708436499.5056753,-2.1418159008026123,-1.3333889704993744,-2.526109282170431,6.109677660256185,1.0163440704345703,-2.705834690724508
1708436499.5076652,-2.14176607131958,-1.333384470348694,-2.5260630289660853,6.1095852730567834,1.0164011716842651,-2.70594293275942
1708436499.5096428,-2.1417341232299805,-1.3333889704993744,-2.526133124028341,6.10964189746932,1.016433835029602,-2.7060497442828577
1708436499.511636,-2.1417622566223145,-1.3333844554475327,-2.5261123816119593,6.109638917237081,1.016404151916504,-2.7062116304980677
1708436499.5138023,-2.1417622566223145,-1.333371178512909,-2.5260987917529505,6.109552371292867,1.0164401531219482,-2.7063022295581263
1708436499.5157523,-2.1417295932769775,-1.3334041398814698,-2.5261486212359827,6.109568941384115,1.0164523124694824,-2.7064996401416224
1708436499.5177486,-2.1417384147644043,-1.333384470348694,-2.526172463093893,6.109528887062826,1.0165046453475952,-2.706709686909811
1708436499.5196662,-2.1417129039764404,-1.333350495701172,-2.526158873234884,6.109537589340963,1.0165209770202637,-2.7068443934070032
1708436499.5216498,-2.1417295932769775,-1.3333919805339356,-2.526203695927755,6.109565603524008,1.016512155532837,-2.7070208231555384
1708436499.5236645,-2.1417129039764404,-1.3333800596049805,-2.5262158552752894,6.109501707344808,1.016549825668335,-2.7072649637805384
1708436499.525666,-2.141718864440918,-1.3333711338094254,-2.5262563864337366,6.109550821572103,1.0165483951568604,-2.7074716726886194
1708436499.5276675,-2.141707420349121,-1.3333756488612671,-2.526203695927755,6.1094515202339075,1.0165635347366333,-2.7077131907092493
1708436499.5296395,-2.141718864440918,-1.333372638826706,-2.5262683073626917,6.109505998879232,1.016608476638794,-2.7079508940326136
1708436499.5317502,-2.141662359237671,-1.3333756637624283,-2.5262895266162317,6.1094610569770715,1.0166128873825073,-2.708165947590963
1708436499.533642,-2.141662359237671,-1.3334334653666993,-2.526278797780172,6.109449255257406,1.0166773796081543,-2.708459440861837
1708436499.5356457,-2.141663074493408,-1.3333396476558228,-2.526283327733175,6.109453666001119,1.0167014598846436,-2.708695952092306
1708436499.5376391,-2.141602039337158,-1.3333874952844162,-2.526283327733175,6.109437334328451,1.016762614250183,-2.7089925448047083
1708436499.539625,-2.141589641571045,-1.3334008020213624,-2.5263403097735804,6.109524714737692,1.0167618989944458,-2.7092986742602747
1708436499.5416164,-2.1416478157043457,-1.3333351475051423,-2.5263357798205774,6.109373080521383,1.0167975425720215,-2.70961577097048
1708436499.5436735,-2.141610622406006,-1.333372638826706,-2.526376549397604,6.109438884049215,1.0168460607528687,-2.709907356892721
1708436499.5456452,-2.141598701477051,-1.333384470348694,-2.526376549397604,6.109385239868917,1.0169026851654053,-2.710245672856466
1708436499.5477219,-2.141619920730591,-1.3333668422750016,-2.526421372090475,6.109373080521383,1.0169224739074707,-2.7105332056628626
1708436499.5496407,-2.141587495803833,-1.3333889704993744,-2.526395861302511,6.10938190200881,1.016921043395996,-2.710911814366476
1708436499.5516527,-2.141571044921875,-1.3333470535329361,-2.5264409224139612,6.109390723496237,1.0170228481292725,-2.711275879536764
1708436499.5536435,-2.141514301300049,-1.3333460849574585,-2.5264604727374476,6.109365570336141,1.0170173645019531,-2.711691443120138
1708436499.5556626,-2.1415228843688965,-1.333363727932312,-2.526458803807394,6.109301674156942,1.0170458555221558,-2.712010924016134
1708436499.5576377,-2.141474723815918,-1.3334008020213624,-2.5265095869647425,6.109304415970602,1.017086386680603,-2.71239144006838
1708436499.5596225,-2.1414623260498047,-1.333440975551941,-2.5265067259417933,6.109383213310995,1.0171027183532715,-2.712775532399313
1708436499.5616481,-2.1414875984191895,-1.3334041398814698,-2.526548687611715,6.109346139221945,1.0171641111373901,-2.7132516543017786
1708436499.5636544,-2.141483783721924,-1.333387480383255,-2.5265725294696253,6.109322058945455,1.0171494483947754,-2.713705364857809
1708436499.5656202,-2.141483783721924,-1.3334086400321503,-2.5265756289111536,6.109310376435079,1.017164707183838,-2.714102093373434
1708436499.5676732,-2.141423225402832,-1.3333889704993744,-2.5265665690051478,6.109302985459127,1.0172187089920044,-2.7145713011371058
1708436499.569636,-2.141423225402832,-1.3334379655173798,-2.526607338582174,6.109253752022543,1.0172832012176514,-2.715062204991476
1708436499.571644,-2.1414449214935303,-1.3333711487105866,-2.526611868535177,6.109278785973348,1.017290711402893,-2.715478245412008
1708436499.5736477,-2.141378879547119,-1.3334130507758637,-2.5266147295581263,6.109253632813253,1.0173510313034058,-2.7160123030291956
1708436499.5756357,-2.1413674354553223,-1.3333756488612671,-2.5266762415515345,6.1092580435569666,1.0174107551574707,-2.7165585199939173
1708436499.5776513,-2.1413350105285645,-1.3333382320455094,-2.5266671816455286,6.1092145321662805,1.0174307823181152,-2.717088286076681
1708436499.5796256,-2.141326904296875,-1.3334453862956543,-2.52665359178652,6.109223234444418,1.0174996852874756,-2.717581574116842
1708436499.5816324,-2.1413486003875732,-1.333396391277649,-2.526752535496847,6.109230863838949,1.0175279378890991,-2.7181885878192347
1708436499.5836234,-2.141274929046631,-1.3333593171885987,-2.526748243962423,6.109181868820944,1.017543077468872,-2.718771282826559
1708436499.5856345,-2.1412861347198486,-1.3333844554475327,-2.52674371400942,6.109175669937887,1.0175868272781372,-2.719274107609884
1708436499.587654,-2.1412510871887207,-1.3333889704993744,-2.5267797152148646,6.109108793526449,1.017594337463379,-2.7199423948871058
1708436499.5896354,-2.141292095184326,-1.3333919805339356,-2.5267706553088587,6.109154689102926,1.0176799297332764,-2.7205145994769495
1708436499.591626,-2.1412429809570312,-1.3333756637624283,-2.526848856602804,6.109118926316061,1.0176665782928467,-2.7210920492755335
1708436499.5936575,-2.1411795616149902,-1.3333919805339356,-2.5268517176257532,6.10914837101058,1.0177310705184937,-2.72169000307192
1708436499.5956564,-2.141235828399658,-1.3333889704993744,-2.5268636385547083,6.1090502617652795,1.017771601676941,-2.7223156134234827
1708436499.597654,-2.1412243843078613,-1.3333514791778107,-2.5268710295306605,6.109054672508993,1.0178077220916748,-2.7228573004352015
1708436499.599629,-2.1411304473876953,-1.3333603900722046,-2.5269129912005823,6.109124290734091,1.0177944898605347,-2.7234624067889612
1708436499.601634,-2.141188144683838,-1.3333711487105866,-2.526902739201681,6.109099495201864,1.0178468227386475,-2.7240918318377894
1708436499.60365,-2.141167640686035,-1.3333593171885987,-2.526977602635519,6.10906349399642,1.01787531375885,-2.7246864477740687
1708436499.6056192,-2.1411449909210205,-1.3334052723697205,-2.527001682912008,6.109067904740133,1.0179312229156494,-2.7252793947802942
1708436499.6076443,-2.141119956970215,-1.3333756488612671,-2.5269883314715784,6.108975517540731,1.0179836750030518,-2.7259722391711634
1708436499.609653,-2.1410632133483887,-1.3333593171885987,-2.5270031134234827,6.108994829445638,1.0179835557937622,-2.726628128682272
1708436499.61164,-2.14107608795166,-1.333350495701172,-2.5270662943469446,6.108942854195394,1.0180317163467407,-2.727342192326681
1708436499.6136513,-2.141101360321045,-1.333426372413971,-2.5270260016070765,6.108938443451681,1.0180844068527222,-2.727940861378805
1708436499.6157231,-2.141084671020508,-1.3333919805339356,-2.527055803929464,6.1089515564735315,1.0181081295013428,-2.728662077580587
1708436499.6176984,-2.141002893447876,-1.3333470684340973,-2.5270586649524134,6.108894932060995,1.0181277990341187,-2.72931415239443
1708436499.6196368,-2.141002893447876,-1.3334086251309891,-2.5270751158343714,6.108894932060995,1.0181759595870972,-2.7300108114825647
1708436499.6216245,-2.1410045623779297,-1.3333470535329361,-2.527156178151266,6.108945119171896,1.018228530883789,-2.7307396570788782
1708436499.6236355,-2.141000747680664,-1.3333440583995362,-2.527172629033224,6.108903634339132,1.0182437896728516,-2.7314797083484095
1708436499.6256385,-2.1409683227539062,-1.3333338362029572,-2.527189079915182,6.108912455826559,1.0182750225067139,-2.7322705427752894
1708436499.6276522,-2.1409482955932617,-1.3333548170379181,-2.527163569127218,6.10885905006484,1.0183488130569458,-2.7329331080066126
1708436499.6296322,-2.1409270763397217,-1.333417461519577,-2.5271831194507044,6.108826505928793,1.018356204032898,-2.7336939016925257
1708436499.6316273,-2.1409525871276855,-1.3333681386760254,-2.5271907488452356,6.108844029694357,1.0184043645858765,-2.7344701925860804
1708436499.633629,-2.1409318447113037,-1.333384470348694,-2.527214590703146,6.108815538674154,1.018420696258545,-2.735152546559469
1708436499.635643,-2.1409292221069336,-1.3333470684340973,-2.527247492467062,6.108824360161581,1.0184437036514282,-2.7359824816333216
1708436499.6376438,-2.1409249305725098,-1.3334041398814698,-2.527221981679098,6.108812439232626,1.0184767246246338,-2.736755434666769
1708436499.63964,-2.1408801078796387,-1.3334219616702576,-2.527288262044088,6.1087883589561365,1.018496036529541,-2.7376118342029017
1708436499.6416392,-2.1409130096435547,-1.333342657690384,-2.527245823537008,6.108760344773092,1.0185353755950928,-2.738351885472433
1708436499.6436596,-2.1408605575561523,-1.333387480383255,-2.5273121039019983,6.10874496677474,1.018592357635498,-2.7391913572894495
1708436499.6456532,-2.1408605575561523,-1.3333756488612671,-2.5273030439959925,6.108736264496603,1.018653392791748,-2.739990536366598
1708436499.6476755,-2.1408779621124268,-1.3333681535771866,-2.5273223559008997,6.108690488129415,1.0186854600906372,-2.740779463444845
1708436499.6496444,-2.14084529876709,-1.3334130507758637,-2.5273435751544397,6.108720052033224,1.0187169313430786,-2.74160606065859
1708436499.6516361,-2.1408495903015137,-1.3333800596049805,-2.527339045201437,6.108724343567648,1.018720030784607,-2.742429796849386
1708436499.6536472,-2.140869617462158,-1.3334114116481324,-2.527367655430929,6.108695852547445,1.0187740325927734,-2.743237558995382
1708436499.6556437,-2.1408047676086426,-1.333372638826706,-2.527391497288839,6.1086346981819055,1.0188132524490356,-2.7440298239337366
1708436499.657639,-2.140759229660034,-1.333350495701172,-2.5273900667773646,6.108615624695577,1.0188207626342773,-2.7449241320239466
1708436499.6596248,-2.140768051147461,-1.3333919805339356,-2.5274065176593226,6.108607756882467,1.0188567638397217,-2.7457616964923304
1708436499.6616247,-2.1408090591430664,-1.3334130507758637,-2.5273779074298304,6.108537781029501,1.018885612487793,-2.746666495000021
1708436499.6636438,-2.1407766342163086,-1.333396391277649,-2.5274606386767786,6.108567702561178,1.0189212560653687,-2.7475300470935267
1708436499.6656315,-2.1408064365386963,-1.3334174317172547,-2.527426067982809,6.108531582146444,1.0189498662948608,-2.7484031359301966
1708436499.6676323,-2.140748977661133,-1.3333934408477326,-2.527491871510641,6.108520138054647,1.0189861059188843,-2.7493131796466272
1708436499.6696393,-2.140723705291748,-1.3334219616702576,-2.527454439793722,6.108586180001058,1.0190098285675049,-2.750106159840719
1708436499.6716442,-2.140712261199951,-1.333363727932312,-2.527487341557638,6.108512270241537,1.018977165222168,-2.7510486284839075
1708436499.673645,-2.1407222747802734,-1.333384470348694,-2.527466360722677,6.108552324562826,1.01905357837677,-2.7519007364856165
1708436499.6756308,-2.1407575607299805,-1.333363727932312,-2.527466360722677,6.1084914086158655,1.0190328359603882,-2.7528074423419397
1708436499.6776373,-2.140749216079712,-1.3333593171885987,-2.527440849934713,6.108537542610922,1.019085168838501,-2.7537100950824183
1708436499.6796942,-2.1407008171081543,-1.3333800596049805,-2.527478281651632,6.108529794007101,1.0191184282302856,-2.75458270708193
1708436499.6816442,-2.140702247619629,-1.3333756488612671,-2.5275190512286585,6.108452307968893,1.019097089767456,-2.7554271856891077
1708436499.6836321,-2.1406731605529785,-1.333405302172043,-2.5275355021106165,6.108444797783651,1.0191574096679688,-2.756234947835104
1708436499.6856408,-2.140631914138794,-1.3333919805339356,-2.5275474230395716,6.108550655632772,1.0191410779953003,-2.757155243550436
1708436499.687622,-2.1406362056732178,-1.3333396923593064,-2.527517382298605,6.108481752663412,1.019144058227539,-2.757929865513937
1708436499.6896195,-2.1406660079956055,-1.3333889555982132,-2.5275428930865687,6.108453738480367,1.0192099809646606,-2.758789602910177
1708436499.691628,-2.1406493186950684,-1.3333338362029572,-2.5275760332690638,6.108428227692404,1.0191593170166016,-2.7596755663501185
1708436499.6936471,-2.14060115814209,-1.3334219616702576,-2.527571503316061,6.108425366669454,1.0192537307739258,-2.7605186144458216
1708436499.6956186,-2.1406326293945312,-1.3334086400321503,-2.527545754109518,6.108443009644308,1.0192370414733887,-2.761338774357931
1708436499.6976378,-2.1406054496765137,-1.333396391277649,-2.527583662663595,6.108417856484213,1.019310474395752,-2.7622271219836634
1708436499.6996276,-2.1405930519104004,-1.333362416630127,-2.5276194254504603,6.108417737274923,1.0193016529083252,-2.7631481329547327
1708436499.7016213,-2.140568971633911,-1.3333919805339356,-2.527607504521505,6.108377444535055,1.019346833229065,-2.763980213795797
1708436499.7036388,-2.140627145767212,-1.3334008020213624,-2.5275700728045862,6.1083611128623865,1.0193257331848145,-2.7649109999286097
1708436499.7056658,-2.1406428813934326,-1.3333470684340973,-2.5276103655444544,6.108426677971639,1.019374966621399,-2.7657631079303187
1708436499.7076247,-2.140577793121338,-1.3334130507758637,-2.5276315847979944,6.108398067742147,1.019354224205017,-2.766639773045675
