Eg3-git/Classifiers/Data Collection/u4/u4www5_ur3e_joint_states.csv
time,elbow_joint,shoulder_lift_joint,shoulder_pan_joint,wrist_1_joint,wrist_2_joint,wrist_3_joint
1708436550.1173623,-2.147150993347168,-1.3350987148335953,-2.526203695927755,6.123632061272421,1.0164270401000977,-2.565463129674093
1708436550.1193538,-2.147135019302368,-1.3350172501853486,-2.5262113253222864,6.12361108043746,1.0164512395858765,-2.56547195116152
1708436550.1213303,-2.147209882736206,-1.335095376973488,-2.526207987462179,6.123660194664755,1.0164480209350586,-2.5654764811145228
1708436550.1233487,-2.147139549255371,-1.3350496751121064,-2.526170794163839,6.123632061272421,1.0164357423782349,-2.5654764811145228
1708436550.1253202,-2.1471803188323975,-1.335094304089882,-2.526203695927755,6.123614656716146,1.016497015953064,-2.565467659627096
1708436550.1273453,-2.1471848487854004,-1.3350539964488526,-2.526159111653463,6.1236352799232385,1.0164436101913452,-2.565463129674093
1708436550.1293373,-2.1471688747406006,-1.3349962395480652,-2.5262487570392054,6.123630869179525,1.0164685249328613,-2.565463129674093
1708436550.1313221,-2.1471962928771973,-1.3350301694921036,-2.5262280146228235,6.12364279010848,1.0164512395858765,-2.565463129674093
1708436550.1333287,-2.147150993347168,-1.3350659024766465,-2.526175324116842,6.123675334244528,1.016465425491333,-2.565467659627096
1708436550.1353247,-2.1471848487854004,-1.3350453090718766,-2.5262234846698206,6.123679744988241,1.016480803489685,-2.5654361883746546
1708436550.1373675,-2.147205114364624,-1.33502151191745,-2.526220146809713,6.123647200852194,1.0164270401000977,-2.565488878880636
1708436550.1393688,-2.1472268104553223,-1.3350410026362916,-2.5261784235583704,6.123630869179525,1.0164598226547241,-2.565455738698141
1708436550.1413474,-2.147205114364624,-1.3350377988866349,-2.5261738936053675,6.123655783921041,1.016480803489685,-2.565463129674093
1708436550.1433327,-2.1471645832061768,-1.3350615215352555,-2.5262280146228235,6.123659121781149,1.0164436101913452,-2.565484587346212
1708436550.145341,-2.147155523300171,-1.335074545150139,-2.526203695927755,6.12367211559371,1.0164598226547241,-2.565467659627096
1708436550.1473682,-2.1472132205963135,-1.3350377690843125,-2.5262368361102503,6.1236764071281335,1.0164073705673218,-2.5654807726489466
1708436550.14931,-2.1471714973449707,-1.3350129139474411,-2.5262113253222864,6.123582947045126,1.0164436101913452,-2.565467659627096
1708436550.1513224,-2.1472177505493164,-1.3350659024766465,-2.5261917749988,6.123651492386617,1.0164763927459717,-2.5654423872577112
1708436550.1533134,-2.1472344398498535,-1.335086779003479,-2.5261665026294153,6.12369595745162,1.0164152383804321,-2.5655177275287073
1708436550.155341,-2.1472008228302,-1.335074545150139,-2.5261784235583704,6.123684036522665,1.0164763927459717,-2.565451447163717
1708436550.157327,-2.1472008228302,-1.3350453090718766,-2.526170794163839,6.123614656716146,1.0164850950241089,-2.56541878381838
1708436550.159308,-2.1472008228302,-1.3350910705379029,-2.5261946360217493,6.123605954438009,1.0164598226547241,-2.565496269856588
1708436550.1613393,-2.147150993347168,-1.3350583177855988,-2.5261946360217493,6.12369595745162,1.0164729356765747,-2.565439526234762
1708436550.1633306,-2.1471962928771973,-1.3350626093200226,-2.5262113253222864,6.1236764071281335,1.0164763927459717,-2.565489117299215
1708436550.1653445,-2.1471893787384033,-1.3350987446359177,-2.526187245045797,6.123614656716146,1.0164480209350586,-2.565484587346212
1708436550.1673112,-2.1472344398498535,-1.3350420755198975,-2.5261991659747522,6.123598086624899,1.016444444656372,-2.565538469945089
1708436550.1693182,-2.1471803188323975,-1.3350824576667328,-2.5261827150927942,6.123639571457662,1.0164763927459717,-2.565463129674093
1708436550.1713204,-2.147205114364624,-1.3350615066340943,-2.5261784235583704,6.123614656716146,1.0164685249328613,-2.565430466328756
1708436550.173373,-2.1471757888793945,-1.335095302467682,-2.5261784235583704,6.123614656716146,1.0164763927459717,-2.565463129674093
1708436550.1753106,-2.1471760272979736,-1.3350911301425477,-2.526224676762716,6.1236363528068445,1.016480803489685,-2.565505329762594
1708436550.1773107,-2.1471917629241943,-1.335065172319748,-2.5261858145343226,6.123684036522665,1.0164512395858765,-2.565439526234762
1708436550.1793237,-2.1471803188323975,-1.3350292158177872,-2.5261946360217493,6.1236634133155725,1.0164436101913452,-2.56547195116152
1708436550.1813776,-2.1472008228302,-1.3350215417197724,-2.5261784235583704,6.123593675881185,1.0164895057678223,-2.56547195116152
1708436550.1833534,-2.147205114364624,-1.3350615066340943,-2.5261784235583704,6.123664605408468,1.0164895057678223,-2.5654831568347376
1708436550.1853237,-2.1471734046936035,-1.335061476831772,-2.5262280146228235,6.123680817871847,1.0164721012115479,-2.56547195116152
1708436550.187345,-2.1472389698028564,-1.3350788217834015,-2.5262442270862024,6.123688328057089,1.0164883136749268,-2.565488878880636
1708436550.1893306,-2.147209882736206,-1.335078777079918,-2.5261738936053675,6.123660194664755,1.0164926052093506,-2.565467659627096
1708436550.1913266,-2.1471779346466064,-1.3350539964488526,-2.5261917749988,6.123660194664755,1.0164763927459717,-2.565467659627096
1708436550.1933348,-2.1471714973449707,-1.3350702238133927,-2.5261738936053675,6.12361894825057,1.0164763927459717,-2.56547195116152
1708436550.1953328,-2.1471803188323975,-1.3350334477475663,-2.5261827150927942,6.123667704849996,1.0164763927459717,-2.5654588381396692
1708436550.1973894,-2.1472008228302,-1.3350410026362916,-2.5261946360217493,6.123660194664755,1.016480803489685,-2.5654831568347376
1708436550.1993155,-2.1471803188323975,-1.3350540113500138,-2.5262325445758265,6.123627650528707,1.0164642333984375,-2.5654712359057825
1708436550.2013295,-2.1471304893493652,-1.3350780618241807,-2.5262158552752894,6.123627650528707,1.016497015953064,-2.5654588381396692
1708436550.2033412,-2.1471848487854004,-1.3350824427655716,-2.5261665026294153,6.123598086624899,1.0164926052093506,-2.5655205885516565
1708436550.2053137,-2.1472175121307373,-1.3350572300008317,-2.5261483828174036,6.123671042710104,1.0164635181427002,-2.5654588381396692
1708436550.2073395,-2.1472389698028564,-1.3350248497775574,-2.5261665026294153,6.123627650528707,1.0164763927459717,-2.5655251185046595
1708436550.2093508,-2.1471688747406006,-1.335094304089882,-2.526220146809713,6.12361894825057,1.016467809677124,-2.5655131975757044
1708436550.2113216,-2.1471688747406006,-1.3350824427655716,-2.5261991659747522,6.123598086624899,1.0165013074874878,-2.5655043760882776
1708436550.2133212,-2.1471848487854004,-1.3350910705379029,-2.5262113253222864,6.123659121781149,1.0165002346038818,-2.5654757658587855
1708436550.2153578,-2.1471803188323975,-1.3350659173778077,-2.526220146809713,6.123647200852194,1.016497015953064,-2.5654919783221644
1708436550.217359,-2.1472389698028564,-1.3350986552289505,-2.526203695927755,6.123651492386617,1.0165002346038818,-2.565488878880636
1708436550.2193146,-2.1471893787384033,-1.3350377690843125,-2.5261946360217493,6.1236764071281335,1.0165045261383057,-2.565505329762594
1708436550.2213128,-2.1471643447875977,-1.335033507352211,-2.5262025038348597,6.1236634133155725,1.0164721012115479,-2.565495554600851
1708436550.2233343,-2.147209882736206,-1.3350824576667328,-2.5261991659747522,6.123590457230367,1.0164598226547241,-2.5654712359057825
1708436550.225318,-2.1471893787384033,-1.3350701940110703,-2.5262442270862024,6.12361894825057,1.0164721012115479,-2.565512005482809
1708436550.2273424,-2.1471893787384033,-1.3350780767253418,-2.5262158552752894,6.123639571457662,1.0164555311203003,-2.5654919783221644
1708436550.2293236,-2.1471643447875977,-1.3350867492011567,-2.5261784235583704,6.123667704849996,1.016495943069458,-2.5654454866992396
1708436550.2313163,-2.1472008228302,-1.3350335222533722,-2.526187245045797,6.1236233589942834,1.0164883136749268,-2.5655296484576624
1708436550.233347,-2.147155523300171,-1.3350497347167511,-2.5262609163867396,6.123643862992086,1.0165419578552246,-2.5654712359057825
1708436550.235324,-2.1471688747406006,-1.3350215417197724,-2.5261946360217493,6.1236764071281335,1.0164707899093628,-2.565500084553854
1708436550.2373426,-2.1471803188323975,-1.3350911152413865,-2.5261827150927942,6.123593795090475,1.0164763927459717,-2.5655296484576624
1708436550.2394118,-2.1472268104553223,-1.335123525266983,-2.5262234846698206,6.12361894825057,1.0165002346038818,-2.56556207338442
1708436550.2414708,-2.1471848487854004,-1.3350084883025666,-2.526187245045797,6.123606669693746,1.0165289640426636,-2.5654757658587855
1708436550.2433784,-2.1471962928771973,-1.335017205481865,-2.5262113253222864,6.123660194664755,1.016479730606079,-2.5655325094806116
1708436550.245389,-2.147160053253174,-1.3350702387145539,-2.5262473265277308,6.123614656716146,1.0165088176727295,-2.5655577818499964
1708436550.2473352,-2.1471688747406006,-1.335082472567894,-2.5262609163867396,6.123606788903036,1.016540765762329,-2.5655458609210413
1708436550.2493708,-2.147160053253174,-1.3350615215352555,-2.5262158552752894,6.123643862992086,1.0164707899093628,-2.565523926411764
1708436550.2513323,-2.147160053253174,-1.3350301545909424,-2.526176993046896,6.123655783921041,1.016495943069458,-2.5655043760882776
1708436550.2533274,-2.1472504138946533,-1.3350496751121064,-2.5262323061572474,6.123648392945089,1.016540765762329,-2.565535847340719
1708436550.2553313,-2.1472008228302,-1.3350867939046402,-2.526214663182394,6.123655783921041,1.016545295715332,-2.565495554600851
1708436550.2573366,-2.147160053253174,-1.3350780469230195,-2.5262280146228235,6.12361108043746,1.0165165662765503,-2.565491263066427
1708436550.2593584,-2.147141933441162,-1.3350987148335953,-2.5262697378741663,6.1236352799232385,1.016540765762329,-2.565512005482809
1708436550.2613218,-2.1471645832061768,-1.3350420755198975,-2.5262487570392054,6.123627650528707,1.0165202617645264,-2.5655325094806116
1708436550.263355,-2.1471939086914062,-1.3350659173778077,-2.5261693636523646,6.12361108043746,1.01654851436615,-2.5655296484576624
1708436550.2653258,-2.147155523300171,-1.3350583177855988,-2.5262025038348597,6.1236352799232385,1.016533374786377,-2.565512005482809
1708436550.2673378,-2.1472132205963135,-1.3350377541831513,-2.526214663182394,6.1236352799232385,1.016545295715332,-2.565512005482809
1708436550.269343,-2.1472175121307373,-1.3350572001985093,-2.5262325445758265,6.123578536301412,1.0165245532989502,-2.5655368010150355
1708436550.2713177,-2.1471939086914062,-1.3351062399199982,-2.5262323061572474,6.123607861786642,1.016556978225708,-2.5655415693866175
1708436550.273355,-2.1472344398498535,-1.3350496751121064,-2.5262606779681605,6.123652684479513,1.016568899154663,-2.565519396458761
1708436550.2753832,-2.1472344398498535,-1.3350911301425477,-2.5262637774096888,6.123590457230367,1.0165646076202393,-2.5655770937549036
1708436550.2773588,-2.1471803188323975,-1.3350496751121064,-2.5262067953692835,6.123632061272421,1.016527771949768,-2.5655108133899134
1708436550.2798605,-2.147205114364624,-1.3350659173778077,-2.5261781851397913,6.123615491181173,1.016515851020813,-2.565535847340719
1708436550.281334,-2.1471779346466064,-1.3350659173778077,-2.5261858145343226,6.123614656716146,1.016601800918579,-2.565519396458761
1708436550.2833362,-2.1471376419067383,-1.335082472567894,-2.5262280146228235,6.123632061272421,1.016556978225708,-2.5655770937549036
1708436550.285322,-2.147150993347168,-1.3351029616645356,-2.5262113253222864,6.123651492386617,1.0165526866912842,-2.5655608812915247
1708436550.2873652,-2.1472175121307373,-1.3350868088058014,-2.5262025038348597,6.123615491181173,1.016556978225708,-2.5655608812915247
1708436550.2893262,-2.1471962928771973,-1.3350128096393128,-2.5262280146228235,6.123652684479513,1.0165646076202393,-2.565568272267477
1708436550.2913055,-2.1471803188323975,-1.335078091626503,-2.5262399355517786,6.1236926195915125,1.0165483951568604,-2.5655420462237757
1708436550.293337,-2.1471803188323975,-1.3350702089122315,-2.5262234846698206,6.123673307686605,1.0165483951568604,-2.56557280222048
1708436550.2953162,-2.147205352783203,-1.3350744855454941,-2.5262113253222864,6.123582947045126,1.0165646076202393,-2.565559689198629
1708436550.297336,-2.1472008228302,-1.3350702238133927,-2.5262442270862024,6.1236023781593225,1.0165441036224365,-2.5655182043658655
1708436550.2993271,-2.147205114364624,-1.33504971981559,-2.5262025038348597,6.123582947045126,1.0165646076202393,-2.56557280222048
1708436550.3013237,-2.147150993347168,-1.3350497347167511,-2.5261946360217493,6.123632061272421,1.0165483951568604,-2.565563980733053
1708436550.3033104,-2.1471688747406006,-1.335123435860016,-2.5262280146228235,6.123615491181173,1.0165526866912842,-2.565543238316671
1708436550.3053231,-2.1472086906433105,-1.3350702089122315,-2.526214663182394,6.123684036522665,1.0165854692459106,-2.565540138875143
1708436550.3073394,-2.1471734046936035,-1.3350986552289505,-2.5262606779681605,6.123652684479513,1.0165483951568604,-2.5655551592456263
1708436550.309329,-2.1471848487854004,-1.3350867939046402,-2.5261693636523646,6.123606669693746,1.0165646076202393,-2.565575901662008
1708436550.3113258,-2.1471803188323975,-1.3350868088058014,-2.5262189547168177,6.123627650528707,1.0165724754333496,-2.5655670801745813
1708436550.313343,-2.1472175121307373,-1.3350781065276642,-2.5261812845813196,6.123668896942892,1.0165733098983765,-2.5656209627734583
1708436550.3153198,-2.1471848487854004,-1.3350943189910431,-2.5262113253222864,6.1236363528068445,1.0165396928787231,-2.5656002203570765
1708436550.3173475,-2.1471917629241943,-1.334999905233719,-2.5262442270862024,6.1236482737358,1.0165811777114868,-2.565580193196432
1708436550.319354,-2.1471962928771973,-1.3350377690843125,-2.5262473265277308,6.123582947045126,1.0165483951568604,-2.565587822590963
1708436550.3213506,-2.1471760272979736,-1.3350987297347565,-2.526193443928854,6.123578536301412,1.016555905342102,-2.565563980733053
1708436550.3233817,-2.147221088409424,-1.335030199294426,-2.5262561480151575,6.123599278717794,1.016593098640442,-2.565575901662008
1708436550.3253164,-2.1471688747406006,-1.3350410026362916,-2.526203457509176,6.123619782715597,1.0165886878967285,-2.56559664407839
1708436550.3273509,-2.147146463394165,-1.3350583028844376,-2.5261812845813196,6.1236233589942834,1.0165811777114868,-2.5655716101275843
1708436550.329344,-2.1471760272979736,-1.3350572300008317,-2.5262399355517786,6.123590457230367,1.016618251800537,-2.565613571797506
1708436550.3313093,-2.1471760272979736,-1.33502912641082,-2.5262725988971155,6.1236233589942834,1.0165637731552124,-2.5655389467822474
1708436550.3333378,-2.1471645832061768,-1.335045338874199,-2.5262234846698206,6.1236233589942834,1.0165354013442993,-2.565575901662008
1708436550.3352942,-2.1471824645996094,-1.3350910705379029,-2.5262234846698206,6.123554456024923,1.0165637731552124,-2.56561786333193
1708436550.337348,-2.1471848487854004,-1.3350953620723267,-2.5261946360217493,6.123664605408468,1.0165886878967285,-2.5655670801745813
1708436550.3393855,-2.1471893787384033,-1.3350702238133927,-2.526210133229391,6.123606669693746,1.0165516138076782,-2.565587822590963
1708436550.3413513,-2.1471939086914062,-1.335078091626503,-2.5262067953692835,6.123591649323263,1.0166302919387817,-2.565587822590963
1708436550.3433318,-2.1471645832061768,-1.3350172948888321,-2.5261979738818567,6.123595940857687,1.0165516138076782,-2.565592114125387
1708436550.345315,-2.1471848487854004,-1.3350377541831513,-2.5262234846698206,6.12362419345931,1.0166618824005127,-2.5655463377581995
1708436550.3473585,-2.1471939086914062,-1.335069478755333,-2.5262280146228235,6.123616683274069,1.0166009664535522,-2.5655890146838587
1708436550.3493502,-2.147214412689209,-1.3350216013244172,-2.526219193135397,6.1235742447669885,1.0165965557098389,-2.565575901662008
1708436550.351309,-2.1472175121307373,-1.3350128543427964,-2.526210133229391,6.1236003516014,1.016608476638794,-2.5655625502215784
1708436550.3533506,-2.1472220420837402,-1.3350615066340943,-2.526210133229391,6.123571026116171,1.016592264175415,-2.565559689198629
1708436550.3553088,-2.1471803188323975,-1.3351516735604783,-2.5262025038348597,6.123575436859884,1.0165843963623047,-2.56561786333193
1708436550.3573494,-2.1471688747406006,-1.3350420904210587,-2.5261977354632776,6.123567569046774,1.0166163444519043,-2.565592114125387
1708436550.3593473,-2.1471734046936035,-1.3350452792695542,-2.526214663182394,6.123542535095968,1.0166338682174683,-2.5656209627734583
1708436550.3613234,-2.1471803188323975,-1.3350659173778077,-2.5261979738818567,6.123551356583395,1.0166009664535522,-2.5656209627734583
1708436550.3633897,-2.1472132205963135,-1.3350452792695542,-2.5262158552752894,6.12356315830306,1.0166127681732178,-2.5655716101275843
1708436550.3653693,-2.1471824645996094,-1.33502151191745,-2.5261781851397913,6.123519646912374,1.0166294574737549,-2.5656209627734583
1708436550.3673508,-2.1472132205963135,-1.3350702238133927,-2.5262280146228235,6.123474943428793,1.0166127681732178,-2.565592114125387
1708436550.369334,-2.1471688747406006,-1.3351105016520997,-2.526243034993307,6.123488056450643,1.0166250467300415,-2.565563980733053
1708436550.3713353,-2.147214412689209,-1.3350572449019928,-2.5262354055987757,6.123464095383444,1.0166531801223755,-2.5655625502215784
1708436550.3733509,-2.147139549255371,-1.3350410026362916,-2.5262637774096888,6.123443591385641,1.0166250467300415,-2.565575901662008
1708436550.375332,-2.147135019302368,-1.335065097813942,-2.526226584111349,6.123415100365438,1.0166531801223755,-2.56559664407839
1708436550.3773568,-2.1471848487854004,-1.3350942891887208,-2.5262354055987757,6.123443591385641,1.01664137840271,-2.565587822590963
1708436550.3793519,-2.1472434997558594,-1.3350367409041901,-2.5262981096850794,6.123406398087301,1.016571283340454,-2.565580193196432
1708436550.3813164,-2.147155523300171,-1.3350496900132676,-2.5262892881976526,6.123414981156149,1.0165878534317017,-2.5656090418445032
1708436550.38334,-2.1471645832061768,-1.335091085439064,-2.5262189547168177,6.123440134316244,1.0166040658950806,-2.565559689198629
1708436550.3853118,-2.1471893787384033,-1.3350780767253418,-2.526222054158346,6.1234357235725305,1.016636848449707,-2.565587822590963
1708436550.3873694,-2.147231101989746,-1.3350942593863984,-2.5262518564807337,6.123403179436483,1.0165507793426514,-2.565592114125387
1708436550.3893259,-2.1471645832061768,-1.3350911152413865,-2.5262067953692835,6.123419511109152,1.0166325569152832,-2.5656209627734583
1708436550.3913236,-2.1472175121307373,-1.3350651425174256,-2.5261946360217493,6.123423802643575,1.0166206359863281,-2.565587822590963
1708436550.3933468,-2.147160053253174,-1.335082472567894,-2.5262067953692835,6.123415100365438,1.0165965557098389,-2.565587822590963
1708436550.3953297,-2.147155523300171,-1.3351062101176758,-2.5262442270862024,6.123403179436483,1.0166250467300415,-2.5656209627734583
1708436550.3973758,-2.1471893787384033,-1.335107297902443,-2.52622634569277,6.123440015106954,1.0166444778442383,-2.565596405659811
1708436550.3993237,-2.147160053253174,-1.335122437482216,-2.5262563864337366,6.123394477158346,1.0165756940841675,-2.5655844847308558
1708436550.401335,-2.1471848487854004,-1.3350453239730378,-2.526214663182394,6.123431312828817,1.016653060913086,-2.5655463377581995
1708436550.4033356,-2.1471714973449707,-1.3350942742875596,-2.5262771288501185,6.123419511109152,1.0166206359863281,-2.565592114125387
1708436550.4053278,-2.1472175121307373,-1.3350529384664078,-2.5262442270862024,6.123440015106954,1.0166206359863281,-2.565575901662008
1708436550.4073415,-2.1471824645996094,-1.3350497049144288,-2.5262144247638147,6.123436915665426,1.0166294574737549,-2.5656326452838343
1708436550.4093502,-2.147146463394165,-1.3350899827531357,-2.5262561480151575,6.123403179436483,1.016648769378662,-2.565625254307882
1708436550.4113393,-2.147155284881592,-1.3350788664868851,-2.526193443928854,6.123447882920065,1.0166040658950806,-2.5656586329089563
1708436550.4133322,-2.1471688747406006,-1.3350420606187363,-2.5262396971331995,6.123432504921713,1.0165953636169434,-2.565645996724264
1708436550.4153388,-2.147198438644409,-1.3350910705379029,-2.5261903444873255,6.12347291687087,1.0166293382644653,-2.565629784260885
1708436550.4173417,-2.1471893787384033,-1.335082472567894,-2.526193443928854,6.123416173249044,1.0166206359863281,-2.565613333378927
1708436550.4193208,-2.1471848487854004,-1.33501289904628,-2.5262308756457728,6.12347291687087,1.016608476638794,-2.565587822590963
1708436550.4213295,-2.1471688747406006,-1.3350625795177002,-2.526226584111349,6.123444425850668,1.0166206359863281,-2.565563980733053
1708436550.4233346,-2.147155523300171,-1.3350745004466553,-2.526254717503683,6.123460995941915,1.016608476638794,-2.565559689198629
1708436550.4253318,-2.1471781730651855,-1.3350572449019928,-2.526243034993307,6.1234357235725305,1.016608476638794,-2.565596405659811
1708436550.4273195,-2.1471688747406006,-1.3350453239730378,-2.5261722246753138,6.123443591385641,1.016648769378662,-2.5655508677112024
1708436550.4293168,-2.147146463394165,-1.3350572300008317,-2.526226584111349,6.123419511109152,1.016636848449707,-2.5656002203570765
1708436550.431411,-2.1471779346466064,-1.3350290817073365,-2.5262067953692835,6.12347291687087,1.0166040658950806,-2.565587822590963
1708436550.4333456,-2.147205114364624,-1.3350867641023179,-2.5262189547168177,6.123419511109152,1.0166282653808594,-2.5656283537494105
1708436550.4353237,-2.147205114364624,-1.334975854759552,-2.5262189547168177,6.123428094177999,1.016636848449707,-2.565629784260885
1708436550.4373903,-2.1471893787384033,-1.335029037003853,-2.5262518564807337,6.123452293663778,1.0165835618972778,-2.5656090418445032
1708436550.4394405,-2.1471734046936035,-1.335041032438614,-2.526193443928854,6.12347291687087,1.016636848449707,-2.565613333378927
1708436550.441443,-2.147128105163574,-1.335098685031273,-2.5262234846698206,6.123428094177999,1.0166250467300415,-2.5656254927264612
1708436550.4434311,-2.147146463394165,-1.3350539964488526,-2.52622634569277,6.123378264694967,1.0166250467300415,-2.565575901662008
1708436550.445417,-2.1471734046936035,-1.3349920076182862,-2.5262561480151575,6.123419511109152,1.0165878534317017,-2.565629784260885
1708436550.4473817,-2.1471688747406006,-1.3351148825934906,-2.5262561480151575,6.1234487173850916,1.016592264175415,-2.5655553976642054
1708436550.4493544,-2.1471803188323975,-1.3350867492011567,-2.5262399355517786,6.123378264694967,1.016574740409851,-2.5655832926379603
1708436550.4513245,-2.1471803188323975,-1.3350291115096589,-2.5262308756457728,6.123440015106954,1.0166250467300415,-2.5656240622149866
1708436550.453349,-2.1471645832061768,-1.3350453239730378,-2.5262561480151575,6.123443591385641,1.0166250467300415,-2.565575901662008
1708436550.4553216,-2.1471803188323975,-1.3350825023702164,-2.5262637774096888,6.1234357235725305,1.0165878534317017,-2.565591637288229
1708436550.4573295,-2.1471688747406006,-1.3350050312331696,-2.5262308756457728,6.123424994736471,1.0166206359863281,-2.5656047503100794
1708436550.4593112,-2.1471688747406006,-1.3350291115096589,-2.5262680689441126,6.123427021294393,1.016608476638794,-2.565575901662008
1708436550.4613154,-2.1472175121307373,-1.335017279987671,-2.5262518564807337,6.123399960785665,1.0165965557098389,-2.5655716101275843
1708436550.4633317,-2.147139549255371,-1.3350463670543213,-2.5262847582446497,6.12341188171462,1.0166163444519043,-2.5656047503100794
1708436550.4653368,-2.1471939086914062,-1.335074470644333,-2.526242796574728,6.123464095383444,1.0166009664535522,-2.5655301252948206
1708436550.4673572,-2.1472268104553223,-1.3350942891887208,-2.5262473265277308,6.123419511109152,1.016636848449707,-2.5656002203570765
1708436550.4693294,-2.1471803188323975,-1.3350867492011567,-2.5262725988971155,6.123416173249044,1.016636848449707,-2.565596405659811
1708436550.4713142,-2.147139549255371,-1.3350867492011567,-2.526226584111349,6.123410689621725,1.0166250467300415,-2.5656047503100794
1708436550.473355,-2.1471779346466064,-1.3350780767253418,-2.5262771288501185,6.123420583992758,1.016592264175415,-2.5656164328204554
1708436550.4753532,-2.1471781730651855,-1.3350215715220948,-2.5262473265277308,6.123457419663229,1.0166171789169312,-2.565592114125387
1708436550.4773474,-2.1471645832061768,-1.3350867641023179,-2.526259247456686,6.1234075901801965,1.0166250467300415,-2.5655553976642054
1708436550.4793134,-2.1471893787384033,-1.3350453239730378,-2.526242796574728,6.123386966973104,1.0166282653808594,-2.565559689198629
1708436550.4813666,-2.1471190452575684,-1.3351115447333832,-2.526210133229391,6.123444425850668,1.0166163444519043,-2.565625254307882
1708436550.4833398,-2.147148609161377,-1.335033507352211,-2.526201073323385,6.123464095383444,1.0166206359863281,-2.565575901662008
1708436550.4853404,-2.1471939086914062,-1.3351148825934906,-2.526226584111349,6.123365986138143,1.0165878534317017,-2.565559689198629
1708436550.487351,-2.1471688747406006,-1.3351062101176758,-2.5262473265277308,6.123440015106954,1.0165921449661255,-2.5655670801745813
1708436550.4893332,-2.147135019302368,-1.335082472567894,-2.5262637774096888,6.1234075901801965,1.016611933708191,-2.5656090418445032
1708436550.4913225,-2.147150993347168,-1.335114912395813,-2.5262280146228235,6.123440015106954,1.0165878534317017,-2.5656047503100794
1708436550.4933305,-2.147139549255371,-1.3350453239730378,-2.5262637774096888,6.123391258507528,1.016636848449707,-2.565575901662008
1708436550.495318,-2.1471939086914062,-1.3350205284408112,-2.526242796574728,6.123428094177999,1.0166412591934204,-2.5655716101275843
1708436550.497333,-2.1471893787384033,-1.3350745302489777,-2.526296679173605,6.123373853951254,1.0166206359863281,-2.565587822590963
1708436550.4993322,-2.147218704223633,-1.3350910407355805,-2.526275936757223,6.123432504921713,1.0165878534317017,-2.565613333378927
1708436550.501334,-2.147139549255371,-1.335127831702568,-2.526275936757223,6.1234075901801965,1.0166653394699097,-2.565592114125387
1708436550.50333,-2.14711594581604,-1.335094304089882,-2.52627140680422,6.123413073807516,1.0166206359863281,-2.5655716101275843
1708436550.505302,-2.147148609161377,-1.3350367409041901,-2.526243034993307,6.123419511109152,1.0166206359863281,-2.5655959288226526
1708436550.507317,-2.1471824645996094,-1.3350953322700043,-2.5262680689441126,6.1234487173850916,1.016608476638794,-2.565580193196432
1708436550.509319,-2.147160053253174,-1.3350324493697663,-2.5262473265277308,6.123318064003744,1.0165878534317017,-2.5655553976642054
1708436550.511297,-2.1471848487854004,-1.3350780767253418,-2.526222054158346,6.123371588974752,1.0166206359863281,-2.5655301252948206
1708436550.5133152,-2.1471939086914062,-1.3350910407355805,-2.526238505040304,6.123383390694418,1.0166325569152832,-2.5655670801745813
1708436550.5153196,-2.147155284881592,-1.3350780767253418,-2.526238505040304,6.123387801438131,1.0166163444519043,-2.565592114125387
1708436550.5173259,-2.1471939086914062,-1.3350443106940766,-2.526259247456686,6.123392092972555,1.016592264175415,-2.5655582586871546
1708436550.519315,-2.147144079208374,-1.3350780767253418,-2.526259247456686,6.123362767487325,1.016608476638794,-2.5655551592456263
1708436550.5213115,-2.147160053253174,-1.3350702089122315,-2.5262308756457728,6.123404371529379,1.0166206359863281,-2.565580193196432
1708436550.523333,-2.1471939086914062,-1.335052953367569,-2.526296679173605,6.123404371529379,1.0166250467300415,-2.5655627886401575
1708436550.5253177,-2.1471939086914062,-1.3350745302489777,-2.526254717503683,6.123420583992758,1.016653060913086,-2.565547768269674
1708436550.5273294,-2.147160053253174,-1.3350615364364167,-2.526242796574728,6.123428094177999,1.016608476638794,-2.565592114125387
1708436550.5293484,-2.14713716506958,-1.3351224225810547,-2.526254717503683,6.123403179436483,1.0166206359863281,-2.5655890146838587
1708436550.531332,-2.1471688747406006,-1.3350615364364167,-2.526242796574728,6.12341188171462,1.016592264175415,-2.5655625502215784
1708436550.5333447,-2.1471734046936035,-1.3350136143020173,-2.526210133229391,6.123436915665426,1.0166250467300415,-2.565575901662008
1708436550.5353377,-2.1471915245056152,-1.3350377839854737,-2.526201311741964,6.1233346340949915,1.0166127681732178,-2.5655270258532923
1708436550.537335,-2.1471574306488037,-1.3350043159774323,-2.5262637774096888,6.123399960785665,1.0166009664535522,-2.565559689198629
1708436550.539363,-2.147141695022583,-1.3350453239730378,-2.526280228291647,6.123404371529379,1.016653060913086,-2.565580193196432
1708436550.5413804,-2.1471235752105713,-1.3350659173778077,-2.5263012091266077,6.1234086630638025,1.0166206359863281,-2.5655627886401575
1708436550.543351,-2.1471734046936035,-1.3350301545909424,-2.526275936757223,6.123371588974752,1.0166163444519043,-2.565552059804098
1708436550.5453432,-2.1471619606018066,-1.3350215417197724,-2.526329580937521,6.123404371529379,1.0165997743606567,-2.565596405659811
1708436550.5473552,-2.147115707397461,-1.335024819975235,-2.52627140680422,6.123416173249044,1.0165550708770752,-2.565535847340719
1708436550.5493484,-2.1471869945526123,-1.335085706119873,-2.526280228291647,6.123387801438131,1.0166455507278442,-2.565580193196432
1708436550.5513363,-2.1471915245056152,-1.3350780767253418,-2.526296679173605,6.123347747116842,1.0166325569152832,-2.5655670801745813
1708436550.5533605,-2.147111415863037,-1.3350659173778077,-2.526233975087301,6.123408782273092,1.0166040658950806,-2.565563980733053
1708436550.555327,-2.1471688747406006,-1.3350486171296616,-2.526275936757223,6.1233801720436,1.0166163444519043,-2.565568272267477
1708436550.5573227,-2.14713716506958,-1.3350781065276642,-2.526280228291647,6.123375880509176,1.0166040658950806,-2.565580193196432
1708436550.5593345,-2.147124767303467,-1.3350659173778077,-2.5262725988971155,6.123342144280233,1.0166040658950806,-2.565568272267477
1708436550.5613232,-2.147132635116577,-1.3350780767253418,-2.526280228291647,6.1233801720436,1.0166325569152832,-2.5656090418445032
1708436550.563325,-2.147120237350464,-1.3350986701301117,-2.5262635389911097,6.123326766281881,1.016636848449707,-2.5655553976642054
1708436550.5653148,-2.14713716506958,-1.3350582879832764,-2.5262954870807093,6.123363959580221,1.0166206359863281,-2.565559689198629
1708436550.5673103,-2.147111415863037,-1.3350745004466553,-2.526287857686178,6.123368370323934,1.0166040658950806,-2.5655716101275843
1708436550.5693235,-2.1471779346466064,-1.3350539964488526,-2.526292149220602,6.12333236911849,1.0166040658950806,-2.5655551592456263
1708436550.5713222,-2.147087574005127,-1.3350215715220948,-2.52627140680422,6.123352038651266,1.0166040658950806,-2.565547768269674
1708436550.5733283,-2.1471292972564697,-1.3350007396987458,-2.526275936757223,6.123365986138143,1.0165867805480957,-2.5656052271472376
1708436550.5753374,-2.147141695022583,-1.335041032438614,-2.526254717503683,6.123247134476461,1.016636848449707,-2.5655725638019007
1708436550.577329,-2.1471381187438965,-1.3350572449019928,-2.526296679173605,6.123247134476461,1.0166163444519043,-2.5656009356128138
1708436550.5793238,-2.147099018096924,-1.3350572449019928,-2.526296679173605,6.123276817589559,1.0166206359863281,-2.565568272267477
1708436550.581325,-2.1471078395843506,-1.3350496900132676,-2.5262635389911097,6.123207199364462,1.016623854637146,-2.565543238316671
1708436550.5833254,-2.14715313911438,-1.335094304089882,-2.52627140680422,6.123235332756796,1.0166325569152832,-2.5655508677112024
1708436550.585311,-2.1471710205078125,-1.3350702089122315,-2.526254717503683,6.123223411827841,1.0166206359863281,-2.565547768269674
1708436550.5873704,-2.1471574306488037,-1.335077093248703,-2.526316229497091,6.123268115311422,1.016608476638794,-2.5655670801745813
1708436550.5893269,-2.147120237350464,-1.3350215715220948,-2.526304308568136,6.123251545220175,1.0166250467300415,-2.565575901662008
1708436550.5913353,-2.1471033096313477,-1.3350583028844376,-2.526296679173605,6.123260247498312,1.0166206359863281,-2.5655434767352503
1708436550.5933542,-2.1471335887908936,-1.3351277571967621,-2.5262251535998743,6.123276817589559,1.0165997743606567,-2.565547768269674
1708436550.5953457,-2.1471292972564697,-1.335052953367569,-2.526267115269796,6.123239743500509,1.0166120529174805,-2.5655844847308558
1708436550.597437,-2.1471292972564697,-1.3350301545909424,-2.526275936757223,6.123244035034933,1.0166163444519043,-2.565559689198629
1708436550.599334,-2.1471078395843506,-1.3350867492011567,-2.5262909571277063,6.123244035034933,1.016653060913086,-2.5655725638019007
1708436550.6013327,-2.1471338272094727,-1.335114912395813,-2.5262625853167933,6.123227822571554,1.0166444778442383,-2.565556351338522
1708436550.60334,-2.1471211910247803,-1.3350986701301117,-2.526296679173605,6.123227822571554,1.0165997743606567,-2.565535847340719
1708436550.6053476,-2.1471338272094727,-1.3350910407355805,-2.526278797780172,6.123223411827841,1.0166412591934204,-2.565503183995382
1708436550.6073487,-2.147084951400757,-1.3350377839854737,-2.526266876851217,6.123223411827841,1.0166566371917725,-2.5655270258532923
1708436550.6093347,-2.1470894813537598,-1.3350291115096589,-2.526344601308004,6.12322889545516,1.0166325569152832,-2.5655844847308558
1708436550.6113327,-2.1471428871154785,-1.3350410026362916,-2.526259247456686,6.123219120293417,1.016636848449707,-2.5655890146838587
1708436550.613332,-2.1471168994903564,-1.3350085479072114,-2.526283327733175,6.123199331551351,1.0166195631027222,-2.5655844847308558
1708436550.6153421,-2.1471054553985596,-1.3350745004466553,-2.5262580553637903,6.123220193177023,1.0166163444519043,-2.5655227343188685
1708436550.6174002,-2.1470985412597656,-1.3350942891887208,-2.5262909571277063,6.123260247498312,1.016653060913086,-2.56551963487734
1708436550.6193256,-2.14707612991333,-1.3350780767253418,-2.52627140680422,6.123239743500509,1.0166325569152832,-2.5655890146838587
1708436550.6213431,-2.1470940113067627,-1.3350780767253418,-2.526308838521139,6.123248326569357,1.0166696310043335,-2.56551963487734
1708436550.623337,-2.1471054553985596,-1.335052953367569,-2.526296679173605,6.123239743500509,1.0166325569152832,-2.5654988924609583
1708436550.6253273,-2.1471168994903564,-1.3350086075118561,-2.526287857686178,6.123255955963888,1.0166282653808594,-2.565568272267477
1708436550.627329,-2.1471009254455566,-1.3350780767253418,-2.526292149220602,6.1232114908988855,1.0166574716567993,-2.565540138875143
1708436550.6293287,-2.1471214294433594,-1.3350334924510499,-2.526278797780172,6.123232114105978,1.0166531801223755,-2.565491263066427
1708436550.6313193,-2.1471428871154785,-1.3350659173778077,-2.526275698338644,6.123219001084127,1.0166696310043335,-2.565568272267477
1708436550.6333265,-2.1470625400543213,-1.3350582879832764,-2.526353422795431,6.123220193177023,1.016648769378662,-2.5655606428729456
1708436550.6353035,-2.1471054553985596,-1.335041032438614,-2.526287619267599,6.12325273731307,1.0166206359863281,-2.5655770937549036
1708436550.6373212,-2.147134780883789,-1.3350529235652466,-2.526278797780172,6.123251545220175,1.0166772603988647,-2.565547768269674
1708436550.6393285,-2.1470601558685303,-1.3350867492011567,-2.526259247456686,6.123194920807638,1.0166163444519043,-2.5654869715320032
1708436550.641428,-2.1470556259155273,-1.3350659173778077,-2.526283327733175,6.123276936798849,1.0166120529174805,-2.565523926411764
1708436550.6433835,-2.147067070007324,-1.3350615364364167,-2.5262866655932825,6.123244035034933,1.0166610479354858,-2.565507713948385
1708436550.6453195,-2.147080659866333,-1.3350258481553574,-2.526278797780172,6.123244035034933,1.016640067100525,-2.565512005482809
1708436550.6473835,-2.147094249725342,-1.3350463670543213,-2.5262580553637903,6.123215901642599,1.0166566371917725,-2.56549579301943
1708436550.649347,-2.147080659866333,-1.3350539964488526,-2.526362482701437,6.123227822571554,1.0166610479354858,-2.565523926411764
1708436550.6513171,-2.1470894813537598,-1.335024819975235,-2.526328150426046,6.123227822571554,1.0166523456573486,-2.565512005482809
1708436550.6533327,-2.1470601558685303,-1.335107297902443,-2.5263238588916224,6.12325273731307,1.016640067100525,-2.5654826799975794
1708436550.6553206,-2.1470510959625244,-1.3350086075118561,-2.526337210332052,6.123199331551351,1.0166479349136353,-2.5655205885516565
1708436550.657326,-2.1470487117767334,-1.3351029616645356,-2.526300017033712,6.123244035034933,1.0166282653808594,-2.565507713948385
1708436550.6593347,-2.14703631401062,-1.3350615215352555,-2.5262745062457483,6.123232114105978,1.0166981220245361,-2.5655162970172327
1708436550.6613412,-2.14707612991333,-1.3350659173778077,-2.5263238588916224,6.123227822571554,1.0166610479354858,-2.565528217946188
1708436550.6633582,-2.14707612991333,-1.3350367409041901,-2.5263238588916224,6.123215901642599,1.0166772603988647,-2.5654500166522425
1708436550.665338,-2.147069215774536,-1.3350572449019928,-2.526349131261007,6.1232114908988855,1.0166728496551514,-2.5655251185046595
1708436550.6673338,-2.147071599960327,-1.3350659173778077,-2.5263147989856165,6.123194920807638,1.0166685581207275,-2.5655131975757044
1708436550.6693382,-2.1470320224761963,-1.3350453239730378,-2.526304308568136,6.123203623085775,1.016701340675354,-2.5655162970172327
1708436550.671331,-2.147040843963623,-1.3350529235652466,-2.5262699762927454,6.123236405640402,1.0166641473770142,-2.5654757658587855
1708436550.6733427,-2.1471145153045654,-1.3350787919810791,-2.5263400713550013,6.123239743500509,1.0166598558425903,-2.565451447163717
1708436550.675342,-2.1470487117767334,-1.3350496900132676,-2.5263238588916224,6.123264658242025,1.016701340675354,-2.565467659627096
1708436550.6773498,-2.1470274925231934,-1.3350615364364167,-2.5263357798205774,6.123264658242025,1.016701340675354,-2.5654669443713587
1708436550.6793149,-2.147064685821533,-1.3351029616645356,-2.5263312498675745,6.123248326569357,1.0167056322097778,-2.5655177275287073
1708436550.681403,-2.1470274925231934,-1.3350953322700043,-2.5263028780566614,6.123244035034933,1.0166815519332886,-2.5654588381396692
1708436550.6833377,-2.147031784057617,-1.335094304089882,-2.5263147989856165,6.123223411827841,1.0166969299316406,-2.5654588381396692
1708436550.685324,-2.147040843963623,-1.3350625795177002,-2.526328150426046,6.123236405640402,1.0166728496551514,-2.565484587346212
1708436550.6873279,-2.147062301635742,-1.3350497049144288,-2.5262940565692347,6.123236405640402,1.016689419746399,-2.56549317041506
1708436550.6893203,-2.147031784057617,-1.3350301545909424,-2.5263357798205774,6.12325273731307,1.0166728496551514,-2.565484587346212
1708436550.6913195,-2.147069215774536,-1.3350942891887208,-2.5263193289386194,6.123293149262228,1.0166641473770142,-2.5654426256762903
1708436550.6933615,-2.147062063217163,-1.3350496900132676,-2.5263400713550013,6.123261439591207,1.0166641473770142,-2.5654919783221644
1708436550.6953561,-2.1470894813537598,-1.3350787919810791,-2.5263400713550013,6.1232114908988855,1.0167092084884644,-2.565467659627096
1708436550.6973736,-2.1470894813537598,-1.3350086075118561,-2.5263565222369593,6.123190629273214,1.0167135000228882,-2.5654307047473353
1708436550.699321,-2.147040843963623,-1.3350215715220948,-2.5263147989856165,6.123212325363912,1.0166882276535034,-2.5654481093036097
1708436550.7013137,-2.147008180618286,-1.3350867492011567,-2.5262535254107874,6.123220193177023,1.0166839361190796,-2.565500799809591
1708436550.703347,-2.147082567214966,-1.3350867492011567,-2.526361052189962,6.123220193177023,1.0166641473770142,-2.565446917210714
1708436550.7053201,-2.147040843963623,-1.3351029616645356,-2.5263147989856165,6.123236405640402,1.016685128211975,-2.565463129674093
1708436550.7073522,-2.1469991207122803,-1.3350539964488526,-2.5263312498675745,6.1232080338294885,1.016685128211975,-2.565463129674093
1708436550.7093332,-2.147040843963623,-1.3350824576667328,-2.5263147989856165,6.123220193177023,1.0166926383972168,-2.5654307047473353
1708436550.7113473,-2.147078037261963,-1.3350366962007065,-2.5263312498675745,6.123244035034933,1.016729712486267,-2.565500799809591
1708436550.7133367,-2.147049903869629,-1.335089997654297,-2.5263147989856165,6.123224603920736,1.0166598558425903,-2.565488878880636
1708436550.7153382,-2.147003650665283,-1.3350539964488526,-2.5263267199145716,6.123244035034933,1.0166720151901245,-2.565500799809591
1708436550.7173731,-2.1470375061035156,-1.335102991466858,-2.526301447545187,6.123264658242025,1.0166598558425903,-2.565451447163717
1708436550.7193456,-2.14703631401062,-1.3350745302489777,-2.5263312498675745,6.1232114908988855,1.0166926383972168,-2.5654874483691614
1708436550.7213173,-2.1470532417297363,-1.3350453239730378,-2.5263357798205774,6.12325273731307,1.0166677236557007,-2.565505091344015
1708436550.7233436,-2.1470329761505127,-1.3350824576667328,-2.5263400713550013,6.1232114908988855,1.0167179107666016,-2.56547195116152
1708436550.7253413,-2.147049903869629,-1.3350867492011567,-2.526346508656637,6.123273360520162,1.0166882276535034,-2.565446917210714
1708436550.7273538,-2.147021532058716,-1.3350291115096589,-2.5263763109790247,6.123187410622396,1.0166926383972168,-2.565455738698141
1708436550.729318,-2.147003650665283,-1.3351105016520997,-2.5263598600970667,6.12325273731307,1.0166969299316406,-2.565484587346212
1708436550.7313159,-2.1470320224761963,-1.3350867641023179,-2.526317898427145,6.123236405640402,1.0166926383972168,-2.56547195116152
1708436550.733352,-2.147023916244507,-1.3351105016520997,-2.5263519922839563,6.1232114908988855,1.0166598558425903,-2.565500799809591
1708436550.735324,-2.1469876766204834,-1.3350745004466553,-2.5263431707965296,6.123260247498312,1.0166720151901245,-2.5654762426959437
1708436550.737352,-2.14704966545105,-1.3350910407355805,-2.5263553301440638,6.123220193177023,1.0166839361190796,-2.565455738698141
1708436550.7393506,-2.1470940113067627,-1.3350582879832764,-2.5263386408435267,6.1232409355934045,1.0166598558425903,-2.5654762426959437
1708436550.741405,-2.147017002105713,-1.3350172501853486,-2.5263643900500696,6.123190629273214,1.016704797744751,-2.5654800573932093
1708436550.7433965,-2.147019386291504,-1.335041032438614,-2.5263553301440638,6.123220193177023,1.016704797744751,-2.5654307047473353
1708436550.7453601,-2.1469991207122803,-1.3350910407355805,-2.5263224283801478,6.123255955963888,1.0166598558425903,-2.565526549016134
1708436550.747383,-2.147007942199707,-1.3350291115096589,-2.5263553301440638,6.12325273731307,1.0167092084884644,-2.5654338041888636
1708436550.749352,-2.147008180618286,-1.3350615215352555,-2.526297156010763,6.123236405640402,1.0167005062103271,-2.565467659627096
1708436550.751303,-2.147001028060913,-1.3350258630565186,-2.5263267199145716,6.12325273731307,1.016685128211975,-2.56547195116152
1708436550.7533267,-2.1470329761505127,-1.3350780767253418,-2.5263927618609827,6.12325273731307,1.0166882276535034,-2.565484587346212
1708436550.7553265,-2.1470541954040527,-1.3350247752717515,-2.5263267199145716,6.123236405640402,1.0166969299316406,-2.565451447163717
1708436550.7573476,-2.147040843963623,-1.3350824576667328,-2.5263598600970667,6.123227822571554,1.016676425933838,-2.56541878381838
1708436550.7593417,-2.147069215774536,-1.3350910407355805,-2.5263553301440638,6.123236405640402,1.0167005062103271,-2.565439526234762
1708436550.7613084,-2.1470329761505127,-1.3350615364364167,-2.526304546986715,6.123223411827841,1.016676425933838,-2.565455738698141
1708436550.7633717,-2.147045373916626,-1.3350258630565186,-2.5263927618609827,6.1232114908988855,1.0166882276535034,-2.565455738698141
1708436550.7653234,-2.1469922065734863,-1.3351072531989594,-2.526367489491598,6.123244035034933,1.0167135000228882,-2.565484587346212
1708436550.767327,-2.147049903869629,-1.3351029616645356,-2.5263763109790247,6.123207199364462,1.0166720151901245,-2.565467659627096
1708436550.76932,-2.147071123123169,-1.3350867641023179,-2.526383940373556,6.123187410622396,1.0166926383972168,-2.5654261747943323
1708436550.7713313,-2.14701247215271,-1.335095376973488,-2.5263808409320276,6.123227822571554,1.0167254209518433,-2.5654800573932093
1708436550.7733228,-2.147017002105713,-1.3350615364364167,-2.5263386408435267,6.123220193177023,1.0167092084884644,-2.565443817769186
1708436550.7753165,-2.1470417976379395,-1.3350583028844376,-2.52638823190798,6.12325273731307,1.0167005062103271,-2.565463129674093
1708436550.7773566,-2.1469991207122803,-1.3350615364364167,-2.5263431707965296,6.123244035034933,1.0166720151901245,-2.5654099623309534
1708436550.779323,-2.147073745727539,-1.3350453090718766,-2.526404682789938,6.123236405640402,1.016655445098877,-2.565463129674093
1708436550.7813313,-2.1469876766204834,-1.3350910407355805,-2.526334349309103,6.12325273731307,1.0166839361190796,-2.565446917210714
1708436550.7833457,-2.1469922065734863,-1.3350659173778077,-2.5263298193561,6.123236405640402,1.0166926383972168,-2.56547195116152
1708436550.785349,-2.147062301635742,-1.3350334924510499,-2.5263267199145716,6.123198377877035,1.0167005062103271,-2.565439526234762
1708436550.787347,-2.147001028060913,-1.3350420755198975,-2.5263553301440638,6.1232571480567834,1.0166926383972168,-2.565484587346212
1708436550.789324,-2.14701247215271,-1.3350942891887208,-2.5263357798205774,6.123232114105978,1.0167210102081299,-2.5654600302325647
1708436550.7913313,-2.147078037261963,-1.3350291115096589,-2.526367489491598,6.123236405640402,1.0166807174682617,-2.56549317041506
1708436550.793378,-2.147049903869629,-1.335107297902443,-2.5263400713550013,6.123194920807638,1.0167092084884644,-2.5654762426959437
1708436550.795317,-2.147003650665283,-1.3350659173778077,-2.5263224283801478,6.123220193177023,1.0166926383972168,-2.565484587346212
1708436550.7973518,-2.147007942199707,-1.3350986701301117,-2.5263763109790247,6.123273360520162,1.016676425933838,-2.5654800573932093
1708436550.7993186,-2.147003650665283,-1.3350420755198975,-2.5263312498675745,6.123235213547506,1.0166926383972168,-2.565463129674093
1708436550.8013446,-2.1469922065734863,-1.3350702089122315,-2.526372019444601,6.123215901642599,1.016676425933838,-2.565484587346212
1708436550.8033564,-2.1470532417297363,-1.3350420755198975,-2.526350800191061,6.123194920807638,1.0166479349136353,-2.5655093828784388
1708436550.8053493,-2.14701247215271,-1.335073785190918,-2.5263519922839563,6.123190629273214,1.0167254209518433,-2.565423313771383
1708436550.807351,-2.1469876766204834,-1.3350290817073365,-2.526350800191061,6.123220193177023,1.0166807174682617,-2.565505091344015
1708436550.8093696,-2.1470372676849365,-1.3350910407355805,-2.5263643900500696,6.123227822571554,1.0167092084884644,-2.5654762426959437
1708436550.811341,-2.1470375061035156,-1.3350582879832764,-2.5263763109790247,6.123199331551351,1.0167092084884644,-2.565451447163717
1708436550.813338,-2.14701247215271,-1.3350824576667328,-2.5263565222369593,6.123232114105978,1.0167005062103271,-2.565496269856588
1708436550.8153365,-2.147071123123169,-1.3350780767253418,-2.5263386408435267,6.123227822571554,1.0166720151901245,-2.56547195116152
1708436550.8173637,-2.147008180618286,-1.3350702089122315,-2.5263147989856165,6.123215901642599,1.0166685581207275,-2.565463129674093
1708436550.8193464,-2.14701247215271,-1.3350780767253418,-2.5263357798205774,6.123220193177023,1.0166523456573486,-2.565496269856588
1708436550.8213143,-2.1470541954040527,-1.3350215417197724,-2.5263431707965296,6.123268949776449,1.0166436433792114,-2.565505091344015
1708436550.8233507,-2.1470329761505127,-1.3350910407355805,-2.5263643900500696,6.1232571480567834,1.016704797744751,-2.565484587346212
1708436550.8253257,-2.147003650665283,-1.3350539964488526,-2.5263519922839563,6.123232114105978,1.0167330503463745,-2.565500799809591
1708436550.827352,-2.1470329761505127,-1.3350787919810791,-2.5262985865222376,6.123244035034933,1.016655445098877,-2.565463129674093
1708436550.8293417,-2.14703631401062,-1.3350086075118561,-2.5263312498675745,6.123203623085775,1.016701340675354,-2.5654190222369593
1708436550.8313112,-2.147040843963623,-1.3350539964488526,-2.5263400713550013,6.123203623085775,1.016655445098877,-2.565455738698141
1708436550.8333461,-2.1470260620117188,-1.3350694936564942,-2.5262866655932825,6.123232114105978,1.016685128211975,-2.5654800573932093
1708436550.8353164,-2.1469945907592773,-1.3350497049144288,-2.5263238588916224,6.12325273731307,1.0166926383972168,-2.565463129674093
1708436550.837354,-2.147021532058716,-1.3351353865912934,-2.5263477007495325,6.123248326569357,1.016701340675354,-2.565488878880636
1708436550.8393471,-2.147001028060913,-1.3350572449019928,-2.5263074080096644,6.123232114105978,1.016701340675354,-2.5654919783221644
1708436550.8414118,-2.1469876766204834,-1.3350867492011567,-2.5263074080096644,6.12325273731307,1.016639232635498,-2.565446917210714
1708436550.8433645,-2.147071123123169,-1.335095376973488,-2.5263312498675745,6.123174416809835,1.0166436433792114,-2.565435234700338
1708436550.845347,-2.14701247215271,-1.335024819975235,-2.5263238588916224,6.12325273731307,1.0166969299316406,-2.565446917210714
1708436550.8473337,-2.1470284461975098,-1.3350867492011567,-2.5263074080096644,6.123236405640402,1.0166436433792114,-2.56549317041506
1708436550.8493602,-2.147007942199707,-1.3350453239730378,-2.5263028780566614,6.123178708344259,1.0166926383972168,-2.565451447163717
1708436550.8513422,-2.1470329761505127,-1.3350953322700043,-2.5262909571277063,6.123301732331075,1.0166685581207275,-2.56547195116152
1708436550.8533568,-2.1470577716827393,-1.3350997132113953,-2.5263312498675745,6.123236405640402,1.0166926383972168,-2.565435234700338
1708436550.8553262,-2.147023916244507,-1.3351148825934906,-2.526328150426046,6.123219001084127,1.016676425933838,-2.56547195116152
1708436550.8573458,-2.14697527885437,-1.3350301545909424,-2.5262954870807093,6.123239743500509,1.016676425933838,-2.565451447163717
1708436550.8593185,-2.147045373916626,-1.3350453239730378,-2.5263686815844935,6.123178708344259,1.0166685581207275,-2.5654307047473353
1708436550.8613117,-2.147001028060913,-1.3350497049144288,-2.5263119379626673,6.123202788620748,1.0166479349136353,-2.565435234700338
1708436550.8633356,-2.14701247215271,-1.3350615215352555,-2.5263074080096644,6.123190629273214,1.0166926383972168,-2.565467659627096
1708436550.8653286,-2.147001028060913,-1.3351105016520997,-2.5263193289386194,6.123276817589559,1.0166807174682617,-2.565446917210714
1708436550.8673713,-2.147045373916626,-1.3350496900132676,-2.5263074080096644,6.1231655953224084,1.0166685581207275,-2.565451447163717
1708436550.8693588,-2.1470329761505127,-1.3350453239730378,-2.52631646791567,6.123232114105978,1.0167100429534912,-2.5654764811145228
1708436550.8713202,-2.147019386291504,-1.3350463670543213,-2.5262699762927454,6.123235332756796,1.016689419746399,-2.5654600302325647
1708436550.873349,-2.147007942199707,-1.3350463670543213,-2.5263193289386194,6.123232114105978,1.016685128211975,-2.5654318968402308
1708436550.875398,-2.147049903869629,-1.3349963587573548,-2.526278797780172,6.123227822571554,1.0166728496551514,-2.565455738698141
1708436550.877344,-2.1470375061035156,-1.334992067222931,-2.526304308568136,6.123281228333273,1.0166807174682617,-2.5654850641833704
1708436550.879371,-2.14701247215271,-1.3350497049144288,-2.5262954870807093,6.123268949776449,1.0166685581207275,-2.5653987566577356
1708436550.8813186,-2.14701247215271,-1.3350615364364167,-2.5262625853167933,6.1232571480567834,1.016671895980835,-2.565390173588888
1708436550.8833435,-2.147045373916626,-1.335017279987671,-2.526266876851217,6.1232114908988855,1.0167100429534912,-2.5654245058642786
1708436550.8853679,-2.147023916244507,-1.3350453239730378,-2.5262580553637903,6.123181926995077,1.0166685581207275,-2.5654118696795862
1708436550.887353,-2.147040843963623,-1.3350626093200226,-2.5262625853167933,6.1232725260551355,1.0167187452316284,-2.5654118696795862
1708436550.889314,-2.1470329761505127,-1.3350366962007065,-2.526344601308004,6.123215901642599,1.0166728496551514,-2.5653868357287806
1708436550.8913627,-2.147008180618286,-1.3350615364364167,-2.5263119379626673,6.123268949776449,1.016685128211975,-2.5653513113604944
1708436550.8933356,-2.1470577716827393,-1.3350453239730378,-2.526283327733175,6.123260247498312,1.0166772603988647,-2.565364185963766
1708436550.895357,-2.14703631401062,-1.3350787919810791,-2.526292149220602,6.123244035034933,1.0166685581207275,-2.5653112570392054
1708436550.89732,-2.147071123123169,-1.33501289904628,-2.526259247456686,6.1232114908988855,1.0166685581207275,-2.565345112477438
1708436550.89935,-2.14701247215271,-1.3350453239730378,-2.526283327733175,6.123235332756796,1.0166807174682617,-2.5652831236468714
1708436550.9013243,-2.147078037261963,-1.3350497049144288,-2.526320759450094,6.123186218529501,1.016635775566101,-2.565291706715719
1708436550.9034061,-2.147017002105713,-1.3350496900132676,-2.52627140680422,6.123239743500509,1.016640067100525,-2.5652669111834925
1708436550.905375,-2.147066593170166,-1.3350420606187363,-2.52627140680422,6.123251545220175,1.0166610479354858,-2.56525165239443
1708436550.907343,-2.147017002105713,-1.3350780767253418,-2.5262625853167933,6.123190629273214,1.0166938304901123,-2.565174166356222
1708436550.909364,-2.14701247215271,-1.3350953322700043,-2.526254717503683,6.123248326569357,1.0166772603988647,-2.56519586244692
1708436550.9113443,-2.147008180618286,-1.3350702238133927,-2.5262847582446497,6.1232114908988855,1.016689419746399,-2.5651872793780726
1708436550.9133635,-2.1470329761505127,-1.3350215417197724,-2.526292149220602,6.123261439591207,1.0166479349136353,-2.565159622822897
1708436550.9153907,-2.147023916244507,-1.3350172501853486,-2.526217524205343,6.123198377877035,1.016640067100525,-2.5651071707354944
1708436550.9173386,-2.1470329761505127,-1.3350824576667328,-2.526329580937521,6.123244035034933,1.016648769378662,-2.565115992222921
1708436550.9193227,-2.147021532058716,-1.3350745004466553,-2.526308838521139,6.123260247498312,1.0166728496551514,-2.5650506655322474
1708436550.9213653,-2.147066593170166,-1.3350497049144288,-2.526242796574728,6.1232114908988855,1.016607642173767,-2.5649989287005823
1708436550.9233544,-2.146984338760376,-1.3350788217834015,-2.526259247456686,6.123178708344259,1.0166356563568115,-2.5649588743792933
1708436550.925321,-2.147003650665283,-1.3350625795177002,-2.5262637774096888,6.123227822571554,1.0166325569152832,-2.5649500528918665
1708436550.927334,-2.147040843963623,-1.3350128543427964,-2.526259247456686,6.12325273731307,1.016640067100525,-2.564889971409933
1708436550.9293396,-2.147066593170166,-1.3350258481553574,-2.526325289403097,6.123236405640402,1.0166610479354858,-2.5648580233203333
1708436550.9314432,-2.147017002105713,-1.335110531454422,-2.526250425969259,6.123264658242025,1.0166816711425781,-2.5648186842547815
1708436550.9333866,-2.147040843963623,-1.3350583028844376,-2.526313368474142,6.1232114908988855,1.0166369676589966,-2.5648110548602503
1708436550.9354033,-2.1470587253570557,-1.3350582730821152,-2.526238505040304,6.123207199364462,1.016640067100525,-2.564758602772848
1708436550.9373546,-2.147008180618286,-1.3350377690843125,-2.5262637774096888,6.1232571480567834,1.0166531801223755,-2.5646947065936487
1708436550.9393342,-2.146970748901367,-1.335098685031273,-2.526296679173605,6.123236405640402,1.016623854637146,-2.564641777669088
1708436550.941421,-2.14701247215271,-1.3350128543427964,-2.526238505040304,6.123212325363912,1.0166566371917725,-2.5646439234363
1708436550.9434314,-2.1469931602478027,-1.3350463819554825,-2.52627140680422,6.123163568764486,1.0166815519332886,-2.5645456949817103
1708436550.945394,-2.147021532058716,-1.3349930805018921,-2.526266876851217,6.123193013459005,1.016648769378662,-2.5644894281970423
1708436550.9473655,-2.146951198577881,-1.3350669902614136,-2.526242796574728,6.123131978302755,1.0166566371917725,-2.5644050280200403
1708436550.9493313,-2.147005558013916,-1.3350006949952622,-2.526266876851217,6.123185384064474,1.0166653394699097,-2.5643444697009485
1708436550.9513433,-2.1469979286193848,-1.3350215715220948,-2.5262892881976526,6.123107778816976,1.0166653394699097,-2.5642929712878626
1708436550.9533598,-2.1469647884368896,-1.335095376973488,-2.526222054158346,6.123133170395651,1.016640067100525,-2.5642617384540003
1708436550.9553149,-2.1469624042510986,-1.3349844080260773,-2.526254717503683,6.123036134033956,1.0166566371917725,-2.5641027132617396
1708436550.9573529,-2.1469409465789795,-1.3350301545909424,-2.526296679173605,6.123019444733419,1.016640067100525,-2.5640268961535853
1708436550.9593205,-2.146928548812866,-1.3350017678788682,-2.526292149220602,6.123007523804464,1.0166566371917725,-2.563960138951437
1708436550.9613166,-2.1469197273254395,-1.335070164208748,-2.526266876851217,6.123017537384786,1.0166685581207275,-2.56390887895693
1708436550.963337,-2.1468923091888428,-1.3350345504334946,-2.526254717503683,6.122944581299581,1.016648769378662,-2.5637550989734095
1708436550.9653575,-2.146937608718872,-1.3350301545909424,-2.526325289403097,6.122899877816,1.016640067100525,-2.563690964375631
1708436550.9673085,-2.146930694580078,-1.3349973571351548,-2.526242796574728,6.122880208283224,1.0166610479354858,-2.5635953585254114
1708436550.9693239,-2.1469101905822754,-1.3350507330945511,-2.526259247456686,6.1228277561958215,1.0166075229644775,-2.5635033289538782
1708436550.9713118,-2.14682674407959,-1.3350223016789933,-2.5262625853167933,6.122828948288717,1.016640067100525,-2.5633912722217005
1708436550.97334,-2.146880865097046,-1.3350463670543213,-2.526283327733175,6.122788655548849,1.0166444778442383,-2.563237253819601
1708436550.9753108,-2.1468918323516846,-1.3349943620017548,-2.5262954870807093,6.122764813690939,1.016648769378662,-2.563183132802145
1708436550.9773443,-2.1468660831451416,-1.3350592863610764,-2.526266876851217,6.1227407334144495,1.016689419746399,-2.5630207697497767
1708436550.9793324,-2.1468138694763184,-1.3350745302489777,-2.526336971913473,6.122651326447286,1.016640067100525,-2.562918011342184
1708436550.9813242,-2.1468465328216553,-1.3349858981421967,-2.526278797780172,6.122652518540182,1.0166728496551514,-2.562765423451559
1708436550.9833164,-2.146756172180176,-1.3350017231753846,-2.526300017033712,6.122583853989401,1.0166728496551514,-2.562575165425436
1708436550.9853065,-2.146764039993286,-1.3349973869374772,-2.5262580553637903,6.122646081238546,1.0166728496551514,-2.562488857899801
1708436550.9873335,-2.146733283996582,-1.3349739474109192,-2.526332680379049,6.122585046082296,1.0166685581207275,-2.562352482472555
1708436550.9893258,-2.1466879844665527,-1.3349530559829255,-2.526344601308004,6.122549044876852,1.016676425933838,-2.5622080008136194
1708436550.9913273,-2.1466755867004395,-1.3349659156850358,-2.5263119379626673,6.122484552651205,1.0167222023010254,-2.562075916920797
1708436550.993322,-2.146672248840332,-1.334957407121994,-2.5263028780566614,6.122435796051779,1.0166598558425903,-2.561904255543844
1708436550.9953299,-2.146665334701538,-1.335018904214241,-2.5263028780566614,6.122453200608053,1.0166926383972168,-2.56169039407839
1708436550.9973457,-2.1466336250305176,-1.334974617963173,-2.5262776056872767,6.122421729355612,1.0166839361190796,-2.5615878740893763
1708436550.9993207,-2.1466383934020996,-1.3349901747754593,-2.5263643900500696,6.122369515686788,1.0166926383972168,-2.561361853276388
1708436551.001307,-2.146597385406494,-1.3349944365075608,-2.5263238588916224,6.122337806015768,1.0167503356933594,-2.561166588460104
1708436551.0033398,-2.1465768814086914,-1.334921584730484,-2.5263312498675745,6.12220715263442,1.0167081356048584,-2.561014715825216
1708436551.0053144,-2.14654541015625,-1.3349616539529343,-2.526350800191061,6.1221754429634,1.0167081356048584,-2.5607524553882044
1708436551.0073688,-2.1465249061584473,-1.3349626523307343,-2.5263643900500696,6.122192847519674,1.01674485206604,-2.5605509916888636
1708436551.009356,-2.146488666534424,-1.3349551868489762,-2.526362959538595,6.122161257057943,1.0167648792266846,-2.560354534779684
1708436551.0113163,-2.1464622020721436,-1.3349335056594391,-2.526367489491598,6.122097360878744,1.0168017148971558,-2.5602005163775843
1708436551.0133324,-2.1464993953704834,-1.3349216741374512,-2.526350800191061,6.122101771622457,1.0167768001556396,-2.5599008242236536
1708436551.015318,-2.1464879512786865,-1.3349432361176987,-2.52637488046755,6.1220213053520105,1.016812801361084,-2.559775416051046
1708436551.0173728,-2.146435022354126,-1.3349475127509614,-2.5263660589801233,6.121919858246603,1.0168293714523315,-2.5595176855670374
1708436551.0193362,-2.1463782787323,-1.3349475127509614,-2.526407782231466,6.121909367829122,1.0168739557266235,-2.5592811743365687
1708436551.0213213,-2.1463704109191895,-1.3349345487407227,-2.5264151732074183,6.1218416569526575,1.0168858766555786,-2.5590785185443323
1708436551.023343,-2.1463704109191895,-1.334877998833992,-2.526403252278463,6.121821033745565,1.0168728828430176,-2.558776919041769
1708436551.0253086,-2.146331548690796,-1.3348855835250397,-2.5264228026019495,6.1217852709587,1.0169222354888916,-2.5585065523730677
1708436551.027353,-2.14626145362854,-1.3349353236011048,-2.5264139811145228,6.121754753380575,1.0169376134872437,-2.5582426230060022
1708436551.029341,-2.1462535858154297,-1.3348552745631714,-2.5264273325549524,6.12175606468276,1.0169613361358643,-2.557990852986471
1708436551.031324,-2.1462366580963135,-1.3348498952439805,-2.5264678637133997,6.12167106845931,1.0169944763183594,-2.557674233113424
1708436551.0333512,-2.1462149620056152,-1.3348952394774933,-2.5264139811145228,6.1215505478675745,1.01701819896698,-2.5573979059802454
1708436551.0353076,-2.1461706161499023,-1.3348832887462159,-2.526524607335226,6.121539461403646,1.017005205154419,-2.5570924917804163
1708436551.0373974,-2.146188497543335,-1.3348137897304078,-2.526512686406271,6.121454942017355,1.0170292854309082,-2.556735340748922
1708436551.0393338,-2.146179676055908,-1.334855244760849,-2.526449982319967,6.121408211975851,1.017086148262024,-2.5564878622638147
1708436551.041334,-2.1461410522460938,-1.3348747354796906,-2.526503864918844,6.121319043427267,1.0171310901641846,-2.5561793486224573
1708436551.0434258,-2.1461071968078613,-1.3348386895707627,-2.526487175618307,6.121300446778097,1.0171098709106445,-2.555760924016134
1708436551.0453606,-2.146066427230835,-1.3348962527564545,-2.526548687611715,6.121292817383566,1.0171418190002441,-2.5554886499988
1708436551.047328,-2.1460390090942383,-1.3348386597684403,-2.526532236729757,6.121192919998922,1.0171616077423096,-2.555087391530172
1708436551.0493302,-2.1460072994232178,-1.3347899925759812,-2.5265265146838587,6.121088611870565,1.0172151327133179,-2.554735247288839
1708436551.0513198,-2.1459801197052,-1.3347488653710862,-2.5265591780291956,6.121016847878256,1.0171931982040405,-2.554422918950216
1708436551.0533192,-2.1460094451904297,-1.3348386597684403,-2.5266132990466517,6.120985018997946,1.0172423124313354,-2.5540831724749964
1708436551.0553102,-2.145947217941284,-1.3347943288138886,-2.5265756289111536,6.120925295143881,1.0172706842422485,-2.5536652247058313
1708436551.0573263,-2.145921230316162,-1.3348267835429688,-2.526578728352682,6.120865690499105,1.017290472984314,-2.5533414522754114
1708436551.0593262,-2.1458239555358887,-1.3348191690495987,-2.526583258305685,6.120829689293661,1.0173351764678955,-2.5529804865466517
1708436551.0613263,-2.1458394527435303,-1.3347949993661423,-2.526640001927511,6.120717513352194,1.0172687768936157,-2.552612606679098
1708436551.063329,-2.145778179168701,-1.3347748529962082,-2.526693884526388,6.120702731400289,1.0173628330230713,-2.552202288304464
1708436551.0653324,-2.1458029747009277,-1.3347821098617096,-2.5266597906695765,6.1205859062965295,1.0173335075378418,-2.5518177191363733
1708436551.0673337,-2.145746946334839,-1.3347586256316681,-2.5266385714160364,6.120510089188375,1.017398715019226,-2.551430050526754
1708436551.0693483,-2.1457531452178955,-1.3347748678973694,-2.526712242756979,6.120438325196066,1.0173900127410889,-2.5510125795947474
1708436551.071301,-2.1456918716430664,-1.3347552579692383,-2.526665989552633,6.12043188789443,1.017439365386963,-2.550617043172018
1708436551.0733535,-2.145693063735962,-1.3347748678973694,-2.5267284552203577,6.12036012390212,1.0174096822738647,-2.5501957575427454
1708436551.0753708,-2.145648717880249,-1.334762917166092,-2.526677910481588,6.120272862702169,1.0174663066864014,-2.5497801939593714
1708436551.077381,-2.1456456184387207,-1.3348122996142884,-2.5267062822925013,6.120123016625204,1.0174611806869507,-2.5493505636798304
1708436551.079325,-2.1456215381622314,-1.3347381067327042,-2.5267720858203333,6.120128619461813,1.017498254776001,-2.548892323170797
1708436551.0813322,-2.145535469055176,-1.3346941781095047,-2.5267961660968226,6.120011198311605,1.0175353288650513,-2.5484846274005335
1708436551.0833602,-2.1455330848693848,-1.3347921085408707,-2.5267587343799036,6.11998068073348,1.0175180435180664,-2.548011604939596
1708436551.0853546,-2.1454854011535645,-1.3347182285836716,-2.5268004576312464,6.119904625206747,1.0175999402999878,-2.547513786946432
1708436551.0873456,-2.1454367637634277,-1.334743083720543,-2.526806894932882,6.119820940285482,1.017578125,-2.547105852757589
1708436551.0893261,-2.1453857421875,-1.3347431135228653,-2.526790205632345,6.119753467827596,1.0176358222961426,-2.5466814676867884
1708436551.091353,-2.1453402042388916,-1.3347149205258866,-2.5268591086017054,6.119698273926534,1.0176305770874023,-2.5461745897876185
1708436551.0933561,-2.1452836990356445,-1.3347106885961075,-2.526872460042135,6.119633662491598,1.0176546573638916,-2.5456891695605677
1708436551.0953245,-2.145310640335083,-1.3346864742091675,-2.5268831888781946,6.1195623753364465,1.0176665782928467,-2.5451586882220667
1708436551.0973752,-2.1452438831329346,-1.3347517561963578,-2.526886288319723,6.119478332787313,1.0176829099655151,-2.5447266737567347
1708436551.0993125,-2.145188570022583,-1.3347192418626328,-2.526911799107687,6.119451272278585,1.017730951309204,-2.544241968785421
1708436551.101344,-2.1451430320739746,-1.3347364676049729,-2.526910130177633,6.119347083359518,1.0177879333496094,-2.5437358061419886
1708436551.1033473,-2.1451382637023926,-1.3346951764873047,-2.5269551912890833,6.119241225510397,1.017783522605896,-2.5433290640460413
1708436551.1053653,-2.1451427936553955,-1.334707112317421,-2.5270090738879603,6.1192229864890955,1.0178108215332031,-2.5428200403796595
1708436551.107376,-2.1451315879821777,-1.3346984100392838,-2.5269957224475306,6.1191056845481775,1.0178393125534058,-2.5421929995166224
1708436551.109325,-2.145028591156006,-1.3346874576858063,-2.5269580523120325,6.119075047760763,1.0178838968276978,-2.541736904774801
1708436551.1113365,-2.1450023651123047,-1.334667370920517,-2.52698523203005,6.119056451111593,1.0178744792938232,-2.541194264088766
1708436551.113368,-2.144961357116699,-1.3346345585635682,-2.5270512739764612,6.118959653168478,1.0179444551467896,-2.5407148043261927
1708436551.1153502,-2.1449103355407715,-1.3346636903337021,-2.5270677248584192,6.118871915131368,1.0179431438446045,-2.5402262846576136
1708436551.1173542,-2.1449568271636963,-1.334654988055565,-2.5270586649524134,6.118814933090963,1.017987847328186,-2.5396512190448206
1708436551.11935,-2.144836902618408,-1.3346269589713593,-2.5271363894092005,6.1188100455100916,1.0180153846740723,-2.5391762892352503
1708436551.1213393,-2.1448004245758057,-1.3346918535283585,-2.5271156469928187,6.1186935780342,1.0180554389953613,-2.5385614077197474
1708436551.1233563,-2.144782304763794,-1.3346432161382218,-2.5271275679217737,6.118587720185079,1.018087387084961,-2.5380123297320765
1708436551.1253352,-2.144770860671997,-1.33461149156604,-2.527114216481344,6.11856101730422,1.0181450843811035,-2.5375004450427454
1708436551.1273563,-2.1447346210479736,-1.3346518290093918,-2.527159039174215,6.118453252106466,1.0181071758270264,-2.5369108358966272
1708436551.129329,-2.144648551940918,-1.3346070808223267,-2.5272205511676233,6.11840974071578,1.0181474685668945,-2.536370102559225
1708436551.1313248,-2.1446993350982666,-1.3345790964416047,-2.5271697680102747,6.118371951370992,1.0182205438613892,-2.5357919375049036
1708436551.1333587,-2.1445486545562744,-1.3345790368369599,-2.5272653738604944,6.118257391243734,1.0182316303253174,-2.5352214018451136
1708436551.1353526,-2.14463472366333,-1.334579051738121,-2.5272398630725306,6.118198025017538,1.0182925462722778,-2.5346460978137415
1708436551.1373532,-2.1445460319519043,-1.334657148723938,-2.527242962514059,6.118174898415365,1.018296480178833,-2.534126583729879
1708436551.139333,-2.1445508003234863,-1.334542141561844,-2.527292553578512,6.118115412979879,1.0183451175689697,-2.5334792772876185
1708436551.1413467,-2.144503116607666,-1.3345876348069687,-2.5273283163653772,6.118022668152609,1.0183442831039429,-2.532931629811422
1708436551.1434362,-2.14444637298584,-1.3345248860171814,-2.5273075739489954,6.117909776955404,1.0183967351913452,-2.532374684010641
1708436551.1453815,-2.144439458847046,-1.334591956143715,-2.5273314158069056,6.1179029820259,1.0184118747711182,-2.531875197087423
1708436551.1473517,-2.1444032192230225,-1.334599570637085,-2.5273223559008997,6.117803084641256,1.0185134410858154,-2.5312612692462366
1708436551.1493278,-2.144347667694092,-1.3345551502755661,-2.527371946965353,6.117836701660909,1.018467903137207,-2.5306676069842737
1708436551.1513062,-2.1443307399749756,-1.3345347058824082,-2.527367655430929,6.1177193997199915,1.0185527801513672,-2.5300968329059046
1708436551.1533873,-2.144307851791382,-1.3346124601415177,-2.527375046406881,6.117684709816732,1.018601894378662,-2.5294950644122522
1708436551.1553802,-2.144263744354248,-1.3345552396825333,-2.527391497288839,6.117601859360494,1.0186089277267456,-2.5288472811328333
1708436551.1573596,-2.1442713737487793,-1.3345594716123124,-2.5274155775653284,6.117532598763265,1.01863694190979,-2.5283218065844935
1708436551.1593137,-2.1442151069641113,-1.3345637929490586,-2.5274186770068567,6.11745177486495,1.0186480283737183,-2.527642075215475
1708436551.161325,-2.1441335678100586,-1.3345767122558136,-2.527475420628683,6.117397653847494,1.0186970233917236,-2.5269723574267786
1708436551.1633432,-2.1441311836242676,-1.3345028919032593,-2.527491633092062,6.117363083153524,1.0187453031539917,-2.5264652411090296
1708436551.1653333,-2.144094944000244,-1.3345833283713837,-2.527466360722677,6.117323505669393,1.0188065767288208,-2.525811735783712
1708436551.1673567,-2.144094944000244,-1.3345237535289307,-2.5275190512286585,6.117193209915914,1.0187638998031616,-2.5251789728747767
1708436551.1693332,-2.1440629959106445,-1.3345638078502198,-2.5275443235980433,6.117137658386984,1.0188294649124146,-2.524508062993185
1708436551.1713538,-2.1440234184265137,-1.3345029813102265,-2.5275893847094935,6.117134439736166,1.0188448429107666,-2.5238803068744105
1708436551.1733468,-2.1440322399139404,-1.3345680844834824,-2.527550284062521,6.117038833885946,1.0188899040222168,-2.5232260862933558
1708436551.1753662,-2.14400053024292,-1.334528074865677,-2.527550284062521,6.117004263191976,1.0189006328582764,-2.522656265889303
1708436551.1773453,-2.1439528465270996,-1.334479035144188,-2.527562443410055,6.116882312088766,1.0189409255981445,-2.5219202677356165
1708436551.1793673,-2.1439199447631836,-1.3345486533692856,-2.527591053639547,6.116859543114462,1.0190218687057495,-2.5213480631457728
1708436551.181417,-2.1439290046691895,-1.3345039647868653,-2.5275984446154993,6.116827952652731,1.0190131664276123,-2.5207627455340784
1708436551.1833866,-2.143921136856079,-1.334597335462906,-2.5276358763324183,6.116796481400289,1.019086241722107,-2.5201554934131067
1708436551.1853545,-2.143827199935913,-1.3345237237266083,-2.5277047793017786,6.116773593216696,1.0191013813018799,-2.519498888646261
1708436551.1873467,-2.1438653469085693,-1.3345279705575486,-2.527633253728048,6.116656172066488,1.019150733947754,-2.518860642110006
1708436551.1893375,-2.1438496112823486,-1.334508166914322,-2.527710739766256,6.116608249932089,1.019166111946106,-2.5182035605060022
1708436551.1913216,-2.1437883377075195,-1.334524468784668,-2.5276780764209192,6.116544353752889,1.0191901922225952,-2.5176385084735315
1708436551.1933548,-2.1437318325042725,-1.3345201921514054,-2.5277016798602503,6.116472232132711,1.0192304849624634,-2.5170419851886194
1708436551.1953325,-2.1437113285064697,-1.3345367324403306,-2.5277634302722376,6.116415965348043,1.0192173719406128,-2.5164251963244837
1708436551.1973603,-2.1437089443206787,-1.3345072281411667,-2.5277918020831507,6.116381037026205,1.0192861557006836,-2.5158279577838343
1708436551.199325,-2.1436593532562256,-1.334540994172432,-2.5278292338000696,6.116398441582479,1.019338846206665,-2.5152178446399134
1708436551.2013216,-2.143677234649658,-1.334524468784668,-2.527836863194601,6.116277920990743,1.0193455219268799,-2.514613930379049
1708436551.203361,-2.1436498165130615,-1.3344834309867402,-2.527823511754171,6.116212951927938,1.0194185972213745,-2.514050070439474
1708436551.205324,-2.1435887813568115,-1.3344952774098893,-2.5278428236590784,6.116165745049276,1.0194588899612427,-2.5134199301349085
1708436551.2073436,-2.1435346603393555,-1.3345039796880265,-2.5278595129596155,6.116174447327413,1.0194416046142578,-2.51274544397463
1708436551.2093234,-2.143602132797241,-1.3345616471818467,-2.5278638044940394,6.11604522445754,1.0195026397705078,-2.51221472421755
1708436551.211308,-2.143550157546997,-1.3344466549209137,-2.5278669039355677,6.116037595063009,1.0194690227508545,-2.511618200932638
1708436551.2133434,-2.143521785736084,-1.3344920587590714,-2.527907435094015,6.115990030556478,1.0195543766021729,-2.5109673182116907
1708436551.2153192,-2.143543243408203,-1.334483416085579,-2.527886454259054,6.116023528366842,1.0195956230163574,-2.510350290928976
1708436551.2173483,-2.1435067653656006,-1.3345006120255967,-2.527985397969381,6.115893828659811,1.019593596458435,-2.5097160975085657
1708436551.219341,-2.1434433460235596,-1.334468202,-2.5279510656939905,6.115911233216085,1.019675374031067,-2.509149138127462
1708436551.2213242,-2.1434051990509033,-1.334439144735672,-2.5279510656939905,6.115867841034689,1.0196949243545532,-2.5084946791278284
1708436551.223353,-2.14341402053833,-1.334443376665451,-2.527954165135519,6.115835416107931,1.0197433233261108,-2.5079296270953577
1708436551.2253132,-2.143357276916504,-1.3345049035600205,-2.5279868284808558,6.115747320442953,1.0198001861572266,-2.5073211828814905
1708436551.2273297,-2.14332914352417,-1.3344798547080536,-2.528006378804342,6.115744101792135,1.0198034048080444,-2.5067125002490442
1708436551.229328,-2.1433210372924805,-1.334504948263504,-2.528031651173727,6.115638839989462,1.0198472738265991,-2.50613242784609
1708436551.2313073,-2.143338918685913,-1.334456206565239,-2.5279975573169153,6.115676629334249,1.0198709964752197,-2.505510393773214
1708436551.2333488,-2.143303871154785,-1.3344767850688477,-2.5280798117267054,6.115587579994955,1.0198745727539062,-2.5048771540271204
1708436551.2353182,-2.143221378326416,-1.3344883483699341,-2.5280378500567835,6.115569221764364,1.0199027061462402,-2.5043326059924524
1708436551.2373405,-2.143214225769043,-1.3344357472709198,-2.5280874411212366,6.1154754040534876,1.0199389457702637,-2.5037623087512415
1708436551.239314,-2.1432642936706543,-1.3344105941108246,-2.528106991444723,6.115411627083578,1.0199586153030396,-2.5031679312335413
1708436551.2413352,-2.1432323455810547,-1.334469274883606,-2.528144184743063,6.1154212830360315,1.0200361013412476,-2.5025625864612024
1708436551.2434235,-2.143162250518799,-1.3344605577043076,-2.528130833302633,6.115396010666647,1.0200556516647339,-2.5019574801074427
1708436551.2453506,-2.143113613128662,-1.334472508435585,-2.5281758944140833,6.115332233696737,1.0201159715652466,-2.5013235251056116
1708436551.2473605,-2.1430985927581787,-1.334456281071045,-2.5282207171069544,6.115291940956869,1.0201159715652466,-2.500742260609762
1708436551.2493615,-2.1431360244750977,-1.3344322007945557,-2.5282774607287806,6.115305888443746,1.0201890468597412,-2.50016957918276
1708436551.251323,-2.1430907249450684,-1.3343582314303895,-2.52821928659548,6.115289675980367,1.0202088356018066,-2.499589506779806
1708436551.253381,-2.1430952548980713,-1.334448755984642,-2.528247658406393,6.115302789002218,1.0202033519744873,-2.499016825352804
1708436551.2553337,-2.1430013179779053,-1.334448755984642,-2.528234306965963,6.115205991059103,1.0202230215072632,-2.4984880129443567
1708436551.2573755,-2.1430270671844482,-1.334440068607666,-2.528271738682882,6.115156876831808,1.020263433456421,-2.497841183339254
1708436551.259352,-2.143003225326538,-1.334456281071045,-2.5283120314227503,6.115150201111593,1.0203039646148682,-2.497314755116598
1708436551.2613368,-2.142951250076294,-1.334504873757698,-2.5283032099353235,6.115076529770651,1.020372748374939,-2.4966989199267786
1708436551.2633362,-2.1429669857025146,-1.3344040525010605,-2.528306309376852,6.115089523583212,1.0203641653060913,-2.4961636702166956
1708436551.2653341,-2.1428933143615723,-1.3344277900508423,-2.528330389653341,6.115053760796346,1.02040433883667,-2.495504919682638
1708436551.2673702,-2.1429283618927,-1.33444436014209,-2.5283260981189173,6.115059006005087,1.0204408168792725,-2.4950395266162317
1708436551.2693627,-2.142937183380127,-1.3344235581210633,-2.5283826033221644,6.115017759590902,1.0204482078552246,-2.494420353566305
1708436551.2713232,-2.1428582668304443,-1.334469274883606,-2.5284114519702356,6.114994990616598,1.020517349243164,-2.4938650766955774
1708436551.2733686,-2.1428637504577637,-1.33444436014209,-2.5284114519702356,6.114962208061971,1.0205249786376953,-2.4932823816882532
1708436551.2753587,-2.1428093910217285,-1.334448755984642,-2.5284233728991907,6.114938485413351,1.0205118656158447,-2.4927504698382776
1708436551.277379,-2.1428513526916504,-1.334416003232338,-2.528418842946188,6.1148908016975305,1.0205683708190918,-2.492181126271383
1708436551.2793424,-2.1428487300872803,-1.3344278049520035,-2.528418842946188,6.1148297665412805,1.0205762386322021,-2.491591755543844
1708436551.2813463,-2.142794609069824,-1.3344451052001496,-2.528496328984396,6.114830958634176,1.0206079483032227,-2.4910815397845667
1708436551.283334,-2.1427876949310303,-1.334448755984642,-2.528504196797506,6.1148273823554895,1.020660400390625,-2.4905148188220423
1708436551.2853243,-2.142747163772583,-1.3344364923289795,-2.528504196797506,6.114783036499777,1.0207008123397827,-2.489997688923971
1708436551.2873795,-2.142784357070923,-1.33444436014209,-2.5285280386554163,6.114784109383383,1.0207083225250244,-2.4894540945636194
1708436551.2893655,-2.1427345275878906,-1.3343953651240845,-2.5285354296313685,6.11472629287795,1.02074134349823,-2.4889984766589563
1708436551.2913108,-2.1427388191223145,-1.334453047519066,-2.5285266081439417,6.114674079209127,1.0207726955413818,-2.488431517277853
1708436551.2933493,-2.1426992416381836,-1.3344115924886246,-2.5285266081439417,6.114678370743551,1.0208011865615845,-2.4878862539874476
1708436551.2953134,-2.1427037715911865,-1.3344278198531647,-2.5286462942706507,6.114630687027731,1.0208449363708496,-2.487342182789938
1708436551.297339,-2.1426913738250732,-1.3344400537065049,-2.5285659472094935,6.114676582604208,1.0209019184112549,-2.48683745065798
1708436551.2993195,-2.1426632404327393,-1.334358350639679,-2.5285702387439173,6.114627587586202,1.0209062099456787,-2.4863858858691614
1708436551.3013387,-2.142709255218506,-1.3343964529088517,-2.528634850178854,6.114619958191671,1.0209619998931885,-2.485818688069479
1708436551.3033643,-2.14266300201416,-1.3343953651240845,-2.5286439100848597,6.114625084191122,1.0209654569625854,-2.4853184858905237
1708436551.3053162,-2.14261794090271,-1.334481195812561,-2.5286105314837855,6.1145352003868005,1.0209193229675293,-2.484792772923605
1708436551.3073287,-2.142615556716919,-1.334457353954651,-2.5286555925952356,6.114552485733785,1.020989179611206,-2.484356943761007
1708436551.309369,-2.1426198482513428,-1.3344040525010605,-2.528614107762472,6.114463436394491,1.0210299491882324,-2.483884874974386
1708436551.311312,-2.142582654953003,-1.3343953651240845,-2.528687063847677,6.114497053414144,1.0210492610931396,-2.483347479497091
1708436551.3133304,-2.1426005363464355,-1.3344322007945557,-2.528666083012716,6.114461290627279,1.0211021900177002,-2.4828923384295862
1708436551.3153214,-2.1425790786743164,-1.3344245564988633,-2.5287156740771692,6.114436375885763,1.021146535873413,-2.4824116865741175
1708436551.3173516,-2.1425588130950928,-1.3344159734300156,-2.5287471453296106,6.114432084351339,1.0211129188537598,-2.4818993250476282
1708436551.3193343,-2.142597198486328,-1.3344487410834809,-2.528738085423605,6.114379632263937,1.0211784839630127,-2.4814232031451624
1708436551.3213215,-2.1425881385803223,-1.334464968448021,-2.5287516752826136,6.114367472916403,1.0211400985717773,-2.4809826056109827
1708436551.3233287,-2.142594814300537,-1.3344192516854783,-2.528717343007223,6.11441336849288,1.0212382078170776,-2.480518166218893
1708436551.3253245,-2.142535924911499,-1.3344007444432755,-2.528759304677145,6.114393460541525,1.0212421417236328,-2.4801059404956263
1708436551.3273215,-2.142519950866699,-1.3344159734300156,-2.528787676488058,6.114332186966696,1.0212942361831665,-2.4795928637133997
1708436551.329356,-2.1425607204437256,-1.3344083589366456,-2.52875787416567,6.114345061569967,1.0213348865509033,-2.4791393915759485
1708436551.3313189,-2.1425743103027344,-1.3344364923289795,-2.5287533442126673,6.114312159806051,1.0213061571121216,-2.4786654154406946
1708436551.3333416,-2.1425211429595947,-1.334399790768959,-2.5287819544421595,6.1143178818519495,1.0213263034820557,-2.4781482855426233
1708436551.3353271,-2.1425256729125977,-1.3344332438758393,-2.5288026968585413,6.114309060364523,1.021313190460205,-2.4777401129352015
1708436551.3373444,-2.1424803733825684,-1.3344494563392182,-2.5288072268115442,6.114264237671652,1.0213369131088257,-2.4772759119616907
1708436551.3393438,-2.1424360275268555,-1.3344615709832688,-2.5288310686694544,6.114273059159078,1.0213937759399414,-2.4768481890307825
1708436551.34137,-2.1424429416656494,-1.334445135002472,-2.5288429895984095,6.114179479866781,1.0214591026306152,-2.4764063994037073
1708436551.34346,-2.1424429416656494,-1.3344203245690842,-2.5289045015918177,6.114221083908834,1.021422266960144,-2.4759214560138147
1708436551.345511,-2.1424202919006348,-1.3343521517566224,-2.52885085741152,6.114257919579305,1.0214416980743408,-2.4754930178271692
1708436551.3473542,-2.142411470413208,-1.3344170314124604,-2.528890911732809,6.114188301354208,1.0214735269546509,-2.475105587636129
1708436551.34939,-2.1424179077148438,-1.334424541597702,-2.528862778340475,6.1141806719596765,1.0214660167694092,-2.474624220524923
1708436551.3513584,-2.1423704624176025,-1.3343964380076905,-2.5288658777820032,6.1141936657722376,1.021506428718567,-2.4741457144366663
1708436551.353358,-2.14241099357605,-1.334368036394455,-2.528910462056295,6.11416124084548,1.021546721458435,-2.473745648060934
1708436551.3553226,-2.1423680782318115,-1.3343508404544373,-2.5289271513568323,6.114125239640035,1.0215096473693848,-2.473285500203268
1708436551.3573217,-2.1423885822296143,-1.3344573092511673,-2.5289600531207483,6.114104974060812,1.021566390991211,-2.4728649298297327
1708436551.3593402,-2.1423771381378174,-1.3344126653722306,-2.5289347807513636,6.114074337273397,1.0215784311294556,-2.472464625035421
1708436551.3613572,-2.142340898513794,-1.3343842041543503,-2.5289555231677454,6.1140620587165735,1.021590232849121,-2.4720450083362024
1708436551.363313,-2.142357587814331,-1.3343713593534012,-2.5289438406573694,6.114102470665731,1.021630883216858,-2.4716454187976282
1708436551.3653476,-2.1423161029815674,-1.3343272370151062,-2.5289467016803187,6.114050137787618,1.0216426849365234,-2.471182648335592
1708436551.3673618,-2.142336368560791,-1.3343921315721055,-2.528991762791769,6.114008652954855,1.0216178894042969,-2.4708274046527308
1708436551.3693416,-2.1423089504241943,-1.3344660562327881,-2.5289750734912317,6.114038336067953,1.0216015577316284,-2.4704156557666224
1708436551.3713527,-2.142279624938965,-1.3343921315721055,-2.528933350239889,6.113977539330282,1.0216830968856812,-2.4699299971209925
1708436551.3733253,-2.1422839164733887,-1.3344245564988633,-2.528937641774313,6.113925325661459,1.0216538906097412,-2.4695451895343226
1708436551.3753114,-2.1422975063323975,-1.3344170314124604,-2.5289915243731897,6.113954531937399,1.021695613861084,-2.4691618124591272
1708436551.3773286,-2.1422975063323975,-1.334384263758995,-2.528966013585226,6.113939034729757,1.0216538906097412,-2.46873647371401
1708436551.3793168,-2.1422791481018066,-1.3344213229468842,-2.528982702885763,6.113884913712301,1.0216944217681885,-2.4683318773852747
1708436551.3813334,-2.142306327819824,-1.3344530326179047,-2.5290232340442103,6.1138906357581995,1.0216612815856934,-2.467968289052145
1708436551.3833125,-2.1422135829925537,-1.3344288927367707,-2.529022995625631,6.113850343018331,1.0217020511627197,-2.467506472264425
1708436551.385319,-2.1422364711761475,-1.33436372995887,-2.528994623814718,6.113824951439657,1.021751046180725,-2.467102829610006
1708436551.3873436,-2.142249822616577,-1.3344213527492066,-2.528990093861715,6.1138590452964685,1.0217466354370117,-2.466743294392721
1708436551.3893044,-2.1422295570373535,-1.3344297719052811,-2.5289858023272913,6.11383484581069,1.021726131439209,-2.46639591852297
1708436551.3913193,-2.142204761505127,-1.3343843084624787,-2.5290306250201624,6.113790142327108,1.0217304229736328,-2.4659021536456507
1708436551.393312,-2.1422431468963623,-1.3344051104835053,-2.529027525578634,6.113754737168112,1.0217379331588745,-2.4655004183398646
1708436551.3953295,-2.142181873321533,-1.334400863652565,-2.5290678183185022,6.113721835404196,1.0217633247375488,-2.4652066866504114
1708436551.3973396,-2.142181873321533,-1.3344127100757142,-2.5290678183185022,6.113742458611288,1.021770715713501,-2.4647541681872767
1708436551.3993325,-2.142139196395874,-1.3343842786601563,-2.5290678183185022,6.113767850189962,1.0217589139938354,-2.464372221623556
1708436551.401318,-2.142202138900757,-1.3344202649644394,-2.5290098826037806,6.113711106568136,1.021787405014038,-2.4640000502215784
1708436551.4033756,-2.142141103744507,-1.3344126653722306,-2.5290351549731653,6.113657939224996,1.02175772190094,-2.4636040369616907
1708436551.405324,-2.14213228225708,-1.3343798828176041,-2.5290053526507776,6.113682734757223,1.0217785835266113,-2.463207785283224
1708436551.4073367,-2.1421456336975098,-1.3343564879945298,-2.5290752092944544,6.113654839783468,1.0217502117156982,-2.4627915064441126
1708436551.409359,-2.1421456336975098,-1.3343885701945801,-2.5290706793414515,6.113635051041403,1.0218273401260376,-2.4624839464770716
1708436551.4113195,-2.142075300216675,-1.3343680214932938,-2.5290632883654993,6.113597738533773,1.021741509437561,-2.462055269871847
1708436551.4133441,-2.1421093940734863,-1.3343606901219864,-2.5290544668780726,6.113631832390585,1.0217829942703247,-2.4616382757769983
1708436551.4153159,-2.1421477794647217,-1.3343756210855027,-2.5290589968310755,6.113599049835958,1.0217905044555664,-2.4612298647509974
1708436551.4173336,-2.1420888900756836,-1.3343723577312012,-2.5290544668780726,6.113539445191183,1.0218396186828613,-2.460869852696554
1708436551.419343,-2.142090082168579,-1.3343487542918702,-2.5290876070605677,6.113559949188986,1.0217700004577637,-2.4604557196246546
1708436551.4213226,-2.1420483589172363,-1.3343885999969025,-2.5290618578540247,6.113515245705404,1.0217936038970947,-2.460121218358175
1708436551.4233186,-2.142064094543457,-1.334376574759819,-2.5290921370135706,6.113510834961691,1.0218067169189453,-2.459705416356222
1708436551.4253352,-2.142077684402466,-1.3343765151551743,-2.529074494038717,6.113458621292867,1.0217981338500977,-2.45929986635317
1708436551.4273129,-2.142057180404663,-1.3343765300563355,-2.5290995279895228,6.113455521851339,1.0218309164047241,-2.4589079062091272
1708436551.4293723,-2.142054796218872,-1.3343606752208252,-2.5290966669665735,6.113455521851339,1.0217981338500977,-2.4585395495044153
1708436551.4313915,-2.1420912742614746,-1.334332214002945,-2.529029194508688,6.113407838135519,1.0217981338500977,-2.458094660435812
1708436551.4333348,-2.1420254707336426,-1.334364966755249,-2.5290218035327356,6.113382804184713,1.0218067169189453,-2.457791868840353
1708436551.4353325,-2.1419970989227295,-1.334332214002945,-2.529078785573141,6.113358723908224,1.0218024253845215,-2.4573264757739466
1708436551.4373488,-2.1419599056243896,-1.3343041253140946,-2.5290589968310755,6.1133718369300745,1.0217742919921875,-2.4569996039019983
1708436551.4393368,-2.1420185565948486,-1.334324688916542,-2.5290663878070276,6.113336074143209,1.0218110084533691,-2.4565776030169886
1708436551.4413486,-2.141998291015625,-1.3343333464911957,-2.5290618578540247,6.113352286606588,1.0217742919921875,-2.4561639467822474
1708436551.4434094,-2.1419618129730225,-1.3343408119729538,-2.5290544668780726,6.113303530007162,1.0217862129211426,-2.455747906361715
1708436551.4454117,-2.1419708728790283,-1.3343581718257447,-2.5290263334857386,6.113271701126852,1.0217819213867188,-2.4553471247302454
1708436551.4475393,-2.141982316970825,-1.3343376380256196,-2.529099766408102,6.113289344101705,1.0217818021774292,-2.4550324122058313
1708436551.4493377,-2.141949415206909,-1.3342843514731904,-2.5290380159961146,6.113223898201742,1.0217947959899902,-2.454648558293478
1708436551.4513566,-2.1420071125030518,-1.334328980450966,-2.529074494038717,6.11323248127059,1.0217947959899902,-2.4542716185199183
1708436551.4533732,-2.141937017440796,-1.3343005937388916,-2.5290172735797327,6.1132253287132166,1.0217620134353638,-2.4538748900042933
1708436551.4553423,-2.142011880874634,-1.3342843663743515,-2.5290172735797327,6.113167512207784,1.0217657089233398,-2.453521792088644
1708436551.457352,-2.141941547393799,-1.3342767518809815,-2.5290501753436487,6.11313151100234,1.02175772190094,-2.4531260172473353
1708436551.4593217,-2.141958475112915,-1.33436672509227,-2.5290663878070276,6.113153207093038,1.0217620134353638,-2.4527695814715784
1708436551.4613624,-2.1419389247894287,-1.334293009047844,-2.5291040579425257,6.113112079888143,1.0217534303665161,-2.452348534260885
1708436551.463384,-2.1419267654418945,-1.3342800003341218,-2.5290380159961146,6.113095748215475,1.0217785835266113,-2.4518983999835413
1708436551.4653358,-2.141930103302002,-1.3342681688121338,-2.5290589968310755,6.113142478256979,1.0217785835266113,-2.451531950627462
1708436551.4673347,-2.1418964862823486,-1.3342919212630768,-2.529055897389547,6.1130608198936365,1.021754503250122,-2.451090637837545
1708436551.4693377,-2.1419131755828857,-1.334251956348755,-2.5291009585009974,6.113037097245016,1.021726131439209,-2.450768772755758
1708436551.4713151,-2.1418778896331787,-1.3342648309520264,-2.5290337244616907,6.113023984223165,1.0217217206954956,-2.4503422419177454
1708436551.4733343,-2.1419053077697754,-1.3342853349498291,-2.5290709177600306,6.113045799523153,1.0216889381408691,-2.4499505201922815
1708436551.4753518,-2.141939878463745,-1.334317759876587,-2.5290425459491175,6.112996685295858,1.0216901302337646,-2.4495137373553675
1708436551.4773667,-2.1418709754943848,-1.334273414020874,-2.5289724508868616,6.112993705063619,1.021726131439209,-2.4491291681872767
1708436551.4793317,-2.1418824195861816,-1.3342896860888978,-2.5290260950671595,6.112990247994222,1.0216814279556274,-2.44871169725527
1708436551.4813552,-2.141862154006958,-1.3343015325120469,-2.5290380159961146,6.112941491394796,1.0216407775878906,-2.448320213948385
1708436551.4833217,-2.1418540477752686,-1.3342895668796082,-2.5290396849261683,6.1129751084144495,1.0216870307922363,-2.4479499498950403
1708436551.48531,-2.1418416500091553,-1.3342767518809815,-2.529072348271505,6.112909781723776,1.02164626121521,-2.4474180380450647
1708436551.4873497,-2.141876697540283,-1.3342982095531006,-2.5290263334857386,6.112877237587728,1.0216091871261597,-2.4470465818988245
1708436551.4893208,-2.141850709915161,-1.3342366975596924,-2.5289934317218226,6.112792479782858,1.0216015577316284,-2.4465773741351526
1708436551.4913113,-2.1418302059173584,-1.3341913980296631,-2.5290516058551233,6.112829196244039,1.021630883216858,-2.4461408297168177
1708436551.4933133,-2.1418347358703613,-1.334277720456459,-2.5290232340442103,6.112805473595419,1.021593689918518,-2.4457371870623987
1708436551.495352,-2.1417806148529053,-1.3342161190560837,-2.528982702885763,6.1127813933189294,1.0216190814971924,-2.4453135172473353
1708436551.4973764,-2.141785144805908,-1.3342657846263428,-2.528999153767721,6.11274133899764,1.021562099456787,-2.4448557535754603
1708436551.4993305,-2.141843557357788,-1.334183470611908,-2.5290079752551478,6.112717377930441,1.021512746810913,-2.444432322178976
1708436551.5013273,-2.141826868057251,-1.3342410039952775,-2.528982702885763,6.112717377930441,1.0215214490890503,-2.4439554850207728
1708436551.5033457,-2.141787052154541,-1.3341999810985108,-2.5290079752551478,6.11274670341567,1.0215052366256714,-2.4435303846942347
1708436551.505322,-2.141798496246338,-1.3342247766307374,-2.5289586226092737,6.112657296448507,1.0214779376983643,-2.4431024233447474
1708436551.5073466,-2.141787052154541,-1.3342290681651612,-2.5289137999164026,6.112682568817892,1.0214617252349854,-2.442695442830221
1708436551.5093231,-2.1417746543884277,-1.3342128557017823,-2.528937880192892,6.112678277283468,1.0214048624038696,-2.4421570936786097
1708436551.5113237,-2.141765832901001,-1.3341563653996964,-2.5289765040027063,6.112593400269308,1.0213969945907593,-2.4417534510241907
1708436551.5133607,-2.141723871231079,-1.3341433864882966,-2.5289393107043665,6.112597691803732,1.0213850736618042,-2.4412806669818323
1708436551.5153308,-2.1417531967163086,-1.3341973584941407,-2.528914753590719,6.112585890084066,1.0213654041290283,-2.440808359776632
1708436551.5173824,-2.1418118476867676,-1.3342300963452836,-2.5289481321917933,6.112541067391195,1.0213783979415894,-2.4403274695025843
1708436551.51937,-2.1417622566223145,-1.334184394483902,-2.5288658777820032,6.1125913737113855,1.0213871002197266,-2.4398790041552942
1708436551.5213342,-2.1417577266693115,-1.3341930669597168,-2.528882090245382,6.112502085953512,1.0213005542755127,-2.4393535296069544
1708436551.523353,-2.1417622566223145,-1.3341483932784577,-2.528858248387472,6.112512099533834,1.0212724208831787,-2.4388652483569544
1708436551.5253465,-2.1417713165283203,-1.3341811460307618,-2.528879229222433,6.112474906235494,1.0212527513504028,-2.438380304967062
1708436551.5273685,-2.1417202949523926,-1.3341811162284394,-2.528842035924093,6.112464058190145,1.0212571620941162,-2.43797737756838
1708436551.5293195,-2.1417622566223145,-1.3341983717731019,-2.52882963815798,6.112471568375387,1.0212376117706299,-2.437382761632101
1708436551.5313203,-2.1417293548583984,-1.334230737095215,-2.528846565877096,6.112422811775961,1.0212132930755615,-2.436906639729635
1708436551.533355,-2.1417622566223145,-1.3341526699117203,-2.5288012663470667,6.112382399826803,1.0211894512176514,-2.4364355246173304
1708436551.5353115,-2.1417622566223145,-1.3341526997140427,-2.5288310686694544,6.112357485085287,1.0211412906646729,-2.435917917882101
1708436551.5373704,-2.1417622566223145,-1.3341378283551713,-2.5288265387164515,6.112432586937704,1.021153211593628,-2.435364071522848
1708436551.5393107,-2.141710042953491,-1.3341570508531113,-2.5288146177874964,6.1123835919196985,1.0211172103881836,-2.434880320225851
1708436551.54132,-2.1416964530944824,-1.334108443265297,-2.528762165700094,6.112331378250875,1.0211052894592285,-2.434387985860006
1708436551.5433981,-2.141726016998291,-1.334177852874138,-2.52875787416567,6.112343179970541,1.0210528373718262,-2.433904234563009
1708436551.545403,-2.1417124271392822,-1.3341368299773713,-2.5287533442126673,6.1122954962547205,1.0210535526275635,-2.4333553949939173
1708436551.5474176,-2.1417384147644043,-1.334108368759491,-2.528750483189718,6.1122673628623865,1.0210168361663818,-2.432843271886007
1708436551.5493293,-2.141730546951294,-1.3341378283551713,-2.5287306944476526,6.112292277603903,1.021004557609558,-2.4322784582721155
1708436551.551317,-2.1417031288146973,-1.3340769571116944,-2.5287395159350794,6.112243282585897,1.0209935903549194,-2.4317222277270716
1708436551.5533462,-2.1417057514190674,-1.3340974611094971,-2.5286887327777308,6.112211930542745,1.020927906036377,-2.431213919316427
1708436551.5553403,-2.141726016998291,-1.3341453832438965,-2.5286646525012415,6.112220513611593,1.0208876132965088,-2.430656973515646
1708436551.5573828,-2.1417076587677,-1.3341291707805176,-2.5286646525012415,6.112204301148214,1.0208512544631958,-2.430124346409933
1708436551.5593638,-2.141723394393921,-1.3341093820384522,-2.5287321249591272,6.112196671753683,1.0208158493041992,-2.4295714537249964
1708436551.5613248,-2.141710042953491,-1.3340888780406495,-2.528646771107809,6.112159478455343,1.020843744277954,-2.4290147463427942
1708436551.5633533,-2.1416985988616943,-1.3340931695750733,-2.528637949620382,6.112184870034017,1.0207959413528442,-2.4285109678851526
1708436551.5653684,-2.1416773796081543,-1.3341147166541596,-2.528630320225851,6.11210726478652,1.0208133459091187,-2.427901569996969
1708436551.5673523,-2.141653299331665,-1.3341093820384522,-2.528651301060812,6.1121617434318445,1.0207477807998657,-2.42735726038088
1708436551.5693543,-2.141711950302124,-1.334113673572876,-2.5286317507373255,6.112099993019857,1.020707130432129,-2.4267964998828333
1708436551.571313,-2.1417076587677,-1.3341093820384522,-2.5285940806018274,6.112080204277792,1.0207083225250244,-2.4262595812426966
1708436551.573378,-2.1417076587677,-1.334150717859604,-2.52857476869692,6.112040149956503,1.0206711292266846,-2.4257074038134974
1708436551.5753167,-2.141649007797241,-1.334064708357193,-2.5285912195788782,6.112027871399679,1.0206809043884277,-2.4252048174487513
1708436551.5773337,-2.14169979095459,-1.3340855699828644,-2.5285866896258753,6.111999738007345,1.0206398963928223,-2.424569908772604
1708436551.5793006,-2.1416738033294678,-1.3341309291175385,-2.528492275868551,6.111980306893148,1.0206316709518433,-2.42403752008547
1708436551.581343,-2.1416738033294678,-1.3341266375831147,-2.528583590184347,6.111993300705709,1.0205588340759277,-2.4234772364245813
1708436551.5833268,-2.1416831016540527,-1.3340974760106583,-2.528513256703512,6.11197708824233,1.020592451095581,-2.4229202906238
1708436551.5853233,-2.1416544914245605,-1.334065781240799,-2.528472963963644,6.111969458847799,1.0205806493759155,-2.4223268667804163
1708436551.5873544,-2.1416499614715576,-1.3340364408544083,-2.5284445921527308,6.111962067871847,1.0205150842666626,-2.4217823187457483
1708436551.5893314,-2.1416783332824707,-1.3340495389750977,-2.5285192171679896,6.111924874573507,1.0204582214355469,-2.4212644735919397
1708436551.5913231,-2.1416964530944824,-1.3340657961419602,-2.5284996668445032,6.111905085831442,1.0204918384552002,-2.4207051436053675
1708436551.5933347,-2.1416285037994385,-1.3340408664992829,-2.528487507496969,6.111901747971334,1.0204558372497559,-2.420058314000265
1708436551.595331,-2.1416714191436768,-1.3340658408454438,-2.5284457842456263,6.1118695614631555,1.0204319953918457,-2.4195268789874476
1708436551.5975032,-2.1416802406311035,-1.3340495389750977,-2.5283847490893763,6.111829268723287,1.0204076766967773,-2.41899544397463
1708436551.5993128,-2.14164662361145,-1.3340169799378891,-2.528410021458761,6.111898886948385,1.0203663110733032,-2.418406073247091
1708436551.6013112,-2.1416678428649902,-1.3340495389750977,-2.5283904711352747,6.111808645516195,1.0203466415405273,-2.4178505579577845
1708436551.6033576,-2.14164662361145,-1.3340495091727753,-2.5284112135516565,6.111817347794332,1.020322561264038,-2.4172361532794397
1708436551.6053724,-2.1416847705841064,-1.334021271472313,-2.528375212346212,6.111845481186666,1.0202579498291016,-2.416654650365011
1708436551.6073482,-2.14164662361145,-1.3340495389750977,-2.5283871332751673,6.111842381745138,1.020241618156433,-2.4160378615008753
1708436551.6093245,-2.1416285037994385,-1.3340423119119187,-2.5283048788653772,6.111778485565939,1.0202558040618896,-2.4154542128192347
