Eg3-git/Classifiers/Data Collection/u4/u4www3_ur3e_joint_states.csv
time,elbow_joint,shoulder_lift_joint,shoulder_pan_joint,wrist_1_joint,wrist_2_joint,wrist_3_joint
1708436516.0535262,-2.1524791717529297,-1.337488205437996,-2.528987232838766,6.139815079956808,1.0217785835266113,-2.6535144487964075
1708436516.055522,-2.1525044441223145,-1.3375854206136246,-2.5289693514453333,6.139818537026205,1.021752953529358,-2.653463904057638
1708436516.057528,-2.1524791717529297,-1.3374797415784379,-2.529024664555685,6.139862882881918,1.021769642829895,-2.653517548237936
1708436516.0595407,-2.152438163757324,-1.3375130754760285,-2.5289812723742884,6.139843213349142,1.0217573642730713,-2.6534765402423304
1708436516.0615618,-2.1524581909179688,-1.3375335198691864,-2.5290022532092493,6.1398671744163416,1.021752953529358,-2.653497044240133
1708436516.0635653,-2.152470588684082,-1.3375249815038224,-2.52897817293276,6.13984643199996,1.0217905044555664,-2.6535220781909388
1708436516.0655265,-2.1524791717529297,-1.3375454407981415,-2.5290187040912073,6.139843094139852,1.021774172782898,-2.653497044240133
1708436516.0675504,-2.152494430541992,-1.337529258137085,-2.52897817293276,6.139845239907064,1.0217573642730713,-2.653501335774557
1708436516.0695486,-2.1525118350982666,-1.33754217744384,-2.529043976460592,6.139862763672628,1.021774172782898,-2.653508965169088
1708436516.0715227,-2.152498722076416,-1.3375692081502457,-2.52906042734255,6.139821398049154,1.0217831134796143,-2.653508965169088
1708436516.0735414,-2.152474880218506,-1.3375044477036973,-2.529043976460592,6.139853942185201,1.021763563156128,-2.6534884611712855
1708436516.0755177,-2.152503252029419,-1.337529258137085,-2.5289934317218226,6.139879333763876,1.0217876434326172,-2.653508965169088
1708436516.0775278,-2.152540922164917,-1.3376059842160721,-2.5290187040912073,6.139824616699972,1.0217876434326172,-2.6535165945636194
1708436516.079521,-2.1524741649627686,-1.337529258137085,-2.529015604649679,6.1398706314857385,1.021733283996582,-2.6535208860980433
1708436516.0815113,-2.152487277984619,-1.3375368279269715,-2.528990093861715,6.139956581383505,1.0217831134796143,-2.6534960905658167
1708436516.083562,-2.152466058731079,-1.3375002604774018,-2.5289858023272913,6.139934766083517,1.021737813949585,-2.653479878102438
1708436516.0855505,-2.152519941329956,-1.3375619810870667,-2.529027763997213,6.139901864319601,1.021759033203125,-2.653525177632467
1708436516.0876143,-2.152494430541992,-1.3375576895526429,-2.5290141741382044,6.139889943390646,1.0217708349227905,-2.6535046736346644
1708436516.0895445,-2.1525235176086426,-1.3375087988427659,-2.528987232838766,6.139930474549093,1.0218039751052856,-2.6534841696368616
1708436516.09151,-2.1525235176086426,-1.3375368130258103,-2.528945271168844,6.139988291054525,1.0217785835266113,-2.653553311024801
1708436516.0935297,-2.152482748031616,-1.3375044179013749,-2.5289693514453333,6.139910685807028,1.02177095413208,-2.6535328070269983
1708436516.0955453,-2.152559280395508,-1.3375454407981415,-2.528994623814718,6.139918434410848,1.021759033203125,-2.653537098561422
1708436516.0975606,-2.1525321006774902,-1.337594063287117,-2.528994623814718,6.139933454781332,1.021737813949585,-2.6535285154925745
1708436516.0995371,-2.1525111198425293,-1.3375864189914246,-2.528957192097799,6.1399422762687585,1.0217258930206299,-2.653537098561422
1708436516.1015096,-2.152554988861084,-1.3375619661859055,-2.5289693514453333,6.139947879105367,1.0217831134796143,-2.6535285154925745
1708436516.1035554,-2.1525321006774902,-1.3375249964049836,-2.529032055531637,6.13997648933486,1.021742343902588,-2.653553311024801
1708436516.1055403,-2.1524858474731445,-1.3375335347703476,-2.529027525578634,6.139927255898275,1.0216927528381348,-2.6535123030291956
1708436516.1075425,-2.152515411376953,-1.33754117906604,-2.5290067831622522,6.139918434410848,1.021742343902588,-2.6535778681384485
1708436516.1095507,-2.152449607849121,-1.3375044477036973,-2.5290022532092493,6.139964210778036,1.0217260122299194,-2.6535404364215296
1708436516.1115417,-2.152514934539795,-1.3375368279269715,-2.52897817293276,6.139897572785177,1.0217467546463013,-2.6535285154925745
1708436516.1135392,-2.1525392532348633,-1.3375378114036103,-2.528990093861715,6.139988291054525,1.0217137336730957,-2.6535447279559534
1708436516.1155143,-2.152543544769287,-1.337516413336136,-2.529027525578634,6.139921653061666,1.021727204322815,-2.6535165945636194
1708436516.117563,-2.1524858474731445,-1.337581218486168,-2.529020134602682,6.139934766083517,1.0217304229736328,-2.653586451207296
1708436516.1195378,-2.1525068283081055,-1.3375650209239502,-2.529027525578634,6.139914142876425,1.0216809511184692,-2.653553311024801
1708436516.1215181,-2.1524901390075684,-1.3375897866538544,-2.528957192097799,6.139951097756185,1.0216809511184692,-2.6535359064685267
1708436516.1235514,-2.152543544769287,-1.3375778210214158,-2.5290232340442103,6.139909732132711,1.0216944217681885,-2.6535447279559534
1708436516.125529,-2.152514934539795,-1.3375820976546784,-2.528940741215841,6.139946687012472,1.0216808319091797,-2.6535609404193323
1708436516.1275382,-2.152596950531006,-1.3375497174314042,-2.528973642979757,6.139906155854025,1.0216809511184692,-2.65361458459963
1708436516.1295195,-2.152465581893921,-1.3375619810870667,-2.528994623814718,6.139958846360006,1.0217182636260986,-2.653531614934103
1708436516.1315215,-2.1525192260742188,-1.337557704453804,-2.528936211262838,6.139910685807028,1.021690011024475,-2.6535821596728724
1708436516.1335504,-2.1525235176086426,-1.3375087988427659,-2.528994623814718,6.139909612923422,1.0216944217681885,-2.6535897890674036
1708436516.1355286,-2.152559280395508,-1.3375368130258103,-2.528994623814718,6.139958846360006,1.0216808319091797,-2.6535404364215296
1708436516.1375387,-2.152514934539795,-1.3375335347703476,-2.528966013585226,6.13992594459609,1.0216944217681885,-2.6535361448871058
1708436516.139529,-2.1525192260742188,-1.3375619810870667,-2.528966013585226,6.139921653061666,1.0217018127441406,-2.6535478273974817
1708436516.1415422,-2.152510643005371,-1.3374968630126496,-2.528966013585226,6.139988291054525,1.0216825008392334,-2.653606955205099
1708436516.1435242,-2.1524858474731445,-1.3375576895526429,-2.52903658548464,6.139921533852377,1.0217063426971436,-2.6535566488849085
1708436516.1455355,-2.1525306701660156,-1.337532640700676,-2.528973642979757,6.139964210778036,1.0217152833938599,-2.653569046651022
1708436516.1475434,-2.1525192260742188,-1.33754117906604,-2.528990093861715,6.139951097756185,1.02167809009552,-2.653569046651022
1708436516.1495078,-2.1525235176086426,-1.3375533384135743,-2.528940741215841,6.1398974535758875,1.0217019319534302,-2.6535242239581507
1708436516.151513,-2.152526378631592,-1.3375897419503708,-2.529003445302145,6.139876830368795,1.0216944217681885,-2.653553311024801
1708436516.1535234,-2.152554988861084,-1.3375650209239502,-2.528990093861715,6.139897572785177,1.021710753440857,-2.6535447279559534
1708436516.1554925,-2.152543544769287,-1.337529258137085,-2.528954092656271,6.1399913904960535,1.0217362642288208,-2.6535940806018274
1708436516.1575158,-2.1525392532348633,-1.337529258137085,-2.528966013585226,6.139939057617941,1.02167809009552,-2.653531614934103
1708436516.1595016,-2.1525392532348633,-1.3375778210214158,-2.528961722050802,6.139951097756185,1.021673560142517,-2.653560463582174
1708436516.1615288,-2.1525392532348633,-1.3375619810870667,-2.52897817293276,6.139983999520101,1.021748423576355,-2.6535983721362513
1708436516.163535,-2.1525630950927734,-1.3375283789685746,-2.528961722050802,6.139946687012472,1.021710753440857,-2.6535521189319056
1708436516.1655247,-2.1525235176086426,-1.33751733720813,-2.5289960543261927,6.13997648933486,1.0216988325119019,-2.6535447279559534
1708436516.1675565,-2.1525673866271973,-1.3375454556993027,-2.529003445302145,6.139950978546896,1.02167809009552,-2.653564755116598
1708436516.1695466,-2.152592658996582,-1.3375368130258103,-2.5289738813983362,6.139921653061666,1.0216988325119019,-2.6535521189319056
1708436516.1715562,-2.1525797843933105,-1.3375692081502457,-2.529024664555685,6.139979588776388,1.0216825008392334,-2.6535735766040247
1708436516.1735468,-2.1525306701660156,-1.3375011396459122,-2.528994623814718,6.139946687012472,1.0217137336730957,-2.6535735766040247
1708436516.1755157,-2.152571678161621,-1.337594063287117,-2.5289738813983362,6.139909612923422,1.02167809009552,-2.6535196940051478
1708436516.1775274,-2.152554988861084,-1.3375533384135743,-2.5290079752551478,6.139914142876425,1.021673560142517,-2.6535359064685267
1708436516.1795943,-2.1525306701660156,-1.3375576895526429,-2.52897817293276,6.139930474549093,1.0217152833938599,-2.653569046651022
1708436516.1815581,-2.152554988861084,-1.3375002157739182,-2.529020134602682,6.139951097756185,1.0217019319534302,-2.653580967579977
1708436516.183575,-2.152510643005371,-1.3375448894551774,-2.528994623814718,6.139909732132711,1.0216654539108276,-2.6535196940051478
1708436516.185594,-2.1525421142578125,-1.3375692081502457,-2.5289750734912317,6.13993917682723,1.0216691493988037,-2.653569046651022
1708436516.18763,-2.1525306701660156,-1.3375454407981415,-2.528987232838766,6.139909732132711,1.0217034816741943,-2.6535983721362513
1708436516.1895938,-2.152575969696045,-1.3375811886838456,-2.528961722050802,6.1399927017982385,1.021674633026123,-2.653569046651022
1708436516.1915388,-2.152571678161621,-1.337529258137085,-2.528982702885763,6.139918553620138,1.021690011024475,-2.6535447279559534
1708436516.193532,-2.152526378631592,-1.3375121367028733,-2.529027525578634,6.13997637012557,1.0216972827911377,-2.6535521189319056
1708436516.1955326,-2.1525421142578125,-1.3375206303647538,-2.529024664555685,6.139918553620138,1.0216988325119019,-2.653483215962545
1708436516.1975486,-2.1525349617004395,-1.3375983399203797,-2.5290079752551478,6.1399422762687585,1.021710753440857,-2.653586212788717
1708436516.199523,-2.1525421142578125,-1.3375497323325654,-2.5289631525622767,6.139901864319601,1.0216825008392334,-2.653531614934103
1708436516.2015512,-2.1525235176086426,-1.3375454556993027,-2.528940741215841,6.139961111336508,1.0217152833938599,-2.653564755116598
1708436516.2035437,-2.152559280395508,-1.33754117906604,-2.528924290333883,6.139901864319601,1.021710753440857,-2.6535940806018274
1708436516.205519,-2.152514934539795,-1.3375368130258103,-2.529024664555685,6.139934766083517,1.021710753440857,-2.6535778681384485
1708436516.2075272,-2.1525673866271973,-1.337557704453804,-2.5289586226092737,6.139930474549093,1.0216825008392334,-2.6535735766040247
1708436516.209514,-2.1525063514709473,-1.3375249815038224,-2.528982702885763,6.13997648933486,1.0216871500015259,-2.6535566488849085
1708436516.2115476,-2.1525673866271973,-1.3375705641559144,-2.528990093861715,6.139914142876425,1.0216610431671143,-2.6535359064685267
1708436516.2135155,-2.1525392532348633,-1.3375044179013749,-2.528916899357931,6.139955389290609,1.02167809009552,-2.6535359064685267
1708436516.2155442,-2.1525421142578125,-1.3375368279269715,-2.52897817293276,6.139873611717977,1.0216691493988037,-2.6535521189319056
1708436516.21754,-2.152514934539795,-1.3375368279269715,-2.528999153767721,6.139906275063314,1.0216691493988037,-2.653564755116598
1708436516.2195132,-2.152510643005371,-1.337544859652855,-2.528954092656271,6.139922845154562,1.0217363834381104,-2.6535447279559534
1708436516.2215283,-2.1525025367736816,-1.3375087839416047,-2.529027525578634,6.139934885292806,1.0216809511184692,-2.6535521189319056
1708436516.2235396,-2.1525235176086426,-1.3375692081502457,-2.528970543538229,6.13986490943984,1.0216989517211914,-2.653569046651022
1708436516.225508,-2.152526378631592,-1.3375940185836335,-2.528990093861715,6.1398987648780725,1.0216654539108276,-2.653592888508932
1708436516.2275212,-2.1525673866271973,-1.3375619661859055,-2.528999153767721,6.139936077385702,1.0216701030731201,-2.6535988489734095
1708436516.2295175,-2.1525235176086426,-1.3375121367028733,-2.528990093861715,6.139894354134359,1.0216944217681885,-2.65356952348818
1708436516.231503,-2.1525464057922363,-1.3375206303647538,-2.529015604649679,6.139903175621786,1.02167809009552,-2.6536060015307825
1708436516.2335265,-2.152514934539795,-1.337529258137085,-2.528954092656271,6.139910685807028,1.0216825008392334,-2.6535404364215296
1708436516.2355256,-2.15255069732666,-1.337516413336136,-2.528949562703268,6.139866101532736,1.0216944217681885,-2.6535521189319056
1708436516.2375154,-2.1525392532348633,-1.337529258137085,-2.529041115437643,6.139858352928915,1.02167809009552,-2.6535242239581507
1708436516.2395022,-2.1524815559387207,-1.3375619661859055,-2.5289858023272913,6.139915096550741,1.0216565132141113,-2.653508011494772
1708436516.2415013,-2.1525392532348633,-1.337557704453804,-2.528940741215841,6.139940368920126,1.0217152833938599,-2.6535940806018274
1708436516.2435012,-2.1525111198425293,-1.337529258137085,-2.528982702885763,6.13987814167098,1.0217019319534302,-2.6535196940051478
1708436516.2455108,-2.1525306701660156,-1.3375619661859055,-2.528987232838766,6.139873611717977,1.02167809009552,-2.6535897890674036
1708436516.2475226,-2.15255069732666,-1.3375735741904755,-2.528970543538229,6.139866220742025,1.0216898918151855,-2.6536102930652063
1708436516.2495115,-2.152514934539795,-1.3375130754760285,-2.528987232838766,6.139853942185201,1.0216779708862305,-2.6535566488849085
1708436516.2515233,-2.152554988861084,-1.3375497174314042,-2.528966013585226,6.13976942279891,1.021673560142517,-2.6535940806018274
1708436516.253521,-2.1525192260742188,-1.3375249964049836,-2.528970543538229,6.139850842743673,1.0216944217681885,-2.6535940806018274
1708436516.2555065,-2.1525392532348633,-1.3375206303647538,-2.5290079752551478,6.139822947769918,1.0216944217681885,-2.6535778681384485
1708436516.257507,-2.152514934539795,-1.33754117906604,-2.528966013585226,6.139803159027853,1.0216610431671143,-2.6535735766040247
1708436516.2595177,-2.1525192260742188,-1.33761020124469,-2.528991762791769,6.139783727913656,1.0216447114944458,-2.6535778681384485
1708436516.2615154,-2.1525630950927734,-1.3375454556993027,-2.529015843068258,6.139755236893453,1.021673560142517,-2.6536060015307825
1708436516.2635329,-2.152571678161621,-1.337598280315735,-2.528987232838766,6.139714944153585,1.0216944217681885,-2.653569046651022
1708436516.2655253,-2.1525068283081055,-1.3375576895526429,-2.528991762791769,6.139730202942648,1.0216854810714722,-2.6536102930652063
1708436516.2675414,-2.1525111198425293,-1.3375326257995148,-2.528949562703268,6.139709222107687,1.0217316150665283,-2.6536176840411585
1708436516.2695398,-2.1525630950927734,-1.337540627723076,-2.528970543538229,6.139747726708212,1.0216809511184692,-2.6535778681384485
1708436516.2715456,-2.1525306701660156,-1.3375576895526429,-2.528954092656271,6.139710414200582,1.021710753440857,-2.6535285154925745
1708436516.273532,-2.1525306701660156,-1.337529258137085,-2.528994623814718,6.139701831131735,1.0216988325119019,-2.653531614934103
1708436516.2755368,-2.152552366256714,-1.3375249815038224,-2.528949562703268,6.139730083733358,1.021710753440857,-2.6535609404193323
1708436516.277576,-2.1525025367736816,-1.3375497323325654,-2.5290067831622522,6.139694082527914,1.0217316150665283,-2.6536102930652063
1708436516.279512,-2.152554988861084,-1.3375497323325654,-2.528999153767721,6.139719235688009,1.0216825008392334,-2.6535561720477503
1708436516.2815192,-2.1525025367736816,-1.3375576895526429,-2.528961722050802,6.139719235688009,1.0216988325119019,-2.6535404364215296
1708436516.2835307,-2.1525349617004395,-1.33754117906604,-2.5290125052081507,6.139765250473776,1.0216944217681885,-2.6536102930652063
1708436516.285516,-2.152571678161621,-1.337516413336136,-2.52897817293276,6.139699804573812,1.021727204322815,-2.653565231953756
1708436516.2875993,-2.1524574756622314,-1.33754117906604,-2.52897817293276,6.139699923783102,1.021673560142517,-2.6535566488849085
1708436516.2895565,-2.1525378227233887,-1.337582142358162,-2.529003445302145,6.13970302322463,1.0217108726501465,-2.6535359064685267
1708436516.2915256,-2.152575969696045,-1.3374968630126496,-2.528954092656271,6.139649498253622,1.021690011024475,-2.6535821596728724
1708436516.293552,-2.152559280395508,-1.3375368130258103,-2.529032055531637,6.139653789788046,1.0216989517211914,-2.6535971800433558
1708436516.2955396,-2.1525235176086426,-1.33754117906604,-2.528990093861715,6.1396909830863855,1.0216944217681885,-2.6535735766040247
1708436516.2975154,-2.1525068283081055,-1.3375164580396195,-2.5290079752551478,6.1396593926246545,1.0217304229736328,-2.6535609404193323
1708436516.299537,-2.1525235176086426,-1.3375206303647538,-2.528994623814718,6.139655101090231,1.021690011024475,-2.653569046651022
1708436516.3015132,-2.1525349617004395,-1.3375576895526429,-2.528954092656271,6.139696347504415,1.021748423576355,-2.6535983721362513
1708436516.30353,-2.1524901390075684,-1.3375250411084671,-2.529024664555685,6.139675724297323,1.0217018127441406,-2.6535778681384485
1708436516.305503,-2.15255069732666,-1.3375449192574997,-2.5289586226092737,6.13968442657546,1.0217304229736328,-2.6535971800433558
1708436516.3075075,-2.152552366256714,-1.337529258137085,-2.5289796034442347,6.139700758248129,1.021727204322815,-2.653494898472921
1708436516.3095322,-2.1525278091430664,-1.3375454407981415,-2.5289586226092737,6.139668214112081,1.0217063426971436,-2.6535778681384485
1708436516.311504,-2.1525392532348633,-1.3375215989402314,-2.52897817293276,6.139590847283163,1.0217137336730957,-2.653537098561422
1708436516.3135056,-2.152494430541992,-1.3376015734723588,-2.52903658548464,6.139632093697347,1.0216944217681885,-2.6535359064685267
1708436516.315516,-2.152543544769287,-1.3375576895526429,-2.528945271168844,6.139575469284811,1.021743893623352,-2.6535566488849085
1708436516.3175046,-2.152543544769287,-1.33754117906604,-2.528994623814718,6.139595138817587,1.0216645002365112,-2.6535359064685267
1708436516.319499,-2.1525321006774902,-1.3375735741904755,-2.52903658548464,6.139608251839437,1.0217092037200928,-2.6535940806018274
1708436516.3215451,-2.152514934539795,-1.337557704453804,-2.528994623814718,6.139550316124716,1.0217018127441406,-2.653543535863058
1708436516.3235288,-2.152494430541992,-1.337516413336136,-2.528970543538229,6.139538275986471,1.0217182636260986,-2.6535566488849085
1708436516.3255358,-2.1525068283081055,-1.3375206154635926,-2.528990093861715,6.139530765801229,1.0217258930206299,-2.653564755116598
1708436516.3275046,-2.1525278091430664,-1.3375002157739182,-2.528982702885763,6.139592993050375,1.0217467546463013,-2.6535735766040247
1708436516.3295107,-2.15252423286438,-1.3375533384135743,-2.52897817293276,6.1395513890083215,1.0217136144638062,-2.653537098561422
1708436516.331534,-2.1525068283081055,-1.3375335347703476,-2.529003445302145,6.1395689127738855,1.0217349529266357,-2.653527323399679
1708436516.3335178,-2.1525068283081055,-1.3375002157739182,-2.528999153767721,6.139515626221456,1.0217394828796387,-2.653586451207296
1708436516.335508,-2.1525321006774902,-1.337528334265091,-2.5290079752551478,6.1395078776176355,1.0217136144638062,-2.6535609404193323
1708436516.337515,-2.1525278091430664,-1.337516413336136,-2.529015604649679,6.139503466873922,1.0217137336730957,-2.6535478273974817
1708436516.3395152,-2.152540922164917,-1.3375619661859055,-2.528991762791769,6.139531957894125,1.0216883420944214,-2.65361458459963
1708436516.3415153,-2.152474880218506,-1.3375497323325654,-2.529015604649679,6.139502632408895,1.0217514038085938,-2.653560463582174
1708436516.3435166,-2.1524901390075684,-1.3375619661859055,-2.529011313115255,6.139479625016012,1.021737813949585,-2.653560463582174
1708436516.3455124,-2.152494430541992,-1.3375121814063569,-2.528982702885763,6.13949595668868,1.021728754043579,-2.653565231953756
1708436516.3475204,-2.152503252029419,-1.3375576746514817,-2.529015604649679,6.139511215477743,1.02177095413208,-2.6535900274859827
1708436516.349519,-2.152547836303711,-1.3375326257995148,-2.528994623814718,6.139512169152059,1.0217573642730713,-2.6535940806018274
1708436516.3515484,-2.152519941329956,-1.337516413336136,-2.5290141741382044,6.139499056130209,1.0218158960342407,-2.6535897890674036
1708436516.353523,-2.152466058731079,-1.3375583303025742,-2.528982702885763,6.139475214272299,1.021775484085083,-2.6535521189319056
1708436516.3555222,-2.152498722076416,-1.3375650209239502,-2.5290067831622522,6.139417278557577,1.0217949151992798,-2.653602663670675
1708436516.357538,-2.152494430541992,-1.3375131052783509,-2.528990093861715,6.139445888787069,1.0217950344085693,-2.6535778681384485
1708436516.3595319,-2.152547836303711,-1.3375164580396195,-2.529024664555685,6.139512169152059,1.021802306175232,-2.6535566488849085
1708436516.361539,-2.152482748031616,-1.3375130754760285,-2.528982702885763,6.1395078776176355,1.0217785835266113,-2.6536064783679407
1708436516.3635263,-2.1525118350982666,-1.3375292730382462,-2.528990093861715,6.139470922737875,1.021765112876892,-2.6536102930652063
1708436516.3655548,-2.152487277984619,-1.3375130605748673,-2.5289693514453333,6.139524447708883,1.0218490362167358,-2.6535447279559534
1708436516.367516,-2.1524574756622314,-1.3375497174314042,-2.529024664555685,6.139467704087057,1.021774172782898,-2.6535735766040247
1708436516.3695214,-2.152491569519043,-1.33754117906604,-2.528949562703268,6.139479625016012,1.0218068361282349,-2.6535821596728724
1708436516.371516,-2.152498722076416,-1.3375497174314042,-2.528982702885763,6.139503466873922,1.0217905044555664,-2.6535311380969446
1708436516.373528,-2.1524293422698975,-1.3375368279269715,-2.529011313115255,6.13949595668868,1.0218098163604736,-2.6535404364215296
1708436516.375516,-2.152487277984619,-1.3375206303647538,-2.528961722050802,6.139463412552633,1.0218024253845215,-2.6535945574389856
1708436516.3775244,-2.1524336338043213,-1.3375533384135743,-2.529032055531637,6.1394632933433435,1.0218477249145508,-2.6535611788379114
1708436516.3795195,-2.152438163757324,-1.3375335347703476,-2.528994623814718,6.139406788140096,1.02181875705719,-2.6535781065570276
1708436516.381518,-2.1525087356567383,-1.3375259798816224,-2.529027525578634,6.139448034554281,1.0217933654785156,-2.653526846562521
1708436516.3835402,-2.1524510383605957,-1.3375335198691864,-2.528994623814718,6.139443623810568,1.021786093711853,-2.653569046651022
1708436516.3855298,-2.1524791717529297,-1.3375044179013749,-2.529015604649679,6.1393988011176965,1.0218265056610107,-2.6535356680499476
1708436516.3875675,-2.1524553298950195,-1.3375454556993027,-2.529032055531637,6.1393988011176965,1.02181875705719,-2.6535285154925745
1708436516.3896248,-2.152442455291748,-1.3375662577203293,-2.528990093861715,6.139391290932455,1.0218310356140137,-2.6535328070269983
1708436516.3916204,-2.152446746826172,-1.3375619661859055,-2.52906042734255,6.139343368798055,1.0218052864074707,-2.6535735766040247
1708436516.3935335,-2.1524710655212402,-1.3375207048705597,-2.529032055531637,6.139313924103536,1.0218143463134766,-2.653576676045553
1708436516.3955297,-2.1524667739868164,-1.3375582855990906,-2.5290351549731653,6.139376270561971,1.0218431949615479,-2.6535447279559534
1708436516.397535,-2.152442455291748,-1.3375368279269715,-2.5290141741382044,6.139322626381674,1.0218098163604736,-2.6535735766040247
1708436516.3995137,-2.1524791717529297,-1.337513120179512,-2.529032055531637,6.139385092049398,1.0218431949615479,-2.6536017099963587
1708436516.4015222,-2.1525001525878906,-1.3375540238669892,-2.5289858023272913,6.139343488007345,1.0218310356140137,-2.6535075346576136
1708436516.4035492,-2.1524267196655273,-1.3375454258969803,-2.5289889017688196,6.139322745590963,1.021834135055542,-2.6535401980029505
1708436516.4055095,-2.1524667739868164,-1.3375044179013749,-2.5290632883654993,6.139371859818258,1.0218477249145508,-2.6535654703723353
1708436516.4075243,-2.1524710655212402,-1.3375726652196427,-2.529027525578634,6.139319169312277,1.0218342542648315,-2.6535611788379114
1708436516.4095335,-2.152446746826172,-1.3376059842160721,-2.5289858023272913,6.139352071076193,1.02187180519104,-2.653522316609518
1708436516.4115171,-2.1524667739868164,-1.3375662130168458,-2.528990093861715,6.1393446801002405,1.0218596458435059,-2.653569046651022
1708436516.413553,-2.1524553298950195,-1.337549702530243,-2.5290067831622522,6.139359819680013,1.0218051671981812,-2.6535356680499476
1708436516.415517,-2.152446746826172,-1.33751733720813,-2.528990093861715,6.139372932701864,1.0218596458435059,-2.653560225163595
1708436516.4175265,-2.152439594268799,-1.3374872964671631,-2.5290306250201624,6.13931833484725,1.021838665008545,-2.6535735766040247
1708436516.4195192,-2.152435302734375,-1.3375087839416047,-2.5290022532092493,6.139359700470724,1.0219091176986694,-2.6535900274859827
1708436516.4215302,-2.1524198055267334,-1.3375497323325654,-2.5290351549731653,6.139364111214437,1.0218505859375,-2.6535900274859827
1708436516.4235234,-2.1524267196655273,-1.3375087839416047,-2.5289767424212855,6.139340269356527,1.021846055984497,-2.6535285154925745
1708436516.4255075,-2.1524553298950195,-1.3375087243369599,-2.5290098826037806,6.1393271563346765,1.0218596458435059,-2.6535823980914515
1708436516.4275248,-2.1524436473846436,-1.3375778657248993,-2.529039446507589,6.139347779541769,1.0218955278396606,-2.6535521189319056
1708436516.4295802,-2.1524834632873535,-1.3375540238669892,-2.5290022532092493,6.139359700470724,1.0218627452850342,-2.653576676045553
1708436516.4315352,-2.1524198055267334,-1.3375378114036103,-2.5290351549731653,6.139314758568563,1.0219045877456665,-2.6535521189319056
1708436516.4335246,-2.1524436473846436,-1.3375335347703476,-2.5290141741382044,6.1393271563346765,1.0218251943588257,-2.6535311380969446
1708436516.4355316,-2.1523947715759277,-1.3375540238669892,-2.5290842692004603,6.139368402748861,1.0218627452850342,-2.6535356680499476
1708436516.4375324,-2.152432441711426,-1.337501124744751,-2.5290098826037806,6.139319169312277,1.0218790769577026,-2.653580967579977
1708436516.4395146,-2.1524412631988525,-1.3375240576318284,-2.528990093861715,6.139350878983297,1.021911859512329,-2.6535430590258997
1708436516.441532,-2.152428150177002,-1.3374925714782258,-2.5290351549731653,6.139335739403524,1.0218583345413208,-2.653567616139547
1708436516.4435453,-2.1523990631103516,-1.3374840182117005,-2.5290053526507776,6.139356481819906,1.021867275238037,-2.6535566488849085
1708436516.445521,-2.152452230453491,-1.337516413336136,-2.5290425459491175,6.139347779541769,1.0218493938446045,-2.653576437626974
1708436516.4475374,-2.1524553298950195,-1.3375054162791749,-2.5290632883654993,6.139365303307333,1.0218865871429443,-2.6535313765155237
1708436516.4495134,-2.152411460876465,-1.3375368130258103,-2.5290187040912073,6.139401304512777,1.0218865871429443,-2.6535475889789026
1708436516.4515018,-2.1524033546447754,-1.3375454556993027,-2.5290351549731653,6.1393117783363245,1.021893858909607,-2.6535654703723353
1708436516.4535408,-2.152439594268799,-1.3374968630126496,-2.529083315526144,6.139347779541769,1.0218955278396606,-2.6535521189319056
1708436516.4554994,-2.1524553298950195,-1.33751733720813,-2.5290454069720667,6.139314877777853,1.0219199657440186,-2.653569046651022
1708436516.4575553,-2.15240740776062,-1.3375619810870667,-2.5290380159961146,6.1393314478691,1.0219109058380127,-2.6535356680499476
1708436516.459545,-2.1524553298950195,-1.3375378114036103,-2.5290337244616907,6.139343488007345,1.0219184160232544,-2.653569046651022
1708436516.461537,-2.152456760406494,-1.3374959391406556,-2.5291040579425257,6.139368402748861,1.021946668624878,-2.6535988489734095
1708436516.4635642,-2.1524198055267334,-1.3375087839416047,-2.529083315526144,6.1393552897270105,1.0219392776489258,-2.6535192171679896
1708436516.465524,-2.152428150177002,-1.3375249815038224,-2.5290618578540247,6.139380681305685,1.021942138671875,-2.6535945574389856
1708436516.4675398,-2.1524078845977783,-1.3375735592893143,-2.5290618578540247,6.1393236992652795,1.0219544172286987,-2.653569046651022
1708436516.469509,-2.1523947715759277,-1.337536798124649,-2.529111448918478,6.139330255776205,1.0219829082489014,-2.6535239855395716
1708436516.4715111,-2.152432441711426,-1.3375411939672013,-2.529074255620138,6.139306056290426,1.021937608718872,-2.653494183217184
1708436516.4735415,-2.1524200439453125,-1.3374925714782258,-2.529069964085714,6.139298665314474,1.021963357925415,-2.6535900274859827
1708436516.4755225,-2.152463674545288,-1.3375249815038224,-2.529130999241964,6.139334666519918,1.0219556093215942,-2.6535781065570276
1708436516.4775286,-2.15240740776062,-1.3375250113061448,-2.5291100184070032,6.1393314478691,1.0219497680664062,-2.653526846562521
1708436516.4795349,-2.152428150177002,-1.337594063287117,-2.5290938059436243,6.13939260223464,1.0219497680664062,-2.6535356680499476
1708436516.4815197,-2.1524033546447754,-1.3375619810870667,-2.529139820729391,6.139352190285482,1.0219616889953613,-2.653569046651022
1708436516.4835653,-2.152463674545288,-1.3375497323325654,-2.529135290776388,6.139347779541769,1.021963357925415,-2.65357214609255
1708436516.4855158,-2.15240740776062,-1.3375539493611832,-2.529114548360006,6.139310467034139,1.0219993591308594,-2.6535781065570276
1708436516.4875374,-2.1524033546447754,-1.3375491511872788,-2.5291264692889612,6.139383780747213,1.0219919681549072,-2.6535735766040247
1708436516.4895864,-2.152411460876465,-1.3375249666026612,-2.529114548360006,6.139334666519918,1.021946668624878,-2.6535900274859827
1708436516.4916992,-2.1524157524108887,-1.3375619810870667,-2.5290892759906214,6.139376270561971,1.0219829082489014,-2.6535521189319056
1708436516.49355,-2.152411460876465,-1.337529258137085,-2.529130999241964,6.139364111214437,1.0219829082489014,-2.6535475889789026
1708436516.495538,-2.1524033546447754,-1.3375121367028733,-2.5291100184070032,6.1393236992652795,1.0219544172286987,-2.6535945574389856
1708436516.4975557,-2.1523873805999756,-1.3375662577203293,-2.5291431585894983,6.139306175499716,1.0219993591308594,-2.6536107699023646
1708436516.4995217,-2.152432441711426,-1.3375454556993027,-2.529098097478048,6.139363157540121,1.0220069885253906,-2.6535356680499476
1708436516.5015216,-2.1524157524108887,-1.337513045673706,-2.5290728251086634,6.1393446801002405,1.0220069885253906,-2.6535611788379114
1708436516.503555,-2.152467966079712,-1.3375662577203293,-2.5290892759906214,6.139384972840109,1.0219857692718506,-2.65358549753298
1708436516.5055456,-2.1524157524108887,-1.3375087839416047,-2.5291340986834925,6.139433967858114,1.0219694375991821,-2.6535735766040247
1708436516.5075493,-2.152390718460083,-1.3375044179013749,-2.529114548360006,6.1393314478691,1.0219857692718506,-2.653592888508932
1708436516.5095408,-2.1523873805999756,-1.3375607442906876,-2.529114548360006,6.1393881914909265,1.022039771080017,-2.653560225163595
1708436516.5115545,-2.152411460876465,-1.3375619363835831,-2.529130999241964,6.13939260223464,1.0220264196395874,-2.653592888508932
1708436516.5135727,-2.1524033546447754,-1.3375044775060196,-2.5291593710528772,6.13939260223464,1.0220264196395874,-2.65357214609255
1708436516.5155559,-2.1524479389190674,-1.33754217744384,-2.529130999241964,6.139413225441732,1.0220777988433838,-2.653567616139547
1708436516.517563,-2.1524078845977783,-1.3375326257995148,-2.5290966669665735,6.139438378601827,1.0220099687576294,-2.653597418461935
1708436516.5195186,-2.1523752212524414,-1.337529258137085,-2.529147450123922,6.139334666519918,1.0220308303833008,-2.6536331812488
1708436516.52152,-2.1524157524108887,-1.3375411492637177,-2.5291340986834925,6.139401304512777,1.0220427513122559,-2.6535795370685022
1708436516.5235162,-2.152428150177002,-1.3375497323325654,-2.529147450123922,6.139338958054342,1.0220427513122559,-2.653628651295797
1708436516.5255253,-2.1524157524108887,-1.3375735592893143,-2.5291298071490687,6.139338958054342,1.022064208984375,-2.653630081807272
1708436516.5275133,-2.1523873805999756,-1.3375087541392823,-2.5291011969195765,6.139343368798055,1.0220352411270142,-2.653625551854269
1708436516.5294974,-2.1523919105529785,-1.337536798124649,-2.5291131178485315,6.139400112419882,1.0220264196395874,-2.653628651295797
1708436516.531525,-2.1524157524108887,-1.3376145374825974,-2.5291460196124476,6.139313924103536,1.0220551490783691,-2.653616730366842
1708436516.53355,-2.152412176132202,-1.3375249666026612,-2.5291627089129847,6.1393881914909265,1.02207612991333,-2.653645102177755
1708436516.5355136,-2.1524033546447754,-1.33754117906604,-2.5291298071490687,6.139367449074545,1.0220879316329956,-2.6536241213427942
1708436516.537527,-2.1524078845977783,-1.3375292432359238,-2.5291057268725794,6.139375078469076,1.0220835208892822,-2.653645102177755
1708436516.5395172,-2.152411460876465,-1.3375002157739182,-2.5291386286364954,6.139379489212789,1.0220714807510376,-2.6536150614367884
1708436516.5415056,-2.1523830890655518,-1.3374968630126496,-2.5291879812823694,6.139350759774008,1.0220626592636108,-2.653660837803976
1708436516.5435207,-2.1524033546447754,-1.3375854653171082,-2.5291593710528772,6.139346587448873,1.0220580101013184,-2.653647486363546
1708436516.545545,-2.1524200439453125,-1.3375778210214158,-2.5291085878955286,6.1393552897270105,1.0221046209335327,-2.6536524931537073
1708436516.5475593,-2.1523873805999756,-1.337529258137085,-2.5291760603534144,6.139458048134603,1.0220956802368164,-2.6536524931537073
1708436516.5495582,-2.1523990631103516,-1.3375325959971924,-2.5291460196124476,6.1393793700035,1.0220867395401,-2.6537027994738978
1708436516.5515177,-2.1523795127868652,-1.3375121367028733,-2.5291417280780237,6.139376389771261,1.0220822095870972,-2.653693739567892
1708436516.5535557,-2.1524033546447754,-1.3375249815038224,-2.5291550795184534,6.139456736832418,1.022119402885437,-2.6537144819842737
1708436516.5555189,-2.152400493621826,-1.337561995988228,-2.5291550795184534,6.139433014183798,1.0221030712127686,-2.653689209614889
1708436516.5575573,-2.1523990631103516,-1.337545470600464,-2.5291460196124476,6.139428603440084,1.0220986604690552,-2.653696600590841
1708436516.559523,-2.1523873805999756,-1.3375454407981415,-2.5291715304004114,6.139412033348837,1.0221737623214722,-2.653721872960226
1708436516.5615194,-2.1524033546447754,-1.3374803376248856,-2.5291593710528772,6.139428484230795,1.0221149921417236,-2.653738323842184
1708436516.5635593,-2.1524412631988525,-1.3375249815038224,-2.5291417280780237,6.139437305718221,1.0221149921417236,-2.653717581425802
1708436516.5655386,-2.1523752212524414,-1.3375044775060196,-2.5291760603534144,6.139469969063558,1.0221483707427979,-2.653741423283712
1708436516.5675569,-2.1523830890655518,-1.3375088584474106,-2.5291627089129847,6.139486181526937,1.0221121311187744,-2.653717581425802
1708436516.5695384,-2.1524245738983154,-1.3375130605748673,-2.5291131178485315,6.139378177910604,1.0221149921417236,-2.653729502354757
1708436516.5715253,-2.1524455547332764,-1.3375164878419419,-2.529149357472555,6.139424192696371,1.0221812725067139,-2.653692070637838
1708436516.5735478,-2.1523962020874023,-1.3375941079906006,-2.5291956106769007,6.139312612801351,1.0221483707427979,-2.653705660496847
1708436516.5755188,-2.1523830890655518,-1.3375692081502457,-2.529144827519552,6.139436113625326,1.02212393283844,-2.6537159124957483
1708436516.5775309,-2.1523919105529785,-1.3375533533147355,-2.529149357472555,6.139423000603475,1.0221529006958008,-2.6537368933307093
1708436516.5795107,-2.1523830890655518,-1.3375619810870667,-2.5291581789599817,6.139439213066854,1.0220731496810913,-2.6536994616137903
1708436516.5815172,-2.1523990631103516,-1.3374967885068436,-2.5291791597949427,6.1393988011176965,1.0221556425094604,-2.653745714818136
1708436516.5835266,-2.1524200439453125,-1.3375411939672013,-2.529165569935934,6.139484035759725,1.0220731496810913,-2.6537492910968226
1708436516.5855095,-2.1523990631103516,-1.3375533384135743,-2.5291910807238978,6.139492857247152,1.0221483707427979,-2.6537984053241175
1708436516.5875254,-2.152411460876465,-1.337524102335312,-2.529144827519552,6.13947211483077,1.0221303701400757,-2.653741423283712
1708436516.5895922,-2.1524200439453125,-1.3375540238669892,-2.5291627089129847,6.139478313713827,1.0221720933914185,-2.653740469609396
1708436516.5915666,-2.1524245738983154,-1.337529258137085,-2.529170099888937,6.139474141388693,1.0221811532974243,-2.6537368933307093
1708436516.5935378,-2.152428150177002,-1.3375326257995148,-2.529215161000387,6.139503466873922,1.0221483707427979,-2.6537447611438196
1708436516.5955157,-2.1524078845977783,-1.3375087988427659,-2.529240433369772,6.139527547150411,1.0221303701400757,-2.6537159124957483
1708436516.5975022,-2.152374744415283,-1.337525026207306,-2.529144827519552,6.139474022179403,1.0221675634384155,-2.653780523930685
1708436516.5995278,-2.1523873805999756,-1.3375206303647538,-2.5291834513293665,6.139564382820883,1.0221422910690308,-2.6537657419787806
1708436516.6015055,-2.1523990631103516,-1.3375820529511948,-2.529235903416769,6.1395513890083215,1.02215576171875,-2.6537984053241175
1708436516.603501,-2.1524288654327393,-1.3375368279269715,-2.529186550770895,6.1395513890083215,1.0221750736236572,-2.653752390538351
1708436516.605525,-2.1523830890655518,-1.3374969226172944,-2.5292075316058558,6.1395513890083215,1.0221556425094604,-2.6537612120257776
1708436516.6075473,-2.1524200439453125,-1.3375249815038224,-2.529140297566549,6.139542567520895,1.0221917629241943,-2.653801504765646
1708436516.6095183,-2.1524245738983154,-1.3375650209239502,-2.529182020817892,6.139484870224752,1.0221422910690308,-2.653796974812643
1708436516.6115339,-2.1524033546447754,-1.3375454407981415,-2.529186550770895,6.139502632408895,1.0221587419509888,-2.6537776629077356
1708436516.6135232,-2.1523752212524414,-1.3375368279269715,-2.529186550770895,6.139560091286459,1.0221976041793823,-2.653785053883688
1708436516.6155324,-2.1523873805999756,-1.3375778210214158,-2.5292285124408167,6.139575469284811,1.0221660137176514,-2.653801504765646
1708436516.6175153,-2.1523919105529785,-1.3375002604774018,-2.529182020817892,6.139510023384847,1.022188425064087,-2.65379244485964
1708436516.6195076,-2.1523752212524414,-1.3374926012805481,-2.529156748448507,6.139529335289755,1.022188425064087,-2.653813425694601
1708436516.6215537,-2.1524288654327393,-1.3375249666026612,-2.529193941746847,6.139559137612142,1.022134780883789,-2.653776232396261
1708436516.6235592,-2.152412176132202,-1.3375206899693985,-2.529252592717306,6.139559137612142,1.0221840143203735,-2.65376860300173
1708436516.6255198,-2.152412176132202,-1.337516428237297,-2.529215161000387,6.139510023384847,1.0220969915390015,-2.6537552515613
1708436516.6275198,-2.1523919105529785,-1.3375533086112519,-2.529227081929342,6.139584171562948,1.0221750736236572,-2.6538386980639856
1708436516.6295094,-2.1523919105529785,-1.3376015734723588,-2.529203001652853,6.139496791153707,1.0221811532974243,-2.653800074254171
1708436516.6315281,-2.1524078845977783,-1.3375283789685746,-2.529248062764303,6.139587509423055,1.0221631526947021,-2.653808895741598
1708436516.6335046,-2.1523795127868652,-1.3375454109958191,-2.529222551976339,6.139567959099569,1.0221422910690308,-2.653785053883688
1708436516.6355176,-2.1524033546447754,-1.3375940185836335,-2.529231373463766,6.1395842907722376,1.0221259593963623,-2.653808895741598
1708436516.6375234,-2.152428150177002,-1.3375249815038224,-2.5292180220233362,6.139550435334005,1.02214515209198,-2.653771702443258
1708436516.6395018,-2.1524200439453125,-1.3375533533147355,-2.529215161000387,6.139550435334005,1.022188425064087,-2.65381628671755
1708436516.6415758,-2.1523962020874023,-1.3375087988427659,-2.52919847169985,6.139563548355856,1.0221917629241943,-2.653788153325216
1708436516.6435246,-2.152432441711426,-1.3375044179013749,-2.529182020817892,6.1395829794700525,1.0221213102340698,-2.653804365788595
1708436516.6455026,-2.1523795127868652,-1.337566227918007,-2.5292301813708704,6.139555799752035,1.0221962928771973,-2.6537674109088343
1708436516.6475456,-2.152433156967163,-1.337610275750496,-2.529235903416769,6.139518725662985,1.0221303701400757,-2.653832737599508
1708436516.6495204,-2.152412176132202,-1.3375497323325654,-2.5292018095599573,6.139546978264608,1.0221750736236572,-2.653825346623556
1708436516.6515512,-2.152400493621826,-1.3375650209239502,-2.529227081929342,6.1395513890083215,1.0220879316329956,-2.653820816670553
1708436516.6535165,-2.1523537635803223,-1.3375249815038224,-2.5292180220233362,6.139567959099569,1.0221705436706543,-2.653832737599508
1708436516.655529,-2.1523919105529785,-1.3375649911216279,-2.529210631047384,6.139575469284811,1.0221587419509888,-2.653739039097921
1708436516.6575387,-2.1523919105529785,-1.3375336092761536,-2.529222551976339,6.1395548460777185,1.0221750736236572,-2.653767172490255
1708436516.6595333,-2.1523873805999756,-1.3375249815038224,-2.52918512025942,6.139575469284811,1.0221540927886963,-2.653783623372213
1708436516.6614974,-2.1524200439453125,-1.337529258137085,-2.529231373463766,6.139620411186971,1.0221705436706543,-2.6538341681109827
1708436516.6635451,-2.1523962020874023,-1.3375454556993027,-2.5291910807238978,6.139505612641134,1.0221468210220337,-2.653796974812643
1708436516.665524,-2.1524078845977783,-1.3375533086112519,-2.529235903416769,6.139608371048727,1.0221660137176514,-2.65381628671755
1708436516.6675239,-2.1524200439453125,-1.3375326257995148,-2.529152218495504,6.139574277191915,1.0221540927886963,-2.653788153325216
1708436516.6695278,-2.1523663997650146,-1.3375130903771897,-2.5292435328113,6.139575469284811,1.0221631526947021,-2.653832737599508
1708436516.6715164,-2.1523540019989014,-1.3375206154635926,-2.5292137304889124,6.139576661377706,1.022188425064087,-2.65381628671755
1708436516.6735182,-2.1523356437683105,-1.3375335198691864,-2.529215161000387,6.139571177750387,1.0221540927886963,-2.653808895741598
1708436516.6755092,-2.1523919105529785,-1.3375454407981415,-2.529189650212423,6.13959168174819,1.0221540927886963,-2.653820816670553
1708436516.6775231,-2.152400493621826,-1.337541164164879,-2.52919847169985,6.139579760819235,1.0221750736236572,-2.65381628671755
1708436516.6795642,-2.1523585319519043,-1.3375292283347626,-2.529227081929342,6.139604079514303,1.0221750736236572,-2.653832737599508
1708436516.6815183,-2.1523830890655518,-1.3376224499991913,-2.5292018095599573,6.139579760819235,1.0221675634384155,-2.653841559086935
1708436516.6835232,-2.1523830890655518,-1.337565006022789,-2.529264275227682,6.139575469284811,1.0221750736236572,-2.653825346623556
1708436516.6855135,-2.1523585319519043,-1.3375206154635926,-2.529222551976339,6.139559137612142,1.0221750736236572,-2.653832737599508
1708436516.6875052,-2.1523470878601074,-1.3375079494765778,-2.529227081929342,6.139617192536154,1.0221587419509888,-2.653841559086935
1708436516.6895645,-2.1523585319519043,-1.337532640700676,-2.529210631047384,6.139566647797384,1.0221827030181885,-2.653800074254171
1708436516.6915765,-2.1524033546447754,-1.3375334602645417,-2.529215161000387,6.1395548460777185,1.0221587419509888,-2.653788153325216
1708436516.6935415,-2.152416467666626,-1.3375491809896012,-2.529182259236471,6.139501201897421,1.0221631526947021,-2.653820816670553
1708436516.695529,-2.15242075920105,-1.33754117906604,-2.529227081929342,6.1396158812339685,1.0221917629241943,-2.653776232396261
1708436516.6975238,-2.152383804321289,-1.3375692081502457,-2.5292392412768763,6.1396158812339685,1.0222039222717285,-2.653841559086935
1708436516.6995234,-2.152432441711426,-1.337541164164879,-2.529203001652853,6.139518844872274,1.0221377611160278,-2.653778855000631
1708436516.70154,-2.1524078845977783,-1.337573529486992,-2.5292511622058313,6.139533865242758,1.0221587419509888,-2.65381628671755
1708436516.7035277,-2.1523663997650146,-1.337569223051407,-2.52919847169985,6.139595138817587,1.0221720933914185,-2.65381628671755
1708436516.7055123,-2.1523585319519043,-1.3375368577292939,-2.5292018095599573,6.139563548355856,1.0221705436706543,-2.65382963815798
1708436516.7074986,-2.152362823486328,-1.3375496876290818,-2.5292466322528284,6.139603960305013,1.0221962928771973,-2.6538541952716272
1708436516.7095027,-2.1523663997650146,-1.3375735890916367,-2.529222551976339,6.139571058541097,1.0221750736236572,-2.653796974812643
1708436516.7114952,-2.15240478515625,-1.3375735741904755,-2.5292018095599573,6.139567959099569,1.0221720933914185,-2.653785053883688
1708436516.7135122,-2.1523706912994385,-1.337541164164879,-2.529259983693258,6.139533746033468,1.0222249031066895,-2.6537552515613
1708436516.7155297,-2.152416467666626,-1.3375533682158967,-2.52919847169985,6.139563548355856,1.0222039222717285,-2.6538541952716272
1708436516.7175155,-2.1524157524108887,-1.33754117906604,-2.52919847169985,6.139617192536154,1.0221675634384155,-2.65381628671755
1708436516.7195024,-2.152412176132202,-1.3375692081502457,-2.52925688425173,6.139542567520895,1.0221705436706543,-2.6538496653186243
1708436516.7214992,-2.1524033546447754,-1.3375454407981415,-2.529248062764303,6.1396453259284876,1.0221705436706543,-2.6538177172290247
1708436516.7235215,-2.152400493621826,-1.3375205856612702,-2.529222551976339,6.139542567520895,1.0221962928771973,-2.6537509600268763
1708436516.7255025,-2.152367115020752,-1.337516502743103,-2.529271904622213,6.139571177750387,1.0221948623657227,-2.653804365788595
1708436516.7275052,-2.1523795127868652,-1.3375173223069687,-2.5292435328113,6.13961278179244,1.0221467018127441,-2.653796974812643
1708436516.7294972,-2.152409076690674,-1.337529258137085,-2.5292392412768763,6.139571058541097,1.0221872329711914,-2.653820816670553
1708436516.7315056,-2.1523313522338867,-1.337532640700676,-2.529226843510763,6.1396334049995325,1.0221705436706543,-2.653837029133932
1708436516.7335045,-2.152383804321289,-1.3375491511872788,-2.529227081929342,6.139563548355856,1.022188425064087,-2.653841559086935
1708436516.7354932,-2.152371406555176,-1.3375454407981415,-2.529206101094381,6.139563548355856,1.0222129821777344,-2.653783623372213
1708436516.7375278,-2.1523513793945312,-1.337528334265091,-2.5292018095599573,6.139563548355856,1.0221794843673706,-2.6538496653186243
1708436516.7395027,-2.152362823486328,-1.3375087839416047,-2.529182259236471,6.139533865242758,1.0221827030181885,-2.653808895741598
1708436516.7415187,-2.1523427963256836,-1.337488279943802,-2.529235903416769,6.139578568726339,1.0221705436706543,-2.653804365788595
1708436516.7435043,-2.152416467666626,-1.3375661832145234,-2.529189650212423,6.139595258026876,1.0221468210220337,-2.653808895741598
1708436516.7454941,-2.1523919105529785,-1.3375327003053208,-2.529222551976339,6.1395513890083215,1.022151231765747,-2.653808895741598
1708436516.7475119,-2.1523706912994385,-1.337513045673706,-2.5292435328113,6.139535057335653,1.0222338438034058,-2.653874937688009
1708436516.7494948,-2.152362823486328,-1.3375122410110016,-2.5292435328113,6.139563548355856,1.0221648216247559,-2.653800074254171
1708436516.7514985,-2.152367115020752,-1.3375650358251114,-2.529222551976339,6.13959168174819,1.022116780281067,-2.653764311467306
1708436516.7535374,-2.152400493621826,-1.337566227918007,-2.5292673746692103,6.139646518021383,1.0221258401870728,-2.6538506189929407
1708436516.7555363,-2.152355670928955,-1.3375940185836335,-2.529227081929342,6.139505612641134,1.0221962928771973,-2.653837267552511
1708436516.7575355,-2.152383804321289,-1.337529258137085,-2.529210631047384,6.139555680542745,1.0222008228302002,-2.653820816670553
1708436516.7595596,-2.152362823486328,-1.3375130754760285,-2.529182020817892,6.139588582306661,1.02215576171875,-2.653813425694601
1708436516.7615242,-2.152367115020752,-1.3375292730382462,-2.5292347113238733,6.139596092491903,1.0221794843673706,-2.653759781514303
1708436516.7635236,-2.1523513793945312,-1.3375691932490845,-2.529252592717306,6.139546978264608,1.0222007036209106,-2.653776232396261
1708436516.765525,-2.152362823486328,-1.3375044775060196,-2.529219452534811,6.139571058541097,1.0221917629241943,-2.653771702443258
1708436516.767549,-2.152383804321289,-1.3375619363835831,-2.529186550770895,6.1395513890083215,1.0221467018127441,-2.653811756764547
1708436516.7695334,-2.152383804321289,-1.3375206750682374,-2.5291972796069544,6.139502393990316,1.0221468210220337,-2.653804365788595
1708436516.7715106,-2.152383804321289,-1.3375454407981415,-2.529210631047384,6.139576661377706,1.0221720933914185,-2.6537790934192103
1708436516.7735295,-2.152383804321289,-1.3375619363835831,-2.529235903416769,6.1395513890083215,1.0221303701400757,-2.653846089039938
1708436516.7755153,-2.1523497104644775,-1.3375130754760285,-2.529248062764303,6.139555680542745,1.0221631526947021,-2.653776232396261
1708436516.7775204,-2.1523642539978027,-1.3375853163054963,-2.529206101094381,6.139617192536154,1.022151231765747,-2.653837267552511
1708436516.7795167,-2.152362823486328,-1.3375778657248993,-2.5292435328113,6.1395513890083215,1.0221631526947021,-2.6537895838366907
1708436516.7815437,-2.15230655670166,-1.337570459847786,-2.529215161000387,6.1395513890083215,1.0221468210220337,-2.653813425694601
1708436516.7835312,-2.1523799896240234,-1.337529258137085,-2.529240433369772,6.139542567520895,1.0221540927886963,-2.6538057963000696
1708436516.7855275,-2.1523966789245605,-1.3374881756356736,-2.5292075316058558,6.139546978264608,1.0221840143203735,-2.653780523930685
1708436516.7875197,-2.152371406555176,-1.3375533533147355,-2.529210631047384,6.1395842907722376,1.0221796035766602,-2.653776232396261
1708436516.7895415,-2.15230655670166,-1.3375974160483857,-2.52919847169985,6.139546978264608,1.0221468210220337,-2.653813425694601
1708436516.791584,-2.152348518371582,-1.3375576746514817,-2.529182020817892,6.139560210495748,1.0221542119979858,-2.653780523930685
1708436516.7935684,-2.1523799896240234,-1.3374883097461243,-2.529268805180685,6.139555799752035,1.0221259593963623,-2.653825346623556
1708436516.7955172,-2.1523189544677734,-1.3375250560096283,-2.529210631047384,6.13960491397933,1.0221349000930786,-2.65382963815798
1708436516.7975233,-2.152371406555176,-1.3375496876290818,-2.529193941746847,6.1395513890083215,1.0221586227416992,-2.653764311467306
1708436516.7995536,-2.152371406555176,-1.3374925565770646,-2.529215161000387,6.1395513890083215,1.0221631526947021,-2.653813425694601
1708436516.8015425,-2.15230655670166,-1.3375853610089798,-2.529222551976339,6.139552581101217,1.0221556425094604,-2.6538386980639856
1708436516.8035185,-2.1523361206054688,-1.3375577193549653,-2.529210631047384,6.1395548460777185,1.022167682647705,-2.653788153325216
1708436516.8055117,-2.1523356437683105,-1.3375491511872788,-2.529189650212423,6.1395394680793665,1.0221811532974243,-2.653764311467306
1708436516.8075264,-2.1523313522338867,-1.3375206601670762,-2.529193941746847,6.139527547150411,1.0221556425094604,-2.653747860585348
1708436516.8095207,-2.152310848236084,-1.3375368279269715,-2.529177729283468,6.139567959099569,1.022167682647705,-2.653764311467306
1708436516.811518,-2.1523756980895996,-1.337541164164879,-2.529219452534811,6.1395394680793665,1.0221303701400757,-2.6537566820727747
1708436516.8135285,-2.1523189544677734,-1.337516413336136,-2.529219452534811,6.139535176544943,1.0220969915390015,-2.6538222471820276
1708436516.8155184,-2.1523361206054688,-1.337529258137085,-2.529182020817892,6.139523136406698,1.0221014022827148,-2.65379244485964
1708436516.8175156,-2.152310848236084,-1.3375088286450882,-2.529206101094381,6.139548170357504,1.0221014022827148,-2.653759781514303
1708436516.8195128,-2.152359962463379,-1.3375130754760285,-2.529173199330465,6.139560091286459,1.0221303701400757,-2.653735939656393
1708436516.8215158,-2.1523189544677734,-1.3375533384135743,-2.5291910807238978,6.139518844872274,1.0221483707427979,-2.6537731329547327
1708436516.8235154,-2.152344226837158,-1.3375619661859055,-2.529231373463766,6.139490234642782,1.022139310836792,-2.6538103262530726
1708436516.8255153,-2.1523642539978027,-1.3375820976546784,-2.529231373463766,6.139503466873922,1.0220969915390015,-2.6538057963000696
1708436516.8275068,-2.152327537536621,-1.3376058799079438,-2.529177729283468,6.139564382820883,1.0220985412597656,-2.6537867228137415
1708436516.8295,-2.152352809906006,-1.3375619363835831,-2.529186550770895,6.139462101250448,1.0221059322357178,-2.6537776629077356
1708436516.831521,-2.1523356437683105,-1.3375576746514817,-2.529189650212423,6.139555799752035,1.0221675634384155,-2.6537323633777063
1708436516.833526,-2.152348518371582,-1.337504507308342,-2.529227081929342,6.139518844872274,1.0221058130264282,-2.6537566820727747
1708436516.8355134,-2.1523194313049316,-1.3374917966178437,-2.529170099888937,6.1395078776176355,1.0221720933914185,-2.6538031736956995
1708436516.8375216,-2.1523189544677734,-1.3374960881522675,-2.5292063395129603,6.139506923943319,1.0220805406570435,-2.6538193861590784
1708436516.839538,-2.152310848236084,-1.3375249815038224,-2.529203001652853,6.139475214272299,1.022139310836792,-2.6537748018847864
1708436516.841515,-2.1523773670196533,-1.3375206303647538,-2.529203001652853,6.139469730644979,1.0221483707427979,-2.6536787191974085
1708436516.843516,-2.152294874191284,-1.3375619363835831,-2.5291910807238978,6.139531957894125,1.0221484899520874,-2.653701130543844
1708436516.8455284,-2.1523642539978027,-1.33751733720813,-2.529173199330465,6.139549481659689,1.0221856832504272,-2.653696600590841
1708436516.847529,-2.152331829071045,-1.3375283789685746,-2.529165569935934,6.139487135201254,1.0220866203308105,-2.653713051472799
1708436516.8495138,-2.1523642539978027,-1.3375130754760285,-2.529203001652853,6.13949595668868,1.0220822095870972,-2.653708521519796
1708436516.8515005,-2.1523361206054688,-1.337513045673706,-2.529240433369772,6.139524447708883,1.0221484899520874,-2.653708521519796
1708436516.8535144,-2.1523642539978027,-1.337565006022789,-2.5291953722583216,6.139474022179403,1.022119402885437,-2.653705660496847
1708436516.8555117,-2.1523685455322266,-1.33754117906604,-2.52919847169985,6.1395078776176355,1.02212393283844,-2.6537309328662317
1708436516.857522,-2.1523194313049316,-1.3375249666026612,-2.529227081929342,6.139479625016012,1.022119402885437,-2.653668467198507
1708436516.8595185,-2.152331829071045,-1.337529258137085,-2.5292063395129603,6.139503466873922,1.022095799446106,-2.653672758732931
1708436516.8615298,-2.152331829071045,-1.3375088584474106,-2.529170099888937,6.13943492153243,1.0220866203308105,-2.653681818638937
1708436516.8635535,-2.1523685455322266,-1.3375249964049836,-2.529170099888937,6.139455544739523,1.0221574306488037,-2.6537402311908167
1708436516.8655236,-2.1523189544677734,-1.3375164580396195,-2.529210631047384,6.139480936318197,1.0221030712127686,-2.653668467198507
1708436516.8675117,-2.152310848236084,-1.3374846589616318,-2.529186550770895,6.13941107967452,1.0220866203308105,-2.653684679661886
1708436516.869521,-2.152310848236084,-1.3375002604774018,-2.529165808354513,6.139394390373983,1.0221002101898193,-2.653709952031271
1708436516.8715184,-2.152331829071045,-1.3375292283347626,-2.5291789213763636,6.139428603440084,1.0220956802368164,-2.653677288685934
1708436516.8735428,-2.1522867679595947,-1.33751733720813,-2.529182020817892,6.139425146370687,1.02203369140625,-2.653656307850973
1708436516.8755434,-2.152348518371582,-1.3375853908113022,-2.529177729283468,6.139388072281637,1.0220956802368164,-2.653665367756979
1708436516.8775086,-2.15230655670166,-1.337529258137085,-2.529152218495504,6.1393552897270105,1.0220462083816528,-2.653677288685934
1708436516.8795102,-2.15230655670166,-1.3374925565770646,-2.529240433369772,6.139395701676168,1.022092580795288,-2.6536405722247522
1708436516.881507,-2.1523325443267822,-1.3375002604774018,-2.529231373463766,6.139404403954305,1.0220472812652588,-2.6536267439471644
1708436516.8835397,-2.152327537536621,-1.3375853908113022,-2.529215161000387,6.139399993210592,1.0220807790756226,-2.6537144819842737
1708436516.8855314,-2.152357339859009,-1.3375939589789887,-2.52919847169985,6.139371859818258,1.0220381021499634,-2.6537073294269007
1708436516.887509,-2.1522867679595947,-1.3375939589789887,-2.529156748448507,6.139367568283834,1.0219889879226685,-2.653661076222555
1708436516.889519,-2.152294874191284,-1.3375411939672013,-2.52919847169985,6.139393794327535,1.0220099687576294,-2.653665367756979
1708436516.891572,-2.152352809906006,-1.3375206601670762,-2.5291953722583216,6.139343368798055,1.0220308303833008,-2.6536241213427942
1708436516.8935287,-2.1523513793945312,-1.337513045673706,-2.5291405359851282,6.13939260223464,1.0220471620559692,-2.6536405722247522
1708436516.8955283,-2.1523361206054688,-1.3375250113061448,-2.5291910807238978,6.139364111214437,1.0220352411270142,-2.6536477247821253
1708436516.8975308,-2.1523642539978027,-1.3375206601670762,-2.5291910807238978,6.139310467034139,1.022039771080017,-2.6536570231067103
1708436516.8995268,-2.152344226837158,-1.3375130754760285,-2.529156748448507,6.139364111214437,1.0220143795013428,-2.6536079088794153
1708436516.9015493,-2.152310848236084,-1.3375249964049836,-2.529219452534811,6.13933156707839,1.0220099687576294,-2.653628651295797
1708436516.9035118,-2.152367115020752,-1.337529258137085,-2.529177729283468,6.139404523163595,1.0220099687576294,-2.653616730366842
1708436516.905511,-2.15230655670166,-1.3375533384135743,-2.5291746298419397,6.1393314478691,1.0220263004302979,-2.653642002736227
1708436516.9075356,-2.152299165725708,-1.3375292432359238,-2.529149357472555,6.139380681305685,1.0220069885253906,-2.6535795370685022
1708436516.9095192,-2.152331829071045,-1.337529258137085,-2.5292075316058558,6.1393881914909265,1.0219948291778564,-2.65360933939089
1708436516.911523,-2.152348518371582,-1.3375368279269715,-2.5291910807238978,6.1393314478691,1.0220144987106323,-2.6536198298083704
1708436516.9135218,-2.1523356437683105,-1.3375368428281327,-2.5291581789599817,6.139343368798055,1.0220324993133545,-2.653637472783224
1708436516.915512,-2.152359962463379,-1.3375539493611832,-2.5291581789599817,6.139360892563619,1.0220234394073486,-2.6536136309253138
1708436516.9175377,-2.1523842811584473,-1.3375164878419419,-2.5291627089129847,6.139376389771261,1.0219948291778564,-2.653567616139547
1708436516.9194984,-2.152348518371582,-1.3375088286450882,-2.5291627089129847,6.139352190285482,1.0220189094543457,-2.653592888508932
1708436516.9215355,-2.1523399353027344,-1.33754117906604,-2.5291953722583216,6.1393314478691,1.02204430103302,-2.653580967579977
1708436516.923513,-2.1523122787475586,-1.3375088286450882,-2.529153887425558,6.139356601029196,1.0219948291778564,-2.65360933939089
1708436516.9255354,-2.152352809906006,-1.337545470600464,-2.5291910807238978,6.139340269356527,1.0219813585281372,-2.653538529072897
1708436516.9275575,-2.152310848236084,-1.3375335198691864,-2.529153887425558,6.139335858612814,1.0219858884811401,-2.6535430590258997
1708436516.929567,-2.152348518371582,-1.3375704896501084,-2.5291910807238978,6.139396893769064,1.0219948291778564,-2.6535735766040247
1708436516.9315495,-2.152310848236084,-1.337529258137085,-2.5291746298419397,6.139316189080038,1.0219902992248535,-2.653588358555929
1708436516.9335256,-2.1523406505584717,-1.3375421476415177,-2.529203001652853,6.139372932701864,1.0220160484313965,-2.6536107699023646
1708436516.9355102,-2.1522905826568604,-1.3375215989402314,-2.5291910807238978,6.1393446801002405,1.0219992399215698,-2.653597418461935
1708436516.9375365,-2.152331829071045,-1.3375164580396195,-2.529186550770895,6.139311659127035,1.0219603776931763,-2.6535311380969446
1708436516.939501,-2.152348518371582,-1.3375496876290818,-2.529193941746847,6.139332401543417,1.0220160484313965,-2.6535611788379114
1708436516.9415047,-2.152315139770508,-1.3375249964049836,-2.5292118231402796,6.139283525734701,1.0219829082489014,-2.6535192171679896
1708436516.9435112,-2.1522905826568604,-1.3375044477036973,-2.5291581789599817,6.139298546105184,1.0219993591308594,-2.6535566488849085
1708436516.945498,-2.152352809906006,-1.3375497174314042,-2.529186550770895,6.139348971634664,1.0219948291778564,-2.65355354944338
1708436516.9475098,-2.1522700786590576,-1.3375778210214158,-2.5291746298419397,6.1393117783363245,1.0219948291778564,-2.6535566488849085
1708436516.9495041,-2.152303457260132,-1.3375454407981415,-2.5291298071490687,6.1393236992652795,1.0219768285751343,-2.65358549753298
1708436516.9514973,-2.1523239612579346,-1.3374883097461243,-2.5291999022113245,6.1393446801002405,1.0219948291778564,-2.653570000325338
1708436516.953523,-2.1523239612579346,-1.3374883097461243,-2.5291910807238978,6.139298665314474,1.0219948291778564,-2.6535447279559534
1708436516.955522,-2.1523361206054688,-1.3374926459840317,-2.529120747243063,6.139316189080038,1.0219902992248535,-2.6535826365100306
1708436516.9575367,-2.1523325443267822,-1.3375087988427659,-2.5291340986834925,6.139310586243429,1.0219993591308594,-2.6535492579089563
1708436516.9594965,-2.152315139770508,-1.3375003200820466,-2.5291834513293665,6.139340388565817,1.0219738483428955,-2.6535075346576136
1708436516.96151,-2.1522912979125977,-1.3375164580396195,-2.529137198125021,6.1393271563346765,1.0220205783843994,-2.6535208860980433
1708436516.9635088,-2.152348518371582,-1.3375619661859055,-2.5291417280780237,6.1393236992652795,1.0220069885253906,-2.6535328070269983
1708436516.9655075,-2.1522867679595947,-1.337529258137085,-2.5291910807238978,6.139357793122091,1.0219948291778564,-2.6535282770739954
1708436516.9675093,-2.1523079872131348,-1.3375044477036973,-2.5291834513293665,6.139372932701864,1.0220115184783936,-2.653525416051046
1708436516.9695137,-2.1523239612579346,-1.3375454407981415,-2.5291715304004114,6.1393117783363245,1.0219992399215698,-2.6535163561450403
1708436516.9715288,-2.1523282527923584,-1.3375335198691864,-2.5291505495654505,6.139307367592611,1.0219857692718506,-2.6535208860980433
1708436516.973521,-2.1522789001464844,-1.33754117906604,-2.5291879812823694,6.139319288521566,1.0219738483428955,-2.653562609349386
1708436516.9755065,-2.1522700786590576,-1.3375044477036973,-2.5291834513293665,6.13933681228713,1.0219285488128662,-2.653570000325338
1708436516.9775023,-2.152315139770508,-1.3375087541392823,-2.5292001406299036,6.139295446663656,1.0219616889953613,-2.653574530278341
1708436516.9795108,-2.1523325443267822,-1.337514044051506,-2.5291298071490687,6.139332401543417,1.0219616889953613,-2.6535001436816614
1708436516.9815114,-2.1523406505584717,-1.3375619661859055,-2.5291672388659876,6.139320480614462,1.0219902992248535,-2.6534865538226526
1708436516.9835162,-2.152299165725708,-1.3375576746514817,-2.5291550795184534,6.139299857407369,1.0219616889953613,-2.6535163561450403
1708436516.9855056,-2.1523122787475586,-1.3375661981156846,-2.5291417280780237,6.139308559685507,1.0219662189483643,-2.653508965169088
1708436516.9875107,-2.1523282527923584,-1.3375377667001267,-2.5291805903064173,6.1393117783363245,1.0219783782958984,-2.6535044352160853
1708436516.989525,-2.1523406505584717,-1.337566227918007,-2.5291219393359583,6.139304268151083,1.0219829082489014,-2.6534717718707483
1708436516.9915862,-2.1523194313049316,-1.33751733720813,-2.5291340986834925,6.13933681228713,1.0219616889953613,-2.653541628514425
1708436516.99367,-2.152315139770508,-1.3375121814063569,-2.5291085878955286,6.139279234200277,1.0219707489013672,-2.653501574193136
1708436516.9955518,-2.152299165725708,-1.3375087988427659,-2.5291386286364954,6.139241921692648,1.0220038890838623,-2.653525416051046
1708436516.9975023,-2.15230655670166,-1.3375539791635056,-2.5291176478015345,6.139250623970785,1.0220082998275757,-2.653497044240133
1708436516.99951,-2.1522746086120605,-1.3375692081502457,-2.5291100184070032,6.139360892563619,1.021963357925415,-2.653485123311178
1708436517.0014977,-2.152250051498413,-1.3375249666026612,-2.529114548360006,6.139329302101888,1.0219662189483643,-2.653513495122091
1708436517.00353,-2.152357339859009,-1.337532640700676,-2.5291100184070032,6.139295565872946,1.0219993591308594,-2.653485123311178
1708436517.005521,-2.1522738933563232,-1.3375044477036973,-2.529114548360006,6.139345514565267,1.0219286680221558,-2.653485123311178
1708436517.007547,-2.1523361206054688,-1.3375206303647538,-2.5291805903064173,6.139234411507406,1.0219919681549072,-2.653485123311178
1708436517.0095286,-2.152303457260132,-1.3374926161817093,-2.52916390100588,6.139299857407369,1.021942138671875,-2.653447214757101
1708436517.0115376,-2.1523194313049316,-1.33754117906604,-2.529130999241964,6.139234411507406,1.021963357925415,-2.653510634099142
1708436517.013527,-2.152303457260132,-1.3375130754760285,-2.529111448918478,6.139288890152731,1.0219707489013672,-2.653447214757101
1708436517.0155373,-2.1523361206054688,-1.3375249964049836,-2.529123608266012,6.139333593636312,1.0219919681549072,-2.653480593358175
1708436517.0175402,-2.1523406505584717,-1.3375539791635056,-2.529107157384054,6.139304268151083,1.0219662189483643,-2.653440062199728
1708436517.0195603,-2.1522912979125977,-1.3375011545470734,-2.529078785573141,6.139247524529257,1.0219752788543701,-2.653435293828146
1708436517.0215418,-2.152310848236084,-1.3374600124410172,-2.529078785573141,6.139283525734701,1.0219330787658691,-2.653468195592062
1708436517.0235353,-2.152303457260132,-1.3375335347703476,-2.529078785573141,6.139287936478414,1.021958827972412,-2.653431002293722
1708436517.0255473,-2.152282476425171,-1.3375206303647538,-2.529111448918478,6.139308678894796,1.0219662189483643,-2.6534698645221155
1708436517.0275369,-2.1523449420928955,-1.3375249964049836,-2.529057566319601,6.139266955643453,1.021937608718872,-2.653501574193136
1708436517.029558,-2.1522789001464844,-1.3375704896501084,-2.529095236455099,6.139213788300314,1.0219138860702515,-2.6534274260150355
1708436517.0315223,-2.1522955894470215,-1.3375002604774018,-2.529074255620138,6.13927577713088,1.0219722986221313,-2.653510395680563
1708436517.0335367,-2.1523079872131348,-1.3375821125558396,-2.529078785573141,6.139214622765341,1.0219544172286987,-2.6534562746631067
1708436517.0355222,-2.152315139770508,-1.3375130754760285,-2.5290454069720667,6.139304268151083,1.021937608718872,-2.6534815470324915
1708436517.037675,-2.152310848236084,-1.3375907105258484,-2.529029194508688,6.139288055687704,1.0219002962112427,-2.6534608046161097
1708436517.039523,-2.152278184890747,-1.3374926161817093,-2.5290709177600306,6.139266955643453,1.0219510793685913,-2.6534727255450647
1708436517.041511,-2.152357339859009,-1.3375454407981415,-2.5290544668780726,6.1393130896385095,1.021979808807373,-2.6534562746631067
1708436517.0435307,-2.1522912979125977,-1.3375249964049836,-2.5291250387774866,6.139263856201925,1.021946668624878,-2.6534698645221155
1708436517.0455074,-2.1523239612579346,-1.337537796502449,-2.529087845479147,6.1392801878745935,1.021925687789917,-2.6534364859210413
1708436517.0475044,-2.1523406505584717,-1.3375130754760285,-2.5290468374835413,6.139308678894796,1.0219391584396362,-2.6534743944751185
1708436517.0494914,-2.1523122787475586,-1.3376059395125885,-2.5290425459491175,6.139345633774557,1.0219109058380127,-2.6534109751330774
1708436517.0515296,-2.152393102645874,-1.337566227918007,-2.5290380159961146,6.139268266945638,1.0219109058380127,-2.6534200350390833
1708436517.053511,-2.152265787124634,-1.3375539791635056,-2.5290876070605677,6.139240014344015,1.021897554397583,-2.6534155050860804
1708436517.0555358,-2.1523079872131348,-1.3375863593867798,-2.5290172735797327,6.139296877175131,1.0218775272369385,-2.6534319559680384
1708436517.0575156,-2.152331829071045,-1.3375454407981415,-2.5290380159961146,6.1391897080238245,1.0219184160232544,-2.653449837361471
1708436517.0595114,-2.152310848236084,-1.3375130754760285,-2.5290678183185022,6.139256226807394,1.0218985080718994,-2.6534245649920862
1708436517.061508,-2.152315139770508,-1.3375130754760285,-2.5290678183185022,6.139247643738546,1.0218746662139893,-2.6534534136401575
1708436517.0635421,-2.1522746086120605,-1.3375576895526429,-2.529039446507589,6.139198410301962,1.0219029188156128,-2.6534698645221155
1708436517.0655112,-2.152310848236084,-1.3374718439630051,-2.5290337244616907,6.139247643738546,1.0218538045883179,-2.6534038225757044
1708436517.0675192,-2.152299165725708,-1.3375206005624314,-2.5290053526507776,6.139238822251119,1.021911859512329,-2.653412644063131
1708436517.069523,-2.1523239612579346,-1.3375649762204667,-2.5290589968310755,6.139268266945638,1.021911859512329,-2.6533873716937464
1708436517.0715137,-2.1523122787475586,-1.3375088435462494,-2.5290098826037806,6.139317381172933,1.0218627452850342,-2.6534364859210413
1708436517.0735245,-2.152303457260132,-1.3375087988427659,-2.5290218035327356,6.139263856201925,1.0218791961669922,-2.653429094945089
1708436517.0755377,-2.1523165702819824,-1.3375088584474106,-2.5290260950671595,6.13927577713088,1.0218583345413208,-2.653417174016134
1708436517.0775332,-2.1522700786590576,-1.3375497174314042,-2.5290544668780726,6.139214622765341,1.0218791961669922,-2.65342623392214
1708436517.0795279,-2.1522998809814453,-1.3375454407981415,-2.5289979616748255,6.139309990196981,1.021829605102539,-2.653353993092672
1708436517.0815187,-2.1523361206054688,-1.3375820976546784,-2.5290632883654993,6.139247524529257,1.021867275238037,-2.653417174016134
1708436517.0835268,-2.1523406505584717,-1.3375583303025742,-2.5290425459491175,6.139271366387167,1.0218431949615479,-2.6534364859210413
1708436517.0855334,-2.1522912979125977,-1.3375464093736191,-2.5290752092944544,6.139259564667501,1.02187180519104,-2.653433386479513
1708436517.087514,-2.152315139770508,-1.3375302267125626,-2.5290797392474573,6.139222490578451,1.0218505859375,-2.653362814580099
1708436517.0895314,-2.152299165725708,-1.3375454407981415,-2.5290425459491175,6.13927577713088,1.021876335144043,-2.653405253087179
1708436517.0915997,-2.1522700786590576,-1.337529258137085,-2.5290544668780726,6.13927577713088,1.0218865871429443,-2.653396193181173
1708436517.0935886,-2.1523239612579346,-1.3375183057836075,-2.5290876070605677,6.139243232994833,1.021829605102539,-2.653449837361471
1708436517.0955403,-2.1522955894470215,-1.337529258137085,-2.5290544668780726,6.139272558480062,1.0218505859375,-2.653393332158224
1708436517.097532,-2.1523799896240234,-1.337529258137085,-2.5290425459491175,6.139231312065878,1.02187180519104,-2.6533754507647913
1708436517.0995293,-2.1522955894470215,-1.337566227918007,-2.5290337244616907,6.139296757965841,1.0218206644058228,-2.65342623392214
1708436517.1015391,-2.1523122787475586,-1.3375011545470734,-2.529029194508688,6.139296757965841,1.0218505859375,-2.653458897267477
1708436517.1035635,-2.1522789001464844,-1.3375011545470734,-2.529076639805929,6.139247524529257,1.0218790769577026,-2.653437916432516
1708436517.105518,-2.152315139770508,-1.3375011545470734,-2.5290306250201624,6.139234530716696,1.021829605102539,-2.65340239206423
1708436517.1075325,-2.152315139770508,-1.3375011545470734,-2.5291009585009974,6.139308678894796,1.0218583345413208,-2.653405253087179
1708436517.1095662,-2.1522867679595947,-1.3375540238669892,-2.5290306250201624,6.139210331230917,1.02187180519104,-2.653334442769186
1708436517.1115196,-2.1522789001464844,-1.3375249964049836,-2.5290921370135706,6.1392801878745935,1.021846055984497,-2.653409783040182
1708436517.113536,-2.152348518371582,-1.337537796502449,-2.5290544668780726,6.139288890152731,1.0218174457550049,-2.653421465550558
1708436517.115512,-2.152299165725708,-1.3375011545470734,-2.5290678183185022,6.13927577713088,1.0218415260314941,-2.653396193181173
1708436517.1175334,-2.152315139770508,-1.3375087690404435,-2.5290172735797327,6.139259564667501,1.0218627452850342,-2.653412644063131
1708436517.1195104,-2.1522867679595947,-1.337574840789177,-2.529078785573141,6.139205920487203,1.0218791961669922,-2.6534081141101282
1708436517.12152,-2.1523325443267822,-1.3374926161817093,-2.5290709177600306,6.139227854996481,1.0218371152877808,-2.653388802205221
1708436517.1235096,-2.152357339859009,-1.3375539195588608,-2.5290589968310755,6.139256346016683,1.0219165086746216,-2.653393332158224
1708436517.12553,-2.1522912979125977,-1.3375131052783509,-2.5290678183185022,6.13927577713088,1.021867275238037,-2.653417174016134
1708436517.1275365,-2.1523361206054688,-1.3375249964049836,-2.52901274362673,6.139272558480062,1.021829605102539,-2.653400723134176
1708436517.1295304,-2.152315139770508,-1.3375692081502457,-2.5290053526507776,6.139288890152731,1.0218505859375,-2.653409783040182
1708436517.1315198,-2.1522912979125977,-1.337529258137085,-2.5290501753436487,6.139222490578451,1.0218627452850342,-2.653412644063131
1708436517.1335483,-2.1523449420928955,-1.3375226271203537,-2.5290306250201624,6.139296757965841,1.0218791961669922,-2.6533799807177942
1708436517.1355147,-2.1523616313934326,-1.337529258137085,-2.5290351549731653,6.139292466431417,1.0218583345413208,-2.653393332158224
1708436517.1375728,-2.152352809906006,-1.3374968779138108,-2.5290544668780726,6.139288890152731,1.021920919418335,-2.653397862111227
1708436517.1395159,-2.1523239612579346,-1.3374968779138108,-2.5290797392474573,6.139268266945638,1.021911859512329,-2.653409783040182
1708436517.1415043,-2.1523079872131348,-1.337529258137085,-2.5290470759021204,6.139247524529257,1.0218415260314941,-2.653417174016134
1708436517.1435483,-2.1522912979125977,-1.3375626069358368,-2.529045645390646,6.139240014344015,1.0218627452850342,-2.6533599535571497
1708436517.1455078,-2.152336835861206,-1.3375259649804612,-2.5290218035327356,6.139272558480062,1.0218627452850342,-2.653400723134176
1708436517.1475143,-2.1522912979125977,-1.3375464093736191,-2.5290709177600306,6.1392401335533044,1.0218955278396606,-2.6534186045276087
1708436517.1495109,-2.152299165725708,-1.3375464093736191,-2.5290752092944544,6.139292347222128,1.0218790769577026,-2.653384272252218
1708436517.1515005,-2.152303457260132,-1.337513045673706,-2.5290544668780726,6.139272558480062,1.0218627452850342,-2.653417174016134
1708436517.153509,-2.1522700786590576,-1.3375216138413926,-2.5290351549731653,6.139338004380026,1.02187180519104,-2.653396193181173
1708436517.1555314,-2.152282476425171,-1.3375497174314042,-2.5290678183185022,6.139292466431417,1.0218881368637085,-2.653355423604147
1708436517.1575322,-2.1523079872131348,-1.3374932569316407,-2.5290425459491175,6.139272558480062,1.0218505859375,-2.653310839329855
1708436517.1595168,-2.1523194313049316,-1.3374968779138108,-2.5290337244616907,6.139305460243978,1.0218627452850342,-2.653417174016134
1708436517.1615367,-2.1523194313049316,-1.3375335198691864,-2.5290499369250696,6.139243232994833,1.0218251943588257,-2.6533764044391077
1708436517.163539,-2.1522912979125977,-1.337435321216919,-2.5290380159961146,6.139263856201925,1.0218505859375,-2.6533764044391077
1708436517.1655293,-2.1523616313934326,-1.337537796502449,-2.529045645390646,6.139227020531454,1.0218251943588257,-2.653393332158224
1708436517.1675239,-2.1523282527923584,-1.3375454407981415,-2.5290921370135706,6.139247524529257,1.021846055984497,-2.653409783040182
1708436517.1695168,-2.152357339859009,-1.33751733720813,-2.529083315526144,6.139223325043478,1.021846055984497,-2.653334681187765
1708436517.171496,-2.152299165725708,-1.3375454407981415,-2.5290306250201624,6.139247524529257,1.0218702554702759,-2.653388802205221
1708436517.1735253,-2.152254343032837,-1.33751733720813,-2.5291128794299524,6.139259445458212,1.0218206644058228,-2.653409783040182
1708436517.1755033,-2.1523702144622803,-1.3375173670104523,-2.5290337244616907,6.139272558480062,1.0218716859817505,-2.653442446385519
1708436517.1775124,-2.1523194313049316,-1.337529258137085,-2.529078785573141,6.139231312065878,1.021829605102539,-2.653400723134176
1708436517.179616,-2.1523079872131348,-1.3375259798816224,-2.5290053526507776,6.1393011687095544,1.0218538045883179,-2.653393332158224
1708436517.181516,-2.152315139770508,-1.3375576597503205,-2.5290513674365442,6.139205920487203,1.0218219757080078,-2.653405253087179
1708436517.18354,-2.1522700786590576,-1.337553934460022,-2.5290380159961146,6.1392801878745935,1.0218627452850342,-2.6534305254565638
1708436517.1855304,-2.1522912979125977,-1.3375206005624314,-2.5289979616748255,6.139256346016683,1.021867275238037,-2.653396193181173
1708436517.1875439,-2.1523361206054688,-1.3375464242747803,-2.5290544668780726,6.139263856201925,1.0218415260314941,-2.653437916432516
1708436517.189519,-2.1522746086120605,-1.3375497174314042,-2.5290470759021204,6.13925193527297,1.0218251943588257,-2.653421703969137
1708436517.1915221,-2.1523239612579346,-1.3375140142491837,-2.5290337244616907,6.139235722809591,1.0218583345413208,-2.653400723134176
1708436517.193617,-2.152303457260132,-1.3375130903771897,-2.5290632883654993,6.139305460243978,1.0218627452850342,-2.653421465550558
1708436517.1955523,-2.1522746086120605,-1.3375583303025742,-2.529029194508688,6.139301049500265,1.0218627452850342,-2.6533599535571497
1708436517.1975608,-2.152303457260132,-1.3375259649804612,-2.5290544668780726,6.139226901322164,1.0218342542648315,-2.653371874486105
1708436517.1995156,-2.15225887298584,-1.3375335049680253,-2.5290260950671595,6.139293300896444,1.02187180519104,-2.6533389727221888
1708436517.2015,-2.1523194313049316,-1.3375215989402314,-2.5290876070605677,6.139210331230917,1.02187180519104,-2.653396193181173
1708436517.2035377,-2.152303457260132,-1.337529258137085,-2.5290260950671595,6.139333712845602,1.0218627452850342,-2.653400723134176
1708436517.2055297,-2.152303457260132,-1.3375539791635056,-2.5290513674365442,6.139292347222128,1.0218415260314941,-2.653393332158224
1708436517.2075336,-2.1523239612579346,-1.337488905792572,-2.5290260950671595,6.139272558480062,1.0218371152877808,-2.653397862111227
1708436517.209549,-2.152303457260132,-1.3374882948449631,-2.5290187040912073,6.139272558480062,1.0218549966812134,-2.6533919016467493
1708436517.2115157,-2.1522700786590576,-1.3374888908914109,-2.5290380159961146,6.139223444252767,1.021846055984497,-2.653306309376852
1708436517.2135313,-2.1523325443267822,-1.3374684763005753,-2.5290306250201624,6.139272558480062,1.0218837261199951,-2.6533764044391077
1708436517.2155063,-2.152299165725708,-1.337553323512413,-2.5290709177600306,6.139227020531454,1.0218746662139893,-2.653442446385519
1708436517.2175174,-2.152265787124634,-1.3374513399652024,-2.5290306250201624,6.13925193527297,1.021846055984497,-2.65334660211672
1708436517.219511,-2.152315139770508,-1.3375791174224396,-2.5290098826037806,6.1393011687095544,1.0218505859375,-2.653355423604147
1708436517.2215033,-2.1522738933563232,-1.3375539791635056,-2.5290632883654993,6.139226901322164,1.0218627452850342,-2.6533644835101526
1708436517.2235215,-2.1523361206054688,-1.337537781601288,-2.5290008226977747,6.139218914299764,1.0218627452850342,-2.653388802205221
1708436517.225532,-2.1522867679595947,-1.337484673862793,-2.5290098826037806,6.139210331230917,1.0218837261199951,-2.653355423604147
1708436517.227542,-2.152294874191284,-1.3375130754760285,-2.5290425459491175,6.139272558480062,1.0218342542648315,-2.653397862111227
1708436517.2295024,-2.1523282527923584,-1.3375011545470734,-2.52901274362673,6.139266955643453,1.0218746662139893,-2.653405253087179
1708436517.2315125,-2.1522789001464844,-1.337484673862793,-2.5290544668780726,6.139240014344015,1.0218837261199951,-2.653405253087179
1708436517.2335372,-2.1523122787475586,-1.3374727082303544,-2.529083315526144,6.139238822251119,1.0218627452850342,-2.653400723134176
1708436517.2355366,-2.152303457260132,-1.3375173223069687,-2.5290513674365442,6.139199721604147,1.0218206644058228,-2.65342623392214
1708436517.2374992,-2.1523492336273193,-1.3375667494586487,-2.5290260950671595,6.139269459038534,1.0218627452850342,-2.65342623392214
1708436517.2395031,-2.1523194313049316,-1.337542088036873,-2.5290709177600306,6.1392027018363855,1.0218538045883179,-2.653388802205221
1708436517.241518,-2.1523325443267822,-1.3374846291593094,-2.5290589968310755,6.139256226807394,1.021916389465332,-2.653367344533102
1708436517.2435112,-2.1522912979125977,-1.3375215542367478,-2.5290544668780726,6.139231312065878,1.021865725517273,-2.6533919016467493
1708436517.2455225,-2.1523449420928955,-1.337471754556038,-2.529083315526144,6.13925193527297,1.0218415260314941,-2.6533764044391077
1708436517.2475188,-2.1523406505584717,-1.3374771189740677,-2.5290618578540247,6.139211523323812,1.021867275238037,-2.6533799807177942
1708436517.2495213,-2.152294874191284,-1.3374727082303544,-2.5290215651141565,6.139284479409017,1.0218505859375,-2.6533764044391077
1708436517.251537,-2.1523122787475586,-1.3375130754760285,-2.5290678183185022,6.139202821045675,1.0218415260314941,-2.65334660211672
1708436517.2535279,-2.1522998809814453,-1.3375302267125626,-2.529095236455099,6.139227854996481,1.0218790769577026,-2.6533599535571497
1708436517.2555122,-2.1523122787475586,-1.3375011545470734,-2.5290663878070276,6.1392520544822595,1.0218909978866577,-2.653388802205221
1708436517.257525,-2.1523165702819824,-1.337537781601288,-2.5290544668780726,6.139207112580099,1.0218385457992554,-2.653384272252218
1708436517.2595186,-2.152276039123535,-1.3375421476415177,-2.5290425459491175,6.139211523323812,1.021834135055542,-2.653409783040182
1708436517.2615442,-2.1522955894470215,-1.3375140142491837,-2.529057327901022,6.139219033509054,1.021829605102539,-2.6533764044391077
1708436517.263544,-2.152276039123535,-1.3375259649804612,-2.5290544668780726,6.139253246575155,1.0218702554702759,-2.653367344533102
1708436517.2655063,-2.152251720428467,-1.3375054162791749,-2.529074255620138,6.139284479409017,1.0218415260314941,-2.653388802205221
1708436517.267513,-2.1522674560546875,-1.337488905792572,-2.5290218035327356,6.139248835831442,1.021911859512329,-2.653301779423849
1708436517.269512,-2.1523122787475586,-1.3375054460814972,-2.5290921370135706,6.139204013138571,1.0218627452850342,-2.653325859700338
1708436517.271542,-2.1523165702819824,-1.337537796502449,-2.529045645390646,6.13919090011672,1.021867275238037,-2.653371874486105
1708436517.273539,-2.1522912979125977,-1.3375259649804612,-2.5290876070605677,6.139281379967489,1.0218746662139893,-2.653409783040182
1708436517.2755034,-2.1522746086120605,-1.3374846291593094,-2.529095236455099,6.139195191651144,1.021846055984497,-2.6533764044391077
1708436517.2775455,-2.1523325443267822,-1.3374761056951066,-2.5290663878070276,6.139232265740194,1.021882176399231,-2.65342623392214
1708436517.2795374,-2.1522955894470215,-1.3375791174224396,-2.5291085878955286,6.139244425087728,1.0218791961669922,-2.6533764044391077
1708436517.2815058,-2.1523079872131348,-1.33751733720813,-2.529045645390646,6.13919090011672,1.0218538045883179,-2.6534305254565638
1708436517.2835202,-2.1523208618164062,-1.3375259351781388,-2.5290513674365442,6.139183389931478,1.0218909978866577,-2.653409783040182
1708436517.285511,-2.152283191680908,-1.337505431180336,-2.5290337244616907,6.13926516750411,1.0218415260314941,-2.653371874486105
1708436517.2875266,-2.1522955894470215,-1.3374968779138108,-2.5291367212878626,6.1391745684440515,1.0218790769577026,-2.653405253087179
1708436517.2895274,-2.1522998809814453,-1.3374803376248856,-2.5290499369250696,6.139224636345663,1.021882176399231,-2.653400723134176
1708436517.2915432,-2.152283191680908,-1.337480367427208,-2.5290995279895228,6.139157879143514,1.0219000577926636,-2.6533644835101526
1708436517.293605,-2.152287483215332,-1.3375215840390702,-2.529045645390646,6.139204013138571,1.0218371152877808,-2.653371874486105
1708436517.2955387,-2.15232515335083,-1.337505431180336,-2.5290876070605677,6.139235722809591,1.0218746662139893,-2.653355423604147
1708436517.297515,-2.15232515335083,-1.33751733720813,-2.5290499369250696,6.139187681465902,1.0219289064407349,-2.653384272252218
1708436517.2995098,-2.1522998809814453,-1.3375054162791749,-2.5290709177600306,6.139166819840231,1.0219074487686157,-2.6533764044391077
1708436517.3014941,-2.1522912979125977,-1.3374770742705842,-2.5290709177600306,6.139187681465902,1.0218865871429443,-2.653409783040182
1708436517.3035066,-2.152276039123535,-1.3374770742705842,-2.529083315526144,6.13923345783309,1.021920084953308,-2.6534305254565638
1708436517.3054988,-2.1522955894470215,-1.3375173521092911,-2.5290499369250696,6.139212715416708,1.0219029188156128,-2.65342623392214
1708436517.3075604,-2.152251720428467,-1.3374969077161332,-2.5290995279895228,6.139204013138571,1.0218538045883179,-2.653384272252218
1708436517.3095145,-2.152287483215332,-1.3375216585448761,-2.5290618578540247,6.139217126160421,1.0219074487686157,-2.653350893651144
1708436517.3115072,-2.1523165702819824,-1.3374761802009125,-2.529078785573141,6.139154779701986,1.0219273567199707,-2.653417174016134
1708436517.313509,-2.1522631645202637,-1.3374975186637421,-2.529127899800436,6.139208423882284,1.0218865871429443,-2.653388802205221
1708436517.3154957,-2.152304172515869,-1.337488905792572,-2.5290618578540247,6.139162409096517,1.0219244956970215,-2.653350893651144
1708436517.3175,-2.152238607406616,-1.3375097674182435,-2.529078785573141,6.139236557274618,1.0219365358352661,-2.653421465550558
1708436517.319509,-2.1522631645202637,-1.3374974590590973,-2.529090706502096,6.139220344811239,1.0219155550003052,-2.653414312993185
1708436517.321498,-2.1522912979125977,-1.337501199250557,-2.529032293950216,6.139179932862081,1.0219063758850098,-2.653397862111227
1708436517.323501,-2.152247905731201,-1.3375215989402314,-2.529123608266012,6.139215934067526,1.0219019651412964,-2.653388802205221
1708436517.325529,-2.152230739593506,-1.337514044051506,-2.529078785573141,6.139236557274618,1.0219303369522095,-2.6533799807177942
1708436517.3275049,-2.152308464050293,-1.3374926161817093,-2.529102627431051,6.139204013138571,1.0219272375106812,-2.6534305254565638
1708436517.3294942,-2.152304172515869,-1.33751733720813,-2.529029194508688,6.13923345783309,1.0219272375106812,-2.6534186045276087
1708436517.3314958,-2.1522603034973145,-1.337537796502449,-2.529041115437643,6.139212834625997,1.0219212770462036,-2.653396193181173
1708436517.3334947,-2.1522645950317383,-1.3375011545470734,-2.5290618578540247,6.1391920922096155,1.021942138671875,-2.653405253087179
1708436517.3355043,-2.152283191680908,-1.3374975186637421,-2.529057566319601,6.139224755554952,1.0219707489013672,-2.653405253087179
1708436517.337504,-2.1522393226623535,-1.3375377667001267,-2.529102627431051,6.139184224396505,1.0219919681549072,-2.6533764044391077
1708436517.339493,-2.1522393226623535,-1.3374522638371964,-2.529095236455099,6.139212953835287,1.0220084190368652,-2.6533494631396692
1708436517.3414962,-2.152276039123535,-1.3375421327403565,-2.5290618578540247,6.139166700630941,1.0219829082489014,-2.6534245649920862
1708436517.3434992,-2.1522560119628906,-1.3375130754760285,-2.529078785573141,6.139162409096517,1.0219662189483643,-2.653412644063131
1708436517.345514,-2.152312755584717,-1.337537796502449,-2.529139820729391,6.139212834625997,1.0219707489013672,-2.653367344533102
1708436517.3474956,-2.152280330657959,-1.3375421476415177,-2.5290618578540247,6.139212834625997,1.0219542980194092,-2.653429094945089
1708436517.3495014,-2.152251720428467,-1.3374926012805481,-2.529107157384054,6.139138448029318,1.0219783782958984,-2.6534200350390833
1708436517.3515139,-2.1522269248962402,-1.3374846291593094,-2.529111448918478,6.139179932862081,1.0219902992248535,-2.6533919016467493
1708436517.3535135,-2.152329444885254,-1.3375335198691864,-2.529111448918478,6.1391711113746545,1.0219453573226929,-2.653400723134176
1708436517.3555038,-2.152312755584717,-1.3375054162791749,-2.529107157384054,6.139150488167562,1.0219829082489014,-2.653412644063131
1708436517.357534,-2.1522269248962402,-1.3375259649804612,-2.5291100184070032,6.139224636345663,1.0219707489013672,-2.653388802205221
1708436517.35951,-2.1522560119628906,-1.3375464093736191,-2.529098097478048,6.1391591904456995,1.0219452381134033,-2.6533783117877405
1708436517.3614948,-2.1522674560546875,-1.3374641847661515,-2.529160801564352,6.139229166298666,1.0220251083374023,-2.653412644063131
1708436517.3634975,-2.152280330657959,-1.3375335198691864,-2.529114548360006,6.139159309654989,1.0219829082489014,-2.6534624735461634
1708436517.3654993,-2.152202606201172,-1.3374932569316407,-2.5290938059436243,6.139175522118368,1.0220115184783936,-2.6534245649920862
1708436517.367497,-2.152247428894043,-1.3374888759902497,-2.5291550795184534,6.139179932862081,1.0220143795013428,-2.6534038225757044
1708436517.3695016,-2.152287483215332,-1.3374565255692978,-2.5290938059436243,6.139196502953329,1.0219992399215698,-2.6534081141101282
1708436517.3714955,-2.1522560119628906,-1.3375215989402314,-2.5291593710528772,6.139184343605795,1.0220069885253906,-2.6534364859210413
1708436517.3735094,-2.152256488800049,-1.3375011545470734,-2.5291593710528772,6.139184343605795,1.0220069885253906,-2.6534245649920862
1708436517.3755002,-2.1522717475891113,-1.3375421625426789,-2.5291760603534144,6.139208423882284,1.022039771080017,-2.653429094945089
1708436517.3775494,-2.1522645950317383,-1.337566227918007,-2.529170099888937,6.139208423882284,1.0219980478286743,-2.6534319559680384
1708436517.3794978,-2.152251720428467,-1.3375421476415177,-2.529153887425558,6.139208423882284,1.0220279693603516,-2.6534534136401575
1708436517.381521,-2.1522603034973145,-1.3374608916095276,-2.5291627089129847,6.139154898911276,1.021990180015564,-2.6534410158740442
1708436517.3835099,-2.1522717475891113,-1.3374770742705842,-2.529132668172018,6.139166700630941,1.0220115184783936,-2.653451744710104
1708436517.3855152,-2.152251720428467,-1.3375182461789628,-2.5291834513293665,6.139163601189413,1.0220025777816772,-2.6534653345691126
1708436517.3875327,-2.152308464050293,-1.337465153341629,-2.5292239824878138,6.139168011933126,1.0220279693603516,-2.6534727255450647
1708436517.3895159,-2.1522603034973145,-1.3374932569316407,-2.529219452534811,6.139146077423849,1.0219902992248535,-2.653489653264181
1708436517.3915346,-2.1522560119628906,-1.3374727380326767,-2.529144827519552,6.139179932862081,1.0219980478286743,-2.653435293828146
1708436517.3936334,-2.152276039123535,-1.3375139844468613,-2.5291910807238978,6.1391711113746545,1.0220189094543457,-2.653480593358175
1708436517.3955755,-2.152247905731201,-1.3375097823194046,-2.529149357472555,6.139199602394857,1.0220025777816772,-2.653485123311178
1708436517.3975525,-2.1522111892700195,-1.3374846291593094,-2.529186550770895,6.139130699425497,1.0219783782958984,-2.653468195592062
1708436517.3995254,-2.1522603034973145,-1.337505431180336,-2.5292044321643274,6.13917230346755,1.0220024585723877,-2.65352970758547
1708436517.401513,-2.1522603034973145,-1.3374651235393067,-2.529206101094381,6.139179932862081,1.0220189094543457,-2.6535328070269983
1708436517.403547,-2.1522674560546875,-1.3375259053758164,-2.529137198125021,6.139179813652792,1.0220471620559692,-2.653480593358175
1708436517.4055417,-2.152231216430664,-1.3374932569316407,-2.5291834513293665,6.1391711113746545,1.0220427513122559,-2.653497044240133
1708436517.4075134,-2.152235507965088,-1.3374889206937333,-2.529186550770895,6.139163601189413,1.0220308303833008,-2.6535285154925745
1708436517.4095585,-2.1522645950317383,-1.3374932569316407,-2.5292075316058558,6.139166819840231,1.022064208984375,-2.653508965169088
1708436517.4115431,-2.152247905731201,-1.3374479872039338,-2.529170099888937,6.139220344811239,1.022005319595337,-2.653525416051046
1708436517.413546,-2.1522603034973145,-1.337476210003235,-2.529153887425558,6.13923345783309,1.0220171213150024,-2.653508965169088
1708436517.4155169,-2.152231216430664,-1.3374926012805481,-2.5291627089129847,6.139151680260458,1.0220551490783691,-2.6535401980029505
1708436517.4175406,-2.15218186378479,-1.3375464093736191,-2.5291746298419397,6.139179932862081,1.0220762491226196,-2.6535328070269983
1708436517.4195004,-2.152273178100586,-1.3375453811934968,-2.5291405359851282,6.139183389931478,1.02204167842865,-2.6535282770739954
1708436517.421521,-2.1522269248962402,-1.3375377667001267,-2.5291910807238978,6.1392706511314294,1.0220879316329956,-2.6535239855395716
1708436517.423543,-2.152268886566162,-1.33751733720813,-2.529203001652853,6.139077532082357,1.0220580101013184,-2.653558079396383
1708436517.4254966,-2.1522226333618164,-1.3375216138413926,-2.529203001652853,6.139181124954977,1.0220625400543213,-2.6535521189319056
1708436517.4275079,-2.1522111892700195,-1.33751733720813,-2.529186550770895,6.139196502953329,1.0221000909805298,-2.6535239855395716
1708436517.4295752,-2.1522269248962402,-1.3375011545470734,-2.529170099888937,6.139168011933126,1.022095799446106,-2.6535447279559534
1708436517.4315414,-2.152280330657959,-1.33751733720813,-2.5291627089129847,6.139205205231466,1.0221046209335327,-2.6535781065570276
1708436517.4335191,-2.152252197265625,-1.3375011545470734,-2.529215161000387,6.139130818634786,1.0220626592636108,-2.6535945574389856
1708436517.4354935,-2.152219772338867,-1.3374565255692978,-2.529144827519552,6.13917242267684,1.0220626592636108,-2.6535735766040247
1708436517.4375315,-2.152202844619751,-1.3374727380326767,-2.529170099888937,6.139132010727682,1.0220699310302734,-2.6535401980029505
1708436517.4395182,-2.1522397994995117,-1.3375060719302674,-2.5292072931872767,6.139123189240255,1.0221149921417236,-2.6535163561450403
1708436517.441518,-2.152256488800049,-1.3375130605748673,-2.529165808354513,6.139123189240255,1.0221030712127686,-2.6535447279559534
1708436517.4435368,-2.152207136154175,-1.3374975633672257,-2.529203001652853,6.139152633934774,1.0220822095870972,-2.6535735766040247
1708436517.4455206,-2.152207136154175,-1.3374974888614197,-2.529165808354513,6.139034020691671,1.022119402885437,-2.6535566488849085
1708436517.447512,-2.15218186378479,-1.3375182461789628,-2.5292072931872767,6.139112579613485,1.0220969915390015,-2.6535945574389856
1708436517.4495127,-2.1522159576416016,-1.3374599081328888,-2.529215161000387,6.1391135332878015,1.0221648216247559,-2.6535075346576136
1708436517.4515193,-2.1521964073181152,-1.3375173223069687,-2.529182020817892,6.139048087387838,1.022151231765747,-2.6535192171679896
1708436517.453532,-2.15217924118042,-1.3374770742705842,-2.5292118231402796,6.139015543251791,1.0221195220947266,-2.6535914579974573
1708436517.455523,-2.152174711227417,-1.337574840789177,-2.52919847169985,6.139024245529928,1.0221121311187744,-2.6535149256335657
1708436517.4575546,-2.1521596908569336,-1.337440387611725,-2.5292239824878138,6.138995754509725,1.0221149921417236,-2.6535356680499476
1708436517.459522,-2.1521596908569336,-1.3375259649804612,-2.529165808354513,6.138935911446371,1.0221258401870728,-2.6535311380969446
1708436517.461527,-2.152151584625244,-1.337488905792572,-2.529186550770895,6.138895618706503,1.022107481956482,-2.6535356680499476
1708436517.4635603,-2.1521358489990234,-1.3375060719302674,-2.5292239824878138,6.138924944191732,1.0221149921417236,-2.6535826365100306
1708436517.4655185,-2.152160406112671,-1.3374932569316407,-2.5291953722583216,6.138884889870443,1.0221529006958008,-2.6535566488849085
1708436517.4675076,-2.1521689891815186,-1.3374846142581482,-2.529153887425558,6.13881944397048,1.0221058130264282,-2.6535282770739954
1708436517.4695268,-2.1521153450012207,-1.337493286733963,-2.529210631047384,6.138804185181417,1.0221573114395142,-2.653569046651022
1708436517.4715288,-2.1521363258361816,-1.337440402512886,-2.529153887425558,6.1387356398399255,1.0220866203308105,-2.6535945574389856
1708436517.4735193,-2.152088165283203,-1.3375017654946824,-2.5291746298419397,6.138727652817526,1.0221014022827148,-2.6535521189319056
1708436517.4755049,-2.1520347595214844,-1.3374694001725693,-2.529186550770895,6.138672339707174,1.0221149921417236,-2.6535826365100306
1708436517.4775054,-2.152088165283203,-1.3375345331481476,-2.529240433369772,6.138631808548727,1.0221484899520874,-2.6535401980029505
1708436517.4795232,-2.152092933654785,-1.337473676805832,-2.529193941746847,6.138608085900106,1.0221529006958008,-2.6535611788379114
1708436517.481544,-2.1520843505859375,-1.337465153341629,-2.5292239824878138,6.138567912369528,1.022139310836792,-2.6535521189319056
1708436517.4834943,-2.152040481567383,-1.337441311483719,-2.529182020817892,6.138523208885946,1.0221149921417236,-2.6535146872149866
1708436517.4854996,-2.1520447731018066,-1.337445543413498,-2.529203001652853,6.1385244009788416,1.0221648216247559,-2.6535120646106165
1708436517.4875076,-2.152024269104004,-1.337408961062767,-2.529173199330465,6.138488280564108,1.0220822095870972,-2.6535120646106165
1708436517.489513,-2.1519927978515625,-1.337442235355713,-2.529170099888937,6.138464557915487,1.0221631526947021,-2.6535208860980433
1708436517.4915407,-2.1520581245422363,-1.3374379140189667,-2.5291834513293665,6.138416754990377,1.022134780883789,-2.653525416051046
1708436517.4935915,-2.151967763900757,-1.3374465119889756,-2.5292075316058558,6.1384328482444666,1.02206552028656,-2.6534672419177454
1708436517.4956625,-2.1519696712493896,-1.3374174696258088,-2.529156748448507,6.138408767967977,1.0221149921417236,-2.653517786656515
1708436517.4975696,-2.151895046234131,-1.3373644065907975,-2.5292118231402796,6.1383858797843835,1.022139310836792,-2.6534763018237513
1708436517.4995282,-2.15194034576416,-1.3374421906522294,-2.529219452534811,6.138308512955465,1.0221149921417236,-2.653501574193136
1708436517.5014992,-2.1518640518188477,-1.3374147576144715,-2.529186550770895,6.1382847903068445,1.022119402885437,-2.6534183661090296
1708436517.5035315,-2.151892900466919,-1.33741049588237,-2.5291910807238978,6.1381921646888635,1.0221195220947266,-2.6534488836871546
1708436517.505507,-2.1518406867980957,-1.3373368245414277,-2.5291746298419397,6.138241159706869,1.0221076011657715,-2.6533873716937464
1708436517.507511,-2.151808261871338,-1.3373824071935196,-2.5291953722583216,6.138181078224935,1.0221149921417236,-2.6534245649920862
1708436517.5095093,-2.151751756668091,-1.3373133850148697,-2.529186550770895,6.138113724976339,1.0221529006958008,-2.653355423604147
1708436517.5115056,-2.151724338531494,-1.3373182278922577,-2.529132668172018,6.138044941216268,1.0220867395401,-2.6533406416522425
1708436517.5135095,-2.151749610900879,-1.3373304617455979,-2.5291715304004114,6.138083326607504,1.0220699310302734,-2.6533167997943323
1708436517.5155156,-2.1516387462615967,-1.3373182278922577,-2.5291581789599817,6.137940275460043,1.02204167842865,-2.653276030217306
1708436517.5175288,-2.1516809463500977,-1.337257446055748,-2.5291791597949427,6.137868630677023,1.02203369140625,-2.653231445943014
1708436517.5195124,-2.1516292095184326,-1.3372498911670228,-2.5291460196124476,6.13781629779891,1.0220506191253662,-2.6532159487353724
1708436517.5215292,-2.1516294479370117,-1.3372422021678467,-2.5292072931872767,6.137784588127889,1.02203369140625,-2.6532204786883753
1708436517.5235085,-2.151531934738159,-1.33720217764888,-2.5291627089129847,6.137705075531759,1.0220471620559692,-2.6532049814807337
1708436517.5255234,-2.1515705585479736,-1.3372098517468949,-2.529120747243063,6.137621152191915,1.0220025777816772,-2.6531274954425257
1708436517.5275068,-2.1515746116638184,-1.3372139793685456,-2.5291627089129847,6.137552606850424,1.0220115184783936,-2.6530585924731653
1708436517.5295086,-2.151477813720703,-1.3371945184520264,-2.5291672388659876,6.137452351837911,1.0219902992248535,-2.653067652379171
1708436517.5314982,-2.1514487266540527,-1.3371294897845765,-2.529153887425558,6.1374173043067834,1.0219571590423584,-2.6529813448535364
1708436517.5335033,-2.1514220237731934,-1.3371542555144806,-2.5291581789599817,6.1372848627860925,1.0219330787658691,-2.652975622807638
1708436517.5355031,-2.151360273361206,-1.3371129941991349,-2.5291746298419397,6.137258755951681,1.0219048261642456,-2.652897659932272
1708436517.5375113,-2.1513419151306152,-1.3371500086835404,-2.529137198125021,6.137154209404745,1.021979808807373,-2.6528916994677942
1708436517.5395064,-2.151312828063965,-1.3371509325555344,-2.5291505495654505,6.137078869133749,1.021946668624878,-2.652780834828512
1708436517.5414982,-2.1512763500213623,-1.3371312630227585,-2.5291431585894983,6.136954533844747,1.021946668624878,-2.6527751127826136
1708436517.5435023,-2.151270627975464,-1.3370619726232071,-2.5291550795184534,6.136857497483053,1.0219391584396362,-2.6527379194842737
1708436517.5455017,-2.1512510776519775,-1.337082417016365,-2.5291672388659876,6.136742222100057,1.021893858909607,-2.6526668707477015
