Eg3-git/Classifiers/Data Collection/u4/u4www1_ur3e_joint_states.csv
time,elbow_joint,shoulder_lift_joint,shoulder_pan_joint,wrist_1_joint,wrist_2_joint,wrist_3_joint
1708436454.1719577,-2.141747236251831,-1.333502934580185,-2.5266311804400843,6.1104094860847376,1.017293930053711,-2.648285690938131
1708436454.1739767,-2.141730546951294,-1.3335603785565873,-2.5266311804400843,6.1104434607322595,1.0172685384750366,-2.6482604185687464
1708436454.1759667,-2.1417393684387207,-1.333540366297104,-2.526668373738424,6.1104668257530115,1.0173251628875732,-2.6482320467578333
1708436454.1779447,-2.141751766204834,-1.3334875863841553,-2.526635710393087,6.110418188362875,1.017293930053711,-2.6482232252704065
1708436454.1799462,-2.141730546951294,-1.3335114431432267,-2.526668373738424,6.110479223519125,1.0173311233520508,-2.6482649485217493
1708436454.1819491,-2.1417348384857178,-1.3334748160890122,-2.5266061464892786,6.110418188362875,1.0173027515411377,-2.6482842604266565
1708436454.183949,-2.1417057514190674,-1.3334466379931946,-2.5266268889056605,6.110480177193441,1.0173341035842896,-2.6483259836779993
1708436454.1859756,-2.1417124271392822,-1.3334997457316895,-2.526684586201803,6.110438930779257,1.017346739768982,-2.6482558886157435
1708436454.1879418,-2.1417553424835205,-1.3334748309901734,-2.5266223589526575,6.110459434777059,1.0173428058624268,-2.6482413450824183
1708436454.1899452,-2.141747236251831,-1.3335233491710206,-2.5266223589526575,6.11050425746993,1.017317771911621,-2.6482813994037073
1708436454.1919544,-2.1417553424835205,-1.3334870648435135,-2.5266104380237024,6.110421287804403,1.017317771911621,-2.6482320467578333
1708436454.1939623,-2.1417012214660645,-1.3334997606328507,-2.5266147295581263,6.110471236496725,1.0172806978225708,-2.6482604185687464
1708436454.1959527,-2.1417641639709473,-1.3334629100612183,-2.526619259511129,6.110446202545919,1.017293930053711,-2.6482232252704065
1708436454.197955,-2.1417622566223145,-1.3334423762610932,-2.5266595522509974,6.1104702828224084,1.0172852277755737,-2.6482530275927942
1708436454.1999886,-2.1417429447174072,-1.3335403364947815,-2.5266268889056605,6.110430228501119,1.0173296928405762,-2.6482649485217493
1708436454.2019455,-2.1416943073272705,-1.333527610903122,-2.526651922856466,6.110441791802206,1.0172522068023682,-2.6482515970813196
1708436454.2039566,-2.1417338848114014,-1.3334832203439255,-2.5265985170947474,6.110401499062338,1.0173473358154297,-2.6482768694507044
1708436454.205943,-2.141721487045288,-1.3335156005671998,-2.5266311804400843,6.110434520035543,1.0173265933990479,-2.6482976118670862
1708436454.2080064,-2.1417384147644043,-1.3335480254939576,-2.526607338582174,6.110414850502767,1.0172641277313232,-2.6482060591327112
1708436454.2100232,-2.1416897773742676,-1.3335199666074296,-2.526672665272848,6.1103882668311975,1.0172851085662842,-2.6482186953174036
1708436454.2119625,-2.1417508125305176,-1.3335361194661637,-2.5266431013690394,6.110441791802206,1.0173354148864746,-2.6482768694507044
1708436454.2139711,-2.1417429447174072,-1.3335645210793992,-2.5266595522509974,6.110405909806051,1.0172851085662842,-2.648226324711935
1708436454.2159863,-2.141721487045288,-1.333543838267662,-2.5266223589526575,6.110480177193441,1.0173133611679077,-2.6482365767108362
1708436454.2179708,-2.141721487045288,-1.3335276407054444,-2.5266147295581263,6.110471236496725,1.017317771911621,-2.6482723394977015
1708436454.219971,-2.141721487045288,-1.333523378973343,-2.526635471974508,6.110454904824056,1.0173341035842896,-2.6482558886157435
1708436454.2219975,-2.1417596340179443,-1.3335083437016984,-2.526668373738424,6.110438930779257,1.0172641277313232,-2.6482439676867884
1708436454.2239602,-2.1417670249938965,-1.3335560274175187,-2.5265985170947474,6.110483515053549,1.0172685384750366,-2.6482439676867884
1708436454.22597,-2.1417670249938965,-1.3335199368051072,-2.5266595522509974,6.110483515053549,1.017293930053711,-2.6482470671283167
1708436454.2279413,-2.1417641639709473,-1.3334826839021225,-2.5266149679767054,6.110376465111532,1.017317771911621,-2.648274008427755
1708436454.2299452,-2.141721487045288,-1.3335199368051072,-2.5266030470477503,6.110413896828451,1.0173265933990479,-2.648210589085714
1708436454.231952,-2.1417508125305176,-1.3335404259017487,-2.5266147295581263,6.110404956131735,1.017261028289795,-2.6482277552234095
1708436454.2339442,-2.141714572906494,-1.333491326575615,-2.526628080998556,6.110474812775411,1.0172685384750366,-2.648257557545797
1708436454.2359421,-2.1417462825775146,-1.3335114282420655,-2.526623551045553,6.110421287804403,1.0172851085662842,-2.648168388997213
1708436454.2379367,-2.1417012214660645,-1.333491326575615,-2.526651922856466,6.110441791802206,1.017317771911621,-2.6482558886157435
1708436454.239936,-2.1417338848114014,-1.3334870350411911,-2.5265899340258997,6.110413896828451,1.0172640085220337,-2.6482484976397913
1708436454.2419634,-2.141751766204834,-1.3335317981294175,-2.526607338582174,6.110410439759054,1.017293930053711,-2.6482320467578333
1708436454.2439446,-2.141710042953491,-1.333527610903122,-2.526635471974508,6.1104315398033044,1.0172808170318604,-2.6482604185687464
1708436454.2459283,-2.1417713165283203,-1.3334955287030716,-2.526619259511129,6.110422599106588,1.0172984600067139,-2.6482723394977015
1708436454.2479432,-2.1417293548583984,-1.3334747713855286,-2.526616160069601,6.110422599106588,1.0173686742782593,-2.6482277552234095
1708436454.2499433,-2.1417384147644043,-1.3334219318679352,-2.526640001927511,6.110410439759054,1.0172685384750366,-2.6482439676867884
1708436454.2519538,-2.141730546951294,-1.3334544014981766,-2.5266311804400843,6.110499846726217,1.0172852277755737,-2.648215119038717
1708436454.2539425,-2.1417553424835205,-1.333470569258072,-2.526585404072897,6.110480296402731,1.0173296928405762,-2.6482976118670862
1708436454.255942,-2.1417553424835205,-1.3334913116744538,-2.526635710393087,6.1103941080863855,1.0172685384750366,-2.648224178944723
1708436454.2579656,-2.1417293548583984,-1.3334955734065552,-2.526651922856466,6.110452282219686,1.017274260520935,-2.64821964899172
1708436454.2599556,-2.1417508125305176,-1.3334670674851914,-2.526623551045553,6.110450494080343,1.0172984600067139,-2.6482530275927942
1708436454.261945,-2.1417293548583984,-1.3335029196790238,-2.5266030470477503,6.110434520035543,1.0172851085662842,-2.6482275168048304
1708436454.2639418,-2.1417338848114014,-1.3335437786630173,-2.526619259511129,6.110401499062338,1.0172808170318604,-2.64821964899172
1708436454.2659793,-2.1417171955108643,-1.333458588724472,-2.5266149679767054,6.110398518830099,1.0172743797302246,-2.648274008427755
1708436454.2679687,-2.141726016998291,-1.3335083437016984,-2.5266268889056605,6.1104434607322595,1.0172698497772217,-2.648210589085714
1708436454.2699468,-2.1417508125305176,-1.333519921903946,-2.526619259511129,6.110398518830099,1.0172531604766846,-2.6482277552234095
1708436454.271985,-2.1417622566223145,-1.3334955883077164,-2.526635710393087,6.110401499062338,1.017268419265747,-2.6482320467578333
1708436454.2739487,-2.1417429447174072,-1.333507166509964,-2.5266104380237024,6.110438930779257,1.0172654390335083,-2.6482365767108362
1708436454.275944,-2.1417293548583984,-1.3335071814111252,-2.5266149679767054,6.110434520035543,1.017311692237854,-2.6482530275927942
1708436454.2779608,-2.1417758464813232,-1.3334997457316895,-2.526644293461935,6.110389578133383,1.0172576904296875,-2.648224178944723
1708436454.2799714,-2.1416852474212646,-1.3334997457316895,-2.5266552607165735,6.110391008644857,1.0172488689422607,-2.6482620874988
1708436454.2819533,-2.141716957092285,-1.3335155856660386,-2.526635471974508,6.110405909806051,1.0172531604766846,-2.648212258015768
1708436454.2839608,-2.1417758464813232,-1.3335029196790238,-2.526591126118795,6.110361444741049,1.0172654390335083,-2.6481908003436487
1708436454.285951,-2.141716957092285,-1.3334955734065552,-2.5265899340258997,6.110422599106588,1.0172698497772217,-2.648216787968771
1708436454.2879517,-2.1417057514190674,-1.3335233491710206,-2.526635471974508,6.110414850502767,1.0172621011734009,-2.648245636616842
1708436454.2899985,-2.1417338848114014,-1.3335114282420655,-2.526672665272848,6.110463845520773,1.0172772407531738,-2.648207728062765
1708436454.291965,-2.1416852474212646,-1.333539531832077,-2.526672665272848,6.110356914788046,1.0172488689422607,-2.6481953302966517
1708436454.2939677,-2.1417758464813232,-1.3334955734065552,-2.5266605059253138,6.110373246460714,1.017261028289795,-2.6482213179217737
1708436454.2959497,-2.141721487045288,-1.333507166509964,-2.5266104380237024,6.110419261246481,1.0173442363739014,-2.648259226475851
1708436454.2980013,-2.1417124271392822,-1.3335437786630173,-2.5266605059253138,6.110377776413717,1.0172532796859741,-2.648203198109762
1708436454.30031,-2.1417622566223145,-1.3335147512010117,-2.5266431013690394,6.110423671990194,1.0172832012176514,-2.6481908003436487
1708436454.3019686,-2.1417713165283203,-1.3335309338620682,-2.5265985170947474,6.110386597901144,1.0172576904296875,-2.6481908003436487
1708436454.303984,-2.141730546951294,-1.3334670674851914,-2.5266030470477503,6.110402929573812,1.0172621011734009,-2.6481743494616907
1708436454.3059783,-2.141721487045288,-1.3334955883077164,-2.5265942255603235,6.110370266228475,1.0172545909881592,-2.6481879393206995
1708436454.3079672,-2.141721487045288,-1.3335190874389191,-2.526574436818258,6.110370266228475,1.017196536064148,-2.6481714884387415
1708436454.30997,-2.1417622566223145,-1.3334827733090897,-2.526607338582174,6.110407340317526,1.017241358757019,-2.64815336862673
1708436454.3119998,-2.1417429447174072,-1.3335275960019608,-2.526578966771261,6.110402929573812,1.0172501802444458,-2.6481671969043177
1708436454.3139553,-2.1417293548583984,-1.3334997457316895,-2.5266147295581263,6.11039553859786,1.0172502994537354,-2.64821702638735
1708436454.3161201,-2.141716957092285,-1.333527610903122,-2.5265899340258997,6.110365855484762,1.0172502994537354,-2.6481760183917444
1708436454.3179681,-2.1417462825775146,-1.333531768327095,-2.5265942255603235,6.110428201943197,1.0172336101531982,-2.6481552759753626
1708436454.3199723,-2.1417508125305176,-1.3335199368051072,-2.526635471974508,6.110411870270529,1.0172336101531982,-2.6481640974627894
1708436454.321986,-2.1417553424835205,-1.3335156005671998,-2.5266030470477503,6.110416281014242,1.0172502994537354,-2.6481459776507776
1708436454.3240101,-2.1417598724365234,-1.3335233491710206,-2.526623551045553,6.110377776413717,1.0172380208969116,-2.64816123643984
1708436454.3259795,-2.141747236251831,-1.3334586483291169,-2.5265942255603235,6.110365855484762,1.017196536064148,-2.648184839879171
1708436454.327972,-2.1417508125305176,-1.333519921903946,-2.526628080998556,6.11039553859786,1.0172260999679565,-2.648193899785177
1708436454.32999,-2.141780376434326,-1.333527610903122,-2.5266149679767054,6.110386597901144,1.017242431640625,-2.648165766392843
1708436454.331966,-2.141730546951294,-1.3334997457316895,-2.526574436818258,6.110332834511556,1.0172053575515747,-2.648102347050802
1708436454.3339622,-2.1417293548583984,-1.333531768327095,-2.526599709187643,6.11039553859786,1.0172053575515747,-2.648095194493429
1708436454.3359601,-2.1417462825775146,-1.3334955734065552,-2.526640001927511,6.110357987671652,1.0172141790390015,-2.6481204668628138
1708436454.3379886,-2.1416807174682617,-1.333531768327095,-2.5265985170947474,6.110317575722494,1.0171724557876587,-2.648144785557882
1708436454.3399537,-2.1417670249938965,-1.333531768327095,-2.52663237253298,6.110329854279318,1.0171680450439453,-2.64808160463442
1708436454.3419788,-2.141726016998291,-1.3335191023400803,-2.5266030470477503,6.1103131649787805,1.017214298248291,-2.648127857838766
1708436454.3439844,-2.1417596340179443,-1.3335156005671998,-2.526623551045553,6.110302912979879,1.017193078994751,-2.648156706486837
1708436454.3459508,-2.1417384147644043,-1.3335275960019608,-2.526628080998556,6.110277759819784,1.017214298248291,-2.648123327885763
1708436454.3479526,-2.1417622566223145,-1.3334714037230988,-2.5266311804400843,6.1102579710777185,1.017193078994751,-2.648165766392843
1708436454.3499506,-2.1417384147644043,-1.3335233491710206,-2.5265865961657923,6.110196816712179,1.0172020196914673,-2.648123327885763
1708436454.3519573,-2.14176869392395,-1.3334424656680604,-2.5265780130969446,6.110262501030721,1.017197608947754,-2.648093287144796
1708436454.3539474,-2.141751766204834,-1.3335437786630173,-2.5265865961657923,6.110284673958578,1.017160177230835,-2.648127857838766
1708436454.3559585,-2.1417429447174072,-1.333491326575615,-2.526623551045553,6.1102263806159876,1.0171735286712646,-2.648132387791769
1708436454.3579872,-2.1417293548583984,-1.3334670674851914,-2.526623551045553,6.110275733261862,1.017160177230835,-2.6481204668628138
1708436454.3599994,-2.1417758464813232,-1.333531768327095,-2.526591126118795,6.1102309105689905,1.0171691179275513,-2.648172918950216
1708436454.3619485,-2.1416852474212646,-1.333470569258072,-2.5265823046313685,6.110214578896322,1.0171887874603271,-2.648099486027853
1708436454.3639727,-2.1417293548583984,-1.3335361194661637,-2.526595417653219,6.110218989640035,1.0171735286712646,-2.648123327885763
1708436454.3659863,-2.141726016998291,-1.333531768327095,-2.5266311804400843,6.1102802632148645,1.0171887874603271,-2.648111406956808
1708436454.3679552,-2.1417837142944336,-1.3335275960019608,-2.526619259511129,6.110277044564047,1.017193078994751,-2.648106877003805
1708436454.369991,-2.1417171955108643,-1.3335437786630173,-2.5266030470477503,6.11016999462203,1.017176866531372,-2.648123089467184
1708436454.371938,-2.1417667865753174,-1.333507166509964,-2.526619259511129,6.110252010613241,1.017193078994751,-2.648099486027853
1708436454.3739471,-2.141747236251831,-1.33356028914962,-2.526616160069601,6.110150563507833,1.0171902179718018,-2.6481040159808558
1708436454.3759716,-2.141747236251831,-1.333531768327095,-2.526611630116598,6.110221969872274,1.0172020196914673,-2.648165766392843
1708436454.3779728,-2.1417596340179443,-1.3335479509881516,-2.526619259511129,6.110239612847128,1.0171887874603271,-2.648111406956808
1708436454.3799899,-2.1417031288146973,-1.3334748160890122,-2.5265823046313685,6.110207307129659,1.017193078994751,-2.648078743611471
1708436454.3819478,-2.141716957092285,-1.3334870648435135,-2.526591126118795,6.110235321312704,1.0171689987182617,-2.648099486027853
1708436454.383988,-2.1417462825775146,-1.333527610903122,-2.526578966771261,6.110256302147665,1.017210841178894,-2.6481247583972376
1708436454.385947,-2.1417012214660645,-1.3335437637618561,-2.526611630116598,6.110218989640035,1.017210841178894,-2.648123327885763
1708436454.3879552,-2.141710042953491,-1.3335114282420655,-2.5265701452838343,6.110203015595236,1.017209768295288,-2.648090426121847
1708436454.3899832,-2.1417293548583984,-1.3334997457316895,-2.5266605059253138,6.110174286156454,1.017214298248291,-2.64816123643984
1708436454.39197,-2.141730546951294,-1.333483250146248,-2.52663237253298,6.110190975456991,1.0172020196914673,-2.648111406956808
1708436454.393982,-2.141726016998291,-1.3335233491710206,-2.526607338582174,6.110178696900167,1.017160177230835,-2.6481247583972376
1708436454.3959718,-2.141726016998291,-1.3335361194661637,-2.526628080998556,6.1102309105689905,1.0171527862548828,-2.6481085459338587
1708436454.3980145,-2.141721487045288,-1.3334997457316895,-2.526604239140646,6.1101566431816,1.0171856880187988,-2.648095194493429
1708436454.3999736,-2.141721487045288,-1.333483250146248,-2.526607338582174,6.110223281174459,1.0171887874603271,-2.64811879793276
1708436454.4019792,-2.1417713165283203,-1.3335352700999756,-2.526647392903463,6.110182273178854,1.0172064304351807,-2.6481450239764612
1708436454.4039676,-2.1417670249938965,-1.33356028914962,-2.526616160069601,6.110195386200704,1.017214298248291,-2.6481204668628138
1708436454.4059553,-2.1417553424835205,-1.333524153833725,-2.526611630116598,6.110211717873373,1.017209768295288,-2.648111406956808
1708436454.4079685,-2.1417293548583984,-1.3334955883077164,-2.5265823046313685,6.110216247826376,1.0171856880187988,-2.648153845463888
1708436454.4099507,-2.1417429447174072,-1.333491326575615,-2.526616160069601,6.11018322685317,1.01723051071167,-2.6481128374682825
1708436454.4119482,-2.1417462825775146,-1.3335114282420655,-2.5265656153308313,6.1101733324821375,1.017176866531372,-2.6481204668628138
1708436454.413957,-2.141780376434326,-1.333527610903122,-2.5265536944018763,6.110220658570089,1.0171812772750854,-2.648115936909811
1708436454.415985,-2.1417758464813232,-1.3335644465735932,-2.5265985170947474,6.110190975456991,1.017193078994751,-2.6481412092791956
1708436454.4179912,-2.1417713165283203,-1.333491326575615,-2.5265823046313685,6.110162365227499,1.017164707183838,-2.648071352635519
1708436454.4199617,-2.141726016998291,-1.333507166509964,-2.526591126118795,6.11018322685317,1.017210841178894,-2.648083273564474
1708436454.4219759,-2.1417057514190674,-1.3335275960019608,-2.526611630116598,6.11015938499526,1.017160177230835,-2.648165766392843
1708436454.4240088,-2.1417429447174072,-1.3335564893535157,-2.526591126118795,6.110154974251547,1.0171945095062256,-2.6480966250049036
1708436454.4259498,-2.1417171955108643,-1.3334955734065552,-2.526595417653219,6.110166895180502,1.0171689987182617,-2.6481128374682825
1708436454.427996,-2.1417124271392822,-1.3335233491710206,-2.526591126118795,6.1101757166679285,1.0172349214553833,-2.648153845463888
1708436454.4299855,-2.1417429447174072,-1.3335437637618561,-2.5265701452838343,6.110163914948263,1.0172185897827148,-2.648111406956808
1708436454.4319482,-2.141773223876953,-1.3335479509881516,-2.526591126118795,6.110154974251547,1.017209768295288,-2.648115936909811
1708436454.4339619,-2.141721487045288,-1.3335644465735932,-2.526611630116598,6.110186683922567,1.01723051071167,-2.648132387791769
1708436454.4359787,-2.1417553424835205,-1.3335233491710206,-2.526607338582174,6.110190975456991,1.0171735286712646,-2.6481040159808558
1708436454.4379678,-2.1417171955108643,-1.3334955734065552,-2.526611630116598,6.110150563507833,1.0171812772750854,-2.6480920950519007
1708436454.4399598,-2.1417293548583984,-1.3335233491710206,-2.5265701452838343,6.110178696900167,1.017214298248291,-2.648132387791769
1708436454.441954,-2.1417553424835205,-1.333504081969597,-2.526599709187643,6.110199916153707,1.017193078994751,-2.6481040159808558
1708436454.443988,-2.141780138015747,-1.3335147512010117,-2.526599709187643,6.110241043358602,1.0171571969985962,-2.6481085459338587
1708436454.4459503,-2.1417596340179443,-1.3334997755340119,-2.526583258305685,6.110199916153707,1.0172260999679565,-2.6481204668628138
1708436454.4479663,-2.1417338848114014,-1.333524153833725,-2.526583258305685,6.1101757166679285,1.017210841178894,-2.6481366793261927
1708436454.4499938,-2.141726016998291,-1.3334997457316895,-2.5265865961657923,6.110137331276693,1.017160177230835,-2.648036781941549
1708436454.4519565,-2.1417713165283203,-1.333527610903122,-2.526578966771261,6.110166895180502,1.0172336101531982,-2.648046080266134
1708436454.4539957,-2.141714572906494,-1.333531768327095,-2.5266311804400843,6.1101757166679285,1.017210841178894,-2.648062292729513
1708436454.455966,-2.1417124271392822,-1.3335275960019608,-2.526607338582174,6.110154974251547,1.017209768295288,-2.648115936909811
1708436454.4579933,-2.1417338848114014,-1.3335029196790238,-2.526583258305685,6.110220658570089,1.01723051071167,-2.6481412092791956
1708436454.460004,-2.1417641639709473,-1.3335156005671998,-2.5265985170947474,6.110133874207296,1.0172053575515747,-2.648054901753561
1708436454.4619553,-2.1417057514190674,-1.333531768327095,-2.5266030470477503,6.110171305924215,1.0172767639160156,-2.648095194493429
1708436454.4639742,-2.1417462825775146,-1.3334662181190033,-2.526644293461935,6.110216247826376,1.017160177230835,-2.6481204668628138
1708436454.465967,-2.1417384147644043,-1.3335275960019608,-2.526619259511129,6.110150563507833,1.017176866531372,-2.6481128374682825
1708436454.467972,-2.1417508125305176,-1.3334875863841553,-2.5265865961657923,6.110241043358602,1.017209768295288,-2.6480920950519007
1708436454.469958,-2.1417758464813232,-1.3335199368051072,-2.526607338582174,6.110166895180502,1.017214298248291,-2.6481247583972376
1708436454.4719758,-2.141751766204834,-1.333504081969597,-2.52663237253298,6.110223281174459,1.0172020196914673,-2.6480875650988978
1708436454.4739923,-2.1417429447174072,-1.3335155856660386,-2.526623551045553,6.110186683922567,1.0171735286712646,-2.648078743611471
1708436454.4759552,-2.1417596340179443,-1.3334756654552002,-2.526595417653219,6.110150563507833,1.0172064304351807,-2.6481040159808558
1708436454.477968,-2.1417641639709473,-1.3334748160890122,-2.526616160069601,6.110204326897421,1.017193078994751,-2.648115936909811
1708436454.4799736,-2.1417598724365234,-1.3335155856660386,-2.5266485849963587,6.110142695694723,1.0172185897827148,-2.6481085459338587
1708436454.4819427,-2.1416943073272705,-1.3335403215936203,-2.526607338582174,6.11014603355483,1.017197608947754,-2.6481292883502405
1708436454.483953,-2.1417057514190674,-1.3335233491710206,-2.526607338582174,6.110192048340597,1.017176866531372,-2.6481366793261927
1708436454.4859483,-2.141730546951294,-1.3335352700999756,-2.526591126118795,6.110144722252645,1.017209768295288,-2.648078743611471
1708436454.487951,-2.1417171955108643,-1.3335114282420655,-2.526640001927511,6.110190975456991,1.0171602964401245,-2.648127857838766
1708436454.489958,-2.141726016998291,-1.3334913414767762,-2.5266149679767054,6.110192048340597,1.0172064304351807,-2.6481204668628138
1708436454.4919493,-2.14176869392395,-1.3335284900716324,-2.5266650358783167,6.110154974251547,1.017209768295288,-2.6481085459338587
1708436454.4939725,-2.1417758464813232,-1.3335190874389191,-2.5265658537494105,6.110166895180502,1.0172064304351807,-2.648071352635519
1708436454.4959462,-2.1417553424835205,-1.3334748160890122,-2.526619259511129,6.110257375031271,1.0171689987182617,-2.6481204668628138
1708436454.4980364,-2.1417057514190674,-1.3334790778211136,-2.526604239140646,6.110174286156454,1.017193078994751,-2.648054901753561
1708436454.499957,-2.141721487045288,-1.3335071814111252,-2.5265865961657923,6.110204326897421,1.0171616077423096,-2.6480756441699427
1708436454.5019612,-2.141730546951294,-1.3334670972875138,-2.526623551045553,6.110174286156454,1.017209768295288,-2.6481366793261927
1708436454.5039432,-2.141714572906494,-1.333519072537758,-2.5266366640674036,6.110245573311605,1.017214298248291,-2.648083273564474
1708436454.5059536,-2.14178466796875,-1.333552287226059,-2.526595417653219,6.110150563507833,1.0171945095062256,-2.648071352635519
1708436454.5079877,-2.1417031288146973,-1.3334870648435135,-2.526591126118795,6.110199916153707,1.017177939414978,-2.6481412092791956
1708436454.5099862,-2.1417553424835205,-1.333491326575615,-2.526583258305685,6.110199916153707,1.0171945095062256,-2.648071352635519
1708436454.511948,-2.141780376434326,-1.3334955734065552,-2.5265823046313685,6.110178696900167,1.017209768295288,-2.6481040159808558
1708436454.5139527,-2.141747236251831,-1.333507166509964,-2.526635471974508,6.110174286156454,1.0171945095062256,-2.6481366793261927
1708436454.5159492,-2.1417384147644043,-1.3334790778211136,-2.526604239140646,6.110157954483785,1.0171812772750854,-2.648132387791769
1708436454.5179665,-2.1417384147644043,-1.3335156005671998,-2.526628080998556,6.110252964287557,1.0171557664871216,-2.648099486027853
1708436454.521109,-2.1417124271392822,-1.333504081969597,-2.526553455983297,6.11013292053298,1.0172231197357178,-2.648050371800558
1708436454.5219698,-2.1417429447174072,-1.333531768327095,-2.5266030470477503,6.110199916153707,1.0171689987182617,-2.6481204668628138
1708436454.5239847,-2.1417338848114014,-1.3334997457316895,-2.526595417653219,6.110174286156454,1.0171557664871216,-2.6481128374682825
1708436454.5259812,-2.1416897773742676,-1.333531768327095,-2.5265579859363,6.110171305924215,1.017209768295288,-2.648095194493429
1708436454.5279648,-2.141747236251831,-1.333507166509964,-2.526616160069601,6.110154974251547,1.0172230005264282,-2.6481009165393274
1708436454.529984,-2.1417508125305176,-1.3334870648435135,-2.5265701452838343,6.110199916153707,1.0172231197357178,-2.6480518023120325
1708436454.5319455,-2.1417758464813232,-1.333491326575615,-2.526640001927511,6.110166895180502,1.0171273946762085,-2.648111406956808
1708436454.5339577,-2.1417429447174072,-1.333483250146248,-2.526583258305685,6.110195386200704,1.0171856880187988,-2.6480875650988978
1708436454.5359395,-2.1417293548583984,-1.333504081969597,-2.526578966771261,6.110137331276693,1.0172556638717651,-2.6481130758868616
1708436454.5379705,-2.1417055130004883,-1.3335156005671998,-2.526590887700216,6.110220658570089,1.0171812772750854,-2.6481292883502405
1708436454.5399637,-2.1417670249938965,-1.3335071516088028,-2.5265491644488733,6.110244023590841,1.0172141790390015,-2.6480875650988978
1708436454.541952,-2.141721487045288,-1.3335233491710206,-2.5265372435199183,6.1101382849510095,1.017197608947754,-2.648099486027853
1708436454.5439649,-2.141747236251831,-1.333531768327095,-2.526607338582174,6.110162365227499,1.0172020196914673,-2.6481085459338587
1708436454.545987,-2.1417429447174072,-1.333507166509964,-2.5266311804400843,6.110150563507833,1.0172020196914673,-2.6481173674212855
1708436454.5479562,-2.141773223876953,-1.3335560274175187,-2.526640001927511,6.110213148384847,1.0172020196914673,-2.6481085459338587
1708436454.549969,-2.1417641639709473,-1.3335190874389191,-2.526566807423727,6.110178696900167,1.0171438455581665,-2.6481338183032435
1708436454.5519516,-2.1417384147644043,-1.3335560274175187,-2.52663237253298,6.110192048340597,1.0171735286712646,-2.6480875650988978
1708436454.5540197,-2.1417596340179443,-1.333531768327095,-2.526591126118795,6.11014603355483,1.01723051071167,-2.648078743611471
1708436454.5559628,-2.1417293548583984,-1.3335644465735932,-2.5266204516040247,6.110162365227499,1.0172141790390015,-2.6480756441699427
1708436454.5579453,-2.1417598724365234,-1.3334985685399552,-2.526599947606222,6.11028157451705,1.0172010660171509,-2.6480875650988978
1708436454.5599754,-2.141721487045288,-1.3334955734065552,-2.526623551045553,6.110204326897421,1.0171931982040405,-2.6480966250049036
1708436454.5619462,-2.1416964530944824,-1.3334714037230988,-2.526623551045553,6.110174286156454,1.0171887874603271,-2.6480875650988978
1708436454.5639453,-2.1417393684387207,-1.3335233342698594,-2.526616160069601,6.110211717873373,1.0172260999679565,-2.6480875650988978
1708436454.5659406,-2.1417713165283203,-1.333507166509964,-2.5266030470477503,6.110211717873373,1.017197608947754,-2.648071352635519
1708436454.5679505,-2.1417384147644043,-1.333483250146248,-2.5265865961657923,6.1102802632148645,1.0172064304351807,-2.648038450871603
1708436454.5699532,-2.141714572906494,-1.3334875863841553,-2.526628080998556,6.110195386200704,1.017209768295288,-2.6480920950519007
1708436454.5719893,-2.1416852474212646,-1.3335199368051072,-2.526623551045553,6.11018322685317,1.017176866531372,-2.6480966250049036
1708436454.5740137,-2.141751766204834,-1.333507166509964,-2.526623551045553,6.11016999462203,1.017209768295288,-2.6481040159808558
1708436454.575954,-2.1417598724365234,-1.333527610903122,-2.526607338582174,6.110214578896322,1.0172010660171509,-2.6480801741229456
1708436454.5779552,-2.1417713165283203,-1.333531768327095,-2.5265579859363,6.110203015595236,1.0172380208969116,-2.648054901753561
1708436454.5799632,-2.141730546951294,-1.3334790778211136,-2.526623551045553,6.110161053925314,1.017193078994751,-2.6481040159808558
1708436454.5819945,-2.1417508125305176,-1.3334955734065552,-2.526619259511129,6.110244023590841,1.01723051071167,-2.6480966250049036
1708436454.5839875,-2.141730546951294,-1.3334662181190033,-2.5265875498401087,6.110162365227499,1.017209768295288,-2.648066822682516
1708436454.5859866,-2.1417553424835205,-1.333539531832077,-2.5265942255603235,6.110207307129659,1.0171931982040405,-2.6480594317065638
1708436454.5879548,-2.141721487045288,-1.3335156005671998,-2.526574436818258,6.1101965782936,1.017209768295288,-2.6481040159808558
1708436454.5899603,-2.1417596340179443,-1.3334870648435135,-2.526595417653219,6.1102309105689905,1.017209768295288,-2.648083273564474
1708436454.591976,-2.141714572906494,-1.3335156005671998,-2.5265865961657923,6.110198604851522,1.0172172784805298,-2.648083035145895
1708436454.5939763,-2.1417171955108643,-1.3335114282420655,-2.526574436818258,6.110213148384847,1.0171724557876587,-2.6481671969043177
1708436454.595975,-2.141726016998291,-1.3335327071002503,-2.526628080998556,6.110190975456991,1.0172260999679565,-2.6480847040759485
1708436454.5979784,-2.1417124271392822,-1.3334748160890122,-2.526595417653219,6.110243069916525,1.0172468423843384,-2.6481040159808558
1708436454.599957,-2.141726016998291,-1.3334955734065552,-2.526611630116598,6.110165583878317,1.017214298248291,-2.6481412092791956
1708436454.6019626,-2.141721487045288,-1.333491326575615,-2.526607338582174,6.110162365227499,1.017209768295288,-2.6481085459338587
1708436454.60396,-2.1417641639709473,-1.3335114282420655,-2.526591126118795,6.110239612847128,1.0172336101531982,-2.6481085459338587
1708436454.6059377,-2.141726016998291,-1.3335071814111252,-2.526591126118795,6.110223281174459,1.0172336101531982,-2.6481040159808558
1708436454.6079507,-2.1417171955108643,-1.3334714037230988,-2.526599709187643,6.110203015595236,1.017209768295288,-2.648071352635519
1708436454.6099615,-2.14178466796875,-1.333491326575615,-2.5266485849963587,6.110223281174459,1.0172545909881592,-2.6481085459338587
1708436454.6119578,-2.1417057514190674,-1.3335147213986893,-2.526628080998556,6.110260712891378,1.01723051071167,-2.6480756441699427
1708436454.6139505,-2.141726016998291,-1.333531768327095,-2.52665621439089,6.110268342285909,1.0172468423843384,-2.6481173674212855
1708436454.6159437,-2.1417338848114014,-1.3335560274175187,-2.5266605059253138,6.1102309105689905,1.0171887874603271,-2.6481457392321985
1708436454.6179566,-2.14176869392395,-1.3335071516088028,-2.526604239140646,6.110203015595236,1.017214298248291,-2.648071352635519
1708436454.6199453,-2.1417338848114014,-1.3334790778211136,-2.526623551045553,6.110207307129659,1.0172545909881592,-2.6480563322650355
1708436454.6219754,-2.1417338848114014,-1.333507166509964,-2.526611630116598,6.110252010613241,1.0172336101531982,-2.648071352635519
1708436454.6239579,-2.141721487045288,-1.3335083437016984,-2.5266149679767054,6.110247599869528,1.0172141790390015,-2.6480637232409876
1708436454.6259499,-2.141716957092285,-1.3335083437016984,-2.52663237253298,6.110234248429098,1.0172260999679565,-2.6480875650988978
1708436454.6279955,-2.141726016998291,-1.3335479509881516,-2.526616160069601,6.110221969872274,1.0172336101531982,-2.6480801741229456
1708436454.629984,-2.1416819095611572,-1.3335156005671998,-2.526611630116598,6.110243069916525,1.0172423124313354,-2.648071352635519
1708436454.6319542,-2.1417598724365234,-1.3334594827941437,-2.526587788258688,6.110260712891378,1.0172665119171143,-2.6481040159808558
1708436454.6339474,-2.141726016998291,-1.3334748160890122,-2.5265823046313685,6.110290992050924,1.0172709226608276,-2.6480920950519007
1708436454.6359441,-2.14178466796875,-1.3334466975978394,-2.526591126118795,6.110266911774435,1.0172336101531982,-2.6480889956103724
1708436454.6379535,-2.1416943073272705,-1.3334748160890122,-2.526619259511129,6.110295522003927,1.0172054767608643,-2.6480875650988978
1708436454.6399431,-2.1417553424835205,-1.3335644465735932,-2.5266030470477503,6.11029206493453,1.017208456993103,-2.6480711142169397
1708436454.6419961,-2.1417429447174072,-1.333527610903122,-2.526616160069601,6.1103073237235925,1.017196536064148,-2.6480801741229456
1708436454.6439545,-2.141747236251831,-1.333527610903122,-2.526616160069601,6.110372769623556,1.0172590017318726,-2.6481292883502405
1708436454.6459422,-2.1417429447174072,-1.333540366297104,-2.526574436818258,6.110323655396261,1.0172172784805298,-2.6481128374682825
1708436454.647941,-2.1417384147644043,-1.333504081969597,-2.5265899340258997,6.1103073237235925,1.0172260999679565,-2.6481173674212855
1708436454.649941,-2.1417713165283203,-1.3334790778211136,-2.52663237253298,6.11032651641921,1.0172247886657715,-2.6481247583972376
1708436454.6519458,-2.1417338848114014,-1.3335233342698594,-2.526640001927511,6.110335218697347,1.0171887874603271,-2.6480801741229456
1708436454.6539536,-2.141721487045288,-1.333572195177414,-2.526583258305685,6.110347497254171,1.017242431640625,-2.648038450871603
1708436454.6559548,-2.1416943073272705,-1.3335199368051072,-2.5266149679767054,6.110346185951986,1.0171843767166138,-2.6480875650988978
1708436454.6579425,-2.1417338848114014,-1.3334827286056061,-2.5265658537494105,6.1103999493415735,1.0172260999679565,-2.6481009165393274
1708436454.6599743,-2.1417384147644043,-1.3334870648435135,-2.5265613237964075,6.110407340317526,1.0172216892242432,-2.648066822682516
1708436454.661942,-2.1417293548583984,-1.333527610903122,-2.526574436818258,6.110316502838888,1.0172380208969116,-2.6480847040759485
1708436454.6639485,-2.1417384147644043,-1.333573044543602,-2.526591126118795,6.1103505966956995,1.017208456993103,-2.6480682531939905
1708436454.6659539,-2.1417429447174072,-1.3334955734065552,-2.526562277470724,6.110411870270529,1.017196536064148,-2.6480966250049036
1708436454.6679454,-2.1417338848114014,-1.3335361194661637,-2.5265875498401087,6.11039553859786,1.0172173976898193,-2.6481128374682825
1708436454.6699467,-2.141714572906494,-1.333527610903122,-2.5265987555133265,6.1103625176246545,1.0172216892242432,-2.6481040159808558
1708436454.6719654,-2.1416940689086914,-1.3334748309901734,-2.526546065007345,6.110366928368368,1.0172665119171143,-2.6481412092791956
1708436454.6739416,-2.1417384147644043,-1.333507166509964,-2.52665621439089,6.110374676972189,1.0172336101531982,-2.648038450871603
1708436454.6759348,-2.1417641639709473,-1.3334790778211136,-2.52663237253298,6.110357987671652,1.0172260999679565,-2.6480756441699427
1708436454.6779757,-2.1417012214660645,-1.3335233491710206,-2.526627842579977,6.110353576927938,1.0171887874603271,-2.6481085459338587
1708436454.6799448,-2.1417384147644043,-1.3335156005671998,-2.5266030470477503,6.110361444741049,1.0172291994094849,-2.6480920950519007
1708436454.6820104,-2.1417124271392822,-1.333531768327095,-2.526566807423727,6.110407340317526,1.0172380208969116,-2.648066822682516
1708436454.6839473,-2.1417553424835205,-1.3335233193686982,-2.526640001927511,6.11038218715743,1.0172291994094849,-2.6481366793261927
1708436454.6859615,-2.141721487045288,-1.3334508848241349,-2.526648823414938,6.110401499062338,1.0172172784805298,-2.6481128374682825
1708436454.687974,-2.1417462825775146,-1.3335437786630173,-2.526619259511129,6.110430228501119,1.0172216892242432,-2.64805776277651
1708436454.6899629,-2.1417641639709473,-1.3334997457316895,-2.5265710989581507,6.110410439759054,1.0171843767166138,-2.6480594317065638
1708436454.691948,-2.1417641639709473,-1.3335284453681489,-2.5265985170947474,6.110450494080343,1.0172621011734009,-2.6481204668628138
1708436454.693956,-2.141716957092285,-1.3334552359632035,-2.526607338582174,6.110438930779257,1.0172545909881592,-2.6480875650988978
1708436454.6959474,-2.14178466796875,-1.3335029196790238,-2.526611630116598,6.1104668257530115,1.0172423124313354,-2.6481040159808558
1708436454.6979759,-2.14178466796875,-1.3335241985372086,-2.5265579859363,6.110430228501119,1.0172128677368164,-2.648115936909811
1708436454.6999507,-2.1417124271392822,-1.3335029196790238,-2.526607338582174,6.110454904824056,1.0172010660171509,-2.6481204668628138
1708436454.701949,-2.1417791843414307,-1.333527610903122,-2.526628080998556,6.110438930779257,1.0172336101531982,-2.6480875650988978
1708436454.7039387,-2.1417338848114014,-1.3335199368051072,-2.5266204516040247,6.110450494080343,1.0172216892242432,-2.648054901753561
1708436454.706059,-2.1417429447174072,-1.3335233491710206,-2.526574436818258,6.110462534218588,1.0172053575515747,-2.6480875650988978
1708436454.7079463,-2.1417758464813232,-1.3335437190583725,-2.526628080998556,6.110454904824056,1.0172010660171509,-2.6481457392321985
1708436454.7099516,-2.1417293548583984,-1.3334586483291169,-2.526578966771261,6.110450494080343,1.017242431640625,-2.6480875650988978
1708436454.7119493,-2.1417508125305176,-1.3335644465735932,-2.526578966771261,6.110452282219686,1.0172216892242432,-2.6480756441699427
1708436454.7139509,-2.1417622566223145,-1.333483265047409,-2.526578966771261,6.110438930779257,1.0172423124313354,-2.648054901753561
1708436454.7159526,-2.1417713165283203,-1.3334714037230988,-2.526628080998556,6.110499846726217,1.017209768295288,-2.6480920950519007
1708436454.717944,-2.1417293548583984,-1.333573044543602,-2.526578966771261,6.110474812775411,1.0172216892242432,-2.648083273564474
1708436454.7199578,-2.1417293548583984,-1.333507166509964,-2.5265710989581507,6.110458123474874,1.0172290802001953,-2.6481338183032435
1708436454.721963,-2.1417622566223145,-1.3334338676980515,-2.5265865961657923,6.110450494080343,1.0172336101531982,-2.6481366793261927
1708436454.7239707,-2.1417622566223145,-1.333491326575615,-2.526611630116598,6.110434520035543,1.017209768295288,-2.6480801741229456
1708436454.725942,-2.1417622566223145,-1.3335156005671998,-2.5265701452838343,6.110446202545919,1.0172665119171143,-2.6481247583972376
1708436454.7279444,-2.1417124271392822,-1.3334706288627167,-2.526591126118795,6.1104328511054895,1.0172590017318726,-2.6480429808246058
1708436454.729947,-2.1417791843414307,-1.333491326575615,-2.526628080998556,6.110430228501119,1.017175555229187,-2.6481626669513147
1708436454.7319481,-2.1417713165283203,-1.333539531832077,-2.526562277470724,6.110471355706014,1.0172291994094849,-2.648099486027853
1708436454.733982,-2.1417338848114014,-1.3335479509881516,-2.5265942255603235,6.110430228501119,1.0172336101531982,-2.6481085459338587
1708436454.7359316,-2.1417667865753174,-1.333519921903946,-2.526595417653219,6.110486614495077,1.0172216892242432,-2.6481085459338587
1708436454.7379742,-2.1417622566223145,-1.333491326575615,-2.526611630116598,6.110413896828451,1.0172336101531982,-2.6481204668628138
1708436454.7399588,-2.1417293548583984,-1.333536149268486,-2.5266531149493616,6.110483515053549,1.0172380208969116,-2.6480920950519007
1708436454.742022,-2.1417596340179443,-1.3335029196790238,-2.526623551045553,6.110437261849203,1.0172291994094849,-2.6480920950519007
1708436454.7439446,-2.1417622566223145,-1.3334997755340119,-2.5265865961657923,6.110498535424032,1.0172291994094849,-2.6480875650988978
1708436454.7459867,-2.1417622566223145,-1.3334628951600571,-2.526644293461935,6.110465872078695,1.0172576904296875,-2.648095194493429
1708436454.7479522,-2.1417577266693115,-1.3335114133409043,-2.5265710989581507,6.110428440361776,1.0172336101531982,-2.648115936909811
1708436454.7499459,-2.1417577266693115,-1.3334748160890122,-2.526562277470724,6.110474812775411,1.0172590017318726,-2.648083273564474
1708436454.7520006,-2.1417622566223145,-1.333507166509964,-2.526583258305685,6.110434520035543,1.017209768295288,-2.6480727831469935
1708436454.75396,-2.1417622566223145,-1.3335199368051072,-2.526583258305685,6.110444772034445,1.017209768295288,-2.6481011549579065
1708436454.7559395,-2.1417577266693115,-1.3335029196790238,-2.526562277470724,6.1104822037513635,1.0172172784805298,-2.648029867802755
1708436454.7579544,-2.1417746543884277,-1.333527610903122,-2.526611630116598,6.11049114444808,1.017209768295288,-2.6481366793261927
1708436454.759947,-2.1417791843414307,-1.3334997457316895,-2.526604239140646,6.110465872078695,1.017209768295288,-2.6480875650988978
1708436454.7619774,-2.1417462825775146,-1.3335764569095154,-2.526525322590963,6.110465872078695,1.017196536064148,-2.6480756441699427
1708436454.7639432,-2.1417489051818848,-1.3335156005671998,-2.526599709187643,6.110461461334982,1.0172545909881592,-2.6481040159808558
1708436454.7659528,-2.1417791843414307,-1.3334956181100388,-2.5266204516040247,6.110465872078695,1.0172010660171509,-2.648038450871603
1708436454.7679589,-2.1417667865753174,-1.3334628951600571,-2.526599709187643,6.110523807793417,1.0172010660171509,-2.6481247583972376
1708436454.7699504,-2.1417791843414307,-1.3335029196790238,-2.5265536944018763,6.110428440361776,1.0172290802001953,-2.6481204668628138
1708436454.771939,-2.1418118476867676,-1.3335479509881516,-2.526611630116598,6.110495555191793,1.017209768295288,-2.6481173674212855
1708436454.77396,-2.1417746543884277,-1.3334955734065552,-2.526611630116598,6.11047779300765,1.0172423124313354,-2.6481173674212855
1708436454.7759318,-2.1417531967163086,-1.333527610903122,-2.526591126118795,6.110506045609274,1.0172290802001953,-2.6481099764453333
1708436454.7779655,-2.141787052154541,-1.3335114282420655,-2.5265920797931116,6.110461461334982,1.0171799659729004,-2.648054901753561
1708436454.7799637,-2.1417489051818848,-1.3334748160890122,-2.5265579859363,6.110461461334982,1.0171725749969482,-2.6481040159808558
1708436454.7819438,-2.141803026199341,-1.3335317534259339,-2.5266085306750696,6.1105148670967,1.0172009468078613,-2.648127857838766
1708436454.783976,-2.1417489051818848,-1.3335643422654648,-2.526644293461935,6.1104644415672205,1.0172423124313354,-2.6480920950519007
1708436454.7859447,-2.141803026199341,-1.333483250146248,-2.526604239140646,6.110501515656271,1.017209768295288,-2.6481085459338587
1708436454.787934,-2.1418118476867676,-1.333507166509964,-2.5266366640674036,6.110480773239889,1.0172009468078613,-2.6480966250049036
1708436454.789935,-2.1417958736419678,-1.333504081969597,-2.5266204516040247,6.1105148670967,1.01723051071167,-2.6481500307666224
1708436454.791962,-2.1417791843414307,-1.333491326575615,-2.5265875498401087,6.110494124680319,1.0172501802444458,-2.648066822682516
1708436454.793968,-2.1417489051818848,-1.333467112188675,-2.5265579859363,6.110522734909811,1.0172423124313354,-2.648054901753561
1708436454.795944,-2.1417791843414307,-1.3334955883077164,-2.526578966771261,6.110539066582479,1.0172468423843384,-2.6480594317065638
1708436454.7979605,-2.141770124435425,-1.3335029196790238,-2.5265753904925745,6.110611903458395,1.0172468423843384,-2.6480875650988978
1708436454.7999618,-2.141787052154541,-1.3334748160890122,-2.526607338582174,6.110561477928915,1.0171843767166138,-2.648054901753561
1708436454.8019495,-2.141787052154541,-1.3335233193686982,-2.526591126118795,6.110610830574789,1.017209768295288,-2.6480966250049036
1708436454.8039675,-2.141826868057251,-1.333535225396492,-2.5266030470477503,6.110598552017965,1.0172053575515747,-2.6480920950519007
1708436454.8059518,-2.1417534351348877,-1.333507166509964,-2.5265710989581507,6.110568868904867,1.0172590017318726,-2.648071352635519
1708436454.807951,-2.1417782306671143,-1.3335233491710206,-2.526599709187643,6.110625731735983,1.017209768295288,-2.6480889956103724
1708436454.8099632,-2.141791582107544,-1.333491863017418,-2.526583258305685,6.110655414849081,1.0172010660171509,-2.6481128374682825
1708436454.8119469,-2.141791582107544,-1.3335361194661637,-2.5265372435199183,6.1106464741523645,1.0172172784805298,-2.6480699221240442
1708436454.8139734,-2.141770124435425,-1.3335114431432267,-2.5266030470477503,6.110622751503744,1.0172216892242432,-2.648015562688009
1708436454.8159556,-2.1418118476867676,-1.3334955734065552,-2.5265710989581507,6.110642063408651,1.017197608947754,-2.648033682500021
1708436454.817949,-2.141803026199341,-1.333552287226059,-2.5265920797931116,6.110613810807028,1.017214298248291,-2.647942129765646
1708436454.8199563,-2.1418187618255615,-1.3335199517062684,-2.526616160069601,6.110585200577535,1.0171812772750854,-2.6479221026050013
1708436454.8219538,-2.141761302947998,-1.3335233640721817,-2.5266366640674036,6.110650884896078,1.0171887874603271,-2.647944513951437
1708436454.823979,-2.1418144702911377,-1.333539531832077,-2.5265710989581507,6.110621320992269,1.0172468423843384,-2.64793569246401
1708436454.825964,-2.141770124435425,-1.3335114282420655,-2.526566807423727,6.110667574196615,1.0172053575515747,-2.6478472391711634
1708436454.8279457,-2.1418099403381348,-1.3335156005671998,-2.526599709187643,6.110630142479696,1.0171680450439453,-2.6478970686541956
1708436454.8299546,-2.141803026199341,-1.3334912967732926,-2.5265799204455774,6.110613810807028,1.0172053575515747,-2.6478353182422083
1708436454.8319461,-2.1417958736419678,-1.3335083437016984,-2.5265710989581507,6.110621320992269,1.0172423124313354,-2.647783342991964
1708436454.8339484,-2.1418278217315674,-1.3335241836360474,-2.5265613237964075,6.110613810807028,1.0171931982040405,-2.6477626005755823
1708436454.8359466,-2.141770124435425,-1.333527610903122,-2.5265710989581507,6.110555636673727,1.017209768295288,-2.647789541875021
1708436454.8379757,-2.1417782306671143,-1.3334748160890122,-2.5265920797931116,6.1106018898780725,1.0172010660171509,-2.647776190434591
1708436454.8399527,-2.141791582107544,-1.3335114133409043,-2.526562277470724,6.110639083176412,1.0172260999679565,-2.647728506718771
1708436454.841944,-2.1417737007141113,-1.3335242134383698,-2.526554886494772,6.1106018898780725,1.0172141790390015,-2.6476550737964075
1708436454.8439426,-2.1418099403381348,-1.3334870648435135,-2.5265579859363,6.110620009690084,1.0172216892242432,-2.6476476828204554
1708436454.8459435,-2.141791343688965,-1.3335275811007996,-2.5265536944018763,6.110593068390646,1.0171887874603271,-2.6476402918445032
1708436454.8479612,-2.1418356895446777,-1.333527610903122,-2.5265753904925745,6.110625731735983,1.0172260999679565,-2.647554937993185
1708436454.8499491,-2.141777992248535,-1.3334790778211136,-2.5266249815570276,6.110636102944174,1.0172053575515747,-2.6475303808795374
1708436454.8519428,-2.141822338104248,-1.3334509593299408,-2.526604239140646,6.110674726753988,1.0172020196914673,-2.647498671208517
1708436454.853948,-2.1418187618255615,-1.333474875693657,-2.526628080998556,6.110593068390646,1.0171931982040405,-2.6474748293506067
1708436454.8559582,-2.141761302947998,-1.3335559678128739,-2.52663237253298,6.110576379090109,1.017209768295288,-2.6474390665637415
1708436454.8579996,-2.1417737007141113,-1.333527610903122,-2.5265875498401087,6.110639083176412,1.017193078994751,-2.6474161783801478
1708436454.859966,-2.141855239868164,-1.333491326575615,-2.5266249815570276,6.1106464741523645,1.017209768295288,-2.647350851689474
1708436454.8619583,-2.1418232917785645,-1.3334870648435135,-2.526578966771261,6.110594141274252,1.017214298248291,-2.647278372441427
1708436454.8639514,-2.1417782306671143,-1.3335233491710206,-2.526607338582174,6.110606419831075,1.0171856880187988,-2.6472135225879114
1708436454.8659701,-2.1417431831359863,-1.3335147512010117,-2.526604239140646,6.110551225930013,1.017197608947754,-2.647158686314718
1708436454.8679454,-2.141826868057251,-1.3334790480187912,-2.526583258305685,6.110618221550741,1.0172010660171509,-2.6470769087420862
1708436454.869945,-2.141796588897705,-1.333514781003334,-2.526595417653219,6.110593068390646,1.017197608947754,-2.646991793309347
1708436454.8719468,-2.1418099403381348,-1.3335644018701096,-2.5265875498401087,6.110618221550741,1.017209768295288,-2.646954600011007
1708436454.873943,-2.141826868057251,-1.333514781003334,-2.526562277470724,6.110618221550741,1.0172020196914673,-2.646848503743307
1708436454.8759563,-2.141831398010254,-1.3335687083056946,-2.526583258305685,6.110588657646932,1.0171573162078857,-2.646736447011129
1708436454.8779595,-2.141846179962158,-1.3335403215936203,-2.5265536944018763,6.110576379090109,1.0171902179718018,-2.6466057936297815
1708436454.8799405,-2.1418356895446777,-1.3334956181100388,-2.526562277470724,6.110625731735983,1.0171735286712646,-2.646596972142355
1708436454.8819475,-2.1418144702911377,-1.3335352402976532,-2.526554886494772,6.110593068390646,1.0172185897827148,-2.6464646498309534
1708436454.88398,-2.1418190002441406,-1.333487094645836,-2.526623551045553,6.110634553223409,1.017209768295288,-2.6463564077960413
1708436454.8859859,-2.1418099403381348,-1.3334955883077164,-2.526583258305685,6.110585200577535,1.017160177230835,-2.6462414900409144
1708436454.8879526,-2.141782522201538,-1.3335233342698594,-2.526595417653219,6.110618221550741,1.017237901687622,-2.646078888569967
1708436454.8899617,-2.1418347358703613,-1.333487094645836,-2.526604239140646,6.110663163452902,1.0171724557876587,-2.6459720770465296
1708436454.891949,-2.1417737007141113,-1.3334913414767762,-2.526607338582174,6.110613810807028,1.0172141790390015,-2.6458149592029017
1708436454.8939693,-2.1418356895446777,-1.3334913414767762,-2.5265536944018763,6.110576379090109,1.0171931982040405,-2.6456761995898646
1708436454.8959758,-2.1418099403381348,-1.3335437339595337,-2.526616160069601,6.110580789833822,1.0172064304351807,-2.6455350557910364
1708436454.8979535,-2.141831398010254,-1.3335275960019608,-2.526554886494772,6.110594141274252,1.0172053575515747,-2.6454158465014856
1708436454.899964,-2.1417782306671143,-1.33347141862426,-2.5266204516040247,6.110618221550741,1.017209768295288,-2.6451976935016077
1708436454.9019606,-2.141789674758911,-1.333547444348671,-2.5265579859363,6.110606419831075,1.017209768295288,-2.645074192677633
1708436454.903953,-2.1418302059173584,-1.3334986132434388,-2.526566807423727,6.1106018898780725,1.0172185897827148,-2.6449149290667933
1708436454.9059587,-2.141826868057251,-1.3334913563779374,-2.5265875498401087,6.110603081970968,1.0171767473220825,-2.644714419041769
1708436454.9079576,-2.1418356895446777,-1.3335114431432267,-2.526616160069601,6.110564458161154,1.0172423124313354,-2.6444762388812464
1708436454.909955,-2.141831159591675,-1.3335764420083542,-2.526623551045553,6.110585200577535,1.0172216892242432,-2.644342009221212
1708436454.9119568,-2.141782522201538,-1.3335309487632294,-2.526604239140646,6.110588657646932,1.0172260999679565,-2.644076649342672
1708436454.913973,-2.1418099403381348,-1.3335479211858292,-2.5266085306750696,6.110622751503744,1.01723051071167,-2.6439080874072474
1708436454.9159503,-2.141785144805908,-1.3334662777236481,-2.526566807423727,6.110577809601583,1.0171680450439453,-2.643705431615011
1708436454.9179564,-2.1417737007141113,-1.3335275960019608,-2.526628080998556,6.110565888672628,1.0172053575515747,-2.643438164387838
1708436454.9199438,-2.141801118850708,-1.3334955883077164,-2.526529852543966,6.110571849137106,1.0172260999679565,-2.643276039754049
1708436454.9219553,-2.141787052154541,-1.3335431826165696,-2.526578728352682,6.110533225327291,1.0171798467636108,-2.643039051686422
1708436454.923988,-2.141805410385132,-1.3334544760039826,-2.526599709187643,6.110561477928915,1.0172053575515747,-2.6428077856646937
1708436454.925976,-2.141789674758911,-1.3335275960019608,-2.526595417653219,6.110594141274252,1.017209768295288,-2.642543617879049
1708436454.9279537,-2.141785144805908,-1.3335317534259339,-2.526635471974508,6.110561477928915,1.0172590017318726,-2.6422579924212855
1708436454.9299595,-2.141782522201538,-1.3334955883077164,-2.526595417653219,6.110577809601583,1.0172216892242432,-2.642000738774435
1708436454.9319477,-2.1418118476867676,-1.3335191023400803,-2.526591126118795,6.110607373505392,1.017242431640625,-2.6417084375964563
1708436454.9339435,-2.141782522201538,-1.333580569630005,-2.526607338582174,6.110537755280294,1.0172172784805298,-2.641460959111349
1708436454.9359396,-2.1418099403381348,-1.333514781003334,-2.526623551045553,6.110497104912557,1.0172876119613647,-2.641144339238302
1708436454.9379356,-2.1418099403381348,-1.3335395169309159,-2.526595417653219,6.110528814583578,1.0172786712646484,-2.640865151082174
1708436454.9399683,-2.1418099403381348,-1.3334913414767762,-2.52663237253298,6.11052571514205,1.0172576904296875,-2.640527311955587
1708436454.9419463,-2.141831398010254,-1.3335191321424027,-2.5266366640674036,6.110542046814718,1.0172576904296875,-2.6402159372912806
1708436454.9439476,-2.141831398010254,-1.3335840863040467,-2.526623551045553,6.110444772034445,1.0172654390335083,-2.6398258844958704
1708436454.945956,-2.1418144702911377,-1.333483265047409,-2.52663237253298,6.110441791802206,1.0172324180603027,-2.6394856611834925
1708436454.9479427,-2.141756772994995,-1.3334955734065552,-2.526574436818258,6.110413777619161,1.017317771911621,-2.6390607992755335
1708436454.9499369,-2.141782522201538,-1.3335155856660386,-2.526595417653219,6.110459434777059,1.017317771911621,-2.638676468526022
1708436454.951948,-2.141796112060547,-1.3335062873414536,-2.526574436818258,6.1103941080863855,1.0173133611679077,-2.638324801121847
1708436454.953963,-2.141787052154541,-1.3335114282420655,-2.526635471974508,6.110435950547018,1.0173511505126953,-2.6379032770739954
1708436454.9559677,-2.141798496246338,-1.3335071814111252,-2.526651922856466,6.110402929573812,1.017370343208313,-2.6374860445605677
1708436454.957961,-2.1417782306671143,-1.3335559976151963,-2.526619259511129,6.110374676972189,1.0173420906066895,-2.6370325724231165
1708436454.9599457,-2.141803026199341,-1.3335403215936203,-2.526599709187643,6.1103447554405115,1.0173615217208862,-2.636625353490011
1708436454.9619555,-2.1417746543884277,-1.3335275960019608,-2.526619259511129,6.110349166184225,1.0173778533935547,-2.6361761728869837
1708436454.9639685,-2.1417489051818848,-1.333519072537758,-2.526639763508932,6.110366928368368,1.0173496007919312,-2.6357653776751917
1708436454.9659438,-2.1418118476867676,-1.3335191023400803,-2.526607338582174,6.1103505966956995,1.0174063444137573,-2.6353047529803675
1708436454.9679308,-2.141798496246338,-1.3334955883077164,-2.5266431013690394,6.110355007439413,1.0174063444137573,-2.6347530523883265
1708436454.969938,-2.1417791843414307,-1.3335233491710206,-2.526644293461935,6.110347497254171,1.0174185037612915,-2.634366814290182
1708436454.971932,-2.1418075561523438,-1.333502934580185,-2.526635471974508,6.11032651641921,1.0174229145050049,-2.6338496843921106
1708436454.9739363,-2.1417791843414307,-1.333551750784256,-2.5266595522509974,6.110321986466207,1.0174306631088257,-2.6333933512317103
1708436454.9759297,-2.141787052154541,-1.3335114282420655,-2.526647392903463,6.110261189728536,1.0174096822738647,-2.6329227129565638
1708436454.9779441,-2.1418118476867676,-1.3335479211858292,-2.5266605059253138,6.110271322518148,1.0174381732940674,-2.632376257573263
1708436454.9799469,-2.1417417526245117,-1.3335275960019608,-2.5266149679767054,6.11024163940505,1.017466425895691,-2.631815258656637
1708436454.9819467,-2.1417713165283203,-1.3335267019322892,-2.5266431013690394,6.1102298376853845,1.017478585243225,-2.6312206427203577
1708436454.9839299,-2.1417837142944336,-1.3335114282420655,-2.526663843785421,6.110207307129659,1.0175026655197144,-2.6306853930102747
1708436454.985934,-2.1417508125305176,-1.3334748607924958,-2.5266714731799524,6.110141622811117,1.0174697637557983,-2.630066458378927
1708436454.987945,-2.1417293548583984,-1.3335517358830948,-2.526680294667379,6.110171305924215,1.017543077468872,-2.629512373601095
1708436454.9899437,-2.1417758464813232,-1.3335721653750916,-2.5266595522509974,6.110114562302389,1.0175342559814453,-2.628886047993795
1708436454.9919586,-2.141721487045288,-1.3334913414767762,-2.5266431013690394,6.110081898957052,1.0175505876541138,-2.6283369700061243
1708436454.9939475,-2.1417596340179443,-1.333502934580185,-2.5266924540149134,6.110127794533529,1.0175583362579346,-2.6276419798480433
1708436454.9959326,-2.1416728496551514,-1.3334955883077164,-2.5267086664782923,6.110130893975057,1.0176030397415161,-2.6270459334002894
1708436454.997943,-2.1416943073272705,-1.3335191023400803,-2.5266836325274866,6.110078799515524,1.0176153182983398,-2.6263728777514856
1708436454.9999502,-2.1416943073272705,-1.3335437637618561,-2.5267205874072474,6.110039698868551,1.0176513195037842,-2.6256211439715784
1708436455.0019493,-2.1417486667633057,-1.3335105341723938,-2.526691261922018,6.1100114462669275,1.0176095962524414,-2.6249495188342493
1708436455.0039582,-2.141732692718506,-1.3334986132434388,-2.526723925267355,6.110032188683309,1.0176546573638916,-2.624284092579977
1708436455.0059412,-2.141686201095581,-1.3335431826165696,-2.526764456425802,6.110023367195883,1.01767098903656,-2.623509947453634
1708436455.0079665,-2.1417043209075928,-1.3335395169309159,-2.526776377354757,6.109975802689352,1.0176740884780884,-2.622831408177511
1708436455.0099554,-2.141596555709839,-1.3335309487632294,-2.526752297078268,6.109890329628744,1.0177236795425415,-2.6221962610827845
1708436455.0119526,-2.1416847705841064,-1.3335267019322892,-2.526792589818136,6.109915482788839,1.0176984071731567,-2.621331755314962
1708436455.013952,-2.14164662361145,-1.3335309487632294,-2.5268033186541956,6.1099257347877405,1.0177639722824097,-2.620622698460714
1708436455.015943,-2.1416280269622803,-1.3334943664124985,-2.526815954838888,6.109863507538595,1.0177881717681885,-2.619812313710348
1708436455.0179737,-2.1415650844573975,-1.3335267019322892,-2.526820246373312,6.109811055451193,1.0177881717681885,-2.6190033594714563
1708436455.0199683,-2.141540050506592,-1.3335071814111252,-2.526856009160177,6.109844076424398,1.0178033113479614,-2.6181581656085413
1708436455.0219526,-2.141578435897827,-1.3335275960019608,-2.5267770926104944,6.109803545265951,1.0178314447402954,-2.6173649469958704
1708436455.0239844,-2.1415839195251465,-1.3334955883077164,-2.526851479207174,6.10975872257308,1.0178183317184448,-2.6164751688586634
1708436455.0259628,-2.1415750980377197,-1.3335275811007996,-2.5268548170672815,6.109760510712423,1.017842411994934,-2.615692440663473
1708436455.027983,-2.141530752182007,-1.3335479211858292,-2.5268502871142786,6.109745132714071,1.0178709030151367,-2.6149001757251185
1708436455.029941,-2.1415467262268066,-1.3335275960019608,-2.5268951098071497,6.109737622528829,1.017944574356079,-2.614075247441427
1708436455.0319486,-2.1414742469787598,-1.3335431826165696,-2.526914660130636,6.10968970039443,1.0179024934768677,-2.613253418599264
1708436455.0339727,-2.1414945125579834,-1.3335559976151963,-2.526951853428976,6.1096733687217615,1.0179756879806519,-2.6123676935779017
1708436455.0359454,-2.141446828842163,-1.3335309487632294,-2.526980225239889,6.109616863518514,1.0179835557937622,-2.6115286985980433
1708436455.0379703,-2.14145827293396,-1.3335105341723938,-2.52702504793276,6.109625685005941,1.018003225326538,-2.6105762163745325
1708436455.0399435,-2.141435384750366,-1.3335352700999756,-2.527008835469381,6.1095852730567834,1.0179821252822876,-2.6097586790667933
1708436455.0419374,-2.141406297683716,-1.3335764122060318,-2.5269911924945276,6.109528887062826,1.0180598497390747,-2.608839813862936
1708436455.0439954,-2.1414151191711426,-1.3335602444461365,-2.527039353047506,6.109480845719137,1.0180392265319824,-2.6079958120929163
1708436455.0459342,-2.1414217948913574,-1.3335233342698594,-2.527018133793966,6.10944031456069,1.0181291103363037,-2.6070454756366175
1708436455.0479503,-2.141383409500122,-1.3335559976151963,-2.5270708242999476,6.109417903214254,1.0181070566177368,-2.6061697641955774
1708436455.0499396,-2.141310930252075,-1.3334913414767762,-2.527079407368795,6.109369981079855,1.0181607007980347,-2.605227533970968
1708436455.0519414,-2.1413118839263916,-1.3335602444461365,-2.5271154085742396,6.109346139221945,1.0181430578231812,-2.604217831288473
1708436455.0539622,-2.1412994861602783,-1.333470643763878,-2.5271926561938685,6.109264123230734,1.0181834697723389,-2.6033106485949915
1708436455.0559747,-2.141247272491455,-1.3335275960019608,-2.527114216481344,6.1092402813728235,1.0182571411132812,-2.6023150126086634
1708436455.0579767,-2.141249418258667,-1.3335071814111252,-2.5271666685687464,6.109205710678854,1.018227219581604,-2.601405445729391
1708436455.0599654,-2.1411712169647217,-1.3335967373899003,-2.5272322336779993,6.109189379006185,1.0182228088378906,-2.600379530583517
1708436455.061975,-2.1411430835723877,-1.3335644018701096,-2.5272603670703333,6.109141337662496,1.0183172225952148,-2.5994136969195765
1708436455.0639548,-2.141131639480591,-1.3335721802762528,-2.5272722879992884,6.109069812088766,1.0183277130126953,-2.598482672368185
1708436455.0659525,-2.1410794258117676,-1.333551750784256,-2.527238670979635,6.109041321068563,1.0183606147766113,-2.597405497227804
1708436455.0679529,-2.141080379486084,-1.3334986132434388,-2.527250353490011,6.108981478005209,1.0184043645858765,-2.5963807741748255
1708436455.069984,-2.1410679817199707,-1.3335233491710206,-2.5273399988757532,6.108984219818868,1.0184118747711182,-2.5953920523272913
1708436455.0719512,-2.1409952640533447,-1.3335156601718445,-2.5273521582232874,6.108890282898702,1.0184766054153442,-2.594353262578146
1708436455.0740345,-2.1409831047058105,-1.3335473996451874,-2.5273478666888636,6.108814227371969,1.0184870958328247,-2.593271319066183
1708436455.07594,-2.1409974098205566,-1.3335559976151963,-2.527383867894308,6.108824360161581,1.018581509590149,-2.5921929518329065
1708436455.077946,-2.1409037113189697,-1.3334955883077164,-2.5273333231555384,6.108751642494955,1.0186045169830322,-2.5910590330706995
1708436455.0799668,-2.1408886909484863,-1.3335438084653397,-2.5274363199817103,6.108690249710836,1.0186446905136108,-2.5899532477008265
1708436455.0819883,-2.14084792137146,-1.3335275960019608,-2.5274720827685755,6.1086675999458215,1.0186645984649658,-2.5889175573932093
1708436455.0839553,-2.14078688621521,-1.33353607476268,-2.5275002161609095,6.1086110947425745,1.0187498331069946,-2.587712828313009
1708436455.0859494,-2.1407721042633057,-1.3335105341723938,-2.52751595178713,6.10854338386611,1.0187740325927734,-2.5865259806262415
1708436455.0879958,-2.1407854557037354,-1.3335479211858292,-2.5274909178363245,6.108558046608724,1.0187474489212036,-2.5854249636279505
1708436455.0899706,-2.1406590938568115,-1.3335317832282563,-2.5275352636920374,6.108395802765646,1.01884925365448,-2.5842486063586634
1708436455.091963,-2.140702486038208,-1.3335029196790238,-2.5275548140155237,6.108397114067831,1.018861174583435,-2.5831194559680384
1708436455.0939705,-2.140648126602173,-1.3335317534259339,-2.5276368300067347,6.108344781189718,1.0189212560653687,-2.581923786793844
1708436455.0959728,-2.1406209468841553,-1.3334985834411164,-2.5276148954974573,6.108240234642782,1.0189615488052368,-2.5807929674731653
1708436455.0979338,-2.140573263168335,-1.3335114282420655,-2.5276923815356653,6.108138906746664,1.018977165222168,-2.5796619097339075
1708436455.099944,-2.1404998302459717,-1.333514781003334,-2.527663056050436,6.10817431190566,1.0190834999084473,-2.5784879366504114
1708436455.1019397,-2.140450954437256,-1.3335155856660386,-2.527670685444967,6.1080819247062585,1.0191102027893066,-2.577280346547262
1708436455.103973,-2.1404690742492676,-1.3334662181190033,-2.527703110371725,6.108008253365316,1.0191632509231567,-2.5761500040637415
1708436455.1059334,-2.1403884887695312,-1.3335156005671998,-2.5277631918536585,6.107982623368063,1.0191693305969238,-2.574885431920187
1708436455.1079469,-2.140315294265747,-1.3335361194661637,-2.5277426878558558,6.1079022763069055,1.019245982170105,-2.5736501852618616
1708436455.109957,-2.1403191089630127,-1.3334913414767762,-2.527823273335592,6.107802259712972,1.0193355083465576,-2.572378222142355
1708436455.1119666,-2.1402828693389893,-1.3334629398635407,-2.5278409163104456,6.107697832375326,1.0193378925323486,-2.5711777845965784
1708436455.1139743,-2.140235424041748,-1.333504081969597,-2.527921501790182,6.107682454376974,1.0194472074508667,-2.569951597844259
1708436455.1159503,-2.140214681625366,-1.3334748607924958,-2.527820889149801,6.107561695366659,1.0194954872131348,-2.568756167088644
1708436455.1180346,-2.140125274658203,-1.3335233491710206,-2.527874771748678,6.107559788018026,1.0195181369781494,-2.567397419606344
1708436455.1199439,-2.140110492706299,-1.333531768327095,-2.527947489415304,6.107414829521932,1.0195869207382202,-2.56612211862673
1708436455.1219823,-2.140024423599243,-1.333515615468361,-2.5279510656939905,6.107422339707174,1.019687533378601,-2.5647972265826624
1708436455.1239767,-2.139976978302002,-1.333540366297104,-2.527954165135519,6.107235538750448,1.0197434425354004,-2.563453499470846
1708436455.1259406,-2.139908790588379,-1.3335083437016984,-2.5280566851245325,6.107159602433004,1.019836187362671,-2.562117878590719
1708436455.1279788,-2.139840841293335,-1.3335156005671998,-2.528076473866598,6.1071427939231775,1.0198636054992676,-2.5606873671161097
1708436455.129995,-2.139784336090088,-1.3334390980056305,-2.5281079451190394,6.107005345612325,1.0199522972106934,-2.5593326727496546
1708436455.1319687,-2.1397836208343506,-1.3335242134383698,-2.5281265417682093,6.106912839203634,1.0200245380401611,-2.557998243962423
1708436455.1339805,-2.1396775245666504,-1.3334629398635407,-2.5281220118152063,6.1068869707878015,1.0200469493865967,-2.556634012852804
1708436455.1359353,-2.13965106010437,-1.3334629398635407,-2.5281909147845667,6.106714117317953,1.0201687812805176,-2.5551863352404993
1708436455.1379805,-2.139577865600586,-1.3334594827941437,-2.528250757847921,6.106665837555685,1.0202033519744873,-2.55380088487734
1708436455.13998,-2.1395673751831055,-1.3334913414767762,-2.5282629171954554,6.106525647431173,1.020301103591919,-2.5523441473590296
1708436455.141944,-2.1395046710968018,-1.333459497695305,-2.5283029715167444,6.106446373253622,1.0203851461410522,-2.5509498755084437
1708436455.1439488,-2.1393611431121826,-1.3334670674851914,-2.528355423604147,6.106355297356405,1.0204812288284302,-2.54948336282839
1708436455.1459434,-2.139359712600708,-1.3334756803563614,-2.5284038225757044,6.106279241829672,1.0205367803573608,-2.5480390230761927
1708436455.147951,-2.1392462253570557,-1.33351685226474,-2.528479878102438,6.10619209983901,1.020596981048584,-2.5466252009021204
1708436455.149951,-2.139256238937378,-1.3334955734065552,-2.528503958378927,6.106129157334127,1.0206886529922485,-2.5452407042132776
1708436455.1519558,-2.1392006874084473,-1.3335003566792984,-2.5285115877734583,6.1059841988380334,1.0207772254943848,-2.5438559691058558
1708436455.1539943,-2.1390469074249268,-1.333483250146248,-2.528587881718771,6.1058841822441,1.020833134651184,-2.5424683729754847
1708436455.1559508,-2.1390488147735596,-1.333459497695305,-2.528619114552633,6.1057318327720544,1.0209218263626099,-2.5409467856036585
1708436455.1579516,-2.1389389038085938,-1.333463729625084,-2.528646771107809,6.1056556580360315,1.021030068397522,-2.539567534123556
1708436455.159968,-2.1388700008392334,-1.3335199517062684,-2.5287612120257776,6.105512130051412,1.021127462387085,-2.5381057898150843
1708436455.1619918,-2.1388332843780518,-1.3334637445262452,-2.528809372578756,6.105389582901754,1.021169900894165,-2.5366840998279017
1708436455.1639512,-2.138754367828369,-1.3334320050529023,-2.528843943272726,6.10531901100234,1.0212987661361694,-2.535146776829855
1708436455.166025,-2.1387131214141846,-1.333419145350792,-2.5288339296924036,6.105183231621542,1.0214126110076904,-2.5336650053607386
1708436455.1679487,-2.1386404037475586,-1.333419145350792,-2.528919045125143,6.105108368187704,1.0215119123458862,-2.532177988682882
1708436455.1699672,-2.1385316848754883,-1.333463729625084,-2.52899676958193,6.104902612953939,1.0216050148010254,-2.5307520071612757
1708436455.1719558,-2.138540744781494,-1.3334353280118485,-2.5290361086474817,6.104773986130514,1.021664023399353,-2.5292041937457483
1708436455.173957,-2.1384499073028564,-1.3334072691253205,-2.529088083897726,6.104688632279196,1.0217598676681519,-2.52771503130068
1708436455.175983,-2.1383986473083496,-1.333450810318329,-2.5291038195239466,6.104571926384725,1.0218520164489746,-2.5261524359332483
1708436455.1779442,-2.1383111476898193,-1.333407313828804,-2.5291670004474085,6.1044702408607385,1.0219612121582031,-2.524611775075094
1708436455.1799462,-2.138274908065796,-1.33345182359729,-2.52919847169985,6.10437427738265,1.0220602750778198,-2.5229817072497767
1708436455.1819663,-2.1381890773773193,-1.3334277284196396,-2.5292955080615442,6.104192364006796,1.0221238136291504,-2.521484438573019
1708436455.183953,-2.1381478309631348,-1.333439664249756,-2.5293155352221888,6.104171263962545,1.0223190784454346,-2.5198517481433313
1708436455.1859403,-2.138033628463745,-1.333439679150917,-2.5293784777270716,6.103978383332052,1.0223733186721802,-2.518302027379171
1708436455.1879401,-2.137957811355591,-1.333439664249756,-2.529447380696432,6.103846776276388,1.0224770307540894,-2.5167728106128138
1708436455.1899462,-2.137895107269287,-1.3334353280118485,-2.5294876734363,6.103792655258932,1.0226061344146729,-2.515224281941549
1708436455.1919682,-2.1378395557403564,-1.333439664249756,-2.5295584837542933,6.103570568352499,1.0227067470550537,-2.513754431401388
1708436455.1939733,-2.1377484798431396,-1.3334523451379319,-2.5296390692340296,6.1035042879875085,1.0227818489074707,-2.5122042338000696
1708436455.1959672,-2.13765549659729,-1.3334234815886994,-2.529687229787008,6.103362428932943,1.0228816270828247,-2.5105910936938685
1708436455.1979575,-2.1375672817230225,-1.3333792400411149,-2.529776636754171,6.103204238205709,1.0229939222335815,-2.5089193026172083
1708436455.1999524,-2.137521505355835,-1.3334169846824189,-2.5298190752612513,6.1031144736106775,1.0231232643127441,-2.507486168538229
1708436455.201974,-2.137406349182129,-1.3334170591882248,-2.5298922697650355,6.102987277298727,1.0232267379760742,-2.505862538014547
1708436455.2039595,-2.1373190879821777,-1.3334127229503174,-2.5299392382251185,6.102834808617391,1.0234051942825317,-2.5042501131640833
1708436455.2059665,-2.137272357940674,-1.3333553087762375,-2.529978338872091,6.102760064392843,1.0235165357589722,-2.5026429335223597
1708436455.2079556,-2.1371726989746094,-1.3333602112582703,-2.5300634543048304,6.102591264038839,1.023594856262207,-2.501007620488302
1708436455.2099476,-2.1370975971221924,-1.3333516430905838,-2.5301476160632532,6.1024807570274255,1.0237199068069458,-2.499483648930685
1708436455.2119646,-2.136976480484009,-1.3333516430905838,-2.5301671663867396,6.102336990624227,1.0237832069396973,-2.4977262655841272
1708436455.2139506,-2.1368606090545654,-1.3332823526910325,-2.530292336140768,6.102204191475668,1.0239362716674805,-2.4960761705981653
1708436455.215967,-2.136796236038208,-1.3333278757384797,-2.53030234972109,6.102032410889425,1.0240479707717896,-2.494364086781637
1708436455.2179503,-2.1367220878601074,-1.3333117079785843,-2.5303874651538294,6.101893293648519,1.0242094993591309,-2.492685381566183
1708436455.2199497,-2.136615753173828,-1.333332137470581,-2.5304625670062464,6.101770508080282,1.0243297815322876,-2.4910157362567347
1708436455.2219775,-2.136582612991333,-1.3332589578679581,-2.530543390904562,6.1016626236732385,1.0244215726852417,-2.489279333745138
1708436455.223958,-2.1364941596984863,-1.3332760494998475,-2.530644957219259,6.101449358254232,1.0245912075042725,-2.4876862207995813
1708436455.2260258,-2.1364192962646484,-1.3332887154868622,-2.530646864567892,6.101400840073385,1.0247026681900024,-2.48592979112734
1708436455.2279534,-2.1363017559051514,-1.3332555156997223,-2.5307353178607386,6.101199495583334,1.0248510837554932,-2.484307352696554
1708436455.2299545,-2.136255979537964,-1.3332801920226593,-2.5308402220355433,6.101084458618917,1.024950623512268,-2.4826276938067835
1708436455.2319658,-2.136129379272461,-1.3332725328258057,-2.530895535145895,6.1009453413780115,1.0251158475875854,-2.48092490831484
1708436455.2339518,-2.13608455657959,-1.333256022339203,-2.5309632460223597,6.100761639862814,1.0252106189727783,-2.479239527379171
1708436455.2359455,-2.135984182357788,-1.3332811307958146,-2.531023089085714,6.1006507752235315,1.0253756046295166,-2.4774792830096644
1708436455.2379696,-2.1358838081359863,-1.333252714281418,-2.531107012425558,6.100494015007772,1.0255244970321655,-2.475882116948263
1708436455.2399433,-2.135791301727295,-1.3332930517247696,-2.5311833063708704,6.100317704468527,1.025603175163269,-2.4742053190814417
1708436455.2419546,-2.1357240676879883,-1.3332398545793076,-2.5312348047839563,6.1001919386680505,1.0258219242095947,-2.472571913396017
1708436455.2439456,-2.135625123977661,-1.3332398545793076,-2.53135592142214,6.100027310639181,1.0259045362472534,-2.4708030859576624
1708436455.2459533,-2.1355581283569336,-1.333195374613144,-2.5314560572253626,6.099924313813009,1.026032567024231,-2.469159189854757
1708436455.24794,-2.13547420501709,-1.3332613122514267,-2.531466070805685,6.099734890251913,1.0261156558990479,-2.467313591633932
1708436455.2499454,-2.1353442668914795,-1.3332289469293137,-2.531530205403463,6.099592554360189,1.0263179540634155,-2.4655450026141565
1708436455.2519813,-2.1353230476379395,-1.3332161170295258,-2.531647030507223,6.0994582054908655,1.026445984840393,-2.463740650807516
1708436455.2539487,-2.135174036026001,-1.3332124513438721,-2.5316742102252405,6.099275815277853,1.026557207107544,-2.4619556109057825
1708436455.255955,-2.1351137161254883,-1.3332075041583558,-2.5318108240710657,6.099105584412374,1.026718020439148,-2.460083548222677
1708436455.257944,-2.1350555419921875,-1.3332365316203614,-2.531935993825094,6.099011409073629,1.026842713356018,-2.45832330385317
1708436455.2599583,-2.134958267211914,-1.3332118403962632,-2.5319698492633265,6.09886788108901,1.0269631147384644,-2.456609312688009
1708436455.261939,-2.1348752975463867,-1.333200530414917,-2.532041851674215,6.098765718727865,1.027147650718689,-2.4548171202289026
1708436455.2639625,-2.134803533554077,-1.3331876707128067,-2.532163921986715,6.098638641625204,1.027238368988037,-2.453115526829855
1708436455.2659826,-2.1347107887268066,-1.333200530414917,-2.532243553792135,6.098440277367391,1.0274075269699097,-2.451381031666891
1708436455.2679808,-2.134577512741089,-1.3331804287484665,-2.5322817007647913,6.098304259568014,1.0275444984436035,-2.449728314076559
1708436455.2699428,-2.1345608234405518,-1.3331919324449082,-2.5324114004718226,6.098150121956625,1.027709722518921,-2.4479756991015833
1708436455.2719557,-2.1344282627105713,-1.3332047027400513,-2.5324507395373743,6.098055588990011,1.0278376340866089,-2.4462183157550257
1708436455.2739499,-2.1343142986297607,-1.3331399869969864,-2.5325151125537317,6.097931730538168,1.0279937982559204,-2.4445629755603235
1708436455.2759569,-2.13421893119812,-1.3332289469293137,-2.5325990358935755,6.097800481110372,1.0281291007995605,-2.44275933900942
1708436455.277943,-2.134148120880127,-1.333225132232048,-2.5326460043536585,6.097587811737814,1.0282930135726929,-2.441131655369894
1708436455.279967,-2.1340599060058594,-1.3331685078195115,-2.5327582995044153,6.097546088486471,1.0284535884857178,-2.4393144289599817
1708436455.2819602,-2.1339845657348633,-1.333233730202057,-2.532830540333883,6.097353207855978,1.0285815000534058,-2.437552277241842
1708436455.2839606,-2.133869171142578,-1.3331196469119568,-2.5328946749316614,6.097233760147848,1.0287630558013916,-2.4358444849597376
1708436455.2859423,-2.1337313652038574,-1.33319744587455,-2.5330072085009974,6.097078311234274,1.0288704633712769,-2.4340127150165003
1708436455.2879555,-2.1336653232574463,-1.333188847904541,-2.533050600682394,6.096940982132711,1.0290011167526245,-2.43225342432131
1708436455.289942,-2.133617401123047,-1.3331238192370911,-2.5331226030932825,6.096830355912008,1.029211401939392,-2.430450741444723
1708436455.2919438,-2.1335184574127197,-1.3331846755794068,-2.5332022348987024,6.096719491272726,1.0293513536453247,-2.4285908381091517
1708436455.293968,-2.133451223373413,-1.3332047027400513,-2.533241573964254,6.096599805146017,1.0294837951660156,-2.42674428621401
1708436455.295972,-2.1333065032958984,-1.3331399869969864,-2.5333505312549036,6.0964847681816,1.0295658111572266,-2.424997393284933
1708436455.2979767,-2.133185625076294,-1.3331358295730134,-2.5334630648242396,6.096280085831442,1.02975594997406,-2.423209253941671
1708436455.2999606,-2.1330971717834473,-1.3331931096366425,-2.533534828816549,6.096242773323812,1.0298959016799927,-2.421443525944845
1708436455.3020217,-2.1330344676971436,-1.3331280660680314,-2.533631149922506,6.096066105156698,1.0300449132919312,-2.419762913380758
1708436455.30396,-2.133012294769287,-1.333225132232048,-2.5336580912219446,6.09590624549941,1.0301722288131714,-2.417964283620016
1708436455.30595,-2.132866621017456,-1.3331941229156037,-2.5337496439563196,6.095770466118612,1.0303462743759155,-2.4162336031543177
1708436455.3079784,-2.132780075073242,-1.3331685078195115,-2.5338383356677454,6.0956225273902795,1.0304653644561768,-2.4144020716296595
1708436455.3099585,-2.1327030658721924,-1.3331690293601532,-2.533975426350729,6.095552193909445,1.0306257009506226,-2.41276199022402
1708436455.3119478,-2.1326448917388916,-1.3331519973329087,-2.534022394810812,6.095387565880575,1.0307656526565552,-2.4109111467944544
1708436455.313972,-2.132573127746582,-1.3332017076066514,-2.5341108481036585,6.095205414086141,1.0309549570083618,-2.409234348927633
1708436455.3159635,-2.1324849128723145,-1.3331919324449082,-2.5341783205615442,6.095140921860494,1.0310828685760498,-2.4074586073504847
1708436455.3179584,-2.1323916912078857,-1.3331604313901444,-2.5342372099505823,6.0949755785758875,1.0311695337295532,-2.4058380762683313
1708436455.3199675,-2.132331609725952,-1.3331846755794068,-2.534329954777853,6.0948572037513635,1.0313310623168945,-2.4039529005633753
1708436455.3219452,-2.1322646141052246,-1.3331732761910935,-2.5344229380237024,6.094741928368368,1.0314950942993164,-2.4021030108081263
1708436455.324004,-2.1321353912353516,-1.3331358295730134,-2.534502092991964,6.0946059105689905,1.0316108465194702,-2.400294605885641
1708436455.3259678,-2.132105827331543,-1.3332294684699555,-2.534557644520895,6.094575631409445,1.03176748752594,-2.398447577153341
1708436455.3280165,-2.1320343017578125,-1.3331324172071,-2.534642044697897,6.0944487927253626,1.031874418258667,-2.3966191450702112
1708436455.33003,-2.131978750228882,-1.3331726652434845,-2.5347092787372034,6.094306933670797,1.032064437866211,-2.394872490559713
1708436455.3319533,-2.131890296936035,-1.3332017076066514,-2.534806553517477,6.094220149308004,1.0322010517120361,-2.393013302479879
1708436455.3339741,-2.1318392753601074,-1.3331280660680314,-2.534873072301046,6.094105231552877,1.0323485136032104,-2.391233030949728
1708436455.3359394,-2.1317338943481445,-1.3331399869969864,-2.5349744001971644,6.093936192780294,1.032476544380188,-2.389498774205343
1708436455.3379846,-2.1316418647766113,-1.3331366640380402,-2.5350006262408655,6.093910324364462,1.032625436782837,-2.3876920382129114
1708436455.3399534,-2.13155460357666,-1.3332059544375916,-2.535151545201437,6.0937538025672815,1.032778263092041,-2.3858702818499964
1708436455.3419392,-2.1315159797668457,-1.3332047027400513,-2.5351861158954065,6.093585002213278,1.0329020023345947,-2.3840139547931116
1708436455.343962,-2.1314568519592285,-1.3331941229156037,-2.5352655092822474,6.093575703888693,1.0330462455749512,-2.3823445479022425
1708436455.3459227,-2.1313390731811523,-1.3331485849669953,-2.535391155873434,6.0934191820915125,1.0331982374191284,-2.3805416266070765
1708436455.34792,-2.131268262863159,-1.33319744587455,-2.5354676882373255,6.093315827637472,1.033339023590088,-2.378821674977438
1708436455.3499432,-2.1311497688293457,-1.3331897866776963,-2.5355101267444056,6.0932572958763025,1.0334552526474,-2.3770774046527308
1708436455.3519337,-2.131091594696045,-1.3331685078195115,-2.5356114546405237,6.093152510910787,1.033578634262085,-2.375234667454855
1708436455.353938,-2.130990743637085,-1.3331399869969864,-2.5356748739825647,6.093073594361105,1.0337557792663574,-2.3734944502459925
1708436455.3559327,-2.1309940814971924,-1.3331846755794068,-2.535783592854635,6.092928635865011,1.0338387489318848,-2.3715789953814905
1708436455.3579295,-2.13088059425354,-1.33319744587455,-2.5358100573169153,6.09281204917983,1.0339961051940918,-2.369767491017477
1708436455.359998,-2.1308248043060303,-1.3331358295730134,-2.535836998616354,6.0927538750465295,1.0341565608978271,-2.36790377298464
1708436455.3619437,-2.1307151317596436,-1.3331519973329087,-2.5359373728381556,6.092683183937826,1.034326434135437,-2.366091791783468
1708436455.3639832,-2.130685567855835,-1.3332017076066514,-2.536030356084005,6.092581736832418,1.0344409942626953,-2.364225451146261
1708436455.365957,-2.1306185722351074,-1.3331855249455948,-2.5360944906817835,6.092499482422628,1.0345242023468018,-2.362417761479513
1708436455.3679843,-2.130553960800171,-1.3332047027400513,-2.5361622015582483,6.092402446060934,1.034705638885498,-2.3605690638171595
1708436455.3699791,-2.130470037460327,-1.3332167130759736,-2.536222044621603,6.092354523926534,1.0348256826400757,-2.3587942759143274
1708436455.3719401,-2.1303770542144775,-1.3331485849669953,-2.5362897554980677,6.092264759331503,1.034913182258606,-2.357032362614767
1708436455.3739681,-2.130288600921631,-1.3331726652434845,-2.53636604944338,6.092155563622274,1.0350902080535889,-2.3551796118365687
1708436455.3759358,-2.13028621673584,-1.3332294684699555,-2.536413017903463,6.0920766470725916,1.0352387428283691,-2.353347126637594
1708436455.377977,-2.1302273273468018,-1.3331433993628998,-2.5364652315722864,6.092008936196127,1.0353386402130127,-2.351624313985006
1708436455.3799648,-2.130138874053955,-1.33316424608741,-2.536582056676046,6.091897117882528,1.0354828834533691,-2.349919382725851
1708436455.3819551,-2.130070686340332,-1.33319744587455,-2.536612574254171,6.091828334122457,1.035593867301941,-2.3481250444995325
1708436455.383948,-2.130018472671509,-1.3331846755794068,-2.5367217699633997,6.0917385695274255,1.0357099771499634,-2.346391741429464
1708436455.3859417,-2.1299593448638916,-1.3332332086614151,-2.536748711262838,6.091641652375021,1.035813570022583,-2.344623867665426
1708436455.3879898,-2.129915237426758,-1.333188847904541,-2.5368459860431116,6.091595041542806,1.0359711647033691,-2.342905584965841
1708436455.389957,-2.1298301219940186,-1.3332246106914063,-2.5369258562671106,6.091487157135763,1.0360957384109497,-2.3410959879504603
1708436455.3919418,-2.1298325061798096,-1.3332373809865494,-2.537006441746847,6.091451871186056,1.0361799001693726,-2.33940035501589
1708436455.393983,-2.1297688484191895,-1.333200530414917,-2.537020508443014,6.091359007149496,1.0363035202026367,-2.337533775960104
1708436455.3959582,-2.1296794414520264,-1.3331931096366425,-2.5371254126178187,6.091217028885641,1.03645658493042,-2.3357930819140833
1708436455.3979497,-2.129612445831299,-1.3332569611123581,-2.537217680607931,6.091158616333761,1.0365811586380005,-2.3340371290790003
1708436455.3999767,-2.129572629928589,-1.3331962686828156,-2.537264649068014,6.091136204987325,1.0367295742034912,-2.33220345178713
1708436455.4019592,-2.1295034885406494,-1.3331846457770844,-2.5373292605029505,6.0910435793693445,1.0368050336837769,-2.3304970900165003
1708436455.4039454,-2.1294398307800293,-1.333212436442711,-2.5374024550067347,6.090992677002706,1.0369211435317993,-2.328733507786886
1708436455.4059582,-2.1293833255767822,-1.3332688820413132,-2.5374940077411097,6.09085105636672,1.036993145942688,-2.3270960489856165
1708436455.4079602,-2.1293041706085205,-1.3332246106914063,-2.537558142338888,6.090844619065084,1.0371211767196655,-2.3253539244281214
1708436455.4099672,-2.1292529106140137,-1.3332332235625763,-2.5375734011279505,6.09078477600173,1.0372337102890015,-2.3236501852618616
1708436455.4119577,-2.129199504852295,-1.3332408231547852,-2.5376246611224573,6.09067593792037,1.0373789072036743,-2.3219898382769983
1708436455.413967,-2.1291699409484863,-1.3332655143788834,-2.537778679524557,6.090637194901266,1.0374832153320312,-2.3202508131610315
1708436455.4159582,-2.129060983657837,-1.333285392527916,-2.5377686659442347,6.090563761978903,1.0375866889953613,-2.3186469713794153
1708436455.4179487,-2.1290132999420166,-1.333235577946045,-2.537854019795553,6.090526211052694,1.0377190113067627,-2.316885534917013
1708436455.4199438,-2.128896474838257,-1.3332801771214982,-2.537851397191183,6.0904531357581995,1.0378350019454956,-2.31518799463381
1708436455.4219527,-2.1288363933563232,-1.3332802218249817,-2.5379355589496058,6.090345370560446,1.037935495376587,-2.3134377638446253
1708436455.4239578,-2.128770589828491,-1.33334073544059,-2.538032833729879,6.090305554657736,1.0380678176879883,-2.311852995549337
1708436455.4259853,-2.128725290298462,-1.3333117377809067,-2.5381174723254603,6.090234863549032,1.0381758213043213,-2.3100860754596155
1708436455.4279983,-2.1286821365356445,-1.3333440583995362,-2.538140598927633,6.090152847557821,1.0382887125015259,-2.3084147612201136
1708436455.4299686,-2.128598213195801,-1.3333236289075394,-2.5382450262652796,6.090157019882955,1.03838050365448,-2.306697670613424
1708436455.4319584,-2.1284894943237305,-1.3333767515471955,-2.5382726828204554,6.09001516082839,1.0384958982467651,-2.3050318400012415
1708436455.4339566,-2.128446102142334,-1.3333852750113984,-2.538259808217184,6.089960086136617,1.0385715961456299,-2.3032339254962366
1708436455.4359515,-2.1283621788024902,-1.3334048700383683,-2.538401190434591,6.08987187126235,1.0387210845947266,-2.301520649586813
1708436455.4379861,-2.1283326148986816,-1.3333885979703446,-2.5384493509875696,6.0897759077842615,1.0388208627700806,-2.299911085759298
1708436455.439958,-2.1282262802124023,-1.3334084761193772,-2.538492981587545,6.0896997330482385,1.0389410257339478,-2.2982128302203577
1708436455.4419382,-2.1282167434692383,-1.3334361475757142,-2.5385854879962366,6.089644658356466,1.0390371084213257,-2.296652142201559
1708436455.4439452,-2.1280674934387207,-1.3334481728127976,-2.538629118596212,6.089590298920431,1.0391286611557007,-2.294999663029806
1708436455.4459684,-2.128024101257324,-1.3334234815886994,-2.5387097040759485,6.089505183487692,1.039262294769287,-2.2933653036700647
1708436455.4479475,-2.1279242038726807,-1.3335002970746537,-2.5387728849994105,6.089360701828756,1.039333462715149,-2.291760508214132
1708436455.4499593,-2.127901554107666,-1.3335284006646653,-2.538841787968771,6.0893229124839685,1.0394788980484009,-2.290109936391012
1708436455.4519594,-2.1278018951416016,-1.3335523170283814,-2.538856093083517,6.089193212776937,1.0395214557647705,-2.288499418889181
1708436455.4539714,-2.1276893615722656,-1.3335437786630173,-2.5388997236834925,6.089106189995565,1.0396218299865723,-2.2869940439807337
1708436455.4559505,-2.1275885105133057,-1.3335473996451874,-2.538992230092184,6.089034426003256,1.0396941900253296,-2.2853761355029505
1708436455.4579573,-2.1275339126586914,-1.3336082261851807,-2.5391088167773646,6.088935839920797,1.0398471355438232,-2.2837863604175013
1708436455.4599528,-2.1274635791778564,-1.3336072725108643,-2.5391655603991907,6.0888640759284876,1.039931297302246,-2.282198731099264
1708436455.4619637,-2.127295732498169,-1.333626852636673,-2.5392289797412317,6.088722574501791,1.0400605201721191,-2.2807000319110315
1708436455.46394,-2.1272084712982178,-1.3336876195720215,-2.539260450993673,6.088626611023702,1.0401071310043335,-2.279130283986227
1708436455.4659462,-2.1271121501922607,-1.3336790067008515,-2.539320770894186,6.088613021164694,1.0401991605758667,-2.2774718443499964
1708436455.4679663,-2.127037286758423,-1.3337514412454148,-2.5394299666034144,6.088463771134176,1.040360927581787,-2.275893036519186
1708436455.4699414,-2.1269259452819824,-1.333714799290039,-2.5395060221301478,6.088364708214559,1.0404033660888672,-2.274306122456686
1708436455.4719386,-2.1268351078033447,-1.3337874573520203,-2.5395777861224573,6.088276612549581,1.0405160188674927,-2.2727234999286097
1708436455.4739838,-2.1267037391662598,-1.3337832552245636,-2.5395801703082483,6.0881197331245325,1.0406076908111572,-2.271139923726217
1708436455.475934,-2.1265995502471924,-1.3337823164514084,-2.539708916340963,6.088029968529501,1.0407414436340332,-2.2695749441729944
1708436455.4779685,-2.1264541149139404,-1.3337984693101426,-2.5397940317737024,6.087938773422994,1.0408449172973633,-2.2680290381061
1708436455.4799638,-2.1263351440429688,-1.3337979924729844,-2.539825503026144,6.087789523392477,1.0409084558486938,-2.2665041128741663
1708436455.4819365,-2.1262316703796387,-1.3338626635125657,-2.539884392415182,6.087694990425863,1.0409926176071167,-2.2650144735919397
1708436455.483989,-2.1261284351348877,-1.3338983666947861,-2.5399323145495813,6.087607252388754,1.0411052703857422,-2.2635539213763636
1708436455.4859347,-2.126007080078125,-1.3339471978000184,-2.540016476308004,6.087451445847311,1.0412256717681885,-2.262063805256979
1708436455.4879408,-2.1258463859558105,-1.3339097958854218,-2.540096108113424,6.0872830031211755,1.0413217544555664,-2.26056415239443
1708436455.4899464,-2.1257734298706055,-1.3339417737773438,-2.540201965962545,6.08719156959609,1.0414628982543945,-2.25912315050234
1708436455.491936,-2.1256258487701416,-1.3340147745660325,-2.540187660847799,6.08702431896285,1.0415295362472534,-2.257679287587301
1708436455.4939718,-2.1254489421844482,-1.3340222549489518,-2.5402889887439173,6.086888301163473,1.0416746139526367,-2.2562878767596644
1708436455.4959388,-2.1252846717834473,-1.3340546947768708,-2.540368620549337,6.086786258011617,1.0417710542678833,-2.25474721590151
1708436455.4979355,-2.125149726867676,-1.3340137612870713,-2.540460173283712,6.086601483612814,1.0418267250061035,-2.253322426472799
1708436455.499978,-2.1249682903289795,-1.3340378415635605,-2.540553156529562,6.086463439255514,1.0420081615447998,-2.251873795186178
1708436455.5019436,-2.1248297691345215,-1.3340771359256287,-2.5406087080584925,6.086254584580221,1.0420955419540405,-2.2503984610186976
1708436455.5039947,-2.124584913253784,-1.3341580492309113,-2.540729586278097,6.086103307991781,1.0421708822250366,-2.2488749662982386
1708436455.5059402,-2.124401092529297,-1.3341861379197617,-2.540772263203756,6.085945117264547,1.042283535003662,-2.247401539479391
1708436455.5079525,-2.1242480278015137,-1.334181160931923,-2.540872637425558,6.0856923935706995,1.0424002408981323,-2.24593955675234
1708436455.5099287,-2.124051570892334,-1.3341691952994843,-2.5409684816943567,6.085533845215597,1.0424836874008179,-2.2444656530963343
1708436455.5119526,-2.1238675117492676,-1.334204540853836,-2.5410521666156214,6.085330474167623,1.0426286458969116,-2.2429350058185022
1708436455.5139484,-2.123647689819336,-1.334244431262352,-2.541140858327047,6.085163104325094,1.042749047279358,-2.2414873282061976
1708436455.5159516,-2.1234617233276367,-1.3343047511628647,-2.5412443319903772,6.0849270699317834,1.042876958847046,-2.240060631428854
1708436455.5179474,-2.1232235431671143,-1.3343819242766877,-2.541332785283224,6.084726559906759,1.0430270433425903,-2.2385991255389612
1708436455.5199373,-2.1230056285858154,-1.3343964380076905,-2.5414372126208704,6.0845082876975916,1.0430773496627808,-2.2371915022479456
1708436455.521935,-2.1227900981903076,-1.3344570261291047,-2.541459385548727,6.084284293442526,1.0432133674621582,-2.235774819050924
1708436455.5239358,-2.122558832168579,-1.3345089268735428,-2.541617457066671,6.0840093968208215,1.0433131456375122,-2.234358612691061
1708436455.5259457,-2.1223092079162598,-1.3345526319793244,-2.5417092482196253,6.083765852242269,1.0434211492538452,-2.232917133961813
1708436455.527957,-2.122037172317505,-1.334547684793808,-2.541788641606466,6.083527791291036,1.043591022491455,-2.2315614859210413
1708436455.5299685,-2.1218600273132324,-1.3345799309066315,-2.541900936757223,6.083230840950765,1.043669581413269,-2.230152432118551
1708436455.5319452,-2.1215744018554688,-1.3346873682788392,-2.542058054600851,6.0829717991645715,1.043789267539978,-2.2288649717914026
1708436455.5339484,-2.121345281600952,-1.3347277355245133,-2.5420928637133997,6.082782017975607,1.0439754724502563,-2.2275541464435022
1708436455.535944,-2.121088743209839,-1.3347637963346024,-2.5422051588641565,6.082523214607992,1.0440748929977417,-2.226227108632223
1708436455.537942,-2.1208536624908447,-1.3348197054914017,-2.5423014799701136,6.082182752877035,1.0442562103271484,-2.2248762289630335
1708436455.539937,-2.1205403804779053,-1.3348309856704255,-2.542428795491354,6.081855523377218,1.0444004535675049,-2.2235682646380823
1708436455.5419338,-2.1202423572540283,-1.3349266362241288,-2.542504374180929,6.0815433142478845,1.0445120334625244,-2.222189728413717
1708436455.5455303,-2.120032548904419,-1.3349506717971344,-2.5426576773272913,6.081233727722921,1.0446369647979736,-2.220949951802389
1708436455.545976,-2.119657039642334,-1.335022197370865,-2.54273230234255,6.080956566124716,1.0447885990142822,-2.2195990721331995
1708436455.547942,-2.119424343109131,-1.3350785535625,-2.542851988469259,6.08059977272109,1.044904351234436,-2.218299214039938
1708436455.5499434,-2.1190829277038574,-1.3351828318885346,-2.543008867894308,6.080306517868795,1.0449787378311157,-2.216977898274557
1708436455.5519447,-2.118833303451538,-1.335214452152588,-2.543100659047262,6.079973685532369,1.0451480150222778,-2.215602699910299
1708436455.5539432,-2.118453025817871,-1.3352213662913819,-2.543273989354269,6.07966839054183,1.0453221797943115,-2.2143076101886194
1708436455.5559561,-2.118150472640991,-1.3352973324111481,-2.5433765093432825,6.079223143845358,1.04544997215271,-2.2129247824298304
1708436455.5579443,-2.1177828311920166,-1.3353607219508667,-2.5435457865344446,6.078930008202352,1.0456105470657349,-2.2116292158709925
1708436455.5599484,-2.1174519062042236,-1.3354485940984269,-2.5436492601977747,6.078590500145712,1.045767068862915,-2.2102745215045374
1708436455.5619357,-2.1170501708984375,-1.3356020909598847,-2.543809477482931,6.078199374466696,1.0459319353103638,-2.209010903035299
1708436455.5639539,-2.1166584491729736,-1.335616649394371,-2.5438881556140345,6.077827322274008,1.0460673570632935,-2.2076271216021937
1708436455.5659506,-2.1163296699523926,-1.3356925708106537,-2.5440648237811487,6.077404129296102,1.0462238788604736,-2.2064035574542444
1708436455.5679405,-2.1159121990203857,-1.3357720983079453,-2.544168535863058,6.077039229660787,1.04636812210083,-2.205191437398092
1708436455.5699456,-2.115530252456665,-1.3357828569463273,-2.54435378709902,6.076586353569784,1.046512246131897,-2.2038572470294397
1708436455.5719383,-2.115152359008789,-1.3359037947705765,-2.5444639364825647,6.0761932013328455,1.0466972589492798,-2.202632252370016
1708436455.573952,-2.1147496700286865,-1.3360315573266526,-2.544628922139303,6.075798618584432,1.0468817949295044,-2.201433006917135
1708436455.5759468,-2.1142938137054443,-1.3360626560500641,-2.544809643422262,6.075278866081991,1.0470205545425415,-2.200196091328756
1708436455.5779662,-2.1138908863067627,-1.336187259559967,-2.5449731985675257,6.074869024544515,1.0471930503845215,-2.1989615599261683
1708436455.5799658,-2.1134610176086426,-1.3362583828023453,-2.545084778462545,6.074402677803793,1.0473735332489014,-2.1977036635028284
1708436455.5819705,-2.1130244731903076,-1.3363708716681977,-2.545255724583761,6.073955762177267,1.0475839376449585,-2.1965606848346155
1708436455.5839698,-2.1125762462615967,-1.3364254844239731,-2.54542047182192,6.073508727341451,1.0477190017700195,-2.195343796406881
1708436455.5859458,-2.112144708633423,-1.3364974421313782,-2.5455763975726526,6.073009836464681,1.0478709936141968,-2.1941221396075647
1708436455.5879614,-2.111691474914551,-1.3365727078965683,-2.5457235018359583,6.072573053627767,1.048088550567627,-2.192965332661764
1708436455.5899525,-2.111212968826294,-1.3367448312095185,-2.5459168593036097,6.072091328888693,1.0482358932495117,-2.191784207020895
1708436455.5919516,-2.110725164413452,-1.33680413783107,-2.546109978352682,6.071510422020712,1.0484000444412231,-2.1905091444598597
1708436455.5939639,-2.11029052734375,-1.3368997138789673,-2.5461788813220423,6.0710500357444666,1.0486174821853638,-2.1893861929522913
1708436455.5959466,-2.10973858833313,-1.3369876903346558,-2.5464285055743616,6.070555794029989,1.0487771034240723,-2.1882203261004847
1708436455.5979733,-2.109252452850342,-1.3371032041362305,-2.5466375986682337,6.070005404740133,1.0489572286605835,-2.1870444456683558
1708436455.599958,-2.1087687015533447,-1.337219924931862,-2.5467730204211634,6.0693843243415735,1.049145221710205,-2.1859124342547815
1708436455.6019614,-2.108269691467285,-1.3373557937196274,-2.5468905607806605,6.068904149323263,1.0493749380111694,-2.1847174803363245
1708436455.6039805,-2.107800006866455,-1.337491900925972,-2.5471654574023646,6.068383323937216,1.049564003944397,-2.1835363546954554
1708436455.605967,-2.1072604656219482,-1.3375745427659531,-2.547378126774923,6.067801463394918,1.0497106313705444,-2.182453457509176
1708436455.6079571,-2.1067092418670654,-1.337658168082573,-2.5475285688983362,6.067321407585897,1.0499444007873535,-2.181234661732809
1708436455.6099558,-2.1062018871307373,-1.3377817434123536,-2.547720495854513,6.0666764853294275,1.0501161813735962,-2.180178467427389
1708436455.6119666,-2.1056225299835205,-1.3378520172885437,-2.5478959719287317,6.066144215851583,1.0503129959106445,-2.1789563337909144
1708436455.6139698,-2.1050593852996826,-1.338029907350876,-2.5480554739581507,6.065467583924093,1.0505620241165161,-2.1778481642352503
1708436455.6159525,-2.1045196056365967,-1.3381569397500535,-2.5482919851886194,6.064930665283956,1.0507334470748901,-2.176727596913473
1708436455.618056,-2.1040053367614746,-1.3383019280484696,-2.5484960714923304,6.064344513207235,1.0509052276611328,-2.1755903402911585
1708436455.619952,-2.103421449661255,-1.3384496879628678,-2.548717800770895,6.06377278545455,1.0511410236358643,-2.1745408217059534
1708436455.6219854,-2.1027843952178955,-1.3385069531253357,-2.5489123503314417,6.063226806908407,1.0513293743133545,-2.173453156148092
1708436455.6239629,-2.102259635925293,-1.3387130063823243,-2.5490599314319056,6.06256793716506,1.0515666007995605,-2.1723759810077112
1708436455.6259694,-2.101672410964966,-1.338768170481064,-2.5493086020099085,6.061944591789999,1.0518038272857666,-2.171281639729635
1708436455.627965,-2.101102590560913,-1.3389071387103577,-2.549500290547506,6.061340439110555,1.052014708518982,-2.1702211538897913
1708436455.6299887,-2.100527763366699,-1.339055211549141,-2.549659315739767,6.060701238899984,1.0522488355636597,-2.1692121664630335
1708436455.6319559,-2.0999040603637695,-1.3391630065492173,-2.549899403248922,6.060047852783956,1.05243980884552,-2.168170754109518
1708436455.6339712,-2.0993125438690186,-1.3392571222833176,-2.550070826207296,6.059421050339498,1.0527547597885132,-2.167173687611715
1708436455.6359558,-2.0987703800201416,-1.339418203835823,-2.550291363392965,6.058714020043173,1.0529546737670898,-2.166199032460348
1708436455.6379697,-2.0981104373931885,-1.3394902360490342,-2.550507132207052,6.058158743172445,1.053169846534729,-2.165196720753805
1708436455.6399474,-2.0974559783935547,-1.3397054833224793,-2.5506988207446497,6.05748878696517,1.0534148216247559,-2.164267365132467
1708436455.6419988,-2.0968308448791504,-1.3398189854672928,-2.5509029070483606,6.056772458344259,1.05359947681427,-2.1632421652423304
1708436455.6440027,-2.0962295532226562,-1.339986340408661,-2.5511351267444056,6.056151616364279,1.0538160800933838,-2.1623337904559534
1708436455.645977,-2.0955798625946045,-1.340173141365387,-2.551384989415304,6.055421221047201,1.0540281534194946,-2.161340061818258
1708436455.6479335,-2.094942569732666,-1.340232939725258,-2.5515924135791224,6.054773437767782,1.0542935132980347,-2.160393540059225
1708436455.64994,-2.0942769050598145,-1.3404588413289567,-2.5518038908587855,6.054065692215719,1.0545055866241455,-2.159384075795309
1708436455.6519332,-2.093566417694092,-1.340573565368988,-2.5520318190204065,6.053319918900289,1.0547537803649902,-2.158520046864645
1708436455.65394,-2.092944622039795,-1.3407728534987946,-2.5522921721087855,6.052590119629659,1.0549943447113037,-2.1575282255755823
1708436455.6559339,-2.092252492904663,-1.3409204644015809,-2.5524583498584192,6.051944958954611,1.0551689863204956,-2.1566370169269007
1708436455.6579335,-2.091564893722534,-1.3410670471242447,-2.552727524434225,6.051255452423849,1.0554641485214233,-2.155696217213766
1708436455.6599412,-2.0908799171447754,-1.341262624864914,-2.552976195012228,6.050507533341207,1.055647850036621,-2.154794994984762
1708436455.6619415,-2.0902669429779053,-1.341433123951294,-2.553183380757467,6.049764382630148,1.0559003353118896,-2.153806988392965
1708436455.663949,-2.089503526687622,-1.3416631829789658,-2.553439442311422,6.048925745278158,1.0561048984527588,-2.152912441884176
