Eg3-git/Classifiers/Data Collection/u4/u4www4_ur3e_joint_states.csv
time,elbow_joint,shoulder_lift_joint,shoulder_pan_joint,wrist_1_joint,wrist_2_joint,wrist_3_joint
1708436533.3474424,-2.1512198448181152,-1.3356715899756928,-2.524041239415304,6.131358969002523,1.0123882293701172,-2.6661668459521692
1708436533.349419,-2.1511588096618652,-1.3357355904630204,-2.524041239415304,6.131384956627645,1.012433409690857,-2.6662052313434046
1708436533.3514192,-2.1511738300323486,-1.3357364249280472,-2.524025026951925,6.13133596160964,1.012396216392517,-2.6661887804614466
1708436533.3534734,-2.1511285305023193,-1.3357075911811371,-2.523994747792379,6.131294834404745,1.0124380588531494,-2.6662007013904017
1708436533.355427,-2.1511285305023193,-1.3356877130321045,-2.523958985005514,6.131254541664877,1.012416958808899,-2.6661675612079065
1708436533.3574538,-2.1511666774749756,-1.335655466919281,-2.52399188676943,6.1312599060829065,1.012405276298523,-2.666187588368551
1708436533.359444,-2.151216506958008,-1.3357159805348893,-2.52399188676943,6.131218540459432,1.0124051570892334,-2.6661513487445276
1708436533.3614187,-2.1511826515197754,-1.3356998723796387,-2.524003807698385,6.131214129715719,1.012433409690857,-2.6661887804614466
1708436533.363493,-2.1511781215667725,-1.3356799942306061,-2.52399188676943,6.131222831993856,1.0124620199203491,-2.6661844889270228
1708436533.365543,-2.1511666774749756,-1.3357041490129014,-2.524025026951925,6.131222831993856,1.0123835802078247,-2.666191879902975
1708436533.3674273,-2.1511871814727783,-1.3357076060822983,-2.523970905934469,6.131251323014059,1.0123791694641113,-2.6661556402789515
1708436533.3694289,-2.1511542797088623,-1.3357202869704743,-2.524029556904928,6.131289112358846,1.0123791694641113,-2.6661630312549036
1708436533.3714557,-2.1511666774749756,-1.335687742834427,-2.524003807698385,6.131273019104757,1.0124081373214722,-2.6661601702319544
1708436533.3734462,-2.1511800289154053,-1.3357075911811371,-2.523966614400045,6.131300318032064,1.0123882293701172,-2.6661844889270228
1708436533.3754191,-2.1511871814727783,-1.3356877130321045,-2.523996416722433,6.131284820824423,1.0123507976531982,-2.666133705769674
1708436533.3774576,-2.1511666774749756,-1.3357279163650055,-2.523963514958517,6.1312728998954675,1.012405276298523,-2.6661344210254114
1708436533.3794668,-2.151146411895752,-1.3356877279332657,-2.523979965840475,6.131251323014059,1.0123835802078247,-2.6661556402789515
1708436533.3814218,-2.151136636734009,-1.3356834065965195,-2.523982826863424,6.131235825806417,1.012405276298523,-2.6661136786090296
1708436533.38344,-2.1511454582214355,-1.3356749725392838,-2.523984495793478,6.13126419761733,1.012433409690857,-2.6662007013904017
1708436533.3854322,-2.151224136352539,-1.3356877130321045,-2.523963514958517,6.131232607155599,1.0124379396438599,-2.6661136786090296
1708436533.387452,-2.151196002960205,-1.335704119210579,-2.523996416722433,6.131292331009664,1.0124006271362305,-2.6661556402789515
1708436533.3894324,-2.1511454582214355,-1.3357041490129014,-2.523984495793478,6.131215202599325,1.012396216392517,-2.6661718527423304
1708436533.391415,-2.1511542797088623,-1.335744784479477,-2.52403694788088,6.131191122322836,1.012433409690857,-2.6661468187915247
1708436533.3934495,-2.1511666774749756,-1.3356914830258866,-2.524008337651388,6.13126419761733,1.0123672485351562,-2.6661344210254114
1708436533.3954139,-2.1511712074279785,-1.3357363802245636,-2.5239513556109827,6.131256687432089,1.0124006271362305,-2.6661468187915247
1708436533.397439,-2.1511499881744385,-1.3357041639140625,-2.523975435887472,6.13122712352828,1.0124244689941406,-2.6661718527423304
1708436533.3994102,-2.1511588096618652,-1.335708351140358,-2.52396804491152,6.131280410080709,1.0124006271362305,-2.666191879902975
1708436533.4014366,-2.151203155517578,-1.3356757921031495,-2.524000946675436,6.131211983948507,1.012416958808899,-2.6661961714373987
1708436533.4034274,-2.151202917098999,-1.3356750023416062,-2.523979965840475,6.131240117340841,1.0123791694641113,-2.66617995897402
1708436533.4054234,-2.151196002960205,-1.3357041639140625,-2.5239513556109827,6.131198990135946,1.0123882293701172,-2.6661298910724085
1708436533.4074192,-2.1511330604553223,-1.335700423722603,-2.5239890257464808,6.131231415062704,1.0123882293701172,-2.6661601702319544
1708436533.4095144,-2.151125907897949,-1.335667298441269,-2.523987356816427,6.131247985153951,1.0124006271362305,-2.6661387125598353
1708436533.411456,-2.1511666774749756,-1.335696132188179,-2.5239394346820276,6.131244408875265,1.0124006271362305,-2.6661556402789515
1708436533.4134078,-2.1511588096618652,-1.3356914532235642,-2.5240171591388147,6.131215202599325,1.0124216079711914,-2.6661630312549036
1708436533.4154103,-2.1511666774749756,-1.3357159954360505,-2.52399188676943,6.131215202599325,1.0124140977859497,-2.6661675612079065
1708436533.4174407,-2.1511800289154053,-1.3357245039990921,-2.523970905934469,6.131256687432089,1.0124125480651855,-2.6661468187915247
1708436533.4194152,-2.1511871814727783,-1.335679219370224,-2.523996416722433,6.131223904877462,1.0123882293701172,-2.6661718527423304
1708436533.4214137,-2.151196002960205,-1.335695670252182,-2.523963514958517,6.131207692414083,1.0123791694641113,-2.666147534047262
1708436533.4234698,-2.151146411895752,-1.3357075911811371,-2.5240054766284388,6.131191122322836,1.0123835802078247,-2.6661468187915247
1708436533.4254403,-2.151125907897949,-1.335663081412651,-2.524029318486349,6.131231415062704,1.0123926401138306,-2.6661601702319544
1708436533.4274042,-2.1511330604553223,-1.3356638711741944,-2.523979965840475,6.131256687432089,1.0124142169952393,-2.666143242512838
1708436533.4295866,-2.1511800289154053,-1.3356914532235642,-2.523979965840475,6.131280410080709,1.012376308441162,-2.6661298910724085
1708436533.4314702,-2.1511847972869873,-1.3357159954360505,-2.5239513556109827,6.13129340389327,1.0123718976974487,-2.6661513487445276
1708436533.4334543,-2.1511802673339844,-1.3356390011361619,-2.5239349047290247,6.131223904877462,1.0123718976974487,-2.6661675612079065
1708436533.435422,-2.1511330604553223,-1.335679219370224,-2.523958985005514,6.131240117340841,1.0124379396438599,-2.6661556402789515
1708436533.4374368,-2.1511542797088623,-1.3357041639140625,-2.5239558855639856,6.131219613343038,1.0123852491378784,-2.666152064000265
1708436533.4394248,-2.151108980178833,-1.3357083660415192,-2.523926083241598,6.131269800453939,1.012376308441162,-2.6661601702319544
1708436533.4414344,-2.151141881942749,-1.3357083660415192,-2.5239604155169886,6.131240117340841,1.012376308441162,-2.66617995897402
1708436533.4434156,-2.151142120361328,-1.3356834214976807,-2.5239890257464808,6.131194698601522,1.0123672485351562,-2.6661387125598353
1708436533.4454176,-2.1511330604553223,-1.3356596690467377,-2.52396804491152,6.131228196411886,1.0123926401138306,-2.6661887804614466
1708436533.4474378,-2.151125907897949,-1.3356347543052216,-2.5239604155169886,6.131203400879659,1.0123926401138306,-2.6661344210254114
1708436533.449409,-2.1511588096618652,-1.3356914532235642,-2.5239439646350306,6.131253230362692,1.0123599767684937,-2.6662021319018763
1708436533.4514182,-2.151141881942749,-1.335700423722603,-2.5239513556109827,6.131203400879659,1.012405276298523,-2.6661253611194056
1708436533.4534166,-2.1511330604553223,-1.3357041639140625,-2.5239272753344935,6.131207692414083,1.0124096870422363,-2.6661601702319544
1708436533.4554143,-2.151141881942749,-1.3356757921031495,-2.5239649454699915,6.131223904877462,1.0123391151428223,-2.6662052313434046
1708436533.457443,-2.151146411895752,-1.335695670252182,-2.5239604155169886,6.131186949997701,1.0123718976974487,-2.6661387125598353
1708436533.4594197,-2.151146411895752,-1.335683436398842,-2.5239513556109827,6.131265389710226,1.0123509168624878,-2.6661060492144983
1708436533.4614096,-2.1511757373809814,-1.3356834214976807,-2.5239227453814905,6.131241309433737,1.0123835802078247,-2.666131321583883
1708436533.4634497,-2.151141881942749,-1.3357202869704743,-2.5239771048175257,6.13126968124465,1.0124140977859497,-2.6660943667041224
1708436533.4655507,-2.1511330604553223,-1.3356877130321045,-2.5239065329181116,6.131228196411886,1.0124305486679077,-2.6661556402789515
1708436533.467571,-2.1511800289154053,-1.3356834214976807,-2.5239108244525355,6.131207692414083,1.0123672485351562,-2.666147534047262
1708436533.469479,-2.151191473007202,-1.3356715899756928,-2.5239363352404993,6.1312609789665125,1.0123599767684937,-2.6661563555346888
1708436533.4714427,-2.151146411895752,-1.3357125383666535,-2.5239272753344935,6.13126169422225,1.0123480558395386,-2.666147534047262
1708436533.4734263,-2.1511826515197754,-1.3356877130321045,-2.5239108244525355,6.131207692414083,1.0123807191848755,-2.6661270300494593
1708436533.475434,-2.151141881942749,-1.335651160483696,-2.5239530245410364,6.131223904877462,1.0123807191848755,-2.6661935488330286
1708436533.4774163,-2.1511542797088623,-1.335643158560135,-2.5239065329181116,6.131248819618978,1.0123599767684937,-2.666147534047262
1708436533.4794126,-2.151130437850952,-1.335696132188179,-2.5239363352404993,6.1312163946922205,1.0123718976974487,-2.666168991719381
1708436533.4814258,-2.1511917114257812,-1.3357364249280472,-2.5239227453814905,6.131248938828268,1.0123926401138306,-2.6661105791675013
1708436533.4834204,-2.1511330604553223,-1.3356638711741944,-2.5239198843585413,6.1312163946922205,1.012376308441162,-2.6661513487445276
1708436533.4854536,-2.151163339614868,-1.3356715899756928,-2.5239394346820276,6.131212818413534,1.012364387512207,-2.666091267262594
1708436533.4874182,-2.151146411895752,-1.3356998723796387,-2.5239034334765833,6.131179201393881,1.0124276876449585,-2.666119400654928
1708436533.489418,-2.151141881942749,-1.3357245039990921,-2.5238869825946253,6.131167399674215,1.0123313665390015,-2.666168991719381
1708436533.4914582,-2.151113510131836,-1.3356998723796387,-2.5238781611071985,6.1311954138572595,1.0123718976974487,-2.6661105791675013
1708436533.4934337,-2.1511712074279785,-1.3356474202922364,-2.5239408651935022,6.131158578186788,1.012376308441162,-2.6661601702319544
1708436533.4954178,-2.151137590408325,-1.3357041639140625,-2.5239153544055384,6.131236898690023,1.0123569965362549,-2.6660943667041224
1708436533.497425,-2.151108980178833,-1.3356715899756928,-2.5239272753344935,6.131151187210836,1.0124096870422363,-2.666147534047262
1708436533.4994206,-2.151196002960205,-1.3356672686389466,-2.5239530245410364,6.131204116135397,1.0123852491378784,-2.6660824457751673
1708436533.5014436,-2.151141881942749,-1.3356919151595612,-2.523961846028463,6.131204116135397,1.012352466583252,-2.6661270300494593
1708436533.503415,-2.151150941848755,-1.3356914532235642,-2.523961846028463,6.131154405861654,1.012352466583252,-2.666152064000265
1708436533.5054424,-2.151167869567871,-1.3356877130321045,-2.5239079634295862,6.131204235344686,1.0123435258865356,-2.6661563555346888
1708436533.507421,-2.151113510131836,-1.3357287061265488,-2.5239079634295862,6.131240117340841,1.0123116970062256,-2.666152064000265
1708436533.509458,-2.151200532913208,-1.3356757921031495,-2.5239530245410364,6.13115547874526,1.0123659372329712,-2.666115109120504
1708436533.5114517,-2.151146411895752,-1.3356919151595612,-2.5239484945880335,6.131241309433737,1.0123313665390015,-2.666210953389303
1708436533.5134423,-2.1511600017547607,-1.3356799942306061,-2.523945156727926,6.131168472557821,1.0123403072357178,-2.6661387125598353
1708436533.515424,-2.151167869567871,-1.3356757921031495,-2.5239484945880335,6.131248819618978,1.0123313665390015,-2.6660824457751673
1708436533.517419,-2.1511757373809814,-1.3357041639140625,-2.5239198843585413,6.131183612137594,1.0123149156570435,-2.6661444346057337
1708436533.5194218,-2.151108980178833,-1.3356070679477234,-2.5238869825946253,6.1312293885047815,1.0123447179794312,-2.6661105791675013
1708436533.5214117,-2.151113510131836,-1.3357041639140625,-2.5239272753344935,6.131217109947958,1.0123807191848755,-2.666086737309591
1708436533.5234427,-2.1511712074279785,-1.3356231910041352,-2.5238989035235804,6.131232607155599,1.0123569965362549,-2.666119400654928
1708436533.525422,-2.151167869567871,-1.3356877130321045,-2.5239034334765833,6.131220686226644,1.0123733282089233,-2.666098658238546
1708436533.527439,-2.151155471801758,-1.335700423722603,-2.5239108244525355,6.131121504097738,1.0123239755630493,-2.666131321583883
1708436533.5295076,-2.151130437850952,-1.3356919151595612,-2.5239153544055384,6.131180274277487,1.012352466583252,-2.666107479725973
1708436533.5314207,-2.151118040084839,-1.3356715899756928,-2.523933235798971,6.1311964867408655,1.0123329162597656,-2.666103188191549
1708436533.5334272,-2.151150941848755,-1.335667298441269,-2.5239244143115442,6.131220686226644,1.012349247932434,-2.666131321583883
1708436533.5354102,-2.1511757373809814,-1.3356749576381226,-2.5239244143115442,6.131174790650167,1.0123194456100464,-2.666123692189352
1708436533.537475,-2.151146411895752,-1.3356715899756928,-2.5239318052874964,6.1311964867408655,1.0123448371887207,-2.666143242512838
1708436533.5394394,-2.151200532913208,-1.3356919151595612,-2.5239198843585413,6.131232607155599,1.0123329162597656,-2.666098658238546
1708436533.5414448,-2.1511542797088623,-1.335740627055504,-2.5239318052874964,6.131183612137594,1.0123283863067627,-2.666100088750021
1708436533.543437,-2.1511757373809814,-1.3357041639140625,-2.5239034334765833,6.131175982743063,1.0123283863067627,-2.666107479725973
1708436533.5454419,-2.1511499881744385,-1.3357245039990921,-2.5239198843585413,6.131171691208639,1.012349247932434,-2.666095558797018
1708436533.547453,-2.151150941848755,-1.3356554520181199,-2.5239363352404993,6.131179201393881,1.0123614072799683,-2.6661534945117396
1708436533.5494156,-2.151151180267334,-1.335696132188179,-2.5238826910602015,6.131187903672018,1.0123447179794312,-2.66607910791506
1708436533.5514107,-2.15110445022583,-1.335679219370224,-2.5239153544055384,6.131220686226644,1.0123447179794312,-2.6661163012133997
1708436533.5534432,-2.1511013507843018,-1.3356834214976807,-2.5239034334765833,6.131183612137594,1.0123447179794312,-2.666131321583883
1708436533.555458,-2.1511712074279785,-1.3357405376485367,-2.523921553288595,6.131167399674215,1.0123733282089233,-2.666112009678976
1708436533.5574481,-2.1511588096618652,-1.3357202869704743,-2.5239198843585413,6.131238090782919,1.0123403072357178,-2.666107479725973
1708436533.559435,-2.1511588096618652,-1.3356715899756928,-2.5239244143115442,6.131200897484579,1.0123283863067627,-2.666112009678976
1708436533.5614207,-2.1511213779449463,-1.335696132188179,-2.523933235798971,6.131142365723409,1.0123447179794312,-2.666103188191549
1708436533.5634642,-2.1511712074279785,-1.3356432181647797,-2.523896042500631,6.131229269295492,1.0123207569122314,-2.666100088750021
1708436533.5655315,-2.151113510131836,-1.3356596690467377,-2.5239079634295862,6.131151068001547,1.0123116970062256,-2.666100088750021
1708436533.567564,-2.1511542797088623,-1.3357083660415192,-2.5239198843585413,6.131180393486776,1.0123072862625122,-2.6660764853106897
1708436533.5694711,-2.151151180267334,-1.3356877130321045,-2.523937765751974,6.131191122322836,1.0123162269592285,-2.666054073964254
1708436533.5714576,-2.151125907897949,-1.3357202869704743,-2.5239244143115442,6.131211983948507,1.0123116970062256,-2.6660972277270716
1708436533.5734534,-2.151150941848755,-1.3357083660415192,-2.5239034334765833,6.1311964867408655,1.01235830783844,-2.6661043802844446
1708436533.5754716,-2.151141881942749,-1.335651160483696,-2.5239198843585413,6.131208407669821,1.012283205986023,-2.6660333315478724
1708436533.5774672,-2.151141881942749,-1.335667298441269,-2.5239034334765833,6.131179201393881,1.0123040676116943,-2.6660123507129114
1708436533.5794284,-2.151139497756958,-1.3357083362391968,-2.5238872210132044,6.131179201393881,1.0122965574264526,-2.6660717169391077
1708436533.581434,-2.151134967803955,-1.3356554520181199,-2.5238869825946253,6.131183612137594,1.01227867603302,-2.6660929361926478
1708436533.5834367,-2.1511013507843018,-1.3357045513442536,-2.523896042500631,6.131179201393881,1.0123040676116943,-2.666037623082296
1708436533.585435,-2.1511917114257812,-1.335655839448311,-2.5239079634295862,6.131199824600973,1.0122921466827393,-2.666035000477926
1708436533.5874217,-2.151163339614868,-1.3356554520181199,-2.5238869825946253,6.1312163946922205,1.0122758150100708,-2.666063372288839
1708436533.5894306,-2.151167869567871,-1.3357287061265488,-2.5238989035235804,6.131241309433737,1.0123040676116943,-2.666054073964254
1708436533.5914412,-2.151113510131836,-1.3356919151595612,-2.523900572453634,6.131138789444723,1.0122921466827393,-2.6660810152636927
1708436533.5934238,-2.151146411895752,-1.3357124489596863,-2.5239198843585413,6.131199824600973,1.0122950077056885,-2.6660261789904993
1708436533.5954466,-2.15108323097229,-1.335687742834427,-2.523850981389181,6.1311553595359705,1.0122921466827393,-2.666037623082296
1708436533.5974543,-2.151141881942749,-1.3356596690467377,-2.523966375981466,6.1311846850212,1.0123463869094849,-2.666018549595968
1708436533.5994163,-2.151155471801758,-1.335708351140358,-2.5238826910602015,6.131204116135397,1.0122802257537842,-2.6661091486560267
1708436533.6014144,-2.151155471801758,-1.3356757772019883,-2.5239034334765833,6.131175982743063,1.0123329162597656,-2.6661136786090296
1708436533.603472,-2.151146411895752,-1.3356554520181199,-2.5239530245410364,6.131207692414083,1.0123084783554077,-2.6660588423358362
1708436533.605433,-2.151146411895752,-1.3357083660415192,-2.52387506166567,6.131187903672018,1.0122712850570679,-2.666039530430929
1708436533.6074617,-2.151146411895752,-1.3356883835843583,-2.5238285700427454,6.131208407669821,1.0122995376586914,-2.666067663823263
1708436533.6094637,-2.151189088821411,-1.3356918853572388,-2.5238989035235804,6.1311553595359705,1.0122846364974976,-2.666030470524923
1708436533.6114235,-2.151113510131836,-1.3356919300607224,-2.5238915125476282,6.1312163946922205,1.0123101472854614,-2.6660214106189173
1708436533.613442,-2.151146411895752,-1.3357083362391968,-2.523928944264547,6.131224977761068,1.0122712850570679,-2.666055742894308
1708436533.615439,-2.151137590408325,-1.3356511455825348,-2.5238915125476282,6.131168472557821,1.0122921466827393,-2.6660764853106897
1708436533.6174362,-2.151125907897949,-1.3357045513442536,-2.5238915125476282,6.131162988930502,1.0122921466827393,-2.666030470524923
1708436533.6194365,-2.151122570037842,-1.3357168299010773,-2.5238915125476282,6.1312163946922205,1.0123207569122314,-2.6660142580615442
1708436533.621421,-2.1511542797088623,-1.3356877130321045,-2.5238915125476282,6.131192195206442,1.0122712850570679,-2.666037623082296
1708436533.6234355,-2.151146411895752,-1.3356757921031495,-2.5238617102252405,6.131208407669821,1.0122995376586914,-2.666067186986105
1708436533.625413,-2.151130437850952,-1.3356877130321045,-2.5238707701312464,6.131248819618978,1.012317419052124,-2.666051451359884
1708436533.627424,-2.151130437850952,-1.3356757772019883,-2.5239408651935022,6.131199824600973,1.0123084783554077,-2.6660168806659144
1708436533.6294162,-2.151113510131836,-1.3356961023858567,-2.5238824526416224,6.131220686226644,1.012317419052124,-2.6660588423358362
1708436533.631405,-2.151130437850952,-1.3356427413276215,-2.523905102406637,6.131174909859457,1.0123130083084106,-2.666054073964254
1708436533.633439,-2.151134967803955,-1.335679979329445,-2.523900572453634,6.131241309433737,1.012321949005127,-2.666067663823263
1708436533.6354275,-2.1511056423187256,-1.335679219370224,-2.5238826910602015,6.131199824600973,1.0122758150100708,-2.6660423914538782
1708436533.637442,-2.1511600017547607,-1.3357329231551667,-2.523912493382589,6.131146657257833,1.0122877359390259,-2.66607910791506
1708436533.6395347,-2.151139497756958,-1.335655466919281,-2.5239079634295862,6.131171691208639,1.012266755104065,-2.666030470524923
1708436533.6414435,-2.151146411895752,-1.3356673431447526,-2.523912493382589,6.131211983948507,1.0122382640838623,-2.666067663823263
1708436533.6434345,-2.151141881942749,-1.3356638562730332,-2.523917023335592,6.131217109947958,1.0122382640838623,-2.6660452524768274
1708436533.6454332,-2.151155471801758,-1.335659683947899,-2.523928944264547,6.131199824600973,1.012266755104065,-2.6659935156451624
1708436533.6474407,-2.151163339614868,-1.335679979329445,-2.5238662401782435,6.131180274277487,1.012317419052124,-2.6660972277270716
1708436533.6494222,-2.151163339614868,-1.3356469583562394,-2.5238707701312464,6.13115547874526,1.0122638940811157,-2.666030470524923
1708436533.6514256,-2.151146411895752,-1.3357159060290833,-2.5239575544940394,6.131236898690023,1.0122472047805786,-2.666051451359884
1708436533.6534264,-2.151141881942749,-1.3357202124646683,-2.523928944264547,6.131192195206442,1.0122382640838623,-2.6660588423358362
1708436533.655417,-2.151146411895752,-1.3356274378350754,-2.5238495508777063,6.131179201393881,1.012266755104065,-2.666030470524923
1708436533.657455,-2.151130437850952,-1.3357321184924622,-2.5239079634295862,6.131146776467123,1.0123341083526611,-2.666037623082296
1708436533.659442,-2.151172399520874,-1.3356877130321045,-2.523945156727926,6.131183612137594,1.0122965574264526,-2.6660764853106897
1708436533.661412,-2.151134967803955,-1.335683436398842,-2.5239034334765833,6.131158578186788,1.0123296976089478,-2.666051451359884
1708436533.6634328,-2.151113510131836,-1.335700423722603,-2.523928944264547,6.131174909859457,1.0122638940811157,-2.666030470524923
1708436533.6654367,-2.151189088821411,-1.3357210022262116,-2.5238826910602015,6.131162988930502,1.0122802257537842,-2.6660452524768274
1708436533.667552,-2.151146411895752,-1.3356961172870179,-2.5239408651935022,6.131265389710226,1.0122638940811157,-2.6660423914538782
1708436533.669464,-2.151172399520874,-1.3357076358846207,-2.5239079634295862,6.13114749172286,1.0122802257537842,-2.666037623082296
1708436533.6714237,-2.1511542797088623,-1.3356428009322663,-2.523912493382589,6.131183612137594,1.0122802257537842,-2.666030470524923
1708436533.673453,-2.151125907897949,-1.3357083213380356,-2.5238869825946253,6.131135690003195,1.0122965574264526,-2.666072193776266
1708436533.6754224,-2.151125907897949,-1.3356750470450898,-2.523896042500631,6.13115547874526,1.0123296976089478,-2.666046921406881
1708436533.677449,-2.151122570037842,-1.3357083809426804,-2.5239408651935022,6.131207692414083,1.0123010873794556,-2.6660717169391077
1708436533.6795707,-2.151146411895752,-1.3357125979712983,-2.5239079634295862,6.131191122322836,1.0123130083084106,-2.6660764853106897
1708436533.6814797,-2.151141881942749,-1.3356750321439286,-2.5238991419421595,6.131146657257833,1.0122758150100708,-2.6659796873675745
1708436533.6834464,-2.151163339614868,-1.3357041490129014,-2.5239244143115442,6.13120852687911,1.0122802257537842,-2.6660142580615442
1708436533.685426,-2.1511330604553223,-1.3356715899756928,-2.5238753000842493,6.131170499115743,1.0123010873794556,-2.6660333315478724
1708436533.687444,-2.151146411895752,-1.3357202273658295,-2.5238826910602015,6.131179201393881,1.0122921466827393,-2.6660881678210657
1708436533.6894188,-2.151134967803955,-1.3356877130321045,-2.52387506166567,6.13115547874526,1.0122638940811157,-2.666030470524923
1708436533.6914158,-2.151141881942749,-1.3356631261161347,-2.5239198843585413,6.131187903672018,1.0122877359390259,-2.66602594057192
1708436533.6934326,-2.151146411895752,-1.3356554967216034,-2.523933235798971,6.1311954138572595,1.0123252868652344,-2.6660142580615442
1708436533.6954212,-2.151163339614868,-1.3356877130321045,-2.5238869825946253,6.1311389086540125,1.0123162269592285,-2.666062895451681
1708436533.6974182,-2.151155471801758,-1.3356554520181199,-2.523912493382589,6.131151187210836,1.0122965574264526,-2.6660214106189173
1708436533.6994202,-2.151143789291382,-1.3356919449618836,-2.5239244143115442,6.131236898690023,1.0122995376586914,-2.6660495440112513
1708436533.7014108,-2.151092052459717,-1.335671604876854,-2.5239108244525355,6.131146776467123,1.0123130083084106,-2.666051451359884
1708436533.7034502,-2.151150941848755,-1.3356998723796387,-2.523884121571676,6.131192314415731,1.0122921466827393,-2.6660810152636927
1708436533.7054152,-2.1511013507843018,-1.335708351140358,-2.5239198843585413,6.1311954138572595,1.0123162269592285,-2.666046921406881
1708436533.7074802,-2.1511056423187256,-1.3356630218080063,-2.5239530245410364,6.131199824600973,1.0123130083084106,-2.666035000477926
1708436533.7094293,-2.151141881942749,-1.3356672686389466,-2.5239198843585413,6.131146776467123,1.012266755104065,-2.6660879294024866
1708436533.7114122,-2.151089906692505,-1.3357159507325669,-2.523879591618673,6.1312163946922205,1.0122921466827393,-2.6660452524768274
1708436533.7134767,-2.151092052459717,-1.3356715899756928,-2.523945156727926,6.131207692414083,1.0122921466827393,-2.666037623082296
1708436533.7154546,-2.151146411895752,-1.335630552177765,-2.5239318052874964,6.131220686226644,1.0123207569122314,-2.6660588423358362
1708436533.7174442,-2.151122570037842,-1.3356474202922364,-2.5239110628711146,6.131151187210836,1.0122877359390259,-2.6660764853106897
1708436533.7194402,-2.151108980178833,-1.335695670252182,-2.5239034334765833,6.131220686226644,1.0122995376586914,-2.6661017576800745
1708436533.7214417,-2.151130437850952,-1.3356876832297822,-2.5239034334765833,6.1312163946922205,1.0123162269592285,-2.6661163012133997
1708436533.7234883,-2.1511542797088623,-1.3356833767941971,-2.523940626774923,6.131171691208639,1.0122830867767334,-2.6660717169391077
1708436533.7254157,-2.151130437850952,-1.335732103591301,-2.5239198843585413,6.131236898690023,1.0122877359390259,-2.6660423914538782
1708436533.7274437,-2.1510965824127197,-1.335663081412651,-2.5239079634295862,6.131232607155599,1.0123085975646973,-2.6660717169391077
1708436533.7294128,-2.151167869567871,-1.3356919151595612,-2.523896042500631,6.1311954138572595,1.0122830867767334,-2.666054073964254
1708436533.7314079,-2.151108980178833,-1.3357041341117402,-2.523961846028463,6.131159770279684,1.0123296976089478,-2.6660764853106897
1708436533.733444,-2.1511058807373047,-1.3356834065965195,-2.5238915125476282,6.1312163946922205,1.0123207569122314,-2.666037623082296
1708436533.7354348,-2.151108980178833,-1.3357363802245636,-2.5239153544055384,6.1311954138572595,1.0123329162597656,-2.6661582628833216
1708436533.7374446,-2.151113510131836,-1.3356596541455765,-2.5239530245410364,6.131151187210836,1.0122950077056885,-2.6660588423358362
1708436533.739426,-2.151163339614868,-1.3356919151595612,-2.523961846028463,6.131256687432089,1.0123329162597656,-2.666062895451681
1708436533.7414398,-2.151130437850952,-1.3357202124646683,-2.5239394346820276,6.1312163946922205,1.012283205986023,-2.6660929361926478
1708436533.7434847,-2.151176691055298,-1.3356960725835343,-2.5239484945880335,6.13124560096816,1.0123040676116943,-2.6661370436297815
1708436533.7454178,-2.151143789291382,-1.3356799942306061,-2.5239484945880335,6.131208407669821,1.0123162269592285,-2.666112009678976
1708436533.7474198,-2.1511056423187256,-1.3356596243432541,-2.5239692370044153,6.131204116135397,1.0123071670532227,-2.666062895451681
1708436533.7494571,-2.151130437850952,-1.335619018679001,-2.5239318052874964,6.131187903672018,1.0123116970062256,-2.6661091486560267
1708436533.7514346,-2.151122570037842,-1.33562325060878,-2.5239108244525355,6.1311988709266565,1.0123403072357178,-2.666058365498678
1708436533.753432,-2.1511270999908447,-1.335695670252182,-2.5238900820361536,6.131199824600973,1.0123403072357178,-2.666067425404684
1708436533.7554085,-2.151139497756958,-1.3356876832297822,-2.5239065329181116,6.131134617119589,1.0123193264007568,-2.666107479725973
1708436533.7574053,-2.151155471801758,-1.3357286316207428,-2.5239108244525355,6.1312163946922205,1.0123569965362549,-2.666100088750021
1708436533.7594101,-2.1511147022247314,-1.3356722605279465,-2.5239604155169886,6.131266224175253,1.0123194456100464,-2.66607910791506
1708436533.761399,-2.151108980178833,-1.3356961768916626,-2.5239065329181116,6.131232607155599,1.0123283863067627,-2.666067186986105
1708436533.7634232,-2.151122570037842,-1.3356596690467377,-2.5239604155169886,6.131179201393881,1.0123403072357178,-2.666054073964254
1708436533.765449,-2.1511056423187256,-1.3356799644282837,-2.5239062944995325,6.131183612137594,1.0123239755630493,-2.6660333315478724
1708436533.7674983,-2.1510965824127197,-1.3356554520181199,-2.5239229838000696,6.131236898690023,1.0123807191848755,-2.6661043802844446
1708436533.7694616,-2.1511270999908447,-1.3356919300607224,-2.5239153544055384,6.1311389086540125,1.0123687982559204,-2.666128222142355
1708436533.7714615,-2.1511032581329346,-1.3356842410615464,-2.523930374776022,6.1312609789665125,1.0123897790908813,-2.666123930607931
1708436533.773483,-2.151064872741699,-1.335691974764206,-2.52396804491152,6.131183612137594,1.0123435258865356,-2.666070286427633
1708436533.7754078,-2.1511642932891846,-1.3356919002584,-2.5239034334765833,6.131186830788412,1.0123599767684937,-2.66610294977297
1708436533.7774289,-2.151085376739502,-1.3356474351933976,-2.5239272753344935,6.131249892502584,1.012331247329712,-2.666107479725973
1708436533.77941,-2.151139497756958,-1.335696132188179,-2.5239153544055384,6.131229269295492,1.012376308441162,-2.6661325136767786
1708436533.781416,-2.151122570037842,-1.3356596690467377,-2.5239771048175257,6.131224977761068,1.012364387512207,-2.666152064000265
1708436533.7834196,-2.151118040084839,-1.3356630963138123,-2.5239604155169886,6.131199824600973,1.0123926401138306,-2.66614014307131
1708436533.7854068,-2.151143789291382,-1.3357083362391968,-2.5239108244525355,6.1311824200446985,1.0123599767684937,-2.6661675612079065
1708436533.78743,-2.151122570037842,-1.3356554520181199,-2.5239153544055384,6.1311964867408655,1.0124142169952393,-2.6662021319018763
1708436533.7894223,-2.1511270999908447,-1.3356715899756928,-2.5239439646350306,6.131203400879659,1.0123268365859985,-2.666131321583883
1708436533.7914093,-2.1511270999908447,-1.3356596690467377,-2.5239439646350306,6.131204116135397,1.0123391151428223,-2.6661105791675013
1708436533.7934234,-2.1510987281799316,-1.3356960874846955,-2.5239604155169886,6.131211983948507,1.01235830783844,-2.6661718527423304
1708436533.795422,-2.1511101722717285,-1.3356757921031495,-2.5239890257464808,6.131212699204244,1.0123554468154907,-2.666152064000265
1708436533.7974463,-2.151139497756958,-1.33572872102771,-2.52396804491152,6.131180393486776,1.012449860572815,-2.666131321583883
1708436533.799414,-2.1511032581329346,-1.33568428576503,-2.523979965840475,6.131207692414083,1.0123672485351562,-2.6661060492144983
1708436533.8014057,-2.151118040084839,-1.335720257168152,-2.524012867604391,6.131170618325033,1.012374758720398,-2.666143242512838
1708436533.8034503,-2.151143789291382,-1.3356998723796387,-2.523975435887472,6.131186830788412,1.0124006271362305,-2.6661601702319544
1708436533.8054276,-2.1511147022247314,-1.3356961470893403,-2.523996416722433,6.131183612137594,1.012428879737854,-2.6661556402789515
1708436533.807436,-2.1511189937591553,-1.3357003790191193,-2.523970905934469,6.131208407669821,1.0124096870422363,-2.6661341826068323
1708436533.809422,-2.151073932647705,-1.3356799644282837,-2.524020496998922,6.131228196411886,1.0123872756958008,-2.6661844889270228
1708436533.8114412,-2.1511056423187256,-1.3356316101602097,-2.5239904562579554,6.131130206375875,1.0124006271362305,-2.6661556402789515
1708436533.8134468,-2.151082754135132,-1.3356919300607224,-2.5240159670459192,6.131175982743063,1.012374758720398,-2.666168991719381
1708436533.815418,-2.1511120796203613,-1.3356723350337525,-2.523987356816427,6.131207692414083,1.0124199390411377,-2.6661844889270228
1708436533.817417,-2.151082754135132,-1.3357244294932862,-2.52405029932131,6.131199824600973,1.012405276298523,-2.6661222616778772
1708436533.8194227,-2.151069402694702,-1.3356638860753556,-2.524003807698385,6.131134617119589,1.0124200582504272,-2.6661556402789515
1708436533.8214107,-2.1511056423187256,-1.3356554520181199,-2.524003807698385,6.13116620758132,1.012445330619812,-2.666147534047262
1708436533.8234355,-2.1511573791503906,-1.3356919151595612,-2.524036709462301,6.131229269295492,1.0124363899230957,-2.6661601702319544
1708436533.8253999,-2.1510918140411377,-1.3356799942306061,-2.52399188676943,6.1312163946922205,1.012433409690857,-2.6661513487445276
1708436533.8274076,-2.1511032581329346,-1.3356554967216034,-2.524057928715841,6.131179201393881,1.0124081373214722,-2.6661210695849817
1708436533.8294258,-2.1510491371154785,-1.3356799942306061,-2.524029318486349,6.1311954138572595,1.012428879737854,-2.6662097612964075
1708436533.8313992,-2.1511147022247314,-1.3357125681689759,-2.524024788533346,6.131207692414083,1.0124485492706299,-2.6661887804614466
1708436533.8334095,-2.151078462600708,-1.3356554520181199,-2.5240159670459192,6.131220686226644,1.0123960971832275,-2.6661134401904505
1708436533.8354032,-2.1511101722717285,-1.3356877130321045,-2.523987356816427,6.131199824600973,1.0123990774154663,-2.666208092366354
1708436533.8374343,-2.1511189937591553,-1.335655466919281,-2.523975435887472,6.131201016693868,1.0124620199203491,-2.6661465803729456
1708436533.8394098,-2.1510941982269287,-1.3356877130321045,-2.523982826863424,6.1312163946922205,1.0124318599700928,-2.66617995897402
1708436533.8414028,-2.1511483192443848,-1.335643233065941,-2.5240071455584925,6.131164061814108,1.0124485492706299,-2.6661718527423304
1708436533.8434105,-2.1510703563690186,-1.3356876981309433,-2.5240114370929163,6.131142484932699,1.0124530792236328,-2.66615873972048
1708436533.8454103,-2.1511571407318115,-1.3356723201325913,-2.5240278879748743,6.131204116135397,1.0124738216400146,-2.666175667439596
1708436533.84743,-2.1511101722717285,-1.3356961470893403,-2.524008337651388,6.131171691208639,1.0124363899230957,-2.666191879902975
1708436533.84941,-2.1510987281799316,-1.3356961023858567,-2.524029318486349,6.131199824600973,1.0124363899230957,-2.6661556402789515
1708436533.8514032,-2.1510872840881348,-1.3356919151595612,-2.524020496998922,6.131265389710226,1.0124648809432983,-2.6661222616778772
1708436533.8534153,-2.151123523712158,-1.3356961023858567,-2.523999277745382,6.131211983948507,1.0124648809432983,-2.6661630312549036
1708436533.8554118,-2.1511075496673584,-1.3356757921031495,-2.523996416722433,6.1311954138572595,1.0124154090881348,-2.6661513487445276
1708436533.8574178,-2.1510941982269287,-1.335712583070137,-2.524029318486349,6.131211983948507,1.0124396085739136,-2.6662007013904017
1708436533.859401,-2.151082754135132,-1.3356715601733704,-2.523982826863424,6.131223904877462,1.0124305486679077,-2.666191879902975
1708436533.861411,-2.1511032581329346,-1.3356638562730332,-2.52395469347109,6.131199824600973,1.0125147104263306,-2.666154209767477
1708436533.8634377,-2.1510660648345947,-1.3356876981309433,-2.524025026951925,6.131240117340841,1.012477159500122,-2.6662467161761683
1708436533.8654232,-2.1510446071624756,-1.335679979329445,-2.5240159670459192,6.131154405861654,1.012526512145996,-2.6661890188800257
1708436533.8675008,-2.1511032581329346,-1.335679979329445,-2.524024788533346,6.131203400879659,1.0124967098236084,-2.6661675612079065
1708436533.8694692,-2.151082754135132,-1.3357041639140625,-2.5240324179278772,6.1311954138572595,1.012455940246582,-2.6662126223193567
1708436533.871411,-2.1511006355285645,-1.33566306651149,-2.523999277745382,6.131191122322836,1.012524962425232,-2.666224543248312
1708436533.8734045,-2.1510987281799316,-1.3357202869704743,-2.5239949862109583,6.131183612137594,1.0125161409378052,-2.666175667439596
1708436533.8754125,-2.1510987281799316,-1.3357203316739579,-2.524025026951925,6.131199824600973,1.0125161409378052,-2.66620380083193
1708436533.8774052,-2.1510987281799316,-1.33562325060878,-2.523999277745382,6.1312609789665125,1.0125495195388794,-2.666199270878927
1708436533.8794057,-2.1510941982269287,-1.335675762300827,-2.5240445772754114,6.131229269295492,1.0125041007995605,-2.666149918233053
1708436533.881461,-2.1510941982269287,-1.3356511455825348,-2.5239902178393763,6.131183612137594,1.0125702619552612,-2.6662126223193567
1708436533.88346,-2.1510703563690186,-1.335655854349472,-2.524024788533346,6.1311954138572595,1.012536883354187,-2.666191879902975
1708436533.8854215,-2.1510941982269287,-1.3356638711741944,-2.524036709462301,6.131179201393881,1.0125458240509033,-2.66620380083193
1708436533.8874319,-2.1511075496673584,-1.335668147807457,-2.523982826863424,6.131174909859457,1.0125160217285156,-2.666154209767477
1708436533.889397,-2.1510872840881348,-1.3357045215419312,-2.5240278879748743,6.131248819618978,1.01250422000885,-2.666191879902975
1708436533.8914003,-2.1511662006378174,-1.3356757772019883,-2.524003807698385,6.131208407669821,1.01254141330719,-2.6661961714373987
1708436533.8934307,-2.1510579586029053,-1.3356750470450898,-2.52403694788088,6.131195533066549,1.0125161409378052,-2.666236464177267
1708436533.8953986,-2.1510941982269287,-1.33568428576503,-2.5240400473224085,6.1312163946922205,1.0125086307525635,-2.666171137486593
1708436533.8974204,-2.1510918140411377,-1.335728646521904,-2.5240190664874476,6.131200897484579,1.01254141330719,-2.666154209767477
1708436533.8994014,-2.1510961055755615,-1.3356390756419678,-2.523987356816427,6.131211983948507,1.0124833583831787,-2.6661949793445032
1708436533.901405,-2.1511270999908447,-1.335655839448311,-2.524041239415304,6.1312163946922205,1.01250422000885,-2.6661668459521692
1708436533.9034374,-2.1510918140411377,-1.3356715899756928,-2.523999277745382,6.131175029068746,1.0124950408935547,-2.6662288347827356
1708436533.905404,-2.1510660648345947,-1.3356469732574006,-2.524062458668844,6.131162988930502,1.0125161409378052,-2.6662288347827356
1708436533.9074512,-2.1511189937591553,-1.335618944173195,-2.524041239415304,6.131207692414083,1.0125324726104736,-2.6661906878100794
1708436533.909409,-2.1511359214782715,-1.3356638711741944,-2.5240233580218714,6.131211983948507,1.012536883354187,-2.666199509297506
1708436533.9114013,-2.151082754135132,-1.335651160483696,-2.5240445772754114,6.131192195206442,1.0124547481536865,-2.666231934224264
1708436533.9134243,-2.151078462600708,-1.3357041341117402,-2.523994747792379,6.131199824600973,1.012524962425232,-2.666231934224264
1708436533.9154003,-2.1511147022247314,-1.335671604876854,-2.5240071455584925,6.131228196411886,1.012536883354187,-2.666239563618795
1708436533.9174132,-2.1510918140411377,-1.3356799942306061,-2.5240159670459192,6.1312609789665125,1.0125070810317993,-2.666224543248312
1708436533.9193933,-2.1511120796203613,-1.3356638562730332,-2.524003807698385,6.131219613343038,1.0125495195388794,-2.6662114302264612
1708436533.9213917,-2.1511051654815674,-1.3356960874846955,-2.5240445772754114,6.131248819618978,1.0125114917755127,-2.666215721760885
1708436533.9234242,-2.151033401489258,-1.3357244741967698,-2.524003807698385,6.1311954138572595,1.0125161409378052,-2.66620380083193
1708436533.9254072,-2.1510703563690186,-1.3356876981309433,-2.523999277745382,6.131224977761068,1.01250422000885,-2.66620380083193
1708436533.9273937,-2.1511101722717285,-1.3356834214976807,-2.5239785353290003,6.131199824600973,1.012536883354187,-2.666236464177267
1708436533.92946,-2.1511120796203613,-1.3356791746667405,-2.524029318486349,6.131178128510275,1.0125114917755127,-2.6661906878100794
1708436533.931418,-2.1510872840881348,-1.3356757473996659,-2.5240233580218714,6.131186830788412,1.012544870376587,-2.6662407557116907
1708436533.9334145,-2.1510491371154785,-1.3356554520181199,-2.5239785353290003,6.131162988930502,1.0125161409378052,-2.666215721760885
1708436533.9354162,-2.151061534881592,-1.3356961172870179,-2.524025026951925,6.1311954138572595,1.0125160217285156,-2.666236464177267
1708436533.93743,-2.1511359214782715,-1.3356639009765168,-2.5240607897387903,6.131199824600973,1.0125278234481812,-2.666236464177267
1708436533.9394147,-2.1510465145111084,-1.3357004088214417,-2.5240233580218714,6.131256687432089,1.0125539302825928,-2.666208092366354
1708436533.9414053,-2.1511189937591553,-1.3356998425773163,-2.5240536371814173,6.131186830788412,1.0125702619552612,-2.666231934224264
1708436533.9434578,-2.151123523712158,-1.3356800091317673,-2.5240653196917933,6.131191122322836,1.012524962425232,-2.6662233511554163
1708436533.9454076,-2.151035785675049,-1.3356511753848572,-2.5240069071399134,6.131198990135946,1.0125612020492554,-2.666231934224264
1708436533.9474204,-2.1510660648345947,-1.3356432032636185,-2.523999277745382,6.131186830788412,1.0125025510787964,-2.6662069002734583
1708436533.9494412,-2.1510918140411377,-1.3357083809426804,-2.523994747792379,6.131204116135397,1.012536883354187,-2.666290346776144
1708436533.9514685,-2.1511359214782715,-1.335683436398842,-2.5240445772754114,6.131196605950155,1.0125278234481812,-2.666239563618795
1708436533.9534,-2.151082754135132,-1.33565969884906,-2.5240491072284144,6.131244408875265,1.0125161409378052,-2.666265312825338
1708436533.9554167,-2.1510660648345947,-1.3356715750745316,-2.524003807698385,6.131228196411886,1.0125161409378052,-2.666199509297506
1708436533.9574158,-2.1511032581329346,-1.33561127007518,-2.5240324179278772,6.1312163946922205,1.0125776529312134,-2.6662233511554163
1708436533.9594166,-2.1510491371154785,-1.3356715899756928,-2.5240114370929163,6.131162869721212,1.012536883354187,-2.6662069002734583
1708436533.9614446,-2.1511120796203613,-1.3356469881585618,-2.524020496998922,6.131191003113546,1.0125658512115479,-2.666231934224264
1708436533.9634347,-2.1510748863220215,-1.335736410026886,-2.5240159670459192,6.131252395897665,1.0125070810317993,-2.666199509297506
1708436533.9654307,-2.1510872840881348,-1.335683451300003,-2.524003807698385,6.131191122322836,1.0125495195388794,-2.6662233511554163
1708436533.9675312,-2.1511075496673584,-1.3356390011361619,-2.5240069071399134,6.131231415062704,1.012544870376587,-2.6662610212909144
1708436533.9695718,-2.1510839462280273,-1.3357245039990921,-2.524008337651388,6.131228196411886,1.0125161409378052,-2.6662188212024134
1708436533.971429,-2.1510660648345947,-1.3357364249280472,-2.5240278879748743,6.131210911064901,1.0125404596328735,-2.666265312825338
1708436533.973454,-2.1511147022247314,-1.3357003641179581,-2.5240114370929163,6.131198990135946,1.012544870376587,-2.66622764268984
1708436533.9754324,-2.1510465145111084,-1.335696132188179,-2.523994747792379,6.131211983948507,1.0125205516815186,-2.666243855153219
1708436533.9774876,-2.1510918140411377,-1.3356800240329285,-2.5240278879748743,6.131244408875265,1.012536883354187,-2.666172806416647
1708436533.979448,-2.1511147022247314,-1.3356554222157975,-2.5240233580218714,6.131211983948507,1.01254141330719,-2.66622764268984
1708436533.9814296,-2.151123523712158,-1.3356715899756928,-2.524053398762838,6.131151187210836,1.0125658512115479,-2.6662114302264612
1708436533.9834435,-2.1511189937591553,-1.3356998723796387,-2.5240233580218714,6.1312445280845544,1.0125539302825928,-2.6662727038012903
1708436533.9854162,-2.151089906692505,-1.3356630963138123,-2.5240114370929163,6.131247985153951,1.0125539302825928,-2.66622764268984
1708436533.9874372,-2.1511147022247314,-1.3357159954360505,-2.5240324179278772,6.131252395897665,1.0125583410263062,-2.6662307421313685
1708436533.9894073,-2.1511189937591553,-1.3357159358314057,-2.5240114370929163,6.131210911064901,1.0125658512115479,-2.6662772337542933
1708436533.9914038,-2.1510376930236816,-1.3356681776097794,-2.5240159670459192,6.131256687432089,1.0125404596328735,-2.6662610212909144
1708436533.9934354,-2.1510918140411377,-1.3356792044690629,-2.5240159670459192,6.131191122322836,1.0125495195388794,-2.6662099997149866
1708436533.9954402,-2.1511032581329346,-1.3356919151595612,-2.5240159670459192,6.131236898690023,1.0125205516815186,-2.6662846247302454
1708436533.9974499,-2.1510918140411377,-1.3356715899756928,-2.5240159670459192,6.13122712352828,1.012544870376587,-2.6663060824023646
1708436533.9994245,-2.151061534881592,-1.3357044768384476,-2.5240114370929163,6.131281721382894,1.0125583410263062,-2.6662638823138636
1708436534.001436,-2.1511192321777344,-1.3356428307345887,-2.524020496998922,6.131253230362692,1.0125583410263062,-2.6662216822253626
1708436534.003416,-2.1510703563690186,-1.3356799942306061,-2.524069849644796,6.131280410080709,1.0125404596328735,-2.6663089434253138
1708436534.0054135,-2.1510748863220215,-1.3356554520181199,-2.5240491072284144,6.131247985153951,1.0125495195388794,-2.666288201008932
1708436534.0074434,-2.151082754135132,-1.3356390607408066,-2.5240159670459192,6.131273019104757,1.012544870376587,-2.666279379521505
1708436534.0094242,-2.151082754135132,-1.3356638711741944,-2.5240278879748743,6.131215202599325,1.012556791305542,-2.666365925465719
1708436534.0114133,-2.1511189937591553,-1.335683436398842,-2.524069849644796,6.131194698601522,1.0125943422317505,-2.666361633931295
1708436534.013423,-2.151123523712158,-1.3357210022262116,-2.5240069071399134,6.131240117340841,1.0125658512115479,-2.666312042866842
1708436534.015401,-2.1510918140411377,-1.3356799942306061,-2.5239604155169886,6.131247985153951,1.0125747919082642,-2.6663482824908655
1708436534.0174215,-2.151057243347168,-1.3356555116227646,-2.5240429083453577,6.1313010332878015,1.0125404596328735,-2.6662824789630335
1708436534.01941,-2.1510987281799316,-1.3356672835401078,-2.5240159670459192,6.131206619530477,1.0125324726104736,-2.6663482824908655
1708436534.0214074,-2.1510941982269287,-1.3356474351933976,-2.5240491072284144,6.131239402085104,1.012486219406128,-2.666323963795797
1708436534.0234275,-2.1510703563690186,-1.3357203018716355,-2.5240610281573694,6.131252395897665,1.0125161409378052,-2.6663482824908655
1708436534.0254216,-2.1511056423187256,-1.3357202869704743,-2.5240159670459192,6.131235825806417,1.0125278234481812,-2.6663077513324183
1708436534.0274518,-2.1510748863220215,-1.3356638562730332,-2.5240114370929163,6.13126419761733,1.0125731229782104,-2.6663809458362024
1708436534.029431,-2.1511032581329346,-1.3356877279332657,-2.5240233580218714,6.131243693619528,1.0125114917755127,-2.6663692633258265
1708436534.0314188,-2.1511166095733643,-1.3357041043094178,-2.5239904562579554,6.131268608361044,1.0125404596328735,-2.6663268248187464
1708436534.0334234,-2.1510961055755615,-1.3357202869704743,-2.5240190664874476,6.131222831993856,1.0126034021377563,-2.6663482824908655
1708436534.035427,-2.151069402694702,-1.3356715601733704,-2.5240491072284144,6.131255614548483,1.012556791305542,-2.666340176259176
1708436534.0374348,-2.1511189937591553,-1.3356631410172959,-2.5240445772754114,6.131222831993856,1.0125776529312134,-2.6662898699389856
1708436534.0394206,-2.1511147022247314,-1.3356791895679017,-2.5240564982043665,6.131280529289999,1.0125583410263062,-2.6663196722613733
1708436534.0414093,-2.1510918140411377,-1.3357159954360505,-2.5240564982043665,6.131255614548483,1.0125539302825928,-2.6663482824908655
1708436534.0434616,-2.1511032581329346,-1.3356631261161347,-2.5240593592273157,6.131255614548483,1.0125324726104736,-2.666323963795797
1708436534.045429,-2.151089906692505,-1.3356998574784775,-2.5240817705737513,6.131210911064901,1.0125234127044678,-2.6663482824908655
1708436534.0474496,-2.1510987281799316,-1.3356919449618836,-2.5240069071399134,6.13122712352828,1.0125324726104736,-2.6662986914264124
1708436534.0494285,-2.151073932647705,-1.3357168299010773,-2.524026695881979,6.131267535477438,1.0125234127044678,-2.6663313547717493
1708436534.0514083,-2.151089906692505,-1.3357041490129014,-2.5239980856524866,6.1313010332878015,1.012556791305542,-2.6663647333728235
1708436534.0534391,-2.151123523712158,-1.3356672835401078,-2.524053398762838,6.131280410080709,1.0125161409378052,-2.6663644949542444
1708436534.0554066,-2.1511101722717285,-1.3356673133424302,-2.5240324179278772,6.131276118546285,1.0125234127044678,-2.6663528124438685
1708436534.0574145,-2.1510794162750244,-1.335720272069313,-2.5240445772754114,6.1312880394752405,1.0124951601028442,-2.6663077513324183
1708436534.0594015,-2.1510703563690186,-1.33565969884906,-2.5240610281573694,6.131268608361044,1.0125495195388794,-2.6663439909564417
1708436534.0614088,-2.1510703563690186,-1.3356877130321045,-2.5240445772754114,6.1312750456626794,1.0125583410263062,-2.6663644949542444
1708436534.0634222,-2.1510918140411377,-1.3356834214976807,-2.5240445772754114,6.131295907288351,1.0125583410263062,-2.666361633931295
1708436534.0654392,-2.1511077880859375,-1.3357083660415192,-2.5240445772754114,6.131292331009664,1.0125495195388794,-2.6663482824908655
1708436534.0675251,-2.151123523712158,-1.3356596541455765,-2.5240445772754114,6.131300318032064,1.0125404596328735,-2.6663149038897913
1708436534.0695157,-2.151118040084839,-1.3357168149999161,-2.5240278879748743,6.1312750456626794,1.0125658512115479,-2.6663644949542444
1708436534.0714374,-2.1510465145111084,-1.3356715899756928,-2.5240400473224085,6.131328332215109,1.0125539302825928,-2.6663528124438685
1708436534.0734694,-2.151069402694702,-1.3357321184924622,-2.5240324179278772,6.131254541664877,1.012556791305542,-2.6663528124438685
1708436534.0754216,-2.1511075496673584,-1.3357202869704743,-2.524053398762838,6.131290542870321,1.0125821828842163,-2.6663528124438685
1708436534.0774238,-2.151078462600708,-1.3356757772019883,-2.5240188280688685,6.13134382942275,1.012556791305542,-2.6663358847247522
1708436534.079415,-2.1511032581329346,-1.3357125383666535,-2.5240774790393274,6.131327259331503,1.0125324726104736,-2.6663394610034388
1708436534.0814137,-2.1510918140411377,-1.3356474351933976,-2.5240491072284144,6.131339537888326,1.0125731229782104,-2.6663482824908655
1708436534.0834289,-2.1511147022247314,-1.335679219370224,-2.5240233580218714,6.131302463799276,1.0125539302825928,-2.6663313547717493
1708436534.0854335,-2.151062488555908,-1.3356800091317673,-2.5240278879748743,6.131392466812887,1.0125702619552612,-2.6663358847247522
1708436534.0874298,-2.151082754135132,-1.3355944913676758,-2.5240445772754114,6.131347167282858,1.0125612020492554,-2.6663151423083704
1708436534.0894363,-2.1510748863220215,-1.3356757772019883,-2.5240400473224085,6.131388175278463,1.012544870376587,-2.6663528124438685
1708436534.0914264,-2.151082754135132,-1.33562325060878,-2.524020496998922,6.131335246353903,1.0125404596328735,-2.6663482824908655
1708436534.093439,-2.1511147022247314,-1.335696132188179,-2.523999277745382,6.131358969002523,1.0125205516815186,-2.6663482824908655
1708436534.0954154,-2.1510658264160156,-1.335683436398842,-2.524053398762838,6.1313968775566,1.0125612020492554,-2.6663573423968714
1708436534.0974503,-2.151128053665161,-1.3356757921031495,-2.5240069071399134,6.131396162300863,1.0125404596328735,-2.6663573423968714
1708436534.099421,-2.151078462600708,-1.3356876981309433,-2.5240233580218714,6.131396162300863,1.0125114917755127,-2.6663644949542444
1708436534.1014297,-2.1510872840881348,-1.3356960874846955,-2.5240400473224085,6.131384956627645,1.0125205516815186,-2.6663106123553675
1708436534.103413,-2.1510660648345947,-1.3356347394040604,-2.5240142981158655,6.131348240166464,1.0125234127044678,-2.6663482824908655
1708436534.1054237,-2.1510660648345947,-1.3356589388898392,-2.5240188280688685,6.131363379746237,1.0125234127044678,-2.6663482824908655
1708436534.1074371,-2.1511147022247314,-1.3356800240329285,-2.5239980856524866,6.131371962815084,1.0125821828842163,-2.6663313547717493
1708436534.1094327,-2.1510918140411377,-1.3356596541455765,-2.5240445772754114,6.131358969002523,1.0125205516815186,-2.666355911885397
1708436534.111418,-2.1510872840881348,-1.3357083213380356,-2.5240069071399134,6.131339537888326,1.012556791305542,-2.6663482824908655
1708436534.1134255,-2.151073932647705,-1.3356385392001648,-2.5240026156054896,6.131326424866476,1.012556791305542,-2.6663690249072474
1708436534.1154091,-2.151061534881592,-1.3356757921031495,-2.5240684191333216,6.131360041886129,1.0125114917755127,-2.6663151423083704
1708436534.1174579,-2.1511270999908447,-1.3356757921031495,-2.5240312258349817,6.131383883744039,1.012544870376587,-2.6663394610034388
1708436534.1194189,-2.1510918140411377,-1.335679219370224,-2.5240114370929163,6.131375181465902,1.0125747919082642,-2.6663270632373255
1708436534.1214113,-2.1511316299438477,-1.3356554818204422,-2.5240278879748743,6.131392466812887,1.0125114917755127,-2.6663482824908655
1708436534.1234112,-2.1510941982269287,-1.3357125681689759,-2.5240564982043665,6.131383883744039,1.0124998092651367,-2.6663439909564417
1708436534.125393,-2.151123523712158,-1.3356843155673523,-2.5240069071399134,6.131388175278463,1.0125114917755127,-2.6663571039782923
1708436534.127414,-2.1511075496673584,-1.3356469583562394,-2.5240159670459192,6.131363379746237,1.0125495195388794,-2.6663439909564417
1708436534.1293924,-2.151082754135132,-1.3357202422669907,-2.5240474382983606,6.1313514588172815,1.0125234127044678,-2.6663482824908655
1708436534.1314013,-2.1510872840881348,-1.3356708002141495,-2.5239740053759974,6.131342756539144,1.0124996900558472,-2.6663313547717493
1708436534.1334236,-2.1511528491973877,-1.3356998872808,-2.5240445772754114,6.1313665983970544,1.0125612020492554,-2.6663809458362024
1708436534.135429,-2.1510703563690186,-1.3356758070043107,-2.5240820089923304,6.131388175278463,1.0125612020492554,-2.6663482824908655
1708436534.1374357,-2.1510941982269287,-1.3357244592956086,-2.5240114370929163,6.131383883744039,1.0126153230667114,-2.666340176259176
1708436534.1394162,-2.151082754135132,-1.3356876981309433,-2.5240278879748743,6.1313925860221765,1.0125539302825928,-2.6663313547717493
1708436534.1414254,-2.1510987281799316,-1.3357083362391968,-2.5240159670459192,6.1313067553337,1.0125495195388794,-2.6663225332843226
1708436534.1434205,-2.1511189937591553,-1.33568428576503,-2.5240233580218714,6.1313795922096155,1.0125495195388794,-2.6663644949542444
1708436534.145428,-2.1510872840881348,-1.335663915877678,-2.5240233580218714,6.131371962815084,1.0125324726104736,-2.6663482824908655
1708436534.147416,-2.1510748863220215,-1.3357287061265488,-2.5240772406207483,6.131375181465902,1.0125324726104736,-2.6663809458362024
1708436534.1494372,-2.1510872840881348,-1.3356474500945588,-2.5240400473224085,6.131317961006918,1.0125658512115479,-2.6663482824908655
1708436534.1514175,-2.1511101722717285,-1.3357041490129014,-2.5240233580218714,6.131342756539144,1.0125583410263062,-2.6663196722613733
1708436534.1534173,-2.1510658264160156,-1.3356715601733704,-2.5240145365344446,6.131360041886129,1.0125278234481812,-2.6663644949542444
1708436534.1554065,-2.1511075496673584,-1.3356919151595612,-2.5240159670459192,6.1313968775566,1.0125867128372192,-2.6663482824908655
1708436534.1574206,-2.1510872840881348,-1.3357075911811371,-2.5240278879748743,6.131335246353903,1.0125278234481812,-2.6663151423083704
1708436534.1594343,-2.1510491371154785,-1.3357125234654923,-2.5240145365344446,6.131387460022726,1.0125404596328735,-2.6663358847247522
1708436534.1614306,-2.151123523712158,-1.3356672537377854,-2.5239980856524866,6.1313968775566,1.012544870376587,-2.666328255330221
1708436534.163402,-2.151127815246582,-1.3356681627086182,-2.5240071455584925,6.131416666298666,1.0125776529312134,-2.6663358847247522
1708436534.1654162,-2.1511166095733643,-1.3356673133424302,-2.5240026156054896,6.131405460625448,1.0125404596328735,-2.6663358847247522
1708436534.167448,-2.151078462600708,-1.3357041639140625,-2.5240278879748743,6.131388175278463,1.0125523805618286,-2.6663482824908655
1708436534.1695032,-2.151078462600708,-1.335683436398842,-2.524057928715841,6.131384956627645,1.0125658512115479,-2.6663809458362024
1708436534.1714277,-2.151082754135132,-1.3357244443944474,-2.5240564982043665,6.131330954819479,1.0125114917755127,-2.6663151423083704
1708436534.1734378,-2.1511166095733643,-1.3356877130321045,-2.5240233580218714,6.1313525317008875,1.0125495195388794,-2.6663528124438685
1708436534.1754017,-2.151123523712158,-1.3356554967216034,-2.524003807698385,6.13137303569869,1.0125278234481812,-2.6663482824908655
1708436534.1774123,-2.1510446071624756,-1.3357125234654923,-2.5239904562579554,6.1313795922096155,1.012536883354187,-2.6663106123553675
1708436534.1794727,-2.1511147022247314,-1.3356512200883408,-2.5240233580218714,6.131355750351705,1.0125658512115479,-2.6663644949542444
1708436534.1814368,-2.151061534881592,-1.3356792491725464,-2.5240564982043665,6.131400453835287,1.0125495195388794,-2.666340176259176
1708436534.1834202,-2.1510941982269287,-1.3356715899756928,-2.5240145365344446,6.13134394863204,1.0125495195388794,-2.6663692633258265
1708436534.185428,-2.1510446071624756,-1.3356474351933976,-2.523994747792379,6.1313514588172815,1.0125539302825928,-2.6663482824908655
1708436534.187415,-2.151143789291382,-1.3356673133424302,-2.52403694788088,6.131392466812887,1.0125658512115479,-2.6663313547717493
1708436534.1894147,-2.1510703563690186,-1.3357041341117402,-2.5240519682513636,6.131383883744039,1.0125702619552612,-2.6662986914264124
1708436534.1914115,-2.1511528491973877,-1.335720272069313,-2.5239904562579554,6.131355750351705,1.0125161409378052,-2.666340176259176
1708436534.1934068,-2.151028871536255,-1.3356596690467377,-2.5240400473224085,6.131314384728231,1.0125612020492554,-2.6663571039782923
1708436534.1954284,-2.1511101722717285,-1.3356757772019883,-2.5240400473224085,6.131335246353903,1.0125495195388794,-2.6663528124438685
1708436534.1974235,-2.1510703563690186,-1.335646928553917,-2.5240488688098353,6.1313514588172815,1.0125776529312134,-2.666370455418722
1708436534.1994364,-2.151061534881592,-1.335679219370224,-2.5240445772754114,6.131335246353903,1.0125161409378052,-2.6663358847247522
1708436534.2014043,-2.151078224182129,-1.3356799942306061,-2.5240278879748743,6.131380665093221,1.0125114917755127,-2.6663482824908655
1708436534.2034307,-2.1510703563690186,-1.335708351140358,-2.5239949862109583,6.131326544075765,1.0125539302825928,-2.666361633931295
1708436534.205443,-2.1510872840881348,-1.3356800240329285,-2.5240445772754114,6.13136767128066,1.012524962425232,-2.6663313547717493
1708436534.207404,-2.1510941982269287,-1.335683436398842,-2.5240491072284144,6.131339537888326,1.012556791305542,-2.666344706212179
1708436534.2094111,-2.1510918140411377,-1.3356275123408814,-2.5240324179278772,6.131330954819479,1.0125612020492554,-2.6663358847247522
1708436534.2114062,-2.1510660648345947,-1.3356757921031495,-2.5240355173694056,6.131384956627645,1.012544870376587,-2.666344706212179
1708436534.213431,-2.1511032581329346,-1.335655466919281,-2.5240069071399134,6.131302463799276,1.0125539302825928,-2.6663571039782923
1708436534.2154193,-2.1510376930236816,-1.335655839448311,-2.5240069071399134,6.1313384650047205,1.0124996900558472,-2.6663528124438685
1708436534.2174222,-2.1510941982269287,-1.3356554967216034,-2.5240474382983606,6.131355750351705,1.0125070810317993,-2.6663196722613733
1708436534.219409,-2.1510918140411377,-1.3356877130321045,-2.5240159670459192,6.131363379746237,1.0125612020492554,-2.6663196722613733
1708436534.221409,-2.1510961055755615,-1.3356919151595612,-2.5240114370929163,6.1313525317008875,1.0125404596328735,-2.666328255330221
1708436534.2234538,-2.1511147022247314,-1.3357083809426804,-2.5240114370929163,6.131331670075216,1.0125324726104736,-2.6663571039782923
1708436534.2254412,-2.1510660648345947,-1.3356877130321045,-2.5240491072284144,6.131376254349508,1.0125404596328735,-2.6663032213794153
1708436534.227428,-2.151089906692505,-1.3356758070043107,-2.5240114370929163,6.13134382942275,1.0125278234481812,-2.666312042866842
1708436534.2294064,-2.1511032581329346,-1.3356914532235642,-2.5240233580218714,6.131376373558798,1.0125539302825928,-2.6663151423083704
1708436534.2314076,-2.1510918140411377,-1.335687668328621,-2.5240233580218714,6.131322967797079,1.012544870376587,-2.6663690249072474
1708436534.2334414,-2.1510703563690186,-1.3357125234654923,-2.5240324179278772,6.13136767128066,1.0125612020492554,-2.666323963795797
1708436534.2354147,-2.1510579586029053,-1.3357447546771546,-2.5240026156054896,6.1313067553337,1.0125404596328735,-2.6663358847247522
1708436534.2374382,-2.1511147022247314,-1.3356834065965195,-2.5240233580218714,6.131309973984518,1.0125278234481812,-2.6663313547717493
1708436534.2394125,-2.1510376930236816,-1.3356799942306061,-2.5240278879748743,6.131360041886129,1.0125658512115479,-2.666316334401266
1708436534.2413955,-2.1510748863220215,-1.3356681329062958,-2.5240159670459192,6.131302463799276,1.0125161409378052,-2.666340176259176
1708436534.2434719,-2.1510987281799316,-1.3356389862350007,-2.5240278879748743,6.131309973984518,1.0125404596328735,-2.6663528124438685
1708436534.245447,-2.151082754135132,-1.335634784107544,-2.5240188280688685,6.131377327233114,1.0124742984771729,-2.666361633931295
1708436534.2474344,-2.1510941982269287,-1.3356998574784775,-2.5240564982043665,6.131340253144064,1.0125612020492554,-2.666361633931295
1708436534.249443,-2.1510703563690186,-1.3357160103372117,-2.5240610281573694,6.13133596160964,1.0125278234481812,-2.6663573423968714
1708436534.2514436,-2.1510987281799316,-1.3356792342713852,-2.5240445772754114,6.131299245148458,1.0125495195388794,-2.6663151423083704
1708436534.253445,-2.151078462600708,-1.3357125234654923,-2.5240278879748743,6.131270754128256,1.0125114917755127,-2.6663032213794153
1708436534.2554214,-2.151123523712158,-1.3356512051871796,-2.524053398762838,6.131286251335897,1.01254141330719,-2.6662870089160364
1708436534.2574503,-2.1511032581329346,-1.3357041639140625,-2.5240278879748743,6.131340253144064,1.0125234127044678,-2.666344706212179
1708436534.2594273,-2.1510872840881348,-1.3357083660415192,-2.5239859263049524,6.131295907288351,1.0125702619552612,-2.666348997746603
1708436534.2614152,-2.1510872840881348,-1.3356390756419678,-2.5240564982043665,6.131319749146261,1.012556791305542,-2.6662750879870813
1708436534.263456,-2.151128053665161,-1.3356843155673523,-2.5240729490863245,6.131324040680685,1.0125114917755127,-2.6662913004504603
1708436534.2654233,-2.1510941982269287,-1.3356554818204422,-2.5240145365344446,6.131303536682882,1.0125070810317993,-2.6663196722613733
1708436534.267456,-2.1511147022247314,-1.3356877130321045,-2.5240564982043665,6.131304609566488,1.0125234127044678,-2.666316334401266
1708436534.2694893,-2.1510941982269287,-1.3356197786382218,-2.5240772406207483,6.131280410080709,1.0125702619552612,-2.666328255330221
1708436534.2715075,-2.1510660648345947,-1.335647003059723,-2.5239904562579554,6.13126419761733,1.0125278234481812,-2.6662986914264124
1708436534.273462,-2.151082754135132,-1.3357286614230652,-2.5240564982043665,6.131222831993856,1.0125190019607544,-2.6663032213794153
1708436534.2754242,-2.1511147022247314,-1.3357320588878174,-2.5240159670459192,6.131252395897665,1.0125612020492554,-2.66630202928652
1708436534.2774475,-2.1510703563690186,-1.335672290330269,-2.5240519682513636,6.131256687432089,1.012524962425232,-2.6662986914264124
1708436534.2794118,-2.1510872840881348,-1.3356961619905015,-2.5240564982043665,6.131255614548483,1.0125278234481812,-2.6662824789630335
1708436534.2814014,-2.1510918140411377,-1.3356876385262986,-2.5240114370929163,6.131194698601522,1.0125821828842163,-2.6662824789630335
1708436534.283452,-2.1510987281799316,-1.3356469434550782,-2.5240069071399134,6.131228196411886,1.0125495195388794,-2.6663032213794153
1708436534.285398,-2.151123523712158,-1.3356799942306061,-2.5240445772754114,6.131212103157797,1.012556791305542,-2.6663077513324183
1708436534.2874353,-2.151122570037842,-1.3356638711741944,-2.5240233580218714,6.131273019104757,1.0125495195388794,-2.6663416067706507
1708436534.2894073,-2.1510872840881348,-1.3356914085200806,-2.5240145365344446,6.131219613343038,1.0125495195388794,-2.666340176259176
1708436534.2914116,-2.1511404514312744,-1.3356722307256241,-2.5240069071399134,6.1312163946922205,1.0125702619552612,-2.6663358847247522
1708436534.293451,-2.151082754135132,-1.3357041490129014,-2.5240400473224085,6.131223904877462,1.0125612020492554,-2.6662986914264124
1708436534.2954338,-2.151078462600708,-1.3357041490129014,-2.5240324179278772,6.131170499115743,1.0125495195388794,-2.6662824789630335
1708436534.2974255,-2.151078462600708,-1.3356630963138123,-2.5239949862109583,6.131223904877462,1.012524962425232,-2.6663482824908655
1708436534.2994092,-2.1510660648345947,-1.3356834214976807,-2.5240069071399134,6.131207692414083,1.0125234127044678,-2.666344706212179
1708436534.3013976,-2.1511075496673584,-1.3357524585774918,-2.5240564982043665,6.131179201393881,1.0125205516815186,-2.6662870089160364
1708436534.303424,-2.1510794162750244,-1.3356877130321045,-2.5240564982043665,6.131224977761068,1.0124996900558472,-2.6662986914264124
1708436534.3054056,-2.1510987281799316,-1.3356346797994156,-2.5240564982043665,6.1312163946922205,1.0125495195388794,-2.666295830403463
1708436534.3074448,-2.151061534881592,-1.3356919151595612,-2.5239904562579554,6.1312445280845544,1.0125404596328735,-2.666295830403463
1708436534.3094234,-2.1510748863220215,-1.3356673133424302,-2.5240400473224085,6.131170618325033,1.012544870376587,-2.666295830403463
1708436534.3114336,-2.151061534881592,-1.3356919151595612,-2.5240445772754114,6.131199824600973,1.0125702619552612,-2.666316334401266
1708436534.3134308,-2.1510941982269287,-1.3356961023858567,-2.5240278879748743,6.1312609789665125,1.0125988721847534,-2.666323963795797
1708436534.3154206,-2.1510703563690186,-1.3356715899756928,-2.5240355173694056,6.131180274277487,1.012536883354187,-2.666304413472311
1708436534.317451,-2.1510534286499023,-1.3356757772019883,-2.5240069071399134,6.131162988930502,1.0125404596328735,-2.6663528124438685
1708436534.3194244,-2.1510987281799316,-1.3356558990529557,-2.5240564982043665,6.131179201393881,1.0125278234481812,-2.666316334401266
1708436534.3214152,-2.1510536670684814,-1.3356715899756928,-2.5240309874164026,6.131248819618978,1.0125898122787476,-2.666295830403463
1708436534.3234105,-2.1511075496673584,-1.3356715899756928,-2.5240564982043665,6.131232607155599,1.0125161409378052,-2.666323963795797
1708436534.325455,-2.1510703563690186,-1.33568728089843,-2.5240638891803187,6.1311954138572595,1.012556791305542,-2.666279379521505
1708436534.327415,-2.1510491371154785,-1.335659683947899,-2.5240638891803187,6.1311964867408655,1.0125404596328735,-2.6662750879870813
1708436534.3294063,-2.151089906692505,-1.3356681925109406,-2.5240684191333216,6.131179201393881,1.0125278234481812,-2.666312042866842
1708436534.331425,-2.1511404514312744,-1.3356961023858567,-2.5240729490863245,6.13115547874526,1.012568712234497,-2.6663571039782923
1708436534.333434,-2.1511359214782715,-1.3356799942306061,-2.5240519682513636,6.131212103157797,1.0125792026519775,-2.6662913004504603
1708436534.335405,-2.1510660648345947,-1.3356919151595612,-2.5240474382983606,6.13115547874526,1.012544870376587,-2.666328255330221
1708436534.337449,-2.151089906692505,-1.3356919151595612,-2.5240803400622767,6.1312163946922205,1.0125359296798706,-2.666361633931295
1708436534.3394275,-2.1510918140411377,-1.3356919151595612,-2.5240474382983606,6.131220686226644,1.012556791305542,-2.666328255330221
1708436534.3414273,-2.151078462600708,-1.3356919151595612,-2.5240519682513636,6.131171691208639,1.012556791305542,-2.666316334401266
1708436534.3434346,-2.1510872840881348,-1.3357003790191193,-2.5240564982043665,6.131146657257833,1.0125776529312134,-2.6663358847247522
1708436534.345438,-2.151028633117676,-1.3356715899756928,-2.5240684191333216,6.131204116135397,1.012556791305542,-2.666344706212179
1708436534.3474252,-2.1510748863220215,-1.3357041490129014,-2.5240519682513636,6.1311954138572595,1.0125278234481812,-2.6663578192340296
1708436534.3494186,-2.1510703563690186,-1.3356758070043107,-2.5240684191333216,6.131180274277487,1.0125359296798706,-2.666312042866842
1708436534.3514264,-2.1510660648345947,-1.3356474351933976,-2.5240729490863245,6.131221520691671,1.0125404596328735,-2.6662662664996546
1708436534.3534296,-2.1510660648345947,-1.3356961023858567,-2.5240188280688685,6.131172764092245,1.0125114917755127,-2.666323963795797
1708436534.3554544,-2.1511270999908447,-1.3357041490129014,-2.5240474382983606,6.131175982743063,1.012544870376587,-2.666300121937887
1708436534.357434,-2.1511147022247314,-1.3357245039990921,-2.5240729490863245,6.131199824600973,1.012556791305542,-2.6662913004504603
1708436534.3594196,-2.1510794162750244,-1.3356750470450898,-2.5240519682513636,6.131113993912496,1.012544870376587,-2.666348997746603
1708436534.3614166,-2.1510403156280518,-1.3356715899756928,-2.5240145365344446,6.131126987725057,1.012556791305542,-2.6663370768176478
1708436534.3634355,-2.1511032581329346,-1.3356919151595612,-2.5240519682513636,6.131175982743063,1.0125278234481812,-2.6663528124438685
1708436534.3654325,-2.151078462600708,-1.3357363802245636,-2.5240848700152796,6.131122576981344,1.012544870376587,-2.6662707964526575
1708436534.367482,-2.151128053665161,-1.3356757921031495,-2.5240400473224085,6.13115547874526,1.0125495195388794,-2.666266981755392
1708436534.36952,-2.1510872840881348,-1.3356834065965195,-2.5240684191333216,6.131196605950155,1.0125114917755127,-2.666348997746603
1708436534.3714862,-2.1510872840881348,-1.3356792342713852,-2.5240772406207483,6.13115547874526,1.0125821828842163,-2.666323963795797
1708436534.3734925,-2.1511101722717285,-1.3356750470450898,-2.5240729490863245,6.131134497910299,1.012556791305542,-2.666283909474508
1708436534.3754263,-2.1510703563690186,-1.3357041490129014,-2.5240474382983606,6.131168472557821,1.012556791305542,-2.6663151423083704
1708436534.377442,-2.1510918140411377,-1.3356877130321045,-2.5240593592273157,6.131164061814108,1.012536883354187,-2.666304413472311
1708436534.3794227,-2.1510794162750244,-1.3356799942306061,-2.5240684191333216,6.131142484932699,1.0125731229782104,-2.6663358847247522
1708436534.3814223,-2.1511032581329346,-1.3356638711741944,-2.5240519682513636,6.13115547874526,1.012556791305542,-2.6663032213794153
1708436534.383482,-2.151082754135132,-1.3356877130321045,-2.5240309874164026,6.131236898690023,1.0125404596328735,-2.6663358847247522
1708436534.3854134,-2.1510872840881348,-1.3357159954360505,-2.5240309874164026,6.13114749172286,1.0125069618225098,-2.6663089434253138
1708436534.3874273,-2.1510660648345947,-1.3357083660415192,-2.5240684191333216,6.131192195206442,1.0125540494918823,-2.666323963795797
1708436534.3894408,-2.1510872840881348,-1.335696057682373,-2.5240684191333216,6.131159770279684,1.0125404596328735,-2.666348997746603
1708436534.391424,-2.1510872840881348,-1.3356631261161347,-2.5240309874164026,6.131180274277487,1.012561321258545,-2.6662662664996546
1708436534.3934445,-2.151123523712158,-1.3357044917396088,-2.5240803400622767,6.131192195206442,1.0125972032546997,-2.6663151423083704
1708436534.395412,-2.1511189937591553,-1.3357363802245636,-2.5240309874164026,6.131131279259481,1.0125359296798706,-2.6663532892810267
1708436534.3974335,-2.1510872840881348,-1.335670844917633,-2.5240729490863245,6.131134497910299,1.0125404596328735,-2.6663370768176478
1708436534.3994007,-2.1510872840881348,-1.3356631261161347,-2.5240638891803187,6.131168472557821,1.0125324726104736,-2.6663313547717493
1708436534.4013999,-2.1510961055755615,-1.335679219370224,-2.5240474382983606,6.131135690003195,1.012561321258545,-2.666300121937887
1708436534.403417,-2.1510703563690186,-1.3356998723796387,-2.5240593592273157,6.131126987725057,1.0125324726104736,-2.666258160267965
1708436534.4053943,-2.1510579586029053,-1.3356884133866807,-2.5240638891803187,6.13115547874526,1.0125776529312134,-2.666300121937887
1708436534.4074264,-2.1511189937591553,-1.3356716346791764,-2.524066750203268,6.131159770279684,1.0125776529312134,-2.666316334401266
1708436534.4094098,-2.1510536670684814,-1.335708351140358,-2.5240593592273157,6.131196605950155,1.0125641822814941,-2.666344706212179
1708436534.411407,-2.151061534881592,-1.3356188994697114,-2.5240967909442347,6.131200897484579,1.0125658512115479,-2.666328255330221
1708436534.413416,-2.1510331630706787,-1.3356715750745316,-2.5240684191333216,6.131143200188436,1.0125776529312134,-2.6663034597979944
1708436534.4154458,-2.1510794162750244,-1.3357168299010773,-2.5240429083453577,6.1311846850212,1.0125658512115479,-2.6663196722613733
1708436534.4174676,-2.1510703563690186,-1.3357244592956086,-2.5240638891803187,6.131119477539816,1.0125764608383179,-2.6662870089160364
1708436534.4194129,-2.151082754135132,-1.3356998425773163,-2.5240429083453577,6.1311226961906335,1.0125404596328735,-2.666328255330221
1708436534.4214225,-2.1510446071624756,-1.3357168299010773,-2.5240429083453577,6.131188976555624,1.0125433206558228,-2.6663151423083704
1708436534.4234154,-2.1510703563690186,-1.3356757921031495,-2.5240758101092737,6.131221401482382,1.012568712234497,-2.6663444677936
1708436534.425432,-2.151078462600708,-1.335696132188179,-2.5240638891803187,6.131131279259481,1.0125234127044678,-2.6662989298449915
1708436534.4274268,-2.1510918140411377,-1.3356919151595612,-2.5240803400622767,6.1311519024665735,1.0125641822814941,-2.6663370768176478
1708436534.4294374,-2.1510748863220215,-1.3356834214976807,-2.524054829274313,6.131180274277487,1.0125404596328735,-2.6662796179400843
1708436534.4314544,-2.1510422229766846,-1.3357244592956086,-2.5240684191333216,6.131188976555624,1.0125612020492554,-2.666332546864645
1708436534.4334388,-2.1510510444641113,-1.3356512051871796,-2.5240474382983606,6.131126987725057,1.012568712234497,-2.6663206259356897
1708436534.4354136,-2.1510579586029053,-1.3356919151595612,-2.5240564982043665,6.131162988930502,1.0125433206558228,-2.666300121937887
1708436534.4374468,-2.151123523712158,-1.335728646521904,-2.524071280156271,6.1311519024665735,1.012552261352539,-2.6663251558886927
1708436534.4394212,-2.1510748863220215,-1.3357041490129014,-2.5240638891803187,6.1311846850212,1.012606143951416,-2.666304413472311
1708436534.4414146,-2.1510660648345947,-1.3357041341117402,-2.5240803400622767,6.131144273072042,1.0125764608383179,-2.666262690220968
1708436534.4434142,-2.151062488555908,-1.3356512051871796,-2.524113718663351,6.131115066796102,1.0125808715820312,-2.666332546864645
1708436534.4454417,-2.1510872840881348,-1.3356799942306061,-2.524087731038229,6.131217109947958,1.0125854015350342,-2.666316334401266
1708436534.4474173,-2.151078462600708,-1.3356842708638688,-2.5240772406207483,6.131189095764913,1.012514352798462,-2.666312042866842
1708436534.4494343,-2.1511075496673584,-1.3357041490129014,-2.524022165928976,6.131192195206442,1.0125972032546997,-2.6662986914264124
1708436534.4514358,-2.1510748863220215,-1.3356715899756928,-2.5240429083453577,6.131156194000997,1.0125808715820312,-2.6663034597979944
1708436534.4534264,-2.1510536670684814,-1.3356715899756928,-2.5240638891803187,6.13115285614089,1.012588381767273,-2.666316334401266
1708436534.4554179,-2.1510703563690186,-1.335639016037323,-2.5241056124316614,6.1311846850212,1.0125854015350342,-2.6662915388690394
1708436534.457413,-2.1511120796203613,-1.3357491356185456,-2.524113718663351,6.1311519024665735,1.0125641822814941,-2.6663196722613733
1708436534.459403,-2.1510703563690186,-1.3356799942306061,-2.524017635975973,6.131122576981344,1.0125720500946045,-2.6663313547717493
1708436534.4614115,-2.1510794162750244,-1.3357045513442536,-2.5240846315967005,6.13114749172286,1.0125973224639893,-2.666323963795797
1708436534.4634242,-2.1510536670684814,-1.3356961470893403,-2.5240474382983606,6.131188976555624,1.0125597715377808,-2.666316334401266
1708436534.4653935,-2.1510918140411377,-1.3356919151595612,-2.52405029932131,6.131164061814108,1.0125523805618286,-2.6663444677936
1708436534.4674113,-2.1511075496673584,-1.3357159954360505,-2.5240638891803187,6.131160485535421,1.0125927925109863,-2.6662915388690394
1708436534.4694824,-2.1510918140411377,-1.3357117635062714,-2.524100128804342,6.131151187210836,1.0125808715820312,-2.6662870089160364
1708436534.4714806,-2.1511051654815674,-1.3356673133424302,-2.524113718663351,6.1311107752616785,1.012589931488037,-2.6663077513324183
1708436534.4734426,-2.1510794162750244,-1.3356961023858567,-2.5240593592273157,6.1310990927513025,1.0126018524169922,-2.6663077513324183
1708436534.475423,-2.1510579586029053,-1.3356715899756928,-2.524066750203268,6.13114749172286,1.012556791305542,-2.666312042866842
1708436534.4774165,-2.1511075496673584,-1.3356919151595612,-2.5240758101092737,6.1311389086540125,1.0125808715820312,-2.6663196722613733
1708436534.4794226,-2.1510422229766846,-1.3357159507325669,-2.524071280156271,6.131183612137594,1.0125808715820312,-2.6663370768176478
1708436534.4814181,-2.1510748863220215,-1.3356554520181199,-2.5240519682513636,6.131197440415182,1.0125808715820312,-2.666295830403463
1708436534.483424,-2.1510794162750244,-1.3356554520181199,-2.5240965525256556,6.131175982743063,1.0125854015350342,-2.666328255330221
1708436534.4854147,-2.1510794162750244,-1.3357286912253876,-2.5240474382983606,6.131061064987936,1.0125685930252075,-2.6663034597979944
1708436534.4874132,-2.1510331630706787,-1.3357041639140625,-2.524071280156271,6.1311964867408655,1.012589931488037,-2.666323963795797
1708436534.489411,-2.1511483192443848,-1.3356672835401078,-2.524100128804342,6.131241190224447,1.0125973224639893,-2.666348997746603
1708436534.4914343,-2.1510837078094482,-1.3357202869704743,-2.5240593592273157,6.13124560096816,1.0125972032546997,-2.6663532892810267
1708436534.493433,-2.151057004928589,-1.3356764626554032,-2.5240638891803187,6.1311389086540125,1.0125596523284912,-2.666300121937887
1708436534.49542,-2.1510987281799316,-1.3356715899756928,-2.524026695881979,6.131164061814108,1.0125972032546997,-2.666348997746603
1708436534.4974215,-2.1510794162750244,-1.3356876981309433,-2.5240638891803187,6.131159770279684,1.0125477313995361,-2.666348997746603
1708436534.4994142,-2.1510703563690186,-1.3356715899756928,-2.524033848439352,6.131167399674215,1.0125433206558228,-2.6663034597979944
1708436534.5014155,-2.1510961055755615,-1.3356919151595612,-2.524013344441549,6.131168472557821,1.0125898122787476,-2.666323963795797
1708436534.5034516,-2.1510872840881348,-1.3357405674508591,-2.524083201085226,6.131131279259481,1.0125764608383179,-2.6663444677936
1708436534.5054243,-2.1510536670684814,-1.3357125234654923,-2.5240803400622767,6.131229269295492,1.0125389099121094,-2.666312042866842
1708436534.5074425,-2.1510703563690186,-1.3357125383666535,-2.5240803400622767,6.131183612137594,1.0125927925109863,-2.666300121937887
1708436534.5094268,-2.1511166095733643,-1.3357210022262116,-2.524066750203268,6.131200897484579,1.0125597715377808,-2.6663034597979944
1708436534.5114255,-2.151128053665161,-1.3357041490129014,-2.5240593592273157,6.131187903672018,1.0125776529312134,-2.6662662664996546
1708436534.5134447,-2.151062488555908,-1.3357044917396088,-2.5240848700152796,6.131158697396078,1.0125854015350342,-2.666295830403463
1708436534.5154257,-2.1510376930236816,-1.3357041341117402,-2.524095598851339,6.131224977761068,1.0125808715820312,-2.6663532892810267
1708436534.5174336,-2.1510660648345947,-1.3356554520181199,-2.524109188710348,6.131229269295492,1.0125641822814941,-2.666266981755392
1708436534.5194147,-2.1511120796203613,-1.3356833767941971,-2.524071280156271,6.1311964867408655,1.0126018524169922,-2.6662054697619837
1708436534.5214086,-2.1510703563690186,-1.3356961023858567,-2.5240803400622767,6.131125795632162,1.0125808715820312,-2.6662519613849085
1708436534.5234494,-2.1510987281799316,-1.3357609671405335,-2.5241165796863,6.131228196411886,1.012588381767273,-2.6661625544177454
1708436534.5254114,-2.1510748863220215,-1.3357245039990921,-2.524083201085226,6.131186830788412,1.0125854015350342,-2.6661718527423304
1708436534.527422,-2.1511032581329346,-1.335671604876854,-2.524109188710348,6.131142484932699,1.0125927925109863,-2.666143242512838
1708436534.5294132,-2.1510536670684814,-1.3356512498906632,-2.5240474382983606,6.131187903672018,1.0125808715820312,-2.666107479725973
1708436534.5313988,-2.1510941982269287,-1.3356596690467377,-2.524055067692892,6.1312163946922205,1.0126136541366577,-2.6661253611194056
1708436534.5334568,-2.1510510444641113,-1.3356469434550782,-2.524066750203268,6.131212818413534,1.0125927925109863,-2.666107479725973
1708436534.5354092,-2.1510660648345947,-1.335667298441269,-2.5240638891803187,6.131186830788412,1.0125552415847778,-2.6660142580615442
1708436534.537433,-2.1510748863220215,-1.335695670252182,-2.524054829274313,6.131265389710226,1.0125972032546997,-2.666018788014547
1708436534.5394082,-2.1510331630706787,-1.3356588792851944,-2.5240593592273157,6.131207692414083,1.0125808715820312,-2.666027609501974
1708436534.541401,-2.1510660648345947,-1.335688368683197,-2.5240922609912317,6.1311954138572595,1.012571930885315,-2.665971104298727
1708436534.5434272,-2.1511006355285645,-1.3356834214976807,-2.5240758101092737,6.131256687432089,1.012568712234497,-2.665945116673605
1708436534.5454042,-2.1511101722717285,-1.3356588792851944,-2.5240638891803187,6.131229269295492,1.0125927925109863,-2.6659467856036585
1708436534.547433,-2.1510376930236816,-1.3357041639140625,-2.524137560521261,6.131278264313497,1.0125854015350342,-2.6658476034747522
1708436534.5494034,-2.1511120796203613,-1.3356918853572388,-2.5240922609912317,6.131232607155599,1.0125972032546997,-2.665828053151266
1708436534.5514174,-2.151062488555908,-1.33568428576503,-2.5241013208972376,6.131236898690023,1.0126214027404785,-2.6658576170550745
1708436534.5534232,-2.1510872840881348,-1.3357159507325669,-2.5240965525256556,6.131231415062704,1.0126091241836548,-2.665818516408102
1708436534.5554223,-2.1510918140411377,-1.3356474798968812,-2.524071280156271,6.131252276688375,1.0126047134399414,-2.66579777399172
1708436534.557457,-2.1510660648345947,-1.3357245039990921,-2.5240684191333216,6.131219613343038,1.0125808715820312,-2.6657496134387415
1708436534.5594203,-2.1510491371154785,-1.3356757921031495,-2.524087731038229,6.131191122322836,1.0125808715820312,-2.6657050291644495
1708436534.5613985,-2.1510987281799316,-1.3356511753848572,-2.5240922609912317,6.131263124733724,1.0125552415847778,-2.6656652132617396
1708436534.563431,-2.1511030197143555,-1.3356998574784775,-2.5240638891803187,6.131247985153951,1.0126047134399414,-2.6656175295459192
1708436534.565417,-2.151082754135132,-1.3356673282435914,-2.524109188710348,6.1312728998954675,1.0125641822814941,-2.6655569712268274
1708436534.5674303,-2.1511120796203613,-1.335720257168152,-2.5240474382983606,6.131239402085104,1.0125597715377808,-2.66553765932192
1708436534.569436,-2.1510703563690186,-1.3356876981309433,-2.5240309874164026,6.131304609566488,1.0126303434371948,-2.6654487291919153
1708436534.5714524,-2.1510536670684814,-1.3357202869704743,-2.524038616810934,6.131292331009664,1.0126259326934814,-2.665391508732931
1708436534.5734286,-2.1510703563690186,-1.3356877130321045,-2.5240429083453577,6.131361830025472,1.0125927925109863,-2.665368620549337
1708436534.5754147,-2.151062488555908,-1.335695670252182,-2.524113718663351,6.1313034174735925,1.012579321861267,-2.665271584187643
1708436534.5774672,-2.1510536670684814,-1.335740627055504,-2.524087731038229,6.131356823235311,1.0126214027404785,-2.6651797930346888
1708436534.5794134,-2.1510536670684814,-1.3356757921031495,-2.5240922609912317,6.13137303569869,1.0126047134399414,-2.6651485602008265
1708436534.5814111,-2.1511032581329346,-1.3357159954360505,-2.524100128804342,6.131261932640829,1.0126001834869385,-2.664976421986715
1708436534.5834591,-2.1510918140411377,-1.3357279163650055,-2.5240922609912317,6.1313644526298425,1.0126380920410156,-2.6648641268359583
1708436534.585412,-2.1511166095733643,-1.3356876981309433,-2.524100128804342,6.13133596160964,1.0126214027404785,-2.66484243074526
1708436534.5874422,-2.1511006355285645,-1.3356750470450898,-2.5240922609912317,6.131294834404745,1.0126047134399414,-2.664725367222921
1708436534.589408,-2.1510703563690186,-1.3356343370727082,-2.5240803400622767,6.131290542870321,1.0126454830169678,-2.664652649556295
1708436534.5914032,-2.151067018508911,-1.3356834214976807,-2.5241165796863,6.131339537888326,1.0126453638076782,-2.664562527333395
1708436534.5934553,-2.1510491371154785,-1.335732103591301,-2.524109188710348,6.131344663887777,1.0126382112503052,-2.6644001642810267
1708436534.5954256,-2.1510376930236816,-1.335695670252182,-2.524066750203268,6.1313525317008875,1.0126409530639648,-2.6642726103412073
1708436534.597456,-2.1511006355285645,-1.335740627055504,-2.524095598851339,6.131348240166464,1.01261568069458,-2.664130989705221
1708436534.5994165,-2.1510748863220215,-1.335679979329445,-2.524083201085226,6.131339537888326,1.012632131576538,-2.664018456135885
1708436534.6014414,-2.1510872840881348,-1.3356673282435914,-2.5241165796863,6.13133596160964,1.01261568069458,-2.6638992468463343
1708436534.6034408,-2.1511101722717285,-1.3356998723796387,-2.5241165796863,6.1313925860221765,1.0126572847366333,-2.6637826601611536
1708436534.605414,-2.1511101722717285,-1.3357448440841218,-2.524095598851339,6.131331670075216,1.0126949548721313,-2.6635926405536097
1708436534.6074371,-2.1510837078094482,-1.3357567650130768,-2.5240910688983362,6.13136767128066,1.0126572847366333,-2.6634402910815638
1708436534.6094062,-2.1510422229766846,-1.3356554818204422,-2.5241239706622522,6.131339537888326,1.012648344039917,-2.6633122603045862
1708436534.611409,-2.1510748863220215,-1.3357117933085938,-2.524182144795553,6.131348240166464,1.0127129554748535,-2.663128916417257
1708436534.613454,-2.151067018508911,-1.3357159954360505,-2.5241075197802942,6.131371962815084,1.0126888751983643,-2.6629555861102503
1708436534.6154113,-2.1510376930236816,-1.3356877130321045,-2.5241568724261683,6.1313514588172815,1.0127431154251099,-2.662783686314718
1708436534.6174269,-2.1510987281799316,-1.3356834214976807,-2.5241432825671595,6.131331670075216,1.0127220153808594,-2.662602965031759
1708436534.619403,-2.1510491371154785,-1.3356791746667405,-2.5241597334491175,6.131299245148458,1.0127341747283936,-2.662384096776144
1708436534.6213958,-2.1510703563690186,-1.335663081412651,-2.5241687933551233,6.131315457611837,1.0127578973770142,-2.662158791218893
1708436534.6234143,-2.1511189937591553,-1.3357364249280472,-2.5241897741900843,6.131339537888326,1.0127533674240112,-2.661999527608053
1708436534.6254008,-2.1510703563690186,-1.3357041639140625,-2.5241971651660364,6.131339537888326,1.0128105878829956,-2.661830727254049
1708436534.6274266,-2.1510961055755615,-1.3356998872808,-2.5241928736316126,6.131368744164266,1.0127778053283691,-2.66160232225527
1708436534.6294122,-2.1510250568389893,-1.3356750023416062,-2.5241883436786097,6.131299245148458,1.01279878616333,-2.6613643805133265
1708436534.631438,-2.151082754135132,-1.3356834214976807,-2.524186913167135,6.13133596160964,1.0128227472305298,-2.66114050546755
1708436534.6334221,-2.1510465145111084,-1.3357075911811371,-2.524219814931051,6.131348240166464,1.0127880573272705,-2.6609116236316126
1708436534.6354241,-2.1510837078094482,-1.3356469583562394,-2.524191443120138,6.13137303569869,1.0128587484359741,-2.6606712977038782
1708436534.6374605,-2.1510748863220215,-1.3357159954360505,-2.524207894002096,6.131356823235311,1.0128138065338135,-2.6604469458209437
1708436534.6394207,-2.1510703563690186,-1.3357364249280472,-2.524210755025045,6.131307828217306,1.012837529182434,-2.6602020899402063
1708436534.6414273,-2.1510884761810303,-1.3357440543225785,-2.524257485066549,6.131291615753927,1.012861967086792,-2.659983221684591
1708436534.6434534,-2.1511166095733643,-1.3357245039990921,-2.5242393652545374,6.131324040680685,1.0128529071807861,-2.65973407426943
1708436534.645436,-2.151071548461914,-1.3357601773789902,-2.5242438952075403,6.1312306998069666,1.0128856897354126,-2.659436289464132
1708436534.6474593,-2.1510422229766846,-1.3357321333936234,-2.5242648760425013,6.1312750456626794,1.0129175186157227,-2.659257713948385
1708436534.6494284,-2.1510884761810303,-1.335663081412651,-2.5242934862719935,6.1312880394752405,1.0129430294036865,-2.658945147191183
1708436534.6514575,-2.151060104370117,-1.335651160483696,-2.5242753664599817,6.1312880394752405,1.0129294395446777,-2.6586113611804407
1708436534.6534238,-2.1510236263275146,-1.3356146973422547,-2.5242798964129847,6.131243693619528,1.0129789113998413,-2.6583552996264856
1708436534.6554356,-2.150998830795288,-1.335679219370224,-2.5243082682238978,6.131244408875265,1.0129863023757935,-2.658067289982931
1708436534.6574452,-2.1510307788848877,-1.3356596690467377,-2.524270836506979,6.131235825806417,1.012994408607483,-2.6577542463885706
1708436534.6594355,-2.150977611541748,-1.335679219370224,-2.524303738270895,6.131187903672018,1.0129897594451904,-2.657499138508932
1708436534.661443,-2.1509580612182617,-1.3357728880694886,-2.52435809770693,6.131081807404318,1.0130060911178589,-2.657192055379049
1708436534.6634772,-2.1509830951690674,-1.3357041639140625,-2.5243235270129603,6.131119477539816,1.0130388736724854,-2.656816546116964
1708436534.6654303,-2.1509785652160645,-1.335679219370224,-2.524332586918966,6.131132232933798,1.0130630731582642,-2.656435791646139
1708436534.6674716,-2.1509671211242676,-1.3357321184924622,-2.5243189970599573,6.131140935211935,1.0130630731582642,-2.6561151186572474
1708436534.669442,-2.150930881500244,-1.3356914234212418,-2.5243354479419153,6.131120788842001,1.0130960941314697,-2.655745808278219
1708436534.6715188,-2.150939702987671,-1.3356672686389466,-2.5244134108172815,6.1310475943382166,1.0131068229675293,-2.6554163138019007
1708436534.6734576,-2.1509194374084473,-1.3356554520181199,-2.5244341532336634,6.130986678391256,1.01313054561615,-2.655076567326681
1708436534.6754205,-2.1508922576904297,-1.3357202869704743,-2.5243666807757776,6.131064879685201,1.0131386518478394,-2.654727045689718
1708436534.6774502,-2.150874376296997,-1.335675061946251,-2.5243786017047327,6.130967247277059,1.013157844543457,-2.6543589274035853
1708436534.679502,-2.15087628364563,-1.3356919151595612,-2.52439529100527,6.130934464722433,1.013216257095337,-2.65399414697756
1708436534.6814685,-2.1508877277374268,-1.3356998723796387,-2.524444882069723,6.130956160813131,1.0132272243499756,-2.6535924116717737
1708436534.6834233,-2.1508266925811768,-1.3357287359288712,-2.524452273045675,6.130888688355245,1.0132509469985962,-2.6532164255725306
1708436534.6854064,-2.1508071422576904,-1.3357770901969452,-2.5244267622577112,6.130867826729574,1.0132464170455933,-2.652836624776022
1708436534.6874366,-2.150855779647827,-1.335651160483696,-2.5244596640216272,6.13083969333724,1.013253927230835,-2.6524434725390833
1708436534.6894248,-2.150761842727661,-1.3356877130321045,-2.5244839827166956,6.130848395615377,1.0132570266723633,-2.652104202901022
1708436534.691398,-2.1507833003997803,-1.335712583070137,-2.5244839827166956,6.130780684738912,1.0133200883865356,-2.6516671816455286
1708436534.6934023,-2.150770902633667,-1.3357279163650055,-2.524503294621603,6.130796897202291,1.0133233070373535,-2.6512637774096888
1708436534.6954098,-2.15071439743042,-1.335667298441269,-2.5245288054095667,6.130735981255331,1.0133593082427979,-2.650879208241598
1708436534.697399,-2.1507277488708496,-1.3356715899756928,-2.524569574986593,6.130655634194174,1.013371467590332,-2.6504293123828333
1708436534.6994066,-2.150665521621704,-1.3357083660415192,-2.524569574986593,6.13060342052535,1.0133743286132812,-2.650003973637716
1708436534.7014136,-2.1506214141845703,-1.3356956851533432,-2.5245679060565394,6.130599844246664,1.0133652687072754,-2.6496389547931116
1708436534.7034214,-2.150618076324463,-1.3356919151595612,-2.5245843569384974,6.130588876992025,1.0134601593017578,-2.6490989367114466
1708436534.7054355,-2.150590658187866,-1.3356800240329285,-2.5245962778674524,6.1305367825324915,1.0134556293487549,-2.64860970178713
1708436534.70741,-2.150599718093872,-1.3356750470450898,-2.5246036688434046,6.130463945656576,1.0134629011154175,-2.6482277552234095
1708436534.7094276,-2.1505634784698486,-1.3357083660415192,-2.524648729954855,6.130488860398092,1.0135442018508911,-2.6477418581592005
1708436534.7114058,-2.150585651397705,-1.3356834065965195,-2.524651829396383,6.1304452297981165,1.0135443210601807,-2.6473539511310022
1708436534.7134619,-2.150524616241455,-1.3356792491725464,-2.524684731160299,6.130345093994894,1.0135517120361328,-2.646844212208883
1708436534.715436,-2.1504557132720947,-1.3357041341117402,-2.5247042814837855,6.130291807442465,1.0136207342147827,-2.646406952534811
1708436534.7174683,-2.1504814624786377,-1.3356554520181199,-2.5246923605548304,6.130297171860494,1.013607144355774,-2.645823065434591
1708436534.7194533,-2.150411367416382,-1.3356877279332657,-2.5246666113482874,6.130256879120626,1.0136431455612183,-2.645344320927755
1708436534.7214239,-2.150421380996704,-1.3356596690467377,-2.5247283617602747,6.1302456734474084,1.013650894165039,-2.64488131204714
1708436534.723476,-2.1503806114196777,-1.335679219370224,-2.524735752736227,6.130123960762777,1.0137077569961548,-2.6443517843829554
1708436534.7254336,-2.150331974029541,-1.3356757921031495,-2.524738613759176,6.130077111511984,1.0137109756469727,-2.6438797155963343
1708436534.727422,-2.1502392292022705,-1.3356600415757676,-2.524755064641134,6.129995214730062,1.0137754678726196,-2.6433470884906214
1708436534.7294123,-2.1502797603607178,-1.3356432181647797,-2.5247958342181605,6.129980194359579,1.0137993097305298,-2.6428187529193323
1708436534.7314193,-2.1502888202667236,-1.3357041788152237,-2.5248077551471155,6.129952776222982,1.0137693881988525,-2.6423025766955774
1708436534.7334692,-2.1502366065979004,-1.3356316846660157,-2.5248196760760706,6.129917847901144,1.0138102769851685,-2.6417856852160853
1708436534.7354157,-2.1501708030700684,-1.3356961470893403,-2.5248196760760706,6.129853117256918,1.0139092206954956,-2.6412561575519007
1708436534.7374618,-2.1501686573028564,-1.3356431883624573,-2.524921719227926,6.129751908570089,1.0139153003692627,-2.6407559553729456
1708436534.7394369,-2.150071144104004,-1.3356799942306061,-2.524917189274923,6.129717814713278,1.013934850692749,-2.6401825586902063
1708436534.7434592,-2.150120973587036,-1.3356596392444153,-2.5249081293689173,6.12965344169692,1.0139875411987305,-2.639609400426046
1708436534.745417,-2.150045871734619,-1.335655466919281,-2.5249367395984095,6.12951825836257,1.01405668258667,-2.6385303179370325
1708436534.7474468,-2.1500298976898193,-1.3356474053910752,-2.5249231497394007,6.12944649437026,1.0140551328659058,-2.6379039923297327
1708436534.7494564,-2.1500096321105957,-1.3356799644282837,-2.524942700062887,6.129381525307455,1.0140624046325684,-2.637369219456808
1708436534.7514222,-2.149921178817749,-1.3356715899756928,-2.5250054041491907,6.129306065827169,1.0141243934631348,-2.6368289629565638
1708436534.7534227,-2.149888515472412,-1.335615487103798,-2.5249996821032923,6.129282939224996,1.014163613319397,-2.636284414921896
1708436534.755409,-2.1498701572418213,-1.3356400293162842,-2.5250237623797815,6.129210936814108,1.0142250061035156,-2.6357043425189417
1708436534.7574406,-2.149855136871338,-1.335643247967102,-2.5250282923327845,6.1290979264076135,1.0142037868499756,-2.6350823084460657
1708436534.7594173,-2.149796724319458,-1.335644231443741,-2.5250311533557337,6.129009711533346,1.014223337173462,-2.634435240422384
1708436534.761413,-2.1497490406036377,-1.3355913174203415,-2.5250685850726526,6.128978836327352,1.0143376588821411,-2.633916680012838
1708436534.7634172,-2.1497552394866943,-1.335599736576416,-2.525054995213644,6.12886260727004,1.0143405199050903,-2.633320395146505
1708436534.7654207,-2.149649143218994,-1.3356600415757676,-2.525079075490133,6.128762471466818,1.014367699623108,-2.632707182561056
1708436534.7674031,-2.149662494659424,-1.3356119853309174,-2.5251241366015833,6.128669965058126,1.0144010782241821,-2.6321118513690394
1708436534.769417,-2.1496307849884033,-1.3355556440404435,-2.5250940958606165,6.128619062691488,1.0144938230514526,-2.6315060297595423
1708436534.7715085,-2.1495413780212402,-1.3356082451394578,-2.5251269976245325,6.1285555241401575,1.014517903327942,-2.6308284441577356
1708436534.773588,-2.149545907974243,-1.3355767887881775,-2.52518874803652,6.128430592804708,1.0145044326782227,-2.630216185246603
1708436534.775429,-2.149510622024536,-1.3355518144420166,-2.52521258989443,6.128399836808004,1.0145615339279175,-2.6296048800097864
1708436534.777427,-2.1494877338409424,-1.3355809611133118,-2.525229040776388,6.128282296448507,1.0145766735076904,-2.6289683024035853
1708436534.7794187,-2.1494107246398926,-1.335548297767975,-2.525199000035421,6.128255951195516,1.0146126747131348,-2.628350798283712
1708436534.7813973,-2.1493124961853027,-1.3355686527541657,-2.5252726713763636,6.1282046912010095,1.0146695375442505,-2.62771445909609
1708436534.7834,-2.1493043899536133,-1.3354471635869523,-2.5252140204059046,6.128027546196737,1.014701247215271,-2.6270771662341517
1708436534.7854025,-2.1493401527404785,-1.3355084222606202,-2.525254551564352,6.1279393313224695,1.0147536993026733,-2.6264453569995325
1708436534.7874007,-2.149238109588623,-1.3354879927686234,-2.525282923375265,6.1279170391853235,1.0147662162780762,-2.6257687250720423
1708436534.7893984,-2.149207592010498,-1.335451991563179,-2.5253611246692103,6.127812611847677,1.0148097276687622,-2.625136915837423
1708436534.7913978,-2.1491589546203613,-1.3354605001262208,-2.5253236929522913,6.127642738610067,1.0148169994354248,-2.6243932882892054
1708436534.7934086,-2.1491270065307617,-1.3354520064643403,-2.5253716150866907,6.127633559494772,1.0148695707321167,-2.6237621943103235
1708436534.7954073,-2.1490581035614014,-1.3354647022536774,-2.5253549257861536,6.1275625107581995,1.014914870262146,-2.6231141726123255
1708436534.7974243,-2.148969888687134,-1.3354044270566483,-2.5253761450396937,6.1273971674735925,1.0149791240692139,-2.622503105794088
1708436534.799432,-2.1489920616149902,-1.3354008954814454,-2.525349203740255,6.127322184830465,1.0149811506271362,-2.621747080479757
1708436534.8014178,-2.148874521255493,-1.3353805553964158,-2.5254059473620813,6.127213465958395,1.015001893043518,-2.6211276690112513
1708436534.80341,-2.1488797664642334,-1.3353725236705323,-2.5254603067981165,6.127077328949728,1.0150632858276367,-2.6205409208880823
1708436534.8054419,-2.1488118171691895,-1.3353402626565476,-2.5254648367511194,6.126972901612081,1.015097975730896,-2.619814936314718
1708436534.8074212,-2.1487629413604736,-1.3353368204883118,-2.5254467169391077,6.126877176552572,1.0151233673095703,-2.6191464106189173
1708436534.8094237,-2.1487367153167725,-1.3353852343610306,-2.5254841486560267,6.12680600860671,1.0151838064193726,-2.6184847990619105
1708436534.8114085,-2.148700475692749,-1.335324616437294,-2.5255125204669397,6.126661169319906,1.0151985883712769,-2.617889706288473
1708436534.8134162,-2.1486403942108154,-1.3353203994086762,-2.525519911442892,6.126589524536886,1.0151972770690918,-2.6171892325030726
1708436534.815424,-2.148538589477539,-1.335333065395691,-2.525490109120504,6.126444804459371,1.015213966369629,-2.616519276295797
1708436534.817421,-2.1485564708709717,-1.3353257042220612,-2.5255635420428675,6.126336681633749,1.0152664184570312,-2.6158230940448206
1708436534.8194218,-2.1484692096710205,-1.33531308293853,-2.5256248156176966,6.126229989319601,1.0153026580810547,-2.615243975316183
1708436534.8214118,-2.148461103439331,-1.335317225461342,-2.52561599413027,6.126125681191244,1.0153292417526245,-2.614558283482687
1708436534.823441,-2.1483514308929443,-1.335301549439766,-2.525635544453756,6.126066672592916,1.0153582096099854,-2.6138773600207728
1708436534.8254106,-2.148360252380371,-1.335244746213295,-2.525677267705099,6.12602053859786,1.0154151916503906,-2.613225762044088
1708436534.8274155,-2.1482765674591064,-1.335289628510811,-2.5256803671466272,6.125867116242208,1.015430212020874,-2.612544361745016
1708436534.8294158,-2.148240089416504,-1.335200236444809,-2.5256593863116663,6.125725376396932,1.01544988155365,-2.6119168440448206
1708436534.8314128,-2.148143768310547,-1.3353268814137955,-2.5256503264056605,6.125573742180624,1.0154829025268555,-2.611199919377462
1708436534.8334472,-2.1481242179870605,-1.3351971370032807,-2.525686566029684,6.125555622368612,1.0155593156814575,-2.6105595270739954
1708436534.8354197,-2.148094654083252,-1.3352536273053666,-2.5257492701159876,6.125390755921163,1.0155712366104126,-2.6098530928241175
