Eg3-git/Classifiers/Data Collection/u4/u4xyz3_ur3e_joint_states.csv
time,elbow_joint,shoulder_lift_joint,shoulder_pan_joint,wrist_1_joint,wrist_2_joint,wrist_3_joint
1708436607.433123,-2.157621383666992,-1.3384288263371964,-2.5257869402514856,6.1498615620429895,1.015702247619629,-2.051661793385641
1708436607.435095,-2.157642364501953,-1.3384379011443635,-2.5258289019214075,6.14995168426589,1.015730857849121,-2.0516632238971155
1708436607.4370584,-2.1576781272888184,-1.3384333562901993,-2.5257914702044886,6.149972188263693,1.0157264471054077,-2.0516584555255335
1708436607.4390702,-2.157642364501953,-1.338470996623375,-2.5258033911334437,6.149935471802511,1.015730857849121,-2.051682774220602
1708436607.441039,-2.157625675201416,-1.338425950413086,-2.5258153120623987,6.149893986969747,1.015702247619629,-2.051708523427145
1708436607.4430623,-2.157625675201416,-1.3384500604918976,-2.5258198420154017,6.149972307472982,1.0157145261764526,-2.0517051855670374
1708436607.4450703,-2.1576170921325684,-1.3384754222682496,-2.52577788034548,6.149967896729269,1.0157145261764526,-2.051725212727682
1708436607.4470482,-2.1576173305511475,-1.338442326789238,-2.5258289019214075,6.149918901711263,1.0157217979431152,-2.0516799131976526
1708436607.449049,-2.1576452255249023,-1.338412494664528,-2.5258198420154017,6.149918901711263,1.0157067775726318,-2.051703755055563
1708436607.45105,-2.1576738357543945,-1.33842887104068,-2.5258079210864466,6.149935471802511,1.0157352685928345,-2.051687542592184
1708436607.4530728,-2.157642364501953,-1.338433326487877,-2.5258005301104944,6.149898278504171,1.0157099962234497,-2.051670853291647
1708436607.4550223,-2.1576173305511475,-1.338421494965889,-2.5257914702044886,6.149963605194845,1.015718936920166,-2.051725212727682
1708436607.4570348,-2.157665252685547,-1.3384378862432023,-2.5258198420154017,6.149960386544027,1.0156810283660889,-2.0517457167254847
1708436607.4590373,-2.15762996673584,-1.3384545606425782,-2.5257824102984827,6.149964678078451,1.0156933069229126,-2.051687542592184
1708436607.4610333,-2.157625675201416,-1.3384754222682496,-2.5257795492755335,6.149918901711263,1.0157471895217896,-2.051725212727682
1708436607.4630284,-2.1576712131500244,-1.3384378862432023,-2.5257492701159876,6.1499026892478845,1.0157471895217896,-2.0516799131976526
1708436607.4650288,-2.1576170921325684,-1.338470996623375,-2.525827471409933,6.149899470597067,1.015729308128357,-2.0516918341266077
1708436607.4670403,-2.157621383666992,-1.3384005737355729,-2.5258455912219446,6.149947392731466,1.0157427787780762,-2.0516470114337366
1708436607.469065,-2.157658100128174,-1.338446782236435,-2.52577788034548,6.149981009751119,1.0157427787780762,-2.0516584555255335
1708436607.4710557,-2.1576380729675293,-1.3384124797633667,-2.5258079210864466,6.149935471802511,1.0157922506332397,-2.051670853291647
1708436607.4730701,-2.1576623916625977,-1.3383961033872147,-2.5258153120623987,6.149939763336935,1.0157549381256104,-2.0517008940326136
1708436607.4750395,-2.1577072143554688,-1.338442326789238,-2.5257824102984827,6.149911391526022,1.0157803297042847,-2.051675621663229
1708436607.4770844,-2.1576342582702637,-1.3384125393680115,-2.5258365313159388,6.149895179062643,1.0156933069229126,-2.0517080465899866
1708436607.4790606,-2.1575958728790283,-1.3384664070657273,-2.5258079210864466,6.149948465615072,1.0157217979431152,-2.0517118612872522
1708436607.4810472,-2.157658100128174,-1.3384545755437394,-2.5257869402514856,6.149988519936361,1.0157427787780762,-2.0517128149615687
1708436607.4830914,-2.157650947570801,-1.338397966032364,-2.5258455912219446,6.14995168426589,1.0157668590545654,-2.051682774220602
1708436607.4850616,-2.157649517059326,-1.3384288263371964,-2.5257960001574915,6.149944174080648,1.0158089399337769,-2.0517118612872522
1708436607.4870625,-2.1576380729675293,-1.338408113723137,-2.5258124510394495,6.14995168426589,1.0157668590545654,-2.051678482686178
1708436607.4890718,-2.1576452255249023,-1.338409574036934,-2.5258005301104944,6.1498614428337,1.0157337188720703,-2.051694695149557
1708436607.4910572,-2.157642364501953,-1.3384574514678498,-2.5257750193225306,6.149988519936361,1.0157787799835205,-2.051716152821676
1708436607.4930663,-2.157604455947876,-1.3384423565915604,-2.525853220616476,6.149944174080648,1.015750527381897,-2.0517128149615687
1708436607.495068,-2.157621383666992,-1.3384243857911606,-2.5258153120623987,6.149969088822164,1.015745997428894,-2.051725212727682
1708436607.4970956,-2.157682418823242,-1.338437871342041,-2.525761429463522,6.149960386544027,1.0157877206802368,-2.0516799131976526
1708436607.4990447,-2.1576342582702637,-1.3384214800647278,-2.52577788034548,6.149984109192648,1.015745997428894,-2.051675621663229
1708436607.5010438,-2.1576173305511475,-1.3384619665196915,-2.525827471409933,6.14995168426589,1.0157712697982788,-2.051727596913473
1708436607.503072,-2.157658100128174,-1.3384259653142472,-2.525810782109396,6.14995168426589,1.0157831907272339,-2.051687542592184
1708436607.5050445,-2.157658100128174,-1.3384333115867157,-2.525761429463522,6.149972307472982,1.0157833099365234,-2.051753346120016
1708436607.5070605,-2.1576337814331055,-1.3384917986444016,-2.525789801274435,6.149989592819967,1.0157742500305176,-2.051727596913473
1708436607.5090582,-2.157621383666992,-1.338437871342041,-2.5258198420154017,6.149984109192648,1.0158166885375977,-2.0517399946795862
1708436607.511038,-2.1577072143554688,-1.3384423118880768,-2.5258365313159388,6.149943101197042,1.0157787799835205,-2.05174428621401
1708436607.5130749,-2.157646656036377,-1.3384035986712952,-2.5258243719684046,6.149939763336935,1.0157909393310547,-2.05174428621401
1708436607.5150495,-2.15765380859375,-1.338442326789238,-2.52584416071047,6.149948465615072,1.0157999992370605,-2.0517204443561
1708436607.5170906,-2.1576781272888184,-1.3384664219668885,-2.52577788034548,6.1499318955238245,1.0158030986785889,-2.051690403615133
1708436607.5190566,-2.1576597690582275,-1.3384422969869156,-2.5258079210864466,6.14995168426589,1.0157577991485596,-2.051722828541891
1708436607.521026,-2.157658100128174,-1.3384467673352738,-2.525789801274435,6.149893986969747,1.0157999992370605,-2.051774326954977
1708436607.523054,-2.15762996673584,-1.3383960735848923,-2.525839630757467,6.150000679283895,1.0158076286315918,-2.051786247883932
1708436607.5250328,-2.1576695442199707,-1.3384125542691727,-2.525865141545431,6.149906980782308,1.0158030986785889,-2.0517409483539026
1708436607.5270605,-2.1576738357543945,-1.3384678673795243,-2.525827471409933,6.14995168426589,1.0158194303512573,-2.051699463521139
1708436607.5290387,-2.157621383666992,-1.3384169799140473,-2.525810782109396,6.149947392731466,1.015815019607544,-2.051765267048971
1708436607.5310357,-2.157649517059326,-1.3384783279946824,-2.5257988611804407,6.149935471802511,1.0158358812332153,-2.051690403615133
1708436607.533062,-2.157625675201416,-1.3384918135455628,-2.525794331227438,6.149893986969747,1.0158121585845947,-2.0517428557025355
1708436607.5350683,-2.157625675201416,-1.3384590309909363,-2.5258243719684046,6.149955975800314,1.0158195495605469,-2.0517399946795862
1708436607.5370383,-2.1576087474823,-1.338416950111725,-2.52582294145693,6.149927603989401,1.0158358812332153,-2.0517762343036097
1708436607.539025,-2.1576087474823,-1.3384423118880768,-2.525785271321432,6.149972307472982,1.0158194303512573,-2.0517519156085413
1708436607.541025,-2.15762996673584,-1.338416965012886,-2.5258033911334437,6.149918901711263,1.0158030986785889,-2.0517595450030726
1708436607.5430264,-2.1576623916625977,-1.338416950111725,-2.52580172220339,6.14995168426589,1.0158060789108276,-2.0517595450030726
1708436607.54505,-2.157686948776245,-1.3384289306453248,-2.525794331227438,6.149988519936361,1.0157986879348755,-2.05176812807192
1708436607.5471015,-2.1576738357543945,-1.3384589862874527,-2.525790039693014,6.149952757149496,1.015798568725586,-2.05176812807192
1708436607.5490577,-2.157604455947876,-1.3384333115867157,-2.5258033911334437,6.149910199433126,1.0158225297927856,-2.0517852942096155
1708436607.5510297,-2.157593011856079,-1.3384169352105637,-2.5258365313159388,6.149910199433126,1.0157818794250488,-2.0517638365374964
1708436607.5530453,-2.1576087474823,-1.3384333115867157,-2.525864903126852,6.149877774506368,1.0157864093780518,-2.0517638365374964
1708436607.5550447,-2.157642364501953,-1.3384664070657273,-2.525851551686422,6.149973261147299,1.0157774686813354,-2.0517519156085413
1708436607.5570483,-2.157625675201416,-1.3384215098670502,-2.525848690663473,6.149967896729269,1.0158313512802124,-2.0518391768084925
1708436607.5590348,-2.1576380729675293,-1.33842887104068,-2.525832001362936,6.149960386544027,1.015838861465454,-2.0517919699298304
1708436607.5610175,-2.1576738357543945,-1.338442326789238,-2.5258198420154017,6.149976599007406,1.015826940536499,-2.0517218748675745
1708436607.5630288,-2.1576623916625977,-1.3383960288814087,-2.525832001362936,6.149889576226034,1.0158313512802124,-2.0517595450030726
1708436607.5650523,-2.157621383666992,-1.3384531152299424,-2.525848690663473,6.149910318642416,1.0158555507659912,-2.051771942769186
1708436607.5670702,-2.1576337814331055,-1.3384140145829697,-2.5258198420154017,6.149964678078451,1.015826940536499,-2.0517385641681116
1708436607.5690558,-2.157646656036377,-1.3384590309909363,-2.525835100804464,6.149969088822164,1.0158225297927856,-2.0517547766314905
1708436607.571025,-2.157650947570801,-1.3384422969869156,-2.5257988611804407,6.149948465615072,1.0158225297927856,-2.051791016255514
1708436607.5730457,-2.1576738357543945,-1.33845009029422,-2.5257824102984827,6.149915683060446,1.0158313512802124,-2.0517876783954065
1708436607.5750601,-2.157625675201416,-1.3383890104344864,-2.5258198420154017,6.149936187058248,1.0158510208129883,-2.0517428557025355
1708436607.5770376,-2.1576738357543945,-1.3384500306895752,-2.525810782109396,6.149967896729269,1.0158298015594482,-2.0518210569964808
1708436607.5790365,-2.1576666831970215,-1.3384545904449006,-2.52577788034548,6.149906980782308,1.015867829322815,-2.0518091360675257
1708436607.5810359,-2.1576666831970215,-1.338470996623375,-2.525789801274435,6.149960386544027,1.0158432722091675,-2.0517876783954065
1708436607.5830526,-2.15765380859375,-1.33842887104068,-2.525806252156393,6.149902570038595,1.0158343315124512,-2.051771942769186
1708436607.58505,-2.15765380859375,-1.3384545904449006,-2.525827471409933,6.149943101197042,1.0158644914627075,-2.051795784627096
1708436607.5870423,-2.157621383666992,-1.3384423118880768,-2.5258198420154017,6.149939763336935,1.015822410583496,-2.0517876783954065
1708436607.589072,-2.157625675201416,-1.3384874028018494,-2.52577788034548,6.1499318955238245,1.0158343315124512,-2.0518043676959437
1708436607.5910802,-2.157658100128174,-1.3384169054082413,-2.52582294145693,6.149944174080648,1.0158225297927856,-2.0518091360675257
1708436607.5930421,-2.1576292514801025,-1.338437871342041,-2.52582294145693,6.149984228401937,1.0158510208129883,-2.0517504850970667
1708436607.5950398,-2.15762996673584,-1.3384006035378953,-2.525785509740011,6.149984109192648,1.015838861465454,-2.051767174397604
1708436607.5971715,-2.1576380729675293,-1.3384333115867157,-2.5257988611804407,6.149964678078451,1.015826940536499,-2.0518091360675257
1708436607.5990715,-2.1576623916625977,-1.3384619367173691,-2.5258198420154017,6.149911391526022,1.0158060789108276,-2.0518210569964808
1708436607.6010368,-2.1576738357543945,-1.3384378415397187,-2.525865141545431,6.149943101197042,1.0158631801605225,-2.0517833868609827
1708436607.6030684,-2.1576342582702637,-1.3384545606425782,-2.5258575121508997,6.149948465615072,1.0158225297927856,-2.0518372694598597
1708436607.6050477,-2.157658100128174,-1.3384664517692109,-2.52584416071047,6.14998089054183,1.0158133506774902,-2.051771942769186
1708436607.6070786,-2.1576695442199707,-1.338437781935074,-2.525848690663473,6.149944174080648,1.0158298015594482,-2.051771942769186
1708436607.6090748,-2.15765380859375,-1.3384080243161698,-2.525818411503927,6.149968969612875,1.0158812999725342,-2.051807705556051
1708436607.611047,-2.157649517059326,-1.3384215098670502,-2.5258153120623987,6.149906980782308,1.015838861465454,-2.0517919699298304
1708436607.6130886,-2.1576342582702637,-1.3384080690196534,-2.525835100804464,6.149947392731466,1.0158432722091675,-2.05180007616152
1708436607.6150408,-2.157658100128174,-1.338454545741417,-2.525865141545431,6.149963605194845,1.0158555507659912,-2.0517919699298304
1708436607.617062,-2.157686233520508,-1.3384333115867157,-2.525865141545431,6.149898278504171,1.015826940536499,-2.0517786184894007
1708436607.6190338,-2.157646656036377,-1.3384619814208527,-2.52584416071047,6.1499647972877405,1.0158060789108276,-2.0517833868609827
1708436607.621061,-2.1576342582702637,-1.3384545755437394,-2.525856081639425,6.14995168426589,1.0158178806304932,-2.0517919699298304
1708436607.6230779,-2.1576380729675293,-1.3384378862432023,-2.5258305708514612,6.14995168426589,1.015838861465454,-2.05180007616152
1708436607.6250234,-2.157621383666992,-1.3384545755437394,-2.525810782109396,6.149979936867513,1.0158599615097046,-2.051771942769186
1708436607.6270423,-2.1576170921325684,-1.3384754371694108,-2.52577788034548,6.14995168426589,1.015810489654541,-2.051795784627096
1708436607.6290262,-2.157649517059326,-1.3384154599956055,-2.525818411503927,6.1499755261238,1.0158555507659912,-2.0518253485309046
1708436607.6310613,-2.157665252685547,-1.3384619665196915,-2.525794331227438,6.14995168426589,1.0158298015594482,-2.0517876783954065
1708436607.6331263,-2.1576905250549316,-1.3384783428958436,-2.525853220616476,6.149987685471334,1.0158298015594482,-2.0518253485309046
1708436607.635049,-2.157702922821045,-1.3384288859418412,-2.525848690663473,6.149963605194845,1.0158343315124512,-2.0518091360675257
1708436607.6370664,-2.1576380729675293,-1.3384244453958054,-2.525818411503927,6.149947392731466,1.015838861465454,-2.051791016255514
1708436607.639028,-2.1576294898986816,-1.3384917390397568,-2.525827471409933,6.149955975800314,1.0158478021621704,-2.0518463293658655
1708436607.6410286,-2.1576452255249023,-1.3384545606425782,-2.5258410612689417,6.149906980782308,1.0158343315124512,-2.0518162886248987
1708436607.6430407,-2.1576695442199707,-1.3384332966855546,-2.525810782109396,6.149967896729269,1.0158432722091675,-2.0517833868609827
1708436607.645037,-2.1576738357543945,-1.3384332966855546,-2.525810782109396,6.149926769524374,1.0158178806304932,-2.051832977925436
1708436607.6470547,-2.157702922821045,-1.3384289008430024,-2.525827471409933,6.149947392731466,1.0158432722091675,-2.0518210569964808
1708436607.6490285,-2.1577436923980713,-1.3384590458920975,-2.525806252156393,6.149971115380087,1.0158510208129883,-2.0518162886248987
1708436607.651034,-2.157714366912842,-1.3384259355119248,-2.5258198420154017,6.149947392731466,1.0158225297927856,-2.0518043676959437
1708436607.6530352,-2.1576733589172363,-1.3384589862874527,-2.5257869402514856,6.1500083086784265,1.0158644914627075,-2.051811997090475
1708436607.655032,-2.1576943397521973,-1.338433326487877,-2.5258153120623987,6.149959313660421,1.0158298015594482,-2.051795784627096
1708436607.6570945,-2.157621383666992,-1.3384321492961426,-2.52584416071047,6.1500083086784265,1.0158555507659912,-2.051828209553854
1708436607.6590521,-2.1577229499816895,-1.3384215098670502,-2.5258153120623987,6.1499342797096155,1.0158225297927856,-2.0518043676959437
1708436607.66103,-2.1577072143554688,-1.3384500306895752,-2.52582294145693,6.149992096215048,1.0158225297927856,-2.0517786184894007
1708436607.6630614,-2.1576738357543945,-1.3384321492961426,-2.525810782109396,6.1499755261238,1.0158522129058838,-2.0518363157855433
1708436607.665048,-2.15767765045166,-1.338437871342041,-2.5258365313159388,6.149996387749471,1.0158478021621704,-2.051798645650045
1708436607.6670282,-2.1576943397521973,-1.3384590160897751,-2.525856081639425,6.149938571244039,1.015838861465454,-2.051828209553854
1708436607.6690338,-2.1576521396636963,-1.3384244453958054,-2.5258739630328577,6.149963605194845,1.0157774686813354,-2.0518091360675257
1708436607.6710393,-2.1576943397521973,-1.3384455901435395,-2.525832001362936,6.149963605194845,1.0158298015594482,-2.051814858113424
1708436607.6730492,-2.1577258110046387,-1.3384738725474854,-2.525848690663473,6.149971115380087,1.0158432722091675,-2.051852051411764
1708436607.6750436,-2.1576690673828125,-1.3385069382241745,-2.525869671498434,6.149978983193197,1.0158478021621704,-2.051845375691549
1708436607.6770763,-2.157681941986084,-1.3384590160897751,-2.525806252156393,6.1499755261238,1.0158178806304932,-2.051769558583395
1708436607.6790535,-2.157681941986084,-1.3384709370187302,-2.525869671498434,6.150032388954916,1.0158432722091675,-2.051828209553854
1708436607.6810565,-2.157747983932495,-1.338425950413086,-2.52584416071047,6.1499953148658655,1.0158060789108276,-2.051807705556051
1708436607.6831172,-2.1577258110046387,-1.338416965012886,-2.52584416071047,6.149941789894857,1.0158478021621704,-2.051845375691549
1708436607.6850865,-2.157747983932495,-1.3384423118880768,-2.5258153120623987,6.1499953148658655,1.0158298015594482,-2.051811997090475
1708436607.6870265,-2.157714366912842,-1.338491753940918,-2.525818411503927,6.1499953148658655,1.0158298015594482,-2.0518105665790003
1708436607.6890397,-2.157686233520508,-1.3384827685407181,-2.525810782109396,6.150023686676779,1.0158432722091675,-2.05186111131777
1708436607.6910317,-2.157747983932495,-1.3384783130935212,-2.52580172220339,6.150088894158163,1.0158478021621704,-2.0518692175494593
1708436607.6930313,-2.157766580581665,-1.3384423118880768,-2.525848690663473,6.150096523552694,1.0158631801605225,-2.0518811384784144
1708436607.6950202,-2.1577305793762207,-1.3384455752423783,-2.525827471409933,6.150080311089315,1.0158015489578247,-2.0518386999713343
1708436607.697065,-2.1576733589172363,-1.3384530556252976,-2.52580172220339,6.150124656945028,1.0158343315124512,-2.051873509083883
1708436607.699057,-2.1577014923095703,-1.3384215098670502,-2.525832001362936,6.150107371598043,1.0158555507659912,-2.05184775987734
1708436607.7010744,-2.1577351093292236,-1.3384333413890381,-2.525832001362936,6.150136816292562,1.0158510208129883,-2.0518811384784144
1708436607.7030876,-2.1577436923980713,-1.3384333413890381,-2.5258198420154017,6.150119530945577,1.0158313512802124,-2.051814858113424
1708436607.70503,-2.1576857566833496,-1.3384619516185303,-2.525794331227438,6.15014015415267,1.015838861465454,-2.0518105665790003
1708436607.7070413,-2.1577186584472656,-1.3384827685407181,-2.525848690663473,6.150078165322103,1.0158600807189941,-2.0518601576434534
1708436607.709065,-2.1576857566833496,-1.3384619516185303,-2.525835100804464,6.150122868805685,1.015838861465454,-2.0518386999713343
1708436607.7110767,-2.1577351093292236,-1.3384440702250977,-2.525806252156393,6.150102126389303,1.0158600807189941,-2.0518434683429163
1708436607.7130284,-2.157747983932495,-1.338437871342041,-2.525856081639425,6.150094377785482,1.0158644914627075,-2.0519092718707483
1708436607.7150233,-2.1577394008636475,-1.3384827685407181,-2.525827471409933,6.15010296085433,1.0158555507659912,-2.0518510977374476
1708436607.7170358,-2.157705783843994,-1.3384411346963425,-2.525856081639425,6.150152075081625,1.0158812999725342,-2.0518644491778772
1708436607.7190197,-2.1577186584472656,-1.3384455901435395,-2.525860611592428,6.150122749596395,1.0158432722091675,-2.0518630186664026
1708436607.7210312,-2.157721519470215,-1.3384709370187302,-2.525860611592428,6.150147664337911,1.015826940536499,-2.0518181959735315
1708436607.7230349,-2.1576857566833496,-1.3384500306895752,-2.5258951822863978,6.1501433728034876,1.0158225297927856,-2.0518973509417933
1708436607.7250361,-2.1576857566833496,-1.3384455901435395,-2.52580172220339,6.150094377785482,1.0158510208129883,-2.0518386999713343
1708436607.7270253,-2.1577351093292236,-1.3384590160897751,-2.525869671498434,6.150155293732443,1.0158644914627075,-2.0518839995013636
1708436607.7290149,-2.1576812267303467,-1.3384619516185303,-2.525789801274435,6.1501433728034876,1.0158677101135254,-2.0518272558795374
1708436607.731024,-2.1577014923095703,-1.3384411346963425,-2.5258362928973597,6.150152075081625,1.0158133506774902,-2.0518468062030237
1708436607.7330232,-2.1576969623565674,-1.338466392164566,-2.525810782109396,6.150115239411154,1.0158343315124512,-2.0518229643451136
1708436607.7350194,-2.157676935195923,-1.3384575110724946,-2.525865141545431,6.150122868805685,1.0158343315124512,-2.0518930594073694
1708436607.737032,-2.1576645374298096,-1.3384244453958054,-2.525797192250387,6.150097834854879,1.0158586502075195,-2.0518420378314417
1708436607.7390487,-2.1577351093292236,-1.3384455901435395,-2.525794331227438,6.150168287545004,1.015838861465454,-2.0518973509417933
1708436607.741031,-2.1577351093292236,-1.3384288859418412,-2.5258153120623987,6.1501595852668665,1.0158766508102417,-2.0518720785724085
1708436607.7430465,-2.157712697982788,-1.3384694320014496,-2.5257988611804407,6.150168287545004,1.0158464908599854,-2.0518630186664026
1708436607.745017,-2.1577508449554443,-1.3384530556252976,-2.52582294145693,6.15011082866744,1.0158644914627075,-2.0518386999713343
1708436607.747051,-2.1577420234680176,-1.3384619516185303,-2.525785271321432,6.150175082474508,1.0158343315124512,-2.0518887678729456
1708436607.7490242,-2.1577463150024414,-1.3384783130935212,-2.525848690663473,6.15013467052535,1.0158225297927856,-2.051809612904684
1708436607.7510214,-2.157762050628662,-1.3384575110724946,-2.5258033911334437,6.1501595852668665,1.015838861465454,-2.0519021193133753
1708436607.753069,-2.157721996307373,-1.3384455901435395,-2.525856081639425,6.150188076287069,1.0158555507659912,-2.0518630186664026
1708436607.755024,-2.1576926708221436,-1.3384455901435395,-2.52582294145693,6.150188076287069,1.0158252716064453,-2.0518930594073694
1708436607.7570462,-2.1577420234680176,-1.3384545606425782,-2.5258365313159388,6.150192367821493,1.015831470489502,-2.0518468062030237
1708436607.759031,-2.157705783843994,-1.3385203641704102,-2.525881592427389,6.150150882988729,1.0158106088638306,-2.0518839995013636
1708436607.7610216,-2.157726287841797,-1.3384333413890381,-2.52582294145693,6.1501595852668665,1.0158600807189941,-2.0518720785724085
1708436607.7630544,-2.1576812267303467,-1.338466392164566,-2.52582294145693,6.1501433728034876,1.0158432722091675,-2.0518839995013636
1708436607.7650294,-2.1576969623565674,-1.3384440255216141,-2.525790039693014,6.1501595852668665,1.0158298015594482,-2.0519140402423304
1708436607.7670584,-2.157705783843994,-1.338487298493721,-2.525872532521383,6.15017186382369,1.015826940536499,-2.0519049803363245
1708436607.7690403,-2.1577351093292236,-1.3384545606425782,-2.525797192250387,6.1501433728034876,1.0158555507659912,-2.0518692175494593
1708436607.771024,-2.157755136489868,-1.338499130015709,-2.52580172220339,6.150146591454305,1.0158252716064453,-2.0518973509417933
1708436607.7730637,-2.1577351093292236,-1.3384545606425782,-2.525839630757467,6.1501433728034876,1.0158313512802124,-2.0518763701068323
1708436607.7750344,-2.1577463150024414,-1.3384738725474854,-2.52584416071047,6.150152075081625,1.0157897472381592,-2.0518973509417933
1708436607.7770505,-2.1576883792877197,-1.3384619516185303,-2.52584416071047,6.150151955872335,1.0158089399337769,-2.0518434683429163
1708436607.779044,-2.1576926708221436,-1.3384575110724946,-2.525856081639425,6.15013467052535,1.0158298015594482,-2.0519002119647425
1708436607.7810864,-2.157676935195923,-1.3384244453958054,-2.52582294145693,6.150150882988729,1.0158600807189941,-2.05189019838442
1708436607.7830799,-2.157712697982788,-1.3385005456260224,-2.525818411503927,6.15014015415267,1.0158015489578247,-2.0518811384784144
1708436607.7850626,-2.1576883792877197,-1.3384244453958054,-2.5258470217334192,6.150119530945577,1.0158631801605225,-2.0518839995013636
1708436607.7870767,-2.1577420234680176,-1.3384738725474854,-2.52582294145693,6.150114047318258,1.0158432722091675,-2.05184775987734
1708436607.789075,-2.1577351093292236,-1.3384125244668503,-2.5258470217334192,6.150127160340109,1.015826940536499,-2.0518468062030237
1708436607.791057,-2.1576812267303467,-1.3384738725474854,-2.5258470217334192,6.150085675507345,1.015826940536499,-2.0518344084369105
1708436607.7930698,-2.1577258110046387,-1.3384366941503067,-2.525856081639425,6.150122749596395,1.0158343315124512,-2.0518558661090296
1708436607.795042,-2.1577084064483643,-1.3384827685407181,-2.52582294145693,6.150139081269064,1.0158555507659912,-2.0518558661090296
1708436607.7971315,-2.1576969623565674,-1.338466392164566,-2.52582294145693,6.150217282563009,1.015826940536499,-2.0519092718707483
1708436607.7990873,-2.1576645374298096,-1.3384783130935212,-2.525860611592428,6.150216567307272,1.0158106088638306,-2.0518797079669397
1708436607.8010523,-2.1577084064483643,-1.3384411346963425,-2.525835100804464,6.150122868805685,1.0158464908599854,-2.0518882910357874
1708436607.803064,-2.157755136489868,-1.3384411346963425,-2.525794331227438,6.150168287545004,1.0158225297927856,-2.0518797079669397
1708436607.805075,-2.1577394008636475,-1.3384500306895752,-2.525839630757467,6.150155412941732,1.0158644914627075,-2.05184775987734
1708436607.807052,-2.157783269882202,-1.3384080690196534,-2.525827471409933,6.1501595852668665,1.0158225297927856,-2.0518839995013636
1708436607.8090694,-2.157705783843994,-1.338466392164566,-2.525806252156393,6.150127160340109,1.0158106088638306,-2.0518386999713343
1708436607.8110516,-2.1577577590942383,-1.3384738725474854,-2.525856081639425,6.150217282563009,1.015826940536499,-2.0519049803363245
1708436607.8130825,-2.1577508449554443,-1.3384575110724946,-2.525827471409933,6.150167453079977,1.0158178806304932,-2.0518839995013636
1708436607.8150444,-2.1577041149139404,-1.3384827685407181,-2.525853220616476,6.150204288750448,1.015826940536499,-2.0518630186664026
1708436607.8170815,-2.1577084064483643,-1.3384244453958054,-2.525835100804464,6.1501595852668665,1.015826940536499,-2.051858727131979
1708436607.8190336,-2.1576926708221436,-1.3384423118880768,-2.525797192250387,6.1501433728034876,1.0158510208129883,-2.0518644491778772
1708436607.8210485,-2.1577084064483643,-1.3384500306895752,-2.525832001362936,6.150196778565206,1.0158722400665283,-2.0518296400653284
1708436607.823053,-2.157684087753296,-1.3384500306895752,-2.52580172220339,6.150184738426962,1.0158298015594482,-2.051858727131979
1708436607.8250432,-2.1577351093292236,-1.3384738725474854,-2.525851551686422,6.150102126389303,1.0158555507659912,-2.0518882910357874
1708436607.8270652,-2.157721519470215,-1.3384500306895752,-2.525813881550924,6.15014015415267,1.0158478021621704,-2.0518930594073694
1708436607.829034,-2.1577394008636475,-1.338466392164566,-2.52584416071047,6.150147664337911,1.0158178806304932,-2.0518882910357874
1708436607.8310435,-2.1576926708221436,-1.3384619516185303,-2.525818411503927,6.1501022455985925,1.015822410583496,-2.0518677870379847
1708436607.833051,-2.157717227935791,-1.3384575110724946,-2.525851551686422,6.150102126389303,1.0158178806304932,-2.0518763701068323
1708436607.83503,-2.1576602458953857,-1.3385069531253357,-2.5258424917804163,6.150127160340109,1.015826940536499,-2.0519140402423304
1708436607.837043,-2.1577577590942383,-1.3384635013392945,-2.525856081639425,6.150156485825338,1.015838861465454,-2.051885430012838
1708436607.8390286,-2.1577463150024414,-1.3385158789208909,-2.525839630757467,6.150127160340109,1.015831470489502,-2.0518930594073694
1708436607.8410225,-2.1577014923095703,-1.338466392164566,-2.5258634726153772,6.150123941689291,1.0158555507659912,-2.0518763701068323
1708436607.8430417,-2.1576969623565674,-1.3384545606425782,-2.525851551686422,6.1501314518745325,1.0158600807189941,-2.0518630186664026
1708436607.8450375,-2.1576812267303467,-1.3384366941503067,-2.525851551686422,6.150176989823141,1.0158015489578247,-2.0518973509417933
1708436607.8470404,-2.1576857566833496,-1.3384575110724946,-2.525869671498434,6.15014015415267,1.0158555507659912,-2.0518434683429163
1708436607.849021,-2.157755136489868,-1.338475377564766,-2.52580172220339,6.15016936042861,1.015826940536499,-2.0518839995013636
1708436607.851024,-2.157705783843994,-1.3384827685407181,-2.525856081639425,6.150128233223715,1.0158358812332153,-2.0519302527057093
1708436607.853068,-2.157712697982788,-1.3384709370187302,-2.525888744984762,6.150135743408956,1.0158840417861938,-2.0519049803363245
1708436607.8550277,-2.1577084064483643,-1.3384783130935212,-2.525839630757467,6.150152075081625,1.0158298015594482,-2.0518644491778772
1708436607.857075,-2.1576602458953857,-1.3384946894696732,-2.525818411503927,6.150098669319906,1.015838861465454,-2.0518468062030237
1708436607.8590386,-2.1577014923095703,-1.3384857934764405,-2.52584416071047,6.150123941689291,1.0158432722091675,-2.0518558661090296
1708436607.861041,-2.1577258110046387,-1.338466392164566,-2.52582294145693,6.150107371598043,1.015826940536499,-2.0518386999713343
1708436607.8630881,-2.1576812267303467,-1.3384366941503067,-2.52586800256838,6.150135743408956,1.0158510208129883,-2.0518434683429163
1708436607.8650906,-2.1577084064483643,-1.338437871342041,-2.52584416071047,6.150107371598043,1.0158106088638306,-2.0518644491778772
1708436607.8670447,-2.157721519470215,-1.3384500306895752,-2.525860611592428,6.150089967041769,1.015838861465454,-2.0518229643451136
1708436607.8690352,-2.1577463150024414,-1.3384455901435395,-2.525848690663473,6.150115239411154,1.0158225297927856,-2.0518630186664026
1708436607.8710568,-2.157676935195923,-1.3384619516185303,-2.525810782109396,6.150082456856527,1.0158723592758179,-2.0518882910357874
1708436607.87305,-2.1577305793762207,-1.3384423118880768,-2.525818411503927,6.150074946671285,1.0158510208129883,-2.0518510977374476
1708436607.875045,-2.157710075378418,-1.3384530556252976,-2.525881592427389,6.150107371598043,1.0158478021621704,-2.0518882910357874
1708436607.8770363,-2.1577351093292236,-1.3385321956923981,-2.525797192250387,6.150107371598043,1.0158343315124512,-2.0519140402423304
1708436607.8790412,-2.157726287841797,-1.338499130015709,-2.525851551686422,6.150095450669088,1.0158106088638306,-2.0518229643451136
1708436607.8810565,-2.157676935195923,-1.3384619516185303,-2.525848690663473,6.150115954666891,1.0158510208129883,-2.0518644491778772
1708436607.8830276,-2.157676935195923,-1.3384530556252976,-2.525835100804464,6.150115954666891,1.0158358812332153,-2.0518558661090296
1708436607.8850355,-2.1576969623565674,-1.3384619516185303,-2.525797192250387,6.150099742203512,1.0158722400665283,-2.0518558661090296
1708436607.88704,-2.1577463150024414,-1.338466392164566,-2.525851551686422,6.150079238205709,1.0158343315124512,-2.0518677870379847
1708436607.8890831,-2.157717227935791,-1.3384575110724946,-2.52582294145693,6.150096523552694,1.015843391418457,-2.051873509083883
1708436607.8910687,-2.1576812267303467,-1.3384575110724946,-2.525832001362936,6.150099742203512,1.0158510208129883,-2.051798645650045
1708436607.8930361,-2.1577014923095703,-1.3384154599956055,-2.525835100804464,6.150067317276754,1.015826940536499,-2.0519092718707483
1708436607.8950393,-2.157676935195923,-1.3384080690196534,-2.525848690663473,6.15011607387618,1.0158133506774902,-2.05184775987734
1708436607.8970642,-2.1577014923095703,-1.3384530705264588,-2.52586800256838,6.150095450669088,1.015826940536499,-2.0517848173724573
1708436607.899087,-2.1577301025390625,-1.3384590160897751,-2.525865141545431,6.150046336441793,1.0158225297927856,-2.051856819783346
1708436607.901043,-2.1576900482177734,-1.3384199899486084,-2.525877062474386,6.15005503871993,1.015826940536499,-2.0518434683429163
1708436607.9030812,-2.1577084064483643,-1.3384738725474854,-2.525827471409933,6.150095450669088,1.0158225297927856,-2.0518973509417933
1708436607.9050417,-2.1576900482177734,-1.3384902340224762,-2.52582294145693,6.150099742203512,1.0158060789108276,-2.0518644491778772
1708436607.907058,-2.1576645374298096,-1.338487298493721,-2.52577788034548,6.150058614998617,1.0158179998397827,-2.0518973509417933
1708436607.909037,-2.1577258110046387,-1.3384530556252976,-2.525856081639425,6.150099742203512,1.015843391418457,-2.0518601576434534
1708436607.9110284,-2.1576857566833496,-1.3384857934764405,-2.525860611592428,6.150067317276754,1.0158178806304932,-2.05184775987734
1708436607.91305,-2.1576523780822754,-1.3384783130935212,-2.525792900715963,6.14996491649703,1.015826940536499,-2.051807705556051
1708436607.9150293,-2.1577301025390625,-1.3384619516185303,-2.525853220616476,6.1499976990516565,1.015822410583496,-2.05184775987734
1708436607.9170337,-2.1576812267303467,-1.3384411346963425,-2.525877062474386,6.149974691658773,1.0158133506774902,-2.0518272558795374
1708436607.9190369,-2.157705783843994,-1.3384575110724946,-2.52584416071047,6.150003897934713,1.015838861465454,-2.051852051411764
1708436607.9210374,-2.15767765045166,-1.3384783130935212,-2.525856081639425,6.149978983193197,1.015826940536499,-2.0517776648150843
1708436607.9230423,-2.1576812267303467,-1.3384411346963425,-2.52582294145693,6.149943101197042,1.015826940536499,-2.051845375691549
1708436607.9250312,-2.1577682495117188,-1.3384619814208527,-2.525877062474386,6.14995168426589,1.0158313512802124,-2.051845375691549
1708436607.9270413,-2.1576690673828125,-1.3385113787702103,-2.525832001362936,6.149939763336935,1.0158015489578247,-2.051798645650045
1708436607.9290426,-2.1577014923095703,-1.3384575110724946,-2.5258470217334192,6.149942981987753,1.0158478021621704,-2.051811997090475
1708436607.9310338,-2.1577014923095703,-1.338499130015709,-2.525856081639425,6.149955975800314,1.0158478021621704,-2.0518363157855433
1708436607.9330719,-2.157721519470215,-1.3384902340224762,-2.525832001362936,6.149939763336935,1.0158432722091675,-2.051819626485006
1708436607.9350338,-2.1576478481292725,-1.3384545606425782,-2.525835100804464,6.149942981987753,1.015838861465454,-2.051856819783346
1708436607.9370925,-2.1576812267303467,-1.3384154599956055,-2.52582294145693,6.149960386544027,1.015864610671997,-2.051845375691549
1708436607.9390388,-2.157721519470215,-1.3384857934764405,-2.5258470217334192,6.149935471802511,1.015831470489502,-2.051798645650045
1708436607.941032,-2.1576812267303467,-1.3384455901435395,-2.525835100804464,6.149947392731466,1.015826940536499,-2.051832977925436
1708436607.943038,-2.157721519470215,-1.338487298493721,-2.52584416071047,6.149931180268087,1.0157729387283325,-2.05180007616152
1708436607.9450328,-2.1576857566833496,-1.3384288859418412,-2.525851551686422,6.149939763336935,1.0158478021621704,-2.051767174397604
1708436607.9470363,-2.1576478481292725,-1.3384709370187302,-2.525776449834005,6.149969088822164,1.015826940536499,-2.051791016255514
1708436607.9490237,-2.1577014923095703,-1.3384783130935212,-2.525827471409933,6.149878847389974,1.015826940536499,-2.051767174397604
1708436607.9510152,-2.1576433181762695,-1.3384244453958054,-2.525865141545431,6.149936306267538,1.0158343315124512,-2.0517786184894007
1708436607.9530432,-2.1577258110046387,-1.3384215098670502,-2.52586800256838,6.149895179062643,1.015826940536499,-2.051811997090475
1708436607.955022,-2.1577084064483643,-1.3384125095656891,-2.525848690663473,6.1499318955238245,1.0158600807189941,-2.0517762343036097
1708436607.9570606,-2.157712697982788,-1.3384366941503067,-2.525897804890768,6.149870979576864,1.0157941579818726,-2.0517504850970667
1708436607.9590514,-2.1576943397521973,-1.3384485256722947,-2.525827471409933,6.149939763336935,1.0158194303512573,-2.0517428557025355
1708436607.961024,-2.157721519470215,-1.3384783130935212,-2.5258799234973353,6.149887549668112,1.015798568725586,-2.0517762343036097
1708436607.9630258,-2.15767765045166,-1.3384619516185303,-2.525818411503927,6.149957167893209,1.015815019607544,-2.0518043676959437
1708436607.9650507,-2.1576900482177734,-1.338487298493721,-2.525806252156393,6.149919974594869,1.015826940536499,-2.051767174397604
1708436607.9670472,-2.1577014923095703,-1.3384423118880768,-2.52582294145693,6.149875271111288,1.0157607793807983,-2.0517967383014124
1708436607.969037,-2.157686233520508,-1.338416965012886,-2.525860611592428,6.1499037621314905,1.0158313512802124,-2.0518301169024866
1708436607.971009,-2.1576690673828125,-1.3385024827769776,-2.525860611592428,6.149891841202535,1.0158343315124512,-2.0517805258380335
1708436607.9730353,-2.1577014923095703,-1.338466392164566,-2.525810782109396,6.149830925255575,1.015815019607544,-2.0517919699298304
1708436607.9750342,-2.157676935195923,-1.3384783130935212,-2.525851551686422,6.149948465615072,1.0158194303512573,-2.0517919699298304
1708436607.977029,-2.1576857566833496,-1.3384709370187302,-2.525848690663473,6.1498427269752405,1.0158404111862183,-2.0518091360675257
1708436607.9790258,-2.1577084064483643,-1.3384783130935212,-2.52580172220339,6.149906980782308,1.0158106088638306,-2.0518043676959437
1708436607.9810278,-2.157717227935791,-1.3384709370187302,-2.525813881550924,6.149912464409628,1.0157941579818726,-2.051771942769186
1708436607.983017,-2.1576812267303467,-1.3384827685407181,-2.525851551686422,6.149902570038595,1.015815019607544,-2.0517805258380335
1708436607.985024,-2.157698631286621,-1.338487298493721,-2.525839630757467,6.149814355164327,1.0158358812332153,-2.0517504850970667
1708436607.9870362,-2.157681941986084,-1.338503674869873,-2.525806252156393,6.149883973389425,1.0158121585845947,-2.0517876783954065
1708436607.9890702,-2.1576733589172363,-1.3384455901435395,-2.52584416071047,6.149883973389425,1.0157607793807983,-2.0517762343036097
1708436607.9910223,-2.157656669616699,-1.3384333413890381,-2.525860611592428,6.1499318955238245,1.0157941579818726,-2.0517428557025355
1708436607.9930332,-2.1577301025390625,-1.3384411346963425,-2.525810782109396,6.149883973389425,1.0157774686813354,-2.0517504850970667
1708436607.9950273,-2.1577301025390625,-1.3384288859418412,-2.525839630757467,6.149891841202535,1.0158030986785889,-2.0518043676959437
1708436607.9970598,-2.1576857566833496,-1.338466392164566,-2.525835100804464,6.14987205246047,1.0158030986785889,-2.0517051855670374
1708436607.999118,-2.157721519470215,-1.338503674869873,-2.5258198420154017,6.149908053665914,1.0157909393310547,-2.0517805258380335
1708436608.0011346,-2.157702922821045,-1.338437871342041,-2.5258365313159388,6.149879681855001,1.0158076286315918,-2.0517762343036097
1708436608.0030675,-2.157660961151123,-1.3384545606425782,-2.525782648717062,6.149854647904196,1.0158478021621704,-2.0517504850970667
1708436608.0050535,-2.1576452255249023,-1.3384154301932831,-2.525851551686422,6.14987205246047,1.0157909393310547,-2.0518010298358362
1708436608.007054,-2.1576690673828125,-1.338466392164566,-2.525818411503927,6.149859058647909,1.0158522129058838,-2.0517762343036097
1708436608.009048,-2.15767765045166,-1.3384827685407181,-2.525827471409933,6.149810063629904,1.0157941579818726,-2.051777187977926
1708436608.0110333,-2.157698631286621,-1.3384288859418412,-2.525835100804464,6.149879681855001,1.0158404111862183,-2.0517852942096155
1708436608.013065,-2.1577351093292236,-1.3384333413890381,-2.5258153120623987,6.1499037621314905,1.0158450603485107,-2.0518010298358362
1708436608.015022,-2.157698631286621,-1.338437871342041,-2.525885883961813,6.149883973389425,1.015815019607544,-2.0517519156085413
1708436608.017051,-2.1576943397521973,-1.338442326789238,-2.5258365313159388,6.149835335999288,1.0158522129058838,-2.051767174397604
1708436608.0190403,-2.1576900482177734,-1.3384709370187302,-2.525832001362936,6.1498602507408044,1.0158194303512573,-2.051756207142965
1708436608.0210383,-2.1576857566833496,-1.338520423775055,-2.525806252156393,6.149835216789999,1.015815019607544,-2.0518010298358362
1708436608.0230458,-2.1576409339904785,-1.3384619516185303,-2.52584416071047,6.149802553444662,1.0158194303512573,-2.0517638365374964
1708436608.0250163,-2.157656669616699,-1.3384455901435395,-2.525818411503927,6.149851548462667,1.0158194303512573,-2.051718537007467
1708436608.0270705,-2.1576452255249023,-1.3384288859418412,-2.525832001362936,6.149875271111288,1.0158106088638306,-2.0517476240741175
1708436608.0290391,-2.1577072143554688,-1.3384080690196534,-2.52582294145693,6.149839627533712,1.0158030986785889,-2.0517805258380335
1708436608.0310104,-2.157698631286621,-1.3384215098670502,-2.5258033911334437,6.149839627533712,1.0158076286315918,-2.0517833868609827
1708436608.0330653,-2.15765380859375,-1.3384619516185303,-2.525789801274435,6.1498111365135095,1.015794038772583,-2.0517399946795862
1708436608.035033,-2.157686233520508,-1.3384366494468232,-2.525818411503927,6.149857032089987,1.0158194303512573,-2.0517638365374964
1708436608.0370338,-2.1576690673828125,-1.3384635013392945,-2.525810782109396,6.149753677635946,1.0157941579818726,-2.0517638365374964
1708436608.039051,-2.1576623916625977,-1.3384664070657273,-2.525810782109396,6.149779903679647,1.015798568725586,-2.0517638365374964
1708436608.041021,-2.1576337814331055,-1.338446782236435,-2.525856081639425,6.149767863541403,1.0157684087753296,-2.051767174397604
1708436608.0430489,-2.1576623916625977,-1.3384664070657273,-2.525810782109396,6.149727451592245,1.0158358812332153,-2.0517266432391565
1708436608.0450256,-2.1577160358428955,-1.3384827834418793,-2.525810782109396,6.149723160057821,1.0158106088638306,-2.0517728964435022
1708436608.0470471,-2.1576452255249023,-1.3384244006923218,-2.5258365313159388,6.149736153870382,1.015815019607544,-2.0517519156085413
1708436608.0490484,-2.1576695442199707,-1.3384244006923218,-2.525780979787008,6.149715649872579,1.0158568620681763,-2.0517805258380335
1708436608.0510216,-2.157660961151123,-1.3384709370187302,-2.52582294145693,6.149761068611898,1.0158358812332153,-2.0517852942096155
1708436608.0530431,-2.157686233520508,-1.33842887104068,-2.525851551686422,6.149797189026632,1.0158194303512573,-2.0517728964435022
1708436608.0550127,-2.15767765045166,-1.3384664070657273,-2.5258470217334192,6.149752366333761,1.0158313512802124,-2.0517428557025355
1708436608.057027,-2.157681941986084,-1.3384080243161698,-2.525865141545431,6.149719941407003,1.0158240795135498,-2.0517519156085413
1708436608.0590363,-2.1576337814331055,-1.3385158789208909,-2.5258305708514612,6.149715649872579,1.0158194303512573,-2.0517805258380335
1708436608.0610206,-2.1577072143554688,-1.3384827834418793,-2.5258153120623987,6.149715649872579,1.0158404111862183,-2.0517595450030726
1708436608.0630443,-2.1576452255249023,-1.3384709519198914,-2.5258153120623987,6.149728524475851,1.0158106088638306,-2.05176812807192
1708436608.0650241,-2.157658100128174,-1.3384917986444016,-2.5258365313159388,6.149712312012472,1.0158030986785889,-2.051756207142965
1708436608.0670607,-2.157682418823242,-1.3384827834418793,-2.525865141545431,6.149756777077474,1.0157986879348755,-2.0517476240741175
1708436608.0690315,-2.157621383666992,-1.3384455752423783,-2.525877062474386,6.1496795294578455,1.0157651901245117,-2.051718537007467
1708436608.0710495,-2.1576380729675293,-1.3384635013392945,-2.525818411503927,6.149699318199911,1.0158358812332153,-2.0517519156085413
1708436608.0730836,-2.1576380729675293,-1.3384411197951813,-2.525839630757467,6.1496949074561975,1.0157606601715088,-2.0517728964435022
1708436608.07505,-2.1576087474823,-1.3384783279946824,-2.5257988611804407,6.149708020478048,1.0157864093780518,-2.0517266432391565
1708436608.077077,-2.157646656036377,-1.3384827834418793,-2.525860611592428,6.149752366333761,1.0157986879348755,-2.0517399946795862
1708436608.079046,-2.157625198364258,-1.3384664070657273,-2.525897804890768,6.149728524475851,1.0158522129058838,-2.0517399946795862
1708436608.0810242,-2.157621383666992,-1.3384545755437394,-2.5258305708514612,6.149761068611898,1.0158030986785889,-2.0517519156085413
1708436608.0830703,-2.1576695442199707,-1.33842887104068,-2.525851551686422,6.149675237923422,1.0157909393310547,-2.0517142454730433
1708436608.085019,-2.15765380859375,-1.3384366494468232,-2.5258904139148157,6.14974473693923,1.0158358812332153,-2.0517428557025355
1708436608.0870514,-2.157642364501953,-1.338433326487877,-2.52586800256838,6.149724232941427,1.0158313512802124,-2.0517519156085413
1708436608.0890493,-2.15762996673584,-1.3384124797633667,-2.52582294145693,6.149703728943624,1.0158522129058838,-2.0517943541156214
1708436608.091026,-2.1575639247894287,-1.3384546053460618,-2.525860611592428,6.1497254250343225,1.0158404111862183,-2.0517266432391565
1708436608.0930586,-2.1576640605926514,-1.338445560341217,-2.525877062474386,6.149695741921224,1.0158644914627075,-2.0517428557025355
1708436608.0950286,-2.1576147079467773,-1.3384827238372345,-2.5258470217334192,6.149666535645284,1.015826940536499,-2.0517028013812464
1708436608.0970864,-2.1575894355773926,-1.338446782236435,-2.5258634726153772,6.149666535645284,1.0158194303512573,-2.0517519156085413
1708436608.0991054,-2.1575937271118164,-1.3384635013392945,-2.5258634726153772,6.149782049446859,1.0158106088638306,-2.051771942769186
1708436608.1010966,-2.1576387882232666,-1.3384244453958054,-2.525851551686422,6.149712312012472,1.0158106088638306,-2.0517519156085413
1708436608.103058,-2.1576755046844482,-1.33842887104068,-2.525853220616476,6.149708020478048,1.0158478021621704,-2.051777187977926
1708436608.1050534,-2.1576061248779297,-1.3384991747191926,-2.525884453450338,6.149777638703146,1.0158615112304688,-2.05176812807192
1708436608.1070404,-2.157626152038574,-1.3384244006923218,-2.5258095900165003,6.149761068611898,1.015838861465454,-2.051756207142965
1708436608.1090734,-2.157626152038574,-1.3384664070657273,-2.525872532521383,6.149695741921224,1.0158225297927856,-2.0517638365374964
1708436608.1110208,-2.1576554775238037,-1.3384244006923218,-2.525888983403341,6.14969693401412,1.0158522129058838,-2.0517051855670374
1708436608.1130354,-2.1575770378112793,-1.33842887104068,-2.525860611592428,6.1496795294578455,1.0158555507659912,-2.0517762343036097
1708436608.115027,-2.15762996673584,-1.3384411197951813,-2.525818411503927,6.149733054428854,1.0158811807632446,-2.05176812807192
1708436608.1170187,-2.1576218605041504,-1.3384005588344117,-2.525835100804464,6.149729716568746,1.0158133506774902,-2.0517638365374964
1708436608.1190283,-2.157626152038574,-1.3384873431972046,-2.525872532521383,6.1496795294578455,1.0158178806304932,-2.0517118612872522
1708436608.1210337,-2.1576473712921143,-1.3384005588344117,-2.525884453450338,6.149646985321798,1.0158178806304932,-2.0517309347735804
1708436608.1230333,-2.1576218605041504,-1.338367686872818,-2.525888983403341,6.149671900063314,1.0158767700195312,-2.05176812807192
1708436608.1250637,-2.1576015949249268,-1.338437871342041,-2.5258424917804163,6.149639117508688,1.0158812999725342,-2.051777187977926
1708436608.1270285,-2.1576104164123535,-1.3384709519198914,-2.5259161631213587,6.149646985321798,1.0158133506774902,-2.051718537007467
1708436608.1290433,-2.1575849056243896,-1.3384455752423783,-2.5258424917804163,6.149660098343649,1.0158464908599854,-2.051723305379049
1708436608.131041,-2.1575937271118164,-1.3384827834418793,-2.525912586842672,6.14969693401412,1.0158886909484863,-2.051723305379049
1708436608.1330292,-2.1575894355773926,-1.338450015788414,-2.5258544127093714,6.14966772773818,1.0158886909484863,-2.051749054585592
1708436608.1350458,-2.1575655937194824,-1.3384500306895752,-2.5259252230273646,6.149624097138204,1.0158600807189941,-2.051760975514547
1708436608.137055,-2.157602310180664,-1.3384826940349122,-2.525917355214254,6.1496643898780725,1.0158252716064453,-2.0517028013812464
1708436608.1390324,-2.157602310180664,-1.338437871342041,-2.5258918444262903,6.149701344757833,1.0158796310424805,-2.0517309347735804
1708436608.1410406,-2.157623291015625,-1.3384333115867157,-2.5259037653552454,6.149631607323446,1.0158841609954834,-2.051678482686178
1708436608.1430717,-2.1575698852539062,-1.338433326487877,-2.5259252230273646,6.149680721550741,1.0159127712249756,-2.051760975514547
1708436608.1450388,-2.157589912414551,-1.3383961033872147,-2.5258572737323206,6.149672019272604,1.0158677101135254,-2.0517428557025355
1708436608.1470375,-2.157589912414551,-1.338400514130928,-2.5259128252612513,6.149680602341451,1.0158616304397583,-2.05174428621401
1708436608.1490402,-2.157562732696533,-1.338461921816208,-2.5258901754962366,6.149660098343649,1.015879511833191,-2.05176812807192
1708436608.1510592,-2.157562732696533,-1.3384333115867157,-2.5259280840503138,6.149680602341451,1.0158495903015137,-2.051723305379049
1708436608.153079,-2.15757417678833,-1.3384635162404557,-2.5259161631213587,6.149591314583578,1.0159155130386353,-2.05170709291567
1708436608.155021,-2.1575827598571777,-1.33842887104068,-2.525907103215353,6.14967309215621,1.0158828496932983,-2.051770035420553
1708436608.15702,-2.15757155418396,-1.3384124797633667,-2.5259116331683558,6.149668800621786,1.0159274339675903,-2.05176812807192
1708436608.1590176,-2.157562732696533,-1.3384378862432023,-2.5259116331683558,6.1496327994163416,1.0158270597457886,-2.0517519156085413
1708436608.1610384,-2.157589912414551,-1.338412494664528,-2.525940004979269,6.149636018067159,1.0158660411834717,-2.0517895857440394
1708436608.163028,-2.157562732696533,-1.3384378862432023,-2.525923554097311,6.149624097138204,1.0159037113189697,-2.051756207142965
1708436608.165018,-2.15757417678833,-1.3384215098670502,-2.525935475026266,6.149656522064962,1.0159319639205933,-2.0517805258380335
1708436608.167015,-2.157546043395996,-1.3383723211339493,-2.525947395955221,6.149637090950765,1.015944480895996,-2.051756207142965
1708436608.1690166,-2.1575872898101807,-1.3384333115867157,-2.5259819666491907,6.149616229325094,1.015949010848999,-2.0517357031451624
1708436608.1710293,-2.1575422286987305,-1.3384827685407181,-2.525980297719137,6.149574982910909,1.0159354209899902,-2.0517051855670374
1708436608.1730473,-2.1575591564178467,-1.3384754073670884,-2.5259280840503138,6.149601208954611,1.015944480895996,-2.0517357031451624
1708436608.175032,-2.1575334072113037,-1.3384304356626053,-2.525909964238302,6.149552094727316,1.015897512435913,-2.05174428621401
1708436608.1770465,-2.1575379371643066,-1.3384455752423783,-2.525921885167257,6.149540173798361,1.0159473419189453,-2.05174428621401
1708436608.1790395,-2.1575379371643066,-1.338439257150032,-2.52592641512026,6.149548756867208,1.0159220695495605,-2.0517519156085413
1708436608.181036,-2.15757155418396,-1.338384510283806,-2.525963846837179,6.149499761849203,1.0159711837768555,-2.051753346120016
1708436608.1831326,-2.1575307846069336,-1.3384051334908982,-2.525947395955221,6.1495282528694055,1.015926480293274,-2.051760975514547
1708436608.185099,-2.157517671585083,-1.3384545755437394,-2.525923554097311,6.149544465332784,1.0159711837768555,-2.05176812807192
1708436608.1870732,-2.157505512237549,-1.338433326487877,-2.525938336049215,6.149487840920248,1.0159924030303955,-2.0517519156085413
1708436608.1890423,-2.1575872898101807,-1.3383891147426148,-2.525971237813131,6.149479138642111,1.0159969329833984,-2.0517357031451624
1708436608.1910238,-2.1575379371643066,-1.3384546053460618,-2.525954786931173,6.149528968125143,1.015954852104187,-2.051723305379049
1708436608.193086,-2.157554864883423,-1.3384545755437394,-2.52598482767214,6.149496543198385,1.015954852104187,-2.051760975514547
1708436608.195022,-2.157489776611328,-1.338416950111725,-2.525971237813131,6.149512755661764,1.0160043239593506,-2.0517476240741175
1708436608.1970575,-2.157571792602539,-1.3384125244668503,-2.525938336049215,6.149512755661764,1.0159833431243896,-2.051723305379049
1708436608.1991096,-2.1575634479522705,-1.3384333115867157,-2.525963846837179,6.149504172592916,1.016008734703064,-2.0517028013812464
1708436608.2011476,-2.157496690750122,-1.338425950413086,-2.525980297719137,6.149515974312582,1.0159952640533447,-2.0517028013812464
1708436608.2030957,-2.1575098037719727,-1.3383724552444,-2.525975767766134,6.1494953511054895,1.0159833431243896,-2.051723305379049
1708436608.2051244,-2.1575183868408203,-1.3384918433478852,-2.525971237813131,6.149492251663961,1.0159997940063477,-2.051765267048971
1708436608.2070808,-2.1575465202331543,-1.3384214651635666,-2.525971237813131,6.149480330735006,1.0159862041473389,-2.0517357031451624
1708436608.2090573,-2.157498598098755,-1.3384006184390564,-2.525959316884176,6.149472462921896,1.0159833431243896,-2.051781956349508
1708436608.2110279,-2.157498598098755,-1.3384096336415787,-2.5259879271136683,6.149517166405477,1.015999674797058,-2.0517519156085413
1708436608.213059,-2.157498598098755,-1.3384545904449006,-2.525938336049215,6.149463641434469,1.0160119533538818,-2.0517595450030726
1708436608.2150218,-2.157494068145752,-1.3384411197951813,-2.5259667078601282,6.149496543198385,1.0160030126571655,-2.0517266432391565
1708436608.2170372,-2.1575264930725098,-1.338451163177826,-2.5259621779071253,6.149500834732809,1.0160120725631714,-2.0518010298358362
1708436608.2190592,-2.157498598098755,-1.338425950413086,-2.52595025697817,6.149533378868856,1.0159862041473389,-2.051727596913473
1708436608.2210407,-2.157518148422241,-1.3384140145829697,-2.526008907948629,6.1494637606437585,1.0159952640533447,-2.051723305379049
1708436608.2230694,-2.157498598098755,-1.338397966032364,-2.5259788672076624,6.149468052178182,1.0159952640533447,-2.0517547766314905
1708436608.225015,-2.1574816703796387,-1.338437871342041,-2.525992457066671,6.14948462226943,1.0160284042358398,-2.051760975514547
1708436608.2270367,-2.1575264930725098,-1.3384288859418412,-2.525980297719137,6.149505245476522,1.0160164833068848,-2.0517519156085413
1708436608.2290268,-2.1574902534484863,-1.3384511780789872,-2.525980297719137,6.149460541992941,1.0159788131713867,-2.05174428621401
1708436608.2310228,-2.1574902534484863,-1.3384590309909363,-2.525975767766134,6.149509537010946,1.0160120725631714,-2.0517943541156214
1708436608.2330298,-2.157543659210205,-1.3384051036885758,-2.525938336049215,6.149496543198385,1.0160478353500366,-2.0517399946795862
1708436608.2350268,-2.157559394836426,-1.3384347719005127,-2.5259667078601282,6.149512755661764,1.016036033630371,-2.051760975514547
1708436608.2370298,-2.157522678375244,-1.338409574036934,-2.5259576479541224,6.149505245476522,1.015998363494873,-2.051756207142965
1708436608.239024,-2.1574463844299316,-1.338376746778824,-2.5259998480426233,6.1495128748710535,1.016002893447876,-2.051727596913473
1708436608.2410145,-2.157518148422241,-1.3383723956397553,-2.525992457066671,6.149467932968893,1.016036033630371,-2.051718537007467
1708436608.2430203,-2.1575026512145996,-1.3384379011443635,-2.5259833971606653,6.149438965111532,1.0160434246063232,-2.051774326954977
1708436608.2450366,-2.157515525817871,-1.3384378564408799,-2.5260284582721155,6.149455058365621,1.0160856246948242,-2.0517399946795862
1708436608.2470317,-2.157470226287842,-1.338466392164566,-2.525971237813131,6.14944754818038,1.015998363494873,-2.0517309347735804
1708436608.249027,-2.1574788093566895,-1.3384347420981904,-2.52595025697817,6.149431216507711,1.0160225629806519,-2.051718537007467
1708436608.2510216,-2.1574459075927734,-1.3384125393680115,-2.525992457066671,6.149469244271078,1.0160225629806519,-2.0517142454730433
1708436608.2530322,-2.1574745178222656,-1.3384169948152085,-2.525954786931173,6.1494637606437585,1.0160102844238281,-2.05176812807192
1708436608.2550116,-2.1574902534484863,-1.3384215247682114,-2.5259788672076624,6.149463641434469,1.016036033630371,-2.0517385641681116
1708436608.2570333,-2.1575026512145996,-1.338470996623375,-2.525992457066671,6.149443137436666,1.016040563583374,-2.051690403615133
1708436608.2590315,-2.1574745178222656,-1.338421494965889,-2.5259833971606653,6.149472462921896,1.015977144241333,-2.051723305379049
1708436608.2610278,-2.157458782196045,-1.3384051334908982,-2.525971237813131,6.149493324547567,1.0160597562789917,-2.0517476240741175
1708436608.26303,-2.1574788093566895,-1.3384214800647278,-2.525972906743185,6.14944754818038,1.016036033630371,-2.05176812807192
1708436608.2650242,-2.1574788093566895,-1.3383890998414536,-2.525971237813131,6.149468052178182,1.016023874282837,-2.0517638365374964
1708436608.2670324,-2.1574630737304688,-1.3384723228267212,-2.52595025697817,6.149489033013143,1.0160013437271118,-2.0517476240741175
1708436608.2690172,-2.1574859619140625,-1.3383768510869523,-2.525971237813131,6.149440037995138,1.015998363494873,-2.0517094771014612
1708436608.271033,-2.1574788093566895,-1.3383935403874894,-2.5259879271136683,6.1494367001350305,1.016019344329834,-2.0517357031451624
1708436608.2730343,-2.157487392425537,-1.338416950111725,-2.525971237813131,6.149457323342123,1.016036033630371,-2.05176812807192
1708436608.2750597,-2.1574501991271973,-1.3384590309909363,-2.5259833971606653,6.149505245476522,1.0160733461380005,-2.0517094771014612
1708436608.2770472,-2.1574673652648926,-1.3384259355119248,-2.5259788672076624,6.149505245476522,1.0160390138626099,-2.0517357031451624
1708436608.2790334,-2.1574630737304688,-1.3384023320725937,-2.5259221235858362,6.1494637606437585,1.016019344329834,-2.051723305379049
1708436608.2810278,-2.157470226287842,-1.3384080690196534,-2.52602988878359,6.149500834732809,1.016036033630371,-2.051718537007467
1708436608.283023,-2.1574831008911133,-1.3384215098670502,-2.5259879271136683,6.14947675445632,1.0160597562789917,-2.05176812807192
1708436608.2850158,-2.1574788093566895,-1.3383856278708954,-2.5259667078601282,6.149460541992941,1.0160856246948242,-2.0517028013812464
1708436608.2870328,-2.157437562942505,-1.3384347719005127,-2.525992457066671,6.149489152222433,1.016014814376831,-2.051723305379049
1708436608.2890277,-2.1574902534484863,-1.338479833011963,-2.525975767766134,6.1494367001350305,1.0160597562789917,-2.05176812807192
1708436608.291018,-2.157503128051758,-1.3384678673795243,-2.525959316884176,6.149472462921896,1.016019344329834,-2.051777187977926
1708436608.2930365,-2.1574788093566895,-1.338420347576477,-2.525996987019674,6.149440037995138,1.0160119533538818,-2.0517476240741175
1708436608.2951417,-2.1574463844299316,-1.3384678226760407,-2.5259621779071253,6.149407136231222,1.016019344329834,-2.0517309347735804
1708436608.2970526,-2.1575026512145996,-1.3384169948152085,-2.525933806096212,6.149485456734457,1.0160315036773682,-2.0517428557025355
1708436608.29905,-2.157437562942505,-1.3384392869523545,-2.5260043779956263,6.14947675445632,1.016052484512329,-2.0517638365374964
1708436608.3011227,-2.1574463844299316,-1.338409574036934,-2.5259879271136683,6.149469244271078,1.0160225629806519,-2.0517895857440394
1708436608.3030941,-2.1574673652648926,-1.3384095889380951,-2.525954786931173,6.149509537010946,1.0160688161849976,-2.0517728964435022
1708436608.3050485,-2.1574902534484863,-1.338451163177826,-2.52595025697817,6.149407136231222,1.0159817934036255,-2.051760975514547
1708436608.3070831,-2.1574630737304688,-1.338416965012886,-2.525971237813131,6.149431216507711,1.016014814376831,-2.0517519156085413
1708436608.3090842,-2.1574463844299316,-1.3384379011443635,-2.525963846837179,6.149472462921896,1.016014814376831,-2.0517218748675745
1708436608.3110409,-2.1574831008911133,-1.3384068620255967,-2.5260043779956263,6.149460541992941,1.0160102844238281,-2.0517309347735804
1708436608.3130815,-2.1574788093566895,-1.3383934658816834,-2.5259788672076624,6.149415838509359,1.0160315036773682,-2.0517142454730433
1708436608.3150585,-2.1574673652648926,-1.3384183657220383,-2.52595025697817,6.149435508042135,1.016052484512329,-2.0517399946795862
1708436608.3170848,-2.157503128051758,-1.3384841692498703,-2.525942866002218,6.14948462226943,1.015998363494873,-2.051690403615133
1708436608.3190436,-2.157503128051758,-1.3384423416903992,-2.525963846837179,6.149444329529562,1.0159939527511597,-2.051723305379049
1708436608.321043,-2.1574716567993164,-1.3384183806231995,-2.525938336049215,6.14947675445632,1.016007423400879,-2.0517357031451624
1708436608.323062,-2.1574594974517822,-1.3383845549872895,-2.525971237813131,6.149518239289083,1.016036033630371,-2.051760975514547
1708436608.3250844,-2.1574549674987793,-1.3384169799140473,-2.5259879271136683,6.149472462921896,1.0160269737243652,-2.0516980330096644
1708436608.3270826,-2.157437562942505,-1.3384512227824708,-2.5260043779956263,6.14944754818038,1.016073226928711,-2.0517309347735804
1708436608.3290424,-2.157442092895508,-1.3384051334908982,-2.525971237813131,6.1494977352912805,1.0160237550735474,-2.0517309347735804
1708436608.3310351,-2.1574549674987793,-1.3383935403874894,-2.5259891192065638,6.149444329529562,1.016036033630371,-2.0517895857440394
1708436608.3331108,-2.1574831008911133,-1.338421494965889,-2.5259292761432093,6.149469125061788,1.016007423400879,-2.0517476240741175
1708436608.335018,-2.1574506759643555,-1.3384423118880768,-2.525942866002218,6.14947675445632,1.0160540342330933,-2.0517309347735804
1708436608.337035,-2.1574716567993164,-1.3384259355119248,-2.525989357625143,6.14947675445632,1.0160284042358398,-2.05176812807192
1708436608.3390193,-2.1574549674987793,-1.3384709370187302,-2.525954786931173,6.149452912598409,1.016052484512329,-2.05176812807192
1708436608.3410413,-2.157442092895508,-1.3383845549872895,-2.525947395955221,6.149505245476522,1.0160030126571655,-2.0517266432391565
1708436608.3430502,-2.1574223041534424,-1.3384303909591218,-2.525975767766134,6.1494977352912805,1.016036033630371,-2.051760975514547
1708436608.3450453,-2.157498836517334,-1.3384423416903992,-2.525942866002218,6.149468052178182,1.016019344329834,-2.051756207142965
1708436608.347062,-2.157487392425537,-1.3383723956397553,-2.525963846837179,6.149439918785848,1.0160688161849976,-2.05170709291567
1708436608.3490312,-2.1574463844299316,-1.338394583468773,-2.525923554097311,6.149493324547567,1.016019344329834,-2.05170709291567
1708436608.3510265,-2.1574463844299316,-1.3384709370187302,-2.52596098581423,6.149493324547567,1.0160237550735474,-2.051777187977926
1708436608.3530462,-2.1574716567993164,-1.338437871342041,-2.525921885167257,6.149460541992941,1.0160030126571655,-2.051723305379049
1708436608.3550353,-2.1574630737304688,-1.3383845549872895,-2.525963846837179,6.149460541992941,1.016040563583374,-2.051756207142965
1708436608.3570697,-2.15749454498291,-1.3384678226760407,-2.525919024144308,6.149448621063986,1.0159952640533447,-2.0517428557025355
1708436608.3590426,-2.1574630737304688,-1.338396118288376,-2.525975767766134,6.149485456734457,1.0160164833068848,-2.05176812807192
1708436608.3610177,-2.1574630737304688,-1.3383604747108002,-2.525947395955221,6.149502026825704,1.016002893447876,-2.051723305379049
1708436608.3630455,-2.1574788093566895,-1.3383768510869523,-2.525954786931173,6.149444329529562,1.0160030126571655,-2.0517399946795862
1708436608.365108,-2.1574788093566895,-1.338425950413086,-2.525914494191305,6.149452912598409,1.0159952640533447,-2.051760975514547
1708436608.3670542,-2.157498836517334,-1.3384303760579606,-2.525914494191305,6.149506437569418,1.0160030126571655,-2.051760975514547
1708436608.3690197,-2.1574506759643555,-1.3384304207614441,-2.525971237813131,6.1494637606437585,1.015965223312378,-2.051727596913473
1708436608.3710358,-2.1574716567993164,-1.338425950413086,-2.525938336049215,6.149440037995138,1.0159698724746704,-2.051727596913473
1708436608.3730116,-2.1574463844299316,-1.3383935403874894,-2.525975767766134,6.149444210320272,1.016007423400879,-2.051718537007467
1708436608.37505,-2.1574831008911133,-1.338425950413086,-2.525975767766134,6.149472462921896,1.0159833431243896,-2.0517309347735804
1708436608.3770292,-2.1574831008911133,-1.3384214800647278,-2.525923554097311,6.149521577149191,1.0160043239593506,-2.0517399946795862
1708436608.3790455,-2.1574549674987793,-1.3384392869523545,-2.525968376790182,6.149472462921896,1.0159789323806763,-2.051703755055563
1708436608.3810344,-2.1574463844299316,-1.3383723956397553,-2.525951925908224,6.149444329529562,1.0159924030303955,-2.051727596913473
1708436608.383048,-2.1574463844299316,-1.338437871342041,-2.525947395955221,6.149472462921896,1.0159833431243896,-2.051699463521139
1708436608.38501,-2.1574549674987793,-1.3384051334908982,-2.525968376790182,6.149481045990743,1.0159924030303955,-2.051736656819479
1708436608.3870287,-2.1574549674987793,-1.3384437722018738,-2.525930945073263,6.149487960129537,1.0159411430358887,-2.05174428621401
1708436608.3890219,-2.1574716567993164,-1.3383979958346863,-2.525963846837179,6.149489033013143,1.016008734703064,-2.0517080465899866
1708436608.3910232,-2.1574549674987793,-1.3384303909591218,-2.5259442965136927,6.149477946549215,1.0159878730773926,-2.051694695149557
1708436608.393053,-2.1574788093566895,-1.338402346973755,-2.525914494191305,6.149485456734457,1.0159924030303955,-2.051731888447897
1708436608.3950205,-2.157515525817871,-1.3384068769267579,-2.525951925908224,6.149469244271078,1.0159592628479004,-2.051736656819479
1708436608.397029,-2.157470226287842,-1.3384112876704712,-2.525914494191305,6.149440037995138,1.0159800052642822,-2.0516961256610315
1708436608.39905,-2.15749192237854,-1.3384423118880768,-2.525923554097311,6.149456250458517,1.0159502029418945,-2.051716152821676
1708436608.4011104,-2.1574506759643555,-1.3384467673352738,-2.525907341633932,6.149432408600607,1.0159502029418945,-2.0516918341266077
1708436608.4031255,-2.157442092895508,-1.3383485537818451,-2.525909964238302,6.149506437569418,1.0159592628479004,-2.0517118612872522
1708436608.4050422,-2.15749454498291,-1.3384467673352738,-2.525968376790182,6.149513947754659,1.015923023223877,-2.051716152821676
1708436608.4070365,-2.15749454498291,-1.3384068620255967,-2.525919024144308,6.14947675445632,1.0159801244735718,-2.051753346120016
1708436608.4090421,-2.1574716567993164,-1.3383901876262208,-2.525942866002218,6.149472462921896,1.0159354209899902,-2.0516627470599573
1708436608.4110212,-2.157442092895508,-1.3383768510869523,-2.525907103215353,6.1494518397148035,1.0159564018249512,-2.0517409483539026
1708436608.4130454,-2.1574788093566895,-1.338381291632988,-2.525909964238302,6.149489033013143,1.0159354209899902,-2.051666561757223
1708436608.4150379,-2.1574716567993164,-1.338414029484131,-2.5259326140033167,6.149522650032797,1.0159473419189453,-2.0516961256610315
1708436608.4170425,-2.1574673652648926,-1.3384183806231995,-2.525907103215353,6.14947675445632,1.015923023223877,-2.051675621663229
1708436608.4190679,-2.1574716567993164,-1.3384183806231995,-2.525914494191305,6.149481165200033,1.0158931016921997,-2.0516799131976526
1708436608.4210324,-2.1574673652648926,-1.3383935552886506,-2.525893513356344,6.149431216507711,1.015923023223877,-2.051675621663229
1708436608.4230525,-2.157503128051758,-1.338414029484131,-2.526010576878683,6.149440037995138,1.0159354209899902,-2.0516961256610315
1708436608.4250333,-2.157487392425537,-1.3383723509362717,-2.525914494191305,6.149440037995138,1.0159400701522827,-2.0516961256610315
1708436608.4270399,-2.157498836517334,-1.338381291632988,-2.525907103215353,6.149444329529562,1.0159019231796265,-2.0516470114337366
1708436608.4290314,-2.157487392425537,-1.3384392720511933,-2.525923554097311,6.14948986747817,1.0159518718719482,-2.0516632238971155
1708436608.4310534,-2.1574463844299316,-1.3383856129697342,-2.525956455861227,6.149432408600607,1.0159094333648682,-2.0516470114337366
1708436608.4331808,-2.157437562942505,-1.3384229403785248,-2.525919024144308,6.1494237063224695,1.0159473419189453,-2.0516393820392054
1708436608.435039,-2.15749454498291,-1.3384183806231995,-2.525944534932272,6.1494518397148035,1.0159183740615845,-2.051615540181295
1708436608.4370894,-2.157487392425537,-1.3384096038392563,-2.525914494191305,6.149457323342123,1.0159474611282349,-2.051647965108053
1708436608.439038,-2.1574463844299316,-1.3383574348739167,-2.5259037653552454,6.149454104691305,1.0159274339675903,-2.0516603628741663
1708436608.441059,-2.1574902534484863,-1.3383856278708954,-2.525919024144308,6.14942883232192,1.0159400701522827,-2.051619831715719
1708436608.4430807,-2.1574463844299316,-1.3384023767760773,-2.525940004979269,6.149416911392965,1.015923023223877,-2.051595989857809
1708436608.4450262,-2.157442092895508,-1.3383362156203766,-2.5259161631213587,6.149372327118673,1.0159111022949219,-2.051579300557272
1708436608.4470696,-2.1574716567993164,-1.338422955279686,-2.525944534932272,6.14936791637496,1.0159354209899902,-2.0515640417682093
1708436608.4490414,-2.1574223041534424,-1.3384023171714325,-2.5258901754962366,6.149336206703939,1.015923023223877,-2.051551644002096
1708436608.4510248,-2.1574594974517822,-1.338336170916893,-2.525907103215353,6.1493286965186975,1.0159066915512085,-2.051514450703756
1708436608.4530902,-2.1574549674987793,-1.3383873266032715,-2.52596098581423,6.149353492050924,1.015906572341919,-2.0515316168414515
1708436608.4550254,-2.157397747039795,-1.3383362305215378,-2.5258944670306605,6.149276482849874,1.0158783197402954,-2.0515316168414515
1708436608.4570556,-2.157388925552368,-1.3383618605187912,-2.525956455861227,6.14927755573348,1.015906572341919,-2.051511589680807
1708436608.4590333,-2.1574230194091797,-1.3384037178805848,-2.5258856455432337,6.149207937508383,1.0159400701522827,-2.051495377217428
1708436608.4610417,-2.1574020385742188,-1.3383586716702958,-2.5258947054492396,6.149213063507833,1.0158783197402954,-2.0514634291278284
1708436608.4630792,-2.1574273109436035,-1.3383406561664124,-2.525956455861227,6.149099218636312,1.015944480895996,-2.051443878804342
1708436608.4650543,-2.157414436340332,-1.3383003634265442,-2.5259280840503138,6.149083602219381,1.0158692598342896,-2.0514352957354944
1708436608.4670634,-2.1573541164398193,-1.3383095276406785,-2.525919024144308,6.149085867195883,1.0158947706222534,-2.051415745412008
1708436608.4690828,-2.1573383808135986,-1.33829020083461,-2.52590257326235,6.149023878365316,1.015923023223877,-2.051375214253561
1708436608.4710474,-2.1573455333709717,-1.3383106750300904,-2.525907103215353,6.148981082230367,1.0158946514129639,-2.0513222853290003
1708436608.4730587,-2.1573262214660645,-1.3383393448642273,-2.5258811155902308,6.1489367363746545,1.015923023223877,-2.05125600496401
1708436608.4750202,-2.157360076904297,-1.338352696304657,-2.5258901754962366,6.1488919136817834,1.015913963317871,-2.051278893147604
1708436608.4770718,-2.157306671142578,-1.3382990521243592,-2.525944534932272,6.148950564652242,1.0159111022949219,-2.0512755552874964
1708436608.4790568,-2.157261848449707,-1.3382331889918824,-2.525923554097311,6.1488603232200525,1.0159400701522827,-2.051239792500631
1708436608.4810405,-2.157261610031128,-1.3382917207530518,-2.5259037653552454,6.1488122818763635,1.015923023223877,-2.051169220601217
1708436608.4830425,-2.1572227478027344,-1.3382242929986496,-2.5259371439563196,6.148862468987264,1.0159111022949219,-2.0511472860919397
1708436608.4850452,-2.1572299003601074,-1.3383196604302903,-2.525956455861227,6.148785102158346,1.015949010848999,-2.0511181990252894
1708436608.4870489,-2.1571531295776367,-1.3382257980159302,-2.525951925908224,6.148750054627218,1.0159111022949219,-2.0511120001422327
1708436608.4890542,-2.1571576595306396,-1.3382347387126465,-2.525898281727926,6.148673045426168,1.0158947706222534,-2.051070038472311
1708436608.4910202,-2.157153844833374,-1.338216782813408,-2.525907103215353,6.148604142456808,1.0159155130386353,-2.0509889761554163
1708436608.4930305,-2.157158851623535,-1.3382093769362946,-2.525940004979269,6.148568498879232,1.015913963317871,-2.0509780089007776
1708436608.4950423,-2.1571245193481445,-1.338197113280632,-2.52588922182192,6.148538100510397,1.0158902406692505,-2.0509470144854944
1708436608.4970527,-2.1570911407470703,-1.3382061135819932,-2.5258856455432337,6.14854251125411,1.015923023223877,-2.050870720540182
1708436608.499041,-2.15706729888916,-1.338222787981369,-2.525923554097311,6.148436772614279,1.0159111022949219,-2.0508249441729944
1708436608.501171,-2.15704345703125,-1.3382016581347962,-2.525951925908224,6.148351895600118,1.0158902406692505,-2.0508058706866663
1708436608.503222,-2.1569578647613525,-1.3381896776011963,-2.52590257326235,6.14834092834548,1.015923023223877,-2.050765339528219
1708436608.505081,-2.1569957733154297,-1.338198722606041,-2.525923554097311,6.148228633194723,1.0158946514129639,-2.050673786793844
1708436608.507056,-2.156968116760254,-1.3382076931050797,-2.5259280840503138,6.148185002594747,1.015944480895996,-2.0506017843829554
1708436608.5090575,-2.1568949222564697,-1.3381703209928055,-2.525907103215353,6.148175108223715,1.015960931777954,-2.050515953694479
1708436608.511018,-2.156829833984375,-1.338207722907402,-2.525940004979269,6.148070561676779,1.0159310102462769,-2.050469223652975
1708436608.513036,-2.1568236351013184,-1.3381451082280655,-2.525923554097311,6.147994506150045,1.0159310102462769,-2.0503957907306116
1708436608.5150206,-2.1568150520324707,-1.338209645157196,-2.525914494191305,6.147872674256124,1.0159354209899902,-2.050324265156881
1708436608.5170271,-2.156742572784424,-1.338162974720337,-2.5259116331683558,6.147821175843038,1.0159473419189453,-2.05021840730776
1708436608.519054,-2.156759262084961,-1.3381391328624268,-2.525947395955221,6.147705781250753,1.0159845352172852,-2.0501440207110804
1708436608.5210333,-2.1566946506500244,-1.3381061118892212,-2.525935475026266,6.147641408234396,1.0159310102462769,-2.0500925222979944
1708436608.5230417,-2.1567163467407227,-1.338105947976448,-2.525907103215353,6.147558557778158,1.0159457921981812,-2.050004307423727
1708436608.5250595,-2.1566269397735596,-1.3381031316569825,-2.525919024144308,6.1474212286765955,1.0159502029418945,-2.049924675618307
1708436608.527033,-2.1566078662872314,-1.338065819149353,-2.525956455861227,6.147358166962423,1.0159997940063477,-2.049833122883932
1708436608.529018,-2.1565475463867188,-1.3380703193000336,-2.525930945073263,6.147241937905111,1.0159502029418945,-2.049694840108053
1708436608.5310256,-2.1565890312194824,-1.3380822402289887,-2.525971237813131,6.147126543312826,1.0159952640533447,-2.049600426350729
1708436608.533032,-2.1565370559692383,-1.3380509477904816,-2.525944534932272,6.147063123970785,1.0159952640533447,-2.0494754950152796
1708436608.535044,-2.156492233276367,-1.3380822402289887,-2.525917355214254,6.1469095824058435,1.016002893447876,-2.0493176619159144
1708436608.5370271,-2.1564207077026367,-1.337986321454384,-2.5259607473956507,6.146867143898763,1.016014814376831,-2.0492051283465784
1708436608.5390282,-2.156421184539795,-1.3379849952510376,-2.526013437901632,6.146707165032186,1.0160568952560425,-2.049082104359762
1708436608.541021,-2.1563773155212402,-1.338023917084076,-2.525963846837179,6.146615254669943,1.0160390138626099,-2.0489376227008265
1708436608.5430276,-2.1562647819519043,-1.337999851708748,-2.525971237813131,6.146528231888571,1.0160887241363525,-2.0487845579730433
1708436608.5450451,-2.156294345855713,-1.3379834306291123,-2.5260148684131067,6.146351802140035,1.0160553455352783,-2.048654381428854
1708436608.5470388,-2.156168222427368,-1.337992326622345,-2.52598482767214,6.146202790528097,1.0160675048828125,-2.0485013167010706
1708436608.5490623,-2.156109094619751,-1.3379312616637726,-2.525921885167257,6.146034943848409,1.0161619186401367,-2.04838210741152
1708436608.5510588,-2.156093120574951,-1.337923825984337,-2.5259833971606653,6.145956623345175,1.0160661935806274,-2.0482261816607874
1708436608.553091,-2.1560254096984863,-1.337899313574173,-2.525947395955221,6.145832288056173,1.0161439180374146,-2.0480130354510706
1708436608.5550241,-2.156010627746582,-1.3379039627364655,-2.525947395955221,6.145741927414694,1.0161023139953613,-2.047830406819479
1708436608.5570605,-2.1559181213378906,-1.3378751289895554,-2.5260210672961634,6.145519602089681,1.016168475151062,-2.04755670229067
1708436608.5590677,-2.155874729156494,-1.337831662302353,-2.5259667078601282,6.145372497826376,1.0161713361740112,-2.047389332448141
1708436608.5610435,-2.1557979583740234,-1.3378275346807023,-2.525971237813131,6.14522551277236,1.0161668062210083,-2.0471437613116663
1708436608.5630686,-2.155717611312866,-1.337832437162735,-2.5259998480426233,6.145077097206869,1.0162327289581299,-2.046964470540182
1708436608.565039,-2.1556084156036377,-1.3378367286971589,-2.5260403792010706,6.144892203598776,1.016219139099121,-2.0467808882342737
1708436608.5670424,-2.155569314956665,-1.3377880317023774,-2.5260120073901575,6.144786703377523,1.0162853002548218,-2.0465319792376917
1708436608.5690632,-2.155486583709717,-1.3377641898444672,-2.526010338460104,6.14453290680007,1.0163049697875977,-2.0463159720050257
1708436608.5710366,-2.1554598808288574,-1.337728427057602,-2.526022259389059,6.144369351654806,1.0162837505340576,-2.046072308217184
1708436608.5730493,-2.155313730239868,-1.3376924258521576,-2.52606445947756,6.144262420922079,1.016312599182129,-2.045779053364889
1708436608.5750222,-2.1553235054016113,-1.3376513433507462,-2.526088539754049,6.144026148110189,1.0163363218307495,-2.0454986731158655
1708436608.5770657,-2.155226707458496,-1.3376805049232026,-2.5261078516589563,6.1438660500343225,1.0163694620132446,-2.045257870350973
1708436608.5790377,-2.1551156044006348,-1.3376413148692627,-2.526067558919088,6.143637287407675,1.016339659690857,-2.0449498335467737
1708436608.5810273,-2.1550509929656982,-1.3376163703254242,-2.526116911564962,6.143458950310507,1.0163605213165283,-2.0446890036212366
1708436608.5830235,-2.154952049255371,-1.3376053136638184,-2.5261407534228724,6.143267142563619,1.0163846015930176,-2.044380489979879
1708436608.5850644,-2.154899835586548,-1.3375481081059952,-2.5261107126819056,6.143103587418356,1.0164086818695068,-2.0441392103778284
1708436608.5870154,-2.1547868251800537,-1.3375166368535538,-2.5261107126819056,6.14293264129714,1.016416072845459,-2.0437868277179163
1708436608.589018,-2.154680013656616,-1.3374763441136857,-2.526130501423971,6.142699348717489,1.0164703130722046,-2.043464962636129
1708436608.5910187,-2.154575824737549,-1.3375250560096283,-2.526160542164938,6.142507779389181,1.0164763927459717,-2.0431364218341272
1708436608.5930266,-2.1545658111572266,-1.3375258606723328,-2.526172463093893,6.1423648474510095,1.0165046453475952,-2.042755428944723
1708436608.59502,-2.154423952102661,-1.337428705101349,-2.526151482258932,6.142173397331991,1.0165590047836304,-2.0424025694476526
1708436608.5970294,-2.1543214321136475,-1.337449074988701,-2.5262203852282923,6.141948807030477,1.0165603160858154,-2.0420177618609827
1708436608.5990298,-2.1543025970458984,-1.3374133122018357,-2.526196304951803,6.141761529236593,1.0165603160858154,-2.0415976683246058
1708436608.6011229,-2.1541736125946045,-1.3374137890389939,-2.5261662642108362,6.141541468888082,1.0166386365890503,-2.04120904604067
1708436608.6030843,-2.154085397720337,-1.3373447370580216,-2.5262280146228235,6.141312944680013,1.0166162252426147,-2.0408218542682093
1708436608.6050346,-2.154005765914917,-1.3373531115106125,-2.5262563864337366,6.141089784889974,1.0166206359863281,-2.0404685179339808
1708436608.6070318,-2.153865098953247,-1.3372817051461716,-2.526280466710226,6.140805113106527,1.0166776180267334,-2.0400384108172815
1708436608.6090744,-2.1537983417510986,-1.3372697842172165,-2.526259247456686,6.140647160797872,1.016672968864441,-2.0396063963519495
1708436608.6110544,-2.153714418411255,-1.3371888262084504,-2.526245657597677,6.140337931900778,1.0166970491409302,-2.0392115751849573
1708436608.6131043,-2.1536269187927246,-1.337228701715805,-2.526325527821676,6.140110361367025,1.0167016983032227,-2.038767162953512
1708436608.615023,-2.1535027027130127,-1.33720155180011,-2.5263493696795862,6.13985954502181,1.0167150497436523,-2.038313690816061
1708436608.617054,-2.153394937515259,-1.3371458065560837,-2.5263267199145716,6.1395755884941,1.016757607460022,-2.0378568808185022
1708436608.619052,-2.1533565521240234,-1.3371576976827164,-2.5263147989856165,6.139352190285482,1.016757607460022,-2.037417236958639
1708436608.6210563,-2.1531875133514404,-1.3371059161475678,-2.5263643900500696,6.13906358459548,1.016800880432129,-2.0369604269610804
1708436608.623054,-2.1531448364257812,-1.337078259592392,-2.526367489491598,6.138725864678182,1.016812801361084,-2.0364540258990687
1708436608.6250315,-2.1530354022979736,-1.3370706301978608,-2.526407782231466,6.138638603478231,1.0168581008911133,-2.0359318892108362
1708436608.6270669,-2.152937412261963,-1.3370706301978608,-2.52637488046755,6.138289201050558,1.0168371200561523,-2.0354417006122034
1708436608.6290622,-2.1528241634368896,-1.3370141995004197,-2.5264106432544153,6.1381276724632166,1.0168895721435547,-2.034915272389547
1708436608.6310275,-2.152766704559326,-1.3370514524034043,-2.5264604727374476,6.137827145844259,1.016921043395996,-2.0343955198871058
1708436608.633047,-2.1525955200195312,-1.3369869154742737,-2.5265052954303187,6.137595402985372,1.016928791999817,-2.0338409582721155
1708436608.6350336,-2.1525580883026123,-1.3370279383710404,-2.526515785847799,6.137331592827596,1.0169570446014404,-2.033327881489889
1708436608.6370316,-2.15240216255188,-1.3369109642556687,-2.526515785847799,6.137067425041952,1.0170685052871704,-2.032724205647604
1708436608.6390336,-2.1523470878601074,-1.3369151812842865,-2.5265489260302942,6.136843907624044,1.017000675201416,-2.032199207936422
1708436608.6410255,-2.152251720428467,-1.3368871223977585,-2.5265098253833216,6.1366039393241785,1.0170173645019531,-2.0316765944110315
1708436608.6430392,-2.152134418487549,-1.3368349087289353,-2.5265637079821985,6.136335956841268,1.0170791149139404,-2.0310562292682093
1708436608.6450255,-2.1519782543182373,-1.3368391555598755,-2.526595417653219,6.136068451195516,1.017098307609558,-2.030450169240133
1708436608.647064,-2.151931047439575,-1.3367830973914643,-2.526595417653219,6.135853755265035,1.0171183347702026,-2.029855553303854
1708436608.649055,-2.1517510414123535,-1.3367715191892167,-2.526620928441183,6.135602104454794,1.0171796083450317,-2.029311482106344
1708436608.6510315,-2.151703119277954,-1.336735100751259,-2.526623789464132,6.1353590367134,1.0172066688537598,-2.028698269520895
1708436608.653075,-2.151609420776367,-1.3366960001042862,-2.526644770299093,6.135115134506979,1.017218828201294,-2.028039280568258
1708436608.6550136,-2.151488780975342,-1.3366713982871552,-2.52664024034609,6.134888398438253,1.0172592401504517,-2.027426067982809
1708436608.657051,-2.1513726711273193,-1.3366027933410187,-2.5266462008105677,6.134583461075582,1.0172457695007324,-2.026815716420309
1708436608.659019,-2.1512537002563477,-1.3366281253150483,-2.5266462008105677,6.134335386544027,1.0172654390335083,-2.0261619726764124
1708436608.6610184,-2.15110445022583,-1.3366119873574753,-2.526695791875021,6.134109484940328,1.0173691511154175,-2.025477711354391
1708436608.6630383,-2.1510705947875977,-1.3366169047406693,-2.526715103779928,6.133824336319723,1.0173250436782837,-2.0248244444476526
1708436608.6650445,-2.150864362716675,-1.3365240109017869,-2.526673142110006,6.133613097458639,1.0173540115356445,-2.02418023744692
1708436608.6670527,-2.1507856845855713,-1.3364959818175812,-2.5267227331744593,6.133316862374105,1.0174063444137573,-2.0235207716571253
1708436608.6690505,-2.1507105827331543,-1.3364849251559754,-2.52674371400942,6.133066522866049,1.0174140930175781,-2.022787396107809
1708436608.671019,-2.1505331993103027,-1.3363958311131974,-2.5267842451678675,6.132797586708822,1.017466425895691,-2.02208120027651
1708436608.6730494,-2.1504693031311035,-1.3364254546216507,-2.5267887751208704,6.132526027947225,1.0174787044525146,-2.021369759236471
1708436608.6750226,-2.1503798961639404,-1.3363327992013474,-2.526778046284811,6.13228319862441,1.0175236463546753,-2.0206435362445276
1708436608.6770492,-2.1502058506011963,-1.3363209676793595,-2.526832405720846,6.131999122887411,1.017510175704956,-2.0199487845050257
1708436608.6790338,-2.1500985622406006,-1.336301015024521,-2.526844326649801,6.131795632630148,1.0175505876541138,-2.0192716757403772
1708436608.6811385,-2.1500155925750732,-1.3363421273282547,-2.5268262068377894,6.131592619210043,1.0175868272781372,-2.018557373677389
1708436608.6831203,-2.1499040126800537,-1.336237297659256,-2.5268710295306605,6.131316053658285,1.0175780057907104,-2.0178683439837855
1708436608.6850388,-2.149815559387207,-1.3362292510322114,-2.526944700871603,6.131092655449667,1.0176637172698975,-2.0171507040606897
1708436608.687058,-2.1497087478637695,-1.3362019968083878,-2.526907269154684,6.13088225105361,1.0176379680633545,-2.0164030233966272
1708436608.6890497,-2.1496171951293945,-1.3361535382321854,-2.526935640965597,6.130613314896383,1.0176740884780884,-2.0156167189227503
1708436608.691044,-2.1495094299316406,-1.3361982268146058,-2.526935640965597,6.13037799575881,1.0176857709884644,-2.0149205366717737
1708436608.693064,-2.1494340896606445,-1.3361463260701676,-2.5269506613360804,6.130167591362753,1.0177507400512695,-2.0142462889300745
1708436608.6950307,-2.149285078048706,-1.3360738021186371,-2.5269716421710413,6.1298667071159265,1.0177748203277588,-2.013528649006979
1708436608.697073,-2.149205446243286,-1.3360942167094727,-2.5269866625415247,6.129671799927511,1.017836093902588,-2.0127843062030237
1708436608.6990433,-2.149134397506714,-1.3360185635140915,-2.5270586649524134,6.129400360375204,1.0178182125091553,-2.0120461622821253
1708436608.7011127,-2.149059295654297,-1.3360710752061387,-2.5270405451404017,6.129137027054586,1.0178680419921875,-2.011264149342672
1708436608.7031038,-2.1489551067352295,-1.3360189509442826,-2.5270586649524134,6.128916966706075,1.0178709030151367,-2.0105226675616663
1708436608.7050338,-2.1488468647003174,-1.3359908920577546,-2.5270348230945032,6.1286977408225916,1.017906904220581,-2.009733025227682
1708436608.7070668,-2.1487789154052734,-1.3359306764653702,-2.5271335283862513,6.128453719406881,1.0179296731948853,-2.008951489125387
1708436608.7090526,-2.148700714111328,-1.3359229427627106,-2.5270989576922815,6.128210890084066,1.0180045366287231,-2.008138958607809
1708436608.7110374,-2.148571729660034,-1.3358868819526215,-2.527160708104269,6.127978670388021,1.0179986953735352,-2.007368866597311
1708436608.7130504,-2.148452043533325,-1.3358910840800782,-2.527130667363302,6.127754318505087,1.0180273056030273,-2.006562058125631
1708436608.715028,-2.1483511924743652,-1.3358635020307084,-2.527135197316305,6.127555119782247,1.0180644989013672,-2.00578481355776
1708436608.7170413,-2.1482717990875244,-1.3358518940261384,-2.5271289984332483,6.127319919853964,1.0180375576019287,-2.004972283040182
1708436608.7190387,-2.148188591003418,-1.335803971891739,-2.527196709309713,6.127063143044271,1.0181082487106323,-2.0042360464679163
1708436608.7210405,-2.148073196411133,-1.3358001571944733,-2.5271335283862513,6.126888620644369,1.0181233882904053,-2.00338584581484
1708436608.723044,-2.147984743118286,-1.3356991720250626,-2.5271785894977015,6.126632559090414,1.0181806087493896,-2.0025561491595667
1708436608.7250254,-2.1478769779205322,-1.335663081412651,-2.5271907488452356,6.126452791481771,1.018162488937378,-2.001819912587301
1708436608.7270522,-2.147822856903076,-1.3357364249280472,-2.5272071997271937,6.126184808998861,1.018233299255371,-2.0009926001178187
1708436608.729037,-2.1477231979370117,-1.3356390011361619,-2.527288262044088,6.125959861069479,1.0182557106018066,-2.000216786061422
1708436608.731062,-2.1476268768310547,-1.3355994087508698,-2.527233902608053,6.125829922943868,1.0182965993881226,-1.9993308226214808
1708436608.7330863,-2.1475303173065186,-1.3356527400067826,-2.527304712926046,6.125604617386617,1.0183202028274536,-1.9985063711749476
1708436608.7350328,-2.147442102432251,-1.3356162172606965,-2.527304712926046,6.125397550850668,1.0183366537094116,-1.9977033774005335
1708436608.7371018,-2.1473793983459473,-1.335564063196518,-2.5273075739489954,6.125205623894491,1.018356204032898,-1.996815029774801
1708436608.7390294,-2.147270917892456,-1.3355283749154587,-2.5273059050189417,6.124986636429586,1.018376111984253,-1.9960430304156702
1708436608.741041,-2.147200107574463,-1.3354837906411667,-2.5272820631610315,6.1247748015220544,1.018388032913208,-1.9951933065997522
1708436608.7430649,-2.147054433822632,-1.3354803782752533,-2.527376715336935,6.124596106797018,1.0184662342071533,-1.9943965117083948
1708436608.7450194,-2.1469881534576416,-1.3354477894357224,-2.527346436177389,6.12433015087203,1.0184645652770996,-1.993556324635641
1708436608.7470484,-2.146908760070801,-1.3354078990272065,-2.527329985295431,6.12418411949233,1.0185140371322632,-1.992734734212057
1708436608.74902,-2.1467878818511963,-1.3353882741979142,-2.527346436177389,6.124004351883688,1.0184869766235352,-1.9919708410846155
1708436608.751013,-2.1467652320861816,-1.335359902387001,-2.527396027241842,6.1238571284110925,1.0185233354568481,-1.9910276571856897
1708436608.7530339,-2.1466727256774902,-1.335364894276001,-2.5273495356189173,6.123628484993734,1.018613576889038,-1.9903062025653284
1708436608.755024,-2.146568536758423,-1.3353246015361329,-2.5273705164538782,6.123423564224996,1.018613576889038,-1.9894707838641565
1708436608.757047,-2.1465225219726562,-1.3353655946305771,-2.5273779074298304,6.123294460564413,1.0186372995376587,-1.988626782094137
1708436608.7590258,-2.1464710235595703,-1.335284636621811,-2.5274155775653284,6.12316249588088,1.018623948097229,-1.9878042379962366
1708436608.7610462,-2.146357536315918,-1.335268498664238,-2.5273974577533167,6.122888910561361,1.018676519393921,-1.9870346228228968
1708436608.7630613,-2.1463112831115723,-1.3352489483407517,-2.5274606386767786,6.122746455460348,1.018683910369873,-1.9862340132342737
1708436608.765034,-2.14619779586792,-1.3352290850928803,-2.527442518864767,6.122611391335287,1.018688440322876,-1.9854338804828089
1708436608.7670667,-2.14614200592041,-1.3352055561593552,-2.527475420628683,6.122439133911886,1.0187288522720337,-1.9846394697772425
1708436608.7690237,-2.146087169647217,-1.3351568442634125,-2.527478281651632,6.122259485512533,1.0187199115753174,-1.9839285055743616
1708436608.7710233,-2.1460189819335938,-1.335165263419487,-2.527487341557638,6.1221279976661584,1.0187231302261353,-1.9831154982196253
1708436608.7730563,-2.1459388732910156,-1.335136891608574,-2.5275235811816614,6.121976840287008,1.018801212310791,-1.9823134581195276
1708436608.7750282,-2.1458585262298584,-1.335136891608574,-2.5275026003467005,6.121784674912252,1.018796682357788,-1.9815457502948206
1708436608.7770634,-2.14585542678833,-1.3351453107646485,-2.5275490919696253,6.121661650925436,1.0187921524047852,-1.9808252493487757
1708436608.779033,-2.1457064151763916,-1.3351545196822663,-2.5275145212756556,6.121477710991659,1.0188493728637695,-1.9800055662738245
1708436608.781025,-2.1457080841064453,-1.3351299625686188,-2.5275309721576136,6.121371018677511,1.0188239812850952,-1.9792278448687952
1708436608.7830324,-2.145657539367676,-1.3350815784982224,-2.5274935404406946,6.121215927391805,1.018859624862671,-1.9784982840167444
1708436608.7850242,-2.145552158355713,-1.3351146292737504,-2.5275383631335657,6.121079909592428,1.0189257860183716,-1.9777467886554163
1708436608.7870436,-2.145512104034424,-1.335033656363823,-2.5275219122516077,6.120952594071188,1.0189005136489868,-1.9769976774798792
1708436608.78903,-2.1454601287841797,-1.3350010824254532,-2.527550284062521,6.120820987015524,1.0188958644866943,-1.9762395063983362
1708436608.7910352,-2.145385980606079,-1.3350010824254532,-2.527562443410055,6.12067340591506,1.0189454555511475,-1.9755004088031214
1708436608.7930315,-2.1453328132629395,-1.33500528455291,-2.527604643498556,6.12049292305068,1.0189454555511475,-1.9747422377215784
1708436608.795027,-2.1452770233154297,-1.3350018721869965,-2.527574602757589,6.120377409249105,1.0189698934555054,-1.9739940802203577
1708436608.7970486,-2.145209312438965,-1.3350547862103959,-2.527503792439596,6.1202828762824915,1.0189183950424194,-1.9733856360064905
1708436608.7990508,-2.145134925842285,-1.3349733513644715,-2.52759558359255,6.120106804161825,1.0189636945724487,-1.972637955342428
1708436608.80103,-2.1451215744018555,-1.3349824708751221,-2.527649704610006,6.1199142811592,1.0190341472625732,-1.9718993345843714
1708436608.8031235,-2.1450202465057373,-1.3349380505136033,-2.5276270548449915,6.1198394177253626,1.0190417766571045,-1.9711602369891565
1708436608.8050408,-2.1450181007385254,-1.3349583905986329,-2.5276058355914515,6.119672405510702,1.0190671682357788,-1.970489803944723
1708436608.8070326,-2.1449460983276367,-1.3349633824876328,-2.5276406447040003,6.119596946030416,1.0190372467041016,-1.969762150441305
1708436608.8090408,-2.1449103355407715,-1.3349430424026032,-2.527592484151022,6.119510042458334,1.0191075801849365,-1.9690478483783167
1708436608.8110416,-2.144838809967041,-1.3349388402751465,-2.5276647249804896,6.1193415997321985,1.0190328359603882,-1.9683831373797815
1708436608.8130312,-2.1447744369506836,-1.334918887620308,-2.5276435057269495,6.119229304581442,1.0190776586532593,-1.967609707509176
1708436608.8150148,-2.1447434425354004,-1.3348697137883683,-2.5276179949389856,6.119186866074362,1.0190941095352173,-1.9669807592975062
1708436608.817046,-2.14469051361084,-1.3348824244788666,-2.5276721159564417,6.119055616646566,1.0191015005111694,-1.9663789908038538
1708436608.8190205,-2.1446216106414795,-1.334906966691353,-2.527684036885397,6.1188944456870935,1.0191094875335693,-1.965630833302633
1708436608.8210208,-2.1445555686950684,-1.3348866266063233,-2.527599875126974,6.118770944863119,1.0190958976745605,-1.964902702962057
1708436608.8230438,-2.1444859504699707,-1.3348585826209565,-2.527646605168478,6.118708717613973,1.0191333293914795,-1.9642837683307093
1708436608.8250217,-2.1444716453552246,-1.3348344129375,-2.527658526097433,6.118613111763754,1.0191618204116821,-1.9635971228228968
1708436608.8270588,-2.144423007965088,-1.3348593574813385,-2.527663056050436,6.1184847233589075,1.01909601688385,-1.9630149046527308
1708436608.8290346,-2.144394874572754,-1.3348259937814255,-2.5276885668383997,6.11840974071578,1.01909601688385,-1.9623468557940882
1708436608.8310418,-2.144409418106079,-1.3348466616920014,-2.527679506932394,6.118326055794515,1.0191320180892944,-1.9616945425616663
1708436608.8330665,-2.144364833831787,-1.3347907823375245,-2.527719799672262,6.118233310967245,1.0191782712936401,-1.9610732237445276
1708436608.8350275,-2.1443123817443848,-1.3348029416850586,-2.527691427861349,6.118133413582601,1.019160270690918,-1.9604266325580042
1708436608.8370535,-2.144284725189209,-1.3348190647414704,-2.527707878743307,6.118107425957479,1.019176959991455,-1.959801975880758
1708436608.8390205,-2.144217014312744,-1.3348190647414704,-2.527682367955343,6.117967116623678,1.019176959991455,-1.9592426458941858
1708436608.8410432,-2.144127130508423,-1.3347864908031006,-2.527684036885397,6.117851125984945,1.0192055702209473,-1.9585946241961878
1708436608.8430572,-2.144131660461426,-1.334742711191513,-2.527689758931295,6.117774951248922,1.0192383527755737,-1.9580500761615198
1708436608.845042,-2.1441330909729004,-1.3347468388131638,-2.527665917073385,6.117720472603597,1.0192383527755737,-1.9574654738055628
1708436608.8470447,-2.144052028656006,-1.3347552579692383,-2.527694288884298,6.117620575218954,1.0192761421203613,-1.9569409529315394
1708436608.8490648,-2.1440491676330566,-1.3347840917161484,-2.527673308049337,6.117504107743063,1.0192174911499023,-1.9563797155963343
1708436608.8510218,-2.1439664363861084,-1.3347227287343522,-2.52767783800234,6.117445695191183,1.0191680192947388,-1.9558971563922327
1708436608.8530202,-2.1439638137817383,-1.334775672560074,-2.5277276674853724,6.117341387062826,1.0192219018936157,-1.9553216139422815
1708436608.8550367,-2.1439852714538574,-1.334719256763794,-2.5277515093432825,6.117240774422445,1.0192582607269287,-1.954787556325094
1708436608.8570232,-2.143920421600342,-1.3347112995437165,-2.527715269719259,6.1171408770378015,1.0192294120788574,-1.9542987982379358
1708436608.8590515,-2.1438639163970947,-1.3347522181323548,-2.5277305285083216,6.117085802346029,1.0192673206329346,-1.9538314978228968
1708436608.861019,-2.1438560485839844,-1.334679053430893,-2.5277605692492884,6.117047536164083,1.0192865133285522,-1.9533141295062464
1708436608.8630445,-2.1437716484069824,-1.3346832704595109,-2.5277696291552942,6.116934525757589,1.0192248821258545,-1.9528501669513147
1708436608.8650296,-2.143857955932617,-1.3346916747144242,-2.5277560392962855,6.11683355548934,1.0192158222198486,-1.9523823896991175
1708436608.8670397,-2.1437973976135254,-1.3346474927714844,-2.5277589003192347,6.116836535721578,1.0192415714263916,-1.9519208113299769
1708436608.8690586,-2.1437692642211914,-1.3346594137004395,-2.5277560392962855,6.116741049080648,1.0192656517028809,-1.9513958136187952
1708436608.8710225,-2.143765449523926,-1.334643305545189,-2.527733389531271,6.116635668068685,1.0192537307739258,-1.9510234037982386
1708436608.873062,-2.1437206268310547,-1.334655911927559,-2.5277424494372767,6.11655210235671,1.019277572631836,-1.9505146185504358
1708436608.8750262,-2.143660068511963,-1.3346916747144242,-2.5277016798602503,6.11649643161849,1.0192612409591675,-1.9501312414752405
1708436608.8770227,-2.1436409950256348,-1.334668607716896,-2.5277231375323694,6.116427767067709,1.0193032026290894,-1.9497268835650843
1708436608.8790658,-2.1436500549316406,-1.3345588159612198,-2.5277469793902796,6.116384255677023,1.019294261932373,-1.949334446583883
1708436608.8810432,-2.14357328414917,-1.3345470142415543,-2.5277724901782435,6.116296279221334,1.01926851272583,-1.9488876501666468
1708436608.8830616,-2.143519639968872,-1.3345511716655274,-2.5277276674853724,6.116205084114828,1.019294261932373,-1.9485285917865198
1708436608.8850603,-2.143552541732788,-1.3345960688642045,-2.5277469793902796,6.1161866066749475,1.0192447900772095,-1.9481938521014612
1708436608.887037,-2.143500804901123,-1.3345631074956437,-2.5277798811541956,6.116122472077169,1.0193060636520386,-1.947754208241598
1708436608.889041,-2.143522262573242,-1.3345273447087784,-2.5277589003192347,6.116004812508383,1.0193179845809937,-1.947319809590475
1708436608.891041,-2.1434617042541504,-1.334547684793808,-2.5277887026416224,6.1159987328346155,1.0193392038345337,-1.9470251242267054
1708436608.893039,-2.143385410308838,-1.3345196855119248,-2.5277589003192347,6.115902530937948,1.0192986726760864,-1.9466689268695276
1708436608.89504,-2.1434473991394043,-1.334515468483307,-2.5277724901782435,6.1158801195915125,1.0193135738372803,-1.946324650441305
1708436608.8970332,-2.143362045288086,-1.3344751310399552,-2.5277350584613245,6.115807997971334,1.019273042678833,-1.946012322102682
1708436608.899033,-2.1433792114257812,-1.3345073473504563,-2.5277708212481897,6.115760314255514,1.0193225145339966,-1.9457042852984827
1708436608.9010484,-2.1433029174804688,-1.3345729869655152,-2.52779204050173,6.115627634316244,1.019294261932373,-1.9454410711871546
1708436608.9031742,-2.143270969390869,-1.3345441830209275,-2.527803961430685,6.11555181720809,1.0192925930023193,-1.9451387564288538
1708436608.9051282,-2.1432390213012695,-1.3345280450633545,-2.527749840413229,6.11549602726058,1.0193060636520386,-1.9448474089251917
1708436608.9070313,-2.1431896686553955,-1.3344836247018357,-2.527841393147604,6.115375506668844,1.0192925930023193,-1.944589916859762
1708436608.9090393,-2.143191337585449,-1.3345124584487458,-2.527787510548727,6.115333306580343,1.0193225145339966,-1.9443133513080042
1708436608.9110339,-2.143155097961426,-1.334508166914322,-2.527787510548727,6.115285384445944,1.0193346738815308,-1.9440320173846644
1708436608.913076,-2.1430907249450684,-1.3344920438579102,-2.5277708212481897,6.115151512413778,1.0193469524383545,-1.9437673727618616
1708436608.9150608,-2.143066883087158,-1.3344755929759522,-2.527778450642721,6.115119683533468,1.0192880630493164,-1.9435842672931116
1708436608.9172058,-2.143036127090454,-1.334496633415558,-2.527794901524679,6.115056979447164,1.0192925930023193,-1.9433568159686487
1708436608.9190333,-2.142951488494873,-1.3344318133643647,-2.5278354326831263,6.114965665131368,1.019347071647644,-1.9431222120868128
1708436608.921068,-2.1428940296173096,-1.3345040094903489,-2.527790371571676,6.114914285927572,1.0193212032318115,-1.9429557959186
1708436608.9230423,-2.1428632736206055,-1.334468202,-2.527839962636129,6.114821183472433,1.0193135738372803,-1.9427812735186976
1708436608.92508,-2.1428182125091553,-1.3344924312881012,-2.5278518835650843,6.1147873280342,1.0193212032318115,-1.942559067402975
1708436608.9270613,-2.1427950859069824,-1.3344640743783494,-2.5278309027301233,6.114669787674703,1.0193424224853516,-1.9423869291888636
