Eg3-git/Classifiers/Data Collection/u4/u4xyz2_ur3e_joint_states.csv
time,elbow_joint,shoulder_lift_joint,shoulder_pan_joint,wrist_1_joint,wrist_2_joint,wrist_3_joint
1708436590.173135,-2.1411519050598145,-1.3332887899926682,-2.5264185110675257,6.10866533496932,1.0170140266418457,-2.6920703093158167
1708436590.1751578,-2.1411314010620117,-1.3332639199546357,-2.5264480749713343,6.108673083573141,1.016978144645691,-2.6920509974109095
1708436590.1771562,-2.1411025524139404,-1.3332638156465073,-2.5264304319964808,6.1086851237113855,1.0169888734817505,-2.6920793692218226
1708436590.1791255,-2.1411449909210205,-1.3332725179246445,-2.5264480749713343,6.1086861965949915,1.0169525146484375,-2.692108217869894
1708436590.181231,-2.141127109527588,-1.3332353991321106,-2.5264349619494837,6.108636486321249,1.0170022249221802,-2.6920467058764856
1708436590.1832128,-2.1411094665527344,-1.3332801175168534,-2.5264020601855677,6.108628737717428,1.0169737339019775,-2.6920881907092493
1708436590.1851718,-2.1411314010620117,-1.3332516115954895,-2.5264514128314417,6.108616578369894,1.0169737339019775,-2.692108217869894
1708436590.1871593,-2.1411561965942383,-1.3332931709340592,-2.5264392534839075,6.108616578369894,1.0169646739959717,-2.6921244303332728
1708436590.1891322,-2.141115665435791,-1.3332354587367554,-2.5264273325549524,6.108656632691183,1.0169436931610107,-2.6920748392688196
1708436590.1911404,-2.1411476135253906,-1.3332473796657105,-2.5264676252948206,6.108599173813619,1.0169525146484375,-2.692108217869894
1708436590.1931663,-2.1411633491516113,-1.333336503510811,-2.5264721552478235,6.108611452370443,1.0169436931610107,-2.6920419375049036
1708436590.1951404,-2.141165018081665,-1.3332801473191758,-2.5264349619494837,6.10864936092452,1.0169692039489746,-2.692129198704855
1708436590.1971567,-2.141118288040161,-1.3332473796657105,-2.5263901392566126,6.108673083573141,1.0169481039047241,-2.6920467058764856
1708436590.1991231,-2.141153573989868,-1.333304987554886,-2.5263825098620813,6.108647930413046,1.0169243812561035,-2.6920748392688196
1708436590.2011335,-2.1411476135253906,-1.333296389584877,-2.5264316240893763,6.108652341156759,1.0169646739959717,-2.6920598188983362
1708436590.2031589,-2.1411025524139404,-1.333276928668358,-2.526480738316671,6.108660924225607,1.0169658660888672,-2.6920583883868616
1708436590.2051344,-2.141165018081665,-1.3332844537547608,-2.5264764467822474,6.108632075577535,1.0169737339019775,-2.6920467058764856
1708436590.2071738,-2.141169548034668,-1.3332639348557969,-2.5263944307910364,6.108640658646383,1.016990303993225,-2.692112747822897
1708436590.2091382,-2.1411094665527344,-1.3332234931043168,-2.5264480749713343,6.108693825989523,1.016936182975769,-2.6920538584338587
1708436590.2111347,-2.1411492824554443,-1.3333165806582947,-2.5264480749713343,6.108673083573141,1.0169813632965088,-2.6920467058764856
1708436590.21316,-2.1411361694335938,-1.3332812202027817,-2.5264480749713343,6.10864936092452,1.016940712928772,-2.692103687916891
1708436590.2151406,-2.1411476135253906,-1.3332963746837159,-2.5263901392566126,6.108681905060568,1.016978144645691,-2.6920838991748255
1708436590.217177,-2.1411519050598145,-1.3332559329322358,-2.5264273325549524,6.108628737717428,1.0169392824172974,-2.6921172777758997
1708436590.2191472,-2.141111373901367,-1.3333331954530259,-2.5264151732074183,6.108652341156759,1.0169570446014404,-2.692049566899435
1708436590.221146,-2.141082286834717,-1.3332887601903458,-2.5264316240893763,6.108624446183004,1.0169243812561035,-2.6920793692218226
1708436590.2231402,-2.141127347946167,-1.3333288443139573,-2.5264316240893763,6.108673083573141,1.016924500465393,-2.6920719782458704
1708436590.225188,-2.1411094665527344,-1.333300696020462,-2.5264230410205286,6.108680712967672,1.0169122219085693,-2.692087237034933
1708436590.227126,-2.1411025524139404,-1.3332559776357193,-2.526403252278463,6.108615743904867,1.0169570446014404,-2.6920538584338587
1708436590.2291274,-2.1411361694335938,-1.3332812202027817,-2.526423756276266,6.108689415245809,1.016928791999817,-2.692112747822897
1708436590.2311258,-2.141214370727539,-1.3332311523011704,-2.5264151732074183,6.108660924225607,1.0168914794921875,-2.692112747822897
1708436590.2331493,-2.1411492824554443,-1.3332682114890595,-2.5264316240893763,6.108644950180807,1.016907811164856,-2.6920419375049036
1708436590.2351546,-2.1411476135253906,-1.3332725328258057,-2.5263901392566126,6.108636486321249,1.016928791999817,-2.6921141783343714
1708436590.2371287,-2.141167640686035,-1.3332639050534745,-2.526407543812887,6.108664500504293,1.016940712928772,-2.6920509974109095
1708436590.239133,-2.141188859939575,-1.333276928668358,-2.5263944307910364,6.108717667847433,1.0169211626052856,-2.692078177128927
1708436590.2411315,-2.1411519050598145,-1.3332516861012955,-2.5263782183276575,6.108632075577535,1.0169495344161987,-2.6920748392688196
1708436590.2431595,-2.1411590576171875,-1.3332801473191758,-2.526419703160421,6.108689415245809,1.0169243812561035,-2.692091766987936
1708436590.2451613,-2.141167640686035,-1.3332516562989731,-2.5263662973987024,6.1086851237113855,1.0169165134429932,-2.692108217869894
1708436590.247136,-2.141123056411743,-1.3332921427539368,-2.526367489491598,6.108660924225607,1.0169254541397095,-2.6921215693103235
1708436590.2491412,-2.1411361694335938,-1.3332516562989731,-2.526379410420553,6.108693706780233,1.0168957710266113,-2.692087237034933
1708436590.2511346,-2.1411519050598145,-1.3332725328258057,-2.526318136845724,6.108660208969869,1.0169332027435303,-2.692120138798849
1708436590.2531412,-2.141138792037964,-1.3333165806582947,-2.5263553301440638,6.108664500504293,1.0169421434402466,-2.692082945500509
1708436590.255139,-2.141127586364746,-1.3332639199546357,-2.5263553301440638,6.108615743904867,1.016942024230957,-2.6920881907092493
1708436590.25711,-2.1411519050598145,-1.3332801473191758,-2.5263598600970667,6.108634936600485,1.0169047117233276,-2.6920254866229456
1708436590.2591202,-2.1411633491516113,-1.333263860349991,-2.526313606892721,6.108599173813619,1.0168883800506592,-2.6920838991748255
1708436590.2611396,-2.141167163848877,-1.3333208870938797,-2.5263400713550013,6.108668911248007,1.0169017314910889,-2.6921096483813685
1708436590.2631376,-2.141143321990967,-1.3332931709340592,-2.5263269583331507,6.108668911248007,1.0168683528900146,-2.692004982625143
1708436590.2651603,-2.1411561965942383,-1.3332931411317368,-2.5263312498675745,6.108636486321249,1.0169672966003418,-2.6921215693103235
1708436590.2671292,-2.141143321990967,-1.3332639199546357,-2.5263519922839563,6.108636486321249,1.0169298648834229,-2.6920962969409388
1708436590.2691329,-2.141143321990967,-1.333350421195366,-2.5263193289386194,6.108652341156759,1.0169135332107544,-2.6920881907092493
1708436590.271126,-2.1411519050598145,-1.3332682114890595,-2.5263400713550013,6.108644950180807,1.0169001817703247,-2.6921215693103235
1708436590.2731936,-2.14113187789917,-1.3332974177649994,-2.5262985865222376,6.1086851237113855,1.0169254541397095,-2.6920838991748255
1708436590.2751489,-2.1411967277526855,-1.3332921427539368,-2.5262823740588587,6.108632075577535,1.0169254541397095,-2.6920748392688196
1708436590.2771165,-2.141118288040161,-1.333337427382805,-2.526344362889425,6.108676421433248,1.0169180631637573,-2.692087237034933
1708436590.279154,-2.141127347946167,-1.3332801473191758,-2.5263355414019983,6.108636486321249,1.0169135332107544,-2.6921051184283655
1708436590.281147,-2.1412012577056885,-1.333288775091507,-2.5263074080096644,6.108636486321249,1.0169135332107544,-2.6920555273639124
1708436590.2831547,-2.1411843299865723,-1.3332725328258057,-2.5263519922839563,6.108652341156759,1.0168883800506592,-2.6920629183398646
1708436590.2851357,-2.1411476135253906,-1.333300696020462,-2.5263400713550013,6.108705627709188,1.0169135332107544,-2.6920674482928675
1708436590.287155,-2.141127347946167,-1.3332682114890595,-2.5263236204730433,6.108664500504293,1.0168895721435547,-2.6921008268939417
1708436590.289128,-2.1411633491516113,-1.3332682263902207,-2.5263431707965296,6.108652341156759,1.0168850421905518,-2.692108217869894
1708436590.2911258,-2.1411967277526855,-1.3333252680352707,-2.5263236204730433,6.108664500504293,1.0168520212173462,-2.6920629183398646
1708436590.293159,-2.141188859939575,-1.333312289123871,-2.5263236204730433,6.108709919243612,1.0168476104736328,-2.6920674482928675
1708436590.2951298,-2.14113187789917,-1.333288775091507,-2.5263312498675745,6.108640658646383,1.016898274421692,-2.6921172777758997
1708436590.297159,-2.141118288040161,-1.333305002456047,-2.5263236204730433,6.1086851237113855,1.0169028043746948,-2.6920512358294886
1708436590.299123,-2.141138792037964,-1.3332725328258057,-2.5263312498675745,6.108632075577535,1.0168521404266357,-2.6920555273639124
1708436590.3011236,-2.141188859939575,-1.3333288443139573,-2.5263150374041956,6.108660208969869,1.0168728828430176,-2.6920600573169153
1708436590.303156,-2.1411845684051514,-1.3332801324180146,-2.5262985865222376,6.108652341156759,1.0168520212173462,-2.6920302549945276
1708436590.3051345,-2.141188859939575,-1.3332801473191758,-2.5263074080096644,6.108603584557333,1.0168850421905518,-2.6920719782458704
1708436590.3071415,-2.1411561965942383,-1.333275930290558,-2.5263312498675745,6.108643638878622,1.016893982887268,-2.6920228640185755
1708436590.309149,-2.141118288040161,-1.3332844537547608,-2.5263105074511927,6.108636367111959,1.0168402194976807,-2.6920436064349573
1708436590.311143,-2.1411449909210205,-1.3332963746837159,-2.5263388792621058,6.108647930413046,1.0168282985687256,-2.6920390764819544
1708436590.313186,-2.1411633491516113,-1.3332887601903458,-2.5263355414019983,6.108636486321249,1.0168402194976807,-2.692068878804342
1708436590.315128,-2.1411633491516113,-1.3332801473191758,-2.5262985865222376,6.108668911248007,1.0168565511703491,-2.6920347849475306
1708436590.3171573,-2.1411361694335938,-1.3332559776357193,-2.5263684431659144,6.108664500504293,1.016832709312439,-2.6920881907092493
1708436590.3191714,-2.141171932220459,-1.333239735370018,-2.5263400713550013,6.108652341156759,1.0168653726577759,-2.6920347849475306
1708436590.3212292,-2.1411139965057373,-1.3333094131997605,-2.5263150374041956,6.108632075577535,1.0168741941452026,-2.6920927206622522
1708436590.3231692,-2.1412055492401123,-1.3332559776357193,-2.52629000345339,6.108656513481893,1.0168490409851074,-2.6920762697802942
1708436590.32515,-2.141122579574585,-1.3333252680352707,-2.526306215916769,6.108656513481893,1.0168490409851074,-2.6920481363879603
1708436590.3271601,-2.141221284866333,-1.333239735370018,-2.5263474623309534,6.108726131706991,1.0168534517288208,-2.6920481363879603
1708436590.3291488,-2.141143321990967,-1.3332387667945405,-2.5263150374041956,6.108647930413046,1.0168204307556152,-2.6920481363879603
1708436590.331138,-2.1411633491516113,-1.3332812202027817,-2.5263224283801478,6.108628737717428,1.0168787240982056,-2.692036215459005
1708436590.3331513,-2.141167640686035,-1.3332931411317368,-2.5263312498675745,6.108647930413046,1.016844630241394,-2.6920509974109095
1708436590.3351226,-2.1411800384521484,-1.333293156032898,-2.5263312498675745,6.108652341156759,1.0168371200561523,-2.691998306904928
1708436590.3371618,-2.1411476135253906,-1.3332354587367554,-2.5263312498675745,6.1086851237113855,1.016832709312439,-2.692068878804342
1708436590.3391438,-2.1411361694335938,-1.3332931411317368,-2.5263477007495325,6.108603584557333,1.0168565511703491,-2.6920109430896204
1708436590.3411505,-2.1411404609680176,-1.3332354140332718,-2.526306215916769,6.108640658646383,1.0168741941452026,-2.691998306904928
1708436590.3431542,-2.141171932220459,-1.3332570654204865,-2.5263355414019983,6.108636367111959,1.0168204307556152,-2.691998306904928
1708436590.3451126,-2.141143321990967,-1.333276928668358,-2.5263312498675745,6.10861216762618,1.016890525817871,-2.6920271555529993
1708436590.3471553,-2.141127109527588,-1.333276928668358,-2.526278797780172,6.10864936092452,1.0168204307556152,-2.692002836857931
1708436590.3491726,-2.141167640686035,-1.333337427382805,-2.5263193289386194,6.108677494316854,1.0168358087539673,-2.691993776951925
1708436590.3511193,-2.141118288040161,-1.3332639050534745,-2.5263031164752405,6.108628737717428,1.0168609619140625,-2.692040745412008
1708436590.353169,-2.1411476135253906,-1.333288775091507,-2.5263641516314905,6.108624446183004,1.0168038606643677,-2.692002836857931
1708436590.3551311,-2.1412012577056885,-1.3332441312125702,-2.5263150374041956,6.108690488129415,1.0168416500091553,-2.691986385975973
1708436590.3571663,-2.1412055492401123,-1.333263875251152,-2.5263806025134485,6.108633148461141,1.0168249607086182,-2.6920152346240442
1708436590.3591242,-2.141188859939575,-1.3332072657397767,-2.5263105074511927,6.10864936092452,1.0168038606643677,-2.692040745412008
1708436590.3611364,-2.1411800384521484,-1.333316595559456,-2.5263641516314905,6.108616578369894,1.0168282985687256,-2.691977564488546
1708436590.363145,-2.1411051750183105,-1.3332062375596543,-2.5263236204730433,6.108603584557333,1.0168460607528687,-2.692033354436056
1708436590.3651602,-2.141167640686035,-1.333304987554886,-2.5262985865222376,6.108640658646383,1.0168038606643677,-2.691990915928976
1708436590.3671374,-2.1411843299865723,-1.333288775091507,-2.5262942949878138,6.108640658646383,1.0168371200561523,-2.6919739882098597
1708436590.3691194,-2.1411924362182617,-1.333316595559456,-2.5263269583331507,6.108647930413046,1.0168282985687256,-2.6919620672809046
1708436590.3711298,-2.1411476135253906,-1.3332516562989731,-2.5263355414019983,6.108631956368246,1.0168249607086182,-2.691990915928976
1708436590.3731544,-2.1411361694335938,-1.3332801324180146,-2.5263312498675745,6.10858844497756,1.0167994499206543,-2.6919694582568567
1708436590.3751411,-2.1411924362182617,-1.3333374720862885,-2.52635628381838,6.108625280648031,1.016832709312439,-2.6919785181628626
1708436590.3771498,-2.1411633491516113,-1.3332844537547608,-2.5263596216784876,6.10864936092452,1.0168416500091553,-2.6919575373279017
1708436590.3791573,-2.1411051750183105,-1.3332725328258057,-2.5263474623309534,6.108628737717428,1.0168741941452026,-2.6919918696032923
1708436590.3811347,-2.14113450050354,-1.3332844537547608,-2.526318136845724,6.108613240509786,1.0168579816818237,-2.692002836857931
1708436590.3831456,-2.1412012577056885,-1.3332801473191758,-2.5263150374041956,6.108644950180807,1.0168160200119019,-2.6919918696032923
1708436590.3851478,-2.141127347946167,-1.3332397651723404,-2.5263105074511927,6.10862015464858,1.0168204307556152,-2.6919739882098597
1708436590.3871439,-2.1411094665527344,-1.333305002456047,-2.5263388792621058,6.108584153443136,1.0168668031692505,-2.6919413248645228
1708436590.3891385,-2.1411678791046143,-1.3332844537547608,-2.5263312498675745,6.108633148461141,1.0168460607528687,-2.6919739882098597
1708436590.3911161,-2.1411561965942383,-1.3332682114890595,-2.5263596216784876,6.108644950180807,1.0168249607086182,-2.6919665972339075
1708436590.39315,-2.1411519050598145,-1.3332646948150177,-2.5263312498675745,6.10861216762618,1.0168204307556152,-2.6920164267169397
1708436590.395105,-2.14113187789917,-1.3332559776357193,-2.5263519922839563,6.108644950180807,1.0167994499206543,-2.6920297781573694
1708436590.3971665,-2.1411843299865723,-1.3333017540029068,-2.52629000345339,6.108607876091757,1.0168160200119019,-2.6919711271869105
1708436590.3991246,-2.1411800384521484,-1.3332527589849015,-2.5263596216784876,6.10864936092452,1.0168204307556152,-2.6919308344470423
1708436590.401122,-2.1411561965942383,-1.3332441461137314,-2.5263553301440638,6.108662354737081,1.0168416500091553,-2.6919546763049524
1708436590.403143,-2.141193389892578,-1.333304987554886,-2.526371781026022,6.108564245491781,1.016795039176941,-2.6919592062579554
1708436590.405138,-2.1411094665527344,-1.3332887601903458,-2.526371781026022,6.108555662422933,1.0168490409851074,-2.6919220129596155
1708436590.407149,-2.141143321990967,-1.333276928668358,-2.5263641516314905,6.108601438790121,1.0168579816818237,-2.6919384638415735
1708436590.4091475,-2.141138792037964,-1.3332603734782715,-2.5263596216784876,6.108564245491781,1.016808271408081,-2.6918981711017054
1708436590.411149,-2.141118288040161,-1.3332639050534745,-2.5263641516314905,6.108580815583029,1.0168579816818237,-2.6919265429126185
1708436590.4131699,-2.1411633491516113,-1.333276928668358,-2.5263312498675745,6.108604657440939,1.0168249607086182,-2.691918913518087
1708436590.4151213,-2.1411476135253906,-1.333276928668358,-2.5263224283801478,6.108572113304891,1.016832709312439,-2.691906992589132
1708436590.4171338,-2.14113187789917,-1.3333122742227097,-2.52638823190798,6.108613240509786,1.0168697834014893,-2.69192344347109
1708436590.4191403,-2.141143321990967,-1.333300681119301,-2.5263641516314905,6.108633148461141,1.0168416500091553,-2.6918521563159388
1708436590.4211507,-2.1411361694335938,-1.3333461296609421,-2.526306215916769,6.108568656235494,1.016832709312439,-2.6918938795672815
1708436590.4232213,-2.141127109527588,-1.333309368496277,-2.5263596216784876,6.1086089489753626,1.016808271408081,-2.6918867270099085
1708436590.4251323,-2.1411843299865723,-1.3332354587367554,-2.52635103860964,6.108604657440939,1.0168038606643677,-2.6919341723071497
1708436590.4271593,-2.1411492824554443,-1.3332974475673218,-2.5263431707965296,6.108559953957357,1.0168038606643677,-2.6919031778918665
1708436590.4291255,-2.1411843299865723,-1.3332725328258057,-2.5263596216784876,6.108589517861166,1.0168160200119019,-2.6918540636645716
1708436590.4311712,-2.141153573989868,-1.3332725328258057,-2.5263641516314905,6.108572947769918,1.0168249607086182,-2.6918256918536585
1708436590.433171,-2.1411097049713135,-1.3332801324180146,-2.52635103860964,6.108548033028402,1.0168817043304443,-2.6918748060809534
1708436590.435138,-2.141171932220459,-1.3332639199546357,-2.526301924382345,6.108548033028402,1.0168565511703491,-2.6918893496142786
1708436590.4371436,-2.141160726547241,-1.333304987554886,-2.5263806025134485,6.10852740982131,1.0168238878250122,-2.6918867270099085
1708436590.43913,-2.1411519050598145,-1.3332235378078003,-2.526306215916769,6.108515846520223,1.016832709312439,-2.6918912569629114
1708436590.4411478,-2.1411404609680176,-1.333304987554886,-2.5263763109790247,6.108593928604879,1.016862392425537,-2.6918938795672815
1708436590.4431398,-2.1411025524139404,-1.3332397651723404,-2.5263105074511927,6.108556735306539,1.0168402194976807,-2.6918748060809534
1708436590.4451466,-2.1411025524139404,-1.3332844537547608,-2.5263641516314905,6.108512389450826,1.0168204307556152,-2.691929642354147
1708436590.4471262,-2.14113187789917,-1.333243117933609,-2.5263388792621058,6.108536112099447,1.0168490409851074,-2.6918702761279505
1708436590.449115,-2.141193389892578,-1.3332725328258057,-2.5263431707965296,6.108544814377584,1.0167664289474487,-2.6918821970569056
1708436590.4511168,-2.1411449909210205,-1.3332974922708054,-2.5263553301440638,6.108507978707113,1.0168371200561523,-2.691925350819723
1708436590.4531238,-2.141171932220459,-1.333276928668358,-2.5263388792621058,6.108531820565023,1.0168578624725342,-2.6918793360339563
1708436590.4551086,-2.141167640686035,-1.333304987554886,-2.5263553301440638,6.108549105912008,1.0168817043304443,-2.6919503847705286
1708436590.4571483,-2.1411476135253906,-1.3333017987063904,-2.526342217122213,6.108568656235494,1.0168238878250122,-2.6918702761279505
1708436590.4591107,-2.141115665435791,-1.3332725328258057,-2.5263641516314905,6.108512389450826,1.0168371200561523,-2.6918509642230433
1708436590.4611232,-2.1411476135253906,-1.3332484525493165,-2.526346508656637,6.108585226326742,1.0168490409851074,-2.6918955484973353
1708436590.4631207,-2.141077995300293,-1.333309368496277,-2.5263596216784876,6.108512270241537,1.0168653726577759,-2.6919458548175257
1708436590.46514,-2.1410980224609375,-1.3332812202027817,-2.526367489491598,6.108537542610922,1.0168579816818237,-2.6918793360339563
1708436590.4671364,-2.1411800384521484,-1.3332682114890595,-2.526358668004171,6.108557808190145,1.0168282985687256,-2.6918867270099085
1708436590.469124,-2.1411025524139404,-1.333276928668358,-2.5263879934894007,6.108544814377584,1.0168609619140625,-2.691900078450338
1708436590.471138,-2.141138792037964,-1.3332931709340592,-2.5263968149768274,6.108467805176534,1.0168534517288208,-2.6918495337115687
1708436590.4731343,-2.141122579574585,-1.3332603734782715,-2.52635103860964,6.108533131867208,1.0168282985687256,-2.6919074694262903
1708436590.4751217,-2.141127347946167,-1.333304987554886,-2.5263553301440638,6.108525264054098,1.0168609619140625,-2.6918540636645716
1708436590.4771204,-2.1411519050598145,-1.3332931411317368,-2.526371781026022,6.108497130661764,1.0168160200119019,-2.6918583551989954
1708436590.4791102,-2.141165018081665,-1.3332931411317368,-2.526334349309103,6.108537542610922,1.0168416500091553,-2.6918583551989954
1708436590.4811182,-2.1411561965942383,-1.3332689863494416,-2.5263388792621058,6.108500349312582,1.0168073177337646,-2.6918893496142786
1708436590.4831142,-2.1411404609680176,-1.3332931709340592,-2.5263224283801478,6.1085418341453455,1.016795039176941,-2.6918867270099085
1708436590.4851165,-2.141118288040161,-1.3332974475673218,-2.5263596216784876,6.108533966332235,1.0168697834014893,-2.6918702761279505
1708436590.4871101,-2.1411404609680176,-1.3332484525493165,-2.5263596216784876,6.108513343125143,1.016844630241394,-2.6918748060809534
1708436590.4891307,-2.1410937309265137,-1.3332725328258057,-2.526395622883932,6.108504760056295,1.016832709312439,-2.6918702761279505
1708436590.4911437,-2.1411404609680176,-1.3332725328258057,-2.5263138453113,6.108529555588522,1.0168358087539673,-2.6919074694262903
1708436590.4931467,-2.1411519050598145,-1.3332682263902207,-2.5263269583331507,6.108467805176534,1.0168282985687256,-2.691900078450338
1708436590.4951377,-2.141201972961426,-1.333309368496277,-2.5263212362872522,6.108500349312582,1.0168728828430176,-2.6918821970569056
1708436590.497181,-2.1411068439483643,-1.3332354587367554,-2.5263553301440638,6.108467805176534,1.0167860984802246,-2.6918955484973353
1708436590.49913,-2.1411561965942383,-1.333276928668358,-2.526367489491598,6.108484136849203,1.0168653726577759,-2.6918495337115687
1708436590.501147,-2.1411561965942383,-1.3332559776357193,-2.52635103860964,6.108488428383627,1.016844630241394,-2.6918702761279505
1708436590.5031302,-2.1411561965942383,-1.333288775091507,-2.5263925234424036,6.108529555588522,1.0168416500091553,-2.6918447653399866
1708436590.5051394,-2.141127109527588,-1.3332029444030304,-2.5263553301440638,6.108546125679769,1.0168534517288208,-2.6918748060809534
1708436590.5071518,-2.141172170639038,-1.3333017540029068,-2.5263355414019983,6.108509051590719,1.0168609619140625,-2.691920582448141
1708436590.5091221,-2.141111373901367,-1.3332235378078003,-2.526379410420553,6.108529555588522,1.016877293586731,-2.691900078450338
1708436590.511175,-2.141122579574585,-1.333276928668358,-2.5263212362872522,6.108516561775961,1.0168490409851074,-2.691888157521383
1708436590.5131476,-2.141167640686035,-1.3332931411317368,-2.5263596216784876,6.10849283912734,1.0168402194976807,-2.6918867270099085
1708436590.515152,-2.1411561965942383,-1.3332639199546357,-2.526367489491598,6.108485209732809,1.0168817043304443,-2.6918674151050013
1708436590.5171432,-2.1411476135253906,-1.3332855266383667,-2.5263553301440638,6.108509051590719,1.0168490409851074,-2.6919119993792933
1708436590.5191417,-2.1411519050598145,-1.333305002456047,-2.5263641516314905,6.108529555588522,1.0168653726577759,-2.6918955484973353
1708436590.5212324,-2.1411068439483643,-1.3332690012506028,-2.5263553301440638,6.108520972519674,1.0168609619140625,-2.691916290913717
1708436590.5233097,-2.141169548034668,-1.3332963746837159,-2.526318136845724,6.108467805176534,1.016898274421692,-2.6918912569629114
1708436590.525165,-2.1411519050598145,-1.333276928668358,-2.526367489491598,6.1085418341453455,1.016832709312439,-2.6919031778918665
1708436590.5271444,-2.1411519050598145,-1.3332639199546357,-2.5264325777636927,6.108476626663961,1.0168193578720093,-2.6918867270099085
1708436590.529158,-2.14113187789917,-1.333247334962227,-2.526371781026022,6.108533966332235,1.0168161392211914,-2.691925112401144
1708436590.5311441,-2.141118288040161,-1.3332974475673218,-2.526346747075216,6.108516561775961,1.016844630241394,-2.6918447653399866
1708436590.5331647,-2.1410937309265137,-1.333320216541626,-2.526346508656637,6.1085383770759485,1.0168282985687256,-2.6918612162219446
1708436590.53513,-2.1411449909210205,-1.3332269352725525,-2.526379410420553,6.108497130661764,1.0168817043304443,-2.691916290913717
1708436590.5371315,-2.1411361694335938,-1.3332725328258057,-2.526400152836935,6.108533131867208,1.016832709312439,-2.6919031778918665
1708436590.5391288,-2.1411449909210205,-1.3332441312125702,-2.5263925234424036,6.1084643481071375,1.0168204307556152,-2.6918774286853235
1708436590.5411358,-2.1411404609680176,-1.3332603734782715,-2.526383701954977,6.108562099724569,1.016844630241394,-2.6918659845935267
1708436590.5431383,-2.141176462173462,-1.333276928668358,-2.526371781026022,6.108497130661764,1.0168817043304443,-2.6919031778918665
1708436590.5451334,-2.141167640686035,-1.3332963746837159,-2.526400152836935,6.108443724900045,1.0167994499206543,-2.6918495337115687
1708436590.5471454,-2.1411025524139404,-1.3332931411317368,-2.5263705889331263,6.108517634659567,1.0168653726577759,-2.6918955484973353
1708436590.549141,-2.1411139965057373,-1.3333060604384919,-2.526379410420553,6.108525264054098,1.0168161392211914,-2.6918659845935267
1708436590.5511258,-2.141160726547241,-1.333276928668358,-2.5263224283801478,6.10849283912734,1.0168653726577759,-2.6918821970569056
1708436590.5531492,-2.1410980224609375,-1.3332801473191758,-2.5264087359057825,6.108504760056295,1.0168697834014893,-2.6918540636645716
1708436590.5551205,-2.1411361694335938,-1.3333165806582947,-2.5263333956347864,6.108550536423483,1.016877293586731,-2.6918867270099085
1708436590.557163,-2.141127109527588,-1.3332725328258057,-2.52635103860964,6.108505832939901,1.0168534517288208,-2.6918702761279505
1708436590.5591197,-2.141160726547241,-1.333276928668358,-2.526346508656637,6.108476626663961,1.0168565511703491,-2.6919503847705286
1708436590.5611048,-2.1411025524139404,-1.3332484525493165,-2.526363197957174,6.108529555588522,1.0168415307998657,-2.6918938795672815
1708436590.5631385,-2.141118288040161,-1.3333094131997605,-2.5263553301440638,6.108557808190145,1.0168371200561523,-2.6918495337115687
1708436590.5651507,-2.1411449909210205,-1.3332682263902207,-2.52635103860964,6.108513343125143,1.0168565511703491,-2.69192082086672
1708436590.5671551,-2.141127109527588,-1.3332559776357193,-2.526363197957174,6.108455645829,1.0168461799621582,-2.6918540636645716
1708436590.5691352,-2.141111373901367,-1.3332149249366303,-2.526367489491598,6.108497130661764,1.016877293586731,-2.6918955484973353
1708436590.571145,-2.141111373901367,-1.3333122742227097,-2.5263596216784876,6.108557808190145,1.0168284177780151,-2.6919119993792933
1708436590.573138,-2.1411561965942383,-1.333288775091507,-2.526379410420553,6.108497130661764,1.0168402194976807,-2.6919074694262903
1708436590.5751348,-2.141160726547241,-1.333304987554886,-2.5263138453113,6.108516561775961,1.016898274421692,-2.691916290913717
1708436590.5771499,-2.1411361694335938,-1.333288775091507,-2.5263763109790247,6.108516561775961,1.0168728828430176,-2.6919074694262903
1708436590.579146,-2.1411314010620117,-1.3332441461137314,-2.526330057774679,6.108553397446432,1.0168653726577759,-2.6919074694262903
1708436590.581141,-2.141171932220459,-1.3332682114890595,-2.5263224283801478,6.108497130661764,1.0168652534484863,-2.6919119993792933
1708436590.5831745,-2.1411561965942383,-1.3332682114890595,-2.526367489491598,6.1085418341453455,1.0168697834014893,-2.6918821970569056
1708436590.585124,-2.141127347946167,-1.3332516562989731,-2.5263138453113,6.108533966332235,1.0168697834014893,-2.6918628851519983
1708436590.587149,-2.141197681427002,-1.3332603734782715,-2.526346508656637,6.1085489867027185,1.0168653726577759,-2.6918821970569056
1708436590.5891523,-2.1410956382751465,-1.333304987554886,-2.52635103860964,6.108504760056295,1.0168161392211914,-2.6919341723071497
1708436590.5911508,-2.1411561965942383,-1.333300681119301,-2.5263388792621058,6.108562099724569,1.0168817043304443,-2.6918793360339563
1708436590.5931878,-2.141193389892578,-1.3332516562989731,-2.5263269583331507,6.108533966332235,1.0168534517288208,-2.6918628851519983
1708436590.595132,-2.1411404609680176,-1.3332559627345582,-2.5263705889331263,6.108520972519674,1.0168116092681885,-2.6918628851519983
1708436590.5971715,-2.1411519050598145,-1.3332516861012955,-2.5263596216784876,6.108533131867208,1.0168697834014893,-2.6918821970569056
1708436590.5991254,-2.1411492824554443,-1.3332844537547608,-2.526383701954977,6.108570802002706,1.016844630241394,-2.6919458548175257
1708436590.6011376,-2.1411561965942383,-1.3332801473191758,-2.526330057774679,6.1085489867027185,1.0168668031692505,-2.6918628851519983
1708436590.603151,-2.1411361694335938,-1.3332887601903458,-2.5263879934894007,6.108489620476522,1.0168371200561523,-2.6919119993792933
1708436590.60516,-2.14113187789917,-1.3332769584706803,-2.526318136845724,6.108472215920248,1.0168460607528687,-2.6918702761279505
1708436590.6071281,-2.141176462173462,-1.3332516861012955,-2.526375118886129,6.108557808190145,1.0168371200561523,-2.6918774286853235
1708436590.6091683,-2.1411449909210205,-1.3332844537547608,-2.5263641516314905,6.108509051590719,1.0168371200561523,-2.6918583551989954
1708436590.611159,-2.1411068439483643,-1.3332689863494416,-2.526367489491598,6.1085418341453455,1.0167919397354126,-2.691925112401144
1708436590.6131575,-2.1411068439483643,-1.3332441461137314,-2.5263269583331507,6.108504760056295,1.016812801361084,-2.6918793360339563
1708436590.6151495,-2.1411361694335938,-1.3332516861012955,-2.526363197957174,6.108500349312582,1.016829490661621,-2.6918583551989954
1708436590.6171544,-2.141188859939575,-1.3332234931043168,-2.526346747075216,6.108504760056295,1.0168172121047974,-2.6919074694262903
1708436590.619172,-2.141167640686035,-1.3332646948150177,-2.5263474623309534,6.10849283912734,1.016812801361084,-2.6919119993792933
1708436590.6211963,-2.1411404609680176,-1.3332725328258057,-2.5263138453113,6.108525264054098,1.016793131828308,-2.6918955484973353
1708436590.6231682,-2.141122579574585,-1.3332603734782715,-2.5263147989856165,6.10854052284316,1.0167516469955444,-2.6918912569629114
1708436590.625122,-2.141169548034668,-1.3333137196353455,-2.5263596216784876,6.108504760056295,1.0167841911315918,-2.6918986479388636
1708436590.6271403,-2.14113187789917,-1.3332603734782715,-2.5263641516314905,6.108537542610922,1.0167841911315918,-2.6919074694262903
1708436590.6291318,-2.1411852836608887,-1.3332646948150177,-2.526371781026022,6.108512389450826,1.0167841911315918,-2.691916529332296
1708436590.6311274,-2.1411519050598145,-1.3332844537547608,-2.5263312498675745,6.108517753868856,1.0167604684829712,-2.6919119993792933
1708436590.6331604,-2.1411404609680176,-1.3332311523011704,-2.5264132658587855,6.108525264054098,1.0167604684829712,-2.691904608403341
1708436590.6351192,-2.1411404609680176,-1.333288775091507,-2.526330057774679,6.108546125679769,1.0167723894119263,-2.6918955484973353
1708436590.6371558,-2.141167640686035,-1.3332234931043168,-2.5263806025134485,6.108512389450826,1.0167604684829712,-2.6918912569629114
1708436590.6391306,-2.141123056411743,-1.3332812500051041,-2.5263388792621058,6.108537542610922,1.016769289970398,-2.6918748060809534
1708436590.6411247,-2.1411476135253906,-1.3332725328258057,-2.5263312498675745,6.108524548798361,1.0167316198349,-2.6918867270099085
1708436590.643167,-2.141176462173462,-1.3332725328258057,-2.5263095537768763,6.108516561775961,1.0167196989059448,-2.6918986479388636
1708436590.6451223,-2.1411361694335938,-1.333239735370018,-2.5263312498675745,6.108516561775961,1.0167485475540161,-2.6918540636645716
1708436590.6471465,-2.1411404609680176,-1.3332812202027817,-2.5263312498675745,6.108533966332235,1.016769289970398,-2.6918821970569056
1708436590.6491458,-2.1411449909210205,-1.3332559776357193,-2.526371781026022,6.108525264054098,1.0167242288589478,-2.6919031778918665
1708436590.6511412,-2.141118288040161,-1.3332484525493165,-2.5263474623309534,6.108524548798361,1.0167618989944458,-2.6918986479388636
1708436590.653162,-2.1411561965942383,-1.3332725328258057,-2.5263848940478724,6.108516561775961,1.016769289970398,-2.6918659845935267
1708436590.65513,-2.141167640686035,-1.3332887601903458,-2.5263596216784876,6.108484136849203,1.0166959762573242,-2.691888157521383
1708436590.6571546,-2.1411361694335938,-1.3332559776357193,-2.5263312498675745,6.108553516655721,1.0167449712753296,-2.691937271748678
1708436590.6591246,-2.141172170639038,-1.3332441312125702,-2.5263474623309534,6.108537542610922,1.0167003870010376,-2.6918867270099085
1708436590.6611347,-2.14113187789917,-1.3332234931043168,-2.5263388792621058,6.1085418341453455,1.0167211294174194,-2.6918821970569056
1708436590.663172,-2.141127109527588,-1.3332931411317368,-2.5263388792621058,6.108582722931661,1.0166926383972168,-2.6918674151050013
1708436590.6651692,-2.1411519050598145,-1.3332898777774354,-2.5263596216784876,6.108525264054098,1.0166674852371216,-2.6918824354754847
1708436590.6671436,-2.1411025524139404,-1.3332559776357193,-2.5263474623309534,6.108537542610922,1.0166970491409302,-2.6918748060809534
1708436590.6691215,-2.1411633491516113,-1.3333137196353455,-2.5263431707965296,6.108500349312582,1.0166550874710083,-2.6918986479388636
1708436590.6711214,-2.1411361694335938,-1.3332322251847764,-2.5263105074511927,6.108557808190145,1.0167181491851807,-2.6919119993792933
1708436590.673156,-2.141115665435791,-1.3332484674504776,-2.526339832936422,6.10854052284316,1.0166852474212646,-2.6918464342700403
1708436590.6751277,-2.1411519050598145,-1.3332234931043168,-2.5263596216784876,6.108507978707113,1.0167181491851807,-2.6918986479388636
1708436590.6771314,-2.1411476135253906,-1.3332484525493165,-2.5263519922839563,6.108500349312582,1.016672968864441,-2.6918821970569056
1708436590.6791372,-2.141127109527588,-1.333239735370018,-2.5263236204730433,6.108512389450826,1.0166478157043457,-2.6918912569629114
1708436590.6812308,-2.141171932220459,-1.3332559776357193,-2.5263105074511927,6.108524548798361,1.0166399478912354,-2.6918702761279505
1708436590.6831727,-2.1411449909210205,-1.3332441461137314,-2.5263269583331507,6.108516561775961,1.0166237354278564,-2.6918659845935267
1708436590.6851616,-2.1411361694335938,-1.333293156032898,-2.5262985865222376,6.108531820565023,1.0166817903518677,-2.691904369984762
1708436590.687135,-2.141160726547241,-1.3332725328258057,-2.5263806025134485,6.108544814377584,1.0166237354278564,-2.6918955484973353
1708436590.689148,-2.1411025524139404,-1.333276928668358,-2.5263355414019983,6.108568656235494,1.016653299331665,-2.6918867270099085
1708436590.6911328,-2.1411561965942383,-1.3332354587367554,-2.526344362889425,6.108536231308737,1.016607403755188,-2.6918867270099085
1708436590.6931279,-2.1411800384521484,-1.3332682263902207,-2.5262985865222376,6.108516561775961,1.0166566371917725,-2.6918702761279505
1708436590.695169,-2.141193389892578,-1.333309368496277,-2.5263031164752405,6.108568656235494,1.0165833234786987,-2.6918774286853235
1708436590.6971674,-2.141160726547241,-1.333276928668358,-2.5263553301440638,6.108528959542074,1.0166206359863281,-2.6918986479388636
1708436590.6991496,-2.1411476135253906,-1.333288775091507,-2.5263312498675745,6.10854052284316,1.0166206359863281,-2.6919031778918665
1708436590.7011416,-2.141193389892578,-1.3332365316203614,-2.5263355414019983,6.108553397446432,1.0165789127349854,-2.6918540636645716
1708436590.7031527,-2.1411492824554443,-1.333239735370018,-2.52629000345339,6.1085418341453455,1.016625165939331,-2.6919119993792933
1708436590.7051425,-2.1411633491516113,-1.3332484525493165,-2.5263236204730433,6.108533131867208,1.0166206359863281,-2.6918421427356165
1708436590.707136,-2.141193389892578,-1.3332365316203614,-2.5263193289386194,6.108471262245931,1.0165833234786987,-2.6918211619006556
1708436590.709139,-2.141167640686035,-1.3332279187491913,-2.5263236204730433,6.108553397446432,1.016608476638794,-2.691827122365133
1708436590.7111251,-2.141160726547241,-1.3332354140332718,-2.5263312498675745,6.108572947769918,1.016608476638794,-2.6918583551989954
1708436590.713155,-2.1411449909210205,-1.3333165806582947,-2.5262985865222376,6.1085489867027185,1.0165921449661255,-2.691888157521383
1708436590.7151625,-2.141188859939575,-1.3332441312125702,-2.5262985865222376,6.108565318375387,1.0166339874267578,-2.691871706639425
1708436590.717143,-2.1410980224609375,-1.333309368496277,-2.526315991078512,6.108577239304342,1.0166339874267578,-2.691892687474386
1708436590.7191188,-2.141131639480591,-1.3332527738860627,-2.526344362889425,6.108520257263937,1.0165798664093018,-2.6918464342700403
1708436590.7211883,-2.1411519050598145,-1.3332322102836152,-2.5263312498675745,6.108544814377584,1.0165965557098389,-2.691827122365133
1708436590.7232294,-2.141127347946167,-1.3332812053016205,-2.5263474623309534,6.108572947769918,1.0165680646896362,-2.691827122365133
1708436590.7252054,-2.14113187789917,-1.333306000833847,-2.5263193289386194,6.108576404839315,1.0165843963623047,-2.6918748060809534
1708436590.727165,-2.1410980224609375,-1.3332844537547608,-2.526328150426046,6.108524548798361,1.0165770053863525,-2.6918299833880823
1708436590.729118,-2.141127347946167,-1.3332322102836152,-2.5262823740588587,6.108531820565023,1.0166053771972656,-2.691855255757467
1708436590.7311144,-2.141118288040161,-1.3332311523011704,-2.5263236204730433,6.108512389450826,1.0166099071502686,-2.69182259241213
1708436590.7331362,-2.14113187789917,-1.3332570803216477,-2.526311699544088,6.108568656235494,1.0166128873825073,-2.691855494176046
1708436590.7350981,-2.1411361694335938,-1.333276928668358,-2.5262540022479456,6.108564245491781,1.0165680646896362,-2.6918018499957483
1708436590.7371225,-2.1411361694335938,-1.3332322400859375,-2.5263312498675745,6.108496057778158,1.016575574874878,-2.6917646566974085
1708436590.7391062,-2.141122579574585,-1.3332559925368805,-2.5263400713550013,6.108581530838766,1.0165680646896362,-2.691868845616476
1708436590.7411168,-2.141169548034668,-1.3332646948150177,-2.5262988249408167,6.108585226326742,1.0165798664093018,-2.691876236592428
1708436590.7431378,-2.141188859939575,-1.3332365316203614,-2.526267115269796,6.108577239304342,1.0165932178497314,-2.691815201436178
1708436590.745105,-2.1411843299865723,-1.3332559776357193,-2.526344362889425,6.108577239304342,1.0166172981262207,-2.6918018499957483
1708436590.747121,-2.1411094665527344,-1.3332234931043168,-2.526283327733175,6.108585226326742,1.0165557861328125,-2.691815201436178
1708436590.749135,-2.1411361694335938,-1.3332290065339585,-2.5263193289386194,6.108504760056295,1.016581416130066,-2.691836182271139
1708436590.7511232,-2.1411519050598145,-1.333227963452675,-2.5262582937823694,6.108496057778158,1.0165724754333496,-2.6918063799487513
1708436590.753112,-2.1411633491516113,-1.333239735370018,-2.5262911955462855,6.1085524437721155,1.0165351629257202,-2.691798273717062
1708436590.7551296,-2.141176462173462,-1.3332397204688569,-2.5263031164752405,6.108528959542074,1.0165528059005737,-2.6918063799487513
1708436590.7571445,-2.141176462173462,-1.3332527887872239,-2.5263074080096644,6.10849283912734,1.0165157318115234,-2.691815201436178
1708436590.7591376,-2.141165018081665,-1.3332690310529252,-2.526287619267599,6.1085418341453455,1.0165483951568604,-2.6917722860919397
1708436590.7611263,-2.1411361694335938,-1.3332725179246445,-2.526320521031515,6.108556735306539,1.0165483951568604,-2.6918571631061
1708436590.763147,-2.141127109527588,-1.3332887303880234,-2.5263193289386194,6.1085697291191,1.016543984413147,-2.6917646566974085
1708436590.765141,-2.141115665435791,-1.3332484525493165,-2.5262954870807093,6.108537542610922,1.0165276527404785,-2.6918163935290735
1708436590.7671218,-2.141180992126465,-1.3332559776357193,-2.5262911955462855,6.1085489867027185,1.0165647268295288,-2.6918018499957483
1708436590.769131,-2.1411449909210205,-1.3332527440837403,-2.5262954870807093,6.108561026840963,1.0165647268295288,-2.6918073336230677
1708436590.7711217,-2.141118288040161,-1.3332844537547608,-2.5262625853167933,6.10854052284316,1.016543984413147,-2.6917768160449427
1708436590.77311,-2.1411561965942383,-1.333293156032898,-2.5262823740588587,6.108550536423483,1.0165290832519531,-2.691824499760763
1708436590.7751102,-2.141165018081665,-1.3332073402455826,-2.526316229497091,6.108515846520223,1.0165932178497314,-2.6917694250689905
1708436590.777137,-2.1411492824554443,-1.333272547726967,-2.526311699544088,6.1085115549858,1.016543984413147,-2.6917992273913782
1708436590.779124,-2.14113187789917,-1.3332812649062653,-2.5262823740588587,6.10849283912734,1.0165231227874756,-2.6918118635760706
1708436590.781122,-2.1411449909210205,-1.333273322587349,-2.5262869040118616,6.108496057778158,1.0165364742279053,-2.6917949358569544
1708436590.7831361,-2.141122579574585,-1.333276928668358,-2.5262911955462855,6.108581530838766,1.0165201425552368,-2.6917784849749964
1708436590.7850978,-2.141167640686035,-1.3332812500051041,-2.526320521031515,6.108528959542074,1.0165408849716187,-2.6917620340930384
1708436590.787127,-2.141131639480591,-1.3332072657397767,-2.5262702147113245,6.10859380939559,1.0165483951568604,-2.6918421427356165
1708436590.7891421,-2.1411404609680176,-1.3332117062858124,-2.5262582937823694,6.1085489867027185,1.0165408849716187,-2.6918118635760706
1708436590.7911115,-2.1411449909210205,-1.333251641397812,-2.526311699544088,6.1085418341453455,1.0166020393371582,-2.6917620340930384
1708436590.793147,-2.141180992126465,-1.3332354587367554,-2.5262745062457483,6.108528959542074,1.0165157318115234,-2.6917694250689905
1708436590.7951102,-2.1411449909210205,-1.3332234931043168,-2.5262461344348353,6.108556735306539,1.016557216644287,-2.6917784849749964
1708436590.7971125,-2.141160726547241,-1.3332365465215226,-2.526311699544088,6.108544814377584,1.01656174659729,-2.691803757344381
1708436590.799119,-2.141122579574585,-1.3332603734782715,-2.5262790361987513,6.108578312187948,1.0165364742279053,-2.691803757344381
1708436590.8011296,-2.141167640686035,-1.3332279038480301,-2.526327912007467,6.108565318375387,1.0165528059005737,-2.6917577425586146
1708436590.8031454,-2.1411476135253906,-1.3332322102836152,-2.526259247456686,6.108528959542074,1.0165647268295288,-2.6917784849749964
1708436590.805136,-2.141127347946167,-1.3332527887872239,-2.526259247456686,6.108500349312582,1.0165364742279053,-2.6917784849749964
1708436590.8071349,-2.1411314010620117,-1.3332452487996598,-2.526259247456686,6.108512389450826,1.0165483951568604,-2.6917501131640833
1708436590.8091276,-2.141118288040161,-1.3331987273744126,-2.526304308568136,6.108585226326742,1.016543984413147,-2.6917501131640833
1708436590.8111134,-2.14113187789917,-1.3332898032716294,-2.5262919108020228,6.108507978707113,1.0164943933486938,-2.6917620340930384
1708436590.8131502,-2.1411404609680176,-1.333261491065361,-2.52630860010256,6.108549105912008,1.016543984413147,-2.691787306462423
1708436590.8151395,-2.141118288040161,-1.3332365316203614,-2.526304070149557,6.108525264054098,1.0165770053863525,-2.6917830149279993
1708436590.817156,-2.1411361694335938,-1.3332725179246445,-2.52627140680422,6.108544814377584,1.016543984413147,-2.6917830149279993
1708436590.8191698,-2.14113187789917,-1.3332931262305756,-2.5262919108020228,6.108504760056295,1.0165528059005737,-2.6917293707477015
1708436590.8211424,-2.1411590576171875,-1.3333338362029572,-2.5262418429004114,6.108572947769918,1.0165395736694336,-2.691775385533468
1708436590.8232043,-2.14113187789917,-1.333239735370018,-2.5262790361987513,6.10854052284316,1.016543984413147,-2.691759173070089
1708436590.8251297,-2.141165018081665,-1.3333017987063904,-2.526250664387838,6.108544814377584,1.016557216644287,-2.6917412916766565
1708436590.827146,-2.141171932220459,-1.3332365465215226,-2.52627140680422,6.108589517861166,1.0165114402770996,-2.6917665640460413
1708436590.8291135,-2.1411561965942383,-1.3332559776357193,-2.52627140680422,6.1085418341453455,1.016573429107666,-2.6917665640460413
1708436590.8311298,-2.1411519050598145,-1.333273322587349,-2.52627140680422,6.108512389450826,1.0165408849716187,-2.6917129198657435
1708436590.8331552,-2.141167640686035,-1.333215982919075,-2.526254955922262,6.108516561775961,1.0165528059005737,-2.6917381922351282
1708436590.8351562,-2.141118288040161,-1.3332646948150177,-2.526292149220602,6.108533131867208,1.0165603160858154,-2.691759173070089
1708436590.8371394,-2.141188859939575,-1.3332559776357193,-2.5262919108020228,6.108520972519674,1.016573429107666,-2.6917458216296595
1708436590.8391504,-2.141127109527588,-1.3332441312125702,-2.5263410250293177,6.108467924385824,1.016557216644287,-2.691775385533468
1708436590.8411229,-2.1411449909210205,-1.3331993979266663,-2.526267115269796,6.108512389450826,1.0165690183639526,-2.6917339007007044
1708436590.8431587,-2.141122579574585,-1.3332559776357193,-2.526259247456686,6.108544814377584,1.0165812969207764,-2.6917501131640833
1708436590.8451276,-2.1411800384521484,-1.3332527589849015,-2.526259247456686,6.108459937363424,1.0165276527404785,-2.6917293707477015
1708436590.8471434,-2.141193389892578,-1.3332484525493165,-2.526275698338644,6.108476507454672,1.016557216644287,-2.691787306462423
1708436590.8491123,-2.141167640686035,-1.3332855266383667,-2.526250425969259,6.108447062760153,1.0165483951568604,-2.691726271306173
1708436590.8511183,-2.1411561965942383,-1.3332072657397767,-2.526222292576925,6.108533131867208,1.016532063484192,-2.6917381922351282
1708436590.8531518,-2.1411449909210205,-1.333239735370018,-2.5262635389911097,6.108574020653524,1.016532063484192,-2.691775385533468
1708436590.8551383,-2.1411519050598145,-1.3332365316203614,-2.526287619267599,6.108557808190145,1.0165408849716187,-2.6917501131640833
1708436590.8571653,-2.14113187789917,-1.3332203042558213,-2.526275698338644,6.108562099724569,1.0165647268295288,-2.691709343587057
1708436590.8591561,-2.1411757469177246,-1.3332484525493165,-2.526287619267599,6.108476626663961,1.0165812969207764,-2.69175631204714
1708436590.8611424,-2.1411314010620117,-1.3332234931043168,-2.52627140680422,6.108475553780355,1.016539454460144,-2.691726271306173
1708436590.8631663,-2.141188859939575,-1.3332974922708054,-2.526259247456686,6.108509051590719,1.0165483951568604,-2.6917219797717493
1708436590.8651512,-2.141160726547241,-1.3332290065339585,-2.526238743458883,6.108537542610922,1.0165201425552368,-2.691779915486471
1708436590.867153,-2.1411139965057373,-1.3332441610148926,-2.5262625853167933,6.108455645829,1.0165483951568604,-2.69170052209963
1708436590.86914,-2.141165018081665,-1.333239735370018,-2.5262799898730677,6.108525264054098,1.016532063484192,-2.6917546431170862
1708436590.8711154,-2.1410911083221436,-1.3332603734782715,-2.526250664387838,6.108480918198385,1.0165843963623047,-2.691747252141134
1708436590.87317,-2.141176700592041,-1.3332116615823288,-2.526259247456686,6.108484017639913,1.0165647268295288,-2.6917219797717493
1708436590.8771622,-2.141119956970215,-1.3332159978202363,-2.52627140680422,6.108480918198385,1.0165469646453857,-2.691747252141134
1708436590.8791246,-2.1411404609680176,-1.3332570803216477,-2.526292149220602,6.108517634659567,1.016614317893982,-2.6917174498187464
1708436590.8811414,-2.1411139965057373,-1.3332246106914063,-2.52623421350588,6.108476626663961,1.016588807106018,-2.691747252141134
1708436590.8831427,-2.1411361694335938,-1.3332812500051041,-2.526287619267599,6.108505832939901,1.0165636539459229,-2.6917784849749964
1708436590.8851554,-2.1411519050598145,-1.3332690012506028,-2.526250425969259,6.108472215920248,1.0165647268295288,-2.6917710939990442
1708436590.887147,-2.141118288040161,-1.3332441312125702,-2.526320521031515,6.108530747681417,1.016588807106018,-2.6917546431170862
1708436590.8891206,-2.141160726547241,-1.3332072657397767,-2.5263119379626673,6.108498322754659,1.0165724754333496,-2.6917293707477015
1708436590.8911495,-2.141193389892578,-1.3332646948150177,-2.526267115269796,6.108473050385275,1.0166053771972656,-2.691742722188131
1708436590.8931615,-2.1410956382751465,-1.3332365316203614,-2.5262919108020228,6.108413445740499,1.0165635347366333,-2.6917665640460413
1708436590.8951426,-2.141138792037964,-1.3332322102836152,-2.526243034993307,6.108396160393514,1.0165557861328125,-2.691709343587057
1708436590.897153,-2.141115665435791,-1.3332603734782715,-2.5262256304370325,6.108404862671652,1.0166053771972656,-2.6917830149279993
1708436590.8991268,-2.141165018081665,-1.3332159978202363,-2.526304308568136,6.108432638436117,1.0166099071502686,-2.6917575041400355
1708436590.9011142,-2.141118288040161,-1.3332354140332718,-2.526259247456686,6.108425366669454,1.0165965557098389,-2.6917412916766565
1708436590.9031742,-2.1411404609680176,-1.3332408529571076,-2.526283327733175,6.108409154206075,1.0165798664093018,-2.6917339007007044
1708436590.905133,-2.1411404609680176,-1.3332484525493165,-2.526320521031515,6.108413445740499,1.0165876150131226,-2.6917293707477015
1708436590.9071553,-2.141122579574585,-1.3332246106914063,-2.526275698338644,6.108417737274923,1.0166009664535522,-2.691742722188131
1708436590.9091456,-2.141167640686035,-1.3332898777774354,-2.526267115269796,6.108409154206075,1.0166172981262207,-2.6917546431170862
1708436590.9111218,-2.141160726547241,-1.3331994873336335,-2.526250664387838,6.108401524811544,1.0166369676589966,-2.6917174498187464
1708436590.9131567,-2.1411519050598145,-1.3332855862430115,-2.526250425969259,6.10843704917983,1.0165965557098389,-2.691775385533468
1708436590.915132,-2.1411538124084473,-1.333227888946869,-2.52627140680422,6.10842119434432,1.016603946685791,-2.691730801259176
1708436590.9171493,-2.1411561965942383,-1.333180309539177,-2.5262919108020228,6.108351456909933,1.0165798664093018,-2.691791836415426
1708436590.9191463,-2.141122579574585,-1.3332527738860627,-2.526283327733175,6.108417737274923,1.016603946685791,-2.6917339007007044
1708436590.9211323,-2.1411561965942383,-1.3332290065339585,-2.5262332598315638,6.10839723327712,1.0166162252426147,-2.6917381922351282
1708436590.9232535,-2.1411561965942383,-1.3332037341645737,-2.526320521031515,6.108413445740499,1.0166206359863281,-2.6917620340930384
1708436590.9252083,-2.1411025524139404,-1.3332484525493165,-2.5263074080096644,6.108454334526815,1.0166577100753784,-2.6917381922351282
1708436590.927141,-2.141160726547241,-1.3332559776357193,-2.5262954870807093,6.10842655876235,1.016653299331665,-2.691779915486471
1708436590.9291263,-2.1411314010620117,-1.333249570136406,-2.5262954870807093,6.108401524811544,1.016653299331665,-2.6917381922351282
1708436590.9312224,-2.1410841941833496,-1.3332124513438721,-2.5262919108020228,6.108384954720297,1.0166566371917725,-2.6917384306537073
1708436590.9331784,-2.141118288040161,-1.3332820397666474,-2.526283327733175,6.1083319065864465,1.016672968864441,-2.691747252141134
1708436590.935152,-2.141127109527588,-1.3332527738860627,-2.526299778615133,6.108393656998434,1.0166118144989014,-2.691791836415426
1708436590.9371614,-2.141127109527588,-1.333233357673027,-2.526287619267599,6.108405935555258,1.016652226448059,-2.6917830149279993
1708436590.9391496,-2.141122579574585,-1.3332452487996598,-2.526315991078512,6.108393656998434,1.016652226448059,-2.6917384306537073
1708436590.941129,-2.141115665435791,-1.333180309539177,-2.5262582937823694,6.108410346298971,1.0167136192321777,-2.691791836415426
1708436590.9431376,-2.1410717964172363,-1.3332974922708054,-2.526287619267599,6.108377444535055,1.0166685581207275,-2.6917710939990442
1708436590.9451082,-2.141071081161499,-1.3332527738860627,-2.5262418429004114,6.108373153000631,1.0166674852371216,-2.6917129198657435
1708436590.9471352,-2.1411404609680176,-1.333215982919075,-2.52627140680422,6.108402359276571,1.0166763067245483,-2.6917174498187464
1708436590.9492059,-2.1411025524139404,-1.3332812500051041,-2.526299778615133,6.108291613846578,1.0167210102081299,-2.691747252141134
1708436590.951137,-2.141108512878418,-1.333257035618164,-2.526327912007467,6.108397948532858,1.0166807174682617,-2.6917546431170862
1708436590.9531412,-2.1410927772521973,-1.3331918281367798,-2.5262790361987513,6.108337032585897,1.0166881084442139,-2.6917577425586146
1708436590.955115,-2.141079902648926,-1.3332559329322358,-2.526320521031515,6.108374225884237,1.016709327697754,-2.6917293707477015
1708436590.9571607,-2.1411285400390625,-1.3331758987954636,-2.526311699544088,6.108345019608297,1.0167092084884644,-2.6917694250689905
1708436590.9591413,-2.141115665435791,-1.3332441312125702,-2.5262540022479456,6.108313309937277,1.01668381690979,-2.691787306462423
1708436590.9611502,-2.1411242485046387,-1.3332733076861878,-2.5263128916369837,6.108386027603903,1.0167211294174194,-2.6917381922351282
1708436590.9631617,-2.141115665435791,-1.3332408380559464,-2.526287619267599,6.108341443329611,1.0167536735534668,-2.691791836415426
1708436590.9651258,-2.1411285400390625,-1.3332603734782715,-2.52627140680422,6.10830448844985,1.0167286396026611,-2.6917248407946985
1708436590.9671319,-2.141111373901367,-1.3332279038480301,-2.5263236204730433,6.108345734864034,1.0167242288589478,-2.6917577425586146
1708436590.9691231,-2.141108512878418,-1.333236501818039,-2.5262747446643274,6.108349311142721,1.0166916847229004,-2.6917620340930384
1708436590.9711046,-2.141084671020508,-1.3332689714482804,-2.5263074080096644,6.108362304955282,1.0167078971862793,-2.6917830149279993
1708436590.9731395,-2.141108274459839,-1.3332689863494416,-2.5262747446643274,6.108293044358053,1.0167360305786133,-2.6917412916766565
1708436590.975111,-2.141131639480591,-1.3332279038480301,-2.526348654423849,6.1083059189613245,1.0167078971862793,-2.6917620340930384
1708436590.9771483,-2.141148567199707,-1.3332942885211487,-2.5262461344348353,6.108256923943319,1.0167449712753296,-2.6917620340930384
1708436590.9791157,-2.141104221343994,-1.3332646948150177,-2.526299778615133,6.108326303749838,1.0167449712753296,-2.6917830149279993
1708436590.9811175,-2.141097068786621,-1.3332322102836152,-2.526283327733175,6.108276474266805,1.0167826414108276,-2.691787306462423
1708436590.983155,-2.1410675048828125,-1.3332322102836152,-2.52633244196047,6.108313309937277,1.0167529582977295,-2.6917992273913782
1708436590.9851322,-2.1410675048828125,-1.33322028935466,-2.526299778615133,6.108285057335653,1.0167738199234009,-2.6917577425586146
1708436590.9871426,-2.14107608795166,-1.33322028935466,-2.5263074080096644,6.108354317932882,1.0167604684829712,-2.6917367617236536
1708436590.9891288,-2.1411285400390625,-1.3331831854632874,-2.5262911955462855,6.108286130219259,1.0167975425720215,-2.6917992273913782
1708436590.9911664,-2.1410508155822754,-1.3332733523896714,-2.526311699544088,6.108333813935079,1.016781210899353,-2.6918163935290735
1708436590.9931526,-2.141119956970215,-1.3332029444030304,-2.5263193289386194,6.108313309937277,1.0167604684829712,-2.6917904059039515
1708436590.995122,-2.141112804412842,-1.3332159680179139,-2.5262954870807093,6.108289348870077,1.0168097019195557,-2.6918028036700647
1708436590.997157,-2.1410508155822754,-1.3332570952228089,-2.5262954870807093,6.10829924324111,1.016779899597168,-2.6917784849749964
1708436590.999146,-2.14107608795166,-1.3332603734782715,-2.526299778615133,6.10826991775588,1.0167723894119263,-2.6917694250689905
1708436591.001144,-2.1411170959472656,-1.3332279038480301,-2.5262582937823694,6.108298051148214,1.0167841911315918,-2.6918073336230677
1708436591.0031378,-2.1410934925079346,-1.3332279038480301,-2.5262790361987513,6.108302342682638,1.0167875289916992,-2.6917904059039515
1708436591.0051422,-2.141047954559326,-1.3331918132356186,-2.5263031164752405,6.108240592270651,1.016833782196045,-2.6917620340930384
1708436591.0071356,-2.141056537628174,-1.3332124513438721,-2.526344362889425,6.108277547150411,1.0168460607528687,-2.691810671483175
1708436591.009125,-2.141101360321045,-1.3332603436759491,-2.5262911955462855,6.108274209290304,1.016800880432129,-2.6917811075793665
1708436591.0111513,-2.1410722732543945,-1.333257035618164,-2.526304308568136,6.108257996826925,1.016812801361084,-2.691831652318136
1708436591.0131462,-2.141080379486084,-1.3332279038480301,-2.5263150374041956,6.108262407570638,1.0168416500091553,-2.6918497721301478
1708436591.015114,-2.1411619186401367,-1.3333017987063904,-2.526327912007467,6.10826991775588,1.0168578624725342,-2.691789213811056
1708436591.0171552,-2.1410889625549316,-1.3332116317800065,-2.5262866655932825,6.108257996826925,1.0168609619140625,-2.691840712224142
1708436591.0191143,-2.141080379486084,-1.33322028935466,-2.5263074080096644,6.1082414267356775,1.0168653726577759,-2.6918183008777063
1708436591.0211563,-2.1410889625549316,-1.3331874769977112,-2.5263312498675745,6.108262407570638,1.016808271408081,-2.691843573247091
1708436591.0231726,-2.1410892009735107,-1.3332037341645737,-2.5263031164752405,6.108220922737875,1.0168371200561523,-2.6918345133410853
1708436591.0251648,-2.1410934925079346,-1.3332855713418503,-2.5263193289386194,6.108311164170065,1.016832709312439,-2.691839043294088
1708436591.0271592,-2.1410765647888184,-1.3332365316203614,-2.526311699544088,6.108274209290304,1.0168653726577759,-2.6918628851519983
1708436591.0291255,-2.141080379486084,-1.3332603585771103,-2.5262747446643274,6.10823820808486,1.0168728828430176,-2.69182259241213
1708436591.031122,-2.141059398651123,-1.3331745576909562,-2.5263031164752405,6.108266699105062,1.0168653726577759,-2.691892687474386
1708436591.0331213,-2.141080379486084,-1.3332365316203614,-2.5262702147113245,6.10820900180892,1.0168895721435547,-2.691871706639425
1708436591.0351198,-2.141056537628174,-1.3332290065339585,-2.526310745869772,6.108257996826925,1.0168895721435547,-2.6918702761279505
1708436591.0371275,-2.1410679817199707,-1.33320805550132,-2.526311699544088,6.108265626221456,1.016844630241394,-2.6918540636645716
1708436591.0391257,-2.141059398651123,-1.3332375598004838,-2.5262911955462855,6.108291613846578,1.0168938636779785,-2.691929642354147
1708436591.0411632,-2.14105224609375,-1.3332203191569825,-2.5263519922839563,6.108274209290304,1.0168728828430176,-2.6919384638415735
1708436591.043154,-2.1411213874816895,-1.3332527738860627,-2.5263150374041956,6.108281838684835,1.0168817043304443,-2.6918566862689417
1708436591.0451202,-2.141084671020508,-1.3332365316203614,-2.526339832936422,6.108250129013815,1.0169017314910889,-2.69192082086672
1708436591.0471551,-2.141080379486084,-1.3332080853036423,-2.5262942949878138,6.108226406365194,1.0168683528900146,-2.6918893496142786
1708436591.04915,-2.141084671020508,-1.333261416559555,-2.5262911955462855,6.10820900180892,1.0168895721435547,-2.6918774286853235
1708436591.051142,-2.1410765647888184,-1.3332203042558213,-2.5263312498675745,6.108274209290304,1.0169017314910889,-2.691932741795675
1708436591.0531487,-2.1410934925079346,-1.3331994128278275,-2.5262985865222376,6.108217704087057,1.0168805122375488,-2.691932741795675
1708436591.0551329,-2.141059398651123,-1.333289773469307,-2.5263031164752405,6.108278620034017,1.0168683528900146,-2.691916290913717
1708436591.0571299,-2.1410276889801025,-1.333232195382454,-2.5263150374041956,6.108270990639486,1.0168521404266357,-2.691916290913717
1708436591.0591207,-2.14104962348938,-1.333203763966896,-2.5263105074511927,6.108233916550436,1.0168895721435547,-2.69192082086672
1708436591.0611813,-2.141047954559326,-1.3332203191569825,-2.5263763109790247,6.108205425530233,1.016897201538086,-2.6918986479388636
1708436591.0631535,-2.1410768032073975,-1.3332209450057526,-2.5262869040118616,6.108270990639486,1.0169047117233276,-2.6918821970569056
1708436591.0651813,-2.141056537628174,-1.3332603734782715,-2.5263193289386194,6.108274209290304,1.0168895721435547,-2.6918893496142786
1708436591.067116,-2.14105224609375,-1.3332279187491913,-2.5263269583331507,6.108233916550436,1.0168629884719849,-2.6919146219836634
1708436591.0691228,-2.14103627204895,-1.3331832748702546,-2.52629000345339,6.108221995621481,1.0168850421905518,-2.691932741795675
1708436591.0711334,-2.141040802001953,-1.3332441610148926,-2.5263236204730433,6.108229625016012,1.0169495344161987,-2.69192344347109
1708436591.0731654,-2.141063690185547,-1.3332279485515137,-2.5263236204730433,6.108213412552633,1.0168628692626953,-2.691918913518087
1708436591.0751243,-2.1410183906555176,-1.33320805550132,-2.5263355414019983,6.108278620034017,1.016942024230957,-2.6919682661639612
1708436591.0771234,-2.141040802001953,-1.3332484525493165,-2.5263641516314905,6.1081851599510095,1.0169165134429932,-2.692000929509298
1708436591.0791318,-2.1410229206085205,-1.3332732778838654,-2.5263355414019983,6.108221995621481,1.0169298648834229,-2.6919100920306605
1708436591.0811298,-2.141040802001953,-1.3331716817668458,-2.5263312498675745,6.108249294548788,1.0168958902359009,-2.6919918696032923
1708436591.0831537,-2.141040802001953,-1.3332941693118592,-2.5263355414019983,6.108257996826925,1.0169254541397095,-2.6919999758349817
1708436591.0851521,-2.1410160064697266,-1.3331918579391022,-2.5264011065112513,6.108245837479391,1.0169495344161987,-2.6920090357409876
1708436591.087123,-2.141047954559326,-1.3332615059665223,-2.5263312498675745,6.108245837479391,1.0169451236724854,-2.6919620672809046
1708436591.0891378,-2.141080379486084,-1.33320805550132,-2.5263388792621058,6.10829924324111,1.0169658660888672,-2.6919830481158655
1708436591.0911157,-2.141056537628174,-1.3331994873336335,-2.5263269583331507,6.108245837479391,1.016940712928772,-2.6919785181628626
1708436591.093131,-2.1410889625549316,-1.3332898330739518,-2.5263553301440638,6.108233916550436,1.016903281211853,-2.691986385975973
1708436591.0951273,-2.14104962348938,-1.333252714281418,-2.52638823190798,6.1082122204597376,1.0169570446014404,-2.6920152346240442
1708436591.0971186,-2.1410319805145264,-1.3332332831672211,-2.52638823190798,6.1082754013831995,1.0169658660888672,-2.692028824483053
1708436591.0991254,-2.141056537628174,-1.3332333278707047,-2.5264163653003138,6.108257996826925,1.016940712928772,-2.6920316855060022
1708436591.1011145,-2.141040802001953,-1.3332397204688569,-2.5264151732074183,6.1082613346870325,1.016940712928772,-2.691986385975973
1708436591.1031704,-2.1410765647888184,-1.33317884922538,-2.526407543812887,6.108274209290304,1.0169525146484375,-2.692045275365011
1708436591.1051512,-2.1410229206085205,-1.333264635210373,-2.526456658040182,6.10826991775588,1.0169658660888672,-2.691990915928976
1708436591.1071665,-2.1410892009735107,-1.3331864786199112,-2.5264108816729944,6.108225214272299,1.0169570446014404,-2.69198185602297
1708436591.1091764,-2.1410810947418213,-1.3332365167192002,-2.5264230410205286,6.108283030777731,1.016928791999817,-2.6920436064349573
1708436591.1111205,-2.14105224609375,-1.3332159680179139,-2.5264185110675257,6.108277547150411,1.016936182975769,-2.692057196293966
1708436591.11317,-2.1410160064697266,-1.333203763966896,-2.5264392534839075,6.108253705292501,1.0169122219085693,-2.691993776951925
1708436591.1151214,-2.1410679817199707,-1.3332527589849015,-2.5264719168292444,6.10826991775588,1.0169495344161987,-2.69202429453005
1708436591.1171515,-2.1410934925079346,-1.3332037192634125,-2.5264557043658655,6.10826991775588,1.0169658660888672,-2.6919894854175013
1708436591.1191292,-2.1410229206085205,-1.333224580889084,-2.5264676252948206,6.1083035347755334,1.0169451236724854,-2.691998306904928
1708436591.121137,-2.1410140991210938,-1.33320805550132,-2.5264676252948206,6.108286130219259,1.0169614553451538,-2.6920481363879603
1708436591.123194,-2.1410722732543945,-1.3332776737264176,-2.5264883677112024,6.108334886818685,1.0169525146484375,-2.6920316855060022
1708436591.1252065,-2.1410765647888184,-1.3332073253444214,-2.5264065901385706,6.10829375961379,1.0169976949691772,-2.691994015370504
1708436591.1271362,-2.1410765647888184,-1.333215982919075,-2.5264514128314417,6.108277547150411,1.0169317722320557,-2.692073408757345
1708436591.129136,-2.1410653591156006,-1.3332898181727906,-2.526458803807394,6.1083305952842615,1.0169570446014404,-2.6920316855060022
1708436591.131109,-2.1410608291625977,-1.333215982919075,-2.52643067041506,6.1083059189613245,1.016990303993225,-2.692052427922384
1708436591.1331332,-2.1410768032073975,-1.333191843037941,-2.5264065901385706,6.108298051148214,1.016940712928772,-2.6920436064349573
1708436591.1351395,-2.1410934925079346,-1.3332073104432602,-2.526513401662008,6.1083425162132166,1.0169495344161987,-2.692019764577047
1708436591.1371567,-2.1410679817199707,-1.333215982919075,-2.52643067041506,6.1083176014717,1.017011046409607,-2.6920271555529993
1708436591.1391463,-2.1410608291625977,-1.3332527738860627,-2.5264349619494837,6.108321893006124,1.0169317722320557,-2.692052427922384
1708436591.1411638,-2.141056537628174,-1.3332570505193253,-2.526475254689352,6.1083295224006555,1.0169780254364014,-2.692106072102682
1708436591.143133,-2.1410319805145264,-1.3332441610148926,-2.5264764467822474,6.108280765801229,1.0169570446014404,-2.692040745412008
1708436591.145127,-2.1410813331604004,-1.3332124513438721,-2.5264883677112024,6.108353602677145,1.0169481039047241,-2.6920600573169153
1708436591.1471453,-2.141056537628174,-1.3332365167192002,-2.5264392534839075,6.108353602677145,1.0169614553451538,-2.691998306904928
1708436591.1491363,-2.1410434246063232,-1.3332559776357193,-2.5264719168292444,6.108361232071676,1.0169570446014404,-2.6920109430896204
1708436591.1511168,-2.1410608291625977,-1.333178923731186,-2.5264435450183313,6.108405935555258,1.0169614553451538,-2.6920064131366175
1708436591.1531458,-2.141040802001953,-1.333190680747368,-2.526418749486105,6.108380663185873,1.0169737339019775,-2.692036215459005
1708436591.1551368,-2.1410160064697266,-1.3332452040961762,-2.5264557043658655,6.108384954720297,1.0169737339019775,-2.691977564488546
1708436591.157135,-2.141084671020508,-1.3332603883794327,-2.5264514128314417,6.1084221480186365,1.0169947147369385,-2.691990915928976
1708436591.1591225,-2.141101598739624,-1.3332484823516388,-2.526479784642355,6.10843704917983,1.0169614553451538,-2.692007366810934
1708436591.161119,-2.141045093536377,-1.3332699698260804,-2.526463333760397,6.108453619271078,1.0169737339019775,-2.692011896763937
1708436591.163145,-2.141056537628174,-1.3332527589849015,-2.5264557043658655,6.10842119434432,1.0169813632965088,-2.692057196293966
1708436591.1651506,-2.14105224609375,-1.3332484525493165,-2.526463333760397,6.1084210751350305,1.0169614553451538,-2.6919999758349817
1708436591.1671402,-2.1410229206085205,-1.3332646799138566,-2.5264676252948206,6.108424055367269,1.016940712928772,-2.6919384638415735
1708436591.1691315,-2.1410722732543945,-1.3332570654204865,-2.526447121297018,6.108473050385275,1.0169737339019775,-2.6919830481158655
1708436591.171136,-2.1410698890686035,-1.333232195382454,-2.5264719168292444,6.108493912010946,1.0169603824615479,-2.6919265429126185
1708436591.1731212,-2.1410722732543945,-1.3332689863494416,-2.526475254689352,6.108498322754659,1.0169858932495117,-2.6918936411487024
1708436591.1762326,-2.1410813331604004,-1.3332441312125702,-2.5264599959002894,6.108498322754659,1.0169858932495117,-2.6918702761279505
1708436591.1771398,-2.141023635864258,-1.3332279187491913,-2.5265167395221155,6.108451235085287,1.0169570446014404,-2.6918464342700403
1708436591.1791236,-2.141080379486084,-1.3332167726806183,-2.5264349619494837,6.108467805176534,1.0169603824615479,-2.691871706639425
1708436591.1811495,-2.14105224609375,-1.3332657378963013,-2.5264349619494837,6.108572947769918,1.0169737339019775,-2.691839043294088
1708436591.1831672,-2.141084671020508,-1.3332322251847764,-2.5264349619494837,6.10854052284316,1.0169646739959717,-2.6918118635760706
1708436591.1851091,-2.141084671020508,-1.3332887452891846,-2.5264645258532923,6.108593928604879,1.0169858932495117,-2.6917203108416956
1708436591.1871474,-2.14105224609375,-1.3332646799138566,-2.526418749486105,6.108623134880819,1.0169737339019775,-2.6917710939990442
1708436591.1891167,-2.14105224609375,-1.3332311523011704,-2.526405636464254,6.1086089489753626,1.0169614553451538,-2.691701952611105
1708436591.191127,-2.141056537628174,-1.3331907552531739,-2.5264514128314417,6.108646142273702,1.0169363021850586,-2.6916328112231653
1708436591.1931517,-2.141045093536377,-1.3332234931043168,-2.5264840761767786,6.108693706780233,1.0169602632522583,-2.6916309038745325
1708436591.1951113,-2.14105224609375,-1.333268941645958,-2.5264599959002894,6.10862015464858,1.0169976949691772,-2.6915276686297815
1708436591.1971376,-2.14103627204895,-1.3332473647645493,-2.526426140462057,6.108624446183004,1.016990303993225,-2.691493097935812
1708436591.1991298,-2.141059398651123,-1.3332812202027817,-2.526442591344015,6.108660208969869,1.0169603824615479,-2.6914363543139856
1708436591.2011528,-2.141056537628174,-1.3332235378078003,-2.5264719168292444,6.108705627709188,1.0169436931610107,-2.6914055983172815
1708436591.203147,-2.141063690185547,-1.333272547726967,-2.5264392534839075,6.1086721298988245,1.0169647932052612,-2.691258494053976
1708436591.205182,-2.141097068786621,-1.3332072806409379,-2.526447121297018,6.108679640084066,1.0170109272003174,-2.691223684941427
1708436591.2071366,-2.141063690185547,-1.3332603734782715,-2.5265045801745813,6.108708965569296,1.0169976949691772,-2.691103760396139
1708436591.209145,-2.1410508155822754,-1.3332203191569825,-2.526447121297018,6.108740556031027,1.0169737339019775,-2.690982166920797
1708436591.2111416,-2.141080379486084,-1.3332473796657105,-2.526479784642355,6.108773457794943,1.0169858932495117,-2.690881315861837
1708436591.2131703,-2.1410393714904785,-1.3332603734782715,-2.52643067041506,6.108690845757284,1.0169947147369385,-2.690810267125265
1708436591.215135,-2.1410679817199707,-1.3332732778838654,-2.5264599959002894,6.108780729561605,1.0169976949691772,-2.6907601992236536
1708436591.2171333,-2.141080379486084,-1.3332191717675705,-2.52645451227297,6.108779656677999,1.0169570446014404,-2.6905351320849817
1708436591.2191186,-2.141097068786621,-1.3332441461137314,-2.526463333760397,6.108890640526571,1.0169932842254639,-2.6904431025134485
1708436591.221116,-2.141097068786621,-1.3332279187491913,-2.5265167395221155,6.108794915467062,1.016984462738037,-2.6903167406665247
1708436591.2231839,-2.141084671020508,-1.3333061200431366,-2.52643067041506,6.108844029694357,1.0169932842254639,-2.690188471470968
1708436591.2251983,-2.141112804412842,-1.3332855266383667,-2.526442591344015,6.108839738159933,1.0170139074325562,-2.6900349299060267
1708436591.2271638,-2.1410717964172363,-1.3332365316203614,-2.526447121297018,6.108900415688314,1.0169932842254639,-2.689878765736715
1708436591.2291572,-2.1410889625549316,-1.333313674931862,-2.5264514128314417,6.108818757324972,1.0169888734817505,-2.689699951802389
1708436591.231107,-2.141101598739624,-1.3332682263902207,-2.5264764467822474,6.108870851784506,1.0169963836669922,-2.689552132283346
1708436591.2331686,-2.141101598739624,-1.3332441461137314,-2.5264340082751673,6.108851659088888,1.017000675201416,-2.6893959681140345
1708436591.2351036,-2.141101360321045,-1.3332559776357193,-2.526438299809591,6.108920919686117,1.0169813632965088,-2.6892150084124964
1708436591.2371397,-2.14107608795166,-1.3332597029260178,-2.526426140462057,6.108863580017843,1.0170261859893799,-2.68908936182131
1708436591.2391312,-2.141097068786621,-1.3332452189973374,-2.5264514128314417,6.10885916927413,1.0170261859893799,-2.6888704935656946
1708436591.2411096,-2.1410717964172363,-1.3332931411317368,-2.526409927998678,6.108919846802511,1.0170173645019531,-2.6886168161975306
1708436591.2431142,-2.141104221343994,-1.3332397204688569,-2.526475254689352,6.108907925873556,1.017021894454956,-2.6884451548205774
1708436591.2451072,-2.1410717964172363,-1.3332560074380417,-2.52645451227297,6.108902442246237,1.0170173645019531,-2.688202444707052
1708436591.247121,-2.1410887241363525,-1.333309368496277,-2.5264392534839075,6.108899342804708,1.0169875621795654,-2.688018862401144
1708436591.2491088,-2.141063690185547,-1.3332603734782715,-2.5265124479876917,6.108952748566427,1.0170459747314453,-2.687847916279928
1708436591.251114,-2.1410887241363525,-1.3332441312125702,-2.526463333760397,6.108959185868063,1.017037034034729,-2.6876114050494593
1708436591.2531219,-2.1411170959472656,-1.3332484376481553,-2.5264914671527308,6.108894932060995,1.0170577764511108,-2.6873696486102503
1708436591.255108,-2.141084671020508,-1.3332725775292893,-2.526470963154928,6.108980881958761,1.0170577764511108,-2.6870954672442835
1708436591.2571237,-2.141115665435791,-1.3332725328258057,-2.526426140462057,6.108918773918905,1.0170611143112183,-2.6868019739734095
1708436591.2591102,-2.141144275665283,-1.3333136600307007,-2.526479784642355,6.108931052475729,1.0170488357543945,-2.6865370909320276
1708436591.2611067,-2.1411492824554443,-1.3332397651723404,-2.526463333760397,6.108893859177389,1.0170401334762573,-2.686277214680807
1708436591.263113,-2.1410999298095703,-1.3332725179246445,-2.5265451113330286,6.108984100609579,1.0170611143112183,-2.685978953038351
1708436591.2651112,-2.1410841941833496,-1.333276928668358,-2.526458803807394,6.108963477402487,1.0171144008636475,-2.685662571583883
1708436591.2671342,-2.141112804412842,-1.3332801473191758,-2.5264621416675013,6.108991610794821,1.0170774459838867,-2.6853652636157435
1708436591.2691407,-2.141148805618286,-1.3332931411317368,-2.52651554742922,6.108954894333639,1.0171269178390503,-2.6850643793689173
1708436591.271112,-2.1411399841308594,-1.3332552474788208,-2.526487175618307,6.108971106797018,1.0171101093292236,-2.6847201029406946
1708436591.273133,-2.141108512878418,-1.3332516861012955,-2.52651554742922,6.109016525536337,1.0171136856079102,-2.684366289769308
1708436591.27512,-2.1411170959472656,-1.333296389584877,-2.526499334965841,6.109045016556539,1.0171056985855103,-2.684009853993551
1708436591.277133,-2.1410717964172363,-1.333309368496277,-2.5265191237079065,6.109015452652731,1.017096757888794,-2.6836066881762903
1708436591.279135,-2.1411399841308594,-1.333275930290558,-2.526477638875143,6.108954775124349,1.0171092748641968,-2.6832500139819544
1708436591.2811215,-2.1410717964172363,-1.3332801473191758,-2.5265396277057093,6.109032022743978,1.0170835256576538,-2.6828745047198694
1708436591.283135,-2.1410679817199707,-1.3332597029260178,-2.5265353361712855,6.1090197441871545,1.0171211957931519,-2.6824093500720423
1708436591.2851107,-2.141111373901367,-1.3332812202027817,-2.5265353361712855,6.109015452652731,1.0171211957931519,-2.682028595601217
1708436591.28712,-2.1411068439483643,-1.3332844537547608,-2.526572291051046,6.108999240189352,1.0171867609024048,-2.6816704908954065
1708436591.2891335,-2.141127109527588,-1.3332597029260178,-2.5265472571002405,6.108990537911215,1.0171287059783936,-2.6812310854541224
1708436591.2911568,-2.141127109527588,-1.3332279187491913,-2.526522223149435,6.108974325447836,1.0172064304351807,-2.680793587361471
1708436591.293142,-2.1410956382751465,-1.3332682263902207,-2.5265591780291956,6.109043943672933,1.0171812772750854,-2.680358950291769
1708436591.2951527,-2.1410841941833496,-1.3332725328258057,-2.5265920797931116,6.108999240189352,1.017214298248291,-2.6799679438220423
1708436591.2971659,-2.1411314010620117,-1.333309368496277,-2.5265634695636194,6.109032022743978,1.017197608947754,-2.6794679800616663
1708436591.2991383,-2.1411399841308594,-1.3332107079080124,-2.5265875498401087,6.1090677855308435,1.0172590017318726,-2.678969923649923
1708436591.3011441,-2.1410956382751465,-1.3332397204688569,-2.5265710989581507,6.1090067503745935,1.0172380208969116,-2.6785083452807825
1708436591.3031425,-2.1411314010620117,-1.333313674931862,-2.5265429655658167,6.109015452652731,1.0172501802444458,-2.678147617970602
1708436591.3051164,-2.1411285400390625,-1.3333252680352707,-2.526583258305685,6.109047162323751,1.017241358757019,-2.6775787512408655
1708436591.307148,-2.141097068786621,-1.3332639199546357,-2.526562277470724,6.109042870789327,1.0173027515411377,-2.67716628709902
1708436591.3091304,-2.1410717964172363,-1.3332397651723404,-2.526566807423727,6.108981835633077,1.0173310041427612,-2.676697317753927
1708436591.31111,-2.1410999298095703,-1.3332559776357193,-2.526607338582174,6.108994948654928,1.0172852277755737,-2.6761441866504114
1708436591.3131263,-2.1410999298095703,-1.3332473796657105,-2.526607338582174,6.109011161118307,1.0173251628875732,-2.675673786793844
1708436591.3151376,-2.1410717964172363,-1.3332844537547608,-2.526635471974508,6.10903953292922,1.0173792839050293,-2.6751490275012415
1708436591.31711,-2.1410884857177734,-1.333315910106041,-2.52665621439089,6.108990537911215,1.017358422279358,-2.6745486895190638
1708436591.3191214,-2.1410675048828125,-1.333304987554886,-2.5265985170947474,6.109036314278402,1.0173778533935547,-2.6739524046527308
1708436591.3211143,-2.1410999298095703,-1.333300681119301,-2.5266552607165735,6.108986246376791,1.0173975229263306,-2.6734336058246058
1708436591.3231342,-2.1411492824554443,-1.3333036613515397,-2.5267086664782923,6.109016525536337,1.0174469947814941,-2.672847334538595
1708436591.32516,-2.141079902648926,-1.333337427382805,-2.5266836325274866,6.109015452652731,1.0173887014389038,-2.672288481389181
1708436591.3271112,-2.141119956970215,-1.3333408248475571,-2.526679340993063,6.108998167305746,1.017466425895691,-2.6716654936419886
1708436591.329117,-2.1410999298095703,-1.3332887601903458,-2.526724878941671,6.108990537911215,1.0174620151519775,-2.6710758844958704
1708436591.3311145,-2.141101360321045,-1.33333312094722,-2.526682440434591,6.109015452652731,1.0174996852874756,-2.670478169118063
1708436591.3331244,-2.1411285400390625,-1.333328829412796,-2.526666227971212,6.108937370568075,1.0175116062164307,-2.669884983693258
1708436591.3350956,-2.141112804412842,-1.3332963746837159,-2.526723925267355,6.109028446465292,1.0175188779830933,-2.669272009526388
1708436591.3370996,-2.1410999298095703,-1.3333122742227097,-2.526710812245504,6.108954775124349,1.0174938440322876,-2.6685922781573694
1708436591.339127,-2.1410927772521973,-1.333283470278122,-2.5267019907580774,6.108987319260397,1.0175254344940186,-2.6679282824145716
1708436591.3411565,-2.141119956970215,-1.333332137470581,-2.5267186800586146,6.109032141953268,1.017595648765564,-2.6673129240619105
1708436591.3431582,-2.141112804412842,-1.333292157655098,-2.5267632643329065,6.108962404518881,1.0175539255142212,-2.6666129271136683
1708436591.3451304,-2.141112804412842,-1.333361269240715,-2.5268002192126673,6.108999240189352,1.017595648765564,-2.6659088770495813
1708436591.3471508,-2.14107608795166,-1.3333559793284913,-2.5267751852618616,6.108941781311788,1.017627239227295,-2.6652684847461146
1708436591.3491457,-2.141059398651123,-1.3332639199546357,-2.5267534891711634,6.108975398331442,1.0176305770874023,-2.664496962224142
1708436591.3511362,-2.141097068786621,-1.333328829412796,-2.5268071333514612,6.108930933266439,1.017687201499939,-2.6637492815600794
1708436591.3531554,-2.141097068786621,-1.333353654747345,-2.526872221623556,6.108984100609579,1.0176546573638916,-2.663032356892721
1708436591.3551111,-2.141080379486084,-1.3333122742227097,-2.526867691670553,6.108915555268087,1.017707347869873,-2.662330214177267
1708436591.3571095,-2.1411170959472656,-1.3332950633815308,-2.5269039312945765,6.108960258751669,1.0177236795425415,-2.661522452031271
1708436591.359112,-2.141105890274048,-1.3333645921996613,-2.5268548170672815,6.108935344010153,1.0177147388458252,-2.6607893149005335
1708436591.3611045,-2.141084671020508,-1.333292157655098,-2.5269115606891077,6.108870017319479,1.0177595615386963,-2.660003964100973
1708436591.363142,-2.14107608795166,-1.333283470278122,-2.5268731752978724,6.1088751433189294,1.0177714824676514,-2.659250799809591
1708436591.3651183,-2.14105224609375,-1.3333526712707062,-2.526968304310934,6.108797180443563,1.0177748203277588,-2.6583922545062464
1708436591.3671193,-2.141080379486084,-1.3333440583995362,-2.526951853428976,6.108814584999838,1.0177901983261108,-2.657635752354757
1708436591.3691356,-2.141005754470825,-1.3333440583995362,-2.5269256273852747,6.108819949417867,1.017863392829895,-2.6568012873279017
1708436591.3711216,-2.14105224609375,-1.3333602857640763,-2.526953999196188,6.108790623932638,1.0178918838500977,-2.6560190359698694
1708436591.3731508,-2.14105224609375,-1.333327831034996,-2.5270074049579065,6.108787166863241,1.01787531375885,-2.6550939718829554
1708436591.375117,-2.140986919403076,-1.3333800298026581,-2.5270686785327356,6.108787166863241,1.0179232358932495,-2.6543315092669886
1708436591.3771253,-2.14104962348938,-1.3333843660405655,-2.527055565510885,6.108776199608602,1.0179475545883179,-2.653409783040182
1708436591.3791254,-2.1410114765167236,-1.3333681386760254,-2.5271251837359827,6.108724343567648,1.0179431438446045,-2.6525209585772913
1708436591.3811243,-2.1410160064697266,-1.3334041845849534,-2.5271077791797083,6.108733045845785,1.0180208683013916,-2.6515920797931116
1708436591.3831387,-2.1410088539123535,-1.3333919805339356,-2.527045790349142,6.108651506691732,1.0179988145828247,-2.6506357828723353
1708436591.3851235,-2.140984058380127,-1.3333559793284913,-2.527123037968771,6.108701455384054,1.0180686712265015,-2.6497398058520716
1708436591.3871372,-2.1409754753112793,-1.3333758127740403,-2.5271602312671106,6.108624446183004,1.0180798768997192,-2.6487868467914026
1708436591.3891516,-2.140944480895996,-1.3333757531693955,-2.527175251637594,6.108607876091757,1.018130898475647,-2.64783484140505
1708436591.3911204,-2.14092755317688,-1.333448277120926,-2.5271382967578333,6.108585226326742,1.0181145668029785,-2.646822992955343
1708436591.3931358,-2.1409292221069336,-1.3334041398814698,-2.5271995703326624,6.108564245491781,1.0181715488433838,-2.6459267775165003
1708436591.39512,-2.1408801078796387,-1.3334158074906846,-2.527198378239767,6.1085524437721155,1.0182536840438843,-2.645006243382589
1708436591.3971536,-2.1408393383026123,-1.3333913099816819,-2.52722675005068,6.1084927199180505,1.0182526111602783,-2.6439622084247034
1708436591.3991444,-2.1408278942108154,-1.3334406477263947,-2.5273130575763147,6.1084643481071375,1.0183334350585938,-2.643008057271139
1708436591.4011528,-2.1408286094665527,-1.3334277433208008,-2.5272954146014612,6.108452427178182,1.0183277130126953,-2.641977135335104
1708436591.4031374,-2.1408205032348633,-1.3334767383388062,-2.5272987524615687,6.108380663185873,1.0183968544006348,-2.64103871980776
1708436591.405141,-2.1407554149627686,-1.333439664249756,-2.5273268858539026,6.108324038773336,1.018388032913208,-2.640061680470602
1708436591.4071188,-2.140740394592285,-1.3334362667850037,-2.5273881594287317,6.108320820122518,1.0184732675552368,-2.639026467000143
1708436591.4091408,-2.140713691711426,-1.3334234368852158,-2.5274284521686,6.108298051148214,1.0185092687606812,-2.6380022207843226
1708436591.4111118,-2.140685558319092,-1.3334362667850037,-2.5273662249194544,6.10826991775588,1.0185825824737549,-2.636982266102926
1708436591.413123,-2.1406702995300293,-1.3334689748338242,-2.5274363199817103,6.108242618828573,1.0186222791671753,-2.6359666029559534
1708436591.4151213,-2.1406097412109375,-1.333423451786377,-2.527430836354391,6.108198153763571,1.0186370611190796,-2.634916369115011
1708436591.4171355,-2.140618324279785,-1.3334320199540635,-2.527454678212301,6.108116614609518,1.018706202507019,-2.6339176336871546
1708436591.4191158,-2.1405980587005615,-1.333399922852852,-2.527532164250509,6.108098017960348,1.0187376737594604,-2.6327946821795862
1708436591.42115,-2.140516996383667,-1.3334115159562607,-2.527580801640646,6.108013021736898,1.0187739133834839,-2.63177997270693
1708436591.4231591,-2.1404683589935303,-1.3334362667850037,-2.5275636355029505,6.1079739210899255,1.018796682357788,-2.630662266408102
1708436591.4251523,-2.1404690742492676,-1.3334362667850037,-2.5275548140155237,6.107982623368063,1.0188900232315063,-2.629523817692892
1708436591.4271488,-2.1404380798339844,-1.3333875846913834,-2.5275986830340784,6.107891309052267,1.0188974142074585,-2.628432575856344
1708436591.4291294,-2.140340566635132,-1.3334005934051056,-2.5276313463794153,6.107839333802023,1.0189334154129028,-2.6273017565356653
1708436591.4311552,-2.140328884124756,-1.3334287267974396,-2.5276599566089075,6.107774007111349,1.0190306901931763,-2.626218620930807
1708436591.4331546,-2.140346050262451,-1.3334005934051056,-2.52769118944277,6.107690202980795,1.019071102142334,-2.6250537077533167
1708436591.4351146,-2.140258312225342,-1.3333875995925446,-2.527740542088644,6.107675301819601,1.019102692604065,-2.6238797346698206
1708436591.4371412,-2.140226364135742,-1.3333423894694825,-2.527748171483175,6.107615458756246,1.0192124843597412,-2.622737471257345
1708436591.4391105,-2.140185832977295,-1.3334320497563859,-2.527788225804464,6.107555496483602,1.0191693305969238,-2.621563498173849
1708436591.4411192,-2.1401045322418213,-1.3333713871291657,-2.5278363863574427,6.107479679375448,1.0192338228225708,-2.6202614943133753
1708436591.4431145,-2.140106201171875,-1.3334041398814698,-2.527823273335592,6.10735450962142,1.0193179845809937,-2.619061533604757
1708436591.4451363,-2.140004873275757,-1.3334362369826813,-2.5278428236590784,6.107323992043295,1.0194200277328491,-2.6178322474109095
1708436591.4471226,-2.1400601863861084,-1.333383397465088,-2.527853790913717,6.107249009400167,1.01943838596344,-2.616537396107809
1708436591.4491081,-2.140019416809082,-1.3333757531693955,-2.527886692677633,6.107112157135763,1.0195270776748657,-2.615265671406881
1708436591.4511085,-2.1399269104003906,-1.333485261803009,-2.5279467741595667,6.107096659928121,1.0195633172988892,-2.614030901585714
1708436591.453127,-2.1399073600769043,-1.3334362369826813,-2.5280283133136194,6.106992471009054,1.0196638107299805,-2.612743679677145
1708436591.45511,-2.1398472785949707,-1.3334200245193024,-2.528019730244772,6.1068763611610315,1.0197031497955322,-2.611486260090963
1708436591.4571397,-2.139832019805908,-1.3334200394204636,-2.5280750433551233,6.106826174050131,1.0198242664337158,-2.610100809727804
1708436591.4591076,-2.139770269393921,-1.3334200245193024,-2.5281036535846155,6.106762873917379,1.0198843479156494,-2.6088412443744105
1708436591.4611206,-2.139699935913086,-1.3334234815886994,-2.528151575719015,6.106601106911459,1.0200344324111938,-2.607542101536886
1708436591.4631178,-2.1396591663360596,-1.3333919805339356,-2.528158489857809,6.106502401619711,1.0200437307357788,-2.6062470118152063
1708436591.4651492,-2.139570951461792,-1.3334352684072037,-2.528214756642477,6.106425988465109,1.020135521888733,-2.604908291493551
1708436591.467122,-2.139540433883667,-1.3334041398814698,-2.5283010641681116,6.106351125031271,1.0202451944351196,-2.6035972277270716
1708436591.4691074,-2.1394264698028564,-1.3333919805339356,-2.528311793004171,6.106263267784872,1.0203545093536377,-2.602227751408712
1708436591.4711373,-2.1394076347351074,-1.3334406030229111,-2.528343741093771,6.1062413332755945,1.0204715728759766,-2.6008594671832483
1708436591.4731264,-2.1392903327941895,-1.3333671551993866,-2.5284200350390833,6.106039273529806,1.02052640914917,-2.5994325319873255
1708436591.4751115,-2.1392478942871094,-1.3333843660405655,-2.5284350554095667,6.105906593590536,1.0206624269485474,-2.59802753130068
1708436591.4771056,-2.1391682624816895,-1.333408535724022,-2.528471056615011,6.105861532479086,1.0207061767578125,-2.5966528097735804
1708436591.4791207,-2.1390793323516846,-1.3334320497563859,-2.52855092683901,6.105708586960592,1.020822286605835,-2.595222775136129
1708436591.4811254,-2.1390321254730225,-1.3334234368852158,-2.528607193623678,6.105646598130026,1.0208525657653809,-2.5937698523150843
1708436591.4831061,-2.138960838317871,-1.3333887618831177,-2.5286675135241907,6.105497944145956,1.0209980010986328,-2.592294756566183
1708436591.4851532,-2.138881206512451,-1.3333800596049805,-2.528710905705587,6.105316149979391,1.021103024482727,-2.590848747883932
1708436591.4871402,-2.138763666152954,-1.333408535724022,-2.5288167635547083,6.105305301934042,1.021186113357544,-2.589240852986471
1708436591.489124,-2.1386733055114746,-1.333338589673378,-2.528823439274923,6.105103003769674,1.0213571786880493,-2.5877063910113733
1708436591.491154,-2.1386051177978516,-1.3334330481341858,-2.528902832661764,6.104975688248434,1.021427869796753,-2.586008612309591
1708436591.493145,-2.1385366916656494,-1.3333681386760254,-2.5290163199054163,6.104807722359457,1.0215973854064941,-2.584484879170553
1708436591.4951706,-2.1384694576263428,-1.3333310645869751,-2.5290969053851526,6.104672419815817,1.0216965675354004,-2.582783285771505
1708436591.497167,-2.138368844985962,-1.3333768558553238,-2.529083315526144,6.104512560158529,1.0218008756637573,-2.5811689535724085
1708436591.4991152,-2.138303279876709,-1.3333638322404404,-2.5291670004474085,6.104348528176107,1.021916151046753,-2.579602305089132
1708436591.501198,-2.13816237449646,-1.3333472919515152,-2.529275957738058,6.104286539345541,1.0220365524291992,-2.5779996554004114
1708436591.5031304,-2.138094186782837,-1.3333551448634644,-2.5293644110309046,6.104097592621603,1.0222017765045166,-2.5764413515674036
1708436591.5051138,-2.1379899978637695,-1.3333559793284913,-2.529444758092062,6.10394178608016,1.0223549604415894,-2.574799124394552
1708436591.5071461,-2.1378867626190186,-1.3333645921996613,-2.529463593159811,6.103807318001547,1.0224288702011108,-2.573181454335348
1708436591.50916,-2.1378397941589355,-1.3333854389241715,-2.529555384312765,6.103644120484152,1.0226432085037231,-2.571430031453268
1708436591.5111613,-2.1377065181732178,-1.3333570522120972,-2.529717508946554,6.103484380036154,1.0227594375610352,-2.5697174707995813
1708436591.5131688,-2.1376559734344482,-1.333279163842537,-2.5297275225268763,6.103333341866293,1.0228829383850098,-2.568028513585226
1708436591.5151312,-2.137557029724121,-1.3332877618125458,-2.5298038164721888,6.1030722735221765,1.023030161857605,-2.5663529078113
1708436591.5171497,-2.1373982429504395,-1.3333080571940918,-2.52989107767214,6.102901685028829,1.023223638534546,-2.5645392576800745
1708436591.5191185,-2.1372792720794678,-1.3332921725562592,-2.5299716631518763,6.1027506468589685,1.0233722925186157,-2.5628464857684534
1708436591.5211127,-2.1371889114379883,-1.3332388413003464,-2.5300350824939173,6.102575528412618,1.023536205291748,-2.560998503361837
1708436591.5231264,-2.137084722518921,-1.3332485270551224,-2.530151907597677,6.102419841080465,1.0236356258392334,-2.55932861963381
1708436591.525141,-2.1369900703430176,-1.3332646799138566,-2.5302327314959925,6.102176296501913,1.0238248109817505,-2.5574455896960657
1708436591.5271635,-2.1368443965911865,-1.3332887601903458,-2.530273977910177,6.102049100189962,1.023952603340149,-2.5556004683123987
1708436591.5291233,-2.136737823486328,-1.333304987554886,-2.5304036776172083,6.101767885475912,1.024125337600708,-2.553812567387716
1708436591.5311542,-2.1366217136383057,-1.3332725179246445,-2.5305236021624964,6.10162519195632,1.0243221521377563,-2.551868740712301
1708436591.533156,-2.136542320251465,-1.3332812202027817,-2.5305870215045374,6.101450192719259,1.0244994163513184,-2.5499795118915003
1708436591.5351272,-2.1363625526428223,-1.3332646799138566,-2.530736271535055,6.101259815483846,1.0246843099594116,-2.548182789479391
1708436591.5371296,-2.1362719535827637,-1.3333017540029068,-2.530816141759054,6.10101197937087,1.0248394012451172,-2.546302382146017
1708436591.5391235,-2.136086940765381,-1.3332235378078003,-2.530879084263937,6.100841152458944,1.0250117778778076,-2.544425074254171
1708436591.5411253,-2.1360116004943848,-1.3332322251847764,-2.5309916178332728,6.100580322533407,1.02520751953125,-2.5426607767688196
1708436591.543135,-2.1358799934387207,-1.3332812500051041,-2.5310962835894983,6.1003771899040125,1.0254294872283936,-2.5407291094409388
1708436591.5451078,-2.1357240676879883,-1.333203763966896,-2.5311747233020228,6.100246298104086,1.0255845785140991,-2.5388501326190394
1708436591.5471258,-2.135608196258545,-1.33320805550132,-2.5313003698932093,6.100019085198202,1.025826334953308,-2.536924425755636
1708436591.549115,-2.1354963779449463,-1.3332279485515137,-2.5314200560199183,6.099759804993429,1.0259935855865479,-2.53502065340151
1708436591.551154,-2.1353564262390137,-1.333228961830475,-2.5315359274493616,6.099516379624166,1.0262188911437988,-2.5330312887774866
1708436591.553147,-2.135193347930908,-1.3332408231547852,-2.531640354787008,6.099354135781088,1.0264184474945068,-2.5311463514911097
1708436591.5551007,-2.135049819946289,-1.333224595790245,-2.5317354838000696,6.099142181664266,1.0266319513320923,-2.529057327901022
1708436591.5571465,-2.1349334716796875,-1.3332167577794571,-2.531840149556295,6.09889970996932,1.0268036127090454,-2.527166191731588
1708436591.5591085,-2.1348116397857666,-1.3332374554923554,-2.5319884459124964,6.098672377854147,1.0270075798034668,-2.525074307118551
1708436591.56113,-2.134699821472168,-1.3331846457770844,-2.5320962111102503,6.098399746208944,1.0272165536880493,-2.522878948842184
1708436591.5631258,-2.1345558166503906,-1.333277629022934,-2.532174889241354,6.09819649437026,1.0274089574813843,-2.5208404699908655
1708436591.5651233,-2.134355306625366,-1.333200530414917,-2.5323033968554896,6.098010289459982,1.0276702642440796,-2.5186968485461634
1708436591.5671165,-2.134256362915039,-1.333204747443535,-2.5324888865100306,6.097796547203817,1.0278745889663696,-2.516592327748434
1708436591.5691097,-2.1340880393981934,-1.3331845861724396,-2.532559935246603,6.097491729050436,1.0280778408050537,-2.514563862477438
1708436591.5711138,-2.1339282989501953,-1.333176926975586,-2.532637421284811,6.097236382752218,1.0283304452896118,-2.5125330130206507
1708436591.5731227,-2.133822202682495,-1.33320905387912,-2.5328686873065394,6.096981036454,1.028596043586731,-2.510425869618551
1708436591.5751283,-2.1336770057678223,-1.333160401587822,-2.5329394976245325,6.096771228104391,1.0288441181182861,-2.5083563963519495
1708436591.577121,-2.133526563644409,-1.333176926975586,-2.533050600682394,6.096518981247701,1.0290673971176147,-2.5062690416919153
1708436591.579109,-2.1333250999450684,-1.3331560802510758,-2.533227507268087,6.096255767136373,1.029295802116394,-2.504191223775045
1708436591.5811546,-2.133174180984497,-1.3331777316382905,-2.53333551088442,6.096083032875814,1.0295482873916626,-2.501927677785055
1708436591.5831199,-2.133039951324463,-1.333201841717102,-2.5334792772876185,6.095766651421346,1.0297801494598389,-2.499753538762228
1708436591.585112,-2.1328518390655518,-1.333127961759903,-2.5335946718799036,6.095510232239523,1.0300216674804688,-2.497540060673849
1708436591.5871172,-2.132699489593506,-1.3331571531346817,-2.533759657536642,6.095227229386129,1.030327320098877,-2.495307747517721
1708436591.5891147,-2.132535457611084,-1.3330963265946885,-2.5338783899890345,6.094923007279196,1.030583381652832,-2.492976490651266
1708436591.5911033,-2.132359743118286,-1.3331330728581925,-2.5341084639178675,6.09468041637496,1.0308399200439453,-2.4907355944262903
1708436591.5931244,-2.132154703140259,-1.3330886972001572,-2.534224335347311,6.094411957054891,1.0310914516448975,-2.488474432622091
1708436591.5951216,-2.1320207118988037,-1.3331168454936524,-2.5343266169177454,6.0941130993659876,1.031376600265503,-2.486157004033224
1708436591.597125,-2.13185715675354,-1.333071456556656,-2.5345447699176233,6.0938583491142175,1.0316452980041504,-2.483924929295675
1708436591.599119,-2.1316604614257812,-1.3331453216126938,-2.5346298853503626,6.093604075699606,1.031934142112732,-2.4816954771624964
1708436591.6011727,-2.131516933441162,-1.3330853891423722,-2.5348153750049036,6.0933488486106775,1.0321940183639526,-2.4793863932238978
1708436591.6031115,-2.1313464641571045,-1.333040030007698,-2.534987513219015,6.0931105492408655,1.032457947731018,-2.4770644346820276
1708436591.6051538,-2.1311020851135254,-1.3331625324538727,-2.5351315180407923,6.0927703259284876,1.0327799320220947,-2.4748385588275355
1708436591.6071312,-2.1309173107147217,-1.3330724698356171,-2.535332266484396,6.092572438507833,1.0330040454864502,-2.4726081530200403
1708436591.6091154,-2.130786657333374,-1.3331168454936524,-2.5354271570788782,6.092208373337545,1.0333043336868286,-2.470327917729513
1708436591.611135,-2.13057541847229,-1.3331081581166764,-2.5355876127826136,6.092001783638754,1.0336018800735474,-2.4680679480182093
1708436591.6131368,-2.1304163932800293,-1.3331168454936524,-2.535710398350851,6.091722476273336,1.0338659286499023,-2.4656448999988
1708436591.61515,-2.1302008628845215,-1.3330843907645722,-2.53587514558901,6.091436373978414,1.0341460704803467,-2.4632344881640833
1708436591.617124,-2.130049228668213,-1.3330843907645722,-2.5360716024981897,6.091151702194967,1.0344345569610596,-2.46067458788027
1708436591.6191106,-2.1298327445983887,-1.3331330728581925,-2.5362070242511194,6.090836035996237,1.0347932577133179,-2.458271090184347
1708436591.6211126,-2.1296863555908203,-1.3331168454936524,-2.5363126436816614,6.090647208481588,1.0350682735443115,-2.4558141867267054
1708436591.6231275,-2.129542112350464,-1.3330681783011933,-2.5364907423602503,6.090377437859335,1.0354177951812744,-2.4533894697772425
1708436591.6251764,-2.129359006881714,-1.3330843907645722,-2.5366790930377405,6.09003626087264,1.0357097387313843,-2.451054398213522
1708436591.6271598,-2.1291427612304688,-1.3331744533828278,-2.5368710199939173,6.08978949764327,1.0360554456710815,-2.4487276713000696
1708436591.6291304,-2.128988027572632,-1.3331135374358674,-2.5370598475085657,6.089486229210653,1.0363309383392334,-2.446263376866476
1708436591.6311078,-2.1288001537323,-1.3331006181291123,-2.5371831099139612,6.089215385704794,1.0366480350494385,-2.4439237753497522
1708436591.6331966,-2.128608465194702,-1.3330930185369034,-2.537379328404562,6.08896945694045,1.0369353294372559,-2.441502873097555
1708436591.6351151,-2.1284449100494385,-1.3331125390580674,-2.5375309626208704,6.088620650559225,1.0372974872589111,-2.439120594655172
1708436591.6371136,-2.1282570362091064,-1.3330930036357422,-2.537686888371603,6.088345753937521,1.0376099348068237,-2.436626974736349
1708436591.6391275,-2.1280581951141357,-1.3331125539592286,-2.5378461519824427,6.088046777039327,1.0379507541656494,-2.434143606816427
1708436591.641116,-2.1279070377349854,-1.333063856964447,-2.538067404423849,6.087813126831808,1.0382229089736938,-2.431659762059347
1708436591.6431148,-2.12768292427063,-1.333108128314354,-2.5381982962237757,6.087518322258749,1.0385310649871826,-2.42909819284548
1708436591.6451411,-2.127519369125366,-1.3331168305924912,-2.538386885319845,6.087193238526144,1.038795828819275,-2.426602903996603
1708436591.6471338,-2.1273515224456787,-1.3331244152835389,-2.538541857396261,6.086959826737203,1.0391113758087158,-2.424095694218771
1708436591.6491237,-2.127176523208618,-1.3330962818912049,-2.538710896168844,6.0867289183433435,1.0394779443740845,-2.4216628710376185
1708436591.651126,-2.126993179321289,-1.3331409257701416,-2.538886372243063,6.086433398514547,1.0397828817367554,-2.4192522207843226
1708436591.653129,-2.126805543899536,-1.3331744980863114,-2.5391152540790003,6.086178886681356,1.0401077270507812,-2.4168925921069544
1708436591.6551218,-2.1265809535980225,-1.3331211519292374,-2.5392754713641565,6.085916030197897,1.040444016456604,-2.4144185225116175
1708436591.6571274,-2.1264102458953857,-1.333099604850151,-2.539459292088644,6.085615861206808,1.0407402515411377,-2.4120121637927454
1708436591.6591089,-2.126189947128296,-1.3331243854812165,-2.5396269003497522,6.085348713188925,1.0410771369934082,-2.409597698842184
1708436591.66115,-2.1260273456573486,-1.3330714118531723,-2.5397852102862757,6.085069167404928,1.041406273841858,-2.407262388859884
1708436591.663149,-2.1258115768432617,-1.333091915850975,-2.539994541798727,6.08481918552474,1.04172682762146,-2.404830280934469
1708436591.6651201,-2.1256518363952637,-1.3331615638783951,-2.5401535669909876,6.0845035193260095,1.042083740234375,-2.4023717085467737
