Eg3-git/Classifiers/Data Collection/u4/u4xyz5_ur3e_joint_states.csv
time,elbow_joint,shoulder_lift_joint,shoulder_pan_joint,wrist_1_joint,wrist_2_joint,wrist_3_joint
1708436647.7249212,-2.1408886909484863,-1.333539680843689,-2.5273526350604456,6.108930933266439,1.0185004472732544,-2.28974420229067
1708436647.7269034,-2.1408817768096924,-1.3334830862334748,-2.5273059050189417,6.108930933266439,1.0184706449508667,-2.289764944707052
1708436647.7288857,-2.1408300399780273,-1.3335189384273072,-2.5273223559008997,6.108947145729818,1.0185338258743286,-2.2897575537311
1708436647.730898,-2.140930414199829,-1.333527759914734,-2.5273223559008997,6.1089796898658655,1.0185339450836182,-2.289790455495016
1708436647.732902,-2.1408932209014893,-1.333507017498352,-2.5273059050189417,6.108930933266439,1.0184632539749146,-2.289774004613058
1708436647.7348855,-2.1408841609954834,-1.3335320812514802,-2.527339045201437,6.108931052475729,1.0185294151306152,-2.289786163960592
1708436647.7369194,-2.140918254852295,-1.333527759914734,-2.527350966130392,6.108983981400289,1.0185004472732544,-2.2897453943835657
1708436647.7388916,-2.1408886909484863,-1.33349101365123,-2.527355496083395,6.108999240189352,1.0185048580169678,-2.289769474660055
1708436647.7408864,-2.1408300399780273,-1.333527759914734,-2.5273223559008997,6.108987319260397,1.01846182346344,-2.289769474660055
1708436647.7428849,-2.1408560276031494,-1.333530769949295,-2.5273526350604456,6.10896776893691,1.0185004472732544,-2.289748732243673
1708436647.7448783,-2.140963077545166,-1.3335484129241486,-2.5273481051074427,6.1089515564735315,1.0185158252716064,-2.289790455495016
1708436647.7469242,-2.140913486480713,-1.333507017498352,-2.5273194948779505,6.108963477402487,1.018496036529541,-2.289736572896139
1708436647.7489417,-2.1408932209014893,-1.333527759914734,-2.5273569265948694,6.1089515564735315,1.0185338258743286,-2.28974420229067
1708436647.7509136,-2.1408798694610596,-1.333539680843689,-2.5273268858539026,6.108931052475729,1.018515944480896,-2.289786163960592
1708436647.752893,-2.1409249305725098,-1.3335365814021607,-2.5273104349719446,6.108960258751669,1.0185383558273315,-2.2897606531726282
1708436647.7548878,-2.140904664993286,-1.3334787648967286,-2.5273359457599085,6.108923065453329,1.0184869766235352,-2.289802376423971
1708436647.7569017,-2.1408638954162598,-1.3335352700999756,-2.5272777716266077,6.108935344010153,1.0184825658798218,-2.289753023778097
1708436647.7589023,-2.140913486480713,-1.3335563403419037,-2.5272985140429896,6.108923065453329,1.0185785293579102,-2.2898266951190394
1708436647.7608895,-2.140925884246826,-1.3334997457316895,-2.5273223559008997,6.108914363175192,1.018496036529541,-2.289774004613058
1708436647.7628906,-2.140900135040283,-1.3334743541530152,-2.5273481051074427,6.108963477402487,1.018496036529541,-2.289736572896139
1708436647.7648928,-2.140930414199829,-1.3335246306708832,-2.5273435751544397,6.108970987587728,1.0185322761535645,-2.289794985448019
1708436647.7668974,-2.1408886909484863,-1.3335607510856171,-2.5273059050189417,6.108975398331442,1.0184677839279175,-2.2897575537311
1708436647.7689114,-2.140925884246826,-1.3335100275329133,-2.527273241673605,6.108914363175192,1.0185203552246094,-2.2897782961474817
1708436647.7709286,-2.1408886909484863,-1.3334997457316895,-2.5273194948779505,6.108939635544576,1.018527865409851,-2.2897289435016077
1708436647.7729752,-2.1408772468566895,-1.3335026067546387,-2.5272701422320765,6.108972179680624,1.01846182346344,-2.289764944707052
1708436647.7749836,-2.14090895652771,-1.3335484129241486,-2.5272985140429896,6.108927476197042,1.0184677839279175,-2.289753023778097
1708436647.7769196,-2.1408772468566895,-1.333539680843689,-2.5273104349719446,6.108964669495382,1.0184632539749146,-2.289736572896139
1708436647.7789688,-2.1408727169036865,-1.333530769949295,-2.5273314158069056,6.108992802887716,1.0184885263442993,-2.289769474660055
1708436647.7808986,-2.140904664993286,-1.3335157495788117,-2.5273481051074427,6.108930933266439,1.0184661149978638,-2.289740864430563
1708436647.7828865,-2.1408798694610596,-1.3335320812514802,-2.5273526350604456,6.108873235970297,1.0184885263442993,-2.289724651967184
1708436647.7849295,-2.1408798694610596,-1.3335100275329133,-2.5273314158069056,6.108931767731466,1.0185004472732544,-2.2897828261004847
1708436647.786887,-2.1408753395080566,-1.3335352700999756,-2.527339045201437,6.108972179680624,1.018496036529541,-2.2897782961474817
1708436647.7889242,-2.1408560276031494,-1.333530769949295,-2.5273149649249476,6.108954894333639,1.018496036529541,-2.2897782961474817
1708436647.790899,-2.1409170627593994,-1.33346243322406,-2.5272656122790735,6.108948337822714,1.0184706449508667,-2.289712731038229
1708436647.792887,-2.1408638954162598,-1.333482102756836,-2.5272985140429896,6.108955848007955,1.0184885263442993,-2.2897499243365687
1708436647.7949474,-2.140897512435913,-1.3335474294475098,-2.5273104349719446,6.1089515564735315,1.0185472965240479,-2.289799515401022
1708436647.7969093,-2.140902280807495,-1.3334997457316895,-2.5273075739489954,6.10896776893691,1.0184706449508667,-2.2897289435016077
1708436647.7988908,-2.140859365463257,-1.3335114282420655,-2.5273359457599085,6.10896776893691,1.018467664718628,-2.289703671132223
1708436647.8009224,-2.1408727169036865,-1.3334743839553376,-2.5273268858539026,6.108898150711813,1.0184555053710938,-2.289736572896139
1708436647.8028758,-2.1409473419189453,-1.333507017498352,-2.5273314158069056,6.108914482384481,1.0184885263442993,-2.2897709051715296
1708436647.8049188,-2.140900135040283,-1.3335114282420655,-2.5272911230670374,6.108930933266439,1.0184721946716309,-2.2897754351245325
1708436647.8069003,-2.1408603191375732,-1.33349101365123,-2.5272939840899866,6.10894404628829,1.0184346437454224,-2.2897170225726526
1708436647.8089106,-2.1408424377441406,-1.3335189384273072,-2.5273075739489954,6.108927476197042,1.0184797048568726,-2.2897916475879114
1708436647.8109045,-2.140904664993286,-1.3335352700999756,-2.5273030439959925,6.108948337822714,1.0184690952301025,-2.2897215525256556
1708436647.8129184,-2.1408886909484863,-1.3334743541530152,-2.5273149649249476,6.108988392144003,1.0184767246246338,-2.2897499243365687
1708436647.814894,-2.1409382820129395,-1.3335157495788117,-2.5272865931140345,6.108905780106344,1.0184526443481445,-2.2897005716906946
1708436647.816878,-2.1409170627593994,-1.3334699434093018,-2.5273121039019983,6.108968961029806,1.0184721946716309,-2.2897334734546106
1708436647.8188927,-2.1408560276031494,-1.3335440915874024,-2.5273285547839563,6.108931052475729,1.0184437036514282,-2.2897468248950403
1708436647.8208988,-2.1409125328063965,-1.3334954243949433,-2.5273104349719446,6.108931767731466,1.0184632539749146,-2.2896886507617396
1708436647.822899,-2.1408772468566895,-1.3334536117366333,-2.5273001829730433,6.108935344010153,1.0184223651885986,-2.2896347681628626
1708436647.824877,-2.1408469676971436,-1.333482102756836,-2.5273194948779505,6.10894404628829,1.018415093421936,-2.2897020022021692
1708436647.8268824,-2.14090895652771,-1.333507017498352,-2.5272775332080286,6.108955848007955,1.0184240341186523,-2.2897260824786585
1708436647.8288934,-2.1408727169036865,-1.3335189384273072,-2.5272775332080286,6.1089678881462,1.0184481143951416,-2.2896764914142054
1708436647.8308895,-2.1409382820129395,-1.3334787648967286,-2.5273075739489954,6.108905780106344,1.0183864831924438,-2.289755646382467
1708436647.8329067,-2.140930414199829,-1.3335320812514802,-2.5272820631610315,6.108976590424337,1.018381953239441,-2.2896974722491663
1708436647.8348916,-2.1408727169036865,-1.3334954243949433,-2.5272627512561243,6.108923065453329,1.0184481143951416,-2.289710823689596
1708436647.8368819,-2.1408603191375732,-1.3335114282420655,-2.5272956530200403,6.10890673378066,1.018399953842163,-2.289644781743185
1708436647.8389082,-2.1408867835998535,-1.3334981066039582,-2.5273359457599085,6.108931052475729,1.0184118747711182,-2.289666000996725
1708436647.8408985,-2.1409428119659424,-1.333527759914734,-2.5273030439959925,6.108959185868063,1.0184448957443237,-2.289628330861227
1708436647.8429153,-2.140900135040283,-1.333530769949295,-2.5272865931140345,6.108939635544576,1.0184375047683716,-2.2896626631366175
1708436647.8449128,-2.140834331512451,-1.333507017498352,-2.5272701422320765,6.10890685298995,1.018399953842163,-2.2896419207202356
1708436647.8469417,-2.1408841609954834,-1.3335396957448502,-2.527304712926046,6.108914482384481,1.0183593034744263,-2.2896133104907435
1708436647.8489153,-2.1409125328063965,-1.3335563403419037,-2.5273030439959925,6.108963477402487,1.018376111984253,-2.2896044890033167
1708436647.8508916,-2.1408727169036865,-1.3335233491710206,-2.5272610823260706,6.108915555268087,1.0183806419372559,-2.2896297613727015
1708436647.8529391,-2.140902280807495,-1.3335100275329133,-2.5273121039019983,6.108976471215048,1.0183337926864624,-2.2896252314196985
1708436647.8548868,-2.1408560276031494,-1.333527759914734,-2.5273075739489954,6.10894404628829,1.0183684825897217,-2.2896087805377405
1708436647.8569245,-2.140913486480713,-1.3335277152112504,-2.5272911230670374,6.108959185868063,1.0183639526367188,-2.2896087805377405
1708436647.8588989,-2.140904664993286,-1.3334997308305283,-2.5273450056659144,6.109012234001913,1.018356204032898,-2.2896133104907435
1708436647.860891,-2.1408469676971436,-1.3335114282420655,-2.5272956530200403,6.108957040100851,1.0183277130126953,-2.2895804087268274
1708436647.8629372,-2.1408817768096924,-1.3334954243949433,-2.5273121039019983,6.10893868187026,1.0183444023132324,-2.2895847002612513
1708436647.8649023,-2.1408956050872803,-1.3334866029075165,-2.5272582213031214,6.108947264939108,1.0183277130126953,-2.2896178404437464
1708436647.866899,-2.1409080028533936,-1.33349101365123,-2.5272536913501185,6.108955848007955,1.0183157920837402,-2.2896552721606653
1708436647.8688855,-2.140904664993286,-1.3335320812514802,-2.5273526350604456,6.108991610794821,1.018290400505066,-2.2895517984973353
1708436647.8708785,-2.1408753395080566,-1.3335484129241486,-2.5272865931140345,6.108983981400289,1.0183740854263306,-2.289572779332296
1708436647.872944,-2.1409125328063965,-1.3334743541530152,-2.5273030439959925,6.108926641732015,1.0182703733444214,-2.28962213197817
1708436647.8749964,-2.1409125328063965,-1.3334954243949433,-2.5272536913501185,6.10896776893691,1.0183202028274536,-2.289609972630636
1708436647.8769553,-2.1408932209014893,-1.3334954243949433,-2.5272582213031214,6.109004604607382,1.0183038711547852,-2.2895849386798304
1708436647.8788939,-2.1409382820129395,-1.3335157197764893,-2.527304712926046,6.108942973404684,1.0182994604110718,-2.2896011511432093
1708436647.8808997,-2.140904664993286,-1.3335440915874024,-2.5273194948779505,6.108976471215048,1.018357753753662,-2.289572779332296
1708436647.8829396,-2.140900135040283,-1.3335320514491578,-2.5272746721850794,6.108975398331442,1.018357753753662,-2.289607111607687
1708436647.8848913,-2.1409213542938232,-1.3335233491710206,-2.5272536913501185,6.108923065453329,1.0182950496673584,-2.2895639578448694
1708436647.8869052,-2.1408886909484863,-1.3335563403419037,-2.527233902608053,6.108955967217245,1.0182875394821167,-2.289556328450338
1708436647.8888896,-2.140900135040283,-1.3334743690541764,-2.5272837320910853,6.108935344010153,1.0183292627334595,-2.2896116415606897
1708436647.8908796,-2.1408841609954834,-1.3335233491710206,-2.527250353490011,6.108959185868063,1.0183038711547852,-2.289577309285299
1708436647.892908,-2.140904664993286,-1.3335157644799729,-2.5273166338550013,6.109000313072958,1.0182839632034302,-2.289602581654684
1708436647.8948855,-2.1409037113189697,-1.3335396510413666,-2.527321163808004,6.1089504835899255,1.018312931060791,-2.289590660725729
1708436647.8968832,-2.14090895652771,-1.3335202497294922,-2.5272536913501185,6.108988392144003,1.0182749032974243,-2.289581839238302
1708436647.8988888,-2.1409497261047363,-1.3335396659425278,-2.527250353490011,6.108963477402487,1.018301010131836,-2.289609972630636
1708436647.9008822,-2.1409428119659424,-1.3335440915874024,-2.527254883443014,6.108971106797018,1.0182632207870483,-2.289548699055807
1708436647.9029074,-2.140904664993286,-1.3334699434093018,-2.5272672812091272,6.108971106797018,1.0182795524597168,-2.289527956639425
1708436647.9048972,-2.1408638954162598,-1.3335086566260834,-2.52727181116213,6.108972179680624,1.0182795524597168,-2.289557758961813
1708436647.9068978,-2.1409542560577393,-1.3334253591350098,-2.527285401021139,6.108996021538534,1.018301010131836,-2.289532486592428
1708436647.9089,-2.140900135040283,-1.3335233491710206,-2.527259413396017,6.108991610794821,1.0182749032974243,-2.289527956639425
1708436647.9108868,-2.1408841609954834,-1.3334830862334748,-2.527254883443014,6.108959185868063,1.0182467699050903,-2.289536778126852
1708436647.9128876,-2.1408798694610596,-1.33350424588237,-2.527254883443014,6.1089796898658655,1.0182795524597168,-2.289565149937765
1708436647.914877,-2.1409170627593994,-1.333490939145424,-2.527210060750143,6.108935224800863,1.0182632207870483,-2.289532486592428
1708436647.9168925,-2.140904664993286,-1.333527759914734,-2.52726394334902,6.10896776893691,1.018301010131836,-2.289532486592428
1708436647.9188979,-2.14090895652771,-1.3334997457316895,-2.5272355715381067,6.108987319260397,1.018288493156433,-2.289541308079855
1708436647.9208786,-2.1409170627593994,-1.3335277450135727,-2.5272520224200647,6.108974206238546,1.01826012134552,-2.289532486592428
1708436647.9229171,-2.1408708095550537,-1.3334830415299912,-2.5271740595446985,6.108947264939108,1.018272042274475,-2.289520327244894
1708436647.9248903,-2.1409451961517334,-1.3335113686374207,-2.527175490056173,6.108999240189352,1.018264651298523,-2.28955322900881
1708436647.9269416,-2.1409125328063965,-1.3335246604732056,-2.527159039174215,6.108971106797018,1.018222689628601,-2.289503876362936
1708436647.9288876,-2.140900135040283,-1.3334997457316895,-2.527118508015768,6.1090078232581995,1.018264651298523,-2.2894962469684046
1708436647.9308767,-2.1409080028533936,-1.3335114282420655,-2.527135197316305,6.109019863396444,1.0182809829711914,-2.2895291487323206
1708436647.9329019,-2.140859365463257,-1.3335320961526413,-2.527142588292257,6.108975398331442,1.0183054208755493,-2.289520327244894
1708436647.9348752,-2.1408932209014893,-1.3335453879884263,-2.527160708104269,6.108954775124349,1.0182271003723145,-2.289536778126852
1708436647.9368994,-2.1409213542938232,-1.333536521797516,-2.527196709309713,6.108975398331442,1.0182304382324219,-2.2895458380328577
1708436647.9388976,-2.1409170627593994,-1.3335484129241486,-2.527126137410299,6.108959185868063,1.018272042274475,-2.2895591894732874
1708436647.9408681,-2.1409125328063965,-1.3335397255471726,-2.527130667363302,6.10901557186202,1.018264651298523,-2.2895217577563685
1708436647.9428892,-2.1409125328063965,-1.3335069429925461,-2.527163569127218,6.108991610794821,1.01826012134552,-2.2895336786853235
1708436647.9448767,-2.1409170627593994,-1.3335157197764893,-2.52714711824526,6.108926641732015,1.0182632207870483,-2.2895095984088343
1708436647.9468844,-2.1409294605255127,-1.3335529130748291,-2.527142588292257,6.108987200051107,1.0182512998580933,-2.2894752661334437
1708436647.948915,-2.1409714221954346,-1.3334875863841553,-2.527172629033224,6.1089796898658655,1.0182853937149048,-2.2894588152514856
1708436647.950871,-2.140957832336426,-1.3334788096002121,-2.527138058339254,6.108971106797018,1.0182557106018066,-2.2894602457629603
1708436647.9529111,-2.1409125328063965,-1.3335144084743042,-2.527151648198263,6.108999240189352,1.0182182788848877,-2.289530579243795
1708436647.9549022,-2.1409337520599365,-1.3335026067546387,-2.5272133986102503,6.1089504835899255,1.0182512998580933,-2.289501969014303
1708436647.9569342,-2.140900135040283,-1.3334654432586213,-2.527163569127218,6.108999240189352,1.0182271003723145,-2.289497677479879
1708436647.9589005,-2.1409213542938232,-1.3334997159293671,-2.527130667363302,6.108976471215048,1.0182809829711914,-2.2895217577563685
1708436647.9608912,-2.1409125328063965,-1.3334997755340119,-2.527104918156759,6.108991610794821,1.0181896686553955,-2.289530579243795
1708436647.9629023,-2.140900135040283,-1.3335246604732056,-2.527126137410299,6.108992802887716,1.0182197093963623,-2.2895336786853235
1708436647.96489,-2.1408867835998535,-1.333552898173668,-2.527151648198263,6.108987319260397,1.0182781219482422,-2.2894886175738733
1708436647.9668937,-2.1408820152282715,-1.3334954243949433,-2.527118508015768,6.109027612000265,1.0182527303695679,-2.2894931475268763
1708436647.968894,-2.1408913135528564,-1.3334997457316895,-2.527142588292257,6.1089796898658655,1.0182316303253174,-2.2895260492907923
1708436647.970867,-2.1409294605255127,-1.3334910434535523,-2.527151648198263,6.108946192055502,1.0182809829711914,-2.289497677479879
1708436647.9729104,-2.1409249305725098,-1.3334981066039582,-2.527109448109762,6.108963477402487,1.0182063579559326,-2.289485518132345
1708436647.9749134,-2.1408841609954834,-1.333536521797516,-2.527130667363302,6.108995902329244,1.0182557106018066,-2.2895095984088343
1708436647.9769342,-2.1408956050872803,-1.3335114133409043,-2.52714711824526,6.108971106797018,1.0182483196258545,-2.2894886175738733
1708436647.9789038,-2.1408638954162598,-1.3334743839553376,-2.527151648198263,6.108976471215048,1.0182393789291382,-2.2894602457629603
1708436647.980881,-2.1409497261047363,-1.3334535968354722,-2.527123037968771,6.1089796898658655,1.0182512998580933,-2.2894931475268763
1708436647.9828908,-2.1409213542938232,-1.3334997159293671,-2.527109448109762,6.109036314278402,1.0182349681854248,-2.289464537297384
1708436647.9848838,-2.1408910751342773,-1.333524615769722,-2.527100388203756,6.108975398331442,1.01826012134552,-2.2894511858569544
1708436647.9868927,-2.1409080028533936,-1.3335233491710206,-2.52714711824526,6.108966815262594,1.0182557106018066,-2.2894721666919153
1708436647.988881,-2.140915870666504,-1.3334997457316895,-2.527126137410299,6.108983027725973,1.0182527303695679,-2.2894602457629603
1708436647.990884,-2.1409213542938232,-1.333483101134636,-2.5271921793567103,6.1089666960533044,1.0182271003723145,-2.2894886175738733
1708436647.9928865,-2.140904664993286,-1.3335320961526413,-2.527154509221212,6.1090818522270105,1.0182063579559326,-2.2894557158099573
1708436647.9949045,-2.1409542560577393,-1.3334997308305283,-2.5271499792682093,6.1090407250221155,1.018222689628601,-2.2894676367389124
1708436647.9968991,-2.1408956050872803,-1.3335572642138978,-2.527175490056173,6.109000313072958,1.018215298652649,-2.289480988179342
1708436647.9989135,-2.1409037113189697,-1.3335157197764893,-2.527175490056173,6.10901557186202,1.0182437896728516,-2.2894182840930384
1708436648.0008779,-2.1408913135528564,-1.3334504824927826,-2.5271454493152063,6.108987319260397,1.018215298652649,-2.289480988179342
1708436648.002883,-2.1409213542938232,-1.3334910434535523,-2.527196709309713,6.108987319260397,1.0182360410690308,-2.2894437948810022
1708436648.004883,-2.1409451961517334,-1.3334624481252213,-2.5271454493152063,6.108922230988302,1.0182483196258545,-2.289469067250387
1708436648.0068924,-2.1409249305725098,-1.3334712398103257,-2.5271289984332483,6.109007942467489,1.0182781219482422,-2.289485518132345
1708436648.0089285,-2.1409037113189697,-1.3335157346776505,-2.527154509221212,6.109045016556539,1.0182557106018066,-2.289464537297384
1708436648.0108814,-2.1409249305725098,-1.3335396659425278,-2.527175490056173,6.109000313072958,1.0182316303253174,-2.289457146321432
1708436648.0129123,-2.1409249305725098,-1.333527759914734,-2.527175490056173,6.1089796898658655,1.0182271003723145,-2.289464537297384
1708436648.0148928,-2.140925884246826,-1.333458037381508,-2.527156178151266,6.109028446465292,1.01826012134552,-2.2894392649279993
1708436648.0168846,-2.140900135040283,-1.3334865880063553,-2.52717096010317,6.108962404518881,1.01826012134552,-2.289448324834005
1708436648.0189075,-2.1409213542938232,-1.33348302662883,-2.527175490056173,6.109012234001913,1.0182557106018066,-2.2894437948810022
1708436648.0208912,-2.1408638954162598,-1.3335114133409043,-2.52717096010317,6.108942854195394,1.018222689628601,-2.289497677479879
1708436648.0229309,-2.1408956050872803,-1.3334699434093018,-2.5271921793567103,6.108979570656576,1.0182181596755981,-2.289513889943258
1708436648.0248852,-2.1409213542938232,-1.3335441064885636,-2.527159039174215,6.108975398331442,1.0182483196258545,-2.289476458226339
1708436648.02689,-2.1409337520599365,-1.3335157346776505,-2.527104918156759,6.108941662102499,1.0182393789291382,-2.289476458226339
1708436648.0289104,-2.140900135040283,-1.3335528683713456,-2.527159039174215,6.109003531723776,1.0182602405548096,-2.289489809666769
1708436648.030896,-2.1409337520599365,-1.3335246008685608,-2.527163569127218,6.10901557186202,1.018206238746643,-2.2894824186908167
1708436648.0328875,-2.1409294605255127,-1.33350424588237,-2.527175490056173,6.108987319260397,1.018264651298523,-2.289457146321432
1708436648.0348969,-2.1408956050872803,-1.3334997308305283,-2.5271289984332483,6.108991610794821,1.0182483196258545,-2.289457146321432
1708436648.0368848,-2.1409249305725098,-1.3334503781846543,-2.527154509221212,6.109056937485494,1.0182271003723145,-2.289431635533468
1708436648.0388927,-2.1409318447113037,-1.333478794699051,-2.527180020009176,6.109007942467489,1.0182393789291382,-2.28947359720339
1708436648.0409067,-2.1408798694610596,-1.3334963780692597,-2.527163569127218,6.109045016556539,1.0182483196258545,-2.289485518132345
1708436648.0428796,-2.1408956050872803,-1.3334800016931077,-2.52717096010317,6.108971106797018,1.0182483196258545,-2.289497677479879
1708436648.0449157,-2.140904664993286,-1.3335201752236863,-2.5271335283862513,6.108946072846212,1.018222689628601,-2.289497677479879
1708436648.0468946,-2.1409213542938232,-1.3334756654552002,-2.5271125475512903,6.109016525536337,1.018272042274475,-2.289511028920309
1708436648.0488994,-2.1409382820129395,-1.3334954392961045,-2.5271876494037073,6.108986246376791,1.0182393789291382,-2.289457146321432
1708436648.0509052,-2.1409294605255127,-1.3334386211684723,-2.5271831194507044,6.109024154930868,1.0182393789291382,-2.28947359720339
1708436648.0528917,-2.1408913135528564,-1.3334997457316895,-2.5271409193622034,6.108994948654928,1.0182809829711914,-2.289480988179342
1708436648.0548825,-2.1408913135528564,-1.3335026067546387,-2.5271619001971644,6.108963477402487,1.0182483196258545,-2.28941518465151
1708436648.056894,-2.1409451961517334,-1.3335114431432267,-2.5271619001971644,6.108983027725973,1.018264651298523,-2.289452616368429
1708436648.0588903,-2.1408956050872803,-1.3334830415299912,-2.52717096010317,6.108971106797018,1.0182585716247559,-2.289513889943258
1708436648.060905,-2.1409125328063965,-1.3334340465119858,-2.527138058339254,6.1090078232581995,1.0182557106018066,-2.28947359720339
1708436648.0628774,-2.1409249305725098,-1.333492026930191,-2.5271921793567103,6.108994948654928,1.0182348489761353,-2.289489809666769
1708436648.0649047,-2.1408913135528564,-1.3335233640721817,-2.52717096010317,6.1089504835899255,1.0182512998580933,-2.289485518132345
1708436648.066877,-2.1408913135528564,-1.3335189533284684,-2.527138058339254,6.108971106797018,1.0182512998580933,-2.289497677479879
1708436648.0688963,-2.1408727169036865,-1.3335114282420655,-2.5271998087512415,6.109008896141805,1.0182585716247559,-2.289480988179342
1708436648.0708783,-2.1409428119659424,-1.3334580671838303,-2.5271454493152063,6.108975398331442,1.0182468891143799,-2.289476458226339
1708436648.0729053,-2.1409080028533936,-1.3334997457316895,-2.5271740595446985,6.108991610794821,1.0182557106018066,-2.289506498967306
1708436648.074913,-2.1409125328063965,-1.3334997457316895,-2.5272088686572474,6.108971106797018,1.0182965993881226,-2.289506498967306
1708436648.0769424,-2.1409170627593994,-1.3335277450135727,-2.5272117296801966,6.1089796898658655,1.0182874202728271,-2.289448324834005
1708436648.0789096,-2.1408841609954834,-1.3335202050260087,-2.5271831194507044,6.1089786169822595,1.018301010131836,-2.289440457020895
1708436648.0809069,-2.14090895652771,-1.3335114282420655,-2.5271740595446985,6.108999359398641,1.0182541608810425,-2.289464537297384
1708436648.0828881,-2.1409213542938232,-1.3335042756846924,-2.5271998087512415,6.1090407250221155,1.0182512998580933,-2.289469067250387
1708436648.0849264,-2.1409080028533936,-1.3335365515998383,-2.5272207895862024,6.108996021538534,1.018312931060791,-2.289501969014303
1708436648.0868802,-2.1408913135528564,-1.3335202199271698,-2.5272043387042444,6.108927476197042,1.0183247327804565,-2.28947359720339
1708436648.0889144,-2.1408424377441406,-1.333459274177887,-2.5271695295916956,6.1089796898658655,1.01829195022583,-2.2895425001727503
1708436648.0908847,-2.1409037113189697,-1.3334624630263825,-2.5271876494037073,6.1089796898658655,1.0183366537094116,-2.289469067250387
1708436648.0928879,-2.1408798694610596,-1.3334997606328507,-2.5271998087512415,6.109012234001913,1.0183457136154175,-2.289448324834005
1708436648.0949187,-2.1408796310424805,-1.3335157346776505,-2.5271573702441614,6.109003650933065,1.0183202028274536,-2.2894778887378138
1708436648.0968976,-2.140900135040283,-1.3334997457316895,-2.5272491613971155,6.1089786169822595,1.0183038711547852,-2.2894778887378138
1708436648.0988808,-2.1409213542938232,-1.3334875863841553,-2.5272207895862024,6.108930933266439,1.0183038711547852,-2.289427105580465
1708436648.1008918,-2.1408956050872803,-1.3334787350944062,-2.5271907488452356,6.108983981400289,1.0183231830596924,-2.289469067250387
1708436648.1028762,-2.1408727169036865,-1.3334997308305283,-2.5271619001971644,6.108970987587728,1.0183696746826172,-2.289457146321432
1708436648.1049006,-2.1408913135528564,-1.3335365515998383,-2.5271528402911585,6.1089504835899255,1.0183398723602295,-2.289452616368429
1708436648.1068778,-2.140904664993286,-1.333495394592621,-2.5271952787982386,6.108942854195394,1.0183517932891846,-2.289461676274435
1708436648.108897,-2.1408638954162598,-1.3335202050260087,-2.5272355715381067,6.108955848007955,1.0183517932891846,-2.289522711430685
1708436648.110878,-2.1409215927124023,-1.3335202199271698,-2.5271785894977015,6.108991610794821,1.018302321434021,-2.289489809666769
1708436648.1128888,-2.140859365463257,-1.33350424588237,-2.5271998087512415,6.1089223501975916,1.0183517932891846,-2.289440457020895
1708436648.1148694,-2.140859365463257,-1.3334953647902985,-2.527214590703146,6.108946192055502,1.0183851718902588,-2.289489809666769
1708436648.1168678,-2.1408817768096924,-1.3334963780692597,-2.5271907488452356,6.108987319260397,1.0183717012405396,-2.2894449869738978
1708436648.1188939,-2.1408727169036865,-1.3334253591350098,-2.527231041585104,6.108963477402487,1.0183594226837158,-2.289469067250387
1708436648.1208742,-2.1408886909484863,-1.3335365515998383,-2.52726394334902,6.109028446465292,1.0184016227722168,-2.2894437948810022
1708436648.1229136,-2.1409337520599365,-1.3335189682296296,-2.5272401014911097,6.109004604607382,1.0184043645858765,-2.289457146321432
1708436648.1248834,-2.1408638954162598,-1.3335070323995133,-2.527201000844137,6.108966815262594,1.0183717012405396,-2.289501969014303
1708436648.1269224,-2.140913486480713,-1.3334875863841553,-2.5273166338550013,6.109003531723776,1.018388032913208,-2.2894778887378138
1708436648.1288908,-2.140859365463257,-1.3335409474423905,-2.5272672812091272,6.108996021538534,1.0184494256973267,-2.289427105580465
1708436648.1308837,-2.1408603191375732,-1.3335070622018357,-2.5273194948779505,6.1088939783866785,1.0184240341186523,-2.2894602457629603
1708436648.1328967,-2.1408913135528564,-1.3334954541972657,-2.5273450056659144,6.109007942467489,1.0184375047683716,-2.2894931475268763
1708436648.1348758,-2.1409339904785156,-1.3334997308305283,-2.5273001829730433,6.108987319260397,1.0183955430984497,-2.289485279713766
1708436648.1368797,-2.140904664993286,-1.333495409493782,-2.5273526350604456,6.1089515564735315,1.0184162855148315,-2.289469067250387
1708436648.138893,-2.14090895652771,-1.3334788096002121,-2.5272894541369837,6.108995902329244,1.0184252262115479,-2.289452616368429
1708436648.1408842,-2.1408772468566895,-1.3334536117366333,-2.527339045201437,6.108971106797018,1.018388032913208,-2.289469067250387
1708436648.1428957,-2.140918254852295,-1.3335483831218262,-2.5273013750659388,6.10896776893691,1.0184118747711182,-2.289534870778219
1708436648.1448965,-2.1408727169036865,-1.3335042309812088,-2.527339045201437,6.108963477402487,1.0184329748153687,-2.289501969014303
1708436648.1469278,-2.140930414199829,-1.3335202199271698,-2.5273481051074427,6.108947264939108,1.0184162855148315,-2.2894392649279993
1708436648.1488822,-2.1408932209014893,-1.3334580969861527,-2.527372185383932,6.1089223501975916,1.0184329748153687,-2.2894557158099573
1708436648.1509192,-2.1408798694610596,-1.333517463212349,-2.527329985295431,6.10896776893691,1.0184329748153687,-2.2894602457629603
1708436648.1529071,-2.1408798694610596,-1.3334997457316895,-2.527355496083395,6.108918058663168,1.018415093421936,-2.289480988179342
1708436648.1549156,-2.1408727169036865,-1.3334593635848542,-2.527339045201437,6.108983981400289,1.0184270143508911,-2.2894392649279993
1708436648.1569154,-2.1408638954162598,-1.3334756654552002,-2.5273223559008997,6.108975398331442,1.0184240341186523,-2.2894931475268763
1708436648.1588862,-2.140904664993286,-1.333523304467537,-2.527363125477926,6.108972179680624,1.0184224843978882,-2.2894931475268763
1708436648.1608813,-2.1409215927124023,-1.3334787052920838,-2.5273268858539026,6.108947264939108,1.0184481143951416,-2.289518419896261
1708436648.1628969,-2.140904664993286,-1.3335042011788865,-2.5273013750659388,6.108947264939108,1.0184481143951416,-2.289480988179342
1708436648.1648798,-2.140904664993286,-1.3335410070470353,-2.527280632649557,6.108959185868063,1.0184314250946045,-2.2895095984088343
1708436648.1669083,-2.1408956050872803,-1.333471269612648,-2.5273314158069056,6.108972179680624,1.0185095071792603,-2.289497677479879
1708436648.1689062,-2.1408817768096924,-1.3334743243506928,-2.5273314158069056,6.109000313072958,1.018484115600586,-2.289535109196798
1708436648.1709054,-2.1408863067626953,-1.3334756207517167,-2.5273104349719446,6.10896776893691,1.0185203552246094,-2.289535109196798
1708436648.1729105,-2.140913486480713,-1.333483101134636,-2.5273059050189417,6.108975398331442,1.0185502767562866,-2.289497677479879
1708436648.1749828,-2.1409294605255127,-1.3335320365479966,-2.5273013750659388,6.1090078232581995,1.0185457468032837,-2.2894843260394495
1708436648.1769845,-2.1408684253692627,-1.33349201202903,-2.5273104349719446,6.108947264939108,1.0185203552246094,-2.2895591894732874
1708436648.1789021,-2.1408727169036865,-1.3335277748158951,-2.5273149649249476,6.109041440277853,1.0185294151306152,-2.2895005385028284
1708436648.1809042,-2.14090895652771,-1.3335233193686982,-2.5273435751544397,6.109000313072958,1.0184661149978638,-2.2895425001727503
1708436648.182953,-2.1408841609954834,-1.3335085821202775,-2.527339045201437,6.10896252372817,1.0185366868972778,-2.2895291487323206
1708436648.1848974,-2.140900135040283,-1.3335365515998383,-2.527317825947897,6.109004604607382,1.0184541940689087,-2.2895425001727503
1708436648.1869128,-2.1409170627593994,-1.333508626823761,-2.527372185383932,6.1089645502860925,1.0185366868972778,-2.2895620504962366
1708436648.1889088,-2.140930414199829,-1.333557353620865,-2.527317825947897,6.10893868187026,1.0184869766235352,-2.2894886175738733
1708436648.1909034,-2.1408841609954834,-1.3334699285081406,-2.5273223559008997,6.108954775124349,1.0184825658798218,-2.2895126978503626
1708436648.192917,-2.1408638954162598,-1.3334997457316895,-2.527308766041891,6.1090208170707605,1.018515944480896,-2.2895050684558313
1708436648.1948783,-2.1408886909484863,-1.3334743839553376,-2.5273435751544397,6.109007942467489,1.0185366868972778,-2.2894962469684046
1708436648.1969025,-2.1408863067626953,-1.333480106001236,-2.527341906224386,6.108971106797018,1.0185294151306152,-2.289466444646017
1708436648.1989093,-2.1408727169036865,-1.3335085821202775,-2.527346436177389,6.1089223501975916,1.0184869766235352,-2.2895665804492396
1708436648.200898,-2.1408424377441406,-1.3335202795318146,-2.5273223559008997,6.108963477402487,1.018515944480896,-2.2895246187793177
1708436648.2029269,-2.1408560276031494,-1.3334373396686097,-2.5273059050189417,6.108893859177389,1.018560528755188,-2.2895217577563685
1708436648.2048907,-2.1408638954162598,-1.3335320514491578,-2.527355496083395,6.108942973404684,1.0185561180114746,-2.2895005385028284
1708436648.2069159,-2.1408841609954834,-1.3334910434535523,-2.5273223559008997,6.108988392144003,1.018577218055725,-2.289557758961813
1708436648.2089047,-2.1409213542938232,-1.3335409325412293,-2.5273435751544397,6.108959185868063,1.0185188055038452,-2.2895126978503626
1708436648.2108862,-2.1408684253692627,-1.3335320365479966,-2.5272894541369837,6.108963477402487,1.0185441970825195,-2.2895458380328577
1708436648.2129273,-2.1409428119659424,-1.3335202199271698,-2.527334515248434,6.108963477402487,1.0185322761535645,-2.289532486592428
1708436648.2148795,-2.1408727169036865,-1.3334712547114869,-2.527313295994894,6.108988392144003,1.018577218055725,-2.289569679890768
1708436648.2169156,-2.140859365463257,-1.3334756654552002,-2.527329985295431,6.109025227814474,1.018560528755188,-2.289557758961813
1708436648.2188985,-2.1408729553222656,-1.3334875863841553,-2.527325455342428,6.108955848007955,1.0185397863388062,-2.289598051701681
1708436648.2208998,-2.1408603191375732,-1.3334919673255463,-2.527355496083395,6.108987319260397,1.0185188055038452,-2.289577309285299
1708436648.2228951,-2.14090895652771,-1.3335086715272446,-2.527325455342428,6.108954894333639,1.018527865409851,-2.28955322900881
1708436648.2248883,-2.140930414199829,-1.333508626823761,-2.527363125477926,6.108923065453329,1.018581748008728,-2.289602581654684
1708436648.226925,-2.140906810760498,-1.333478794699051,-2.527329985295431,6.108926641732015,1.0185561180114746,-2.28962213197817
1708436648.2288888,-2.140904664993286,-1.3334756356528779,-2.527400557194845,6.1089796898658655,1.018565058708191,-2.289581839238302
1708436648.230876,-2.1408603191375732,-1.333475650554039,-2.527329985295431,6.108935224800863,1.018527865409851,-2.2895847002612513
1708436648.2329156,-2.1408841609954834,-1.3335157346776505,-2.52738863626589,6.108971106797018,1.0185441970825195,-2.289626661931173
1708436648.23487,-2.1408345699310303,-1.3335042309812088,-2.5273824373828333,6.108963477402487,1.018581748008728,-2.2895684877978724
1708436648.2368832,-2.140904664993286,-1.33350424588237,-2.5273705164538782,6.108992802887716,1.0185471773147583,-2.2895847002612513
1708436648.2388835,-2.1409382820129395,-1.333502636556961,-2.527325455342428,6.10894404628829,1.0185682773590088,-2.28962213197817
1708436648.2408733,-2.1408469676971436,-1.3334712398103257,-2.527355496083395,6.108898150711813,1.0185682773590088,-2.2895923296557825
1708436648.2428813,-2.1408638954162598,-1.3335483831218262,-2.52733284631838,6.1089515564735315,1.0185352563858032,-2.2896087805377405
1708436648.244893,-2.140897750854492,-1.3335320514491578,-2.5274081865893763,6.108995902329244,1.0185891389846802,-2.2896087805377405
1708436648.2468817,-2.1408841609954834,-1.3335365515998383,-2.527350966130392,6.109003650933065,1.0185441970825195,-2.2896087805377405
1708436648.248902,-2.1408886909484863,-1.3335320961526413,-2.527358595524923,6.108955848007955,1.0185728073120117,-2.28962213197817
1708436648.25087,-2.140913486480713,-1.3334821474603196,-2.5273705164538782,6.108983981400289,1.0185878276824951,-2.2896581331836146
1708436648.2528872,-2.1408603191375732,-1.333483101134636,-2.5273059050189417,6.108975398331442,1.018596887588501,-2.2896507422076624
1708436648.2548628,-2.1409215927124023,-1.333483101134636,-2.527339045201437,6.108955848007955,1.018571138381958,-2.2896462122546595
1708436648.2568986,-2.1409170627593994,-1.333508626823761,-2.527384106312887,6.10896776893691,1.0185682773590088,-2.289562527333395
1708436648.2588916,-2.140900135040283,-1.3335277748158951,-2.527341906224386,6.108954894333639,1.0185471773147583,-2.2896087805377405
1708436648.2609026,-2.140925884246826,-1.3335114282420655,-2.527337376271383,6.108971106797018,1.0185801982879639,-2.2895999590503138
1708436648.26292,-2.1408913135528564,-1.3335157346776505,-2.527363125477926,6.1089504835899255,1.018613576889038,-2.2896087805377405
1708436648.264912,-2.1408932209014893,-1.3335233491710206,-2.527350966130392,6.108930933266439,1.018596887588501,-2.289616409932272
1708436648.2668993,-2.1408684253692627,-1.3335114282420655,-2.527297083531515,6.108976471215048,1.0185846090316772,-2.2896207014666956
1708436648.2689133,-2.1408772468566895,-1.3335233491710206,-2.527363125477926,6.108910071640768,1.0185801982879639,-2.2896626631366175
1708436648.2708757,-2.1408727169036865,-1.3334954392961045,-2.527379576359884,6.108939635544576,1.018613576889038,-2.289578978215353
1708436648.2728944,-2.14090895652771,-1.3335365515998383,-2.527372185383932,6.10896252372817,1.018575668334961,-2.2896373907672327
1708436648.2748988,-2.1408638954162598,-1.333529071216919,-2.527384106312887,6.109016644745626,1.0185846090316772,-2.289628569279806
1708436648.2769217,-2.1408560276031494,-1.3335365963033219,-2.527334515248434,6.108947264939108,1.0185682773590088,-2.2896373907672327
1708436648.278912,-2.140904664993286,-1.3335157346776505,-2.527379576359884,6.108984100609579,1.0185426473617554,-2.289603058491842
1708436648.2809563,-2.1408727169036865,-1.3334954392961045,-2.527384106312887,6.108983981400289,1.0185728073120117,-2.289666000996725
1708436648.282897,-2.1408708095550537,-1.333523378973343,-2.527346436177389,6.108963477402487,1.0185548067092896,-2.289661471043722
1708436648.284877,-2.1409170627593994,-1.3334954392961045,-2.527363125477926,6.108995902329244,1.018571138381958,-2.289649311696188
1708436648.2868755,-2.140859365463257,-1.3335157495788117,-2.527379576359884,6.108963477402487,1.0186389684677124,-2.289649311696188
1708436648.288937,-2.140925884246826,-1.3334875863841553,-2.527334515248434,6.109003531723776,1.0186090469360352,-2.289628330861227
1708436648.2908785,-2.1408886909484863,-1.3334875863841553,-2.527391497288839,6.108935344010153,1.018592357635498,-2.2897074858294886
1708436648.292921,-2.140913486480713,-1.3334954392961045,-2.527358595524923,6.108902442246237,1.018596887588501,-2.289661471043722
1708436648.2948773,-2.1408798694610596,-1.3334997457316895,-2.527325455342428,6.10896776893691,1.0186012983322144,-2.289611879979269
1708436648.2969296,-2.1408772468566895,-1.3335320514491578,-2.527384106312887,6.1089666960533044,1.0185667276382446,-2.289668862019674
1708436648.298887,-2.1408638954162598,-1.3334461462548752,-2.527358595524923,6.109012234001913,1.018596887588501,-2.2897031942950647
1708436648.3008766,-2.1408798694610596,-1.33349201202903,-2.527355496083395,6.108963477402487,1.0186389684677124,-2.289656941090719
1708436648.3029172,-2.1409125328063965,-1.3334667843631287,-2.5273869673358362,6.108999240189352,1.0185801982879639,-2.289673391972677
1708436648.304905,-2.1409428119659424,-1.3335157346776505,-2.527400557194845,6.108954775124349,1.0185561180114746,-2.289602820073263
1708436648.3069115,-2.1408886909484863,-1.3335189533284684,-2.52738863626589,6.108972179680624,1.0185381174087524,-2.289644781743185
1708436648.308957,-2.140838861465454,-1.3334875863841553,-2.527320925389425,6.109007942467489,1.018592357635498,-2.289715353642599
1708436648.3109007,-2.1408560276031494,-1.3335277450135727,-2.527346436177389,6.109007942467489,1.0185878276824951,-2.289698664342062
1708436648.3129082,-2.1409170627593994,-1.3334580671838303,-2.52733284631838,6.108962404518881,1.018571138381958,-2.289652649556295
1708436648.314925,-2.14090895652771,-1.3334504526904603,-2.527424399052755,6.1089504835899255,1.0185801982879639,-2.289661471043722
1708436648.3169122,-2.1408753395080566,-1.3335157346776505,-2.527396027241842,6.109003531723776,1.0185878276824951,-2.2896974722491663
1708436648.3188715,-2.1408772468566895,-1.3335409474423905,-2.527341906224386,6.108995902329244,1.0185548067092896,-2.289685312901632
1708436648.3208766,-2.140934944152832,-1.3334954392961045,-2.527341906224386,6.108991610794821,1.0185891389846802,-2.2897303740130823
1708436648.322894,-2.140909194946289,-1.3334743839553376,-2.527346436177389,6.109000313072958,1.0185801982879639,-2.28976017633547
1708436648.324888,-2.14084792137146,-1.3335409474423905,-2.527355496083395,6.108995902329244,1.0185638666152954,-2.2897020022021692
1708436648.3269134,-2.1408772468566895,-1.333483101134636,-2.527400557194845,6.109024154930868,1.0186090469360352,-2.2897289435016077
1708436648.3288946,-2.1408886909484863,-1.3335070323995133,-2.527339045201437,6.108987319260397,1.0185801982879639,-2.2897632757769983
1708436648.3308856,-2.140904664993286,-1.3335277450135727,-2.527391497288839,6.108942854195394,1.0185593366622925,-2.2897499243365687
1708436648.332922,-2.140934944152832,-1.333508626823761,-2.527350966130392,6.108955848007955,1.0186058282852173,-2.2897499243365687
1708436648.3349147,-2.140925884246826,-1.33349101365123,-2.527334515248434,6.109032737999716,1.018613576889038,-2.2897575537311
1708436648.3368998,-2.1408469676971436,-1.3334997457316895,-2.527417246495382,6.109045016556539,1.0186045169830322,-2.2897453943835657
1708436648.3389544,-2.1408798694610596,-1.3335246306708832,-2.52735406557192,6.108987319260397,1.018560528755188,-2.289736572896139
1708436648.340876,-2.1408727169036865,-1.3334954243949433,-2.5273869673358362,6.109003531723776,1.0186299085617065,-2.289774004613058
1708436648.3428698,-2.1408514976501465,-1.333514468078949,-2.527339045201437,6.109011161118307,1.018571138381958,-2.2897575537311
1708436648.3449037,-2.1408727169036865,-1.3335519146970292,-2.527363125477926,6.10900245884017,1.0185682773590088,-2.289720122014181
1708436648.346873,-2.1408684253692627,-1.3334743839553376,-2.5273600260363978,6.108974325447836,1.018613576889038,-2.289762083684103
1708436648.348887,-2.1408772468566895,-1.3334997457316895,-2.527325455342428,6.109007942467489,1.018575668334961,-2.2897575537311
1708436648.3508801,-2.1409409046173096,-1.3334997457316895,-2.527391497288839,6.109003531723776,1.0186253786087036,-2.28974420229067
1708436648.3529341,-2.1408886909484863,-1.3335409474423905,-2.527372185383932,6.1090067503745935,1.0185801982879639,-2.2897396723376673
1708436648.3548765,-2.1408932209014893,-1.3335202199271698,-2.527379576359884,6.108957993775167,1.0185878276824951,-2.289769474660055
1708436648.3568695,-2.140900135040283,-1.3334954392961045,-2.527367655430929,6.108987319260397,1.0185667276382446,-2.289799515401022
1708436648.3589187,-2.1408956050872803,-1.3335202199271698,-2.5273600260363978,6.1090197441871545,1.0185878276824951,-2.2897771040545862
1708436648.3608716,-2.1408798694610596,-1.3335320514491578,-2.5273659865008753,6.108937370568075,1.018571138381958,-2.289786163960592
1708436648.3628824,-2.1408684253692627,-1.33349101365123,-2.527363125477926,6.109032022743978,1.018537998199463,-2.289814297352926
1708436648.3649316,-2.1408560276031494,-1.333526389007904,-2.527350966130392,6.109080064087667,1.0185878276824951,-2.289769474660055
1708436648.3668969,-2.140897512435913,-1.3335483831218262,-2.527375046406881,6.1091240523155115,1.0185834169387817,-2.289774004613058
1708436648.3689275,-2.1408886909484863,-1.3335233491710206,-2.527346436177389,6.1091275093849084,1.0186045169830322,-2.2897771040545862
1708436648.3708858,-2.1408708095550537,-1.3334875863841553,-2.527341906224386,6.109086382180013,1.018592357635498,-2.2897847334491175
1708436648.3729126,-2.14090895652771,-1.3334624481252213,-2.5273869673358362,6.109163391381063,1.0186179876327515,-2.289798084889547
1708436648.3748891,-2.140900135040283,-1.3335277450135727,-2.527396027241842,6.109117734223165,1.0185878276824951,-2.289764944707052
1708436648.377034,-2.1408753395080566,-1.3334743541530152,-2.527320925389425,6.109097111016073,1.0185878276824951,-2.2897561232196253
1708436648.3790574,-2.1408841609954834,-1.3335409474423905,-2.527375046406881,6.109134065895834,1.0186179876327515,-2.28983980814089
1708436648.3809009,-2.1409213542938232,-1.3335042309812088,-2.527421538029806,6.109175550728597,1.018575668334961,-2.2898100058185022
1708436648.382905,-2.140859365463257,-1.3335233491710206,-2.527346436177389,6.109162437706747,1.018575668334961,-2.28973633447756
1708436648.384901,-2.1409125328063965,-1.3334997457316895,-2.527341906224386,6.109165775566854,1.0185667276382446,-2.28983980814089
1708436648.386883,-2.1409542560577393,-1.3335157346776505,-2.527339045201437,6.109199392586508,1.0185846090316772,-2.289781634007589
1708436648.3889003,-2.140904664993286,-1.3335157346776505,-2.527341906224386,6.109150278359213,1.018592357635498,-2.2897771040545862
1708436648.3908918,-2.1408956050872803,-1.3335157346776505,-2.527379576359884,6.109165775566854,1.0185970067977905,-2.2897682825671595
1708436648.3928866,-2.1409382820129395,-1.333483101134636,-2.527363125477926,6.109236347466268,1.018592357635498,-2.289814297352926
1708436648.3949142,-2.1408753395080566,-1.3335202199271698,-2.5274036566363733,6.109149563103475,1.0185801982879639,-2.289802376423971
1708436648.3969207,-2.1408727169036865,-1.3335573238185425,-2.527350966130392,6.109206902771749,1.018592357635498,-2.2897561232196253
1708436648.3989165,-2.1409080028533936,-1.333486632709839,-2.527355496083395,6.109207021981039,1.0185548067092896,-2.289814297352926
1708436648.4008927,-2.1408956050872803,-1.3335440915874024,-2.527341906224386,6.109233844071188,1.0185593366622925,-2.2897935549365442
1708436648.4029057,-2.1408956050872803,-1.333502636556961,-2.527391497288839,6.109222161560812,1.018596887588501,-2.2897682825671595
1708436648.404888,-2.1409125328063965,-1.333581344490387,-2.527341906224386,6.109202611237325,1.018612027168274,-2.2898383776294153
1708436648.406887,-2.1409425735473633,-1.3334821474603196,-2.527384106312887,6.109189617424764,1.018575668334961,-2.2898100058185022
1708436648.4089022,-2.1408841609954834,-1.3335233491710206,-2.527372185383932,6.109254944115438,1.018596887588501,-2.2897802034961146
1708436648.4108775,-2.1408913135528564,-1.3335202199271698,-2.52738863626589,6.109251367836752,1.018575668334961,-2.2897802034961146
1708436648.4129186,-2.1409125328063965,-1.3335307848504563,-2.5273435751544397,6.109217750817098,1.0185878276824951,-2.289798084889547
1708436648.414882,-2.1409382820129395,-1.33354406178508,-2.527391497288839,6.1092145321662805,1.0186253786087036,-2.2898100058185022
1708436648.416924,-2.1408843994140625,-1.3335233491710206,-2.527372185383932,6.109233963280477,1.0186209678649902,-2.2898550669299524
1708436648.418905,-2.1409294605255127,-1.3335189533284684,-2.52735406557192,6.109278666764059,1.0185503959655762,-2.2898505369769495
1708436648.420906,-2.140920400619507,-1.3335726422122498,-2.527341906224386,6.109266745835104,1.0185548067092896,-2.2898250261889856
1708436648.4229147,-2.1409080028533936,-1.3335233491710206,-2.5273435751544397,6.10926245430068,1.018592357635498,-2.2898250261889856
1708436648.4248958,-2.1409363746643066,-1.3334981364062806,-2.527375046406881,6.109283077507772,1.0186045169830322,-2.2898340860949915
1708436648.42688,-2.1409294605255127,-1.3335563105395813,-2.527341906224386,6.109315860062399,1.0186090469360352,-2.2898579279529017
1708436648.4293137,-2.1408426761627197,-1.3335277301124115,-2.527372185383932,6.109285580902853,1.0186344385147095,-2.2897875944720667
1708436648.430885,-2.1409409046173096,-1.3335233491710206,-2.527412716542379,6.109367835312643,1.018571138381958,-2.2898088137256067
1708436648.4329438,-2.1409451961517334,-1.333482102756836,-2.527350966130392,6.109261262207784,1.0186001062393188,-2.2898955980883997
1708436648.4349222,-2.1409080028533936,-1.333507017498352,-2.527317825947897,6.109306204109945,1.0185638666152954,-2.289870087300436
1708436648.4369597,-2.1409249305725098,-1.3335114282420655,-2.527317825947897,6.109346139221945,1.0185834169387817,-2.289886538182394
1708436648.438895,-2.1409080028533936,-1.3335474294475098,-2.527363125477926,6.109366762429037,1.018592357635498,-2.2898417154895228
1708436648.4408998,-2.1409542560577393,-1.3335114282420655,-2.527346436177389,6.109354841500082,1.0185846090316772,-2.289832894002096
1708436648.4429011,-2.1408989429473877,-1.3334875863841553,-2.527363125477926,6.109394895821371,1.018575668334961,-2.289907519017355
1708436648.444903,-2.1408932209014893,-1.3335114282420655,-2.527396027241842,6.109378564148702,1.0185515880584717,-2.289849106465475
1708436648.4469082,-2.1409339904785156,-1.3335321110538025,-2.527375046406881,6.109346139221945,1.0185728073120117,-2.2898851076709192
1708436648.4489503,-2.1409037113189697,-1.3335695725730439,-2.527372185383932,6.109346139221945,1.0185801982879639,-2.2898522059070032
1708436648.450903,-2.140911340713501,-1.3335114282420655,-2.5273705164538782,6.1093623516853235,1.0186012983322144,-2.289840284978048
1708436648.4529135,-2.1408867835998535,-1.3335100275329133,-2.527363125477926,6.109304654389181,1.0185470581054688,-2.289877716694967
1708436648.4548774,-2.1409623622894287,-1.33346243322406,-2.527341906224386,6.109365689545431,1.0186012983322144,-2.289835755025045
1708436648.4569252,-2.1409125328063965,-1.3335144382766266,-2.5273869673358362,6.10938190200881,1.0185426473617554,-2.289877716694967
1708436648.4589107,-2.1409249305725098,-1.3334549230388184,-2.527375046406881,6.109320986061849,1.0186328887939453,-2.28986102739443
1708436648.4609215,-2.1409249305725098,-1.3334699434093018,-2.5273705164538782,6.1093623516853235,1.018537998199463,-2.289889637623922
1708436648.4629126,-2.1408913135528564,-1.33350424588237,-2.527346436177389,6.10935257652358,1.0186045169830322,-2.289922539387838
1708436648.4649084,-2.1408989429473877,-1.3334743541530152,-2.527363125477926,6.109349477082052,1.0185638666152954,-2.289915148411886
1708436648.4669151,-2.1409037113189697,-1.33350424588237,-2.527334515248434,6.109346139221945,1.0185637474060059,-2.289873186741964
1708436648.468878,-2.1409409046173096,-1.3334997457316895,-2.527346436177389,6.109346139221945,1.0186164379119873,-2.2898643652545374
1708436648.4708657,-2.140915870666504,-1.3335440915874024,-2.527384106312887,6.109353649407186,1.0186058282852173,-2.2898972670184534
1708436648.4729247,-2.14094877243042,-1.3335114282420655,-2.527367655430929,6.109394895821371,1.0186012983322144,-2.289877716694967
1708436648.4748785,-2.140981674194336,-1.3335474294475098,-2.527334515248434,6.1093580601509,1.018575668334961,-2.2899182478534144
1708436648.476945,-2.140939712524414,-1.3335233491710206,-2.527372185383932,6.109373318939962,1.018630027770996,-2.2898688952075403
1708436648.4789107,-2.140961170196533,-1.3335189384273072,-2.527350966130392,6.109353768616476,1.0185891389846802,-2.289927069340841
1708436648.4809203,-2.1409318447113037,-1.3335440915874024,-2.5273705164538782,6.109325277596273,1.0185801982879639,-2.289889637623922
1708436648.482927,-2.141014337539673,-1.333527759914734,-2.527412716542379,6.109411585121908,1.0186045169830322,-2.2899063269244593
1708436648.4848678,-2.14094877243042,-1.3335263592055817,-2.527308766041891,6.1093580601509,1.0186090469360352,-2.289922539387838
1708436648.486915,-2.1409521102905273,-1.3335144382766266,-2.527350966130392,6.10938190200881,1.0186058282852173,-2.2899017969714563
1708436648.488932,-2.14097261428833,-1.3335352700999756,-2.527358595524923,6.109356987267294,1.0185638666152954,-2.2898851076709192
1708436648.4908686,-2.14098858833313,-1.3335233491710206,-2.527329985295431,6.10932086685256,1.018592357635498,-2.2899063269244593
1708436648.492889,-2.140961170196533,-1.3335607510856171,-2.527384106312887,6.109447467118063,1.018592357635498,-2.2898972670184534
1708436648.494889,-2.14097261428833,-1.3334732812694092,-2.527379576359884,6.109369981079855,1.0185801982879639,-2.2898851076709192
1708436648.4969501,-2.1409566402435303,-1.333507017498352,-2.527363125477926,6.10938190200881,1.0185834169387817,-2.289856497441427
1708436648.4988782,-2.140944242477417,-1.3334936958602448,-2.52733284631838,6.109414684563436,1.018571138381958,-2.2898808161364954
1708436648.5008788,-2.1409566402435303,-1.3335440915874024,-2.527346436177389,6.109360205918112,1.0185397863388062,-2.289910618458883
1708436648.5028982,-2.140953302383423,-1.3334866029075165,-2.527355496083395,6.109434473305502,1.0185935497283936,-2.289877716694967
1708436648.504883,-2.140939712524414,-1.333482102756836,-2.527358595524923,6.109394061356344,1.0185801982879639,-2.289894167576925
1708436648.5068922,-2.14098858833313,-1.3335573238185425,-2.527350966130392,6.109410273819723,1.018592357635498,-2.2898643652545374
1708436648.5089047,-2.14097261428833,-1.3335144382766266,-2.527379576359884,6.109475242882528,1.0185638666152954,-2.2898688952075403
1708436648.5108788,-2.140944242477417,-1.3335189384273072,-2.527337376271383,6.109397280007162,1.0185846090316772,-2.2898972670184534
1708436648.5129206,-2.1409478187561035,-1.3334954243949433,-2.527337376271383,6.109409200936117,1.0185471773147583,-2.289856735860006
1708436648.514872,-2.14098858833313,-1.3335100275329133,-2.527379576359884,6.109478461533346,1.018596887588501,-2.2899137179004114
1708436648.5168953,-2.141014337539673,-1.3334954243949433,-2.527358595524923,6.109470951348104,1.0185801982879639,-2.2899017969714563
1708436648.5189092,-2.1409478187561035,-1.3335233491710206,-2.527400557194845,6.109457957535543,1.018571138381958,-2.289898459111349
1708436648.5208719,-2.140961170196533,-1.3334997457316895,-2.527337376271383,6.109428632050314,1.018575668334961,-2.289889637623922
1708436648.5229092,-2.1409432888031006,-1.3335189384273072,-2.527358595524923,6.1094655869300745,1.0185728073120117,-2.2898643652545374
1708436648.5248916,-2.1409478187561035,-1.3335519295981904,-2.527358595524923,6.109456884651937,1.0185891389846802,-2.289877716694967
1708436648.5269043,-2.1409964561462402,-1.3335263592055817,-2.527334515248434,6.1093798754508875,1.0185471773147583,-2.289922539387838
1708436648.5289361,-2.140968084335327,-1.3335144382766266,-2.527367655430929,6.109469043999471,1.0186058282852173,-2.2899137179004114
1708436648.5308802,-2.140977144241333,-1.3335233491710206,-2.527405087147848,6.109473454743185,1.018560528755188,-2.2899182478534144
1708436648.5329049,-2.14100980758667,-1.3335233491710206,-2.527329985295431,6.109415757447042,1.0185682773590088,-2.2898929754840296
1708436648.5348744,-2.1410179138183594,-1.3334954243949433,-2.527367655430929,6.1094939587409876,1.0186059474945068,-2.28988224664797
1708436648.5369275,-2.141014337539673,-1.3335352700999756,-2.527346436177389,6.109440552979269,1.0185682773590088,-2.2899063269244593
1708436648.538873,-2.1410000324249268,-1.3335189384273072,-2.527379576359884,6.109453666001119,1.0185710191726685,-2.289922539387838
1708436648.5408862,-2.1410000324249268,-1.3335440915874024,-2.527350966130392,6.109412658005514,1.0185234546661377,-2.2899091879474085
1708436648.5428934,-2.140979528427124,-1.3335189384273072,-2.527367655430929,6.109473454743185,1.0185801982879639,-2.289856735860006
1708436648.5449035,-2.1409547328948975,-1.3335189384273072,-2.527329985295431,6.1094939587409876,1.018559217453003,-2.2899182478534144
1708436648.5468829,-2.1409707069396973,-1.3335026067546387,-2.527346436177389,6.10949074009017,1.0185728073120117,-2.2899182478534144
1708436648.5488975,-2.1409919261932373,-1.3335026067546387,-2.52738863626589,6.109489667206564,1.0185728073120117,-2.289922539387838
1708436648.5508673,-2.1409964561462402,-1.3335519295981904,-2.527341906224386,6.109526502877035,1.0185801982879639,-2.2899017969714563
1708436648.5529275,-2.1410157680511475,-1.3335563403419037,-2.527313295994894,6.109518992691793,1.0185638666152954,-2.2899301687823694
1708436648.5548763,-2.141040563583374,-1.3335157495788117,-2.527320925389425,6.109395372658529,1.0185638666152954,-2.289889637623922
1708436648.5569105,-2.1410133838653564,-1.333527759914734,-2.527391497288839,6.109460460930624,1.0185846090316772,-2.289922539387838
1708436648.5588777,-2.141045093536377,-1.3335563403419037,-2.5273643175708216,6.109461176186361,1.0185352563858032,-2.289938990269796
1708436648.5608704,-2.1410202980041504,-1.3334847849658509,-2.527329985295431,6.10948537567214,1.0186102390289307,-2.2898762861834925
1708436648.5629008,-2.1409707069396973,-1.3335233491710206,-2.527346436177389,6.1095090983207605,1.0185470581054688,-2.2899556795703333
1708436648.5649261,-2.1410202980041504,-1.3335144382766266,-2.5273223559008997,6.10951458194808,1.0185352563858032,-2.2898929754840296
1708436648.5669045,-2.14103627204895,-1.3334936958602448,-2.527372185383932,6.109473454743185,1.0185234546661377,-2.2899301687823694
1708436648.5688694,-2.141049861907959,-1.3335519295981904,-2.5273526350604456,6.109472262650289,1.0185638666152954,-2.289865557347433
1708436648.5708659,-2.1409919261932373,-1.3335263592055817,-2.527296845112936,6.10948537567214,1.0185561180114746,-2.2899182478534144
1708436648.5728955,-2.1410248279571533,-1.333530769949295,-2.5273435751544397,6.109505879669943,1.0185441970825195,-2.289943520222799
1708436648.574901,-2.14103627204895,-1.3335519295981904,-2.527317825947897,6.109525668412008,1.0185846090316772,-2.289947811757223
1708436648.5770416,-2.1410317420959473,-1.333539680843689,-2.5272894541369837,6.109444844513693,1.0185308456420898,-2.289947811757223
1708436648.578965,-2.1409952640533447,-1.3334981066039582,-2.5273314158069056,6.1095101712043665,1.018560528755188,-2.2899063269244593
1708436648.5808945,-2.1410000324249268,-1.3335189384273072,-2.527339045201437,6.109501588135519,1.0185694694519043,-2.2898851076709192
1708436648.582901,-2.1410269737243652,-1.3335233491710206,-2.527329985295431,6.109530913620748,1.0185322761535645,-2.2898808161364954
1708436648.5848894,-2.1410610675811768,-1.333527759914734,-2.52738863626589,6.109473454743185,1.0185352563858032,-2.2899017969714563
1708436648.5869036,-2.1410157680511475,-1.333530769949295,-2.527355496083395,6.109517800598898,1.018511414527893,-2.289894167576925
1708436648.5889144,-2.1410317420959473,-1.3335474294475098,-2.527325455342428,6.109578478127279,1.0185322761535645,-2.289873186741964
1708436648.5908685,-2.141045093536377,-1.3335563403419037,-2.527334515248434,6.1095220921333215,1.0185458660125732,-2.2898688952075403
1708436648.5928757,-2.1410679817199707,-1.3335189384273072,-2.527341906224386,6.109526502877035,1.0185294151306152,-2.2899137179004114
1708436648.594869,-2.1410815715789795,-1.333530769949295,-2.527329985295431,6.109550702362814,1.0184885263442993,-2.289938990269796
1708436648.596873,-2.1410655975341797,-1.3335637611201783,-2.527396027241842,6.109501588135519,1.0184600353240967,-2.289889637623922
1708436648.5988898,-2.1410610675811768,-1.333601252441742,-2.527329985295431,6.109538662224569,1.0185004472732544,-2.2899063269244593
1708436648.6008759,-2.141045093536377,-1.3335263592055817,-2.527372185383932,6.109541880875387,1.0184465646743774,-2.2898433844195765
1708436648.6028807,-2.1410067081451416,-1.3335144233754654,-2.527329985295431,6.109489667206564,1.018484115600586,-2.289898459111349
1708436648.604881,-2.141056537628174,-1.3335233342698594,-2.527292553578512,6.1095090983207605,1.0184885263442993,-2.2898643652545374
1708436648.6068664,-2.1410679817199707,-1.3335440915874024,-2.527355496083395,6.109550702362814,1.0184721946716309,-2.2899017969714563
1708436648.6089087,-2.1410892009735107,-1.3335056167891999,-2.5273600260363978,6.109542953758993,1.0184391736984253,-2.2898476759540003
1708436648.6108706,-2.1410679817199707,-1.3335100275329133,-2.5273223559008997,6.1095622656639,1.0184721946716309,-2.2898884455310267
1708436648.6129117,-2.1410138607025146,-1.3335056167891999,-2.5273268858539026,6.109497296601095,1.0184435844421387,-2.2898643652545374
1708436648.6148758,-2.1410679817199707,-1.3335189384273072,-2.527376715336935,6.10951708534316,1.0184600353240967,-2.289915148411886
1708436648.6168692,-2.1410679817199707,-1.3335650724223633,-2.5273600260363978,6.109476673394003,1.0184391736984253,-2.2898808161364954
1708436648.6189108,-2.141056537628174,-1.333572657113411,-2.527339045201437,6.109534370690145,1.0184555053710938,-2.289865557347433
1708436648.620921,-2.1410679817199707,-1.333527759914734,-2.5273059050189417,6.109497296601095,1.0184391736984253,-2.2899063269244593
1708436648.6228786,-2.141045093536377,-1.3334936958602448,-2.5273435751544397,6.1095090983207605,1.0184615850448608,-2.289865557347433
1708436648.624899,-2.1410679817199707,-1.3335430187037964,-2.527355496083395,6.109492885857382,1.018430233001709,-2.289856735860006
1708436648.6269064,-2.1410655975341797,-1.3335352700999756,-2.527339045201437,6.1095090983207605,1.0184391736984253,-2.289910618458883
1708436648.6289196,-2.1410725116729736,-1.3335549396327515,-2.5273600260363978,6.109501588135519,1.018468976020813,-2.289865557347433
1708436648.6308799,-2.1410634517669678,-1.3335100275329133,-2.5273268858539026,6.1095220921333215,1.0184811353683472,-2.2898688952075403
1708436648.6329222,-2.141059160232544,-1.3335233491710206,-2.527341906224386,6.109525668412008,1.0184526443481445,-2.289877716694967
1708436648.6348877,-2.141080379486084,-1.3335352700999756,-2.5272894541369837,6.109538781433859,1.018415093421936,-2.2898688952075403
1708436648.636909,-2.14103627204895,-1.3335682612708588,-2.527317825947897,6.109517800598898,1.0184314250946045,-2.289927069340841
1708436648.6388988,-2.1410725116729736,-1.3335365814021607,-2.527376715336935,6.109549271851339,1.0184481143951416,-2.289889637623922
1708436648.640918,-2.1410634517669678,-1.3335189384273072,-2.5273104349719446,6.109521376877584,1.0184314250946045,-2.289873186741964
1708436648.6428716,-2.141080379486084,-1.3335593354753037,-2.5273359457599085,6.109534370690145,1.0184390544891357,-2.289898459111349
1708436648.6449049,-2.1410892009735107,-1.3334981066039582,-2.527334515248434,6.1094939587409876,1.0184481143951416,-2.289873186741964
1708436648.6468785,-2.141101598739624,-1.3335263592055817,-2.527372185383932,6.109530079155721,1.0184811353683472,-2.28983718553652
1708436648.648897,-2.141075849533081,-1.3335563403419037,-2.5273268858539026,6.109501588135519,1.01846444606781,-2.28988224664797
1708436648.6508894,-2.141080379486084,-1.3335263592055817,-2.527297083531515,6.109505879669943,1.0184481143951416,-2.289828364049093
1708436648.6528912,-2.141120195388794,-1.3335519295981904,-2.527350966130392,6.109513509064474,1.0184526443481445,-2.28986102739443
1708436648.6548805,-2.1410927772521973,-1.3336042624763031,-2.527297083531515,6.109526502877035,1.0184437036514282,-2.289870087300436
1708436648.6568916,-2.1410388946533203,-1.3335682612708588,-2.527339045201437,6.109530079155721,1.01846444606781,-2.289856735860006
1708436648.6589124,-2.141075849533081,-1.3335474294475098,-2.527313295994894,6.10951708534316,1.0184946060180664,-2.289849106465475
1708436648.6608858,-2.141080379486084,-1.3335263592055817,-2.5273223559008997,6.109533297806539,1.01848566532135,-2.289853636418478
1708436648.6628945,-2.1410679817199707,-1.3335519444993515,-2.527339045201437,6.109530079155721,1.0184526443481445,-2.289844814931051
1708436648.6648645,-2.1410672664642334,-1.3335563403419037,-2.527376715336935,6.109554874687948,1.0184526443481445,-2.2898522059070032
1708436648.6668677,-2.141115665435791,-1.333507017498352,-2.527329985295431,6.109537589340963,1.0184526443481445,-2.28988224664797
1708436648.6688812,-2.1411287784576416,-1.3335890036872406,-2.527355496083395,6.1095549938972376,1.018457055091858,-2.289849106465475
1708436648.6709285,-2.1410884857177734,-1.3335549396327515,-2.5273223559008997,6.1095622656639,1.0184285640716553,-2.28982383409609
1708436648.6728861,-2.141120195388794,-1.3335296970656891,-2.52728778520693,6.109501588135519,1.0183849334716797,-2.289849106465475
1708436648.6748772,-2.141115665435791,-1.333538607960083,-2.5273030439959925,6.109566557198324,1.0184285640716553,-2.289856735860006
1708436648.6769772,-2.1410927772521973,-1.3335519295981904,-2.527280632649557,6.109549271851339,1.0184240341186523,-2.289870087300436
1708436648.678971,-2.141120195388794,-1.33354406178508,-2.527339045201437,6.109517800598898,1.0184285640716553,-2.289891068135397
1708436648.6808991,-2.141120195388794,-1.333507017498352,-2.5272820631610315,6.109521376877584,1.018419623374939,-2.2898624579059046
1708436648.6829338,-2.141050338745117,-1.333539680843689,-2.5273481051074427,6.109582054405966,1.0184073448181152,-2.289902989064352
1708436648.6848907,-2.141104221343994,-1.3335726720145722,-2.5273481051074427,6.1095462916191,1.0183910131454468,-2.2898746172534388
1708436648.6868675,-2.141104221343994,-1.333538607960083,-2.5272820631610315,6.109451877861776,1.0184285640716553,-2.289877716694967
1708436648.6889348,-2.141113042831421,-1.333538607960083,-2.5273240248309534,6.109521376877584,1.0184162855148315,-2.2898624579059046
1708436648.6908782,-2.141075849533081,-1.3335430187037964,-2.5273314158069056,6.1095622656639,1.0184403657913208,-2.289832655583517
1708436648.6929262,-2.1410884857177734,-1.333530769949295,-2.5273314158069056,6.109566557198324,1.018419623374939,-2.2898250261889856
1708436648.694895,-2.1410627365112305,-1.333539680843689,-2.527339045201437,6.109484302788534,1.0183955430984497,-2.2898085753070276
1708436648.696907,-2.1410973072052,-1.3334981066039582,-2.527256790791647,6.109533417015829,1.0184448957443237,-2.2898624579059046
1708436648.6988888,-2.141108512878418,-1.3335474294475098,-2.527372185383932,6.109530079155721,1.0184448957443237,-2.2898176352130335
1708436648.7008832,-2.141120195388794,-1.3335726720145722,-2.5273194948779505,6.109566557198324,1.0184073448181152,-2.289820734654562
1708436648.7028935,-2.141104221343994,-1.3335233491710206,-2.5273435751544397,6.1095090983207605,1.0184448957443237,-2.2898550669299524
1708436648.704869,-2.141127109527588,-1.3334655326655884,-2.5273194948779505,6.10951708534316,1.0184329748153687,-2.2898009459124964
1708436648.7069206,-2.141111135482788,-1.3335726720145722,-2.5272746721850794,6.109549271851339,1.0184329748153687,-2.2897844950305384
1708436648.708896,-2.1410927772521973,-1.3335352700999756,-2.5272820631610315,6.109553563385763,1.0183656215667725,-2.2897351423846644
1708436648.7108798,-2.1410794258117676,-1.3335519295981904,-2.5273059050189417,6.109549271851339,1.0184494256973267,-2.2897728125201624
1708436648.7129478,-2.141111135482788,-1.3335474294475098,-2.5273402372943323,6.1095462916191,1.0184329748153687,-2.2897334734546106
1708436648.7149105,-2.141127109527588,-1.3335637611201783,-2.5273030439959925,6.109569775849142,1.0184285640716553,-2.28973633447756
1708436648.7169032,-2.141104221343994,-1.3335263592055817,-2.5272939840899866,6.1095090983207605,1.018449306488037,-2.2897289435016077
1708436648.718878,-2.141131639480591,-1.333538607960083,-2.5273149649249476,6.109533297806539,1.0183955430984497,-2.289720122014181
1708436648.7208972,-2.141120195388794,-1.3335549396327515,-2.5273435751544397,6.109512793808737,1.0184208154678345,-2.289740864430563
1708436648.7229354,-2.1410748958587646,-1.3335474294475098,-2.5272985140429896,6.109549271851339,1.0184118747711182,-2.2897754351245325
1708436648.7248864,-2.1410412788391113,-1.3335189384273072,-2.5273030439959925,6.10951708534316,1.0184073448181152,-2.2897468248950403
1708436648.7268918,-2.1410953998565674,-1.3335519295981904,-2.5273240248309534,6.109521376877584,1.0184330940246582,-2.2897170225726526
1708436648.7289474,-2.141120195388794,-1.3335320812514802,-2.5272985140429896,6.109557854920187,1.018399953842163,-2.2897380034076136
1708436648.73088,-2.1411540508270264,-1.3336056631854554,-2.5273268858539026,6.109577762871542,1.0183836221694946,-2.2897170225726526
1708436648.7329302,-2.141099691390991,-1.333601252441742,-2.5273314158069056,6.109565484314718,1.0183836221694946,-2.2897380034076136
1708436648.7349012,-2.141122579574585,-1.3334743541530152,-2.5272820631610315,6.1095290062721155,1.0183955430984497,-2.2896719614612024
1708436648.7369192,-2.141111135482788,-1.3335416179946442,-2.527273241673605,6.109606849938192,1.0183955430984497,-2.2897306124316614
1708436648.7389188,-2.1411540508270264,-1.3335011166385193,-2.5273240248309534,6.109602558403768,1.0184118747711182,-2.2897349039660853
1708436648.7408922,-2.1411540508270264,-1.3335519295981904,-2.5273194948779505,6.10951708534316,1.0183836221694946,-2.289706532155172
1708436648.7429268,-2.141099691390991,-1.3335474294475098,-2.5273569265948694,6.1095462916191,1.018399953842163,-2.289635960255758
1708436648.7449,-2.141099691390991,-1.3335233491710206,-2.5273314158069056,6.109556782036581,1.0184118747711182,-2.289682451878683
1708436648.746919,-2.141111135482788,-1.333510012631752,-2.5272820631610315,6.109553563385763,1.0184118747711182,-2.2896464506732386
1708436648.7489219,-2.141115665435791,-1.3334981811097641,-2.5273314158069056,6.109500515251913,1.018399953842163,-2.2896042505847376
1708436648.7508874,-2.141111135482788,-1.3335233491710206,-2.5272985140429896,6.109541880875387,1.0183836221694946,-2.2895801703082483
1708436648.7529416,-2.1411449909210205,-1.3335233491710206,-2.5273149649249476,6.109552490502157,1.018353819847107,-2.2895353476153772
1708436648.7549028,-2.1411020755767822,-1.3335519295981904,-2.5272939840899866,6.109565484314718,1.018399953842163,-2.289577309285299
1708436648.7569113,-2.141131639480591,-1.3335637611201783,-2.5273481051074427,6.109533417015829,1.0183671712875366,-2.289548699055807
1708436648.7588887,-2.141127109527588,-1.3335712415030976,-2.5273569265948694,6.109577762871542,1.018388032913208,-2.2895458380328577
1708436648.7608957,-2.141120195388794,-1.3335683059743424,-2.5273359457599085,6.109556782036581,1.018388032913208,-2.2895379702197474
1708436648.7629175,-2.141127109527588,-1.3335756820491333,-2.5273075739489954,6.109556782036581,1.0183836221694946,-2.2894931475268763
1708436648.7648833,-2.1411540508270264,-1.3335967522910614,-2.5273121039019983,6.109548079758444,1.0184297561645508,-2.289478127156393
1708436648.766915,-2.141127109527588,-1.333538607960083,-2.5272820631610315,6.109549271851339,1.018353819847107,-2.2894449869738978
1708436648.7689104,-2.1411654949188232,-1.3335056167891999,-2.5272911230670374,6.109508383065023,1.018399953842163,-2.2894464174853724
1708436648.7708895,-2.1411359310150146,-1.3335756820491333,-2.527256790791647,6.109552490502157,1.0183792114257812,-2.28941780725588
1708436648.7729068,-2.14115834236145,-1.333538607960083,-2.5272865931140345,6.109613764076986,1.018388032913208,-2.28933555284609
1708436648.7748954,-2.1411564350128174,-1.3335144382766266,-2.5272582213031214,6.109544980316915,1.0183594226837158,-2.2893577257739466
1708436648.7769647,-2.1411495208740234,-1.3335890036872406,-2.5272985140429896,6.1095290062721155,1.018388032913208,-2.2893336454974573
1708436648.77896,-2.1410953998565674,-1.3335563403419037,-2.5272582213031214,6.109618770867147,1.0183836221694946,-2.2892261187182825
1708436648.7809374,-2.141115665435791,-1.3335563403419037,-2.5272746721850794,6.109582054405966,1.018399953842163,-2.28925592104067
1708436648.782889,-2.141111135482788,-1.3335756820491333,-2.5273121039019983,6.109582054405966,1.018388032913208,-2.2891958395587366
1708436648.7848935,-2.1411654949188232,-1.3335756820491333,-2.5273240248309534,6.109548198967733,1.0184088945388794,-2.2891598383532923
1708436648.7869034,-2.1411404609680176,-1.3335845929435273,-2.5273526350604456,6.109524595528402,1.018376111984253,-2.289107147847311
1708436648.7889106,-2.1411020755767822,-1.3335474145463486,-2.5272656122790735,6.109544861107626,1.0183924436569214,-2.2890291849719446
1708436648.7908807,-2.141106605529785,-1.3335563105395813,-2.5272746721850794,6.109582054405966,1.018388032913208,-2.2890260855304163
1708436648.7929165,-2.141131639480591,-1.3336220246604462,-2.5272865931140345,6.10948001125411,1.0183383226394653,-2.2889702955829065
1708436648.7948864,-2.1411404609680176,-1.3335352700999756,-2.5273075739489954,6.109504091530599,1.0183924436569214,-2.288943592702047
1708436648.7969315,-2.141120195388794,-1.3335563403419037,-2.5273330847369593,6.10951708534316,1.0183550119400024,-2.2889447847949427
1708436648.7988844,-2.1411495208740234,-1.3335474294475098,-2.5272701422320765,6.109593975334921,1.018399953842163,-2.2888217608081263
1708436648.8009005,-2.141106605529785,-1.3335144531777878,-2.5272865931140345,6.109524595528402,1.0183472633361816,-2.288773838673727
1708436648.8028886,-2.1410953998565674,-1.3335923713496705,-2.527316395436422,6.109582769661703,1.0183639526367188,-2.288750950490133
1708436648.8049152,-2.141131639480591,-1.3335352104953309,-2.5273149649249476,6.109601604729452,1.018388032913208,-2.2886834780322474
1708436648.8069,-2.1411540508270264,-1.3335667860559006,-2.5273359457599085,6.109565484314718,1.0184162855148315,-2.2885740439044397
1708436648.8089223,-2.1411404609680176,-1.3335100275329133,-2.5273268858539026,6.109582054405966,1.0183717012405396,-2.288551394139425
1708436648.8108997,-2.141099691390991,-1.3335682165673752,-2.52733284631838,6.1095290062721155,1.0183924436569214,-2.2884281317340296
1708436648.8129206,-2.141127109527588,-1.333482102756836,-2.5272448698626917,6.109541880875387,1.0183969736099243,-2.2883291880237024
1708436648.8149095,-2.141127109527588,-1.333523378973343,-2.5273075739489954,6.109556782036581,1.0183969736099243,-2.2882824579821985
1708436648.8169096,-2.1410839557647705,-1.3335800927928467,-2.5272493998156946,6.109512793808737,1.0184088945388794,-2.288180414830343
1708436648.8188906,-2.1411495208740234,-1.3335473996451874,-2.5273402372943323,6.109569775849142,1.018376111984253,-2.288034979497091
1708436648.8209348,-2.14115834236145,-1.3335484129241486,-2.5272956530200403,6.109582173615255,1.0184015035629272,-2.28799277940859
1708436648.8228905,-2.1410906314849854,-1.3335011315396805,-2.5272777716266077,6.109602558403768,1.0184134244918823,-2.2878978888141077
1708436648.8249013,-2.1411020755767822,-1.3335026067546387,-2.5272911230670374,6.109582054405966,1.0183684825897217,-2.2877524534808558
1708436648.8268788,-2.141131639480591,-1.333530769949295,-2.5273075739489954,6.109553444176473,1.018376111984253,-2.2876487413989466
1708436648.828899,-2.141099691390991,-1.333521918659546,-2.5272448698626917,6.109603750496664,1.0183218717575073,-2.2874837557422083
1708436648.8308692,-2.141120195388794,-1.3335637611201783,-2.527288262044088,6.109527337342062,1.0183969736099243,-2.2874608675586146
1708436648.832884,-2.1411609649658203,-1.3334981066039582,-2.5272746721850794,6.109544980316915,1.0183684825897217,-2.28725511232485
1708436648.8348906,-2.141099691390991,-1.333601177935936,-2.5273240248309534,6.109561192780294,1.0183550119400024,-2.2871559301959437
1708436648.8369148,-2.141115665435791,-1.3334847849658509,-2.5273149649249476,6.1095622656639,1.0183594226837158,-2.286995236073629
1708436648.8388882,-2.141115665435791,-1.3335682612708588,-2.5273121039019983,6.109488475113668,1.018388032913208,-2.2868838945971888
1708436648.8409126,-2.141111135482788,-1.3335682314685364,-2.5273314158069056,6.109533297806539,1.0183550119400024,-2.2867446581469935
1708436648.8429031,-2.141131639480591,-1.3335474294475098,-2.5273121039019983,6.109537589340963,1.018420696258545,-2.286537233983175
1708436648.8448765,-2.141106605529785,-1.3335144382766266,-2.5272865931140345,6.109565484314718,1.0183383226394653,-2.2863975206958216
1708436648.8469377,-2.141099691390991,-1.33357127130542,-2.5273030439959925,6.109517800598898,1.0183517932891846,-2.286257807408468
1708436648.8489106,-2.141106605529785,-1.3335430187037964,-2.5273059050189417,6.109590637474813,1.0183594226837158,-2.2861016432391565
1708436648.8508937,-2.1411404609680176,-1.3335474294475098,-2.527304712926046,6.1095462916191,1.0184088945388794,-2.285938088093893
1708436648.8529592,-2.141118049621582,-1.3335025918534775,-2.5273075739489954,6.109549271851339,1.0183806419372559,-2.2857816855060022
1708436648.8548982,-2.1411449909210205,-1.3335845929435273,-2.5272985140429896,6.109508383065023,1.018388032913208,-2.2855761686908167
1708436648.8569565,-2.1411449909210205,-1.333559350376465,-2.5272911230670374,6.1095622656639,1.0183550119400024,-2.2853885332690638
1708436648.858904,-2.1411449909210205,-1.3335563403419037,-2.5272956530200403,6.109504806786337,1.0183594226837158,-2.285233799611227
1708436648.8609035,-2.141127109527588,-1.3335484129241486,-2.5273402372943323,6.109496223717489,1.0183851718902588,-2.2850192228900355
1708436648.8629124,-2.141181468963623,-1.3335756820491333,-2.5273001829730433,6.10951708534316,1.018354892730713,-2.2848647276507776
1708436648.8648899,-2.141106605529785,-1.3335189384273072,-2.5272865931140345,6.109475600510397,1.0183851718902588,-2.2847145239459437
1708436648.8669019,-2.141120195388794,-1.3335430187037964,-2.527245823537008,6.109492885857382,1.0183924436569214,-2.28442627588381
1708436648.8688815,-2.141127109527588,-1.333530769949295,-2.5272493998156946,6.109476673394003,1.0183806419372559,-2.284247700368063
1708436648.8709064,-2.141131639480591,-1.3335352700999756,-2.5272865931140345,6.109557854920187,1.018376111984253,-2.284062925969259
1708436648.8728943,-2.141101598739624,-1.3335800927928467,-2.5272956530200403,6.109575259476461,1.0183717012405396,-2.283801857625143
1708436648.874877,-2.1410884857177734,-1.3335519295981904,-2.5272837320910853,6.10951458194808,1.0184043645858765,-2.283581082020895
1708436648.8769033,-2.1411290168762207,-1.3335430336049576,-2.5272792021380823,6.109505879669943,1.0184043645858765,-2.2833543459521692
1708436648.8790295,-2.141104221343994,-1.3335263443044205,-2.527241293584005,6.109439480095663,1.0184043645858765,-2.283163849507467
1708436648.8809302,-2.1410796642303467,-1.3335726422122498,-2.5273402372943323,6.109456884651937,1.0183671712875366,-2.28284722963442
1708436648.8829496,-2.141099691390991,-1.3335712862065812,-2.5273285547839563,6.109473454743185,1.0183924436569214,-2.282660786305563
1708436648.8849068,-2.1411244869232178,-1.3335890036872406,-2.5272956530200403,6.109510290413656,1.018399953842163,-2.2823918501483362
1708436648.8869278,-2.141115665435791,-1.3335519295981904,-2.5273237864123743,6.109526502877035,1.0184208154678345,-2.282131020222799
1708436648.8889391,-2.1411244869232178,-1.3334777516177674,-2.527316395436422,6.109477746277609,1.0183627605438232,-2.281835381184713
1708436648.8908837,-2.141120195388794,-1.333554969435074,-2.5272792021380823,6.109535205155172,1.0183550119400024,-2.281627957020895
1708436648.8928971,-2.1410627365112305,-1.333518923526146,-2.5273314158069056,6.109462249069967,1.0183701515197754,-2.2814014593707483
1708436648.8948886,-2.141066074371338,-1.3335219484618683,-2.5273571650134485,6.109456884651937,1.0184043645858765,-2.2810967604266565
1708436648.8968797,-2.1410796642303467,-1.3335056167891999,-2.5273149649249476,6.109430062561788,1.0184285640716553,-2.2807815710650843
1708436648.8988948,-2.141113042831421,-1.3335593354753037,-2.5272820631610315,6.109364497452535,1.0184208154678345,-2.2804816404925745
1708436648.9008954,-2.1410884857177734,-1.3335637611201783,-2.5272777716266077,6.109443175583639,1.0184403657913208,-2.280173126851217
1708436648.9028833,-2.141111135482788,-1.3335726720145722,-2.5273402372943323,6.109409200936117,1.0184329748153687,-2.27983266512026
1708436648.9048958,-2.14105486869812,-1.3335385930589219,-2.5273075739489954,6.109369981079855,1.01846444606781,-2.279529396687643
1708436648.9068706,-2.141099691390991,-1.333563746219017,-2.5272865931140345,6.109374272614279,1.0184403657913208,-2.2792003790484827
1708436648.908907,-2.141080379486084,-1.3335352700999756,-2.5273359457599085,6.109402763634481,1.0184359550476074,-2.278895680104391
1708436648.9108808,-2.1411244869232178,-1.3335233193686982,-2.5272865931140345,6.109341847687521,1.018484115600586,-2.2785900274859827
1708436648.9128857,-2.1411492824554443,-1.333538533454277,-2.5272820631610315,6.109350788384237,1.0184721946716309,-2.2782023588763636
1708436648.9148853,-2.141075849533081,-1.3335430187037964,-2.5272985140429896,6.109366762429037,1.01846444606781,-2.277863327656881
1708436648.9168923,-2.141080379486084,-1.3335483533195038,-2.5273359457599085,6.109313356667318,1.0185004472732544,-2.277550999318258
1708436648.9188924,-2.1410627365112305,-1.3335430187037964,-2.5273435751544397,6.109346139221945,1.0184632539749146,-2.2772119680987757
1708436648.9208941,-2.1410672664642334,-1.3335474294475098,-2.527317825947897,6.109337436943807,1.0185366868972778,-2.276865307484762
1708436648.9229078,-2.1410634517669678,-1.333547444348671,-2.5273075739489954,6.109285580902853,1.018496036529541,-2.276530090962545
1708436648.9249017,-2.141106128692627,-1.333554984336235,-2.5273481051074427,6.109342562943258,1.0185366868972778,-2.276132885609762
1708436648.9268901,-2.141106128692627,-1.3336220246604462,-2.5273223559008997,6.1093060849006555,1.0184706449508667,-2.2758334318744105
1708436648.928913,-2.141059160232544,-1.3335726422122498,-2.5273357073413294,6.109289872437277,1.0185441970825195,-2.275452438985006
1708436648.9308848,-2.141052007675171,-1.3335967075875779,-2.5273059050189417,6.109274375229635,1.0186225175857544,-2.2751296202289026
1708436648.9329336,-2.14111065864563,-1.3334924143603821,-2.527339045201437,6.109274375229635,1.0185728073120117,-2.274727169667379
1708436648.9349136,-2.141080379486084,-1.3335846078446885,-2.5272820631610315,6.109266865044393,1.018575668334961,-2.2743638197528284
1708436648.9368973,-2.1411027908325195,-1.3335474145463486,-2.5273104349719446,6.109261262207784,1.018613576889038,-2.273994747792379
1708436648.9389305,-2.14103627204895,-1.3335846078446885,-2.5273402372943323,6.109271156578817,1.018571138381958,-2.273574177418844
1708436648.9408832,-2.1410725116729736,-1.33356827617202,-2.527301613484518,6.109204757004537,1.0186208486557007,-2.27320367494692
1708436648.9428854,-2.141049861907959,-1.3335800629905243,-2.5273435751544397,6.109265672951498,1.0186253786087036,-2.2727983633624476
1708436648.9448938,-2.141040563583374,-1.3335549098304291,-2.5273600260363978,6.109299289971151,1.0186327695846558,-2.2723854223834437
1708436648.9468837,-2.1410272121429443,-1.3335219484618683,-2.527339045201437,6.109253752022543,1.018595576286316,-2.2719319502459925
1708436648.9489267,-2.141029119491577,-1.3335726720145722,-2.5273059050189417,6.109226453095236,1.0186357498168945,-2.2715686003314417
1708436648.950889,-2.1410157680511475,-1.3335011911443253,-2.5273855368243616,6.109210240631857,1.0186402797698975,-2.27109939256777
1708436648.9528883,-2.14104962348938,-1.3335263592055817,-2.527355496083395,6.1092145321662805,1.0186357498168945,-2.270679775868551
1708436648.954929,-2.141049861907959,-1.333559365277626,-2.5273435751544397,6.109206902771749,1.0186809301376343,-2.270266834889547
1708436648.9568846,-2.1410317420959473,-1.3335430187037964,-2.527372185383932,6.109178769379415,1.0186928510665894,-2.2698877493487757
1708436648.958894,-2.1409876346588135,-1.3335519295981904,-2.527334515248434,6.109178769379415,1.01873779296875,-2.26939040819277
1708436648.960891,-2.1410133838653564,-1.3335637611201783,-2.527350966130392,6.109162556916036,1.0186630487442017,-2.268973175679342
1708436648.9629245,-2.1410088539123535,-1.333538607960083,-2.5273268858539026,6.109101521759786,1.0187333822250366,-2.268550221120016
1708436648.964894,-2.1410293579101562,-1.3335637015155335,-2.527313295994894,6.109110343247213,1.0187578201293945,-2.2680676619159144
1708436648.9668849,-2.1409919261932373,-1.3335101020387192,-2.527329985295431,6.109138476639547,1.0187411308288574,-2.267693821583883
1708436648.9689476,-2.1409831047058105,-1.333568201666214,-2.527363125477926,6.109212386399069,1.018807291984558,-2.267190758381979
1708436648.9708817,-2.140965700149536,-1.333596722488739,-2.527313295994894,6.10915898063735,1.0187320709228516,-2.266789261494772
1708436648.972902,-2.141005277633667,-1.333523378973343,-2.527350966130392,6.109084832459249,1.018784761428833,-2.2663267294513147
1708436648.9748828,-2.140984058380127,-1.3335430187037964,-2.527329985295431,6.109117734223165,1.0187921524047852,-2.2659123579608362
1708436648.9769096,-2.1410176753997803,-1.3335726422122498,-2.527405087147848,6.109126555710592,1.0187758207321167,-2.265496555958883
1708436648.9789207,-2.1409566402435303,-1.3335352700999756,-2.527396027241842,6.109106766968527,1.018853783607483,-2.26511794725527
1708436648.98092,-2.140944242477417,-1.3335352850011368,-2.527412716542379,6.109118926316061,1.0188791751861572,-2.26463491121401
1708436648.9829535,-2.140961170196533,-1.333510087137558,-2.5274036566363733,6.1090993759925745,1.0188195705413818,-2.2641661802874964
1708436648.9849303,-2.14097261428833,-1.3335682612708588,-2.5273705164538782,6.109095084458151,1.018861174583435,-2.2636993567096155
1708436648.9869237,-2.140922784805298,-1.3335252863219758,-2.527400557194845,6.109140622406759,1.018890142440796,-2.263265911732809
1708436648.988942,-2.1409566402435303,-1.3335174483111878,-2.5273945967303675,6.10903416851119,1.0188523530960083,-2.2628539244281214
1708436648.9908888,-2.1409318447113037,-1.3335307401469727,-2.5273945967303675,6.109087455063619,1.0188857316970825,-2.2623799482928675
1708436648.9929135,-2.1409409046173096,-1.333521993165352,-2.5273688475238245,6.109078871994772,1.0188974142074585,-2.261875931416647
1708436648.9948857,-2.140970230102539,-1.3335352850011368,-2.5273855368243616,6.109054672508993,1.0188946723937988,-2.261419121419088
1708436648.9969234,-2.1409080028533936,-1.3335352850011368,-2.5274351278888147,6.10906337478713,1.018918514251709,-2.261036221181051
1708436648.998916,-2.1408989429473877,-1.3335967522910614,-2.5274680296527308,6.10910056808547,1.0189005136489868,-2.260509792958395
1708436649.0009124,-2.1409294605255127,-1.33358787119899,-2.5274441877948206,6.109059083252706,1.0188959836959839,-2.2600606123553675
1708436649.0029404,-2.1408708095550537,-1.3335070323995133,-2.5274561087237757,6.109030949860372,1.0189212560653687,-2.259617630635397
1708436649.0048857,-2.1408638954162598,-1.333550439482071,-2.5274680296527308,6.108983027725973,1.018891453742981,-2.2591732184039515
1708436649.006887,-2.1409080028533936,-1.333547444348671,-2.52744704881777,6.1090407250221155,1.0188959836959839,-2.2586973349200647
1708436649.0089173,-2.1409125328063965,-1.3335756373456498,-2.527463499699728,6.108999240189352,1.018924593925476,-2.258245293294088
1708436649.0108814,-2.1409125328063965,-1.3335922968438645,-2.527482811604635,6.108991610794821,1.0189788341522217,-2.257751766835348
1708436649.0129192,-2.1409428119659424,-1.3335474294475098,-2.527482811604635,6.109003531723776,1.0189200639724731,-2.2573707739459437
1708436649.0148747,-2.1408956050872803,-1.33357127130542,-2.527482811604635,6.108922230988302,1.018965244293213,-2.256855312977926
1708436649.0168953,-2.1408886909484863,-1.3335682314685364,-2.527466360722677,6.10901557186202,1.0189862251281738,-2.256420437489645
1708436649.0188916,-2.1409125328063965,-1.3335756671479722,-2.5274997393237513,6.1089515564735315,1.0189393758773804,-2.2559598127948206
1708436649.020882,-2.1409034729003906,-1.3335352850011368,-2.5274861494647425,6.10901557186202,1.0190266370773315,-2.2554944197284144
1708436649.0228884,-2.1409125328063965,-1.3335923266461869,-2.5275519529925745,6.108999240189352,1.0190099477767944,-2.2550180594073694
1708436649.0248957,-2.1408886909484863,-1.3335549545339127,-2.5275264422046106,6.10896776893691,1.0190010070800781,-2.2546117941485804
1708436649.0269248,-2.1408557891845703,-1.3335769933513184,-2.5275564829455774,6.108987319260397,1.0189874172210693,-2.254101101552145
1708436649.0288951,-2.1408603191375732,-1.333601177935936,-2.5275519529925745,6.108942973404684,1.0189964771270752,-2.2536442915545862
1708436649.030904,-2.1408603191375732,-1.3335682314685364,-2.5274935404406946,6.108910071640768,1.0190131664276123,-2.253225628529684
1708436649.0329142,-2.14090895652771,-1.3335580092719574,-2.5275564829455774,6.108910071640768,1.0190205574035645,-2.2526987234698694
1708436649.0349128,-2.140895366668701,-1.3335352700999756,-2.5275474230395716,6.108995902329244,1.0190131664276123,-2.2522061506854456
1708436649.0369077,-2.1408603191375732,-1.333526374106743,-2.5275219122516077,6.1089796898658655,1.0190131664276123,-2.2517665068255823
1708436649.038883,-2.1408603191375732,-1.3335174334100266,-2.5275593439685267,6.108930933266439,1.0190131664276123,-2.2513306776629847
1708436649.0408769,-2.140843391418457,-1.333572657113411,-2.527592722569601,6.108955848007955,1.0190372467041016,-2.2509081999408167
1708436649.0429199,-2.14083194732666,-1.333559350376465,-2.52759558359255,6.108991610794821,1.0189920663833618,-2.250394646321432
1708436649.0448873,-2.1408817768096924,-1.3335549545339127,-2.527566973363058,6.108975398331442,1.0190372467041016,-2.2499216238604944
1708436649.04691,-2.140852451324463,-1.3335263592055817,-2.527566973363058,6.108926641732015,1.0190446376800537,-2.2494738737689417
1708436649.0489018,-2.140864849090576,-1.3335504096797486,-2.527588192616598,6.108971106797018,1.0190205574035645,-2.2489922682391565
1708436649.0508828,-2.1408560276031494,-1.333575652246811,-2.527579132710592,6.108959185868063,1.01905357837677,-2.248495403920309
1708436649.0528924,-2.1408274173736572,-1.3336205345443268,-2.527588192616598,6.108959185868063,1.01907479763031,-2.2480929533587855
1708436649.0548875,-2.14084792137146,-1.3335307848504563,-2.527591053639547,6.1089796898658655,1.0190328359603882,-2.247695271168844
1708436649.0569315,-2.140856981277466,-1.3335563105395813,-2.527612034474508,6.109003531723776,1.0190491676330566,-2.2471683661090296
1708436649.0588865,-2.1408863067626953,-1.3336205643466492,-2.527600113545553,6.108934271126547,1.0190985202789307,-2.2466867605792444
1708436649.0608766,-2.140864849090576,-1.3336175245097657,-2.527607504521505,6.108999240189352,1.0190328359603882,-2.246268097554342
1708436649.0628836,-2.140873908996582,-1.333510012631752,-2.527574602757589,6.1089796898658655,1.0190702676773071,-2.245885197316305
1708436649.0648785,-2.140873908996582,-1.3335712862065812,-2.5276406447040003,6.109019863396444,1.019035816192627,-2.24542743364443
1708436649.0669632,-2.140815019607544,-1.3335756671479722,-2.5276148954974573,6.1089223501975916,1.0190658569335938,-2.2449095884906214
1708436649.0688946,-2.1408932209014893,-1.333535225396492,-2.5276270548449915,6.108931052475729,1.0190446376800537,-2.244540039693014
1708436649.070874,-2.140902280807495,-1.333542988901474,-2.5276361147509974,6.1089796898658655,1.0190569162368774,-2.244098965321676
1708436649.0729177,-2.140819787979126,-1.3335473996451874,-2.5276194254504603,6.108975398331442,1.0190372467041016,-2.243674103413717
1708436649.0749192,-2.14084792137146,-1.3335756820491333,-2.527628485356466,6.1089926836784265,1.0190569162368774,-2.2432578245746058
1708436649.0768871,-2.140878438949585,-1.333566741352417,-2.527628485356466,6.109003531723776,1.0190939903259277,-2.242833439503805
1708436649.0789473,-2.14082407951355,-1.3335430038026352,-2.5276315847979944,6.1089666960533044,1.0190895795822144,-2.2424004713641565
1708436649.0809565,-2.14083194732666,-1.3335056614926835,-2.527591053639547,6.109016525536337,1.0190523862838745,-2.242041889821188
1708436649.0828955,-2.140895366668701,-1.3335756671479722,-2.527637306843893,6.109015452652731,1.0190613269805908,-2.2415884176837366
1708436649.084939,-2.140864849090576,-1.3335579645684739,-2.5276029745685022,6.109024154930868,1.0190446376800537,-2.241180721913473
1708436649.086914,-2.140852451324463,-1.333530755048134,-2.5276315847979944,6.108983027725973,1.0190569162368774,-2.2407549063311976
1708436649.0889091,-2.1408603191375732,-1.333563746219017,-2.5275865236865442,6.1090242741401575,1.0190613269805908,-2.2403677145587366
1708436649.0909157,-2.140819787979126,-1.3336042177728196,-2.5276361147509974,6.109011161118307,1.0190895795822144,-2.2399476210223597
1708436649.0928814,-2.1408560276031494,-1.33357127130542,-2.5275939146624964,6.109011161118307,1.0190658569335938,-2.239523235951559
1708436649.0948741,-2.1408612728118896,-1.333559350376465,-2.5276690165149134,6.108962404518881,1.019085168838501,-2.239152256642477
1708436649.0968978,-2.1408016681671143,-1.3335756671479722,-2.5276480356799524,6.108999240189352,1.0190613269805908,-2.238772217427389
1708436649.0988796,-2.140810489654541,-1.3336161238006135,-2.5276148954974573,6.109044062882223,1.0190939903259277,-2.2383878866778772
1708436649.100902,-2.1408908367156982,-1.3335374158671875,-2.5276194254504603,6.109055745392599,1.0190644264221191,-2.238002602254049
1708436649.102874,-2.140899658203125,-1.3335801374963303,-2.5276647249804896,6.10901032665328,1.0190446376800537,-2.2376273314105433
1708436649.1048975,-2.1408772468566895,-1.33357127130542,-2.5275984446154993,6.109096276551046,1.0190688371658325,-2.2372544447528284
1708436649.1069157,-2.140895128250122,-1.333608703022339,-2.5276103655444544,6.109080064087667,1.0190658569335938,-2.236873451863424
1708436649.1089063,-2.140864849090576,-1.3335593354753037,-2.5276148954974573,6.109099495201864,1.0190446376800537,-2.2365058104144495
1708436649.110908,-2.1408603191375732,-1.3335789901069184,-2.5276058355914515,6.109150278359213,1.0190658569335938,-2.236121479664938
1708436649.1129062,-2.14084792137146,-1.3335430038026352,-2.5276511351214808,6.109134065895834,1.0190939903259277,-2.2357986609088343
1708436649.1148818,-2.1408016681671143,-1.3335623157075425,-2.5276194254504603,6.109171259194174,1.0190569162368774,-2.235445801411764
1708436649.1169002,-2.1408603191375732,-1.3335801225951691,-2.5276361147509974,6.109231817513265,1.0190328359603882,-2.2350600401507776
1708436649.1188962,-2.1408603191375732,-1.3336205643466492,-2.5276148954974573,6.109223234444418,1.0190402269363403,-2.2347329298602503
1708436649.120893,-2.140864849090576,-1.3335297417691727,-2.5276029745685022,6.109248149185934,1.0190614461898804,-2.2343743483172815
1708436649.1228845,-2.140869617462158,-1.3335549545339127,-2.5276148954974573,6.109247076302328,1.0190658569335938,-2.234030548726217
1708436649.1248915,-2.1408817768096924,-1.3335667562535782,-2.5276406447040003,6.109210240631857,1.0190446376800537,-2.2336609999286097
1708436649.1268847,-2.1408908367156982,-1.333559350376465,-2.5275865236865442,6.109241831093588,1.0190491676330566,-2.2333501021014612
1708436649.1288967,-2.140843391418457,-1.333583415751793,-2.5275819937335413,6.109237539559164,1.0190702676773071,-2.233006302510397
1708436649.130879,-2.1408886909484863,-1.3335745942643662,-2.5276406447040003,6.109281885414877,1.0190446376800537,-2.2326653639422815
1708436649.1329305,-2.1408886909484863,-1.33357127130542,-2.5275984446154993,6.1093190787132166,1.0189998149871826,-2.2323253790484827
1708436649.1348913,-2.1408841609954834,-1.3336367470077057,-2.5276194254504603,6.109311568527975,1.019004225730896,-2.2319887320147913
1708436649.136902,-2.140913486480713,-1.3335879308036347,-2.5276060740100306,6.109359133034506,1.0190372467041016,-2.231705967579977
1708436649.1388948,-2.140902280807495,-1.3335923117450257,-2.527541224156515,6.109338271408834,1.0189919471740723,-2.231361214314596
1708436649.1408863,-2.140836477279663,-1.3335623157075425,-2.52759558359255,6.109390604286947,1.0190011262893677,-2.23102838197817
1708436649.1428735,-2.1408514976501465,-1.333574653869011,-2.527579132710592,6.109411465912618,1.0189563035964966,-2.2307031790362757
1708436649.1448693,-2.1408772468566895,-1.3335909110358735,-2.527562443410055,6.109402882843771,1.0189273357391357,-2.2303741613971155
1708436649.146904,-2.1408684253692627,-1.333590955739357,-2.527557913457052,6.1094387648399255,1.0189290046691895,-2.230041805897848
1708436649.1489053,-2.140925884246826,-1.3335503947785874,-2.527579132710592,6.109426605492391,1.0189409255981445,-2.2297704855548304
1708436649.1509051,-2.140897512435913,-1.3336277318051835,-2.527571503316061,6.109478461533346,1.0189290046691895,-2.2294614950763147
1708436649.1528802,-2.1408841609954834,-1.3336233061603089,-2.527591053639547,6.109486448555746,1.018891453742981,-2.2291701475726526
1708436649.1549063,-2.1408932209014893,-1.3336563420346756,-2.527588192616598,6.109502780228414,1.0189049243927002,-2.2289069334613245
1708436649.1568758,-2.1409294605255127,-1.3336430203965683,-2.527557913457052,6.10948525646285,1.0188721418380737,-2.2285941282855433
1708436649.1588886,-2.1409125328063965,-1.3336385947516938,-2.5275700728045862,6.109464752465048,1.0188857316970825,-2.2282560507403772
1708436649.1608956,-2.1409409046173096,-1.3336593967727204,-2.527557913457052,6.109590637474813,1.0188523530960083,-2.228002373372213
1708436649.16287,-2.140979290008545,-1.3336713177016755,-2.527600113545553,6.109564649849691,1.018861174583435,-2.227680508290426
1708436649.1648712,-2.1409409046173096,-1.3337072891047974,-2.527591053639547,6.10958098152236,1.0188612937927246,-2.2274015585528772
1708436649.1668692,-2.140979290008545,-1.3336535853198548,-2.5275548140155237,6.10958098152236,1.0188285112380981,-2.2270715872394007
1708436649.1689162,-2.140944242477417,-1.3336879175952454,-2.527579132710592,6.109629976540365,1.0187921524047852,-2.2268908659564417
1708436649.1708653,-2.140977144241333,-1.333690957432129,-2.527512852345602,6.109677660256185,1.0188297033309937,-2.226593796406881
1708436649.1728854,-2.1409974098205566,-1.3336835515550156,-2.527588192616598,6.109640824585714,1.018796682357788,-2.2262752691852015
1708436649.1748886,-2.14097261428833,-1.3336834919503708,-2.5275309721576136,6.10968958118514,1.018784761428833,-2.226015869771139
1708436649.17689,-2.140984058380127,-1.3336505603841324,-2.5275548140155237,6.109741914063253,1.0187320709228516,-2.225744072590963
1708436649.1789532,-2.1409523487091064,-1.333641604786255,-2.5275190512286585,6.109753715782919,1.0187034606933594,-2.225459400807516
1708436649.1809206,-2.140968084335327,-1.3336998385242005,-2.5275190512286585,6.109746205597677,1.018683910369873,-2.225170914326803
1708436649.182936,-2.1409964561462402,-1.3337117296508332,-2.5274818579303187,6.109786498337545,1.018725872039795,-2.224984947835104
1708436649.1849325,-2.1410176753997803,-1.3336372685483475,-2.5275281111346644,6.1097779152686975,1.018683910369873,-2.224666420613424
1708436649.1868875,-2.1410677433013916,-1.3336460006288071,-2.5274818579303187,6.109776484757223,1.0185983180999756,-2.2244065443622034
1708436649.1889331,-2.1410157680511475,-1.333739922647812,-2.527461830769674,6.109772193222799,1.0186691284179688,-2.224154297505514
1708436649.1908793,-2.1410272121429443,-1.3336701852134247,-2.527426067982809,6.109809267311849,1.0186283588409424,-2.2239068190204065
1708436649.1929207,-2.1410000324249268,-1.3336416643908997,-2.527466360722677,6.109861600189962,1.0186372995376587,-2.223675552998678
1708436649.194902,-2.141052007675171,-1.3336579960635682,-2.52744704881777,6.109852778702535,1.0186045169830322,-2.2233856360064905
1708436649.1968918,-2.1410746574401855,-1.3337116998485108,-2.5274680296527308,6.109831201821127,1.0186103582382202,-2.223154369984762
1708436649.198909,-2.141040563583374,-1.3336701852134247,-2.527421538029806,6.109888541489401,1.0185846090316772,-2.222844902669088
1708436649.2009063,-2.1410892009735107,-1.3336535853198548,-2.527393166218893,6.109908091812887,1.0185728073120117,-2.2226465384112757
1708436649.2028732,-2.141040563583374,-1.3337117296508332,-2.5274487177478235,6.109912383347311,1.0185441970825195,-2.2223199049579065
1708436649.204881,-2.1410937309265137,-1.3336164069226761,-2.5273900667773646,6.1099973795707605,1.0185070037841797,-2.22213584581484
1708436649.2068846,-2.141084909439087,-1.333690957432129,-2.5274322668658655,6.109956013947286,1.0185487270355225,-2.221945587788717
1708436649.2089136,-2.141120195388794,-1.3337043088725586,-2.5273991266833704,6.110045063286581,1.0184825658798218,-2.2217143217669886
1708436649.2108645,-2.1411447525024414,-1.3336372685483475,-2.5274110476123255,6.1100079891975305,1.0184886455535889,-2.2214816252337855
1708436649.2129233,-2.1411495208740234,-1.3336865615895768,-2.527337376271383,6.110020267754354,1.0184812545776367,-2.2212489287005823
1708436649.2148726,-2.1411449909210205,-1.3336998981288453,-2.527437988911764,6.110030996590414,1.0184481143951416,-2.221015755330221
1708436649.2169082,-2.141127109527588,-1.3336491000703354,-2.5273659865008753,6.11006377914504,1.0184195041656494,-2.220788304005758
