Eg3-git/Classifiers/Data Collection/u4/u4xyz1_ur3e_joint_states.csv
time,elbow_joint,shoulder_lift_joint,shoulder_pan_joint,wrist_1_joint,wrist_2_joint,wrist_3_joint
1708436570.9972274,-2.1602284908294678,-1.3388520789197464,-2.5241673628436487,6.154783594399252,1.0128899812698364,-2.5896175543414515
1708436570.9992294,-2.160191297531128,-1.338795543914177,-2.5241807142840784,6.154758679657736,1.0128531455993652,-2.5896509329425257
1708436571.0012414,-2.160224199295044,-1.3388487261584778,-2.5242257753955286,6.154799806862631,1.0128650665283203,-2.5896390120135706
1708436571.0032256,-2.160219669342041,-1.3388163161328812,-2.524120871220724,6.154771792679586,1.0128365755081177,-2.58964187303652
1708436571.005272,-2.1602330207824707,-1.3388576668551941,-2.5241552034961146,6.154825079232015,1.0129019021987915,-2.5896509329425257
1708436571.0072322,-2.160142660140991,-1.3388207715800782,-2.524163071309225,6.1548207876975916,1.0129019021987915,-2.5895679632769983
1708436571.0092666,-2.1601834297180176,-1.3388283413699646,-2.5241344610797327,6.154767381935873,1.0128769874572754,-2.5896597544299524
1708436571.011231,-2.1602330207824707,-1.3388774406960984,-2.5241718927966517,6.15477608421401,1.012860655784607,-2.5896435419665735
1708436571.0132296,-2.160224199295044,-1.3388326925090333,-2.5241718927966517,6.154856788903036,1.0128650665283203,-2.5895848909961146
1708436571.0152657,-2.160174608230591,-1.3388237965158005,-2.5241764227496546,6.154799806862631,1.0128769874572754,-2.5896299521075647
1708436571.0172079,-2.160217046737671,-1.3388029348901291,-2.5241509119616907,6.154833662300863,1.0128974914550781,-2.5896175543414515
1708436571.0192394,-2.1602284908294678,-1.3388326925090333,-2.5241552034961146,6.154779183655538,1.012860655784607,-2.5896597544299524
1708436571.0212588,-2.160217046737671,-1.3388520938209076,-2.524207894002096,6.154829370766439,1.0128974914550781,-2.5895848909961146
1708436571.0232143,-2.160158634185791,-1.338808850651123,-2.5242093245135706,6.1547759650047205,1.0128769874572754,-2.5896056334124964
1708436571.0252109,-2.160261392593384,-1.3388487261584778,-2.524179283772604,6.154795515328207,1.0128487348556519,-2.5895543734179896
1708436571.0272129,-2.160158634185791,-1.338829756980278,-2.5241387526141565,6.154755461006918,1.0129358768463135,-2.5896263758288782
1708436571.0292256,-2.160212755203247,-1.338796691303589,-2.5241838137256067,6.154759871750631,1.012873649597168,-2.5896056334124964
1708436571.0312262,-2.160203695297241,-1.3388207715800782,-2.524162832890646,6.15477608421401,1.0128650665283203,-2.5896013418780726
1708436571.0332778,-2.160219669342041,-1.3388487261584778,-2.5241838137256067,6.154809582024374,1.0128931999206543,-2.5896509329425257
1708436571.0352166,-2.160219669342041,-1.338829756980278,-2.524158541356222,6.154808509140768,1.0128693580627441,-2.5896263758288782
1708436571.0372283,-2.160208225250244,-1.3388207715800782,-2.524104420338766,6.15480529048995,1.012860655784607,-2.5896101633654993
1708436571.0392015,-2.1601779460906982,-1.3388654303601761,-2.524162832890646,6.154747950821676,1.0128769874572754,-2.5895982424365442
1708436571.0411947,-2.160212755203247,-1.338841588502266,-2.524174753819601,6.154780375748434,1.0128531455993652,-2.5895982424365442
1708436571.0432444,-2.1602330207824707,-1.338837133055069,-2.5241883436786097,6.154829489975729,1.0128531455993652,-2.5895894209491175
1708436571.045233,-2.160195827484131,-1.3388565343669434,-2.5241971651660364,6.154759871750631,1.0128974914550781,-2.589630905781881
1708436571.047224,-2.160212755203247,-1.3388398450664063,-2.5241461435901087,6.154784667282858,1.0128931999206543,-2.589572254811422
1708436571.049222,-2.160165548324585,-1.3388531816056748,-2.5241838137256067,6.154712068825521,1.0128650665283203,-2.589581314717428
1708436571.0512216,-2.160170078277588,-1.338886247282364,-2.524162832890646,6.1547522423561,1.0128824710845947,-2.5896056334124964
1708436571.0532486,-2.160191297531128,-1.338841588502266,-2.524162832890646,6.154712188034811,1.012873649597168,-2.5895937124835413
1708436571.0552344,-2.1602108478546143,-1.3387999546578904,-2.5242496172534388,6.1547207711036584,1.0128693580627441,-2.589576784764425
1708436571.0572345,-2.160191297531128,-1.3387956035188218,-2.524200503026144,6.15464328506545,1.0128408670425415,-2.589548651372091
1708436571.059205,-2.160147190093994,-1.3388163310340424,-2.524179283772604,6.154664981156149,1.0128693580627441,-2.5896011034594935
1708436571.0612066,-2.160212755203247,-1.3388178509524842,-2.524212423955099,6.154677259712972,1.012857437133789,-2.5896101633654993
1708436571.0632334,-2.160226583480835,-1.3388163310340424,-2.5241718927966517,6.154651987343588,1.012860655784607,-2.5896084944354456
1708436571.0652127,-2.160187005996704,-1.338837133055069,-2.5241838137256067,6.154615986138143,1.012885570526123,-2.5895937124835413
1708436571.0672138,-2.160217046737671,-1.3387832653573533,-2.5241673628436487,6.154657470970907,1.0128488540649414,-2.5896220842944544
1708436571.069207,-2.1602535247802734,-1.3388326925090333,-2.524191443120138,6.154672848969259,1.0128531455993652,-2.5895891825305384
1708436571.071234,-2.160191297531128,-1.338837133055069,-2.5242047945605677,6.154641258507528,1.0128321647644043,-2.589602772389547
1708436571.0732431,-2.1602375507354736,-1.3388654303601761,-2.524195973073141,6.154644357949056,1.0128531455993652,-2.589618984852926
1708436571.0752177,-2.160224199295044,-1.3388610643199463,-2.5241928736316126,6.154738175659933,1.012860655784607,-2.5896263758288782
1708436571.07723,-2.160161018371582,-1.338837133055069,-2.524174753819601,6.154689061432638,1.0128531455993652,-2.5895891825305384
1708436571.0792158,-2.160212755203247,-1.338837133055069,-2.52412993112673,6.154623853951254,1.0128780603408813,-2.589565102254049
1708436571.0812185,-2.1601834297180176,-1.3388487261584778,-2.524174753819601,6.154591071396627,1.0128693580627441,-2.5895937124835413
1708436571.0832596,-2.1602091789245605,-1.3387956035188218,-2.5241926352130335,6.154645550041952,1.0128322839736938,-2.589548651372091
1708436571.0852337,-2.160231113433838,-1.3388565343669434,-2.524212423955099,6.1546562788780115,1.0128899812698364,-2.5896056334124964
1708436571.0872402,-2.160219669342041,-1.3388149005225678,-2.5241838137256067,6.154635774880209,1.0128531455993652,-2.5895937124835413
1708436571.0892055,-2.1602489948272705,-1.338881791835167,-2.5241764227496546,6.154635774880209,1.012885570526123,-2.589581314717428
1708436571.0912108,-2.1602284908294678,-1.3388029795936127,-2.5241718927966517,6.154657470970907,1.0128899812698364,-2.589565102254049
1708436571.0932217,-2.160208225250244,-1.3388531816056748,-2.5241673628436487,6.154632556229391,1.012844443321228,-2.589548651372091
1708436571.0951939,-2.160200357437134,-1.3388743263534089,-2.524179283772604,6.154653060227194,1.0128365755081177,-2.5895679632769983
1708436571.0972383,-2.160215139389038,-1.3388353896192093,-2.524212423955099,6.15461157539443,1.012873649597168,-2.589581314717428
1708436571.099207,-2.160217046737671,-1.3388353896192093,-2.524163071309225,6.154681551247396,1.012885570526123,-2.5895848909961146
1708436571.1011982,-2.160158634185791,-1.3388576221517106,-2.5242376963244837,6.154641258507528,1.012885570526123,-2.5895937124835413
1708436571.1031988,-2.160187005996704,-1.3388531816056748,-2.5241838137256067,6.154631483345785,1.0128650665283203,-2.589555803929464
1708436571.1051857,-2.160200357437134,-1.3388531816056748,-2.524154011403219,6.154664981156149,1.0128899812698364,-2.5896101633654993
1708436571.1072097,-2.1602418422698975,-1.338837133055069,-2.5241673628436487,6.154586779862203,1.0128321647644043,-2.589560333882467
1708436571.1092107,-2.160221576690674,-1.3388531816056748,-2.524162832890646,6.154602992325582,1.0128531455993652,-2.589585844670431
1708436571.1111991,-2.160200357437134,-1.3388074350408097,-2.5241673628436487,6.154591071396627,1.0128693580627441,-2.589585844670431
1708436571.113215,-2.160212755203247,-1.3388326925090333,-2.524158302937643,6.154653060227194,1.0128769874572754,-2.589560333882467
1708436571.1152117,-2.160187005996704,-1.3388074350408097,-2.524200503026144,6.154623734741964,1.0128693580627441,-2.589590136204855
1708436571.1175447,-2.160212755203247,-1.338837133055069,-2.524205032979147,6.154653060227194,1.0128618478775024,-2.5895395914660853
1708436571.1192288,-2.160191297531128,-1.3388283413699646,-2.524212423955099,6.154664981156149,1.0128693580627441,-2.5895617643939417
1708436571.1212206,-2.160191297531128,-1.3387910586646576,-2.5241673628436487,6.154653060227194,1.0128780603408813,-2.589581314717428
1708436571.1232362,-2.1602375507354736,-1.3388283413699646,-2.524200503026144,6.154664981156149,1.0128531455993652,-2.5895560423480433
1708436571.1252105,-2.160200357437134,-1.3388326925090333,-2.524191443120138,6.154681551247396,1.012857437133789,-2.5895946661578577
1708436571.1272204,-2.160191297531128,-1.3388163310340424,-2.5241673628436487,6.154668557434835,1.0128531455993652,-2.589532200490133
1708436571.1292443,-2.160170078277588,-1.338841588502266,-2.5242093245135706,6.154677259712972,1.0129060745239258,-2.589576784764425
1708436571.1312277,-2.160200357437134,-1.3388163310340424,-2.5241552034961146,6.154673683434286,1.0128618478775024,-2.589529339467184
1708436571.1333058,-2.160224199295044,-1.3388283413699646,-2.524224344884054,6.154635774880209,1.0128693580627441,-2.589576784764425
1708436571.1352093,-2.160208225250244,-1.3388237965158005,-2.5241718927966517,6.154681670456686,1.0129019021987915,-2.589607063923971
1708436571.1372135,-2.160217046737671,-1.3388074350408097,-2.524236265813009,6.154672848969259,1.0128200054168701,-2.589548651372091
1708436571.1392086,-2.160163164138794,-1.338881791835167,-2.5241928736316126,6.154697763710775,1.0128693580627441,-2.589602772389547
1708436571.141195,-2.160195827484131,-1.338881791835167,-2.5241883436786097,6.154660689621725,1.0128693580627441,-2.58954102197756
1708436571.1431959,-2.160195827484131,-1.338869870906212,-2.524179283772604,6.154657470970907,1.012922763824463,-2.589544121419088
1708436571.1452153,-2.1601719856262207,-1.3388487261584778,-2.524216953908102,6.15464876869277,1.0128287076950073,-2.589524809514181
1708436571.1471953,-2.1602284908294678,-1.3388119649938126,-2.524205032979147,6.154602873116293,1.0129019021987915,-2.589581314717428
1708436571.1492445,-2.1601834297180176,-1.338837133055069,-2.5241673628436487,6.154697882920065,1.012873649597168,-2.589545551930563
1708436571.151199,-2.1601765155792236,-1.3388283413699646,-2.524179283772604,6.15468584278182,1.0128662586212158,-2.589543883000509
1708436571.1532283,-2.160208225250244,-1.3388237965158005,-2.524195973073141,6.1546562788780115,1.0128650665283203,-2.589581314717428
1708436571.1552005,-2.1601834297180176,-1.3388119649938126,-2.5241461435901087,6.154721605568685,1.0128693580627441,-2.589541260396139
1708436571.1572134,-2.160224199295044,-1.3388326925090333,-2.524158302937643,6.154660689621725,1.012857437133789,-2.589581314717428
1708436571.1592107,-2.160195827484131,-1.338837133055069,-2.524170462285177,6.154710757523336,1.012885570526123,-2.5895989576922815
1708436571.161189,-2.1602418422698975,-1.338841588502266,-2.524216953908102,6.154640066414633,1.0128899812698364,-2.58954102197756
1708436571.1632051,-2.1602284908294678,-1.3388443750194092,-2.5241852442370813,6.154615986138143,1.0128650665283203,-2.5895825068103235
1708436571.165273,-2.160217046737671,-1.3388326925090333,-2.524205032979147,6.154632556229391,1.0128693580627441,-2.589524809514181
1708436571.1672273,-2.160221576690674,-1.3388237965158005,-2.524200503026144,6.154632556229391,1.0128812789916992,-2.589557472859518
1708436571.1692345,-2.160221576690674,-1.3388505739024659,-2.5242093245135706,6.154669391899862,1.0128812789916992,-2.58956486383547
1708436571.1712406,-2.1601879596710205,-1.3388074797442933,-2.524216953908102,6.154722797661581,1.012918472290039,-2.589548651372091
1708436571.1732454,-2.1602330207824707,-1.3388353896192093,-2.5241718927966517,6.154631364136495,1.0129019021987915,-2.589529101048605
1708436571.1752188,-2.160195827484131,-1.3387832653573533,-2.5241883436786097,6.154647576599874,1.0128899812698364,-2.589532200490133
1708436571.177223,-2.160212755203247,-1.3388309490731736,-2.5241838137256067,6.154664981156149,1.0128452777862549,-2.589565102254049
1708436571.1792336,-2.1601994037628174,-1.3388610643199463,-2.524221483861105,6.154689061432638,1.012860655784607,-2.589524809514181
1708436571.181245,-2.160200357437134,-1.3388487261584778,-2.524216953908102,6.154664981156149,1.0129061937332153,-2.589524809514181
1708436571.1832793,-2.160165548324585,-1.3388398450664063,-2.524207894002096,6.154661762505331,1.012873649597168,-2.589548651372091
1708436571.1852071,-2.160170078277588,-1.3388237965158005,-2.524186913167135,6.154672848969259,1.0128321647644043,-2.589581314717428
1708436571.1872222,-2.1601834297180176,-1.3388654303601761,-2.5241552034961146,6.154672848969259,1.0128488540649414,-2.5895662943469446
1708436571.1892219,-2.1602046489715576,-1.338881791835167,-2.5241838137256067,6.154664981156149,1.0129061937332153,-2.589590136204855
1708436571.1912076,-2.1601788997650146,-1.3388906878283997,-2.524240795766012,6.154681551247396,1.012857437133789,-2.589500967656271
1708436571.193236,-2.160217046737671,-1.338837133055069,-2.524216953908102,6.154640066414633,1.012873649597168,-2.589515988026754
1708436571.1952069,-2.160217046737671,-1.3388892722180863,-2.524158302937643,6.154651987343588,1.012857437133789,-2.589569393788473
1708436571.1972072,-2.160200357437134,-1.3388565194657822,-2.524191443120138,6.154615866928854,1.012857437133789,-2.589541260396139
1708436571.1992154,-2.1601788997650146,-1.338825212126114,-2.524163071309225,6.154644477158346,1.0128531455993652,-2.589557472859518
1708436571.2012386,-2.160208225250244,-1.338869870906212,-2.5241461435901087,6.154623734741964,1.0128693580627441,-2.5895944277392786
1708436571.2032187,-2.160203695297241,-1.3388610643199463,-2.524162832890646,6.154616105347433,1.0128693580627441,-2.589557472859518
1708436571.2052505,-2.1602284908294678,-1.3388487261584778,-2.524191443120138,6.154681551247396,1.0128693580627441,-2.589515988026754
1708436571.207217,-2.160200357437134,-1.338841588502266,-2.524195973073141,6.154668557434835,1.0128812789916992,-2.5895500818835657
1708436571.2092206,-2.160208225250244,-1.338869870906212,-2.524212423955099,6.154690372734823,1.0128899812698364,-2.5896204153644007
1708436571.211218,-2.160195827484131,-1.3388326925090333,-2.524212423955099,6.1547021744544885,1.0128531455993652,-2.589536730443136
1708436571.2132483,-2.1601788997650146,-1.3387713444283982,-2.524236265813009,6.154681551247396,1.0128898620605469,-2.589548651372091
1708436571.215203,-2.1601498126983643,-1.3388743263534089,-2.524179283772604,6.154705393105306,1.012873649597168,-2.589607063923971
1708436571.217233,-2.160170078277588,-1.3388487261584778,-2.524149481450216,6.154647576599874,1.0128976106643677,-2.589532438908712
1708436571.2192147,-2.160200357437134,-1.3388326925090333,-2.524200503026144,6.154717194824972,1.0128531455993652,-2.5895662943469446
1708436571.2212117,-2.16021728515625,-1.3388207715800782,-2.5241838137256067,6.154660689621725,1.0128986835479736,-2.589532200490133
1708436571.2232437,-2.1601834297180176,-1.338808850651123,-2.524200503026144,6.154664981156149,1.0128531455993652,-2.5895782152758997
1708436571.2252407,-2.160195827484131,-1.338898168211319,-2.5242093245135706,6.154660689621725,1.0128607749938965,-2.5895617643939417
1708436571.2272518,-2.1601922512054443,-1.3388576221517106,-2.524237934743063,6.154631364136495,1.0128531455993652,-2.5895944277392786
1708436571.2292674,-2.1601879596710205,-1.3388443750194092,-2.5242212454425257,6.15464876869277,1.0129019021987915,-2.589573923741476
1708436571.231271,-2.1601879596710205,-1.3387999546578904,-2.524207894002096,6.154684769898214,1.0128769874572754,-2.5895498434649866
1708436571.2333665,-2.160224199295044,-1.3388326925090333,-2.524200503026144,6.15464876869277,1.012873649597168,-2.589545551930563
1708436571.235279,-2.160212755203247,-1.3388531816056748,-2.5241838137256067,6.154653060227194,1.0128693580627441,-2.589569393788473
1708436571.237274,-2.160156011581421,-1.338886247282364,-2.524179283772604,6.154680359154501,1.0129019021987915,-2.589557472859518
1708436571.239212,-2.1601674556732178,-1.3388443750194092,-2.524195973073141,6.154672848969259,1.0128898620605469,-2.589532438908712
1708436571.2412117,-2.1601674556732178,-1.3388565343669434,-2.524191443120138,6.154681551247396,1.0128931999206543,-2.589536730443136
1708436571.243228,-2.1601834297180176,-1.3387788993171235,-2.524221483861105,6.154705273896017,1.0128488540649414,-2.5895782152758997
1708436571.2452037,-2.160200357437134,-1.3387999546578904,-2.524236265813009,6.154693472176351,1.0128931999206543,-2.589545551930563
1708436571.2472224,-2.160147190093994,-1.3388621670058747,-2.524125401173727,6.154602992325582,1.0128681659698486,-2.5895262400256556
1708436571.2492049,-2.1601834297180176,-1.338869870906212,-2.524228874837057,6.154672848969259,1.0129097700119019,-2.58956486383547
1708436571.2512252,-2.160212755203247,-1.3388576221517106,-2.524219814931051,6.154653060227194,1.0128531455993652,-2.589541260396139
1708436571.2532148,-2.160154104232788,-1.3388443750194092,-2.524236265813009,6.15464876869277,1.0128931999206543,-2.589585606251852
1708436571.2552001,-2.1601247787475586,-1.3388237965158005,-2.524203364049093,6.154734480171957,1.012888789176941,-2.5895708242999476
1708436571.2572434,-2.160224199295044,-1.338792161350586,-2.5241928736316126,6.154653060227194,1.012885570526123,-2.589536730443136
1708436571.2592025,-2.1601383686065674,-1.338837133055069,-2.5241780916797083,6.154668557434835,1.012885570526123,-2.589590136204855
1708436571.2612126,-2.1601834297180176,-1.338837133055069,-2.52423340479006,6.1546902535255334,1.0128931999206543,-2.589492146168844
1708436571.2632425,-2.1601133346557617,-1.338813380604126,-2.524266544972555,6.154602992325582,1.0128931999206543,-2.5895498434649866
1708436571.2652147,-2.1601922512054443,-1.3388531816056748,-2.524212423955099,6.154660689621725,1.0128974914550781,-2.589545551930563
1708436571.2672203,-2.1601788997650146,-1.3388654303601761,-2.524252955113546,6.1546246884162805,1.012888789176941,-2.5895989576922815
1708436571.2692504,-2.160221576690674,-1.3388283264688035,-2.524224344884054,6.15467797496871,1.0128974914550781,-2.589515988026754
1708436571.2712288,-2.160221576690674,-1.3388207715800782,-2.524262015019552,6.154681551247396,1.012888789176941,-2.5895498434649866
1708436571.2732344,-2.1602046489715576,-1.3388487261584778,-2.524207894002096,6.154631364136495,1.0128931999206543,-2.589552942906515
1708436571.2752283,-2.160174608230591,-1.3387832206538697,-2.524186913167135,6.154697763710775,1.0128974914550781,-2.589536730443136
1708436571.2772567,-2.1601719856262207,-1.338853196506836,-2.52423340479006,6.154660689621725,1.0128650665283203,-2.5895617643939417
1708436571.279245,-2.160221576690674,-1.3388743263534089,-2.5241826216327112,6.154644477158346,1.012888789176941,-2.5895543734179896
1708436571.281235,-2.1601879596710205,-1.3388044101050873,-2.524261776600973,6.154681551247396,1.012872576713562,-2.589562002812521
1708436571.283239,-2.1601336002349854,-1.338837133055069,-2.5242484251605433,6.154623853951254,1.0128562450408936,-2.589590136204855
1708436571.2852354,-2.1601788997650146,-1.3388163310340424,-2.524266544972555,6.15470968463973,1.0128530263900757,-2.589581314717428
1708436571.28722,-2.1601834297180176,-1.3388207715800782,-2.524219814931051,6.15464876869277,1.0128650665283203,-2.589545551930563
1708436571.2892144,-2.160142660140991,-1.3388654303601761,-2.524210755025045,6.154684769898214,1.012885570526123,-2.589548651372091
1708436571.2912402,-2.160156011581421,-1.3388906878283997,-2.5242181460009974,6.154653060227194,1.0128693580627441,-2.589585606251852
1708436571.2932322,-2.1601674556732178,-1.3388654452613373,-2.5242438952075403,6.154615986138143,1.012921929359436,-2.589545551930563
1708436571.2952185,-2.1601674556732178,-1.3388622117093583,-2.5242558161364954,6.15464876869277,1.012856364250183,-2.589565102254049
1708436571.2972424,-2.160163164138794,-1.3388326925090333,-2.5242844263659876,6.154653060227194,1.0129337310791016,-2.589545551930563
1708436571.2992108,-2.1602182388305664,-1.3388443750194092,-2.524353567753927,6.154632556229391,1.0129097700119019,-2.5895617643939417
1708436571.3012314,-2.160200357437134,-1.3388443750194092,-2.524282757435934,6.154718386917867,1.0129097700119019,-2.5895498434649866
1708436571.3032436,-2.160156011581421,-1.3388163310340424,-2.524311129246847,6.154653060227194,1.0128931999206543,-2.5895825068103235
1708436571.3052337,-2.1601674556732178,-1.3388326925090333,-2.524332586918966,6.154653060227194,1.012872576713562,-2.5895543734179896
1708436571.3072057,-2.1602137088775635,-1.3388163310340424,-2.5243564287768763,6.154693472176351,1.0129140615463257,-2.5895827452289026
1708436571.309224,-2.1601788997650146,-1.338807390337326,-2.5243235270129603,6.154664981156149,1.0128519535064697,-2.5895336310016077
1708436571.3112354,-2.1601922512054443,-1.3387956035188218,-2.52431565919985,6.154710757523336,1.012921929359436,-2.5895827452289026
1708436571.3132231,-2.1601970195770264,-1.338853196506836,-2.524306599293844,6.154632556229391,1.0128974914550781,-2.589524809514181
1708436571.3152366,-2.1601336002349854,-1.3388163310340424,-2.524311129246847,6.154656398087301,1.0129097700119019,-2.589557472859518
1708436571.3172097,-2.1601719856262207,-1.3388743710568924,-2.5243564287768763,6.154649841576376,1.0129053592681885,-2.589504067097799
1708436571.319209,-2.1602137088775635,-1.3387999397567292,-2.524328056965963,6.15468596199111,1.012938141822815,-2.589541260396139
1708436571.3212347,-2.1601765155792236,-1.3388743263534089,-2.524332586918966,6.15464876869277,1.0129175186157227,-2.589545551930563
1708436571.3232083,-2.160160541534424,-1.3388163161328812,-2.524306599293844,6.154653060227194,1.0128931999206543,-2.589545551930563
1708436571.3252122,-2.160151720046997,-1.3387832653573533,-2.524365488682882,6.154644477158346,1.012900948524475,-2.5895782152758997
1708436571.327225,-2.1601336002349854,-1.338869870906212,-2.52431565919985,6.154653060227194,1.0128974914550781,-2.589545551930563
1708436571.3292184,-2.1601221561431885,-1.3388788563064118,-2.524303738270895,6.154623734741964,1.0129097700119019,-2.589573685322897
1708436571.3312201,-2.1601970195770264,-1.3388283264688035,-2.524349037800924,6.15464876869277,1.0128800868988037,-2.589585606251852
1708436571.33325,-2.1601834297180176,-1.3388119649938126,-2.52431565919985,6.154681551247396,1.0128593444824219,-2.589508597050802
1708436571.3352287,-2.160200357437134,-1.3388443750194092,-2.524328056965963,6.15464876869277,1.012900948524475,-2.589545551930563
1708436571.3372245,-2.160156011581421,-1.3388119500926514,-2.524349037800924,6.15464876869277,1.0129175186157227,-2.589545551930563
1708436571.3392026,-2.1601266860961914,-1.3388565343669434,-2.524290148411886,6.154632556229391,1.0129132270812988,-2.589557472859518
1708436571.3412151,-2.1601879596710205,-1.338808850651123,-2.5243235270129603,6.154649841576376,1.0129132270812988,-2.589529339467184
1708436571.3431976,-2.16020131111145,-1.3388163310340424,-2.524332586918966,6.154644477158346,1.0129263401031494,-2.589545551930563
1708436571.345233,-2.1601879596710205,-1.3388487261584778,-2.524328056965963,6.154615986138143,1.012938141822815,-2.589529101048605
1708436571.3472111,-2.1601879596710205,-1.3388119649938126,-2.52431565919985,6.154653060227194,1.0129132270812988,-2.5895944277392786
1708436571.349202,-2.160205841064453,-1.3388283264688035,-2.5243683497058313,6.154706585198202,1.0128843784332275,-2.5895662943469446
1708436571.3512008,-2.160142660140991,-1.3388326925090333,-2.5243189970599573,6.154697882920065,1.012900948524475,-2.5895586649524134
1708436571.3532147,-2.160160541534424,-1.3388283264688035,-2.5244010130511683,6.1546246884162805,1.0129263401031494,-2.5895617643939417
1708436571.35519,-2.1601922512054443,-1.3388029348901291,-2.5243235270129603,6.154644477158346,1.0128966569900513,-2.589545551930563
1708436571.3572087,-2.1601810455322266,-1.3388371479562302,-2.52438193956484,6.154620277672567,1.0129337310791016,-2.589590136204855
1708436571.3592062,-2.1601719856262207,-1.338848741059639,-2.524360958729879,6.1546246884162805,1.0129425525665283,-2.589515988026754
1708436571.3611832,-2.1601381301879883,-1.3388398450664063,-2.5243399778949183,6.154607283860006,1.0129175186157227,-2.589508597050802
1708436571.363197,-2.1601381301879883,-1.338841588502266,-2.524306599293844,6.15470968463973,1.0129250288009644,-2.589504067097799
1708436571.3651943,-2.160156011581421,-1.3388460886529465,-2.524303738270895,6.154674875527181,1.0129088163375854,-2.589602772389547
1708436571.3672056,-2.160160541534424,-1.3388654601624985,-2.5243235270129603,6.15461157539443,1.0129053592681885,-2.589512888585226
1708436571.369194,-2.160147190093994,-1.338832677607872,-2.5243235270129603,6.154664981156149,1.0129294395446777,-2.589529339467184
1708436571.3711991,-2.1601810455322266,-1.3388207715800782,-2.524320189152853,6.154608475952902,1.0129175186157227,-2.589532438908712
1708436571.3732154,-2.160147190093994,-1.338848741059639,-2.524311129246847,6.15468596199111,1.0129460096359253,-2.5895498434649866
1708436571.37519,-2.1601336002349854,-1.338791013961174,-2.524282995854513,6.154644477158346,1.0129132270812988,-2.589541260396139
1708436571.3772035,-2.1601765155792236,-1.3388237816146393,-2.524278227482931,6.15461157539443,1.0129175186157227,-2.5895617643939417
1708436571.3791957,-2.1601221561431885,-1.3388565343669434,-2.5243235270129603,6.154632556229391,1.0129622220993042,-2.589508597050802
1708436571.3812015,-2.160142660140991,-1.338853196506836,-2.524299208317892,6.154644477158346,1.012953519821167,-2.589553181325094
1708436571.383227,-2.1601650714874268,-1.3388699156096955,-2.524299208317892,6.154678094177999,1.0129578113555908,-2.589569393788473
1708436571.3852124,-2.1601133346557617,-1.338869870906212,-2.524328056965963,6.154657470970907,1.0129622220993042,-2.5894835630999964
1708436571.3872457,-2.1601266860961914,-1.3388119500926514,-2.524311129246847,6.154575931816854,1.012966513633728,-2.589545551930563
1708436571.3891997,-2.1601381301879883,-1.3388326925090333,-2.524320189152853,6.154620277672567,1.0129503011703491,-2.589545551930563
1708436571.3911939,-2.1601970195770264,-1.338848741059639,-2.524285856877462,6.154694545059957,1.0129337310791016,-2.5895498434649866
1708436571.3932157,-2.1601696014404297,-1.3388163161328812,-2.524320189152853,6.154615986138143,1.012969732284546,-2.58954102197756
1708436571.3952012,-2.1601266860961914,-1.3388684552958985,-2.524303738270895,6.154657470970907,1.012941598892212,-2.589517418538229
1708436571.3971949,-2.160151720046997,-1.3388326925090333,-2.524337116871969,6.154636847763815,1.0129503011703491,-2.5895217100726526
1708436571.3992019,-2.160156011581421,-1.3387832206538697,-2.524320189152853,6.154657470970907,1.0129294395446777,-2.58954102197756
1708436571.4011853,-2.1601381301879883,-1.3388237816146393,-2.524344507847921,6.154653060227194,1.0129207372665405,-2.589545551930563
1708436571.4032035,-2.160147190093994,-1.3388163310340424,-2.524332586918966,6.154644477158346,1.0129337310791016,-2.589524809514181
1708436571.405231,-2.1601357460021973,-1.3388487112573166,-2.524303738270895,6.154664981156149,1.0129250288009644,-2.5895617643939417
1708436571.4072168,-2.1601719856262207,-1.3387999397567292,-2.52431565919985,6.154664981156149,1.0129088163375854,-2.589529339467184
1708436571.4092164,-2.1601810455322266,-1.3388283413699646,-2.52431565919985,6.154617059021749,1.0129207372665405,-2.589541260396139
1708436571.4112232,-2.1601221561431885,-1.3388029348901291,-2.524282757435934,6.154673683434286,1.012941598892212,-2.5895217100726526
1708436571.4132133,-2.1601221561431885,-1.338791013961174,-2.52431565919985,6.154641258507528,1.0129578113555908,-2.589524809514181
1708436571.4152675,-2.1601719856262207,-1.338807390337326,-2.524303738270895,6.154636847763815,1.0129460096359253,-2.589541260396139
1708436571.41724,-2.1601765155792236,-1.3388416034034272,-2.52431565919985,6.1546281454856775,1.0129294395446777,-2.589529339467184
1708436571.419218,-2.160142660140991,-1.3388654452613373,-2.524332586918966,6.15464876869277,1.0129460096359253,-2.5895662943469446
1708436571.4212365,-2.1601293087005615,-1.3388283264688035,-2.524302069340841,6.154727089196005,1.0129294395446777,-2.5895634333239954
1708436571.4232528,-2.1601765155792236,-1.3388207715800782,-2.524278227482931,6.154641258507528,1.0129622220993042,-2.5895543734179896
1708436571.4252174,-2.160156011581421,-1.3387743097594758,-2.524306599293844,6.15466188171462,1.0129330158233643,-2.5895217100726526
1708436571.427248,-2.160160541534424,-1.338807390337326,-2.5242918173419397,6.154690372734823,1.0129623413085938,-2.5895217100726526
1708436571.4292064,-2.160156011581421,-1.3388326925090333,-2.524240795766012,6.154698955803671,1.0129294395446777,-2.5895336310016077
1708436571.4312491,-2.160147190093994,-1.338791013961174,-2.52431565919985,6.154599773674764,1.0129263401031494,-2.589517418538229
1708436571.4332585,-2.160156011581421,-1.3388119500926514,-2.524294678364889,6.154587852745809,1.0129088163375854,-2.589529339467184
1708436571.4352634,-2.1601107120513916,-1.3387999397567292,-2.524320189152853,6.154644477158346,1.0129207372665405,-2.5895498434649866
1708436571.4372969,-2.160151720046997,-1.3387999397567292,-2.524294678364889,6.1546071646507166,1.0129337310791016,-2.5895662943469446
1708436571.4392593,-2.160147190093994,-1.338807390337326,-2.5243235270129603,6.1546281454856775,1.0129622220993042,-2.5895662943469446
1708436571.4412196,-2.160151720046997,-1.3387999397567292,-2.5243082682238978,6.1546281454856775,1.012937307357788,-2.5894840399371546
1708436571.4432304,-2.1601855754852295,-1.3388237369111557,-2.52431565919985,6.154583442002096,1.0129294395446777,-2.5894797484027308
1708436571.4452257,-2.160142660140991,-1.3388252270272751,-2.5242753664599817,6.154677259712972,1.0129337310791016,-2.5894973913775843
1708436571.4472587,-2.160160541534424,-1.338837133055069,-2.524311129246847,6.1546246884162805,1.012937307357788,-2.5895054976092737
1708436571.4492068,-2.1601336002349854,-1.3388283264688035,-2.5243173281299036,6.154632556229391,1.0129622220993042,-2.589426342641012
1708436571.4512167,-2.1601943969726562,-1.338839830165245,-2.524320189152853,6.154657470970907,1.0129337310791016,-2.589506212865011
1708436571.4532502,-2.1601855754852295,-1.3388163161328812,-2.524270836506979,6.154678094177999,1.012966513633728,-2.5895469824420374
1708436571.455225,-2.160147190093994,-1.3388326925090333,-2.5243127981769007,6.154620277672567,1.0129404067993164,-2.5894811789142054
1708436571.457243,-2.1601970195770264,-1.338839830165245,-2.524270836506979,6.154644477158346,1.0129623413085938,-2.589500967656271
1708436571.4592066,-2.1601741313934326,-1.3387609285167237,-2.524299208317892,6.154617059021749,1.0129250288009644,-2.5894528071032923
1708436571.4612062,-2.160160541534424,-1.338853196506836,-2.5243082682238978,6.154632556229391,1.0129337310791016,-2.5894764105426233
1708436571.4632406,-2.1601696014404297,-1.3387832206538697,-2.524282757435934,6.154697882920065,1.0129207372665405,-2.5894973913775843
1708436571.465209,-2.1601381301879883,-1.3388252270272751,-2.524282757435934,6.1546246884162805,1.0129250288009644,-2.5894811789142054
1708436571.4672308,-2.1601243019104004,-1.3388283264688035,-2.5243290106402796,6.154583442002096,1.012892246246338,-2.5894528071032923
1708436571.4692116,-2.1600940227508545,-1.3388283264688035,-2.524278227482931,6.154592263489523,1.0129622220993042,-2.589543883000509
1708436571.4712222,-2.1601357460021973,-1.338853196506836,-2.524337116871969,6.154653060227194,1.0129460096359253,-2.5894973913775843
1708436571.4732227,-2.1601765155792236,-1.3388610792211075,-2.5242963472949427,6.154637563019552,1.0129460096359253,-2.5895195643054407
1708436571.4752092,-2.1601357460021973,-1.3388043952039261,-2.5243173281299036,6.154666173249044,1.0129250288009644,-2.589461628590719
1708436571.477227,-2.1601696014404297,-1.3388818365386506,-2.5243173281299036,6.154615986138143,1.0129337310791016,-2.589473549519674
1708436571.4792202,-2.1601030826568604,-1.3388237816146393,-2.5242753664599817,6.154607283860006,1.0129622220993042,-2.5894692579852503
1708436571.481229,-2.1601312160491943,-1.3387955588153382,-2.5243082682238978,6.1546246884162805,1.0129164457321167,-2.589435879384176
1708436571.483212,-2.160147190093994,-1.3388326925090333,-2.524299208317892,6.154641258507528,1.0129294395446777,-2.58948260942568
1708436571.4852026,-2.1601357460021973,-1.3388416034034272,-2.5242753664599817,6.15464876869277,1.0129294395446777,-2.5895307699786585
1708436571.4872038,-2.160156011581421,-1.3388788414052506,-2.524341646824972,6.154587852745809,1.012941598892212,-2.589482371007101
1708436571.4891942,-2.160142660140991,-1.3388043952039261,-2.5242589155780237,6.154583442002096,1.0129460096359253,-2.589457337056295
1708436571.4912274,-2.1601357460021973,-1.3388565343669434,-2.5242918173419397,6.154608475952902,1.0129207372665405,-2.589510504399435
1708436571.4932487,-2.160142660140991,-1.3388043952039261,-2.5242753664599817,6.154633271485128,1.0129622220993042,-2.589498821889059
1708436571.4951954,-2.1601221561431885,-1.338832677607872,-2.5242798964129847,6.154653179436483,1.0129132270812988,-2.589473549519674
1708436571.4972444,-2.1601719856262207,-1.3388520789197464,-2.5242634455310267,6.1546246884162805,1.0129503011703491,-2.5894401709186
1708436571.4991956,-2.160151720046997,-1.3388252270272751,-2.5243173281299036,6.154620277672567,1.0129503011703491,-2.589473549519674
1708436571.501215,-2.16020131111145,-1.3388443750194092,-2.5243008772479456,6.1546246884162805,1.0129294395446777,-2.589482371007101
1708436571.5032096,-2.1601402759552,-1.338832677607872,-2.5242798964129847,6.154595482140341,1.0129709243774414,-2.589506212865011
1708436571.5052035,-2.160147190093994,-1.338853196506836,-2.5243173281299036,6.154580342560568,1.0129503011703491,-2.589501682912008
1708436571.5072181,-2.1601855754852295,-1.338791013961174,-2.5242963472949427,6.154620277672567,1.0129294395446777,-2.589457337056295
1708436571.5092504,-2.160147190093994,-1.3388982129148026,-2.5242844263659876,6.154607283860006,1.0129460096359253,-2.5894485155688685
1708436571.5112035,-2.160156011581421,-1.3388163161328812,-2.5243218580829065,6.154590952187338,1.0129175186157227,-2.5894535223590296
1708436571.5132275,-2.1601266860961914,-1.3388460886529465,-2.5242634455310267,6.1546575901801965,1.0129591226577759,-2.589416567479269
1708436571.5151985,-2.160156011581421,-1.3388282817653199,-2.5242889563189905,6.1545965550239465,1.0129132270812988,-2.589440409337179
1708436571.5172088,-2.160160541534424,-1.3388163161328812,-2.5242679754840296,6.1546246884162805,1.012941598892212,-2.589466158543722
1708436571.5192251,-2.1601357460021973,-1.3388520789197464,-2.5242376963244837,6.15464876869277,1.0129250288009644,-2.589489761983053
1708436571.5212004,-2.160147190093994,-1.3388119500926514,-2.5242889563189905,6.154620277672567,1.012966513633728,-2.589461628590719
1708436571.5232127,-2.1601312160491943,-1.338853196506836,-2.5242016951190394,6.1546116946037195,1.012941598892212,-2.589416567479269
1708436571.525209,-2.1601312160491943,-1.3388610792211075,-2.5242679754840296,6.15460084655837,1.0129294395446777,-2.5894535223590296
1708436571.5271964,-2.160142660140991,-1.3388610792211075,-2.5243054072009485,6.1545965550239465,1.0129337310791016,-2.589486900960104
1708436571.5292418,-2.1601741313934326,-1.3388163310340424,-2.5242725054370325,6.15464876869277,1.0129207372665405,-2.589416567479269
1708436571.5312183,-2.1601696014404297,-1.3388789159110566,-2.5242889563189905,6.154653060227194,1.012941598892212,-2.589477841054098
1708436571.5332305,-2.160147190093994,-1.3388237369111557,-2.5242634455310267,6.154620277672567,1.0128800868988037,-2.5894401709186
1708436571.5352967,-2.160147190093994,-1.3388252270272751,-2.5242844263659876,6.154628979950704,1.0129175186157227,-2.589486900960104
1708436571.5372624,-2.1601741313934326,-1.3388743710568924,-2.5242725054370325,6.154629099159994,1.0129460096359253,-2.5894296805011194
1708436571.5392148,-2.1601312160491943,-1.338852049117424,-2.5242844263659876,6.154604065209188,1.0129132270812988,-2.5894911924945276
1708436571.5412347,-2.1601107120513916,-1.3388576668551941,-2.5242889563189905,6.154628979950704,1.0129132270812988,-2.589419666920797
1708436571.5432148,-2.160160541534424,-1.3388043952039261,-2.5242725054370325,6.154615866928854,1.0129088163375854,-2.589471165333883
1708436571.5452213,-2.1601357460021973,-1.3387579333833237,-2.5242934862719935,6.154615986138143,1.0128931999206543,-2.5894373098956507
1708436571.5471957,-2.1601154804229736,-1.3388326627067109,-2.5242798964129847,6.154666173249044,1.0129175186157227,-2.589416567479269
1708436571.5491903,-2.1600940227508545,-1.338848741059639,-2.5242815653430384,6.154617059021749,1.012921929359436,-2.5894461313830774
1708436571.5511975,-2.160147190093994,-1.3388206970742722,-2.5242603460894983,6.154681670456686,1.0129175186157227,-2.5894506613360804
1708436571.5532084,-2.1601741313934326,-1.3388207864812394,-2.5242393652545374,6.1546246884162805,1.012921929359436,-2.5894957224475306
1708436571.5552223,-2.160160541534424,-1.3388576668551941,-2.524186913167135,6.154588925629415,1.0129097700119019,-2.589433018361227
1708436571.5572615,-2.1601107120513916,-1.3388416034034272,-2.524165693913595,6.154617059021749,1.0128769874572754,-2.5894046465503138
1708436571.55921,-2.1601312160491943,-1.3388252270272751,-2.524186913167135,6.1545846340949915,1.0129053592681885,-2.589421097432272
1708436571.5612264,-2.160142660140991,-1.3388487112573166,-2.524205032979147,6.154645550041952,1.0129263401031494,-2.5894373098956507
1708436571.5632238,-2.1601784229278564,-1.3388252419284363,-2.5241597334491175,6.154608475952902,1.0129337310791016,-2.5894299189196985
1708436571.5651946,-2.1601154804229736,-1.3388207715800782,-2.5241313616382044,6.154657470970907,1.012921929359436,-2.589428249989645
1708436571.5672054,-2.1601030826568604,-1.3388207715800782,-2.5241523424731653,6.154641258507528,1.012888789176941,-2.5893877188311976
1708436571.5692058,-2.1601357460021973,-1.3388163310340424,-2.5241642634021204,6.154612767487325,1.0129425525665283,-2.5894134680377405
1708436571.571191,-2.1601402759552,-1.3387698394111176,-2.5241223017321985,6.154612767487325,1.0129175186157227,-2.5894416014300745
1708436571.5732079,-2.160151720046997,-1.3388461631587525,-2.5241404215442103,6.154615986138143,1.012934923171997,-2.5893877188311976
1708436571.5752165,-2.1601030826568604,-1.338804380302765,-2.524149481450216,6.154637563019552,1.0129175186157227,-2.5894046465503138
1708436571.577273,-2.160147190093994,-1.33879108846698,-2.5241029898272913,6.15458773353652,1.012905478477478,-2.5894461313830774
1708436571.5792105,-2.160144567489624,-1.3388371628573914,-2.5241404215442103,6.154617059021749,1.0129053592681885,-2.5893757979022425
1708436571.5812142,-2.160151720046997,-1.3387999695590516,-2.524165932332174,6.154587852745809,1.012900948524475,-2.5894373098956507
1708436571.5832264,-2.1601030826568604,-1.3388119649938126,-2.5241165796863,6.154592263489523,1.012921929359436,-2.589421097432272
1708436571.5852177,-2.1601741313934326,-1.3388043952039261,-2.5241642634021204,6.154633390694418,1.0128681659698486,-2.589454952870504
1708436571.5872004,-2.160144567489624,-1.3388621670058747,-2.5241239706622522,6.154617178231039,1.0129263401031494,-2.5893757979022425
1708436571.5892131,-2.160156011581421,-1.338808850651123,-2.5241523424731653,6.154628979950704,1.0128650665283203,-2.5894492308246058
1708436571.5911994,-2.1601402759552,-1.3387999546578904,-2.5241194407092493,6.154576766281881,1.0129183530807495,-2.589454952870504
1708436571.5932386,-2.160156011581421,-1.338807464843132,-2.524161402379171,6.154609548836508,1.0129053592681885,-2.5894506613360804
1708436571.5952432,-2.1601197719573975,-1.3387955588153382,-2.5241239706622522,6.1545965550239465,1.012844443321228,-2.58940560022463
1708436571.597231,-2.1601312160491943,-1.3388907623342057,-2.5240820089923304,6.154556143074789,1.0128562450408936,-2.589389149342672
1708436571.5992253,-2.1601197719573975,-1.3388283413699646,-2.5241194407092493,6.154572355538168,1.012885570526123,-2.5894010702716272
1708436571.6012056,-2.1601197719573975,-1.338829756980278,-2.5241900126086634,6.154544341355123,1.0128693580627441,-2.5894010702716272
1708436571.6032317,-2.1601030826568604,-1.3388163310340424,-2.5241404215442103,6.154451596527853,1.0128650665283203,-2.5893848578082483
1708436571.6052432,-2.1601402759552,-1.3388044250062485,-2.5241432825671595,6.154455888062277,1.0128812789916992,-2.5893800894366663
1708436571.6072085,-2.160090684890747,-1.3387461763671418,-2.524133030568258,6.154449212342062,1.012885570526123,-2.5894179979907435
1708436571.6092522,-2.160086154937744,-1.3388119649938126,-2.5241313616382044,6.154388296395101,1.0128812789916992,-2.5894134680377405
1708436571.6112223,-2.1601197719573975,-1.3388666075519104,-2.5241432825671595,6.154428708344259,1.0128607749938965,-2.5893877188311976
1708436571.6132176,-2.160149097442627,-1.338829756980278,-2.5240820089923304,6.154437291413107,1.012888789176941,-2.5894046465503138
1708436571.6152334,-2.1601402759552,-1.338832677607872,-2.524112049733297,6.154392587929525,1.0128650665283203,-2.5894222895251673
1708436571.6172075,-2.1601197719573975,-1.338820756678917,-2.5241029898272913,6.154416787415304,1.0128769874572754,-2.5893965403186243
1708436571.6192105,-2.16011643409729,-1.3388531667045136,-2.5241358915912073,6.154372083931722,1.0128531455993652,-2.5894296805011194
1708436571.621209,-2.160107374191284,-1.3387966764024277,-2.5241854826556605,6.154405581742086,1.0128531455993652,-2.58942681947817
1708436571.6232157,-2.160151720046997,-1.3387956035188218,-2.5241103808032435,6.154429781227865,1.0128618478775024,-2.5894296805011194
1708436571.62522,-2.1601040363311768,-1.3388044101050873,-2.5241478125201624,6.154360163002767,1.0128824710845947,-2.5893757979022425
1708436571.6272342,-2.160081624984741,-1.338780329828598,-2.524144951497213,6.15438066700057,1.0128408670425415,-2.5894134680377405
1708436571.6291986,-2.1601197719573975,-1.3388044101050873,-2.5241358915912073,6.154352652817526,1.0128049850463867,-2.5893965403186243
1708436571.631199,-2.160111904144287,-1.3388341975263138,-2.5241358915912073,6.154377448349752,1.0128496885299683,-2.5893965403186243
1708436571.6332362,-2.1601197719573975,-1.3388044101050873,-2.5241642634021204,6.154344665795126,1.0128124952316284,-2.5894134680377405
1708436571.635316,-2.1600985527038574,-1.3387788993171235,-2.5241358915912073,6.154325234680929,1.0128049850463867,-2.5894387404071253
1708436571.6372724,-2.1601312160491943,-1.3387876611999054,-2.5241733233081263,6.154296028404989,1.012792706489563,-2.5894253889666956
1708436571.639217,-2.1601243019104004,-1.3388163310340424,-2.5241642634021204,6.154320943146505,1.012813687324524,-2.589395825062887
1708436571.6412063,-2.1601288318634033,-1.3387848001769562,-2.5241432825671595,6.154268610268392,1.0127601623535156,-2.589454952870504
1708436571.6432283,-2.16015362739563,-1.338813380604126,-2.5241404215442103,6.154247033386984,1.0127884149551392,-2.5894046465503138
1708436571.6452274,-2.160099506378174,-1.338841588502266,-2.5241642634021204,6.15430115440444,1.0127394199371338,-2.589466158543722
1708436571.6472318,-2.1600701808929443,-1.3388207715800782,-2.5241313616382044,6.154322016030111,1.012776494026184,-2.589435879384176
1708436571.6492362,-2.1600632667541504,-1.3388252568295975,-2.524144951497213,6.154317724495687,1.012813687324524,-2.589423958455221
1708436571.6512077,-2.160094976425171,-1.338792161350586,-2.524161402379171,6.154260027199545,1.0127809047698975,-2.589470450078146
1708436571.653248,-2.1601083278656006,-1.338862122302391,-2.5240820089923304,6.154252397805013,1.012813687324524,-2.589489761983053
1708436571.6552398,-2.160090684890747,-1.3388416332057496,-2.5241058508502405,6.154289233475485,1.0128092765808105,-2.5895350615130823
1708436571.657239,-2.160125255584717,-1.338808850651123,-2.5240910688983362,6.154269802361288,1.0128254890441895,-2.5895631949054163
1708436571.6592577,-2.160088062286377,-1.338787705903389,-2.5241404215442103,6.1542783854301355,1.0128049850463867,-2.5895662943469446
1708436571.661218,-2.160072088241577,-1.3388711971095582,-2.5240865389453333,6.154274093895712,1.0127971172332764,-2.589532438908712
1708436571.6632495,-2.160097122192383,-1.3388207715800782,-2.5241404215442103,6.154205310135641,1.012813687324524,-2.5895679632769983
1708436571.665197,-2.1600472927093506,-1.3387684685042878,-2.524144951497213,6.154217231064596,1.0127971172332764,-2.5896387735949915
1708436571.667201,-2.1600542068481445,-1.338808850651123,-2.5241313616382044,6.154189097672262,1.0127894878387451,-2.5896595160113733
1708436571.6692107,-2.160090208053589,-1.3388222467950364,-2.5241239706622522,6.154181468277731,1.0127689838409424,-2.5896461645709437
1708436571.6712072,-2.1600472927093506,-1.338792161350586,-2.5241239706622522,6.154100763588705,1.0127851963043213,-2.589719597493307
1708436571.6732316,-2.160011053085327,-1.3387876611999054,-2.524100128804342,6.154064047127523,1.0127567052841187,-2.589743439351217
1708436571.6752403,-2.1600472927093506,-1.3388044101050873,-2.5241404215442103,6.1541552422340295,1.0127851963043213,-2.5897915999041956
1708436571.677233,-2.1599953174591064,-1.3388223213008423,-2.524128500615255,6.153999554901876,1.0127655267715454,-2.589778486882345
1708436571.6792064,-2.1600279808044434,-1.3387712997249146,-2.5241404215442103,6.154017913132467,1.0127437114715576,-2.5898471514331263
1708436571.6812613,-2.1599581241607666,-1.3388178509524842,-2.5241149107562464,6.154013621598043,1.0127445459365845,-2.589883629475729
1708436571.6832786,-2.1599793434143066,-1.3388056618026276,-2.524133030568258,6.153985130577841,1.012761116027832,-2.589935604725973
1708436571.6852207,-2.1600289344787598,-1.3387863797000428,-2.524161402379171,6.153932916909017,1.0127971172332764,-2.590003554021017
1708436571.6872325,-2.1599972248077393,-1.338843361740448,-2.5240865389453333,6.153880703240194,1.0127732753753662,-2.590085808430807
1708436571.68923,-2.159947395324707,-1.3387487691691895,-2.5241313616382044,6.153848159104147,1.0127732753753662,-2.590086285267965
1708436571.6912181,-2.159984827041626,-1.3387207996896286,-2.5241854826556605,6.15382086017684,1.0127567052841187,-2.5901721159564417
1708436571.6932256,-2.160010576248169,-1.3387622100165864,-2.5241733233081263,6.1537314532096765,1.012740135192871,-2.5903220812426966
1708436571.6952043,-2.1599652767181396,-1.338721976881363,-2.5241149107562464,6.153798925667562,1.0127646923065186,-2.59036094347109
1708436571.6972713,-2.1599113941192627,-1.3386260879090806,-2.5241854826556605,6.153745639115133,1.0127809047698975,-2.590374771748678
1708436571.699215,-2.1599009037017822,-1.3386846792748948,-2.524161402379171,6.1537020085151575,1.0127567052841187,-2.5905337969409388
1708436571.7012317,-2.159909963607788,-1.3386351478150864,-2.5240939299212855,6.153636681824484,1.012805700302124,-2.5906792322741907
1708436571.703256,-2.1598072052001953,-1.3386818182519455,-2.5241358915912073,6.153658377915182,1.0127938985824585,-2.590745989476339
1708436571.7052593,-2.1598000526428223,-1.3386727285436173,-2.5241103808032435,6.1536104557807825,1.0128101110458374,-2.590829674397604
1708436571.707215,-2.159813404083252,-1.3386277121356507,-2.5241552034961146,6.153536546021261,1.0127894878387451,-2.591013018284933
1708436571.7092433,-2.1597602367401123,-1.3386531633189698,-2.5241358915912073,6.153509247093954,1.0127809047698975,-2.5911272207843226
1708436571.7112412,-2.1597557067871094,-1.3386486780694504,-2.5241478125201624,6.153473484307089,1.0128145217895508,-2.5911577383624476
1708436571.7132483,-2.159736394882202,-1.3386293065598984,-2.5241506735431116,6.153397309571066,1.0127445459365845,-2.591393057500021
1708436571.715206,-2.159708261489868,-1.3386129152825852,-2.5241387526141565,6.153423416405477,1.0127358436584473,-2.591447416936056
1708436571.717212,-2.1596853733062744,-1.3386128705791016,-2.5241268316852015,6.153342711716451,1.012782096862793,-2.5915797392474573
1708436571.7192137,-2.159654378890991,-1.33857715249572,-2.5241809527026575,6.1532500860984705,1.0127689838409424,-2.591715399418966
1708436571.721216,-2.159611940383911,-1.3386234504035492,-2.5241568724261683,6.15317844131545,1.0127689838409424,-2.591822926198141
1708436571.7232232,-2.1595799922943115,-1.3386026185802002,-2.5241404215442103,6.153164016991415,1.0128179788589478,-2.5919342676745813
1708436571.7252052,-2.159532308578491,-1.3385080260089417,-2.5241313616382044,6.153009402542867,1.0127894878387451,-2.592078749333517
1708436571.727239,-2.1594507694244385,-1.338562012915947,-2.5241149107562464,6.152983176499166,1.0128014087677002,-2.59226900735964
1708436571.7292147,-2.1594574451446533,-1.3385468286326905,-2.5241809527026575,6.15284155586318,1.0127894878387451,-2.5924294630633753
1708436571.7312088,-2.15944504737854,-1.3385080707124253,-2.524144951497213,6.152761089592733,1.0128331184387207,-2.5925608317004603
1708436571.7332838,-2.1593828201293945,-1.338525967007019,-2.5241687933551233,6.152694570809164,1.0128374099731445,-2.5927420298205774
1708436571.7352235,-2.1594221591949463,-1.3384858232787629,-2.5242095629321497,6.152626859932699,1.012874960899353,-2.5929513613330286
1708436571.7372885,-2.1593239307403564,-1.3385189187577744,-2.5241506735431116,6.152482020645895,1.012800693511963,-2.5931077639209192
1708436571.7392104,-2.1593122482299805,-1.338427485232689,-2.5241478125201624,6.152455794602194,1.012841820716858,-2.5932911078082483
1708436571.741194,-2.1592488288879395,-1.3385009926608582,-2.5241552034961146,6.152340519219198,1.012841820716858,-2.593438688908712
1708436571.7432294,-2.1592488288879395,-1.338515968327858,-2.5241974035846155,6.15221534946517,1.0128662586212158,-2.5937140623675745
1708436571.745197,-2.1592419147491455,-1.3384664070657273,-2.5241928736316126,6.152110802918234,1.0128287076950073,-2.59389311472048
1708436571.7471998,-2.1591897010803223,-1.338450015788414,-2.5241552034961146,6.151987659722128,1.012885570526123,-2.59410530725588
1708436571.7491899,-2.159148931503296,-1.3384378862432023,-2.5241597334491175,6.151900517731466,1.0128650665283203,-2.5943411032306116
1708436571.7512023,-2.1590607166290283,-1.3384918582490464,-2.524195973073141,6.151727425843038,1.0128931999206543,-2.5945337454425257
1708436571.7532146,-2.159019947052002,-1.3384168905070801,-2.524205032979147,6.151558506279745,1.0128931999206543,-2.594830338154928
1708436571.7551908,-2.159062623977661,-1.3383767020753403,-2.5242350737201136,6.151468026428976,1.0129294395446777,-2.5950427691089075
1708436571.7572224,-2.159003496170044,-1.3383811873248597,-2.524245325719015,6.151381003647604,1.0129622220993042,-2.5953035990344446
1708436571.759198,-2.1589176654815674,-1.3383737814477463,-2.524195973073141,6.1512372372444055,1.0130029916763306,-2.5955610910998743
1708436571.761196,-2.1588902473449707,-1.3383618605187912,-2.524219814931051,6.15109537818984,1.012965440750122,-2.595780674611227
1708436571.763193,-2.1587722301483154,-1.3383467209390183,-2.524207894002096,6.150936472206869,1.0129449367523193,-2.5961270968066614
1708436571.7652063,-2.158790349960327,-1.3383303594640275,-2.524231735860006,6.15076361873702,1.0130136013031006,-2.5963855425464075
1708436571.7672186,-2.158726930618286,-1.3382618737271805,-2.5242393652545374,6.150653350144186,1.0130048990249634,-2.596659008656637
1708436571.7692416,-2.158613920211792,-1.3382286441377182,-2.5242889563189905,6.150513994484701,1.013062596321106,-2.597036902104513
1708436571.7712088,-2.1586129665374756,-1.3382917207530518,-2.524270836506979,6.150374281197347,1.0130364894866943,-2.5973034540759485
1708436571.7732477,-2.158482074737549,-1.3382376593402405,-2.524341646824972,6.150221812516012,1.0130692720413208,-2.5976081530200403
1708436571.7751951,-2.158468008041382,-1.3382151436856766,-2.5243247191058558,6.150085675507345,1.0131020545959473,-2.5979419390307825
1708436571.7772424,-2.158325672149658,-1.3382194948247452,-2.5243354479419153,6.1499342797096155,1.013147234916687,-2.598297897969381
1708436571.779219,-2.158316135406494,-1.33812569201503,-2.524393860493795,6.149738657265463,1.0131875276565552,-2.5986714998828333
1708436571.7812095,-2.158182382583618,-1.3380925518325348,-2.5243848005877894,6.1495858309562585,1.0131700038909912,-2.599072281514303
1708436571.7832377,-2.158118963241577,-1.3380970370820542,-2.5243921915637415,6.149406420975485,1.0131534337997437,-2.5994322935687464
1708436571.785211,-2.1580631732940674,-1.3381313693574448,-2.5244253317462366,6.149226772576132,1.0131981372833252,-2.5997751394854944
1708436571.787233,-2.1579182147979736,-1.3380211156657715,-2.5244162718402308,6.1490869400794885,1.0132474899291992,-2.600168530141012
1708436571.7892618,-2.157851457595825,-1.3379986596158524,-2.524437491093771,6.148895251541891,1.0132462978363037,-2.6005690733539026
1708436571.7912173,-2.1577742099761963,-1.3380103570273896,-2.524468723927633,6.148694979935446,1.0132910013198853,-2.60092002550234
1708436571.7932508,-2.1577420234680176,-1.3380075258067627,-2.524456802998678,6.148543345719137,1.0133229494094849,-2.601366106663839
1708436571.7952096,-2.157578945159912,-1.3379267019084473,-2.5244763533221644,6.14835940578536,1.0133055448532104,-2.6017826239215296
1708436571.797195,-2.1575369834899902,-1.3379268062165757,-2.5244672934161585,6.148172127991476,1.013329267501831,-2.602182928715841
1708436571.7992048,-2.157461166381836,-1.3378828477910538,-2.5245123545276087,6.14797722080306,1.0133700370788574,-2.602635924016134
1708436571.8012094,-2.1573565006256104,-1.337875099187233,-2.524486843739645,6.14772795417861,1.0134222507476807,-2.603027407323019
1708436571.8032382,-2.1573381423950195,-1.3378642362407227,-2.524449173604147,6.147528397827902,1.0134789943695068,-2.6034839789019983
1708436571.8052075,-2.157233953475952,-1.3378359538367768,-2.5245242754565638,6.147324788361349,1.013507604598999,-2.6039512793170374
1708436571.807229,-2.157183885574341,-1.3378083568862458,-2.524518076573507,6.147141682892599,1.013522982597351,-2.6044164339648646
1708436571.8092036,-2.157045602798462,-1.3377599728158494,-2.5245843569384974,6.146890151291647,1.0135055780410767,-2.6048596541034144
1708436571.811212,-2.1569368839263916,-1.3377803278020401,-2.5245469252215784,6.146649586945333,1.0136158466339111,-2.6053927580462855
1708436571.813228,-2.1568710803985596,-1.3377242100289841,-2.5246246496783655,6.146434771805563,1.0136146545410156,-2.605861012135641
1708436571.8152049,-2.1567893028259277,-1.3377487671426316,-2.5245991388904017,6.146246301918783,1.0136759281158447,-2.606361214314596
1708436571.8172517,-2.1566898822784424,-1.3376677942327042,-2.5246368090258997,6.1459905979926965,1.0136430263519287,-2.6068957487689417
1708436571.819209,-2.1566619873046875,-1.3376482439092179,-2.524693791066305,6.145733582764425,1.0136793851852417,-2.607431952153341
1708436571.8212519,-2.156507730484009,-1.3376531463912507,-2.5246756712542933,6.145474064141073,1.013718843460083,-2.607946221028463
1708436571.8232274,-2.156369686126709,-1.337660865192749,-2.5246756712542933,6.145250546723165,1.0137425661087036,-2.608527723942892
1708436571.825199,-2.1563165187835693,-1.3376290661147614,-2.5247610251056116,6.145080554276266,1.0137635469436646,-2.6090503374682825
1708436571.827234,-2.1561994552612305,-1.33758036911998,-2.5247493425952356,6.144827830582418,1.0137829780578613,-2.609598700200216
1708436571.829212,-2.1561086177825928,-1.3375480336001893,-2.52476412454714,6.1445480463798425,1.0138280391693115,-2.6102140585528772
1708436571.831195,-2.156020164489746,-1.337557629947998,-2.524780813847677,6.144309508591451,1.0138517618179321,-2.61078125635256
1708436571.8332078,-2.155949831008911,-1.3374644231847306,-2.5248122851001185,6.144061076432028,1.0138955116271973,-2.611359182988302
1708436571.8352337,-2.1558420658111572,-1.3374363046935578,-2.5247913042651575,6.1438050148780725,1.0139240026474,-2.6119795481311243
1708436571.8373148,-2.1557083129882812,-1.3374574941447754,-2.5248106161700647,6.143565165787496,1.0139349699020386,-2.6125670115100306
1708436571.8392286,-2.1555848121643066,-1.3373562109521409,-2.5248361269580286,6.143331277161398,1.0139753818511963,-2.6132243315326136
1708436571.8412015,-2.155533790588379,-1.337426022892334,-2.524914328251974,6.143099415093221,1.0140199661254883,-2.6138652006732386
1708436571.843227,-2.155418872833252,-1.3373370182565232,-2.524884287511007,6.142790901451864,1.014035701751709,-2.614535395299093
1708436571.845249,-2.155334711074829,-1.3373538267663498,-2.524879757558004,6.14258753040389,1.0141208171844482,-2.615155283604757
1708436571.8472414,-2.1552464962005615,-1.3372852069190522,-2.5249081293689173,6.142381417542257,1.0141360759735107,-2.6158230940448206
1708436571.849206,-2.155078172683716,-1.3372866970351716,-2.5249157587634485,6.1421124813850305,1.014204978942871,-2.616478983555929
1708436571.8512042,-2.154996633529663,-1.3372575503638764,-2.524951759968893,6.1418402073676965,1.0141918659210205,-2.617168966923849
1708436571.853232,-2.154867649078369,-1.3372541081956406,-2.524996582661764,6.141615497856893,1.0142693519592285,-2.6178043524371546
1708436571.855211,-2.1547396183013916,-1.3371451062015076,-2.5250254313098353,6.1414456246192834,1.014240026473999,-2.6185429731952112
1708436571.8572273,-2.1546149253845215,-1.3371662360480805,-2.5249996821032923,6.141176926880636,1.0143131017684937,-2.6191769281970423
1708436571.8591955,-2.1545228958129883,-1.3371101331761857,-2.5250867048846644,6.140966760903158,1.0143526792526245,-2.6199610869037073
1708436571.861186,-2.1543869972229004,-1.337106631403305,-2.5250852743731897,6.140604960709371,1.0143852233886719,-2.6206112543689173
1708436571.8632026,-2.1542305946350098,-1.3370867532542725,-2.5250852743731897,6.140381562500753,1.0144171714782715,-2.621305052434103
1708436571.8652163,-2.154148578643799,-1.3370832663825531,-2.5251122156726282,6.140180098801412,1.014473557472229,-2.6219969431506556
1708436571.8671947,-2.1540441513061523,-1.3370184165290375,-2.5251286665545862,6.139862763672628,1.0144977569580078,-2.6226688067065638
1708436571.8691864,-2.1539814472198486,-1.3369953346303483,-2.5251076857196253,6.139595377236166,1.0145219564437866,-2.62345534959902
1708436571.8711936,-2.1538259983062744,-1.3369347316077729,-2.5251813570605677,6.1393154738243005,1.014525055885315,-2.624155346547262
1708436571.8732069,-2.153775930404663,-1.336894841199257,-2.52518874803652,6.139043915062704,1.014543890953064,-2.6249411741839808
1708436571.8752182,-2.153592824935913,-1.3369116497090836,-2.525191609059469,6.138760554581442,1.0146015882492065,-2.6256569067584437
1708436571.8772182,-2.1535019874572754,-1.336871699695923,-2.525229040776388,6.138503896981039,1.0146410465240479,-2.6264012495623987
1708436571.8792512,-2.1534109115600586,-1.3368150305799027,-2.5252366701709192,6.1382378218467615,1.0146691799163818,-2.6271215120898646
1708436571.881196,-2.1533429622650146,-1.3367547255805512,-2.5252681414233606,6.138038623123922,1.0147134065628052,-2.6278987566577356
1708436571.8832555,-2.15319561958313,-1.3367554408362885,-2.5253008047686976,6.137843358307638,1.0147823095321655,-2.628717009221212
1708436571.8852172,-2.153123140335083,-1.3367800575545807,-2.5253055731402796,6.137513983040609,1.0148258209228516,-2.6294530073748987
1708436571.8872402,-2.1530163288116455,-1.3367236417583008,-2.525291983281271,6.137360679894247,1.0148125886917114,-2.630162779484884
1708436571.8892136,-2.152907371520996,-1.3366591197303315,-2.525311533604757,6.137068140297689,1.0149188041687012,-2.6309455076800745
1708436571.8912137,-2.1527626514434814,-1.3366882067969819,-2.5253356138812464,6.1367839453514,1.0149462223052979,-2.6317783037768763
1708436571.8932514,-2.152662754058838,-1.3366357547095795,-2.5253897348987024,6.136544334679403,1.0149656534194946,-2.6325846354113978
1708436571.895206,-2.1526620388031006,-1.3366034936955948,-2.5253761450396937,6.136309134751119,1.0150179862976074,-2.6333940664874476
1708436571.8972447,-2.1525542736053467,-1.3365558099797745,-2.5254138151751917,6.136094438820638,1.0150583982467651,-2.634132448826925
1708436571.899231,-2.152435064315796,-1.3365558844855805,-2.525424067174093,6.135797011643209,1.0151110887527466,-2.634958569203512
1708436571.9012125,-2.152353525161743,-1.3365401488593598,-2.525407616292135,6.135615098267355,1.0150730609893799,-2.635735813771383
1708436571.9032314,-2.152237892150879,-1.3365650934031983,-2.5254693667041224,6.135301697045126,1.0151745080947876,-2.636540238057272
1708436571.9052064,-2.1521382331848145,-1.3364922267249604,-2.5254676977740687,6.135103213578024,1.015210509300232,-2.6373193899737757
1708436571.9072196,-2.152005672454834,-1.3364644956639786,-2.5254841486560267,6.1348503706748865,1.0152227878570557,-2.6381331125842493
1708436571.9092,-2.1519501209259033,-1.3364651960185547,-2.5255170504199427,6.1346109984214685,1.015237808227539,-2.6389525572406214
1708436571.911201,-2.1518068313598633,-1.3364736896804352,-2.525507990513937,6.134403812676229,1.015318751335144,-2.639766279851095
1708436571.9132142,-2.1517274379730225,-1.3363609325936814,-2.525494400654928,6.134168612747946,1.015321969985962,-2.6406238714801233
1708436571.9152277,-2.151632070541382,-1.3363370907357712,-2.5255304018603724,6.133985507279196,1.015367031097412,-2.6414483229266565
1708436571.917205,-2.1515278816223145,-1.336329386835434,-2.5255635420428675,6.133741724282064,1.015398621559143,-2.642291847859518
1708436571.9192321,-2.151427984237671,-1.3363624227098008,-2.5255709330188196,6.133449899941244,1.0154061317443848,-2.6430934111224573
1708436571.9212337,-2.151359796524048,-1.336289868955948,-2.525640074406759,6.133213507920065,1.0154705047607422,-2.643945042287008
1708436571.9232016,-2.1512463092803955,-1.336204693918564,-2.52566105524172,6.133002030640402,1.0154905319213867,-2.6448081175433558
1708436571.9252133,-2.1511170864105225,-1.3362300258925934,-2.5256474653827112,6.132774460106649,1.0155752897262573,-2.6456833521472376
1708436571.927219,-2.151008367538452,-1.3362427365830918,-2.5257211367236536,6.132546651154318,1.0155792236328125,-2.646600071583883
1708436571.9292262,-2.1509084701538086,-1.3361500960639496,-2.5256956259356897,6.132286774903097,1.015622615814209,-2.6475065390216272
1708436571.9312658,-2.150808811187744,-1.3361344200423737,-2.525714937840597,6.1321319220359705,1.0156707763671875,-2.64832050005068
1708436571.933241,-2.150794744491577,-1.3360492450049897,-2.525780979787008,6.131936776428976,1.0156826972961426,-2.6492558161364954
1708436571.9352384,-2.1506125926971436,-1.336045802836754,-2.5257628599749964,6.131708252220907,1.015735149383545,-2.650140110646383
1708436571.9372325,-2.1505634784698486,-1.336038128738739,-2.5258005301104944,6.131544577866354,1.0157874822616577,-2.651003901158468
1708436571.9391985,-2.150479316711426,-1.3360142719796677,-2.5257659594165247,6.131393897324362,1.0157537460327148,-2.651883665715353
1708436571.9412158,-2.150336980819702,-1.336026982670166,-2.525794331227438,6.131132828980245,1.0158640146255493,-2.652850929890768
1708436571.9432178,-2.1502954959869385,-1.3359782707742234,-2.525893513356344,6.130936968117513,1.0159165859222412,-2.653719727193014
1708436571.9452183,-2.1502366065979004,-1.335934804087021,-2.5258963743792933,6.130790817528524,1.0159111022949219,-2.6546033064471644
1708436571.9471931,-2.1501028537750244,-1.335874081855156,-2.525884453450338,6.130615460663595,1.0159766674041748,-2.6554845015155237
1708436571.9492433,-2.1500484943389893,-1.335890309219696,-2.525944534932272,6.130366194039144,1.0159963369369507,-2.656410280858175
1708436571.9512248,-2.1498944759368896,-1.335862712269165,-2.525940004979269,6.13025580623702,1.0160161256790161,-2.6572497526751917
1708436571.953218,-2.1498148441314697,-1.3358749610236664,-2.525907103215353,6.130044328957357,1.0160850286483765,-2.658236567174093
1708436571.9551973,-2.149801015853882,-1.3358312559178849,-2.525996987019674,6.12982057312087,1.0161406993865967,-2.6591606775866907
1708436571.957205,-2.1497013568878174,-1.3358312410167237,-2.5260210672961634,6.129571544914999,1.0160578489303589,-2.6600125471698206
1708436571.9592278,-2.149629831314087,-1.3358031970313569,-2.5260329882251185,6.129400121956625,1.0162171125411987,-2.660950485860006
1708436571.961208,-2.1495697498321533,-1.3357221198133011,-2.5259998480426233,6.129284846573629,1.0162161588668823,-2.66188627878298
1708436571.963201,-2.1494767665863037,-1.3357959401658555,-2.5260239283191126,6.129122245102682,1.0163054466247559,-2.662766997014181
1708436571.9652193,-2.149383783340454,-1.3357559752515336,-2.5260313192950647,6.128888475685873,1.0162761211395264,-2.663677994404928
1708436571.96722,-2.1493542194366455,-1.3357398372939606,-2.526055399571554,6.1287420866783044,1.0163404941558838,-2.6645188967334192
1708436571.9692168,-2.1492409706115723,-1.335695670252182,-2.526121441517965,6.128537761956014,1.0163406133651733,-2.665487829838888
1708436571.971214,-2.1491987705230713,-1.3356715899756928,-2.5260749498950403,6.1283819554145715,1.0163516998291016,-2.666269604359762
1708436571.973205,-2.149113655090332,-1.3356554520181199,-2.5260794798480433,6.1282585737998865,1.0164706707000732,-2.667149607335226
1708436571.9751885,-2.1490795612335205,-1.3356554520181199,-2.526160542164938,6.128136265068807,1.0164282321929932,-2.668048922215597
1708436571.977219,-2.148982048034668,-1.3356517118266602,-2.526158873234884,6.1279101250465295,1.0164895057678223,-2.66887337366213
1708436571.9792075,-2.14896821975708,-1.335616187458374,-2.526135031376974,6.1278313277061365,1.016512155532837,-2.6697784105883997
1708436571.981186,-2.1489319801330566,-1.3355955344489594,-2.526187245045797,6.1276354668434045,1.016533374786377,-2.6706953684436243
1708436571.983184,-2.14884352684021,-1.3355879050544281,-2.5261917749988,6.12746690490798,1.0165441036224365,-2.671542469655172
1708436571.9851902,-2.148775339126587,-1.3355306845954438,-2.526203695927755,6.127397286682882,1.0165516138076782,-2.672429148350851
1708436571.9872003,-2.148724317550659,-1.3355682653239747,-2.5262067953692835,6.127216326981344,1.016653060913086,-2.6733432451831263
1708436571.9891958,-2.1486732959747314,-1.3355198812535782,-2.5262637774096888,6.12705277183608,1.0166938304901123,-2.67414361635317
1708436571.9912024,-2.148608684539795,-1.3355843883803864,-2.5262637774096888,6.126945602684774,1.0167092084884644,-2.675089184437887
1708436571.9932132,-2.1485822200775146,-1.335536704664566,-2.5262895266162317,6.126809823303976,1.0167210102081299,-2.6758771578418177
1708436571.9951963,-2.1484806537628174,-1.335495800977089,-2.526362959538595,6.12664960601882,1.0167405605316162,-2.6768060366259974
1708436571.9972177,-2.1483876705169678,-1.3354922992042084,-2.526262346898214,6.126562225609579,1.0168061256408691,-2.677711788808004
1708436571.9992042,-2.148294687271118,-1.3354880076697846,-2.5262487570392054,6.126392948418417,1.0168336629867554,-2.678671900426046
1708436572.0011895,-2.1482720375061035,-1.3354647022536774,-2.5263119379626673,6.126285779267111,1.0168533325195312,-2.6795063654529017
1708436572.0032156,-2.148224115371704,-1.3354689192822953,-2.5263403097735804,6.126149642258444,1.0168640613555908,-2.6803584734546106
1708436572.0052025,-2.1481661796569824,-1.3354527813247223,-2.5263176600085657,6.126083838730612,1.0169016122817993,-2.681286398564474
1708436572.0072217,-2.1481266021728516,-1.3354366582683106,-2.526393000279562,6.125937807350912,1.0169166326522827,-2.682185475026266
1708436572.0092056,-2.1480743885040283,-1.3353959780982514,-2.526341740285055,6.125829922943868,1.0170106887817383,-2.683124844227926
1708436572.0112188,-2.1479947566986084,-1.3354121160558243,-2.526372019444601,6.125669944077291,1.016977071762085,-2.6840062777148646
1708436572.0132182,-2.147986888885498,-1.3354086142829438,-2.526403252278463,6.125599133759298,1.0170173645019531,-2.6848533789264124
1708436572.015193,-2.147840976715088,-1.3353805553964158,-2.526419703160421,6.125503289490499,1.0170742273330688,-2.685645643864767
1708436572.0172114,-2.1478090286254883,-1.335336060529091,-2.5264528433429163,6.1254159090812585,1.0170655250549316,-2.6865957419024866
1708436572.0191925,-2.147752285003662,-1.3353852343610306,-2.5264933745013636,6.125275718956747,1.017134428024292,-2.6874857584582728
1708436572.0212069,-2.1477341651916504,-1.3353571754745026,-2.5264182726489466,6.125174987107076,1.017146110534668,-2.6883965174304407
1708436572.0232055,-2.1477158069610596,-1.3353690964034577,-2.526479784642355,6.1250836727912805,1.017177939414978,-2.689228121434347
1708436572.0251982,-2.1476521492004395,-1.3353284311345597,-2.526454273854391,6.125004040985861,1.0171735286712646,-2.690099302922384
1708436572.027204,-2.14760684967041,-1.3353410524180909,-2.526515785847799,6.124927985459127,1.0172141790390015,-2.6909714380847376
1708436572.0292153,-2.1475470066070557,-1.3352888387492676,-2.5265443960772913,6.1247994778449915,1.017275094985962,-2.6917548815356653
1708436572.031191,-2.1475558280944824,-1.3353214126876374,-2.5264645258532923,6.124715673714437,1.017290472984314,-2.6926592032061976
1708436572.0332222,-2.1475026607513428,-1.3353621822646637,-2.5265427271472376,6.124689447670736,1.0172698497772217,-2.693564001713888
1708436572.0352077,-2.1474480628967285,-1.3353257042220612,-2.5265846888171595,6.124544608383932,1.0173134803771973,-2.6943615118609827
1708436572.0372555,-2.1473734378814697,-1.335284636621811,-2.526562039052145,6.12451325634078,1.0173908472061157,-2.695211712514059
1708436572.0392244,-2.147404909133911,-1.3352608692697068,-2.526578728352682,6.124363767891683,1.0173660516738892,-2.6960166136371058
1708436572.0412374,-2.1473729610443115,-1.3352931302836915,-2.526619259511129,6.1243865368659876,1.0174062252044678,-2.6968706289874476
1708436572.0432067,-2.1473491191864014,-1.3352404546788712,-2.5266147295581263,6.124265658646383,1.0174468755722046,-2.6976938883410853
1708436572.0452142,-2.1472837924957275,-1.3352531653693696,-2.52661639848818,6.1241774437721155,1.0174620151519775,-2.6984828154193323
1708436572.0472202,-2.1472599506378174,-1.33526165903125,-2.5266311804400843,6.124052274018087,1.0174654722213745,-2.699388090764181
1708436572.049207,-2.147218942642212,-1.335216374402382,-2.5266101996051233,6.124029266625204,1.0175144672393799,-2.700193230305807
1708436572.0512087,-2.1472086906433105,-1.3352490228465577,-2.5266807715045374,6.1239497540290735,1.0175223350524902,-2.7010186354266565
1708436572.053238,-2.1471962928771973,-1.3352129471353074,-2.526695791875021,6.123910653382101,1.0175923109054565,-2.701865259801046
1708436572.0552025,-2.1471645832061768,-1.3352658611587067,-2.526670281087057,6.123821127205648,1.0175694227218628,-2.702634874974386
1708436572.0572307,-2.1471035480499268,-1.3351971370032807,-2.526707712803976,6.123700248986044,1.0175867080688477,-2.70350152650942
1708436572.0592408,-2.147071599960327,-1.3352213662913819,-2.52667481104006,6.12372766712264,1.0176349878311157,-2.704308573399679
1708436572.061209,-2.147080659866333,-1.335200236444809,-2.5267604033099573,6.12366663196639,1.0176633596420288,-2.7051387468921106
1708436572.0632486,-2.147019624710083,-1.3352409166148682,-2.5267227331744593,6.123582947045126,1.017707347869873,-2.7059817949878138
1708436572.0652366,-2.147001028060913,-1.3352459085038682,-2.5267468134509485,6.123554456024923,1.0177034139633179,-2.706820074711935
1708436572.0672266,-2.147005558013916,-1.3352129471353074,-2.5267632643329065,6.123461830406942,1.0177147388458252,-2.7076504866229456
1708436572.0692117,-2.146939992904663,-1.3352017265609284,-2.5267468134509485,6.123447882920065,1.017780065536499,-2.7084432283984583
1708436572.0712094,-2.146928548812866,-1.3352013540318985,-2.526848856602804,6.123333442002096,1.017783522605896,-2.7093022505389612
1708436572.0732305,-2.14688777923584,-1.3351975244334717,-2.526740614567892,6.123347747116842,1.017783522605896,-2.710170094166891
1708436572.0752747,-2.1468923091888428,-1.3352181774428864,-2.5267871061908167,6.123246419220724,1.0178238153457642,-2.7109437624560755
1708436572.077225,-2.146852731704712,-1.3351975244334717,-2.5267978350268763,6.123268115311422,1.0178227424621582,-2.711813751851217
1708436572.0792172,-2.1468570232391357,-1.3351898056319733,-2.52682334581484,6.123214709549703,1.0178511142730713,-2.7126243750201624
1708436572.0812023,-2.1468217372894287,-1.3352017265609284,-2.5268755594836634,6.123163568764486,1.0178546905517578,-2.713372532521383
1708436572.0832615,-2.1468138694763184,-1.335169480448105,-2.5268636385547083,6.1231350777442834,1.017956256866455,-2.7142820994006556
1708436572.085253,-2.146751880645752,-1.335210145717003,-2.5269253889666956,6.123054373055258,1.017906904220581,-2.715071503316061
1708436572.0872223,-2.146773099899292,-1.335182176237442,-2.5268922487842005,6.123042332917013,1.0179388523101807,-2.715853993092672
1708436572.0892413,-2.146728992462158,-1.3351496022990723,-2.526911799107687,6.12300323227004,1.0179835557937622,-2.7166033426867884
1708436572.091213,-2.1467039585113525,-1.335120753651001,-2.526956621800558,6.122958647995748,1.0180197954177856,-2.717372719441549
1708436572.093275,-2.1467061042785645,-1.335170255308487,-2.5269761721240442,6.12291048744277,1.0180153846740723,-2.7181647459613245
1708436572.0952013,-2.146672487258911,-1.335153804426529,-2.526938501988546,6.122989046364584,1.0180641412734985,-2.7190068403827112
1708436572.0972505,-2.1466901302337646,-1.3351130497506638,-2.5269597212420862,6.122871386795797,1.0180720090866089,-2.719740931187765
1708436572.099214,-2.146604299545288,-1.33518639326606,-2.5269883314715784,6.122868287354269,1.018038034439087,-2.720534388219015
1708436572.1012146,-2.146641492843628,-1.3351496022990723,-2.5269625822650355,6.122848498612203,1.0180916786193848,-2.7213822046863
1708436572.1032207,-2.1466221809387207,-1.3351580214551468,-2.5270167032824915,6.122815954476156,1.0181604623794556,-2.722020689641134
1708436572.1052253,-2.1466267108917236,-1.3350654554418107,-2.5269444624530237,6.122830259590902,1.018114686012268,-2.72288161913027
1708436572.1072598,-2.1465611457824707,-1.3350773763707657,-2.527052942906515,6.122788655548849,1.01816725730896,-2.7236455122577112
1708436572.1092582,-2.146601915359497,-1.335085080271103,-2.527060333882467,6.122769224434652,1.0181758403778076,-2.7244275251971644
1708436572.1112087,-2.146529197692871,-1.3351096373847504,-2.527072254811422,6.1227407334144495,1.018195629119873,-2.725161616002218
1708436572.1132517,-2.146529197692871,-1.3351341795972367,-2.5270915667163294,6.122671115189352,1.0182241201400757,-2.7259188334094446
1708436572.1152089,-2.1465418338775635,-1.3351341795972367,-2.5270541349994105,6.122668731003561,1.018248200416565,-2.7266789118396204
1708436572.1172318,-2.146500825881958,-1.335089997654297,-2.5270825068103235,6.1226481077964685,1.0182557106018066,-2.72741943994631
1708436572.1192455,-2.146535634994507,-1.3350977164557953,-2.5271411577807825,6.122644889145651,1.0182795524597168,-2.7281280199633997
1708436572.1212273,-2.1464905738830566,-1.3350574237159272,-2.527130667363302,6.122633802681722,1.018320083618164,-2.728879515324728
1708436572.123249,-2.1465189456939697,-1.3351061207107087,-2.5271111170398157,6.122555362969198,1.0183320045471191,-2.7296000162707728
1708436572.1252415,-2.1464860439300537,-1.3350773763707657,-2.52718168893923,6.1225411770637415,1.0183639526367188,-2.7303646246539515
1708436572.1272287,-2.146448850631714,-1.3350781065276642,-2.527113978062765,6.122516262322225,1.0183560848236084,-2.731130901967184
1708436572.1292486,-2.1465039253234863,-1.3350857955268403,-2.527138058339254,6.122582661896505,1.018371820449829,-2.731830898915426
1708436572.1312058,-2.1464905738830566,-1.3351222586682816,-2.527126137410299,6.1225249646003626,1.0184284448623657,-2.732563082371847
1708436572.1332316,-2.1464622020721436,-1.3351264607957383,-2.52717096010317,6.122447716980734,1.018452525138855,-2.7332401911364954
1708436572.1352227,-2.146484613418579,-1.3350780767253418,-2.52717096010317,6.122521865158834,1.0184730291366577,-2.733981434498922
1708436572.1372285,-2.146451711654663,-1.3350780767253418,-2.5272026697741907,6.122448909073629,1.018467903137207,-2.7347148100482386
1708436572.1392024,-2.1464338302612305,-1.3350780767253418,-2.52717096010317,6.12240885475234,1.018496036529541,-2.7354608217822474
1708436572.1411886,-2.14642596244812,-1.3351180416396637,-2.5272401014911097,6.122441041260519,1.018545389175415,-2.7361508051501673
1708436572.1432002,-2.146435022354126,-1.335028664474823,-2.5272191206561487,6.1224204180534265,1.0185647010803223,-2.7368479410754603
1708436572.1452234,-2.1463773250579834,-1.335089997654297,-2.527214590703146,6.122396933823385,1.0185354948043823,-2.73763090768923
1708436572.1472042,-2.146390676498413,-1.3350823682597657,-2.527226511632101,6.1224334118659876,1.0185757875442505,-2.738284174595968
1708436572.1492405,-2.14640212059021,-1.335110367541649,-2.527250353490011,6.122430550843038,1.018571376800537,-2.7390533129321497
1708436572.151193,-2.1464314460754395,-1.3351027083447953,-2.5272837320910853,6.122360813408651,1.018592357635498,-2.7397027651416224
1708436572.1532366,-2.146373987197876,-1.3350785386613389,-2.527254883443014,6.122397649079122,1.0186488628387451,-2.740502421055929
1708436572.1552274,-2.1463963985443115,-1.3350823682597657,-2.52727181116213,6.1222877381141565,1.018686294555664,-2.7412312666522425
1708436572.1572409,-2.1463840007781982,-1.3350574237159272,-2.5272865931140345,6.122369515686788,1.0186524391174316,-2.741959873829977
1708436572.1592047,-2.1463465690612793,-1.3351027083447953,-2.5272656122790735,6.122341024666586,1.018701434135437,-2.742652956639425
1708436572.1612082,-2.1463329792022705,-1.3350659620812912,-2.5273359457599085,6.122341024666586,1.0186635255813599,-2.7433558146106165
1708436572.1632254,-2.146388292312622,-1.3350738745978852,-2.5273359457599085,6.122345435410299,1.0186963081359863,-2.744044605885641
1708436572.165214,-2.146318197250366,-1.3350615215352555,-2.5273268858539026,6.122326004296102,1.01872980594635,-2.7448182741748255
1708436572.167269,-2.146331548690796,-1.3350336861661454,-2.527313295994894,6.1222725985343835,1.0187410116195679,-2.7455626169787806
1708436572.169235,-2.1463520526885986,-1.3350743365338822,-2.5273481051074427,6.122281181603231,1.018753170967102,-2.746270004902975
1708436572.1711872,-2.146294355392456,-1.3350865703872223,-2.527355496083395,6.122306215554037,1.0187649726867676,-2.7469762007342737
1708436572.1732101,-2.1463112831115723,-1.3350420755198975,-2.52738863626589,6.122261512070455,1.0187934637069702,-2.7476399580584925
1708436572.1752071,-2.1463112831115723,-1.3350823682597657,-2.527346436177389,6.122283327370443,1.0188053846359253,-2.7483087221728724
1708436572.1771991,-2.1463077068328857,-1.3350420755198975,-2.527367655430929,6.12228678443984,1.018796682357788,-2.7489967981921595
1708436572.179196,-2.146244764328003,-1.335045502786972,-2.527405087147848,6.122234451561727,1.01884925365448,-2.7496939341174524
1708436572.18124,-2.1462864875793457,-1.33509115994487,-2.5273614565478724,6.122201669007101,1.0188984870910645,-2.750403706227438
1708436572.183283,-2.1462714672088623,-1.3350259524634858,-2.5273991266833704,6.1221972582633875,1.0188729763031006,-2.7510021368609827
1708436572.185222,-2.1462581157684326,-1.3350539964488526,-2.5273659865008753,6.122173535614767,1.01885986328125,-2.751756016408102
1708436572.1872544,-2.1462411880493164,-1.3350018721869965,-2.5274186770068567,6.122182237892904,1.0189377069473267,-2.7524076143847864
1708436572.1892338,-2.1462457180023193,-1.3350992810777207,-2.5273779074298304,6.122142064362325,1.018909215927124,-2.7530837694751185
1708436572.1912067,-2.1462273597717285,-1.335066707139351,-2.5273900667773646,6.122137772827902,1.018912434577942,-2.753699843083517
1708436572.193226,-2.1461892127990723,-1.3349933636239548,-2.5274019877063196,6.122089731484213,1.0189496278762817,-2.7543521563159388
1708436572.19522,-2.1461708545684814,-1.3350784939578553,-2.5274935404406946,6.1221104739005945,1.0189409255981445,-2.7550180594073694
1708436572.1972587,-2.146195650100708,-1.33500528455291,-2.527430597935812,6.122086274414816,1.0189697742462158,-2.7555881182300013
1708436572.1992488,-2.1461708545684814,-1.335066707139351,-2.5274515787707728,6.122107255249777,1.0189483165740967,-2.7562416235553187
1708436572.2012196,-2.146171808242798,-1.3350259226611634,-2.527463499699728,6.122071134835043,1.0190304517745972,-2.7569549719439905
1708436572.203221,-2.146127462387085,-1.3350386631539841,-2.527479950581686,6.121957170754232,1.019005298614502,-2.7575963179217737
1708436572.2051868,-2.146146059036255,-1.3350378733924408,-2.527461830769674,6.122047292977133,1.0189965963363647,-2.7582038084613245
1708436572.2072325,-2.146134614944458,-1.3350259524634858,-2.527466360722677,6.121974456101217,1.0190337896347046,-2.7588301340686243
1708436572.2092264,-2.146106243133545,-1.3350540411523362,-2.5275235811816614,6.121966945915975,1.0190534591674805,-2.7594640890704554
1708436572.2112103,-2.1460869312286377,-1.3350137186101456,-2.5275190512286585,6.121987569123068,1.0190657377243042,-2.76005989709963
1708436572.2132337,-2.1461026668548584,-1.3350750666907807,-2.5275490919696253,6.12190197685317,1.0190491676330566,-2.760602060948507
1708436572.2152052,-2.1461408138275146,-1.3350018572858353,-2.5274906794177454,6.121882068901815,1.0190982818603516,-2.7612322012530726
1708436572.2171898,-2.1460788249969482,-1.3350060743144532,-2.5275190512286585,6.121895062714376,1.0190763473510742,-2.7618683020221155
1708436572.219226,-2.1460416316986084,-1.335021735434868,-2.5274980703936976,6.121838557511129,1.019097089767456,-2.762502733861105
1708436572.2212098,-2.1460506916046143,-1.3350060743144532,-2.5275355021106165,6.121854769974508,1.0191289186477661,-2.763123337422506
1708436572.2232363,-2.146066427230835,-1.3350137037089844,-2.5275548140155237,6.121819245606222,1.0191246271133423,-2.7636292616473597
1708436572.2252164,-2.146043539047241,-1.3349975806525727,-2.5275054613696497,6.121729838639059,1.019166111946106,-2.7642701307879847
1708436572.2272067,-2.146035671234131,-1.3349902790835877,-2.5275355021106165,6.121697056084432,1.0191289186477661,-2.7648304144488733
1708436572.229198,-2.146014451980591,-1.3349975806525727,-2.527545754109518,6.121727454453268,1.0191541910171509,-2.765512530003683
1708436572.2311943,-2.146056890487671,-1.334982455973961,-2.527571503316061,6.121723162918844,1.0191289186477661,-2.7660492102252405
1708436572.233278,-2.1459619998931885,-1.334982455973961,-2.5275638739215296,6.121715891152181,1.0191289186477661,-2.766616169606344
1708436572.2352357,-2.145991563796997,-1.3350427758744736,-2.5275760332690638,6.12161015251235,1.0191574096679688,-2.7671521345721644
1708436572.2372148,-2.1460049152374268,-1.335046948199608,-2.5275593439685267,6.1216397164161584,1.0191980600357056,-2.7677090803729456
1708436572.2392254,-2.145947217941284,-1.3349498969367524,-2.527613703404562,6.1216187355811975,1.0191574096679688,-2.7682867685901087
1708436572.241195,-2.14597749710083,-1.3350432378104706,-2.527604643498556,6.121579873352804,1.019181489944458,-2.768845860158102
1708436572.2432308,-2.14593243598938,-1.3349909645370026,-2.527583662663595,6.121542918473043,1.019184947013855,-2.769374672566549
1708436572.2452483,-2.14593243598938,-1.3349824708751221,-2.5275548140155237,6.1215200302894495,1.0191893577575684,-2.7699268499957483
1708436572.2472088,-2.145911931991577,-1.334966005092003,-2.527566973363058,6.121524441033163,1.0192174911499023,-2.7704508940326136
1708436572.2492168,-2.1458826065063477,-1.3349829477122803,-2.527583662663595,6.121545064240255,1.019200086593628,-2.770961586629049
1708436572.2511919,-2.14587664604187,-1.3349380058101197,-2.527612034474508,6.1214178679283044,1.0192043781280518,-2.7715190092669886
1708436572.2532043,-2.145859956741333,-1.334966005092003,-2.527548853551046,6.12148534038619,1.0192537307739258,-2.772064272557394
1708436572.2552223,-2.1458067893981934,-1.334917591219284,-2.52759558359255,6.121432053833761,1.0192415714263916,-2.772550646458761
1708436572.2572324,-2.145824670791626,-1.334982455973961,-2.5275984446154993,6.121416914253988,1.019249439239502,-2.773051087056295
1708436572.25926,-2.145763635635376,-1.3349422675422211,-2.527600113545553,6.121360170632162,1.0192699432373047,-2.7735796610461634
1708436572.2612154,-2.1457724571228027,-1.334966005092003,-2.527621094380514,6.121258246689596,1.019277572631836,-2.774076286946432
1708436572.263218,-2.145739793777466,-1.3349180978587647,-2.527574602757589,6.12132881858901,1.019290566444397,-2.7745936552630823
1708436572.2651951,-2.145739793777466,-1.334909738307335,-2.5276315847979944,6.1212730286415,1.0192897319793701,-2.7750774065600794
1708436572.2672007,-2.1457059383392334,-1.33491803825412,-2.5276315847979944,6.121209132462301,1.019261360168457,-2.775579039250509
1708436572.2691944,-2.1457417011260986,-1.334845171575882,-2.5276194254504603,6.121229755669393,1.019277572631836,-2.776029173527853
1708436572.2711866,-2.1456964015960693,-1.3348647069982071,-2.527607504521505,6.121132957726278,1.019236445426941,-2.7764859835254114
1708436572.273217,-2.1456716060638428,-1.3349668395570298,-2.5276148954974573,6.121132957726278,1.0193103551864624,-2.7769365946399134
1708436572.2751913,-2.145622968673706,-1.334901974802353,-2.527591053639547,6.121031987458029,1.0192656517028809,-2.777458969746725
1708436572.277233,-2.145660161972046,-1.334902749662735,-2.5275984446154993,6.121009218483724,1.019277572631836,-2.7778268496142786
1708436572.2791994,-2.145653247833252,-1.3348621141961594,-2.5276194254504603,6.120956885605612,1.0193016529083252,-2.7782586256610315
1708436572.2811959,-2.1456124782562256,-1.3348866266063233,-2.5276148954974573,6.120949017792501,1.0193016529083252,-2.7786834875689905
1708436572.2832334,-2.1455347537994385,-1.3348536503366013,-2.5276690165149134,6.120910155564108,1.0192972421646118,-2.779095236455099
1708436572.2851992,-2.1455390453338623,-1.3348866266063233,-2.5275939146624964,6.120898234635153,1.019292950630188,-2.7794867197619837
1708436572.287203,-2.1455399990081787,-1.3348669719747086,-2.5275984446154993,6.120813476830282,1.019264578819275,-2.7798665205584925
1708436572.289203,-2.1455252170562744,-1.3349028837731858,-2.5276225248919886,6.120704519539633,1.0193508863449097,-2.780217711125509
1708436572.2912128,-2.1454384326934814,-1.3349272471717377,-2.5276270548449915,6.120726215630331,1.0193016529083252,-2.7806530634509485
1708436572.2932074,-2.1454596519470215,-1.33489082873378,-2.5276148954974573,6.120641696244039,1.019317865371704,-2.7809506098376673
1708436572.2951925,-2.145456075668335,-1.3348429215005417,-2.5275939146624964,6.12059377410964,1.0192973613739014,-2.7813480536090296
1708436572.2972124,-2.1454129219055176,-1.334802196626999,-2.5276315847979944,6.120594608574667,1.0192897319793701,-2.7817118803607386
1708436572.2992105,-2.1453723907470703,-1.3348183047822495,-2.5276058355914515,6.120469796448507,1.019264578819275,-2.7820146719561976
1708436572.3011901,-2.1453235149383545,-1.3348635745099564,-2.5276103655444544,6.120447027474203,1.0192973613739014,-2.782311741505758
1708436572.303203,-2.1453235149383545,-1.334810660486557,-2.5276029745685022,6.120415675431051,1.0193135738372803,-2.7826719919787806
1708436572.3051906,-2.1452972888946533,-1.3348190647414704,-2.5275984446154993,6.120335209160604,1.0192973613739014,-2.782959524785177
1708436572.3071964,-2.14530611038208,-1.3348225814155121,-2.5275610128985804,6.120307910233297,1.019305944442749,-2.783264462147848
1708436572.3092134,-2.1452744007110596,-1.3348148626140137,-2.527607504521505,6.120248305588522,1.0193344354629517,-2.783527437840597
1708436572.3111854,-2.1452314853668213,-1.334773839717247,-2.5276270548449915,6.120172965317526,1.0193016529083252,-2.7838152090655726
1708436572.3132231,-2.1452221870422363,-1.3347616505673905,-2.5275848547564905,6.120132910996237,1.0192688703536987,-2.7840598265277308
1708436572.3151956,-2.14518141746521,-1.3348236841014405,-2.5276058355914515,6.120092618256368,1.019305944442749,-2.7843034903155726
1708436572.3172126,-2.1451475620269775,-1.3347584915212174,-2.5276058355914515,6.119909989624777,1.0192941427230835,-2.7845152060138147
1708436572.319198,-2.145103693008423,-1.33479659379039,-2.5276194254504603,6.119937050133505,1.019305944442749,-2.7847397963153284
1708436572.3211992,-2.1451258659362793,-1.3347474497607728,-2.5276647249804896,6.119901406555929,1.0192688703536987,-2.7850049177752894
1708436572.3231974,-2.145052194595337,-1.3347101521543046,-2.5276194254504603,6.119801389961996,1.019317865371704,-2.7851927916156214
1708436572.3252287,-2.14508056640625,-1.3347024035504838,-2.5276315847979944,6.119732844620504,1.0192688703536987,-2.785339657460348
1708436572.3272386,-2.1450374126434326,-1.3347148460200806,-2.5276361147509974,6.1197112677390955,1.0192854404449463,-2.7855029741870325
1708436572.3292327,-2.1450023651123047,-1.3347799193910141,-2.5276361147509974,6.119545089989462,1.019309163093567,-2.785752598439352
1708436572.3312225,-2.1449942588806152,-1.3347269755652924,-2.5276058355914515,6.119579660683431,1.0192973613739014,-2.7859249750720423
1708436572.3332417,-2.144970417022705,-1.3346863699010392,-2.5276134649859827,6.119466769486227,1.0192644596099854,-2.785999361668722
1708436572.3352146,-2.1449601650238037,-1.3347641688636322,-2.5276194254504603,6.119393455773153,1.0192731618881226,-2.786171023045675
1708436572.33725,-2.1449296474456787,-1.3347112995437165,-2.5276015440570276,6.119370567589559,1.019264578819275,-2.786278311406271
1708436572.3392289,-2.1448888778686523,-1.334711269741394,-2.5275984446154993,6.119287121086874,1.0192897319793701,-2.7864392439471644
1708436572.341233,-2.1448750495910645,-1.3346550923636933,-2.5276361147509974,6.1192359803016565,1.0193309783935547,-2.7865267435656946
1708436572.343238,-2.144787073135376,-1.3346632731011887,-2.527607504521505,6.119138943939962,1.0192897319793701,-2.786646906529562
1708436572.3452013,-2.1448071002960205,-1.3346916747144242,-2.5276361147509974,6.119055616646566,1.0192941427230835,-2.7867394129382532
1708436572.3472335,-2.1447956562042236,-1.3346790981343766,-2.5276270548449915,6.1190000651176355,1.0192941427230835,-2.7867730299579065
1708436572.3492103,-2.1447548866271973,-1.3347488206676026,-2.527623955403463,6.118913161545553,1.019277572631836,-2.786825720463888
1708436572.3512304,-2.144709587097168,-1.3346430969289322,-2.5276103655444544,6.118831503182211,1.0192941427230835,-2.7868900934802454
1708436572.3532238,-2.14471173286438,-1.3346677732518692,-2.5276270548449915,6.118711817055502,1.0192818641662598,-2.7869096438037317
1708436572.3552017,-2.1446709632873535,-1.3346606653979798,-2.5275700728045862,6.1186643717582605,1.0192731618881226,-2.786917034779684
1708436572.357231,-2.144639253616333,-1.3346431416324158,-2.5275939146624964,6.118575918465414,1.0192581415176392,-2.786891285573141
1708436572.3591993,-2.144582509994507,-1.3346313697150727,-2.5275984446154993,6.118550050049581,1.0192537307739258,-2.7869041601764124
1708436572.3612194,-2.144559621810913,-1.3346236658147355,-2.5275819937335413,6.1184576628501794,1.0192205905914307,-2.786900822316305
1708436572.3632295,-2.1445233821868896,-1.3345953089049836,-2.527574602757589,6.118382322579183,1.0192131996154785,-2.7868028322802942
1708436572.3652291,-2.1444544792175293,-1.3345953685096283,-2.5276406447040003,6.118305432587423,1.019237995147705,-2.786771837865011
1708436572.3671987,-2.14444637298584,-1.3346236509135743,-2.5275939146624964,6.118274915009298,1.019171953201294,-2.786658589039938
1708436572.3691947,-2.1444315910339355,-1.334595189695694,-2.5276361147509974,6.1181750176246545,1.0191925764083862,-2.7865544001208704
1708436572.3711896,-2.144357919692993,-1.3345952343991776,-2.5276148954974573,6.118131625443258,1.0192012786865234,-2.786527220402853
1708436572.3732092,-2.144376039505005,-1.3346163493445893,-2.5275819937335413,6.118007528572836,1.0192217826843262,-2.7864888350116175
1708436572.3751915,-2.1443123817443848,-1.3346121919206162,-2.5276361147509974,6.117956387787618,1.0191727876663208,-2.7864044348346155
1708436572.3772054,-2.1443169116973877,-1.33455045640979,-2.5276058355914515,6.117843496590414,1.0191693305969238,-2.786267344151632
1708436572.3792212,-2.144246816635132,-1.334600792532303,-2.5276601950274866,6.117752182274618,1.0191770792007446,-2.7861228624926966
1708436572.3812156,-2.1441922187805176,-1.3345799160054703,-2.5276361147509974,6.117627131729879,1.019153118133545,-2.7860189119922083
1708436572.3832138,-2.144106388092041,-1.3345799309066315,-2.5276029745685022,6.117577063828268,1.0191247463226318,-2.7859154383288782
1708436572.3851998,-2.1441445350646973,-1.3345507097295304,-2.5276029745685022,6.117463695793905,1.0191246271133423,-2.785767141972677
1708436572.3872113,-2.14410138130188,-1.3345268082669755,-2.5276270548449915,6.117417084961691,1.019166111946106,-2.7855785528766077
1708436572.3892024,-2.144045829772949,-1.334551901822426,-2.5276361147509974,6.117309558182516,1.019149899482727,-2.785412136708395
1708436572.3911984,-2.143944025039673,-1.3345368963531037,-2.5276315847979944,6.117237674980917,1.0191009044647217,-2.7852278391467493
1708436572.393216,-2.1438987255096436,-1.3345074367574234,-2.5276194254504603,6.11713587024764,1.0191333293914795,-2.7849701086627405
1708436572.3951967,-2.1438748836517334,-1.334576429133751,-2.5276225248919886,6.117018091469564,1.0191127061843872,-2.7847328821765345
1708436572.3972123,-2.143807888031006,-1.3345158857158204,-2.5276029745685022,6.116882312088766,1.0191376209259033,-2.7845094839679163
1708436572.3992019,-2.1437885761260986,-1.334532306795456,-2.5276406447040003,6.116803753166952,1.0191289186477661,-2.7842326799975794
1708436572.401206,-2.1437158584594727,-1.3345114302686234,-2.5275896231280726,6.1166995642478845,1.0191541910171509,-2.783973042164938
1708436572.4032285,-2.143688678741455,-1.3345280450633545,-2.5276315847979944,6.1165844080741785,1.0191051959991455,-2.783725086842672
1708436572.4051883,-2.143618583679199,-1.334576429133751,-2.5275774637805384,6.11638234832839,1.0191333293914795,-2.7834888140307825
1708436572.4072142,-2.1435844898223877,-1.3345365536263962,-2.5276148954974573,6.116413819580831,1.0191214084625244,-2.783135000859396
1708436572.4092124,-2.1435341835021973,-1.3344870519689103,-2.5276435057269495,6.11627351024703,1.0191376209259033,-2.782830540333883
1708436572.4111986,-2.143399715423584,-1.3345533472350617,-2.5276103655444544,6.116137611656942,1.0191009044647217,-2.7824531237231653
1708436572.4132228,-2.1434051990509033,-1.3344870519689103,-2.5276103655444544,6.115972506790914,1.0191094875335693,-2.782128874455587
1708436572.4152203,-2.14329195022583,-1.334536538725235,-2.5276389757739466,6.115877854615011,1.0190764665603638,-2.7818339506732386
1708436572.4172404,-2.143270969390869,-1.334520087843277,-2.5276270548449915,6.11580370643691,1.0191127061843872,-2.7814727465258997
1708436572.4192052,-2.1431610584259033,-1.334564597611763,-2.527663056050436,6.115625726967611,1.01914644241333,-2.781158510838644
1708436572.421227,-2.143122434616089,-1.3345039647868653,-2.527674976979391,6.115491020470419,1.0190964937210083,-2.7807355562793177
1708436572.4232328,-2.1430184841156006,-1.3345039647868653,-2.5276675860034388,6.115416991501608,1.019118309020996,-2.780384365712301
1708436572.4252002,-2.142930030822754,-1.334523857837059,-2.527694288884298,6.11522005775527,1.0191376209259033,-2.7799792925464075
1708436572.4272318,-2.142878770828247,-1.3345158857158204,-2.527674976979391,6.115067827492513,1.0191171169281006,-2.7795992533313196
1708436572.4292142,-2.1427834033966064,-1.3345568192056199,-2.5277231375323694,6.11489628532485,1.0190964937210083,-2.779191319142477
1708436572.4312255,-2.1426870822906494,-1.3345196110061188,-2.5277515093432825,6.11474500873641,1.019178032875061,-2.7787259260760706
1708436572.4332445,-2.1425161361694336,-1.3344732534936448,-2.527766291295187,6.114682781487264,1.0191617012023926,-2.778252426777975
1708436572.435223,-2.142475128173828,-1.3345031452229996,-2.527769390736715,6.114514696388998,1.0191693305969238,-2.777872625981466
1708436572.4372342,-2.1423707008361816,-1.334592567091324,-2.5278025309192103,6.114387261658468,1.019153118133545,-2.7774365584002894
1708436572.4392116,-2.142275094985962,-1.3345280599645157,-2.5278518835650843,6.11421965339736,1.0191736221313477,-2.777015988026754
1708436572.4412143,-2.14216947555542,-1.3345883053592225,-2.5278759638415735,6.114068734436788,1.019181489944458,-2.776580874119894
1708436572.4432316,-2.141998767852783,-1.3345357787660141,-2.527874533330099,6.113908755570211,1.0191649198532104,-2.7760990301715296
1708436572.4453118,-2.1419034004211426,-1.3345562678626557,-2.527928177510397,6.113724338799276,1.019181489944458,-2.775618855153219
1708436572.4472418,-2.1418211460113525,-1.3345312637141724,-2.5279555956469935,6.113614308625021,1.0192174911499023,-2.7751949469195765
1708436572.4492064,-2.1417081356048584,-1.3345681589892884,-2.5280213991748255,6.113328087120809,1.0192371606826782,-2.7747226397143763
1708436572.4512062,-2.1415607929229736,-1.3345887821963807,-2.528065029774801,6.113166320114889,1.0192656517028809,-2.7742589155780237
1708436572.4532256,-2.1413753032684326,-1.334588350062706,-2.5280678907977503,6.112966167717733,1.0193103551864624,-2.773799244557516
1708436572.4551916,-2.1412107944488525,-1.3345312041095276,-2.5280752817737024,6.112775075226583,1.0193257331848145,-2.7732742468463343
1708436572.4572136,-2.141120672225952,-1.3345681738904496,-2.52810246149172,6.112564074784078,1.0193541049957275,-2.772797171269552
1708436572.459205,-2.140977621078491,-1.3346202236464997,-2.5281851927386683,6.112384784012594,1.019435167312622,-2.772259298955099
1708436572.4611933,-2.1408143043518066,-1.3345800948194046,-2.5282164255725306,6.112213957100668,1.0194185972213745,-2.7718244234668177
1708436572.463215,-2.140645742416382,-1.3345626455596467,-2.5282073656665247,6.111976969033041,1.0194588899612427,-2.7713444868670862
1708436572.4652097,-2.140530586242676,-1.3346454960158844,-2.528247896824972,6.111729013710775,1.0195188522338867,-2.770867172871725
1708436572.467201,-2.1403400897979736,-1.3346487295678635,-2.5283904711352747,6.1115033505256555,1.019510269165039,-2.7703307310687464
1708436572.469202,-2.140085458755493,-1.3346431267312546,-2.5284176508532923,6.111304151802816,1.0195987224578857,-2.7698219458209437
1708436572.471211,-2.1399593353271484,-1.3346137565425416,-2.5284176508532923,6.111073958664694,1.019659161567688,-2.769290272389547
1708436572.4732006,-2.139725923538208,-1.3346995276263733,-2.5284488836871546,6.110768186836996,1.0197683572769165,-2.7688022295581263
1708436572.4751928,-2.1395351886749268,-1.3347200763276597,-2.5284410158740442,6.110594141274252,1.0197991132736206,-2.7682769934283655
1708436572.4772208,-2.139427900314331,-1.3347399693778534,-2.528580967579977,6.110343205719747,1.0198841094970703,-2.767777983342306
1708436572.4791873,-2.1391494274139404,-1.3347803068212052,-2.5285912195788782,6.110127794533529,1.0199201107025146,-2.767231527959005
1708436572.4811807,-2.1389124393463135,-1.334758536224701,-2.5286694208728235,6.109831917076864,1.019987940788269,-2.7667365709887903
1708436572.4832025,-2.138718366622925,-1.3347748231938859,-2.528663221989767,6.109540450363912,1.020003318786621,-2.7662203947650355
1708436572.485203,-2.138420581817627,-1.334811658864357,-2.528754774724142,6.109234082489767,1.0201125144958496,-2.7657206694232386
1708436572.4872162,-2.138181447982788,-1.334851787691452,-2.5288899580584925,6.108929621964254,1.0201716423034668,-2.7651339213000696
