Eg3-git/Classifiers/Data Collection/u4/u4xyz4_ur3e_joint_states.csv
time,elbow_joint,shoulder_lift_joint,shoulder_pan_joint,wrist_1_joint,wrist_2_joint,wrist_3_joint
1708436631.092946,-2.1488118171691895,-1.3355410260013123,-2.525794808064596,6.127549636154928,1.015747308731079,-2.3516886870013636
1708436631.094939,-2.1488568782806396,-1.3355080050281067,-2.5258033911334437,6.127553808480062,1.015730857849121,-2.351642433797018
1708436631.096967,-2.148852586746216,-1.3355163645795365,-2.5258405844317835,6.127521502762594,1.0157264471054077,-2.3516512552844446
1708436631.0990443,-2.148873805999756,-1.3355325025371094,-2.5258033911334437,6.12754904010848,1.0157594680786133,-2.3516765276538294
1708436631.1010213,-2.148787021636963,-1.3355725717595597,-2.5258196035968226,6.127521502762594,1.0157337188720703,-2.3517051378833216
1708436631.1029737,-2.148820638656616,-1.3355122220567246,-2.525811020527975,6.127569424896993,1.0157471895217896,-2.3516631762133997
1708436631.1049533,-2.148852586746216,-1.335544155245163,-2.5258153120623987,6.127566087036886,1.0157099962234497,-2.3516765276538294
1708436631.1069605,-2.14884352684021,-1.3355767887881775,-2.525827471409933,6.1275367615516565,1.0157145261764526,-2.3516677061664026
1708436631.108969,-2.1488118171691895,-1.3355241578868409,-2.52579909959902,6.127549636154928,1.0157471895217896,-2.351658646260397
1708436631.1109493,-2.1489145755767822,-1.3355325025371094,-2.525794808064596,6.127589809685507,1.0157264471054077,-2.3516886870013636
1708436631.112976,-2.148869276046753,-1.335548387174942,-2.52579909959902,6.127529251366415,1.015747308731079,-2.3516302744494837
1708436631.1149414,-2.1488232612609863,-1.3355325174382706,-2.5258033911334437,6.127614843636312,1.015730857849121,-2.3516677061664026
1708436631.1169586,-2.1488277912139893,-1.3355325025371094,-2.5258076826678675,6.127491700440206,1.0157145261764526,-2.3516138235675257
1708436631.1189437,-2.1488637924194336,-1.3355483275702973,-2.5258033911334437,6.127524840622701,1.015718936920166,-2.3516512552844446
1708436631.1209369,-2.1488513946533203,-1.3354957562736054,-2.525778357182638,6.127578007965841,1.0157562494277954,-2.3516226450549524
1708436631.1229596,-2.1488773822784424,-1.3355325174382706,-2.5258360544787806,6.127532589226522,1.015718936920166,-2.3516512552844446
1708436631.1249323,-2.148848056793213,-1.3355603379062195,-2.525794808064596,6.127573597222128,1.015723466873169,-2.3516841570483606
1708436631.1269705,-2.1488277912139893,-1.3355325025371094,-2.525794808064596,6.127532589226522,1.0157067775726318,-2.3516092936145228
1708436631.1289468,-2.1488559246063232,-1.3355367344668885,-2.5258033911334437,6.12760208824233,1.0157471895217896,-2.351675335560934
1708436631.130933,-2.148893356323242,-1.335576744084694,-2.525790278111593,6.127589809685507,1.0157352685928345,-2.351679865513937
1708436631.1329713,-2.1489057540893555,-1.3355205965093155,-2.5258196035968226,6.12749599197463,1.0157264471054077,-2.351679865513937
1708436631.1349258,-2.1488728523254395,-1.3355441701463242,-2.52579909959902,6.127589213639059,1.0157217979431152,-2.351642433797018
1708436631.136962,-2.1488773822784424,-1.3355041158250351,-2.5257707277881067,6.127593505173483,1.015730857849121,-2.3516841570483606
1708436631.138954,-2.1488728523254395,-1.3355163645795365,-2.5257795492755335,6.127544748574056,1.015702247619629,-2.351679865513937
1708436631.1409266,-2.1488888263702393,-1.3354958158782502,-2.525794808064596,6.127585637360372,1.015735387802124,-2.3516841570483606
1708436631.1429577,-2.1488559246063232,-1.3355121922544022,-2.5258317629443567,6.127606260567465,1.015723466873169,-2.3517094294177454
1708436631.1449559,-2.1489226818084717,-1.3355610829642792,-2.525811020527975,6.1275977967079065,1.015697717666626,-2.3516677061664026
1708436631.1469471,-2.1488513946533203,-1.3355324876359482,-2.5258153120623987,6.127560841828146,1.0157279968261719,-2.3516932169543665
1708436631.1489491,-2.1489226818084717,-1.3355079603246232,-2.5257871786700647,6.127614009171285,1.015739917755127,-2.3517006079303187
1708436631.150919,-2.1488683223724365,-1.3355969947627564,-2.5258284250842493,6.12764202335433,1.015756368637085,-2.3516467253314417
1708436631.1529448,-2.1488637924194336,-1.3355325025371094,-2.5258360544787806,6.127585041313925,1.0157067775726318,-2.3516557852374476
1708436631.1549253,-2.1488842964172363,-1.3355399531177063,-2.5258405844317835,6.127580749779501,1.015735387802124,-2.3516600767718714
1708436631.1569388,-2.1489057540893555,-1.3354999285987397,-2.5258153120623987,6.127589332848348,1.0157325267791748,-2.3516841570483606
1708436631.1589427,-2.1488637924194336,-1.3355725419572373,-2.525843922291891,6.127617347031393,1.015702247619629,-2.351679865513937
1708436631.1609244,-2.1489226818084717,-1.3354880225709458,-2.525774065648214,6.127609598427572,1.015723466873169,-2.3516302744494837
1708436631.162936,-2.1489102840423584,-1.3355163645795365,-2.52579909959902,6.12759696224288,1.015723466873169,-2.3516886870013636
1708436631.1649442,-2.148909091949463,-1.3354803633740921,-2.5258076826678675,6.127682316094198,1.015723466873169,-2.3516886870013636
1708436631.1669474,-2.1488592624664307,-1.3355367344668885,-2.525827471409933,6.127616393357076,1.015735387802124,-2.3516841570483606
1708436631.1689632,-2.1488888263702393,-1.3355399680188675,-2.5257871786700647,6.127666103630819,1.0157145261764526,-2.3516512552844446
1708436631.1709385,-2.1489248275756836,-1.3355367195657273,-2.5258360544787806,6.1276206848915,1.0157067775726318,-2.3516390959369105
1708436631.1729655,-2.148900270462036,-1.3355568510345002,-2.5258284250842493,6.127722608834066,1.0157352685928345,-2.3516512552844446
1708436631.1749518,-2.148913621902466,-1.335499868994095,-2.525782887135641,6.127637135773458,1.0157067775726318,-2.3516345659839075
1708436631.1769857,-2.1489384174346924,-1.3355561059764405,-2.5258317629443567,6.127644884377279,1.0157158374786377,-2.3516019026385706
1708436631.17895,-2.1489205360412598,-1.3355603230050583,-2.5258153120623987,6.127644884377279,1.0157279968261719,-2.3516557852374476
1708436631.1809416,-2.148913621902466,-1.3355324876359482,-2.525843922291891,6.12762879112319,1.015730857849121,-2.3516765276538294
1708436631.1830673,-2.1488797664642334,-1.3355767738870163,-2.5257707277881067,6.127596127777853,1.015702247619629,-2.351654354725973
1708436631.1849678,-2.1488728523254395,-1.3355205667069932,-2.525806490574972,6.127640592842855,1.015702247619629,-2.351642433797018
1708436631.186964,-2.148904800415039,-1.3355325025371094,-2.52579909959902,6.127644884377279,1.0157067775726318,-2.3516719977008265
1708436631.1889408,-2.1488637924194336,-1.3355851483396073,-2.525794808064596,6.127709853440084,1.0156991481781006,-2.3516092936145228
1708436631.1909304,-2.1488637924194336,-1.335561068063118,-2.525811020527975,6.127697932511129,1.015718936920166,-2.3516677061664026
1708436631.1929455,-2.148909091949463,-1.3355561059764405,-2.5258122126208704,6.1276686070259,1.015718936920166,-2.3516436258899134
1708436631.1949444,-2.148909091949463,-1.3355483275702973,-2.5257795492755335,6.127681362419882,1.0157145261764526,-2.3516183535205286
1708436631.1969976,-2.1489450931549072,-1.3355036985925217,-2.5258122126208704,6.127722489624777,1.0157352685928345,-2.3516557852374476
1708436631.1989982,-2.1489179134368896,-1.335544155245163,-2.5258527437793177,6.1276728985603235,1.015697717666626,-2.3516719977008265
1708436631.2009964,-2.1489179134368896,-1.3355561059764405,-2.5258238951312464,6.127655851631918,1.015723466873169,-2.3516302744494837
1708436631.2029827,-2.1489248275756836,-1.3354754012874146,-2.5258153120623987,6.127632963448324,1.0156855583190918,-2.3516646067248743
1708436631.2049556,-2.1488959789276123,-1.335568682556488,-2.525782887135641,6.127718317299642,1.015730857849121,-2.3516138235675257
1708436631.206966,-2.1489450931549072,-1.3355205965093155,-2.5258527437793177,6.1277140257652185,1.015702247619629,-2.3516467253314417
1708436631.2089622,-2.148883581161499,-1.335483805542328,-2.525811020527975,6.127685057907858,1.015739917755127,-2.3516932169543665
1708436631.210952,-2.148956537246704,-1.3355325025371094,-2.525811020527975,6.127693640976705,1.0157444477081299,-2.351647917424337
1708436631.212969,-2.1489479541778564,-1.3355851930430909,-2.525782887135641,6.127693640976705,1.015718936920166,-2.3516512552844446
1708436631.2149289,-2.1489522457122803,-1.3355441850474854,-2.5258196035968226,6.1277140257652185,1.0156900882720947,-2.3516317049609583
1708436631.2169623,-2.148854970932007,-1.3355241429856797,-2.525843922291891,6.1276765940483,1.0156645774841309,-2.3516467253314417
1708436631.2189445,-2.1489522457122803,-1.3355163794806977,-2.5258317629443567,6.1277174828346155,1.0157325267791748,-2.3516886870013636
1708436631.2209558,-2.1489408016204834,-1.3355483275702973,-2.5258360544787806,6.127676713257589,1.015718936920166,-2.3516345659839075
1708436631.2229257,-2.1489005088806152,-1.335552529697754,-2.525790278111593,6.1276893494422815,1.0157279968261719,-2.3516719977008265
1708436631.224938,-2.1488921642303467,-1.3355271828225632,-2.5258405844317835,6.127757775574484,1.015697717666626,-2.3516512552844446
1708436631.2269473,-2.1488921642303467,-1.3355851781419297,-2.525802199040548,6.127757656365194,1.0156946182250977,-2.3516345659839075
1708436631.228983,-2.148904800415039,-1.3354710650495072,-2.5258317629443567,6.127709018975057,1.0156645774841309,-2.3516092936145228
1708436631.230945,-2.148883581161499,-1.3355080050281067,-2.525811020527975,6.127664434700765,1.0157279968261719,-2.351647917424337
1708436631.2329614,-2.148956537246704,-1.3354915392449875,-2.5258153120623987,6.127701270371237,1.0156900882720947,-2.3516390959369105
1708436631.2349312,-2.1489319801330566,-1.3355198365500947,-2.5258360544787806,6.1276681301887415,1.015723466873169,-2.3516765276538294
1708436631.2369738,-2.1489434242248535,-1.335572527056076,-2.5258405844317835,6.1276928065116785,1.015723466873169,-2.3516345659839075
1708436631.238943,-2.148883581161499,-1.3355399680188675,-2.5258033911334437,6.127705442696371,1.015723466873169,-2.3516557852374476
1708436631.2409499,-2.148911714553833,-1.3355198961547394,-2.525843922291891,6.1277140257652185,1.0156855583190918,-2.351600472127096
1708436631.2429523,-2.1489319801330566,-1.335556076174118,-2.5258076826678675,6.127677190094747,1.015760898590088,-2.3516512552844446
1708436631.2449417,-2.1489319801330566,-1.335552529697754,-2.5258076826678675,6.127737271576681,1.0157099962234497,-2.3515973726855677
1708436631.2469344,-2.1489522457122803,-1.3355441850474854,-2.5258196035968226,6.127685177117147,1.0157067775726318,-2.3516226450549524
1708436631.2489688,-2.1489319801330566,-1.3355036538890381,-2.525790278111593,6.127713191300192,1.0156826972961426,-2.3516677061664026
1708436631.2509394,-2.1489346027374268,-1.3355525595000763,-2.525827471409933,6.12775348404006,1.015699028968811,-2.3516557852374476
1708436631.2529454,-2.1489205360412598,-1.3355644804290314,-2.525810782109396,6.127696144371786,1.0156946182250977,-2.3516557852374476
1708436631.254939,-2.148961067199707,-1.3355041456273575,-2.5258033911334437,6.1276686070259,1.015739917755127,-2.3516271750079554
1708436631.2569435,-2.1489298343658447,-1.335504100923874,-2.5258033911334437,6.1277174828346155,1.0157562494277954,-2.3516317049609583
1708436631.2589557,-2.1489388942718506,-1.3355283600142975,-2.525811020527975,6.1276681301887415,1.015723466873169,-2.3516302744494837
1708436631.2609758,-2.1489274501800537,-1.3355198812535782,-2.5258153120623987,6.127761113434591,1.0156736373901367,-2.3516390959369105
1708436631.2629354,-2.1489408016204834,-1.3355970990708848,-2.525806490574972,6.127725112229147,1.0156855583190918,-2.3516467253314417
1708436631.2649374,-2.1489861011505127,-1.3355561059764405,-2.5258360544787806,6.127725112229147,1.015718936920166,-2.3516183535205286
1708436631.2669334,-2.1489479541778564,-1.3355283451131363,-2.525876585637228,6.127713191300192,1.0157325267791748,-2.3516719977008265
1708436631.268966,-2.1489646434783936,-1.3355644804290314,-2.5258360544787806,6.127741563111105,1.0157444477081299,-2.3516677061664026
1708436631.2709594,-2.148911714553833,-1.3355325025371094,-2.525827471409933,6.127684223442831,1.015697717666626,-2.3516092936145228
1708436631.2729337,-2.148951292037964,-1.3355682653239747,-2.5258153120623987,6.127730238228597,1.0157444477081299,-2.3516436258899134
1708436631.2749438,-2.1489691734313965,-1.3355284047177811,-2.525827471409933,6.127672302513876,1.0157279968261719,-2.3516257444964808
1708436631.2769585,-2.1489388942718506,-1.3355644655278702,-2.52579909959902,6.127720820694723,1.015702247619629,-2.3516092936145228
1708436631.2789512,-2.14896821975708,-1.335551844244339,-2.5258238951312464,6.127716648369589,1.0156946182250977,-2.3516226450549524
1708436631.2809572,-2.1489646434783936,-1.3355851036361237,-2.525766436253683,6.127696144371786,1.015730857849121,-2.3516677061664026
1708436631.2829328,-2.148911714553833,-1.3355241280845185,-2.5258033911334437,6.127782332688131,1.0156855583190918,-2.3516512552844446
1708436631.284966,-2.148951292037964,-1.3355801862529297,-2.5258033911334437,6.127749192505636,1.0157562494277954,-2.3516390959369105
1708436631.286957,-2.148925304412842,-1.3355291348746796,-2.5258153120623987,6.127728807717123,1.0157264471054077,-2.3516436258899134
1708436631.2889514,-2.14896821975708,-1.3355156195214768,-2.5258238951312464,6.127720820694723,1.015739917755127,-2.351600472127096
1708436631.2909741,-2.148918628692627,-1.3355682653239747,-2.5257957617389124,6.127761947899618,1.015723466873169,-2.3516271750079554
1708436631.2929547,-2.148988723754883,-1.3355367344668885,-2.525762144719259,6.127754318505087,1.0157729387283325,-2.3516436258899134
1708436631.2949517,-2.14898419380188,-1.3354958158782502,-2.5257871786700647,6.127708899765768,1.0157264471054077,-2.3516183535205286
1708436631.2969801,-2.1489434242248535,-1.3355325174382706,-2.5258317629443567,6.127716529160299,1.0156810283660889,-2.3516092936145228
1708436631.2989573,-2.148977041244507,-1.335495800977089,-2.525811020527975,6.12775336483077,1.015718936920166,-2.3516436258899134
1708436631.301078,-2.148977041244507,-1.3355561208776017,-2.525806490574972,6.127676713257589,1.0157352685928345,-2.3516765276538294
1708436631.3030348,-2.148951292037964,-1.3355283749154587,-2.5258317629443567,6.127750026970663,1.015730857849121,-2.3516345659839075
1708436631.3049963,-2.148979663848877,-1.3355410558036347,-2.525823179875509,6.127790319710531,1.0157352685928345,-2.3516107241259974
1708436631.3069477,-2.14896821975708,-1.3355525445989151,-2.525794808064596,6.127708899765768,1.0157444477081299,-2.3516271750079554
1708436631.3089488,-2.148963451385498,-1.3355367344668885,-2.525827471409933,6.127737271576681,1.015730857849121,-2.3516841570483606
1708436631.3109624,-2.1489388942718506,-1.3355644804290314,-2.5258153120623987,6.127716529160299,1.015735387802124,-2.3516512552844446
1708436631.3129904,-2.14896821975708,-1.3355525595000763,-2.5258405844317835,6.127716529160299,1.0157145261764526,-2.3516512552844446
1708436631.314946,-2.1489388942718506,-1.3355198067477723,-2.5258033911334437,6.127709018975057,1.0157517194747925,-2.351642433797018
1708436631.3169458,-2.1489346027374268,-1.3355367493680497,-2.5258360544787806,6.127745854645529,1.015730857849121,-2.3516390959369105
1708436631.3189902,-2.148951292037964,-1.3355122071555634,-2.525823179875509,6.127741563111105,1.0157471895217896,-2.351642433797018
1708436631.3210557,-2.148951292037964,-1.3355603379062195,-2.525851551686422,6.127708899765768,1.0157145261764526,-2.3516183535205286
1708436631.3229675,-2.14898419380188,-1.3355036538890381,-2.5258196035968226,6.127757775574484,1.015718936920166,-2.3517094294177454
1708436631.32495,-2.148979663848877,-1.335568682556488,-2.525794569646017,6.127749192505636,1.0157145261764526,-2.3516390959369105
1708436631.326941,-2.148951292037964,-1.3354872477105637,-2.5258196035968226,6.127720820694723,1.015730857849121,-2.3516765276538294
1708436631.3289542,-2.148988723754883,-1.3355122071555634,-2.5258570353137415,6.127728807717123,1.0157803297042847,-2.3516345659839075
1708436631.330925,-2.148979663848877,-1.3355367344668885,-2.5257914702044886,6.127823579102316,1.0157264471054077,-2.3516390959369105
1708436631.3329546,-2.1490180492401123,-1.3355441850474854,-2.525762144719259,6.127720820694723,1.0157517194747925,-2.3516302744494837
1708436631.334939,-2.148955821990967,-1.3355079752257843,-2.525782887135641,6.127732980042257,1.0157264471054077,-2.3516557852374476
1708436631.3369777,-2.148942232131958,-1.33552838981662,-2.525827471409933,6.127716529160299,1.015702247619629,-2.3516677061664026
1708436631.3389301,-2.1489932537078857,-1.3355283600142975,-2.5258153120623987,6.127757775574484,1.0157594680786133,-2.3516226450549524
1708436631.3409276,-2.1489920616149902,-1.3355929267457505,-2.525848452244894,6.127745854645529,1.015730857849121,-2.3516390959369105
1708436631.3429294,-2.1490089893341064,-1.3355399531177063,-2.5257871786700647,6.127696144371786,1.0157145261764526,-2.3516512552844446
1708436631.3449428,-2.1489603519439697,-1.3355399531177063,-2.525827471409933,6.127687680512228,1.0157684087753296,-2.3516348044024866
1708436631.3469298,-2.148975133895874,-1.3355483424714585,-2.5258317629443567,6.127756821900167,1.0157427787780762,-2.3516317049609583
1708436631.3489435,-2.148955821990967,-1.3355725419572373,-2.5258153120623987,6.127716529160299,1.015730857849121,-2.3516226450549524
1708436631.3509195,-2.1489546298980713,-1.3355768185905,-2.5258360544787806,6.127691852837362,1.0157145261764526,-2.3516183535205286
1708436631.3529272,-2.1489601135253906,-1.3355682653239747,-2.5258033911334437,6.12775336483077,1.0157517194747925,-2.3515809218036097
1708436631.3549225,-2.149001121520996,-1.3355325025371094,-2.5258405844317835,6.127814161568441,1.0156810283660889,-2.3516467253314417
1708436631.3569531,-2.149047374725342,-1.3355452877334137,-2.5258196035968226,6.127745020180502,1.0157607793807983,-2.3516064325915735
1708436631.3590887,-2.148925304412842,-1.3355851930430909,-2.5258238951312464,6.12775336483077,1.0157848596572876,-2.3516512552844446
1708436631.3609328,-2.148951292037964,-1.3355163496783753,-2.525848452244894,6.127765285759725,1.015730857849121,-2.3516646067248743
1708436631.3629737,-2.149001121520996,-1.3355283451131363,-2.525766436253683,6.127720820694723,1.015718936920166,-2.3516271750079554
1708436631.3649323,-2.149009943008423,-1.3355687123588105,-2.5258360544787806,6.127737271576681,1.0157471895217896,-2.3516226450549524
1708436631.3669672,-2.148996591567993,-1.3354999434999009,-2.5258360544787806,6.127765285759725,1.015697717666626,-2.3516646067248743
1708436631.368947,-2.1490225791931152,-1.3355241280845185,-2.525827471409933,6.12775336483077,1.015702247619629,-2.3516390959369105
1708436631.370933,-2.148925304412842,-1.3355283600142975,-2.5258527437793177,6.127720820694723,1.015718936920166,-2.3516390959369105
1708436631.3729455,-2.148977041244507,-1.335589514379837,-2.5258360544787806,6.127745020180502,1.015718936920166,-2.3516271750079554
1708436631.3749292,-2.149005651473999,-1.3355644804290314,-2.525790278111593,6.12775348404006,1.015697717666626,-2.3516107241259974
1708436631.3770006,-2.14898419380188,-1.3355483275702973,-2.525855843220846,6.127781855850973,1.015723466873169,-2.3516302744494837
1708436631.3789592,-2.1489546298980713,-1.3355399531177063,-2.5258527437793177,6.127713191300192,1.0157352685928345,-2.3516302744494837
1708436631.3809547,-2.148979663848877,-1.3355325174382706,-2.5258196035968226,6.127781855850973,1.015739917755127,-2.351647917424337
1708436631.382963,-2.148979663848877,-1.3355603379062195,-2.5258360544787806,6.127733099251547,1.015739917755127,-2.3516345659839075
1708436631.3849354,-2.1489434242248535,-1.3355367195657273,-2.525827471409933,6.127765285759725,1.0157444477081299,-2.3516064325915735
1708436631.3869803,-2.149001121520996,-1.3355687123588105,-2.525811020527975,6.127713191300192,1.0157729387283325,-2.3516841570483606
1708436631.3889663,-2.148988723754883,-1.3355325025371094,-2.5258153120623987,6.127733099251547,1.015697717666626,-2.3516152540790003
1708436631.3909569,-2.148972749710083,-1.3355283600142975,-2.5257957617389124,6.127749192505636,1.0156810283660889,-2.3516226450549524
1708436631.3929715,-2.148963689804077,-1.3355399531177063,-2.5258482138263147,6.127786028176107,1.0157352685928345,-2.3515973726855677
1708436631.394928,-2.14892315864563,-1.3355603379062195,-2.525790278111593,6.127745020180502,1.015735387802124,-2.3516152540790003
1708436631.3969488,-2.149022340774536,-1.3355205965093155,-2.525855843220846,6.127741563111105,1.015730857849121,-2.3516302744494837
1708436631.3989592,-2.148942232131958,-1.3355483275702973,-2.5258188883410853,6.127704608231344,1.0157099962234497,-2.3516646067248743
1708436631.401026,-2.1489932537078857,-1.3355241280845185,-2.5258153120623987,6.127716529160299,1.015747308731079,-2.3515778223620813
1708436631.4030404,-2.148988723754883,-1.3355895590833207,-2.5258570353137415,6.127737271576681,1.0157173871994019,-2.3516019026385706
1708436631.4049716,-2.14896821975708,-1.3355525595000763,-2.5258153120623987,6.127750026970663,1.0157279968261719,-2.3516226450549524
1708436631.406957,-2.1489932537078857,-1.3355198067477723,-2.525811020527975,6.127740609436788,1.0157471895217896,-2.3516019026385706
1708436631.4089663,-2.148946762084961,-1.3355324876359482,-2.5258689562426966,6.127704608231344,1.0156887769699097,-2.3516064325915735
1708436631.4109344,-2.14898419380188,-1.3355126541903992,-2.525790278111593,6.127756821900167,1.015739917755127,-2.3516152540790003
1708436631.4129598,-2.148972749710083,-1.3354879480651398,-2.5258188883410853,6.127720820694723,1.0157264471054077,-2.3516302744494837
1708436631.4149418,-2.148909568786621,-1.3355682653239747,-2.525811020527975,6.127750026970663,1.0157684087753296,-2.3516646067248743
1708436631.416953,-2.1489388942718506,-1.335572512154915,-2.525839630757467,6.127773868828573,1.015718936920166,-2.3516152540790003
1708436631.418951,-2.14898419380188,-1.3355399531177063,-2.525848452244894,6.127729403763571,1.0157607793807983,-2.3516019026385706
1708436631.4209414,-2.148946762084961,-1.3355603230050583,-2.525823179875509,6.127765404969015,1.015747308731079,-2.351635996495382
1708436631.422944,-2.14898419380188,-1.3355483275702973,-2.525811020527975,6.127720820694723,1.0157145261764526,-2.3516226450549524
1708436631.4249537,-2.148925304412842,-1.3355844181827088,-2.5258317629443567,6.127709018975057,1.0157145261764526,-2.351656977330343
1708436631.4269612,-2.1489875316619873,-1.3354837757400055,-2.5257859865771692,6.127688514977255,1.015760898590088,-2.3516197840320032
1708436631.4289904,-2.1489932537078857,-1.3355725866607209,-2.5258317629443567,6.127773868828573,1.0157099962234497,-2.3516557852374476
1708436631.4309533,-2.148984432220459,-1.335585207944252,-2.525806728993551,6.127729284554281,1.015723466873169,-2.3516197840320032
1708436631.4330592,-2.149022340774536,-1.3355399531177063,-2.5258689562426966,6.127720820694723,1.015730857849121,-2.3516345659839075
1708436631.434973,-2.148959159851074,-1.3355155748179932,-2.525848452244894,6.127720820694723,1.0157471895217896,-2.351647917424337
1708436631.4369695,-2.14896821975708,-1.3355441850474854,-2.5258033911334437,6.127704608231344,1.0157264471054077,-2.3516107241259974
1708436631.4389503,-2.148979663848877,-1.3355525744012375,-2.525851551686422,6.127761947899618,1.0157848596572876,-2.3516226450549524
1708436631.4409497,-2.1489388942718506,-1.335531399851181,-2.5258405844317835,6.127786028176107,1.015739917755127,-2.3516152540790003
1708436631.4429572,-2.149001121520996,-1.3355682653239747,-2.525839630757467,6.127745854645529,1.0157549381256104,-2.3516107241259974
1708436631.4449952,-2.14892315864563,-1.3355283600142975,-2.5258153120623987,6.127684223442831,1.015730857849121,-2.351640526448385
1708436631.4470048,-2.148951292037964,-1.3355113428882142,-2.5258153120623987,6.127750026970663,1.015723466873169,-2.3515942732440394
1708436631.4489446,-2.148951292037964,-1.3355198067477723,-2.525802199040548,6.127725112229147,1.0157264471054077,-2.351603094731466
1708436631.4509594,-2.148988723754883,-1.3355725866607209,-2.525806490574972,6.1276601431663416,1.0157099962234497,-2.3515690008746546
1708436631.4529517,-2.148946762084961,-1.335524083381035,-2.5258353392230433,6.127745854645529,1.0157382488250732,-2.351640526448385
1708436631.4549603,-2.149010181427002,-1.3355155748179932,-2.525811020527975,6.127729403763571,1.015739917755127,-2.3515778223620813
1708436631.4569545,-2.148955821990967,-1.3355036538890381,-2.525827471409933,6.127709018975057,1.0157352685928345,-2.3516107241259974
1708436631.4589431,-2.148946762084961,-1.3355603379062195,-2.5258482138263147,6.127741563111105,1.0157471895217896,-2.3516019026385706
1708436631.4609296,-2.148946762084961,-1.3355725866607209,-2.5258033911334437,6.1276928065116785,1.0157471895217896,-2.3516152540790003
1708436631.4629366,-2.148979663848877,-1.3355809611133118,-2.525806490574972,6.1276928065116785,1.0157471895217896,-2.3516152540790003
1708436631.464932,-2.14898419380188,-1.3355730336955567,-2.5258033911334437,6.127725112229147,1.015730857849121,-2.3516197840320032
1708436631.4669292,-2.1490132808685303,-1.3355325025371094,-2.52579909959902,6.127737748413839,1.0157517194747925,-2.351611916218893
1708436631.4689593,-2.148963689804077,-1.3355809611133118,-2.525782887135641,6.127664315491476,1.0156933069229126,-2.3516197840320032
1708436631.4709606,-2.148975133895874,-1.335532472734787,-2.525811020527975,6.12775348404006,1.0157145261764526,-2.3515823523150843
1708436631.4729705,-2.149010181427002,-1.335491494541504,-2.5258317629443567,6.127716529160299,1.015730857849121,-2.351553742085592
1708436631.4749432,-2.148951292037964,-1.3355482828668137,-2.5257697741137903,6.127729284554281,1.0156810283660889,-2.351553742085592
1708436631.4770474,-2.148996591567993,-1.335588739519455,-2.5258732477771204,6.127712237625875,1.0157145261764526,-2.351570431386129
1708436631.4789715,-2.148975372314453,-1.3355644804290314,-2.525802199040548,6.12770556190566,1.0157145261764526,-2.351595465336935
1708436631.4809334,-2.14898419380188,-1.3355560910752793,-2.525794808064596,6.127709018975057,1.015730857849121,-2.351640526448385
1708436631.4829245,-2.148963689804077,-1.335516334777214,-2.5258196035968226,6.1277140257652185,1.0157099962234497,-2.3516152540790003
1708436631.4849432,-2.1489388942718506,-1.3355687123588105,-2.5258317629443567,6.12770043590621,1.015697717666626,-2.351579252873556
1708436631.4869583,-2.14896821975708,-1.3355325025371094,-2.525774065648214,6.1276482222373865,1.0157517194747925,-2.3516152540790003
1708436631.4889343,-2.148937702178955,-1.3355644357255478,-2.525823179875509,6.127745854645529,1.0157471895217896,-2.3515823523150843
1708436631.4909315,-2.148946762084961,-1.3355399382165452,-2.525806490574972,6.1276928065116785,1.0157684087753296,-2.3515659014331263
1708436631.4929693,-2.148955821990967,-1.335552529697754,-2.525811020527975,6.127701270371237,1.015702247619629,-2.351624075566427
1708436631.4949174,-2.14896821975708,-1.3355768632939835,-2.5258317629443567,6.127737748413839,1.015730857849121,-2.351591173802511
1708436631.4969623,-2.148942232131958,-1.3355080050281067,-2.525794569646017,6.127717363625326,1.015730857849121,-2.351603094731466
1708436631.4989526,-2.149026870727539,-1.3355122667602082,-2.5258196035968226,6.127709853440084,1.015739917755127,-2.351574722920553
1708436631.5011678,-2.148996591567993,-1.335551769738533,-2.5258360544787806,6.12772165515975,1.015730857849121,-2.3515659014331263
1708436631.5029802,-2.148972749710083,-1.3355809313109894,-2.5258188883410853,6.127766239434042,1.0157382488250732,-2.351624075566427
1708436631.5049415,-2.148951292037964,-1.3354872179082413,-2.525794808064596,6.127693640976705,1.015730857849121,-2.351591173802511
1708436631.5069342,-2.148979663848877,-1.3355768185905,-2.525762144719259,6.127737867623129,1.015702247619629,-2.351558272038595
1708436631.5089676,-2.1489434242248535,-1.335524098282196,-2.5258153120623987,6.127761947899618,1.0157054662704468,-2.3515659014331263
1708436631.5109365,-2.148951292037964,-1.33561326683078,-2.525855843220846,6.127709853440084,1.0157264471054077,-2.351583782826559
1708436631.5130134,-2.1489977836608887,-1.3355844181827088,-2.5258317629443567,6.127725946694174,1.015777587890625,-2.351562563573019
1708436631.5149488,-2.1489346027374268,-1.3355122071555634,-2.52586013475527,6.127664434700765,1.0157471895217896,-2.351574722920553
1708436631.5169768,-2.148972749710083,-1.3355205965093155,-2.525839630757467,6.1276893494422815,1.0157352685928345,-2.351611916218893
1708436631.5189407,-2.148972749710083,-1.3355122220567246,-2.5258317629443567,6.1276928065116785,1.015730857849121,-2.3515778223620813
1708436631.520933,-2.148955821990967,-1.3355324578336258,-2.5258482138263147,6.1277421591575525,1.015730857849121,-2.351616446171896
1708436631.522936,-2.1489603519439697,-1.3355603081038971,-2.5258689562426966,6.127742993622579,1.0157145261764526,-2.351607624684469
1708436631.5249877,-2.14898419380188,-1.335572974090912,-2.5258033911334437,6.127705442696371,1.015730857849121,-2.351603094731466
1708436631.526933,-2.148955821990967,-1.3355844181827088,-2.5258527437793177,6.127668726235189,1.0157264471054077,-2.351534430180685
1708436631.5289414,-2.14896821975708,-1.3355568808368226,-2.525843922291891,6.127677190094747,1.0157145261764526,-2.351579252873556
1708436631.5309231,-2.1489388942718506,-1.3356056672385712,-2.5258033911334437,6.127640473633566,1.015718936920166,-2.3515823523150843
1708436631.5329454,-2.148979663848877,-1.3355283600142975,-2.5258527437793177,6.12772165515975,1.0156855583190918,-2.351599995289938
1708436631.5349722,-2.148951292037964,-1.3355410558036347,-2.525827471409933,6.127709853440084,1.0157427787780762,-2.35162860551943
1708436631.536949,-2.14896821975708,-1.3355291348746796,-2.5258527437793177,6.127660977631368,1.0157517194747925,-2.351607624684469
1708436631.538933,-2.148977041244507,-1.3355441850474854,-2.5258284250842493,6.127681362419882,1.0157639980316162,-2.351574722920553
1708436631.5409381,-2.148996591567993,-1.3355644655278702,-2.5258317629443567,6.127709853440084,1.0157594680786133,-2.351570431386129
1708436631.54296,-2.14896821975708,-1.3355248731425782,-2.525848452244894,6.127677190094747,1.0157145261764526,-2.351567093526022
1708436631.544938,-2.1489434242248535,-1.3355163496783753,-2.525843922291891,6.127656686096945,1.0157382488250732,-2.3515659014331263
1708436631.5469246,-2.148951292037964,-1.3355241429856797,-2.525806490574972,6.127653348236837,1.0157684087753296,-2.351586643849508
1708436631.5489564,-2.14898419380188,-1.335564450626709,-2.525806728993551,6.1276686070259,1.0157382488250732,-2.351649347935812
1708436631.5509267,-2.1489319801330566,-1.3355249029449006,-2.525848452244894,6.127694237023153,1.015735387802124,-2.351562563573019
1708436631.552914,-2.14898419380188,-1.3355768185905,-2.525827471409933,6.127660977631368,1.015735387802124,-2.35162860551943
1708436631.554957,-2.14892315864563,-1.3355809611133118,-2.525839630757467,6.127649056702413,1.0157264471054077,-2.351591173802511
1708436631.5569289,-2.1489346027374268,-1.3355525595000763,-2.525806490574972,6.12768982627944,1.0157217979431152,-2.351562563573019
1708436631.5589437,-2.1489274501800537,-1.3355283600142975,-2.525778357182638,6.12767373302535,1.015750527381897,-2.35158354440798
1708436631.5609431,-2.148977041244507,-1.3354999285987397,-2.525790278111593,6.127685653954305,1.0156965255737305,-2.351611916218893
1708436631.5629454,-2.1489603519439697,-1.3355198514512558,-2.52579909959902,6.127644884377279,1.0157471895217896,-2.351624075566427
1708436631.5649424,-2.1488959789276123,-1.3355399680188675,-2.5258033911334437,6.127694237023153,1.0157145261764526,-2.351562563573019
1708436631.566943,-2.1489319801330566,-1.335515634422638,-2.525774065648214,6.127617347031393,1.0157504081726074,-2.351591173802511
1708436631.568956,-2.1489346027374268,-1.3355603081038971,-2.5257859865771692,6.127641427307882,1.0157549381256104,-2.351611916218893
1708436631.5709598,-2.1489646434783936,-1.3355560910752793,-2.5258353392230433,6.127629267960348,1.0157264471054077,-2.351616446171896
1708436631.572938,-2.148972749710083,-1.335588739519455,-2.525802199040548,6.127617347031393,1.0157549381256104,-2.351553742085592
1708436631.5749404,-2.148916006088257,-1.3356098991683503,-2.525851551686422,6.127614009171285,1.0157922506332397,-2.351586643849508
1708436631.5769477,-2.1489434242248535,-1.335516334777214,-2.525843922291891,6.127577054291525,1.0157517194747925,-2.351611916218893
1708436631.5789413,-2.14896821975708,-1.3355809611133118,-2.5258851687060755,6.127585041313925,1.0157471895217896,-2.351599995289938
1708436631.5809646,-2.1489274501800537,-1.3355324876359482,-2.525827471409933,6.127524959831991,1.0157877206802368,-2.351595703755514
1708436631.5829396,-2.148916006088257,-1.3355198067477723,-2.5258527437793177,6.1276224730308435,1.0157427787780762,-2.351595703755514
1708436631.584928,-2.1489028930664062,-1.3355809462121506,-2.5258527437793177,6.12754904010848,1.0157217979431152,-2.351640526448385
1708436631.5869682,-2.1489346027374268,-1.3355768334916611,-2.5258360544787806,6.127557503968038,1.015825629234314,-2.351558272038595
1708436631.58895,-2.1488959789276123,-1.3355768185905,-2.525860611592428,6.127578007965841,1.0157712697982788,-2.351611916218893
1708436631.5909398,-2.1489434242248535,-1.3356048625758667,-2.5258360544787806,6.1274969456489465,1.0157742500305176,-2.351591173802511
1708436631.5929577,-2.1489646434783936,-1.3354879480651398,-2.525855843220846,6.12754105308608,1.015745997428894,-2.351595703755514
1708436631.5949438,-2.148977041244507,-1.335560367708542,-2.52579909959902,6.127553808480062,1.0157999992370605,-2.351624075566427
1708436631.596949,-2.1489603519439697,-1.3355725419572373,-2.525835100804464,6.127557503968038,1.0158090591430664,-2.35154635110964
1708436631.5989428,-2.14892315864563,-1.3355284047177811,-2.525851551686422,6.1275051710899255,1.015762448310852,-2.351553742085592
1708436631.6010242,-2.1488869190216064,-1.3355768334916611,-2.52586013475527,6.127573597222128,1.0157532691955566,-2.3515823523150843
1708436631.6030118,-2.148951292037964,-1.335585118537285,-2.525851551686422,6.127553808480062,1.0157833099365234,-2.351579252873556
1708436631.604966,-2.1489319801330566,-1.3355686974576493,-2.525790278111593,6.12754105308608,1.0157877206802368,-2.351624075566427
1708436631.6069498,-2.148900270462036,-1.3355895292809983,-2.5258353392230433,6.127544629364767,1.0157864093780518,-2.351603094731466
1708436631.608967,-2.1488959789276123,-1.335585133438446,-2.525827471409933,6.127565967827596,1.0157774686813354,-2.351591173802511
1708436631.6109252,-2.1489434242248535,-1.3355525744012375,-2.525794808064596,6.127529251366415,1.0158030986785889,-2.351635996495382
1708436631.6129396,-2.1489479541778564,-1.3355079305223008,-2.525839630757467,6.127530085831442,1.0157954692840576,-2.351611916218893
1708436631.6149256,-2.1489434242248535,-1.3355851930430909,-2.525811020527975,6.127557503968038,1.0157864093780518,-2.351586643849508
1708436631.616962,-2.14890718460083,-1.335539848809578,-2.525839630757467,6.127537596016683,1.0158194303512573,-2.351599995289938
1708436631.618948,-2.1488959789276123,-1.3355603379062195,-2.5258188883410853,6.127606856613912,1.0157818794250488,-2.351570431386129
1708436631.6209536,-2.1489274501800537,-1.3355725866607209,-2.5258353392230433,6.127573597222128,1.0157941579818726,-2.3516152540790003
1708436631.62296,-2.1489388942718506,-1.3355610531619568,-2.5258591810809534,6.127566087036886,1.015826940536499,-2.351586643849508
1708436631.6249714,-2.1489248275756836,-1.3355561059764405,-2.525851551686422,6.127557503968038,1.015826940536499,-2.3515506426440638
1708436631.6269495,-2.1489274501800537,-1.3355730485967179,-2.525827471409933,6.127476203232565,1.0158600807189941,-2.351603094731466
1708436631.628939,-2.1489603519439697,-1.335564450626709,-2.525843922291891,6.127492534905233,1.0158631801605225,-2.3515942732440394
1708436631.6309497,-2.1489248275756836,-1.3355603081038971,-2.525855843220846,6.127554642945089,1.015826940536499,-2.3516019026385706
1708436631.6329808,-2.1488959789276123,-1.3355248880437394,-2.525823179875509,6.12751733043746,1.0158464908599854,-2.3516064325915735
1708436631.6349506,-2.1489365100860596,-1.335548312669136,-2.5258708635913294,6.12754105308608,1.0158207416534424,-2.351647917424337
1708436631.636947,-2.1489365100860596,-1.3355036836913605,-2.525839630757467,6.127549516945638,1.0158886909484863,-2.351635996495382
1708436631.6389372,-2.148916006088257,-1.3355525445989151,-2.525843922291891,6.127513873368063,1.0158252716064453,-2.3515897432910364
1708436631.6409745,-2.148883581161499,-1.3355399680188675,-2.525855843220846,6.127509581833639,1.015879511833191,-2.3516107241259974
1708436631.6429622,-2.1489450931549072,-1.3355483275702973,-2.525827471409933,6.127509581833639,1.015838861465454,-2.3516152540790003
1708436631.6449463,-2.148913621902466,-1.3354710948518296,-2.525851551686422,6.127541887551107,1.0158677101135254,-2.3516512552844446
1708436631.6469607,-2.148961067199707,-1.3355809313109894,-2.5258353392230433,6.127508747368612,1.0158464908599854,-2.351598564778463
1708436631.6489735,-2.148982286453247,-1.3355560910752793,-2.5258353392230433,6.127558100014486,1.0158705711364746,-2.3516064325915735
1708436631.6509414,-2.1489205360412598,-1.3355640333941956,-2.525839630757467,6.127513873368063,1.0158497095108032,-2.3516152540790003
1708436631.652959,-2.148916006088257,-1.3355441850474854,-2.525879685078756,6.127525675087728,1.0159082412719727,-2.351624075566427
1708436631.6549385,-2.148904800415039,-1.3355851632407685,-2.525904719029562,6.127493130951681,1.0158872604370117,-2.3516226450549524
1708436631.656959,-2.1489336490631104,-1.3355809462121506,-2.52588397661318,6.127501117974081,1.0159008502960205,-2.3516467253314417
1708436631.658957,-2.1489524841308594,-1.3355887097171326,-2.5258384386645716,6.127521502762594,1.0158677101135254,-2.3516810576068323
1708436631.6609597,-2.148887872695923,-1.3355767887881775,-2.525879685078756,6.1275343773658655,1.015929102897644,-2.3516152540790003
1708436631.6629615,-2.148887872695923,-1.335508019929268,-2.525851551686422,6.127497422486105,1.0158872604370117,-2.3516646067248743
1708436631.66494,-2.1489012241363525,-1.3355561059764405,-2.5258634726153772,6.127554642945089,1.015933632850647,-2.3516600767718714
1708436631.6669533,-2.1489205360412598,-1.3355367195657273,-2.525916639958517,6.127481329232015,1.015929102897644,-2.3516107241259974
1708436631.668947,-2.1488423347473145,-1.3355441850474854,-2.525879685078756,6.127513873368063,1.0159319639205933,-2.3516436258899134
1708436631.6709468,-2.1489248275756836,-1.3355483275702973,-2.5258429686175745,6.1274239895637415,1.0159534215927124,-2.351654354725973
1708436631.6729617,-2.1489179134368896,-1.3355356615832825,-2.525851551686422,6.127476918488302,1.0159155130386353,-2.3516467253314417
1708436631.6749458,-2.148913621902466,-1.3354957562736054,-2.525860373173849,6.127469289093771,1.0159155130386353,-2.35165244737734
1708436631.6769786,-2.148904800415039,-1.3355356615832825,-2.525867764149801,6.127529966622152,1.0159275531768799,-2.3516183535205286
1708436631.6789474,-2.148913621902466,-1.3355561059764405,-2.525839630757467,6.1275555966194055,1.0159066915512085,-2.3516600767718714
1708436631.6809385,-2.1489179134368896,-1.3355283600142975,-2.525900665913717,6.127472746163168,1.015965461730957,-2.351675335560934
1708436631.6830475,-2.1489057540893555,-1.3355525445989151,-2.5258353392230433,6.127448904305258,1.0158947706222534,-2.3516226450549524
1708436631.6849854,-2.1488592624664307,-1.3355452430299302,-2.5258591810809534,6.127457368164816,1.0159066915512085,-2.3516390959369105
1708436631.686963,-2.148888111114502,-1.3355483275702973,-2.5259247461902063,6.12748550155715,1.0158946514129639,-2.3516183535205286
1708436631.6889584,-2.148954153060913,-1.3355283451131363,-2.5258384386645716,6.127522337227621,1.0159094333648682,-2.351675335560934
1708436631.6909366,-2.1488797664642334,-1.3355241429856797,-2.52588397661318,6.1274452088172815,1.015902042388916,-2.3516810576068323
1708436631.6929667,-2.1488468647003174,-1.3355325025371094,-2.5258708635913294,6.127482044487753,1.0159682035446167,-2.3516467253314417
1708436631.6949677,-2.1488728523254395,-1.3355079752257843,-2.525888268147604,6.127481329232015,1.0159518718719482,-2.3516557852374476
1708436631.696982,-2.1488468647003174,-1.3355483275702973,-2.525872532521383,6.127473580628195,1.0159682035446167,-2.3517094294177454
1708436631.698951,-2.14884352684021,-1.335568682556488,-2.5258634726153772,6.1274452088172815,1.0159517526626587,-2.3516932169543665
1708436631.7009842,-2.1488683223724365,-1.3355367195657273,-2.525900427495138,6.12746940830306,1.0159845352172852,-2.3516390959369105
1708436631.703047,-2.148860454559326,-1.3355314445546647,-2.5258663336383265,6.127436744957723,1.0159666538238525,-2.3516467253314417
1708436631.7049522,-2.1489012241363525,-1.335585118537285,-2.5258827845202845,6.127453791886129,1.0159711837768555,-2.3516390959369105
1708436631.7069767,-2.1488187313079834,-1.3355241131833573,-2.5258663336383265,6.1274651167686365,1.0159755945205688,-2.351679865513937
1708436631.7089865,-2.148852586746216,-1.335528464322426,-2.5259161631213587,6.127417194634237,1.0159833431243896,-2.351668898259298
1708436631.710954,-2.1488559246063232,-1.3355809313109894,-2.5259326140033167,6.127425658493795,1.015954852104187,-2.3516932169543665
1708436631.712968,-2.1488559246063232,-1.3355524700931092,-2.5259535948382776,6.127417194634237,1.0159575939178467,-2.3516436258899134
1708436631.714953,-2.1489057540893555,-1.3355283600142975,-2.5259490648852747,6.1274382946784876,1.0159833431243896,-2.3516302744494837
1708436631.7169895,-2.1488163471221924,-1.3354914647391816,-2.52592641512026,6.127429950028219,1.016007423400879,-2.3516302744494837
1708436631.7189596,-2.1488184928894043,-1.3355767887881775,-2.525963846837179,6.127405273705282,1.016014814376831,-2.3517213503467005
1708436631.7209532,-2.148860454559326,-1.3355325025371094,-2.525959316884176,6.12738989570693,1.0160237550735474,-2.3516600767718714
1708436631.722989,-2.148902177810669,-1.3355241429856797,-2.525959316884176,6.127385723381796,1.0160315036773682,-2.3517051378833216
1708436631.72495,-2.14884352684021,-1.3355809313109894,-2.5259791056262415,6.127385723381796,1.0160030126571655,-2.3516183535205286
1708436631.726965,-2.148878335952759,-1.3355970692685624,-2.525971237813131,6.12741111496047,1.015981674194336,-2.351675335560934
1708436631.7289863,-2.1487948894500732,-1.3355205816081543,-2.5259791056262415,6.127362358361044,1.0160315036773682,-2.3516631762133997
1708436631.730959,-2.148878335952759,-1.3355687272599717,-2.5259817282306116,6.127342808037557,1.0160030126571655,-2.3516600767718714
1708436631.7329829,-2.148836612701416,-1.3355441850474854,-2.5260193983661097,6.127281296044149,1.016007423400879,-2.351691786442892
1708436631.7349389,-2.148848056793213,-1.3355452430299302,-2.5260236899005335,6.127313601761617,1.016014814376831,-2.3516929785357874
1708436631.7369566,-2.1488659381866455,-1.3355483275702973,-2.5260325113879603,6.127269494324484,1.0160704851150513,-2.3516271750079554
1708436631.7389538,-2.148825168609619,-1.3354998987964173,-2.526036802922384,6.127317893296041,1.0160284042358398,-2.3516512552844446
1708436631.740943,-2.148873805999756,-1.3355399680188675,-2.5259910265551966,6.127277958184042,1.0160568952560425,-2.3516886870013636
1708436631.7429743,-2.1488049030303955,-1.3355122220567246,-2.5259953180896204,6.12731026390151,1.0160030126571655,-2.351687256489889
1708436631.7449532,-2.148845672607422,-1.3355036985925217,-2.5259953180896204,6.127330529480734,1.0160434246063232,-2.3516631762133997
1708436631.746938,-2.148833990097046,-1.3355356615832825,-2.5259996096240442,6.12725721576766,1.016052484512329,-2.351679865513937
1708436631.7489624,-2.148812770843506,-1.3355283600142975,-2.5260074774371546,6.127306806832113,1.0159939527511597,-2.3516765276538294
1708436631.7509277,-2.148812770843506,-1.335548297767975,-2.5260193983661097,6.12731026390151,1.0160945653915405,-2.351729218159811
1708436631.7529473,-2.1488049030303955,-1.335568682556488,-2.5260325113879603,6.12723337390975,1.0160478353500366,-2.351637903844015
1708436631.7549314,-2.148817300796509,-1.3355163645795365,-2.5260356108294886,6.127262222557821,1.0160058736801147,-2.351633373891012
1708436631.7569468,-2.1487674713134766,-1.3355198365500947,-2.5259745756732386,6.12723337390975,1.0160841941833496,-2.3516960779773157
1708436631.7589457,-2.148829698562622,-1.3355325025371094,-2.5259833971606653,6.127249586373129,1.016018033027649,-2.351658646260397
1708436631.7609556,-2.1487345695495605,-1.3356055927327652,-2.526027027760641,6.127290713578024,1.0160270929336548,-2.3516600767718714
1708436631.7629454,-2.1488430500030518,-1.3355122220567246,-2.525998655949728,6.127246129303732,1.0160841941833496,-2.3516841570483606
1708436631.7649217,-2.1488094329833984,-1.3355283600142975,-2.526015106831686,6.127306806832113,1.0160843133926392,-2.3516886870013636
1708436631.7669525,-2.1488049030303955,-1.3355122220567246,-2.5259910265551966,6.127266514092245,1.0160961151123047,-2.351612393056051
1708436631.7689798,-2.1487934589385986,-1.3355525445989151,-2.52598220506777,6.1272257445152185,1.0160508155822754,-2.3516631762133997
1708436631.7709522,-2.1488051414489746,-1.3355367195657273,-2.5260031859027308,6.127205955773153,1.0160388946533203,-2.351633373891012
1708436631.772977,-2.1487674713134766,-1.3355603230050583,-2.5259910265551966,6.127242672234335,1.0160765647888184,-2.351670805607931
1708436631.7749302,-2.1487720012664795,-1.3355644655278702,-2.5259953180896204,6.1272469637687585,1.0160434246063232,-2.351679865513937
1708436631.7769573,-2.1488049030303955,-1.3355325025371094,-2.5260728041278284,6.127258884697714,1.0160720348358154,-2.3516467253314417
1708436631.7789643,-2.148818254470825,-1.3355483275702973,-2.5260520617114466,6.127255427628317,1.0160675048828125,-2.351658646260397
1708436631.7809317,-2.148759603500366,-1.3355452877334137,-2.5260193983661097,6.127198207169332,1.0160765647888184,-2.351637903844015
1708436631.7830129,-2.1487810611724854,-1.3355808866075058,-2.526043478642599,6.127194034844198,1.0160959959030151,-2.3517139593707483
1708436631.784935,-2.148759603500366,-1.3355122220567246,-2.5260401407824915,6.127226221352377,1.0160462856292725,-2.3516302744494837
1708436631.7869406,-2.148772954940796,-1.3355325025371094,-2.5259748140918177,6.127129065781393,1.0160796642303467,-2.3516092936145228
1708436631.78898,-2.1487720012664795,-1.3355325025371094,-2.5260236899005335,6.127165543823995,1.016018033027649,-2.351679865513937
1708436631.7909205,-2.1487438678741455,-1.3355399680188675,-2.5259996096240442,6.127133238106527,1.0160796642303467,-2.351637903844015
1708436631.792965,-2.1487438678741455,-1.3355283600142975,-2.5259907881366175,6.127191173821249,1.0160887241363525,-2.3516719977008265
1708436631.7949429,-2.148761510848999,-1.3355483275702973,-2.5260282198535364,6.127162205963888,1.0160796642303467,-2.3516677061664026
1708436631.7969863,-2.148789882659912,-1.3355936718038102,-2.526081387196676,6.127170789032736,1.0160841941833496,-2.351679865513937
1708436631.798939,-2.148772954940796,-1.3355725717595597,-2.525977913533346,6.127150285034933,1.0160796642303467,-2.3516841570483606
1708436631.8009446,-2.148757219314575,-1.3355410260013123,-2.5259833971606653,6.127088773041525,1.0160584449768066,-2.3516960779773157
1708436631.8030486,-2.1487154960632324,-1.3356090647033234,-2.5259833971606653,6.127109157830038,1.0160553455352783,-2.3516302744494837
1708436631.8050685,-2.148711919784546,-1.3355483275702973,-2.5259748140918177,6.127175080567159,1.0161291360855103,-2.351637903844015
1708436631.8069706,-2.148716449737549,-1.335572601561882,-2.5259626547442835,6.127113449364462,1.0160796642303467,-2.3516257444964808
1708436631.808973,-2.1487200260162354,-1.3355356615832825,-2.5259791056262415,6.1271588681037805,1.0160675048828125,-2.3516841570483606
1708436631.810936,-2.1487412452697754,-1.3355603230050583,-2.526015106831686,6.127130496292867,1.0160796642303467,-2.3516886870013636
1708436631.8129823,-2.1487457752227783,-1.3355241429856797,-2.5259626547442835,6.127118575363912,1.0160915851593018,-2.3516390959369105
1708436631.81493,-2.148750066757202,-1.3355410260013123,-2.5260236899005335,6.1271389601524255,1.0160720348358154,-2.351691786442892
1708436631.8169572,-2.148728847503662,-1.3355682653239747,-2.525991980229513,6.127057182579794,1.0160390138626099,-2.3516512552844446
1708436631.8189578,-2.1486916542053223,-1.3355325025371094,-2.5260031859027308,6.127085912018575,1.0160796642303467,-2.3516677061664026
1708436631.8209589,-2.148761510848999,-1.3355399531177063,-2.5260074774371546,6.127085315972128,1.0160553455352783,-2.3516886870013636
1708436631.8229384,-2.1486916542053223,-1.3355198067477723,-2.525977913533346,6.127118456154623,1.0160388946533203,-2.351679865513937
1708436631.8249564,-2.1486666202545166,-1.3355325025371094,-2.5259953180896204,6.1270696995551965,1.0160887241363525,-2.351670805607931
1708436631.826934,-2.148683547973633,-1.3355367195657273,-2.5260031859027308,6.127098190575399,1.0160720348358154,-2.3516512552844446
1708436631.8289678,-2.148683547973633,-1.3355241429856797,-2.5260193983661097,6.127045976906576,1.0160553455352783,-2.3516512552844446
1708436631.8309271,-2.1486575603485107,-1.3355809313109894,-2.5260313192950647,6.127057897835531,1.0160752534866333,-2.3516677061664026
1708436631.8329353,-2.148705005645752,-1.3355163496783753,-2.5259864966021937,6.1271270392234705,1.0160796642303467,-2.3516467253314417
1708436631.834961,-2.1487255096435547,-1.3354796183160325,-2.5259864966021937,6.127115118294515,1.0160253047943115,-2.351675335560934
1708436631.8369377,-2.1487014293670654,-1.3355483275702973,-2.5260236899005335,6.127050268441,1.0160796642303467,-2.351687256489889
1708436631.8389664,-2.1486599445343018,-1.3355325025371094,-2.5259791056262415,6.127098667412557,1.0160887241363525,-2.3517006079303187
1708436631.8409333,-2.1487059593200684,-1.3355410558036347,-2.5259910265551966,6.1270943758781335,1.0160675048828125,-2.3516975084887903
1708436631.8429594,-2.148639440536499,-1.3355687123588105,-2.5259996096240442,6.127057897835531,1.0160796642303467,-2.351642433797018
1708436631.8449528,-2.1487059593200684,-1.3355525445989151,-2.5260193983661097,6.127054440766134,1.0160629749298096,-2.351637903844015
1708436631.8469458,-2.1487014293670654,-1.3355163645795365,-2.5259953180896204,6.1270261881645105,1.0160796642303467,-2.3516932169543665
1708436631.849006,-2.1486618518829346,-1.3355325025371094,-2.5260160605060022,6.127099501877584,1.0161291360855103,-2.3516886870013636
1708436631.850931,-2.148698091506958,-1.3355163645795365,-2.5260117689715784,6.127054440766134,1.0160841941833496,-2.3516719977008265
1708436631.852927,-2.1486687660217285,-1.3355367195657273,-2.5259702841388147,6.127050745278158,1.016018033027649,-2.3516345659839075
1708436631.854966,-2.148653984069824,-1.335499868994095,-2.5260236899005335,6.127013313561239,1.0160887241363525,-2.351687256489889
1708436631.8569326,-2.1486599445343018,-1.3355767887881775,-2.526020590459005,6.127030360489645,1.0160765647888184,-2.3516512552844446
1708436631.8589487,-2.1486527919769287,-1.3355036985925217,-2.5260117689715784,6.127111422806539,1.0160796642303467,-2.351654354725973
1708436631.8609226,-2.1486527919769287,-1.3355525595000763,-2.5260160605060022,6.12707148769454,1.0160584449768066,-2.351707998906271
1708436631.8629293,-2.1486494541168213,-1.3355525595000763,-2.5259702841388147,6.127074944763937,1.0160796642303467,-2.3516467253314417
1708436631.8649642,-2.148648500442505,-1.3355163645795365,-2.5260565916644495,6.127038824349203,1.0160584449768066,-2.3516960779773157
1708436631.8669496,-2.1486527919769287,-1.3355248880437394,-2.5259910265551966,6.127005684166708,1.0160675048828125,-2.351642433797018
1708436631.868992,-2.1486494541168213,-1.3355325025371094,-2.5260160605060022,6.127013313561239,1.0160629749298096,-2.351691786442892
1708436631.8709254,-2.1486361026763916,-1.3355163645795365,-2.5260117689715784,6.127079117089071,1.0160752534866333,-2.351691786442892
1708436631.8729281,-2.1486732959747314,-1.3354998987964173,-2.526015106831686,6.127017605095663,1.0161051750183105,-2.351642433797018
1708436631.874995,-2.148595094680786,-1.3355205816081543,-2.5260282198535364,6.126993882447042,1.0161247253417969,-2.351679865513937
1708436631.876919,-2.1486706733703613,-1.3355441850474854,-2.5260325113879603,6.127021777420797,1.0160796642303467,-2.3517048994647425
1708436631.8789735,-2.148632526397705,-1.3355644804290314,-2.5260282198535364,6.127030360489645,1.0160675048828125,-2.3516138235675257
1708436631.8809435,-2.148627996444702,-1.3355122071555634,-2.5260401407824915,6.127030360489645,1.0160841941833496,-2.35164982477297
1708436631.8829434,-2.148682117462158,-1.3355283600142975,-2.5260282198535364,6.12701843956069,1.0160752534866333,-2.351670805607931
1708436631.884926,-2.1486775875091553,-1.335601345901825,-2.5260282198535364,6.127111422806539,1.0160390138626099,-2.3516841570483606
1708436631.8869302,-2.148682117462158,-1.3355122220567246,-2.5260074774371546,6.127054917603292,1.0160752534866333,-2.3516257444964808
1708436631.8889718,-2.148604154586792,-1.3355367195657273,-2.5260031859027308,6.127083408623495,1.0160796642303467,-2.351658884678976
1708436631.8909297,-2.148627996444702,-1.3355603230050583,-2.5260031859027308,6.127108084946432,1.0160720348358154,-2.3516226450549524
1708436631.8929632,-2.1486361026763916,-1.3355205816081543,-2.5260117689715784,6.127021777420797,1.0160752534866333,-2.3516467253314417
1708436631.894928,-2.1486752033233643,-1.3355483275702973,-2.5259864966021937,6.127021777420797,1.0161337852478027,-2.351658646260397
1708436631.8969395,-2.148578405380249,-1.335496501331665,-2.5260074774371546,6.127021777420797,1.0160598754882812,-2.3516226450549524
1708436631.8989608,-2.148627996444702,-1.3355079752257843,-2.526015106831686,6.127005684166708,1.0161336660385132,-2.3516841570483606
1708436631.9009507,-2.148637056350708,-1.335597113972046,-2.5260401407824915,6.127050745278158,1.0160629749298096,-2.35164982477297
1708436631.9030511,-2.148625612258911,-1.3355122220567246,-2.5260074774371546,6.127054440766134,1.0160584449768066,-2.351621214543478
1708436631.9049826,-2.1486494541168213,-1.3355644804290314,-2.5260074774371546,6.127037989884176,1.0161247253417969,-2.351675335560934
1708436631.9069426,-2.148632526397705,-1.3355036538890381,-2.5260117689715784,6.127021777420797,1.0160629749298096,-2.3516345659839075
1708436631.908966,-2.1486775875091553,-1.3355283600142975,-2.5260520617114466,6.1270422814186,1.0160841941833496,-2.3516677061664026
1708436631.9109397,-2.148637056350708,-1.3355291050723572,-2.5260325113879603,6.127083289414205,1.0160961151123047,-2.3516677061664026
1708436631.9129705,-2.1486706733703613,-1.3355367195657273,-2.5259953180896204,6.127050268441,1.0160959959030151,-2.351658884678976
1708436631.9149523,-2.148627996444702,-1.3355525445989151,-2.5259996096240442,6.127054917603292,1.0160915851593018,-2.3516677061664026
1708436631.9169297,-2.148637056350708,-1.3355283600142975,-2.5260356108294886,6.127058732300558,1.0160508155822754,-2.3516467253314417
1708436631.918966,-2.148621082305908,-1.3355410260013123,-2.5260117689715784,6.127005684166708,1.0161291360855103,-2.3517094294177454
1708436631.9209375,-2.148646116256714,-1.335491494541504,-2.52598220506777,6.12701843956069,1.0160417556762695,-2.3516886870013636
1708436631.92297,-2.148604154586792,-1.335476116543152,-2.5259953180896204,6.127021896630087,1.0161157846450806,-2.3516302744494837
1708436631.9249663,-2.148630142211914,-1.3355483275702973,-2.525998655949728,6.127001392632284,1.0160752534866333,-2.3516886870013636
1708436631.926974,-2.148562431335449,-1.335491494541504,-2.5260325113879603,6.127041804581442,1.0160326957702637,-2.3516512552844446
1708436631.9289477,-2.148646116256714,-1.3355205816081543,-2.525994364415304,6.12701843956069,1.0161291360855103,-2.3516631762133997
1708436631.930958,-2.148658514022827,-1.3355325025371094,-2.5260074774371546,6.12701843956069,1.0160796642303467,-2.351609532033102
1708436631.9330616,-2.148653745651245,-1.3355568808368226,-2.5260074774371546,6.12701843956069,1.0160841941833496,-2.351654354725973
1708436631.934992,-2.148630142211914,-1.3355687123588105,-2.5259910265551966,6.127009975701132,1.0160796642303467,-2.3516929785357874
1708436631.9369805,-2.148646116256714,-1.3355483275702973,-2.5259910265551966,6.127030360489645,1.0160796642303467,-2.3516719977008265
1708436631.9389672,-2.1486122608184814,-1.3355441850474854,-2.5259953180896204,6.127058732300558,1.0160752534866333,-2.3516467253314417
1708436631.9409637,-2.148582696914673,-1.335548312669136,-2.5260282198535364,6.127046453743734,1.0160417556762695,-2.3516841570483606
1708436631.9429586,-2.148667335510254,-1.3355452877334137,-2.5260193983661097,6.127075660019674,1.0160752534866333,-2.351679865513937
1708436631.944937,-2.148599624633789,-1.3354796183160325,-2.5259910265551966,6.127046572953024,1.0160796642303467,-2.351642433797018
1708436631.9469528,-2.148621082305908,-1.3354796183160325,-2.5259996096240442,6.127058732300558,1.0160796642303467,-2.351679865513937
1708436631.9489524,-2.148637056350708,-1.3355483275702973,-2.5259996096240442,6.127033698349752,1.0160495042800903,-2.351658646260397
1708436631.9509451,-2.148625612258911,-1.3355936718038102,-2.526036802922384,6.12701843956069,1.0160796642303467,-2.351658646260397
1708436631.9529405,-2.1486165523529053,-1.3355367344668885,-2.5259864966021937,6.127009975701132,1.0161291360855103,-2.3516677061664026
1708436631.9549272,-2.148641586303711,-1.3355205816081543,-2.5259748140918177,6.127021777420797,1.0161006450653076,-2.3516183535205286
1708436631.956985,-2.148599624633789,-1.3354879480651398,-2.5260325113879603,6.127086746483602,1.0160796642303467,-2.3516841570483606
1708436631.958959,-2.148637056350708,-1.3355283600142975,-2.5260608831988733,6.127025234490194,1.0160796642303467,-2.351679865513937
1708436631.9609666,-2.148608684539795,-1.3355163645795365,-2.52598220506777,6.127046453743734,1.0160661935806274,-2.3517051378833216
1708436631.9629812,-2.1485962867736816,-1.3355291348746796,-2.5260236899005335,6.127009975701132,1.0160796642303467,-2.3516932169543665
1708436631.9649315,-2.148632526397705,-1.3355084222606202,-2.526048723851339,6.127004730492391,1.0160675048828125,-2.3516390959369105
1708436631.9669993,-2.1486165523529053,-1.3355410260013123,-2.5259953180896204,6.127066361695089,1.0160675048828125,-2.3516467253314417
1708436631.9689462,-2.1486165523529053,-1.335504100923874,-2.525961701069967,6.127058732300558,1.0160661935806274,-2.3516345659839075
1708436631.9709313,-2.1486494541168213,-1.335496501331665,-2.525998655949728,6.1270261881645105,1.0160796642303467,-2.3516512552844446
1708436631.9729514,-2.148686647415161,-1.3354803037694474,-2.5260401407824915,6.127005684166708,1.0160959959030151,-2.351679865513937
1708436631.9749606,-2.148658514022827,-1.3355483275702973,-2.5260074774371546,6.127037989884176,1.0160796642303467,-2.3516719977008265
1708436631.976943,-2.148632526397705,-1.335499868994095,-2.5260074774371546,6.127014267235555,1.0160584449768066,-2.351647917424337
1708436631.9789786,-2.1486122608184814,-1.3355483275702973,-2.5259791056262415,6.12705014923171,1.0161006450653076,-2.3516677061664026
1708436631.9809513,-2.148632526397705,-1.3354795736125489,-2.5259910265551966,6.127091038018026,1.0160841941833496,-2.351609532033102
1708436631.9829576,-2.148632526397705,-1.3355644804290314,-2.5260031859027308,6.127074944763937,1.0160584449768066,-2.3516271750079554
1708436631.9849486,-2.148653745651245,-1.3355603230050583,-2.5260608831988733,6.127050745278158,1.0160751342773438,-2.351642433797018
1708436631.986966,-2.148641586303711,-1.3355525445989151,-2.5260160605060022,6.127021777420797,1.0160961151123047,-2.3516677061664026
1708436631.9889607,-2.1486258506774902,-1.3355452579310914,-2.525998655949728,6.127110945969381,1.0160959959030151,-2.351658646260397
1708436631.9909503,-2.148637056350708,-1.3355937463096161,-2.5260117689715784,6.126977431565084,1.0160752534866333,-2.3516719977008265
1708436631.9929583,-2.148604154586792,-1.3355367344668885,-2.52598220506777,6.127017605095663,1.0160752534866333,-2.3516390959369105
1708436631.9949265,-2.148653745651245,-1.3355483275702973,-2.5259864966021937,6.127054440766134,1.0161006450653076,-2.351675335560934
1708436631.9969738,-2.148653745651245,-1.3354999285987397,-2.5260236899005335,6.127070534020223,1.0160752534866333,-2.3516467253314417
1708436631.9989393,-2.1486237049102783,-1.3355517995408555,-2.52598220506777,6.127066361695089,1.0160961151123047,-2.3516841570483606
1708436632.0009754,-2.148632526397705,-1.3355410409024735,-2.5259748140918177,6.1270696995551965,1.0160629749298096,-2.3516932169543665
1708436632.0032182,-2.148627996444702,-1.3355241429856797,-2.5260236899005335,6.127094495087423,1.0160661935806274,-2.3515973726855677
1708436632.0050302,-2.148637056350708,-1.335529090171196,-2.52598220506777,6.127115118294515,1.0160493850708008,-2.3516765276538294
1708436632.0069861,-2.148599624633789,-1.335499868994095,-2.526015106831686,6.127053487091818,1.0160752534866333,-2.3516138235675257
1708436632.008962,-2.148627996444702,-1.3355241429856797,-2.5260117689715784,6.127066361695089,1.0160796642303467,-2.3516841570483606
1708436632.0109394,-2.148682117462158,-1.335609809761383,-2.5259748140918177,6.127054440766134,1.0161619186401367,-2.3516512552844446
1708436632.012944,-2.148691177368164,-1.3355410260013123,-2.526020590459005,6.127057897835531,1.0161247253417969,-2.351707998906271
1708436632.0151887,-2.148653745651245,-1.3355248880437394,-2.5259910265551966,6.127041804581442,1.0160661935806274,-2.3516960779773157
1708436632.0169485,-2.1486077308654785,-1.3355080050281067,-2.5259748140918177,6.127098667412557,1.0161247253417969,-2.351658646260397
1708436632.0189579,-2.148632526397705,-1.3355080646327515,-2.5260236899005335,6.1271023629005334,1.0161291360855103,-2.3516557852374476
1708436632.020912,-2.148621082305908,-1.3355441850474854,-2.5260193983661097,6.127085912018575,1.016115665435791,-2.351658646260397
1708436632.0229292,-2.1486661434173584,-1.3355644655278702,-2.5260031859027308,6.1271023629005334,1.0161337852478027,-2.3516600767718714
1708436632.024934,-2.1485862731933594,-1.335572974090912,-2.526048723851339,6.127090203552999,1.016082525253296,-2.3516019026385706
1708436632.0269456,-2.148702383041382,-1.3355517995408555,-2.526015106831686,6.12709807136611,1.0160584449768066,-2.351616923009054
1708436632.028969,-2.148599624633789,-1.3354879927686234,-2.5260401407824915,6.127134668618002,1.0160661935806274,-2.351621214543478
1708436632.0309365,-2.148627996444702,-1.3354872030070801,-2.5260193983661097,6.127183425217428,1.016082525253296,-2.3516631762133997
1708436632.0329905,-2.1486494541168213,-1.3355283600142975,-2.5260031859027308,6.127125251084127,1.016164779663086,-2.3516557852374476
1708436632.0349412,-2.148686408996582,-1.3355163496783753,-2.5260236899005335,6.12720679023818,1.0160616636276245,-2.3516257444964808
1708436632.0369442,-2.1486527919769287,-1.3355482828668137,-2.5260117689715784,6.127174126892843,1.0160915851593018,-2.351654354725973
1708436632.0389287,-2.148658514022827,-1.3355205816081543,-2.5260117689715784,6.1271939156349084,1.0161454677581787,-2.351675335560934
1708436632.0409257,-2.1486573219299316,-1.3355399680188675,-2.5260031859027308,6.127222049027242,1.0161336660385132,-2.3517125288592737
1708436632.0429409,-2.148632526397705,-1.3355163794806977,-2.5259748140918177,6.127230036049642,1.0160751342773438,-2.351642433797018
1708436632.0449402,-2.1485862731933594,-1.3355041158250351,-2.525998655949728,6.1272023794944666,1.0160661935806274,-2.3515973726855677
1708436632.0469651,-2.1486122608184814,-1.3355525147965928,-2.5260031859027308,6.127217638283529,1.016115665435791,-2.351691786442892
1708436632.0489655,-2.1486449241638184,-1.3355767887881775,-2.5259538332568567,6.12720154502944,1.0160752534866333,-2.3516302744494837
1708436632.0509186,-2.1486403942108154,-1.3355568212321778,-2.525994364415304,6.127201664238729,1.0161499977111816,-2.351675335560934
1708436632.0529363,-2.1486191749572754,-1.3355568808368226,-2.5260193983661097,6.1272257445152185,1.016082525253296,-2.351658646260397
1708436632.0549376,-2.1486706733703613,-1.3355452132276078,-2.5260193983661097,6.127265679627218,1.0161337852478027,-2.351658646260397
1708436632.0569634,-2.1486494541168213,-1.3355198812535782,-2.5260117689715784,6.1273196814353845,1.0160959959030151,-2.3516345659839075
1708436632.0589302,-2.1486494541168213,-1.3355325025371094,-2.5260565916644495,6.127241956978597,1.0160915851593018,-2.351642433797018
1708436632.0609193,-2.148689031600952,-1.3355248880437394,-2.5260193983661097,6.127330529480734,1.0161291360855103,-2.3517213503467005
1708436632.0629249,-2.148643970489502,-1.3355241280845185,-2.5260117689715784,6.127258050232687,1.0161319971084595,-2.3516467253314417
1708436632.0649357,-2.1486449241638184,-1.3355283451131363,-2.526003901158468,6.127330529480734,1.0160959959030151,-2.351670805607931
1708436632.066987,-2.148595094680786,-1.3355567914298554,-2.526065174733297,6.127282130509176,1.0160796642303467,-2.3516467253314417
1708436632.068947,-2.1486403942108154,-1.335463897590973,-2.5260160605060022,6.127301680832662,1.0160796642303467,-2.351675335560934
1708436632.070925,-2.1486122608184814,-1.335589514379837,-2.5260356108294886,6.127289759903707,1.0160661935806274,-2.3516302744494837
1708436632.0729609,-2.1486687660217285,-1.3355367344668885,-2.5259953180896204,6.1272973892982385,1.0160961151123047,-2.3516677061664026
1708436632.0749364,-2.1486103534698486,-1.3355198365500947,-2.5259910265551966,6.127305972367086,1.0161291360855103,-2.351691786442892
1708436632.0769415,-2.148698091506958,-1.3355325025371094,-2.526053015385763,6.127326357155599,1.016082525253296,-2.351679865513937
1708436632.0789573,-2.1486642360687256,-1.3355367195657273,-2.525998655949728,6.1272857067878626,1.0160781145095825,-2.351658646260397
1708436632.0809326,-2.1486403942108154,-1.3355483275702973,-2.5260236899005335,6.1273385165031335,1.016082525253296,-2.351675335560934
1708436632.0829785,-2.148648500442505,-1.3355367344668885,-2.5259702841388147,6.127313482552328,1.0161112546920776,-2.351661984120504
1708436632.084965,-2.1486847400665283,-1.3355122220567246,-2.5260160605060022,6.12726508358077,1.0160959959030151,-2.3516631762133997
1708436632.0869722,-2.1486077308654785,-1.3355894696763535,-2.5260031859027308,6.127374994545736,1.0160796642303467,-2.3516467253314417
1708436632.0889447,-2.1486527919769287,-1.3355568063310166,-2.5260399023639124,6.127285587578573,1.0160572528839111,-2.351670805607931
1708436632.0909357,-2.1486926078796387,-1.3355367344668885,-2.5260031859027308,6.127334344177999,1.0161291360855103,-2.351645533238546
1708436632.092951,-2.1486802101135254,-1.3355367344668885,-2.5260193983661097,6.127346145897665,1.016115665435791,-2.351707998906271
1708436632.094959,-2.1486527919769287,-1.3355483722737809,-2.526048723851339,6.12735806682662,1.0160752534866333,-2.351658646260397
1708436632.0969682,-2.1487059593200684,-1.3355483275702973,-2.5260117689715784,6.127375113755026,1.0161455869674683,-2.351658646260397
1708436632.098945,-2.1486732959747314,-1.335572988992073,-2.5260160605060022,6.1273666498954675,1.0161112546920776,-2.351736609135763
1708436632.1009552,-2.1486847400665283,-1.3355205816081543,-2.5260074774371546,6.127330052643575,1.0160584449768066,-2.351707998906271
1708436632.1030395,-2.148698091506958,-1.3355525595000763,-2.5260236899005335,6.1273419735725305,1.016100525856018,-2.351645294819967
1708436632.1050272,-2.1486880779266357,-1.3355325025371094,-2.526027027760641,6.127317893296041,1.016127586364746,-2.351637903844015
1708436632.106985,-2.1486527919769287,-1.335524098282196,-2.5260117689715784,6.127337801247396,1.0160661935806274,-2.351682726536886
1708436632.1089678,-2.148627281188965,-1.3355653446963807,-2.5259748140918177,6.127333628922262,1.0161291360855103,-2.351621214543478
1708436632.1109352,-2.1487557888031006,-1.3354922843030472,-2.5259864966021937,6.127345311432638,1.0161247253417969,-2.351621214543478
1708436632.1129344,-2.1487255096435547,-1.3355452877334137,-2.5260160605060022,6.127317416458883,1.0160915851593018,-2.3516960779773157
1708436632.1149497,-2.148689031600952,-1.3355367344668885,-2.5260236899005335,6.12735806682662,1.0161547660827637,-2.3517125288592737
1708436632.1169372,-2.148705005645752,-1.335532547240593,-2.5260325113879603,6.12735806682662,1.016082525253296,-2.3516467253314417
1708436632.1189485,-2.1486756801605225,-1.3354675632766266,-2.5260074774371546,6.127329098969259,1.0160781145095825,-2.351678435002462
1708436632.120932,-2.1486623287200928,-1.335548297767975,-2.5260282198535364,6.127333509712972,1.0161411762237549,-2.35164982477297
1708436632.1229734,-2.1486270427703857,-1.3355206114104767,-2.5260193983661097,6.127324926644125,1.0160417556762695,-2.351699177418844
1708436632.124932,-2.1486756801605225,-1.335561068063118,-2.5260160605060022,6.127279507904806,1.016061782836914,-2.351645533238546
1708436632.1269817,-2.1486711502075195,-1.3355367195657273,-2.5260282198535364,6.127422797470846,1.0161247253417969,-2.351691786442892
1708436632.1289442,-2.1486880779266357,-1.3355367344668885,-2.5260401407824915,6.127406942635336,1.0161112546920776,-2.351707998906271
1708436632.1309192,-2.1486971378326416,-1.3355568510345002,-2.525994364415304,6.127377974777975,1.0160616636276245,-2.351694647465841
1708436632.1329265,-2.1486756801605225,-1.3355126541903992,-2.5260401407824915,6.127385723381796,1.0160915851593018,-2.351703707371847
1708436632.1349208,-2.1486711502075195,-1.335504100923874,-2.5259996096240442,6.127398478775778,1.016082525253296,-2.351703707371847
1708436632.1369193,-2.1486926078796387,-1.3354591888240357,-2.5260282198535364,6.127349722176351,1.0160826444625854,-2.351678435002462
1708436632.1389391,-2.1486687660217285,-1.3355483275702973,-2.5260236899005335,6.127394187241354,1.016115665435791,-2.351678435002462
1708436632.14092,-2.1486880779266357,-1.3355568510345002,-2.5259791056262415,6.1274263737495325,1.0161501169204712,-2.351724688206808
1708436632.1429262,-2.1487343311309814,-1.3354915392449875,-2.5260074774371546,6.127365815430441,1.0160959959030151,-2.351682726536886
1708436632.1449409,-2.1487209796905518,-1.335563988690712,-2.5260074774371546,6.127401578217306,1.0161319971084595,-2.351670805607931
1708436632.1469185,-2.1486666202545166,-1.3355410558036347,-2.5259626547442835,6.127410042076864,1.0161319971084595,-2.351670805607931
1708436632.1489398,-2.148650884628296,-1.3354879480651398,-2.5259910265551966,6.127450334816732,1.0161455869674683,-2.351694647465841
1708436632.1509144,-2.1487467288970947,-1.3355325025371094,-2.5260117689715784,6.127377140312948,1.0161410570144653,-2.351741139088766
1708436632.1529174,-2.1486642360687256,-1.3355122369578858,-2.5260282198535364,6.127394068032064,1.0160826444625854,-2.35164982477297
1708436632.1549268,-2.1487512588500977,-1.3354922843030472,-2.5260074774371546,6.1273772595222376,1.0161454677581787,-2.351720158253805
1708436632.156927,-2.14867901802063,-1.335561068063118,-2.5260193983661097,6.127353179245748,1.0161246061325073,-2.351675335560934
1708436632.1589317,-2.1486880779266357,-1.3354837906411667,-2.5260117689715784,6.127392995148458,1.016127586364746,-2.351707998906271
1708436632.1609266,-2.148700475692749,-1.3355851483396073,-2.5260520617114466,6.127397286682882,1.0160752534866333,-2.351658646260397
1708436632.1629236,-2.148705005645752,-1.3355399531177063,-2.526043478642599,6.12740575054244,1.016127586364746,-2.351691786442892
1708436632.1649256,-2.148737668991089,-1.3355644804290314,-2.52598220506777,6.1273772595222376,1.016148328781128,-2.351703707371847
1708436632.1669106,-2.148709535598755,-1.3355283600142975,-2.5260356108294886,6.1274382946784876,1.016127586364746,-2.3516960779773157
1708436632.1689332,-2.148683547973633,-1.3355687272599717,-2.5260325113879603,6.127385723381796,1.0161006450653076,-2.351670805607931
1708436632.1709163,-2.148705005645752,-1.3355367344668885,-2.5260356108294886,6.127446877747335,1.0161410570144653,-2.3516531626330774
1708436632.1729534,-2.148700475692749,-1.3355483275702973,-2.5259626547442835,6.127450334816732,1.0161051750183105,-2.351687256489889
1708436632.174919,-2.1487300395965576,-1.3355561059764405,-2.5259626547442835,6.12735270240859,1.0161247253417969,-2.35164982477297
1708436632.1769257,-2.1487209796905518,-1.3355367195657273,-2.5259864966021937,6.127369510918417,1.0161006450653076,-2.351666514073507
1708436632.178949,-2.14867901802063,-1.3355603081038971,-2.5260074774371546,6.127441870957174,1.0161410570144653,-2.351694647465841
1708436632.1809156,-2.1486926078796387,-1.3355080050281067,-2.5259910265551966,6.1274382946784876,1.0161291360855103,-2.351691786442892
1708436632.183032,-2.1487343311309814,-1.3355325025371094,-2.5260236899005335,6.12743495681838,1.0161006450653076,-2.351658646260397
1708436632.1849568,-2.148683547973633,-1.3355325025371094,-2.5260356108294886,6.127418029099264,1.0160752534866333,-2.351703707371847
1708436632.186925,-2.148650646209717,-1.3355122071555634,-2.5260236899005335,6.127369630127706,1.0160781145095825,-2.351682726536886
1708436632.188981,-2.148705005645752,-1.3354871732047577,-2.525961701069967,6.127434241562643,1.0160797834396362,-2.3517125288592737
1708436632.1909587,-2.148705005645752,-1.335496501331665,-2.5260520617114466,6.127442705422201,1.0161484479904175,-2.35164982477297
1708436632.1929586,-2.148700475692749,-1.335577206020691,-2.5260325113879603,6.127422201424398,1.0160796642303467,-2.351600472127096
1708436632.194938,-2.1486971378326416,-1.3355036538890381,-2.5260031859027308,6.127394068032064,1.0160796642303467,-2.351679865513937
1708436632.1969268,-2.148696184158325,-1.3354871732047577,-2.5260031859027308,6.127373683243551,1.016082525253296,-2.3516631762133997
1708436632.198961,-2.1486926078796387,-1.335499868994095,-2.5260356108294886,6.127398478775778,1.016115665435791,-2.351679865513937
1708436632.2009299,-2.1487255096435547,-1.335512639289238,-2.5260520617114466,6.127374279289999,1.016061782836914,-2.351675335560934
1708436632.2029905,-2.1486642360687256,-1.3355155748179932,-2.5259857813464563,6.127398478775778,1.0161319971084595,-2.351658646260397
1708436632.2050202,-2.1486711502075195,-1.3355079603246232,-2.5260399023639124,6.127353894501486,1.016082525253296,-2.3516646067248743
1708436632.2070038,-2.148705005645752,-1.3354384017041703,-2.5259996096240442,6.127326357155599,1.0161336660385132,-2.3516345659839075
1708436632.2089777,-2.1486926078796387,-1.3355483275702973,-2.5260444323169153,6.127350437432089,1.0161455869674683,-2.3516019026385706
1708436632.2109294,-2.1486756801605225,-1.3354998540929337,-2.5260477701770228,6.127289879112997,1.0160752534866333,-2.351603094731466
1708436632.212981,-2.148639440536499,-1.3355851930430909,-2.5260325113879603,6.127256500511923,1.016127586364746,-2.351553742085592
1708436632.2149277,-2.1486711502075195,-1.335536779170372,-2.5260356108294886,6.127282130509176,1.0161247253417969,-2.351521078740255
1708436632.217012,-2.148700475692749,-1.3355644804290314,-2.5259864966021937,6.127241003304281,1.016066074371338,-2.3515685240374964
1708436632.218941,-2.1486599445343018,-1.3355163496783753,-2.5260477701770228,6.127241122513571,1.016115665435791,-2.351539913808004
1708436632.220928,-2.1487059593200684,-1.335536779170372,-2.5259910265551966,6.127200710564413,1.0161319971084595,-2.35149056116213
1708436632.2229764,-2.1486926078796387,-1.3355937463096161,-2.5260074774371546,6.127247082978048,1.0160959959030151,-2.351438347493307
1708436632.2249177,-2.1486642360687256,-1.3354879480651398,-2.5260236899005335,6.127205955773153,1.0160961151123047,-2.3514142672168177
1708436632.226957,-2.148714065551758,-1.335492269401886,-2.5260565916644495,6.127161371498861,1.0160735845565796,-2.351382557545797
1708436632.2289722,-2.1486687660217285,-1.3355291348746796,-2.5259864966021937,6.127227175026693,1.0161230564117432,-2.351379696522848
1708436632.2309308,-2.1486361026763916,-1.3355652552894135,-2.5259910265551966,6.127182590752401,1.016111135482788,-2.3513346354113978
1708436632.2329462,-2.148643970489502,-1.3355126690915604,-2.525977913533346,6.127150165825643,1.0161291360855103,-2.3512492815600794
1708436632.2349253,-2.148689031600952,-1.3355367344668885,-2.5260356108294886,6.1271424172218225,1.0161247253417969,-2.3512373606311243
1708436632.2369506,-2.148632526397705,-1.3355644655278702,-2.5260193983661097,6.127118575363912,1.0160752534866333,-2.3512025515185755
1708436632.2389593,-2.1486403942108154,-1.3355611127666016,-2.525961701069967,6.127004849701681,1.0160959959030151,-2.3511486689196985
1708436632.2409334,-2.1486527919769287,-1.335504100923874,-2.5260639826404017,6.127045976906576,1.0160616636276245,-2.3511186281787317
1708436632.2429504,-2.1486449241638184,-1.3355205667069932,-2.525998655949728,6.12696539142684,1.0160752534866333,-2.3510704676257532
1708436632.2449436,-2.148627996444702,-1.3355410409024735,-2.526020590459005,6.12697051742629,1.016082525253296,-2.3510106245623987
1708436632.2469594,-2.1485962867736816,-1.3355212223580857,-2.5260117689715784,6.126958358078756,1.0160781145095825,-2.350913111363546
1708436632.2489827,-2.148641586303711,-1.335496501331665,-2.526010815297262,6.126894223480978,1.0161247253417969,-2.350865189229147
1708436632.2509358,-2.1485848426818848,-1.3355253499797364,-2.5260313192950647,6.1268420098121545,1.0161454677581787,-2.350797716771261
1708436632.252946,-2.1485397815704346,-1.3354803186706086,-2.5260477701770228,6.126822459488668,1.0160751342773438,-2.350713555012838
1708436632.2549355,-2.1485352516174316,-1.3354718399098893,-2.526015106831686,6.126770007401266,1.016082525253296,-2.3506370226489466
1708436632.2569926,-2.1485397815704346,-1.335493118768074,-2.5260520617114466,6.1266822693641565,1.0161319971084595,-2.3505829016314905
1708436632.2589405,-2.1485257148742676,-1.335496486430504,-2.5260074774371546,6.126666652947225,1.0160751342773438,-2.3504825274096888
1708436632.2609394,-2.1484830379486084,-1.33548458040271,-2.526048008595602,6.126643287926473,1.0161112546920776,-2.350360933934347
1708436632.2629626,-2.1485133171081543,-1.3354435426047822,-2.525993887578146,6.126542317658224,1.016115665435791,-2.350243870412008
1708436632.2649539,-2.148461103439331,-1.3354647171548386,-2.526027027760641,6.126421916275778,1.0161023139953613,-2.3501105944262903
1708436632.2669594,-2.148432970046997,-1.3354282242110749,-2.5260477701770228,6.1264346716697595,1.0161319971084595,-2.349987570439474
1708436632.2689605,-2.1484508514404297,-1.3354766380837937,-2.526006523762838,6.126387584000387,1.0161439180374146,-2.349945370350973
1708436632.2709296,-2.1483941078186035,-1.3354809296182175,-2.525989357625143,6.126278149872579,1.0160735845565796,-2.3497894446002405
1708436632.2729535,-2.1483986377716064,-1.3354605001262208,-2.526027027760641,6.126222598343649,1.0161558389663696,-2.3496483008014124
1708436632.2749267,-2.14837384223938,-1.3354773831418534,-2.5260031859027308,6.126130091934957,1.0161893367767334,-2.349504295979635
1708436632.2769465,-2.148350954055786,-1.3354450923255463,-2.526015106831686,6.126107919007101,1.0161304473876953,-2.349405352269308
1708436632.2789385,-2.1482932567596436,-1.3353797954371949,-2.52606445947756,6.1260307905967615,1.0161638259887695,-2.3492613474475306
1708436632.2809556,-2.1482977867126465,-1.3354051125100632,-2.526052538548605,6.125999915390768,1.0161638259887695,-2.3490544001208704
1708436632.2829607,-2.148228645324707,-1.3353352707675477,-2.526076618825094,6.125931489258566,1.0161921977996826,-2.3488953749286097
1708436632.2849288,-2.1481969356536865,-1.3354170632413407,-2.526043478642599,6.125835525780477,1.0162129402160645,-2.348739210759298
1708436632.286977,-2.1481447219848633,-1.3354289692691346,-2.5260348955737513,6.125786530762472,1.0162162780761719,-2.348546806965963
1708436632.2889357,-2.1481378078460693,-1.3354255569032212,-2.5260630289660853,6.125748383789816,1.016228199005127,-2.3483412901507776
1708436632.2909238,-2.148106098175049,-1.335417853002884,-2.526055399571554,6.125716674118795,1.0162327289581299,-2.348189655934469
1708436632.2929537,-2.148035764694214,-1.3353326183608552,-2.526046339665548,6.125578272133627,1.0162073373794556,-2.347997252141134
1708436632.294925,-2.1480212211608887,-1.3353445541909714,-2.5260630289660853,6.125486719399252,1.0162479877471924,-2.347806517277853
1708436632.296979,-2.148022174835205,-1.335376815204956,-2.5261078516589563,6.125471699028768,1.016202688217163,-2.347593132649557
1708436632.2989438,-2.1479744911193848,-1.335352973347046,-2.5260749498950403,6.125354993134298,1.0162689685821533,-2.3473508993731897
1708436632.3009396,-2.1479222774505615,-1.3352926236442109,-2.526128594075338,6.125352847367086,1.016255497932434,-2.3471031824695032
1708436632.3029666,-2.147874593734741,-1.3353330355933686,-2.5261061827289026,6.125231015473165,1.0162807703018188,-2.3468704859363
1708436632.3050354,-2.147845506668091,-1.3353172105601807,-2.5260987917529505,6.125151502877035,1.0163171291351318,-2.346654240285055
1708436632.3070018,-2.1477887630462646,-1.3352643561414261,-2.52614409128298,6.125079381256857,1.0163216590881348,-2.3464513460742396
1708436632.3090074,-2.1477997303009033,-1.3353172105601807,-2.5261481443988245,6.125074016838827,1.016319990158081,-2.346120897923605
1708436632.3109329,-2.147751808166504,-1.3352846068194886,-2.526163403187887,6.124916183739462,1.0163228511810303,-2.3458972612964075
1708436632.3129559,-2.1476523876190186,-1.3353299510530015,-2.526172463093893,6.124802815705099,1.0163319110870361,-2.3456133047686976
1708436632.3149436,-2.1476387977600098,-1.3352931302836915,-2.526130501423971,6.1247243759925745,1.016335129737854,-2.345315758381979
1708436632.3169773,-2.1476023197174072,-1.3352324676564713,-2.52620512643923,6.124676453858175,1.016410231590271,-2.3450079599963587
1708436632.3189714,-2.147570848464966,-1.335240901713707,-2.526172463093893,6.12455569484786,1.0163967609405518,-2.344698492680685
1708436632.3209813,-2.1475343704223633,-1.3352086406997223,-2.526179854069845,6.124480473786154,1.0163997411727905,-2.3443906942950647
1708436632.3229594,-2.1475231647491455,-1.335224763756134,-2.526187245045797,6.124429333000936,1.0163710117340088,-2.3440282980548304
1708436632.3249302,-2.147491216659546,-1.3352374744466324,-2.5261827150927942,6.124281275063314,1.0163906812667847,-2.3437328974353235
1708436632.326959,-2.1474549770355225,-1.335270107989647,-2.526187245045797,6.124175655632772,1.0164238214492798,-2.3433361689196985
1708436632.3289537,-2.1474356651306152,-1.3351975095323105,-2.5262325445758265,6.124100315361776,1.016414761543274,-2.342959229146139
1708436632.3309352,-2.147383451461792,-1.3351490956595917,-2.5262444655047815,6.124029385834493,1.0164854526519775,-2.342541758214132
1708436632.3329723,-2.1473774909973145,-1.3352382493070145,-2.5262189547168177,6.123913037567892,1.0164763927459717,-2.342133108769552
1708436632.3349326,-2.1473278999328613,-1.3351490956595917,-2.5262189547168177,6.123805033951559,1.0165047645568848,-2.341712538396017
1708436632.3369777,-2.147247314453125,-1.3351575446179886,-2.526188913975851,6.123737561493673,1.0165075063705444,-2.3412755171405237
1708436632.338938,-2.147216558456421,-1.3351207238486786,-2.526238266621725,6.123616921692648,1.0165736675262451,-2.3408668676959437
1708436632.3409252,-2.147139549255371,-1.335206852560379,-2.526259247456686,6.12357114532546,1.0165483951568604,-2.340368096028463
1708436632.3429854,-2.147111415863037,-1.33512997746978,-2.526320759450094,6.123458611756124,1.0165798664093018,-2.339968506489889
1708436632.344937,-2.1470894813537598,-1.335141898398735,-2.526300017033712,6.123359668045797,1.016608476638794,-2.339536253605978
1708436632.34694,-2.14707350730896,-1.3350934845260163,-2.5263403097735804,6.123247253685751,1.0166460275650024,-2.339051071797506
1708436632.3489377,-2.1469922065734863,-1.3350696575692673,-2.5262821356402796,6.123138296395101,1.0166534185409546,-2.338606659566061
1708436632.3509328,-2.1469154357910156,-1.335089997654297,-2.5262983481036585,6.123052346497335,1.0166656970977783,-2.3381102720843714
1708436632.3529613,-2.1469147205352783,-1.3350412559560318,-2.5263643900500696,6.12292371967391,1.0166970491409302,-2.3375681082354944
1708436632.3549309,-2.146869421005249,-1.3350743514350434,-2.5264137426959437,6.122795331269064,1.0167138576507568,-2.3371251265155237
1708436632.356953,-2.1468138694763184,-1.3350582432797928,-2.526370350514547,6.122779834061422,1.0166881084442139,-2.336553398762838
1708436632.358957,-2.146744966506958,-1.334986002450325,-2.526379410420553,6.122550356179037,1.0167286396026611,-2.336082998906271
1708436632.360933,-2.1467084884643555,-1.335001901989319,-2.526412312184469,6.122470605164327,1.0167665481567383,-2.3355780283557337
1708436632.362945,-2.146613121032715,-1.3350301545909424,-2.526395861302511,6.122382867127218,1.0167768001556396,-2.3350523153888147
1708436632.3649611,-2.1465566158294678,-1.3349741113236924,-2.5263896624194544,6.122295605927267,1.0168430805206299,-2.334400478993551
1708436632.366941,-2.146500825881958,-1.3349534285119553,-2.5264392534839075,6.1221680519874475,1.0168462991714478,-2.3338776270495813
1708436632.368956,-2.146474599838257,-1.3349943918040772,-2.5264392534839075,6.122051584511556,1.0168237686157227,-2.333252731953756
1708436632.3709333,-2.146430492401123,-1.334954173570015,-2.5264392534839075,6.121952760010519,1.0168445110321045,-2.3326144854175013
1708436632.3729641,-2.1463873386383057,-1.3349096489003678,-2.5264678637133997,6.121852862625875,1.0168850421905518,-2.331960980092184
1708436632.3749263,-2.14626407623291,-1.334990994339325,-2.5264766852008265,6.121716844826498,1.0169676542282104,-2.3314066568957728
1708436632.3769617,-2.1462366580963135,-1.3349430871060868,-2.526496235524313,6.121601331024923,1.0169332027435303,-2.3307982126819056
1708436632.3789625,-2.1461708545684814,-1.334934578543045,-2.526508394871847,6.121453988343038,1.0169659852981567,-2.3301270643817347
1708436632.3809576,-2.146134614944458,-1.3349266064218064,-2.526482645665304,6.121374237328329,1.0169858932495117,-2.32945424715151
1708436632.382993,-2.1460912227630615,-1.334906981592514,-2.5265234152423304,6.121275412827291,1.0170023441314697,-2.3287766615497034
1708436632.3849404,-2.1460392475128174,-1.3349112135222931,-2.5265398661242884,6.121115672379293,1.0170247554779053,-2.3280916849719446
1708436632.3869615,-2.145991325378418,-1.3348466467908402,-2.5265801588641565,6.121018874436178,1.0170083045959473,-2.327413860951559
1708436632.3889832,-2.1459057331085205,-1.334878922705986,-2.5266013781176966,6.120884167938986,1.017037034034729,-2.3266902605639856
1708436632.3909297,-2.145866632461548,-1.334802122121193,-2.526604477559225,6.1208166954811,1.0170865058898926,-2.326066557561056
1708436632.3929708,-2.1457979679107666,-1.334822566514351,-2.526632610951559,6.120661246567526,1.0170966386795044,-2.325278345738546
1708436632.394935,-2.145763635635376,-1.3348106455853959,-2.5266266504870813,6.1205376265342615,1.0171300172805786,-2.3245542685138147
1708436632.3969646,-2.1456873416900635,-1.3347864759019394,-2.5266476313220423,6.1203898070152185,1.0171464681625366,-2.3238044420825403
1708436632.3989766,-2.145655870437622,-1.334794507627823,-2.5266717115985315,6.120274293213644,1.0171571969985962,-2.323071304951803
1708436632.4009435,-2.145627498626709,-1.3347545129111786,-2.5267003218280237,6.120150315552511,1.0171947479248047,-2.3223066965686243
1708436632.40298,-2.145592212677002,-1.3347833168557663,-2.526686731969015,6.120051371842184,1.0172470808029175,-2.321537796651022
1708436632.405071,-2.145528554916382,-1.3347671788981934,-2.526757303868429,6.1199391959007166,1.0172756910324097,-2.3207266966449183
1708436632.4070754,-2.1454427242279053,-1.3347949248603364,-2.526724163685934,6.119807827263632,1.0173029899597168,-2.3199790159808558
1708436632.4090288,-2.1454367637634277,-1.3347065162709733,-2.5267391840564173,6.119688141136923,1.0173075199127197,-2.319188896809713
1708436632.410949,-2.1453607082366943,-1.3347027909806748,-2.5267766157733362,6.119537102967062,1.0173296928405762,-2.318409268056051
1708436632.4129305,-2.145317554473877,-1.3347277653268357,-2.5267723242389124,6.119417774468221,1.017358422279358,-2.3176162878619593
1708436632.4149497,-2.1452653408050537,-1.334670515065529,-2.5267916361438196,6.119333970337667,1.017401933670044,-2.316803757344381
1708436632.4169366,-2.145155429840088,-1.3346620065024872,-2.526802364979879,6.119190442353048,1.0173900127410889,-2.315977160130636
1708436632.4189386,-2.1450912952423096,-1.334654615526535,-2.526785437260763,6.1191232083137415,1.017417311668396,-2.3150654474841517
1708436632.4209297,-2.145056962966919,-1.3346873980811615,-2.526856247578756,6.118963229447164,1.017486333847046,-2.314179007207052
1708436632.4229398,-2.1449763774871826,-1.3347078275731583,-2.5268681685077112,6.118801939278402,1.0174819231033325,-2.3133185545550745
1708436632.4249465,-2.1449286937713623,-1.3346674305251618,-2.5268591086017054,6.11869906166152,1.0175268650054932,-2.3124263922320765
1708436632.4269886,-2.1448888778686523,-1.3346800667098542,-2.5268710295306605,6.11863254287795,1.0175987482070923,-2.3115161100970667
1708436632.4289656,-2.1448006629943848,-1.3346432757428666,-2.5268951098071497,6.118508803635397,1.017627477645874,-2.310586754475729
1708436632.430935,-2.1448140144348145,-1.3346313548139115,-2.526914660130636,6.1184425232704065,1.0176396369934082,-2.309629503880636
1708436632.4330666,-2.144672393798828,-1.3346885752728959,-2.526931111012594,6.1183228371436975,1.0176830291748047,-2.3087084929095667
1708436632.4349747,-2.144685983657837,-1.3345749092153092,-2.5269551912890833,6.1181901572044275,1.0176829099655151,-2.3077853361712855
1708436632.4369307,-2.1446187496185303,-1.3345426333001633,-2.5270121733294886,6.118078338890829,1.017740249633789,-2.306915585194723
1708436632.4389334,-2.1445508003234863,-1.3346568208983918,-2.527052942906515,6.11792932727889,1.0177805423736572,-2.305927101765768
1708436632.4409368,-2.1444897651672363,-1.334571511750557,-2.5270403067218226,6.117842304497518,1.0177536010742188,-2.3049612681018274
1708436632.4429398,-2.1444091796875,-1.3346157234958191,-2.527093235646383,6.117783653527059,1.0178496837615967,-2.30408221880068
1708436632.4449437,-2.1443705558776855,-1.334559590821602,-2.527076784764425,6.117599594383993,1.0178439617156982,-2.303074900303976
1708436632.4469335,-2.144301176071167,-1.3345799458077927,-2.5270796457873743,6.117499816208639,1.0178754329681396,-2.302088801060812
1708436632.4489458,-2.144253730773926,-1.334507332449295,-2.5270498434649866,6.117368089943685,1.017894983291626,-2.301124636326925
1708436632.4509292,-2.1441993713378906,-1.3345722717097779,-2.5271409193622034,6.117292988091268,1.0179141759872437,-2.3001630941974085
1708436632.4529247,-2.1441831588745117,-1.3344997477582474,-2.5271604696856897,6.117198693543234,1.018009066581726,-2.2991483847247522
1708436632.4549456,-2.1440699100494385,-1.3345159006169816,-2.5271876494037073,6.117057311325826,1.0180199146270752,-2.298188034688131
1708436632.456934,-2.1440632343292236,-1.3345280450633545,-2.527196709309713,6.117020475655355,1.0180318355560303,-2.2971861998187464
1708436632.458957,-2.143986940383911,-1.3345365983298798,-2.5272250811206263,6.116831052094259,1.0180846452713013,-2.296173874531881
1708436632.46093,-2.1439476013183594,-1.334479884510376,-2.5272026697741907,6.11668752410964,1.0181653499603271,-2.295115057622091
1708436632.4629278,-2.1439075469970703,-1.3344793033650895,-2.5272520224200647,6.11655484417037,1.0181519985198975,-2.294138256703512
1708436632.464956,-2.143831729888916,-1.3344640594771882,-2.5272355715381067,6.116528975754537,1.0182090997695923,-2.293142859135763
1708436632.4669366,-2.1438043117523193,-1.334484027033188,-2.527276341115133,6.116327988892355,1.0182331800460815,-2.2921085993396204
1708436632.4689574,-2.1437344551086426,-1.3343991798213501,-2.5273240248309534,6.1162158129508875,1.0182557106018066,-2.2911279837237757
1708436632.4709415,-2.1437203884124756,-1.3344317835620423,-2.5273104349719446,6.1161290285880945,1.0183247327804565,-2.2900057474719446
1708436632.4729395,-2.1436851024627686,-1.3344479215196152,-2.5273600260363978,6.1160669205482385,1.0183533430099487,-2.288955275212423
1708436632.4749634,-2.143629550933838,-1.334375188951828,-2.527372185383932,6.115926611214437,1.018392562866211,-2.287978712712423
1708436632.4769366,-2.143573045730591,-1.3344486367753525,-2.5274367968188685,6.115793812065878,1.018399953842163,-2.286902729664938
1708436632.478966,-2.143491506576538,-1.334448681478836,-2.527396027241842,6.115637767105856,1.0184526443481445,-2.2858176867114466
1708436632.4809546,-2.1434438228607178,-1.3344613176635285,-2.5274110476123255,6.115534531861105,1.0184931755065918,-2.2847636381732386
1708436632.4829268,-2.1434459686279297,-1.3344202798656006,-2.5274232069598597,6.115488517075338,1.018515944480896,-2.2837892214404505
1708436632.4849205,-2.1433980464935303,-1.3343673211387177,-2.5274680296527308,6.115335094719686,1.0185682773590088,-2.2827041784869593
1708436632.4869134,-2.1433141231536865,-1.3344406348517914,-2.5275281111346644,6.115200626641073,1.0186418294906616,-2.2815359274493616
1708436632.4889355,-2.1432993412017822,-1.3343921911767502,-2.5274952093707483,6.11511658409194,1.0186809301376343,-2.28046161333193
1708436632.4909222,-2.1431734561920166,-1.3344007593444367,-2.5275607744800013,6.115019190102377,1.018742322921753,-2.27926475206484
1708436632.4929519,-2.1431260108947754,-1.334449203019478,-2.5275264422046106,6.114861476212301,1.0187532901763916,-2.27817947069277
1708436632.4949389,-2.143035650253296,-1.3344126057675858,-2.52759558359255,6.1147581217582605,1.0187650918960571,-2.276996914540426
1708436632.4969585,-2.1429970264434814,-1.3343723577312012,-2.5275655428515833,6.114609110146322,1.0188673734664917,-2.275851551686422
1708436632.498931,-2.142965078353882,-1.3343885105899354,-2.5275819937335413,6.114583956986227,1.0188945531845093,-2.27476150194277
1708436632.5009384,-2.1428606510162354,-1.3343565326980134,-2.5276764074908655,6.114414679795065,1.0189138650894165,-2.2736085096942347
1708436632.5029442,-2.1428263187408447,-1.3343649220517655,-2.527663056050436,6.114343631058492,1.0189498662948608,-2.272466484700338
1708436632.505014,-2.1428062915802,-1.3343885105899354,-2.52765399614443,6.114255654602804,1.018972635269165,-2.2713988463031214
1708436632.5069811,-2.142725706100464,-1.3344050359776993,-2.5277321974383753,6.114140379219808,1.0190340280532837,-2.270273510609762
1708436632.508995,-2.1426045894622803,-1.3343487542918702,-2.5277486483203333,6.114007937699117,1.0190986394882202,-2.269174400960104
1708436632.5109422,-2.1426403522491455,-1.3343161207488556,-2.5277441183673304,6.113931882172384,1.0191185474395752,-2.2679665724383753
1708436632.5129287,-2.1425201892852783,-1.3343445223620911,-2.5277543703662317,6.113754737168112,1.0191454887390137,-2.2669151465045374
1708436632.5149584,-2.142479419708252,-1.3342920404723664,-2.527794901524679,6.113762366562643,1.019181489944458,-2.2657249609576624
1708436632.5169637,-2.142395496368408,-1.3343445223620911,-2.527856413518087,6.113549220352926,1.0192506313323975,-2.264653031026022
1708436632.5189312,-2.1423566341400146,-1.334300012593605,-2.5278473536120813,6.1134177325065515,1.0193315744400024,-2.263568703328268
1708436632.5209665,-2.142240285873413,-1.3343408119729538,-2.5278802553759974,6.113314258843221,1.0193424224853516,-2.2624786535846155
1708436632.5229442,-2.1422207355499268,-1.3342962724021454,-2.527911965047018,6.113247740059652,1.019352674484253,-2.2613423506366175
1708436632.5249538,-2.142127752304077,-1.334317074423172,-2.527931276951925,6.113115298538961,1.0194593667984009,-2.260289971028463
1708436632.5269427,-2.142090082168579,-1.3342928898385544,-2.5279930273639124,6.112999903946676,1.0195120573043823,-2.259127442036764
1708436632.5289335,-2.1420209407806396,-1.3342844408801575,-2.5279839674579065,6.112852442055502,1.0195226669311523,-2.2580626646624964
1708436632.5309258,-2.1419076919555664,-1.334361494784691,-2.5279749075519007,6.1127240536506555,1.0195419788360596,-2.2569554487811487
1708436632.5329287,-2.141845464706421,-1.3343005937388916,-2.528060261403219,6.112583744316854,1.0196473598480225,-2.2558544317828577
1708436632.534918,-2.141744375228882,-1.3343006086400528,-2.5280423800097864,6.1124446270759485,1.0197076797485352,-2.254739586506979
1708436632.5369358,-2.1416773796081543,-1.3342801195434113,-2.5281205813037317,6.112366187363424,1.019760012626648,-2.253620449696676
1708436632.5389297,-2.1416127681732178,-1.3342801493457337,-2.528135363255636,6.1122792837913416,1.019803762435913,-2.2525184790240687
1708436632.5409358,-2.141517400741577,-1.3343175065568467,-2.5281806627856653,6.112131464272299,1.0198473930358887,-2.251375977193014
1708436632.5429451,-2.1414663791656494,-1.3343374145082016,-2.5282371679889124,6.111941444664755,1.0199116468429565,-2.250265900288717
1708436632.5449207,-2.1413450241088867,-1.3342844557813187,-2.5282238165484827,6.111823904305258,1.019985556602478,-2.249176804219381
1708436632.5469592,-2.1412699222564697,-1.3343006086400528,-2.528243366871969,6.111691462784567,1.020005226135254,-2.24801475206484
1708436632.5489588,-2.141140937805176,-1.3342962873033066,-2.5283122698413294,6.11156843879775,1.0200365781784058,-2.246845070515768
1708436632.5509257,-2.141122579574585,-1.3342801493457337,-2.528330389653341,6.111415850907125,1.0200848579406738,-2.245640579854147
1708436632.552955,-2.140981912612915,-1.3343331974795838,-2.528384272252218,6.111272799759664,1.020135521888733,-2.244511429463522
1708436632.5549197,-2.140911340713501,-1.3342962873033066,-2.5284398237811487,6.1112074730689905,1.0202213525772095,-2.243403736745016
1708436632.5569596,-2.140758752822876,-1.3342962873033066,-2.52848464647402,6.1109986183936975,1.0202678442001343,-2.2422741095172327
1708436632.5589209,-2.1406848430633545,-1.3343288910439988,-2.5284650961505335,6.110916006356039,1.0203582048416138,-2.241110626851217
1708436632.560955,-2.1405465602874756,-1.3343331974795838,-2.5285478273974817,6.110751974373617,1.0203927755355835,-2.2400034109698694
1708436632.562936,-2.140451192855835,-1.3343417209437867,-2.528588358555929,6.11060510852889,1.0204663276672363,-2.238866631184713
1708436632.5649288,-2.1402947902679443,-1.33429208517585,-2.5286105314837855,6.110375869065084,1.0205053091049194,-2.2377751509295862
1708436632.5669363,-2.1402041912078857,-1.334309072499611,-2.528663221989767,6.110191690712728,1.020544409751892,-2.2366393248187464
1708436632.5689294,-2.1400811672210693,-1.334300623541214,-2.528753105794088,6.110058295517721,1.0206620693206787,-2.2355383078204554
1708436632.5709503,-2.1399362087249756,-1.3343288910439988,-2.528787914906637,6.10987018325881,1.0207009315490723,-2.234429184590475
1708436632.572923,-2.1397624015808105,-1.3343084913543244,-2.5288265387164515,6.109683263092794,1.0208148956298828,-2.233234230672018
1708436632.574924,-2.139721632003784,-1.33432890594516,-2.5288429895984095,6.109446394234457,1.0208497047424316,-2.2322619597064417
1708436632.5769749,-2.139631748199463,-1.3343339425376435,-2.52889854112734,6.109271514206686,1.020902395248413,-2.2310994307147425
1708436632.5789287,-2.139418840408325,-1.3343127530864258,-2.5289438406573694,6.109076249390402,1.020982027053833,-2.2300103346454065
1708436632.5809398,-2.1392605304718018,-1.3342844557813187,-2.528991762791769,6.108809339791097,1.0211005210876465,-2.2288573423968714
1708436632.582931,-2.1391353607177734,-1.3343578290990372,-2.5290842692004603,6.108606087952413,1.0211143493652344,-2.2278173605548304
