Eg3-git/Classifiers/Data Collection/u2/u2abc4_ur3e_joint_states.csv
time,elbow_joint,shoulder_lift_joint,shoulder_pan_joint,wrist_1_joint,wrist_2_joint,wrist_3_joint
1708434602.3776593,-2.1417622566223145,-1.3336516630700608,-2.526863400136129,6.110787260323324,1.0176795721054077,-2.219435516987936
1708434602.3796499,-2.1417958736419678,-1.3336430501988907,-2.5268145243274134,6.11082004287795,1.0176827907562256,-2.21945029893984
1708434602.381657,-2.1418116092681885,-1.3336226058057328,-2.5268147627459925,6.110802042275228,1.0177032947540283,-2.219433609639303
1708434602.3836794,-2.1417622566223145,-1.333696113233902,-2.5268147627459925,6.110742199211874,1.0176546573638916,-2.219454590474264
1708434602.3856776,-2.1418027877807617,-1.3336634945920487,-2.5268309752093714,6.1107122776801965,1.0176503658294678,-2.219555203114645
1708434602.3876503,-2.1417579650878906,-1.3336301457932969,-2.5268266836749476,6.110691416054525,1.0176784992218018,-2.21945029893984
1708434602.3896992,-2.1417622566223145,-1.3336146038821717,-2.5268028418170374,6.11073778846816,1.017646074295044,-2.219480339680807
1708434602.3916454,-2.1417622566223145,-1.3336189550212403,-2.5268266836749476,6.110749947815695,1.0176546573638916,-2.2194517294513147
1708434602.393665,-2.1417622566223145,-1.3336018782905121,-2.52682334581484,6.110766398697653,1.017659068107605,-2.2194717566119593
1708434602.395635,-2.1417746543884277,-1.333614633684494,-2.526883904133932,6.110769259720602,1.0176503658294678,-2.21945029893984
1708434602.3976576,-2.1417789459228516,-1.3336060655168076,-2.5268428961383265,6.1107544777686975,1.0176337957382202,-2.2194679419146937
1708434602.3996797,-2.1417622566223145,-1.333614633684494,-2.5267985502826136,6.110707747727194,1.0176546573638916,-2.219492260609762
1708434602.4016771,-2.1417622566223145,-1.3336354804090043,-2.526851479207174,6.110707866936483,1.0176708698272705,-2.219485108052389
1708434602.4036644,-2.1417746543884277,-1.3336549711278458,-2.526835266743795,6.110745417862692,1.0176622867584229,-2.219476048146383
1708434602.4056604,-2.141741991043091,-1.3335987341455002,-2.5268591086017054,6.110745417862692,1.0176665782928467,-2.219504181538717
1708434602.4076445,-2.1417622566223145,-1.3336310994676133,-2.5268428961383265,6.110757338791647,1.0176622867584229,-2.219538990651266
1708434602.4096875,-2.1417746543884277,-1.333626852636673,-2.5268710295306605,6.110799181252279,1.0176417827606201,-2.219429318104879
1708434602.4116585,-2.1417579650878906,-1.3336268377355118,-2.526851479207174,6.110778200417318,1.0177077054977417,-2.219442669545309
1708434602.4136453,-2.141770362854004,-1.3336711537889023,-2.5268428961383265,6.110813963204183,1.0176417827606201,-2.219487969075338
1708434602.4156792,-2.1417622566223145,-1.333696187739708,-2.5268190542804163,6.110752928047933,1.0176622867584229,-2.219497028981344
1708434602.417642,-2.141737461090088,-1.3336268377355118,-2.526835266743795,6.110769259720602,1.0176784992218018,-2.21946365038027
1708434602.4196649,-2.1417667865753174,-1.3336711388877411,-2.5268667379962366,6.110724198609152,1.0176262855529785,-2.21946365038027
1708434602.4216542,-2.141741991043091,-1.3336060357144852,-2.526896301900045,6.11074839809493,1.0177032947540283,-2.219501320515768
1708434602.4236927,-2.1417534351348877,-1.333647297029831,-2.526839558278219,6.110794532089987,1.0176503658294678,-2.219459358845846
1708434602.4256504,-2.1417534351348877,-1.3336635094932099,-2.5268428961383265,6.110752808838644,1.0176957845687866,-2.219508949910299
1708434602.4276464,-2.1417579650878906,-1.333638773565628,-2.5268145243274134,6.110764729767599,1.0176546573638916,-2.219487969075338
1708434602.4296777,-2.1417462825775146,-1.3337005984834214,-2.526867691670553,6.110827433853903,1.0176795721054077,-2.219513241444723
1708434602.4316583,-2.1417622566223145,-1.3336516630700608,-2.5268102327929896,6.110741007118978,1.0176947116851807,-2.2194517294513147
1708434602.4336567,-2.1417784690856934,-1.3336430054954072,-2.526879612599508,6.11076174953536,1.0176546573638916,-2.2194669882403772
1708434602.435654,-2.141770362854004,-1.3336311143687745,-2.5268505255328577,6.110741007118978,1.0176546573638916,-2.219508949910299
1708434602.4376476,-2.1418230533599854,-1.333586947326996,-2.526851479207174,6.110764848976888,1.0176175832748413,-2.219454590474264
1708434602.4396594,-2.1417534351348877,-1.3336268675378342,-2.526846233998434,6.110757338791647,1.0176503658294678,-2.219497028981344
1708434602.4416742,-2.1417534351348877,-1.3336711388877411,-2.526896301900045,6.110752808838644,1.017659068107605,-2.2194717566119593
1708434602.4436555,-2.1417789459228516,-1.3336516630700608,-2.526888434086935,6.1107122776801965,1.0176305770874023,-2.219513241444723
1708434602.4456475,-2.1417579650878906,-1.3336962473443528,-2.526884142552511,6.1107767699058435,1.0176665782928467,-2.2195118109332483
1708434602.4476764,-2.1417622566223145,-1.3336506944945832,-2.526867691670553,6.1107168076331995,1.0176467895507812,-2.219476048146383
1708434602.4496558,-2.1417534351348877,-1.3336146038821717,-2.526835266743795,6.110764729767599,1.0176295042037964,-2.219442669545309
1708434602.4516752,-2.1418070793151855,-1.3336516183665772,-2.526851479207174,6.110824453621664,1.0176424980163574,-2.219534222279684
1708434602.4536474,-2.1417622566223145,-1.333651677971222,-2.5268266836749476,6.110782730370321,1.0176337957382202,-2.219504181538717
1708434602.4556699,-2.141749143600464,-1.3336189550212403,-2.526835266743795,6.110793101578512,1.017659068107605,-2.219476048146383
1708434602.457664,-2.1417622566223145,-1.3336549264243622,-2.5268428961383265,6.110769259720602,1.0176252126693726,-2.219485108052389
1708434602.4596524,-2.1418027877807617,-1.3336310994676133,-2.526855770741598,6.11074839809493,1.0176349878311157,-2.21942645708193
1708434602.4616745,-2.1417789459228516,-1.333618314271309,-2.526835266743795,6.110788571625509,1.0176546573638916,-2.219447437916891
1708434602.4636471,-2.141749143600464,-1.3336226058057328,-2.5268309752093714,6.110773789673605,1.0176546573638916,-2.2194469610797327
1708434602.4656446,-2.1417534351348877,-1.333638758664467,-2.526883904133932,6.110818373947897,1.0176546573638916,-2.219447437916891
1708434602.4676795,-2.1417579650878906,-1.3336268377355118,-2.5268340746508997,6.11078559139327,1.0176546573638916,-2.219459358845846
1708434602.469648,-2.1418116092681885,-1.3336549413255234,-2.5268428961383265,6.110806572228231,1.0176424980163574,-2.219447437916891
1708434602.4716504,-2.1417622566223145,-1.3336311292699357,-2.526856009160177,6.110715257912435,1.0176184177398682,-2.219447437916891
1708434602.4736536,-2.1417789459228516,-1.3336145889810105,-2.5268309752093714,6.11078559139327,1.017659068107605,-2.219508949910299
1708434602.4757118,-2.141791343688965,-1.3336634647897263,-2.526896063481466,6.110769259720602,1.0176795721054077,-2.219442669545309
1708434602.4776773,-2.1417958736419678,-1.333638773565628,-2.5268831888781946,6.110739457398214,1.017638087272644,-2.219518009816305
1708434602.479667,-2.1417746543884277,-1.3336840879968186,-2.5268190542804163,6.110773670464315,1.0176633596420288,-2.21942645708193
1708434602.4816682,-2.141770362854004,-1.3336189550212403,-2.526921097432272,6.110736477165975,1.0176218748092651,-2.219501320515768
1708434602.4836762,-2.141782760620117,-1.3336430203965683,-2.526900593434469,6.110764848976888,1.017659068107605,-2.2194278875934046
1708434602.4856803,-2.1418116092681885,-1.3335944724133988,-2.526839558278219,6.110723125725546,1.0176633596420288,-2.2194679419146937
1708434602.4876869,-2.1417579650878906,-1.333610327248909,-2.5268383661853235,6.110752928047933,1.0176054239273071,-2.2194650808917444
1708434602.4896665,-2.141770362854004,-1.333659217958786,-2.526817862187521,6.110764848976888,1.0176512002944946,-2.219393555318014
1708434602.4916477,-2.14176607131958,-1.333671213393547,-2.526835266743795,6.110790121346273,1.0175977945327759,-2.219476048146383
1708434602.4936812,-2.1417789459228516,-1.3336146038821717,-2.5268147627459925,6.110782849579611,1.017622709274292,-2.21945029893984
1708434602.4956632,-2.141753673553467,-1.3336797219565888,-2.5268147627459925,6.110719787865438,1.017609715461731,-2.2194517294513147
1708434602.4976585,-2.1417958736419678,-1.3336345267346879,-2.5268917719470423,6.11078559139327,1.0176676511764526,-2.21950608888735
1708434602.499698,-2.141749143600464,-1.333659217958786,-2.526851479207174,6.110719787865438,1.0176175832748413,-2.2194679419146937
1708434602.501734,-2.141782760620117,-1.333643065100052,-2.5268266836749476,6.110745417862692,1.0177000761032104,-2.2194517294513147
1708434602.5036695,-2.141770362854004,-1.333635465507843,-2.526904884968893,6.110752808838644,1.0176676511764526,-2.219442669545309
1708434602.5056818,-2.1417958736419678,-1.3336018037847062,-2.5268471876727503,6.110769259720602,1.0176633596420288,-2.2194517294513147
1708434602.5076644,-2.1417534351348877,-1.3336678457311173,-2.5268309752093714,6.110818493157186,1.0176262855529785,-2.2194116751300257
1708434602.5096438,-2.1417622566223145,-1.3336790365031739,-2.526839558278219,6.110818373947897,1.0176512002944946,-2.219430748616354
1708434602.5116754,-2.141787052154541,-1.3336754155210038,-2.526896301900045,6.110794532089987,1.0176554918289185,-2.2194321791278284
1708434602.5136654,-2.141791343688965,-1.3336592626622696,-2.526888434086935,6.110757338791647,1.0176184177398682,-2.2194560209857386
1708434602.5156808,-2.141765832901001,-1.3336018037847062,-2.5268147627459925,6.11078571060256,1.0176349878311157,-2.219494167958395
1708434602.5176497,-2.1417622566223145,-1.333675430422165,-2.526896063481466,6.110799181252279,1.0176633596420288,-2.2194350401507776
1708434602.519665,-2.1417958736419678,-1.3336668771556397,-2.5268591086017054,6.110810982971945,1.017606496810913,-2.21940261522402
1708434602.5216546,-2.1417667865753174,-1.333650679593422,-2.5268994013415735,6.1107603190238855,1.017651081085205,-2.2194159666644495
1708434602.5236897,-2.1417462825775146,-1.3336678755334397,-2.5268753210650843,6.110790121346273,1.0176512002944946,-2.2194560209857386
1708434602.5256615,-2.1417579650878906,-1.3336549413255234,-2.526883904133932,6.1108229039009,1.0175977945327759,-2.21940261522402
1708434602.5276482,-2.141791343688965,-1.3336354953101655,-2.526851479207174,6.1107603190238855,1.0176184177398682,-2.2194202581988733
1708434602.5296538,-2.141782760620117,-1.3336103868535538,-2.5268471876727503,6.110802042275228,1.0175977945327759,-2.2194035688983362
1708434602.5316772,-2.1418204307556152,-1.3336473119309922,-2.5268147627459925,6.1107603190238855,1.0176349878311157,-2.219374958668844
1708434602.533688,-2.141791343688965,-1.3336189550212403,-2.526851479207174,6.110764848976888,1.0176140069961548,-2.219412628804342
1708434602.5356846,-2.1417579650878906,-1.333622620706894,-2.526863400136129,6.110810982971945,1.0176467895507812,-2.219363514577047
1708434602.5376601,-2.141741991043091,-1.333618925218918,-2.5268471876727503,6.110743987351217,1.0176676511764526,-2.219379727040426
1708434602.5396466,-2.1417746543884277,-1.333639682536461,-2.5268753210650843,6.110782730370321,1.01763916015625,-2.21934682527651
1708434602.541644,-2.1417622566223145,-1.3336711537889023,-2.526851479207174,6.110810982971945,1.0176305770874023,-2.21938401857485
1708434602.5436485,-2.141749143600464,-1.3336060357144852,-2.5268471876727503,6.110745417862692,1.0176467895507812,-2.21934682527651
1708434602.5456545,-2.1417746543884277,-1.3335974526456376,-2.526863400136129,6.110755908280172,1.0176305770874023,-2.219374958668844
1708434602.5476546,-2.1417789459228516,-1.333676354294159,-2.526835266743795,6.110773670464315,1.0176424980163574,-2.219355885182516
1708434602.5496569,-2.1417834758758545,-1.3336919260076066,-2.526896301900045,6.110793101578512,1.017609715461731,-2.219397846852438
1708434602.5516515,-2.1417579650878906,-1.3336030852845688,-2.5268548170672815,6.110743987351217,1.0176435708999634,-2.2193859259234827
1708434602.5536623,-2.1417746543884277,-1.333634541635849,-2.526863400136129,6.110806453018942,1.0176512002944946,-2.219327751790182
1708434602.555661,-2.1417746543884277,-1.3336473268321534,-2.526813570653097,6.110769259720602,1.0175813436508179,-2.2193320433246058
1708434602.5576534,-2.141770362854004,-1.3336549562266846,-2.526839558278219,6.110793101578512,1.0176512002944946,-2.2193477789508265
1708434602.5596528,-2.1417956352233887,-1.3336231422475358,-2.5268309752093714,6.11078571060256,1.017609715461731,-2.2193105856524866
1708434602.5616364,-2.1417958736419678,-1.3336145740798493,-2.5268264452563685,6.110790121346273,1.0176184177398682,-2.219355885182516
1708434602.5636601,-2.1417667865753174,-1.333578274851181,-2.526879612599508,6.110773789673605,1.0175977945327759,-2.2193434874164026
1708434602.5656629,-2.1417622566223145,-1.3336430352977295,-2.526879851018087,6.110764848976888,1.0176184177398682,-2.219376866017477
1708434602.5676548,-2.1418116092681885,-1.3336310994676133,-2.526851479207174,6.110782730370321,1.0175694227218628,-2.2193477789508265
1708434602.5696483,-2.141787052154541,-1.3336669516614457,-2.526839558278219,6.110752808838644,1.017622709274292,-2.2192896048175257
1708434602.5716743,-2.141765832901001,-1.3336711537889023,-2.526851479207174,6.11078571060256,1.0176184177398682,-2.2193320433246058
1708434602.5736654,-2.1417534351348877,-1.333634467130043,-2.526872221623556,6.110839354782858,1.0176349878311157,-2.2193320433246058
1708434602.5756733,-2.1417534351348877,-1.3336507391980668,-2.526867691670553,6.1107767699058435,1.0176554918289185,-2.2193034330951136
1708434602.5776496,-2.1417789459228516,-1.3336060059121628,-2.5268383661853235,6.110813963204183,1.0176109075546265,-2.2193034330951136
1708434602.5796556,-2.1417746543884277,-1.3336189550212403,-2.52682334581484,6.11073778846816,1.0176512002944946,-2.2192896048175257
1708434602.5816603,-2.1417622566223145,-1.3336017441800614,-2.526851479207174,6.110752808838644,1.017622709274292,-2.2192896048175257
1708434602.583657,-2.1417956352233887,-1.3336103719523926,-2.5268428961383265,6.110790121346273,1.0176054239273071,-2.2193811575519007
1708434602.5856416,-2.1417622566223145,-1.3336430203965683,-2.5268471876727503,6.110794532089987,1.0176392793655396,-2.2193740049945276
1708434602.5876584,-2.1417789459228516,-1.3336592775634308,-2.5268059412585657,6.110773670464315,1.0176140069961548,-2.2192776838885706
1708434602.5896626,-2.1417534351348877,-1.3336840581944962,-2.5268309752093714,6.110719787865438,1.0176184177398682,-2.2193153540240687
1708434602.591656,-2.141765832901001,-1.3336881411126633,-2.526872221623556,6.11078559139327,1.0175977945327759,-2.2193034330951136
1708434602.5936427,-2.1417622566223145,-1.333654911523201,-2.5268471876727503,6.110806453018942,1.0176184177398682,-2.2193077246295374
1708434602.5956614,-2.1417789459228516,-1.333638758664467,-2.526835266743795,6.110743987351217,1.017622709274292,-2.2192943731891077
1708434602.5976593,-2.141782760620117,-1.3335902106812973,-2.5268266836749476,6.110769259720602,1.0176305770874023,-2.2192915121661585
1708434602.5996723,-2.1417622566223145,-1.333650679593422,-2.5268386046039026,6.110802042275228,1.0176314115524292,-2.2192943731891077
1708434602.6016622,-2.1417958736419678,-1.3335943979075928,-2.5268264452563685,6.11082004287795,1.0176109075546265,-2.2193320433246058
1708434602.603686,-2.141749143600464,-1.3336267930320282,-2.5268591086017054,6.110781180649557,1.0175813436508179,-2.2193034330951136
1708434602.6057103,-2.1417789459228516,-1.3336189550212403,-2.5268147627459925,6.110736477165975,1.017622709274292,-2.2193239370929163
1708434602.6076622,-2.141787052154541,-1.3336516332677384,-2.5268428961383265,6.110682475357809,1.0176467895507812,-2.2192629019366663
1708434602.609677,-2.1417834758758545,-1.3336017441800614,-2.5268917719470423,6.11076174953536,1.017622709274292,-2.2192629019366663
1708434602.6116533,-2.141741991043091,-1.3336302053979416,-2.526872221623556,6.110757338791647,1.0176392793655396,-2.219304863606588
1708434602.6136854,-2.1417956352233887,-1.3336635094932099,-2.526863400136129,6.110790121346273,1.0175977945327759,-2.219279114400045
1708434602.6156685,-2.1417534351348877,-1.333597407942154,-2.5268548170672815,6.110782849579611,1.0176554918289185,-2.219238583241598
1708434602.6176722,-2.141787052154541,-1.3336060804179688,-2.5268471876727503,6.11076186874465,1.0176184177398682,-2.2192629019366663
1708434602.6196563,-2.1417534351348877,-1.3336145740798493,-2.526835266743795,6.110723125725546,1.0176305770874023,-2.219259564076559
1708434602.621663,-2.1417622566223145,-1.3336634945920487,-2.526872221623556,6.110757338791647,1.0176184177398682,-2.2192519346820276
1708434602.6236527,-2.1417789459228516,-1.3336311143687745,-2.5268147627459925,6.110810982971945,1.0176022052764893,-2.2192729155169886
1708434602.6256602,-2.141749143600464,-1.3336840879968186,-2.5268309752093714,6.11080955246047,1.017577052116394,-2.2192567030536097
1708434602.6276586,-2.1417834758758545,-1.3336472672275086,-2.5268471876727503,6.110782730370321,1.0176262855529785,-2.2192028204547327
1708434602.6296554,-2.1417462825775146,-1.333638758664467,-2.5268591086017054,6.110764848976888,1.017659068107605,-2.219226662312643
1708434602.6316762,-2.141791343688965,-1.3336516630700608,-2.526879851018087,6.110736477165975,1.0176184177398682,-2.2192400137530726
1708434602.6336558,-2.1417579650878906,-1.3336876791766663,-2.526867691670553,6.110770809441366,1.0176262855529785,-2.2192400137530726
1708434602.6356604,-2.1417622566223145,-1.3335782450488587,-2.5268147627459925,6.110723125725546,1.0176392793655396,-2.219285313283102
1708434602.6376772,-2.1417789459228516,-1.3336430054954072,-2.526835266743795,6.110810982971945,1.0175899267196655,-2.21924335161318
1708434602.639662,-2.1417958736419678,-1.3336882603219529,-2.526884142552511,6.110769259720602,1.0175892114639282,-2.2191813627826136
1708434602.6416557,-2.1417534351348877,-1.3336463284543534,-2.5268340746508997,6.110794532089987,1.0176022052764893,-2.219226662312643
1708434602.6436572,-2.1417534351348877,-1.3336354804090043,-2.5268309752093714,6.110797512322225,1.0176349878311157,-2.2192099730121058
1708434602.6456778,-2.141737699508667,-1.333614559178688,-2.5268471876727503,6.110799181252279,1.0175892114639282,-2.219231430684225
1708434602.647693,-2.1417462825775146,-1.3336225760034104,-2.526855770741598,6.11074839809493,1.0176512002944946,-2.219247643147604
1708434602.6496496,-2.1417958736419678,-1.3336225611022492,-2.526867691670553,6.110740887909689,1.0176305770874023,-2.2192276159869593
1708434602.6516452,-2.1417958736419678,-1.3336592775634308,-2.526867691670553,6.110710727959432,1.0176512002944946,-2.2192028204547327
1708434602.6536555,-2.141791343688965,-1.3336146038821717,-2.5268428961383265,6.110778200417318,1.0176677703857422,-2.21924335161318
1708434602.6556485,-2.1418073177337646,-1.3336189699224015,-2.5268667379962366,6.110781180649557,1.0176349878311157,-2.2192075888263147
1708434602.6576672,-2.1417534351348877,-1.333638773565628,-2.5268471876727503,6.110727536469259,1.0176382064819336,-2.2192519346820276
1708434602.6596634,-2.1418116092681885,-1.3336311143687745,-2.526855770741598,6.11074839809493,1.0176676511764526,-2.2192400137530726
1708434602.661696,-2.141791343688965,-1.333598719244339,-2.526888434086935,6.110715257912435,1.017651081085205,-2.2192028204547327
1708434602.6636813,-2.1417956352233887,-1.3336720031550904,-2.526851479207174,6.110752808838644,1.0176184177398682,-2.2192233244525355
1708434602.665648,-2.1417956352233887,-1.3336635094932099,-2.526851479207174,6.110773789673605,1.0176349878311157,-2.2192233244525355
1708434602.6676626,-2.1417789459228516,-1.333666892056801,-2.526835266743795,6.110732066422262,1.0175977945327759,-2.2191694418536585
1708434602.6696522,-2.1417789459228516,-1.3336634945920487,-2.5268917719470423,6.110698926239767,1.017638087272644,-2.2191904226886194
1708434602.6716514,-2.1417746543884277,-1.3336634945920487,-2.5268471876727503,6.110752808838644,1.0176140069961548,-2.2192567030536097
1708434602.6736605,-2.1417622566223145,-1.3336311143687745,-2.5268266836749476,6.110802042275228,1.017655372619629,-2.2192447821246546
1708434602.6756923,-2.1417622566223145,-1.333659217958786,-2.5268266836749476,6.110707747727194,1.0176140069961548,-2.2192400137530726
1708434602.6776643,-2.141733169555664,-1.333622546201088,-2.5268147627459925,6.110719668656149,1.0176098346710205,-2.2191904226886194
1708434602.6796627,-2.1418161392211914,-1.3336430054954072,-2.5268548170672815,6.1107332585151575,1.0176098346710205,-2.2192400137530726
1708434602.6816642,-2.1417789459228516,-1.3336840879968186,-2.5268710295306605,6.110794532089987,1.0176262855529785,-2.2192052046405237
1708434602.6836936,-2.1417746543884277,-1.3336301457932969,-2.526829783116476,6.110794532089987,1.0176676511764526,-2.2192357222186487
1708434602.6856446,-2.1417789459228516,-1.333614559178688,-2.5268340746508997,6.110727536469259,1.0176305770874023,-2.2192686239825647
1708434602.6876616,-2.141770362854004,-1.3336592328599473,-2.526900593434469,6.110715257912435,1.0176633596420288,-2.2192567030536097
1708434602.689676,-2.1417579650878906,-1.333667815928795,-2.5268386046039026,6.110769259720602,1.017638087272644,-2.2192519346820276
1708434602.691667,-2.141787052154541,-1.3336018037847062,-2.526863400136129,6.110745417862692,1.0176140069961548,-2.2192276159869593
1708434602.6936848,-2.1417622566223145,-1.3336711537889023,-2.5268428961383265,6.110724198609152,1.0176546573638916,-2.2192142645465296
1708434602.6956594,-2.1417534351348877,-1.3336506944945832,-2.526907984410421,6.110695946007528,1.0176424980163574,-2.2192099730121058
1708434602.6976585,-2.141787052154541,-1.333650679593422,-2.526817862187521,6.110778200417318,1.0176349878311157,-2.2192400137530726
1708434602.6997056,-2.1417622566223145,-1.3336145889810105,-2.5268223921405237,6.110766398697653,1.017638087272644,-2.2192276159869593
1708434602.7016742,-2.141831159591675,-1.333610327248909,-2.5268471876727503,6.110719787865438,1.0176140069961548,-2.2191904226886194
1708434602.7036963,-2.141787052154541,-1.333654986029007,-2.5268874804126185,6.110773789673605,1.017659068107605,-2.2191904226886194
1708434602.7056508,-2.1418001651763916,-1.3336103123477479,-2.526863400136129,6.110694396286764,1.0176262855529785,-2.219247643147604
1708434602.7076912,-2.141733169555664,-1.3336507093957444,-2.5268471876727503,6.110736477165975,1.0176677703857422,-2.2192118803607386
1708434602.7096515,-2.141771078109741,-1.3336720925620575,-2.5268471876727503,6.110773670464315,1.0176708698272705,-2.2192190329181116
1708434602.7116535,-2.1417534351348877,-1.333618940120079,-2.526883904133932,6.110745417862692,1.0176503658294678,-2.2192028204547327
1708434602.7136936,-2.1417837142944336,-1.3336189550212403,-2.5268059412585657,6.110778200417318,1.0176424980163574,-2.2192519346820276
1708434602.7156887,-2.1417622566223145,-1.3336754751256485,-2.5268831888781946,6.1107287285621545,1.0176424980163574,-2.2192357222186487
1708434602.7176778,-2.141765832901001,-1.3336473119309922,-2.526912514363424,6.110736477165975,1.0176554918289185,-2.219290081654684
1708434602.7196972,-2.1417746543884277,-1.333601788883545,-2.5268386046039026,6.110775339394369,1.0176184177398682,-2.219247643147604
1708434602.721657,-2.1418004035949707,-1.3335986745408555,-2.526851479207174,6.110802042275228,1.017659068107605,-2.219231430684225
1708434602.7236707,-2.1418116092681885,-1.3336516183665772,-2.5268428961383265,6.11076174953536,1.0176184177398682,-2.2192400137530726
1708434602.7256632,-2.141753673553467,-1.3336833876422425,-2.5268831888781946,6.110736477165975,1.0176305770874023,-2.219259564076559
1708434602.7276757,-2.141749143600464,-1.3336472821286698,-2.5268102327929896,6.1107287285621545,1.0176262855529785,-2.2192609945880335
1708434602.7296975,-2.1417622566223145,-1.3336516630700608,-2.526900593434469,6.110752808838644,1.0176467895507812,-2.2192609945880335
1708434602.7316728,-2.1417622566223145,-1.3336473119309922,-2.5268591086017054,6.11076186874465,1.0176424980163574,-2.219198528920309
1708434602.7336931,-2.1417667865753174,-1.333643065100052,-2.526851479207174,6.1107061980064294,1.0176546573638916,-2.2192075888263147
1708434602.735657,-2.141798496246338,-1.3336473119309922,-2.5268471876727503,6.110757338791647,1.0176546573638916,-2.2192776838885706
1708434602.7376697,-2.1417789459228516,-1.3336550009301682,-2.526817862187521,6.110757338791647,1.017659068107605,-2.2192190329181116
1708434602.7396777,-2.1417534351348877,-1.333606020813324,-2.5268874804126185,6.110769259720602,1.017659068107605,-2.2192729155169886
1708434602.7416823,-2.1417534351348877,-1.3336344820312043,-2.5268340746508997,6.1106958267982385,1.0176546573638916,-2.2192190329181116
1708434602.7436695,-2.1417837142944336,-1.3336345267346879,-2.5268147627459925,6.11078571060256,1.017622709274292,-2.2191694418536585
1708434602.7456527,-2.141791343688965,-1.3336354804090043,-2.5268428961383265,6.110782730370321,1.0176175832748413,-2.2193034330951136
1708434602.7476747,-2.141741991043091,-1.33360310018573,-2.5268667379962366,6.1107122776801965,1.0176708698272705,-2.2192357222186487
1708434602.7496557,-2.1417462825775146,-1.3336396378329773,-2.5268591086017054,6.110736477165975,1.0176546573638916,-2.2192567030536097
1708434602.7516527,-2.141765832901001,-1.3336592328599473,-2.526884142552511,6.110782730370321,1.0176467895507812,-2.2192400137530726
1708434602.7536886,-2.1417534351348877,-1.333610327248909,-2.5268428961383265,6.1108155129249475,1.0176913738250732,-2.2192233244525355
1708434602.7556562,-2.1417579650878906,-1.3336396527341385,-2.526817862187521,6.1107332585151575,1.017638087272644,-2.2192519346820276
1708434602.757687,-2.1417746543884277,-1.3336268973401566,-2.5268753210650843,6.110745417862692,1.0176708698272705,-2.2192190329181116
1708434602.759658,-2.1418116092681885,-1.3336189699224015,-2.5268428961383265,6.110815632134237,1.0176339149475098,-2.2192190329181116
1708434602.761646,-2.1417534351348877,-1.3336754006198426,-2.526863400136129,6.110710847168722,1.0176589488983154,-2.2192447821246546
1708434602.7636702,-2.1417579650878906,-1.3336558800986786,-2.5268874804126185,6.110782849579611,1.017659068107605,-2.2192729155169886
1708434602.7656548,-2.1417789459228516,-1.3336345118335267,-2.5268591086017054,6.110773789673605,1.0176177024841309,-2.2192404905902308
1708434602.7676632,-2.141782760620117,-1.3336103719523926,-2.526863400136129,6.110757338791647,1.017659068107605,-2.2192075888263147
1708434602.7696385,-2.1417462825775146,-1.3336344820312043,-2.5268383661853235,6.11070333698348,1.017674207687378,-2.2192638556109827
1708434602.7716415,-2.1417622566223145,-1.3336463284543534,-2.5268874804126185,6.110773789673605,1.0176546573638916,-2.2192447821246546
1708434602.773668,-2.1417789459228516,-1.333622546201088,-2.526879851018087,6.11066614368514,1.0176784992218018,-2.2192099730121058
1708434602.775657,-2.141770362854004,-1.3336183291724701,-2.52685791650881,6.110719787865438,1.0176424980163574,-2.219255272542135
1708434602.7777026,-2.1417622566223145,-1.333638773565628,-2.5268502871142786,6.110773670464315,1.0176708698272705,-2.2192357222186487
1708434602.7796648,-2.141791343688965,-1.3336549562266846,-2.5269036928759974,6.110725867539205,1.017657995223999,-2.219290081654684
1708434602.7816772,-2.141787052154541,-1.333618940120079,-2.5269246737109583,6.110740887909689,1.0176546573638916,-2.21924335161318
1708434602.7836645,-2.1417667865753174,-1.333647297029831,-2.526878897343771,6.110710847168722,1.0176870822906494,-2.2192099730121058
1708434602.7856796,-2.1417622566223145,-1.3336711388877411,-2.5268548170672815,6.1107287285621545,1.0176827907562256,-2.2192142645465296
1708434602.787691,-2.141753673553467,-1.3336516481688996,-2.5269528071032923,6.110749947815695,1.0176752805709839,-2.2192676703082483
1708434602.7896821,-2.1417462825775146,-1.333638758664467,-2.5269280115710657,6.11074839809493,1.0176535844802856,-2.2192357222186487
1708434602.7916427,-2.1417622566223145,-1.33367973685775,-2.52690297762026,6.110691416054525,1.0176784992218018,-2.219304863606588
1708434602.7936792,-2.141741991043091,-1.3336549711278458,-2.526980225239889,6.110736477165975,1.017646074295044,-2.2192567030536097
1708434602.795643,-2.1417746543884277,-1.3336268228343506,-2.5269582907306116,6.110675084381857,1.0176708698272705,-2.2192142645465296
1708434602.7976828,-2.1417579650878906,-1.3336018186858674,-2.5269954840289515,6.110719668656149,1.017674207687378,-2.2192567030536097
1708434602.7996802,-2.1417622566223145,-1.3336797517589112,-2.5270443598376673,6.11074839809493,1.0176546573638916,-2.219198528920309
1708434602.801668,-2.1417622566223145,-1.333618940120079,-2.526978079472677,6.11073778846816,1.0176827907562256,-2.219292465840475
1708434602.8036897,-2.141770362854004,-1.333625854258873,-2.526961867009298,6.1107332585151575,1.0176337957382202,-2.219250504170553
1708434602.8056502,-2.1417667865753174,-1.3336430203965683,-2.5270524660693567,6.110709416657247,1.017659068107605,-2.219281021748678
1708434602.8077066,-2.1417622566223145,-1.333610327248909,-2.5270512739764612,6.110707747727194,1.0176708698272705,-2.2192190329181116
1708434602.8096573,-2.1418073177337646,-1.3336840283921738,-2.5269814173327845,6.1107544777686975,1.0176794528961182,-2.219292465840475
1708434602.8116608,-2.141770362854004,-1.333696187739708,-2.527039353047506,6.110684025078573,1.017638087272644,-2.219226662312643
1708434602.8136957,-2.1417789459228516,-1.3336421114257355,-2.527043883000509,6.110782849579611,1.0176752805709839,-2.219255272542135
1708434602.8156679,-2.1417789459228516,-1.3336182993701478,-2.526994530354635,6.110724198609152,1.017659068107605,-2.2192676703082483
1708434602.8176796,-2.1417958736419678,-1.3336146187833329,-2.5270031134234827,6.110790121346273,1.0176337957382202,-2.219276253377096
1708434602.8196464,-2.1417622566223145,-1.3336678457311173,-2.5270689169513147,6.1107332585151575,1.017659068107605,-2.219259564076559
1708434602.8216503,-2.1417534351348877,-1.333691955809929,-2.5269737879382532,6.110740887909689,1.0176665782928467,-2.219238583241598
1708434602.823692,-2.1417579650878906,-1.3336635094932099,-2.526986900960104,6.110687005310812,1.0176708698272705,-2.219283405934469
1708434602.8256495,-2.1418004035949707,-1.3336225760034104,-2.5270031134234827,6.110790121346273,1.0176708698272705,-2.219304863606588
1708434602.8276706,-2.1417579650878906,-1.3336635392955323,-2.5270074049579065,6.1106780646140955,1.0176546573638916,-2.219279114400045
1708434602.8296545,-2.141798496246338,-1.3337168407491227,-2.526970688496725,6.110745417862692,1.0176708698272705,-2.2192629019366663
1708434602.8316612,-2.1417622566223145,-1.3336430203965683,-2.5270116964923304,6.1107332585151575,1.0176295042037964,-2.219325844441549
1708434602.833703,-2.1417253017425537,-1.3336345267346879,-2.5269466082202356,6.110724198609152,1.0176697969436646,-2.2192700544940394
1708434602.8356683,-2.1417746543884277,-1.333659217958786,-2.5269835630999964,6.110732066422262,1.017674207687378,-2.2193287054644983
1708434602.8376899,-2.1417622566223145,-1.3337200295976182,-2.5270031134234827,6.110755908280172,1.0176817178726196,-2.2193034330951136
1708434602.8396626,-2.141787052154541,-1.333638773565628,-2.5270116964923304,6.110778200417318,1.017625331878662,-2.2193568388568323
1708434602.8416657,-2.141770362854004,-1.333679662351944,-2.526961867009298,6.110745417862692,1.0177158117294312,-2.2192915121661585
1708434602.843671,-2.1417462825775146,-1.3337005388787766,-2.526986900960104,6.110721337586202,1.0176904201507568,-2.2192700544940394
1708434602.8456404,-2.141791343688965,-1.3336225312999268,-2.5270116964923304,6.11074839809493,1.0176708698272705,-2.219339195881979
1708434602.8476722,-2.141770362854004,-1.333666906957962,-2.5270074049579065,6.110719787865438,1.017629623413086,-2.2193153540240687
1708434602.8496501,-2.1417746543884277,-1.3336582642844697,-2.5269954840289515,6.110766398697653,1.0176373720169067,-2.2193105856524866
1708434602.8516395,-2.1417622566223145,-1.3336182695678254,-2.5270031134234827,6.110736477165975,1.0176337957382202,-2.2193153540240687
1708434602.8536744,-2.1417579650878906,-1.3336635094932099,-2.526986900960104,6.110687005310812,1.0176337957382202,-2.2193601767169397
1708434602.855664,-2.141749143600464,-1.3337039214423676,-2.5270400683032435,6.110794532089987,1.017638087272644,-2.2193601767169397
1708434602.8576598,-2.14174485206604,-1.333659217958786,-2.527026955281393,6.110764729767599,1.0176665782928467,-2.219376866017477
1708434602.859685,-2.1417958736419678,-1.3336396527341385,-2.5270031134234827,6.11074839809493,1.0176708698272705,-2.219339195881979
1708434602.8616426,-2.1417789459228516,-1.3336797219565888,-2.526953999196188,6.110745417862692,1.0176218748092651,-2.2193525473224085
1708434602.8641188,-2.1417789459228516,-1.333635465507843,-2.526994530354635,6.110787260323324,1.0176870822906494,-2.2193363348590296
1708434602.8656688,-2.1417789459228516,-1.3336302053979416,-2.5269911924945276,6.11074839809493,1.017646074295044,-2.2193434874164026
1708434602.867663,-2.1417579650878906,-1.3336882156184693,-2.5270000139819544,6.110790121346273,1.0176784992218018,-2.2193859259234827
1708434602.8696747,-2.1417789459228516,-1.3335931462100525,-2.5270116964923304,6.110736477165975,1.017638087272644,-2.219372097645895
1708434602.8716416,-2.1417622566223145,-1.3336231273463746,-2.5269835630999964,6.110740887909689,1.017646074295044,-2.219388786946432
1708434602.8737,-2.1417877674102783,-1.333622546201088,-2.5269628206836146,6.11078559139327,1.0176589488983154,-2.219334427510397
1708434602.8756554,-2.1417956352233887,-1.3336301904967804,-2.526961867009298,6.110793101578512,1.0176708698272705,-2.219318691884176
1708434602.8776734,-2.1417789459228516,-1.3336311292699357,-2.5269835630999964,6.110769259720602,1.0176424980163574,-2.2193477789508265
1708434602.8796487,-2.1417579650878906,-1.333708108668663,-2.5269792715655726,6.11074839809493,1.0176827907562256,-2.2193229834186
1708434602.8816483,-2.1417622566223145,-1.3336017441800614,-2.5270162264453333,6.11074839809493,1.0176708698272705,-2.2193811575519007
1708434602.8836632,-2.1417789459228516,-1.3336711835912247,-2.5269835630999964,6.11076174953536,1.0176546573638916,-2.219351593648092
1708434602.8856196,-2.1417622566223145,-1.3336268228343506,-2.5269466082202356,6.110749947815695,1.0176870822906494,-2.219388786946432
1708434602.8876822,-2.141720771789551,-1.333671213393547,-2.5269420782672327,6.1107287285621545,1.0176697969436646,-2.219397846852438
1708434602.8896585,-2.141770362854004,-1.333651677971222,-2.5269582907306116,6.110728609352865,1.0176503658294678,-2.2193411032306116
1708434602.891657,-2.1417789459228516,-1.3336182844689866,-2.5269466082202356,6.110736477165975,1.0176503658294678,-2.219339195881979
1708434602.8936615,-2.1418161392211914,-1.3336516928723832,-2.5269835630999964,6.110790121346273,1.0176177024841309,-2.219339195881979
1708434602.8956833,-2.14174485206604,-1.3336060059121628,-2.5269954840289515,6.11074839809493,1.0176424980163574,-2.219339195881979
1708434602.8976476,-2.141749143600464,-1.3336387437633057,-2.526937786732809,6.11076174953536,1.017629623413086,-2.2193434874164026
1708434602.8996582,-2.1417579650878906,-1.3336189699224015,-2.526970688496725,6.110732066422262,1.0176503658294678,-2.2193320433246058
1708434602.9017193,-2.1417622566223145,-1.3336635094932099,-2.5269508997546595,6.110764848976888,1.0176708698272705,-2.2193196455584925
1708434602.903758,-2.141787052154541,-1.3336463135531922,-2.5269835630999964,6.110736477165975,1.017638087272644,-2.219367806111471
1708434602.9056687,-2.1417789459228516,-1.3336189550212403,-2.5269628206836146,6.110757338791647,1.0176633596420288,-2.219334427510397
1708434602.9077308,-2.1417789459228516,-1.333671213393547,-2.526975695286886,6.110808121948995,1.0176752805709839,-2.219372097645895
1708434602.9096503,-2.1417789459228516,-1.3336311143687745,-2.5269792715655726,6.110736477165975,1.0176546573638916,-2.219327751790182
1708434602.9116676,-2.1417956352233887,-1.333687738781311,-2.526959482823507,6.110778200417318,1.017638087272644,-2.2193434874164026
1708434602.9136517,-2.1417462825775146,-1.333638758664467,-2.5269387404071253,6.110732066422262,1.0176337957382202,-2.219339195881979
1708434602.9156451,-2.141737461090088,-1.3336060357144852,-2.5269387404071253,6.11078559139327,1.017638087272644,-2.2193105856524866
1708434602.9176717,-2.1418116092681885,-1.333687738781311,-2.526910368596212,6.110797512322225,1.0176708698272705,-2.219376866017477
1708434602.9196653,-2.1417958736419678,-1.3336138886264344,-2.526914660130636,6.110769259720602,1.0176011323928833,-2.2193320433246058
1708434602.9216619,-2.1417958736419678,-1.3336678755334397,-2.526947323475973,6.110790121346273,1.0176633596420288,-2.219379727040426
1708434602.9236498,-2.141753673553467,-1.3336268377355118,-2.526910368596212,6.110782849579611,1.0176546573638916,-2.219351593648092
1708434602.9256353,-2.1417746543884277,-1.3336592328599473,-2.5269387404071253,6.110778200417318,1.017638087272644,-2.219397846852438
1708434602.9276612,-2.1417789459228516,-1.33367212236438,-2.526968304310934,6.110773789673605,1.017659068107605,-2.2193811575519007
1708434602.929649,-2.141749143600464,-1.3336840879968186,-2.526968304310934,6.110752928047933,1.0176795721054077,-2.21934682527651
1708434602.9316385,-2.1417534351348877,-1.333614559178688,-2.526959482823507,6.1107438681419275,1.0176054239273071,-2.2194021383868616
1708434602.9336617,-2.141798496246338,-1.3336311143687745,-2.526914660130636,6.110736477165975,1.0175892114639282,-2.219376866017477
1708434602.9356477,-2.1418230533599854,-1.3336678755334397,-2.526919190083639,6.11074839809493,1.0176349878311157,-2.219330135975973
1708434602.9376738,-2.141770362854004,-1.3336549711278458,-2.5269647280322474,6.110757338791647,1.0176184177398682,-2.219327751790182
1708434602.939649,-2.1417746543884277,-1.3336182695678254,-2.526907269154684,6.110802042275228,1.0176218748092651,-2.2193320433246058
1708434602.9416404,-2.1417746543884277,-1.3336506944945832,-2.526890818272726,6.110769259720602,1.0176512002944946,-2.2193229834186
1708434602.9436703,-2.1417622566223145,-1.3336060506156464,-2.5269277731524866,6.110769259720602,1.0176140069961548,-2.219334427510397
1708434602.9456437,-2.1417579650878906,-1.3336996299079438,-2.526878897343771,6.110757338791647,1.0176349878311157,-2.219355885182516
1708434602.9476955,-2.1417579650878906,-1.333659217958786,-2.5268471876727503,6.110752928047933,1.0176022052764893,-2.2193930784808558
1708434602.9496925,-2.1417958736419678,-1.3336311143687745,-2.5268309752093714,6.110757338791647,1.017622709274292,-2.219363514577047
1708434602.9517243,-2.1417579650878906,-1.3336516481688996,-2.526839558278219,6.1108319638069055,1.0176633596420288,-2.2193930784808558
1708434602.9536855,-2.141737461090088,-1.3336354953101655,-2.52682334581484,6.110813963204183,1.0176676511764526,-2.219334427510397
1708434602.9556584,-2.1417746543884277,-1.333667830829956,-2.52682334581484,6.110773670464315,1.0176184177398682,-2.219376866017477
1708434602.957716,-2.141765832901001,-1.3336473417333146,-2.526855770741598,6.110727536469259,1.0176054239273071,-2.2193930784808558
1708434602.9596798,-2.1417579650878906,-1.3336583089879532,-2.526839558278219,6.110755908280172,1.0176262855529785,-2.219351593648092
1708434602.961669,-2.141753673553467,-1.3336310696652909,-2.526884142552511,6.110802042275228,1.0176184177398682,-2.219364945088522
1708434602.963676,-2.141741991043091,-1.3336797219565888,-2.52682334581484,6.110805022507467,1.01763916015625,-2.219351593648092
1708434602.9656458,-2.1417622566223145,-1.3336345267346879,-2.5268028418170374,6.1107438681419275,1.0176676511764526,-2.219367806111471
1708434602.9676642,-2.1417622566223145,-1.3336796772531052,-2.5268028418170374,6.11074839809493,1.0175936222076416,-2.2193930784808558
1708434602.9696486,-2.1417746543884277,-1.3336225611022492,-2.5268071333514612,6.11078559139327,1.0175899267196655,-2.2193320433246058
1708434602.971648,-2.141733169555664,-1.3336796772531052,-2.526855770741598,6.110773789673605,1.017622709274292,-2.2193434874164026
1708434602.9736674,-2.14176607131958,-1.3336796921542664,-2.52682334581484,6.110772239952841,1.0175977945327759,-2.2193434874164026
1708434602.9756448,-2.141791343688965,-1.3336225760034104,-2.5268190542804163,6.110799181252279,1.017622709274292,-2.219339195881979
1708434602.9776776,-2.141787052154541,-1.333638758664467,-2.526811424885885,6.110741007118978,1.0176305770874023,-2.2193229834186
1708434602.9796648,-2.1417579650878906,-1.3336030703834076,-2.526835266743795,6.110719787865438,1.017594337463379,-2.219364945088522
1708434602.98165,-2.141753673553467,-1.3336592626622696,-2.526835266743795,6.110793101578512,1.0175737142562866,-2.2193015257464808
1708434602.9836736,-2.1417579650878906,-1.3336430203965683,-2.526867691670553,6.110772239952841,1.0175856351852417,-2.219327751790182
1708434602.9856443,-2.1417622566223145,-1.333654986029007,-2.526785914097921,6.110752808838644,1.0175737142562866,-2.219330135975973
1708434602.9876714,-2.1417579650878906,-1.3336919856122513,-2.52682334581484,6.110778200417318,1.017565131187439,-2.2193320433246058
1708434602.9896512,-2.1417746543884277,-1.333610327248909,-2.526827637349264,6.110773789673605,1.0175694227218628,-2.2193434874164026
1708434602.9916556,-2.1417958736419678,-1.3336311441710968,-2.526827637349264,6.110769259720602,1.0175824165344238,-2.2193482557879847
1708434602.993676,-2.1417534351348877,-1.3336516332677384,-2.5268071333514612,6.11074839809493,1.0175986289978027,-2.219339195881979
1708434602.9956472,-2.141741991043091,-1.3336430352977295,-2.526835266743795,6.1107603190238855,1.0175867080688477,-2.219351116810934
1708434602.9976664,-2.1417579650878906,-1.3336516630700608,-2.5268190542804163,6.110767709999838,1.017566204071045,-2.219355885182516
1708434602.9996636,-2.1417880058288574,-1.3336592030576249,-2.526790205632345,6.110764729767599,1.0175576210021973,-2.219376866017477
1708434603.001682,-2.1417579650878906,-1.3336139631322403,-2.526789728795187,6.110806453018942,1.0175824165344238,-2.2193477789508265
1708434603.0037086,-2.1417534351348877,-1.3336183440736313,-2.5268190542804163,6.11078571060256,1.0176109075546265,-2.219351116810934
1708434603.0056517,-2.1417956352233887,-1.3336635094932099,-2.526832167302267,6.110764848976888,1.0175737142562866,-2.2193196455584925
1708434603.0076454,-2.1417622566223145,-1.333635465507843,-2.526827637349264,6.11078571060256,1.0176109075546265,-2.219364945088522
1708434603.0096676,-2.1417534351348877,-1.3336268079331894,-2.5268428961383265,6.110776650696554,1.017594337463379,-2.2193229834186
1708434603.0116513,-2.1417579650878906,-1.3336592775634308,-2.526839558278219,6.110745417862692,1.0175824165344238,-2.219318691884176
1708434603.0136633,-2.141770362854004,-1.3336754751256485,-2.526848379765646,6.11074839809493,1.0175986289978027,-2.2193320433246058
1708434603.0156605,-2.1417622566223145,-1.3336430501988907,-2.5268190542804163,6.110781180649557,1.0175532102584839,-2.2193434874164026
1708434603.0176413,-2.1417534351348877,-1.3336225611022492,-2.526773993168966,6.110790121346273,1.0175824165344238,-2.2193034330951136
1708434603.0196462,-2.1417534351348877,-1.3336592477611084,-2.52682334581484,6.110723125725546,1.017566204071045,-2.2193411032306116
1708434603.021642,-2.1417739391326904,-1.3337039661458512,-2.52682334581484,6.1107332585151575,1.0175704956054688,-2.2193434874164026
1708434603.0236576,-2.1417746543884277,-1.3336635094932099,-2.526843849812643,6.11076174953536,1.0175575017929077,-2.2193477789508265
1708434603.0256495,-2.141753673553467,-1.3336841476014634,-2.526848379765646,6.110773789673605,1.0175986289978027,-2.219327751790182
1708434603.027662,-2.1417958736419678,-1.3336517077735444,-2.526811424885885,6.110806453018942,1.0175899267196655,-2.2193782965289515
1708434603.0296655,-2.1417746543884277,-1.3336387437633057,-2.5268071333514612,6.1108229039009,1.0175704956054688,-2.219274346028463
1708434603.031693,-2.1417579650878906,-1.3336635094932099,-2.5268071333514612,6.110778200417318,1.0175986289978027,-2.2193196455584925
1708434603.0336595,-2.141787052154541,-1.3336919260076066,-2.5268028418170374,6.110767829209127,1.0175496339797974,-2.2193239370929163
1708434603.03568,-2.1417579650878906,-1.3336549562266846,-2.52682334581484,6.110802042275228,1.0175824165344238,-2.2193153540240687
1708434603.037647,-2.141749143600464,-1.3336268079331894,-2.526811424885885,6.110821473389425,1.017541766166687,-2.2193363348590296
1708434603.039651,-2.141770362854004,-1.3336267930320282,-2.526790205632345,6.110755908280172,1.0175496339797974,-2.2193411032306116
1708434603.041686,-2.141787052154541,-1.333660067324974,-2.526827637349264,6.110752928047933,1.0175704956054688,-2.219279114400045
1708434603.0436776,-2.1417958736419678,-1.3336516183665772,-2.5268071333514612,6.110732066422262,1.017591118812561,-2.2193239370929163
1708434603.045748,-2.1417579650878906,-1.3336797517589112,-2.5268471876727503,6.110806572228231,1.0175539255142212,-2.2192958037005823
1708434603.0476758,-2.1417508125305176,-1.333667815928795,-2.526839558278219,6.110772239952841,1.017562747001648,-2.2193477789508265
1708434603.049669,-2.1417956352233887,-1.3336516332677384,-2.5268309752093714,6.110802042275228,1.0175374746322632,-2.2193153540240687
1708434603.051684,-2.1417622566223145,-1.3336507391980668,-2.526811424885885,6.110727536469259,1.0175583362579346,-2.2193077246295374
1708434603.0536606,-2.141770362854004,-1.333614544277527,-2.5268071333514612,6.110732066422262,1.0176072120666504,-2.2192943731891077
1708434603.055679,-2.1418070793151855,-1.3336473417333146,-2.5268033186541956,6.1107287285621545,1.0175704956054688,-2.2193105856524866
1708434603.0576556,-2.1417789459228516,-1.3336883199265976,-2.526811424885885,6.110764729767599,1.017566204071045,-2.2192958037005823
1708434603.0596497,-2.1417579650878906,-1.333635465507843,-2.526811424885885,6.110773789673605,1.017561912536621,-2.219342056904928
1708434603.0616727,-2.141787052154541,-1.3336754602244874,-2.5268028418170374,6.110746848374166,1.0175539255142212,-2.2193034330951136
1708434603.0636497,-2.1417579650878906,-1.333610252743103,-2.526848379765646,6.110781180649557,1.017566204071045,-2.219250504170553
1708434603.0656567,-2.1417622566223145,-1.3336635094932099,-2.52682334581484,6.110778200417318,1.017541766166687,-2.2192676703082483
1708434603.0676732,-2.1417956352233887,-1.3336301755956192,-2.526811424885885,6.110793101578512,1.0175373554229736,-2.219304863606588
1708434603.0696573,-2.1417789459228516,-1.3336388033679505,-2.5268190542804163,6.110781180649557,1.017545461654663,-2.219321076069967
1708434603.0716565,-2.141737699508667,-1.333631084566452,-2.526827637349264,6.110790121346273,1.017578125,-2.219292465840475
1708434603.0736475,-2.1417579650878906,-1.333675430422165,-2.52682334581484,6.110781180649557,1.0176116228103638,-2.219313923512594
1708434603.0756798,-2.1417534351348877,-1.333647297029831,-2.52682334581484,6.110802042275228,1.0175539255142212,-2.219259564076559
1708434603.077689,-2.1417579650878906,-1.3336430352977295,-2.526827637349264,6.110757338791647,1.0175704956054688,-2.2192729155169886
1708434603.079676,-2.141791343688965,-1.333667905335762,-2.5268028418170374,6.110740887909689,1.0176029205322266,-2.219234291707174
1708434603.081723,-2.1417579650878906,-1.3336030852845688,-2.526839558278219,6.110740887909689,1.0175704956054688,-2.219292465840475
1708434603.0837834,-2.1417622566223145,-1.3336796772531052,-2.52682334581484,6.110764848976888,1.0175169706344604,-2.219231430684225
1708434603.0856671,-2.1418204307556152,-1.3336225163987656,-2.5268071333514612,6.11074839809493,1.01760733127594,-2.219226662312643
1708434603.0876672,-2.141753673553467,-1.3336517375758667,-2.526848379765646,6.1107287285621545,1.0175504684448242,-2.2192686239825647
1708434603.0896513,-2.1417667865753174,-1.3336274039796372,-2.526785914097921,6.110745417862692,1.0175331830978394,-2.219276253377096
1708434603.0916514,-2.1417789459228516,-1.3336962771466752,-2.526832167302267,6.1107168076331995,1.0175704956054688,-2.2192729155169886
1708434603.0936677,-2.1417958736419678,-1.3336354506066819,-2.526839558278219,6.110803591995992,1.0175288915634155,-2.21924335161318
1708434603.09566,-2.1417622566223145,-1.3336146038821717,-2.52682334581484,6.110776650696554,1.0175824165344238,-2.2192190329181116
1708434603.0976636,-2.1417789459228516,-1.3336311143687745,-2.526794497166769,6.110773789673605,1.0175749063491821,-2.2192686239825647
1708434603.099677,-2.1417789459228516,-1.3336344969323655,-2.526839558278219,6.110745417862692,1.017525553703308,-2.219226662312643
1708434603.1016665,-2.1417579650878906,-1.3336103421500702,-2.5268645922290247,6.110741007118978,1.017579197883606,-2.2192638556109827
1708434603.1036682,-2.141791343688965,-1.3336635094932099,-2.52682334581484,6.110707866936483,1.0175954103469849,-2.2192142645465296
1708434603.1056647,-2.1417958736419678,-1.333671213393547,-2.526839558278219,6.110749947815695,1.0176029205322266,-2.21924335161318
1708434603.1076927,-2.141753673553467,-1.3336311143687745,-2.52682334581484,6.110766398697653,1.017579197883606,-2.2192567030536097
1708434603.1096475,-2.1417746543884277,-1.3336060059121628,-2.526832167302267,6.110724198609152,1.0175496339797974,-2.2191951910602015
1708434603.1116574,-2.1418004035949707,-1.3336344969323655,-2.526799027119772,6.110740887909689,1.0175954103469849,-2.219247643147604
1708434603.1136413,-2.1418004035949707,-1.3336796921542664,-2.526827637349264,6.11067949512557,1.0175539255142212,-2.2192567030536097
1708434603.115643,-2.1417579650878906,-1.3336634945920487,-2.5268569628344935,6.1107590077217,1.0175824165344238,-2.2192447821246546
1708434603.1176553,-2.1417462825775146,-1.3335782301476975,-2.5268147627459925,6.110749947815695,1.0175496339797974,-2.21924335161318
1708434603.1196704,-2.1417956352233887,-1.3335739237121125,-2.5268071333514612,6.1107332585151575,1.0175374746322632,-2.219226662312643
1708434603.1216464,-2.141741991043091,-1.333610327248909,-2.5268071333514612,6.110778200417318,1.017525553703308,-2.219226662312643
1708434603.123669,-2.1417295932769775,-1.3336592775634308,-2.526790205632345,6.110745417862692,1.0175583362579346,-2.2192028204547327
1708434603.1256387,-2.1417579650878906,-1.333638773565628,-2.5267983118640345,6.110787260323324,1.0175374746322632,-2.2192447821246546
1708434603.1276474,-2.141791343688965,-1.3335973632386704,-2.526839558278219,6.110691416054525,1.0175954103469849,-2.2192657629596155
1708434603.1296487,-2.1417789459228516,-1.3336592477611084,-2.5268471876727503,6.110749947815695,1.0175461769104004,-2.2192567030536097
1708434603.1316516,-2.1417667865753174,-1.3336516630700608,-2.526851479207174,6.110691416054525,1.0176072120666504,-2.2192776838885706
1708434603.1336482,-2.141753673553467,-1.3336344522288819,-2.5268471876727503,6.11073778846816,1.0175539255142212,-2.2192142645465296
1708434603.135661,-2.1417746543884277,-1.3336592477611084,-2.526827637349264,6.110749947815695,1.017562747001648,-2.2192400137530726
1708434603.1376505,-2.1417622566223145,-1.3336754751256485,-2.52682334581484,6.1107287285621545,1.0175583362579346,-2.2191904226886194
1708434603.1396554,-2.1417956352233887,-1.3336060357144852,-2.5268190542804163,6.110749947815695,1.0175909996032715,-2.2192190329181116
1708434603.1416488,-2.141749143600464,-1.3336430352977295,-2.5268028418170374,6.1107168076331995,1.0175867080688477,-2.2192519346820276
1708434603.1436775,-2.141791343688965,-1.3336060655168076,-2.52682334581484,6.110709416657247,1.0175583362579346,-2.219231430684225
1708434603.1456587,-2.1417880058288574,-1.3336226058057328,-2.5268028418170374,6.110691416054525,1.017566204071045,-2.219231430684225
1708434603.1476424,-2.141791343688965,-1.3336797517589112,-2.526799027119772,6.110737669258871,1.0175867080688477,-2.219271961842672
1708434603.1496582,-2.1417958736419678,-1.3336473119309922,-2.52682334581484,6.110709416657247,1.0175986289978027,-2.2192567030536097
1708434603.1516604,-2.1417746543884277,-1.3336310994676133,-2.52682334581484,6.110760199814596,1.0175824165344238,-2.219222370778219
1708434603.1536613,-2.1417622566223145,-1.3336754602244874,-2.526839558278219,6.110723006516256,1.0175824165344238,-2.2192400137530726
1708434603.1556473,-2.1417579650878906,-1.3336516630700608,-2.5267773310290735,6.110667335778036,1.0175575017929077,-2.219285313283102
1708434603.1576467,-2.141749143600464,-1.3336311143687745,-2.526843849812643,6.110734808235922,1.017578125,-2.2192233244525355
1708434603.1596532,-2.1417622566223145,-1.3336183440736313,-2.526863400136129,6.110638963967123,1.0175737142562866,-2.2192142645465296
1708434603.1616457,-2.1417789459228516,-1.3336146038821717,-2.526848379765646,6.110749947815695,1.0175824165344238,-2.219217602406637
1708434603.16368,-2.1417622566223145,-1.3336635094932099,-2.526888434086935,6.110700475960531,1.0175824165344238,-2.219226662312643
1708434603.1656468,-2.1417622566223145,-1.333635465507843,-2.526855770741598,6.110709416657247,1.0175824165344238,-2.2192400137530726
1708434603.1676562,-2.1417579650878906,-1.3336344969323655,-2.526835266743795,6.110731828003683,1.0175583362579346,-2.219231430684225
1708434603.169689,-2.141770362854004,-1.3336311143687745,-2.5268147627459925,6.110700475960531,1.0175496339797974,-2.2192323843585413
1708434603.1716583,-2.141741991043091,-1.3336516630700608,-2.526867691670553,6.110742199211874,1.0175793170928955,-2.2192075888263147
1708434603.173653,-2.141771078109741,-1.333635465507843,-2.5268428961383265,6.11075113990859,1.0175583362579346,-2.2192400137530726
1708434603.175661,-2.1417922973632812,-1.3336549562266846,-2.5268221537219446,6.110718476563253,1.0175374746322632,-2.2192075888263147
1708434603.177649,-2.141770362854004,-1.33367973685775,-2.5268190542804163,6.110643493920126,1.0175330638885498,-2.219226662312643
1708434603.1796968,-2.1417667865753174,-1.3335987341455002,-2.5268190542804163,6.110742199211874,1.0175539255142212,-2.2192276159869593
1708434603.1816573,-2.1417789459228516,-1.3336301457932969,-2.5267983118640345,6.110643493920126,1.0175867080688477,-2.219226662312643
1708434603.1836717,-2.1417579650878906,-1.33360609531913,-2.5268190542804163,6.1106688854988,1.0175986289978027,-2.2192447821246546
1708434603.1856704,-2.1417622566223145,-1.333635465507843,-2.526832167302267,6.110640990525045,1.0175496339797974,-2.2192233244525355
1708434603.1876726,-2.1417622566223145,-1.3336396527341385,-2.5268028418170374,6.110682356148519,1.017561912536621,-2.2192190329181116
1708434603.189652,-2.1417622566223145,-1.333638773565628,-2.52682334581484,6.11062120178298,1.017623782157898,-2.2192276159869593
1708434603.1916735,-2.1418004035949707,-1.3336506944945832,-2.526820246373312,6.110637652664938,1.0175856351852417,-2.2192190329181116
1708434603.1936498,-2.1417534351348877,-1.3336711388877411,-2.526839558278219,6.110610949784078,1.017606496810913,-2.219231430684225
1708434603.1956792,-2.1417789459228516,-1.3336634945920487,-2.526867691670553,6.1106018898780725,1.017594337463379,-2.2192519346820276
1708434603.1976492,-2.1417746543884277,-1.3336017292789002,-2.5268071333514612,6.110637652664938,1.0175824165344238,-2.2192075888263147
1708434603.199672,-2.1417579650878906,-1.3336189699224015,-2.52682334581484,6.11065565326766,1.0176022052764893,-2.2192276159869593
1708434603.201671,-2.141737461090088,-1.3335859340480347,-2.526835266743795,6.110637652664938,1.0175738334655762,-2.2192233244525355
1708434603.2036831,-2.1417622566223145,-1.3336516630700608,-2.5267816225634974,6.110592949181356,1.017606496810913,-2.219259564076559
1708434603.2056487,-2.141749143600464,-1.333626852636673,-2.5268071333514612,6.110546338349142,1.0176312923431396,-2.219231430684225
1708434603.2076557,-2.1418004035949707,-1.333610327248909,-2.5268471876727503,6.110606419831075,1.017622709274292,-2.219231430684225
1708434603.2096503,-2.1417834758758545,-1.333606020813324,-2.526872221623556,6.110651004105367,1.0176194906234741,-2.2192357222186487
1708434603.2116656,-2.1417789459228516,-1.333655835395195,-2.526851479207174,6.1106018898780725,1.0176314115524292,-2.2192028204547327
1708434603.2136598,-2.141741991043091,-1.3336396378329773,-2.5268428961383265,6.110651123314657,1.0175410509109497,-2.2192099730121058
1708434603.2156432,-2.1417622566223145,-1.3336182695678254,-2.526855770741598,6.110637652664938,1.0176184177398682,-2.219231430684225
1708434603.217659,-2.1417295932769775,-1.3337038469365616,-2.5268071333514612,6.110646593361654,1.0176271200180054,-2.2192028204547327
1708434603.219647,-2.1417551040649414,-1.3336840283921738,-2.526851479207174,6.11062120178298,1.0176022052764893,-2.2192028204547327
1708434603.2216492,-2.1417877674102783,-1.3336796772531052,-2.526872221623556,6.110588419228353,1.017591118812561,-2.219276253377096
1708434603.2236536,-2.1417508125305176,-1.3336754155210038,-2.526851479207174,6.110621320992269,1.0176029205322266,-2.2192729155169886
1708434603.2256424,-2.1417789459228516,-1.3336430501988907,-2.5268471876727503,6.110646593361654,1.0176599025726318,-2.2192099730121058
1708434603.227662,-2.1417667865753174,-1.3336189550212403,-2.5268428961383265,6.110634672432699,1.0175899267196655,-2.2192233244525355
1708434603.2296612,-2.1417789459228516,-1.3336754751256485,-2.526867691670553,6.110625731735983,1.0176184177398682,-2.2192400137530726
1708434603.231657,-2.1417579650878906,-1.3336516630700608,-2.526867691670553,6.110604870110311,1.0176184177398682,-2.219247643147604
1708434603.2336466,-2.1417622566223145,-1.3336754155210038,-2.526835266743795,6.110651004105367,1.0176022052764893,-2.219194237385885
1708434603.2356539,-2.1417834758758545,-1.33367973685775,-2.5268190542804163,6.110634672432699,1.0175856351852417,-2.2192276159869593
1708434603.2376475,-2.1417834758758545,-1.333610327248909,-2.526855770741598,6.1106228707130334,1.0176633596420288,-2.2192276159869593
1708434603.2396443,-2.141775608062744,-1.3336430352977295,-2.526863400136129,6.110646593361654,1.0176109075546265,-2.2192276159869593
1708434603.2416391,-2.1417295932769775,-1.333635465507843,-2.5268028418170374,6.110576259880819,1.0176554918289185,-2.2192233244525355
1708434603.2436643,-2.1417622566223145,-1.333626852636673,-2.5268190542804163,6.110642063408651,1.0175977945327759,-2.2192161718951624
1708434603.245642,-2.1417384147644043,-1.3336258244565506,-2.52682334581484,6.110585200577535,1.0176022052764893,-2.2192233244525355
1708434603.247666,-2.1417171955108643,-1.3336516928723832,-2.526839558278219,6.1106018898780725,1.0176677703857422,-2.219292465840475
1708434603.2496467,-2.1417171955108643,-1.3336396527341385,-2.5268309752093714,6.110579478531637,1.0176022052764893,-2.2192099730121058
1708434603.2516465,-2.1417622566223145,-1.333635465507843,-2.5268753210650843,6.110618221550741,1.0176262855529785,-2.2192233244525355
1708434603.2536807,-2.1417667865753174,-1.3336796772531052,-2.526855770741598,6.110592949181356,1.017622709274292,-2.2192190329181116
1708434603.2556627,-2.1417551040649414,-1.3336430352977295,-2.526835266743795,6.110564338951864,1.0176467895507812,-2.2192567030536097
1708434603.2576613,-2.1417508125305176,-1.3336840283921738,-2.5268190542804163,6.110588419228353,1.017622709274292,-2.219247643147604
1708434603.2596433,-2.1417887210845947,-1.3336225760034104,-2.526835266743795,6.110634672432699,1.0175977945327759,-2.2192638556109827
1708434603.2616487,-2.1417462825775146,-1.3336962920478364,-2.526855770741598,6.110643732338705,1.0176140069961548,-2.2192357222186487
1708434603.2636616,-2.141730308532715,-1.3336146038821717,-2.5268548170672815,6.11063181140975,1.0176184177398682,-2.2192190329181116
1708434603.2656395,-2.141771078109741,-1.3336592030576249,-2.526863400136129,6.110592949181356,1.0176262855529785,-2.219247643147604
1708434603.2676558,-2.1417057514190674,-1.333667815928795,-2.5268428961383265,6.110630142479696,1.017622709274292,-2.2192190329181116
1708434603.2696483,-2.141747236251831,-1.3336311143687745,-2.5268710295306605,6.1105806706245325,1.0176467895507812,-2.2192567030536097
1708434603.27165,-2.1417462825775146,-1.333626852636673,-2.5268266836749476,6.110618221550741,1.0176467895507812,-2.219247643147604
1708434603.2736394,-2.1417171955108643,-1.3336145889810105,-2.5268059412585657,6.11059735992507,1.0176424980163574,-2.2192099730121058
1708434603.2756383,-2.1417667865753174,-1.3336516630700608,-2.5268266836749476,6.110597479134359,1.0176467895507812,-2.2192638556109827
1708434603.2776434,-2.1417551040649414,-1.3336396378329773,-2.5268147627459925,6.1106183407600305,1.017638087272644,-2.2192357222186487
1708434603.2796674,-2.1417126655578613,-1.3336430352977295,-2.526839558278219,6.110651123314657,1.017651081085205,-2.219226662312643
1708434603.2816494,-2.141775608062744,-1.3336146038821717,-2.5268059412585657,6.110567199974813,1.0176546573638916,-2.2192357222186487
1708434603.2836592,-2.141771078109741,-1.3336225760034104,-2.5268917719470423,6.110559808998861,1.0176633596420288,-2.2192400137530726
1708434603.2856467,-2.141775608062744,-1.3336840283921738,-2.526863400136129,6.110627281456747,1.0176546573638916,-2.2192729155169886
1708434603.2876546,-2.1417667865753174,-1.3336225760034104,-2.5268147627459925,6.110625731735983,1.0176424980163574,-2.219189469014303
1708434603.2896435,-2.1417341232299805,-1.333635465507843,-2.5268309752093714,6.110564338951864,1.0176467895507812,-2.21924335161318
1708434603.2916424,-2.1417171955108643,-1.3336018037847062,-2.5268710295306605,6.110663282662191,1.0176546573638916,-2.2192567030536097
1708434603.2936473,-2.141779899597168,-1.333610327248909,-2.5268917719470423,6.110585200577535,1.0176053047180176,-2.2192357222186487
1708434603.2956567,-2.1416900157928467,-1.3336146038821717,-2.526872221623556,6.110642063408651,1.0176633596420288,-2.2192233244525355
1708434603.2976437,-2.1416969299316406,-1.3336481910995026,-2.526867691670553,6.110588538437643,1.0176184177398682,-2.219259564076559
1708434603.2996705,-2.1417551040649414,-1.3336225760034104,-2.526839558278219,6.110571729927816,1.0176305770874023,-2.2192190329181116
1708434603.3016574,-2.141763925552368,-1.3336268377355118,-2.5268386046039026,6.110651123314657,1.0176098346710205,-2.2192357222186487
1708434603.3036861,-2.1417384147644043,-1.3336516630700608,-2.526879851018087,6.110547888069906,1.017659068107605,-2.2192142645465296
1708434603.3056555,-2.1417126655578613,-1.333638773565628,-2.5268753210650843,6.110555279045858,1.0176098346710205,-2.2192099730121058
1708434603.3076944,-2.1417295932769775,-1.3336833876422425,-2.5268386046039026,6.110625731735983,1.0176424980163574,-2.219259564076559
1708434603.309656,-2.141768217086792,-1.333647297029831,-2.5268591086017054,6.11057339885787,1.0176467895507812,-2.219247643147604
1708434603.3116434,-2.141742706298828,-1.3336146038821717,-2.5268340746508997,6.110660064011373,1.0176795721054077,-2.219238583241598
1708434603.3136678,-2.1417102813720703,-1.3336430054954072,-2.526862446461813,6.110606419831075,1.017638087272644,-2.2192233244525355
1708434603.3156471,-2.1416943073272705,-1.3336516630700608,-2.5268548170672815,6.110610949784078,1.0176503658294678,-2.2192357222186487
1708434603.3176339,-2.1417384147644043,-1.333610327248909,-2.5268221537219446,6.110630261688986,1.0176546573638916,-2.219231430684225
1708434603.3196476,-2.1416969299316406,-1.3336430352977295,-2.526818815861837,6.11057339885787,1.0176665782928467,-2.219285313283102
1708434603.3216295,-2.1417057514190674,-1.3335740131190796,-2.526879612599508,6.110585200577535,1.017625331878662,-2.2192567030536097
1708434603.323663,-2.14168119430542,-1.333626852636673,-2.5268753210650843,6.110613810807028,1.017646074295044,-2.2192052046405237
1708434603.3256254,-2.141784191131592,-1.333635465507843,-2.5268145243274134,6.110642182617941,1.0176904201507568,-2.2192099730121058
1708434603.3276632,-2.141763925552368,-1.3336146038821717,-2.5268223921405237,6.110681283264913,1.0176622867584229,-2.219226662312643
1708434603.3296332,-2.1417102813720703,-1.333626852636673,-2.5268426577197474,6.110568749695577,1.0176622867584229,-2.2192309538470667
1708434603.3316321,-2.1416900157928467,-1.3336301457932969,-2.526883904133932,6.110568749695577,1.0176784992218018,-2.2192447821246546
1708434603.3336785,-2.1417057514190674,-1.3336145889810105,-2.526879851018087,6.110630261688986,1.0176990032196045,-2.219238583241598
1708434603.3356507,-2.1417384147644043,-1.333635465507843,-2.5268591086017054,6.11062120178298,1.0176697969436646,-2.2192357222186487
1708434603.3376613,-2.1417171955108643,-1.333618314271309,-2.5268753210650843,6.110667812615194,1.0177077054977417,-2.21924335161318
1708434603.3396592,-2.141714572906494,-1.3336634945920487,-2.5268221537219446,6.110576259880819,1.0176817178726196,-2.21924335161318
1708434603.341646,-2.141768217086792,-1.3336678457311173,-2.526879612599508,6.1105761406715295,1.0176947116851807,-2.2192567030536097
1708434603.3436441,-2.1417384147644043,-1.3335869026235123,-2.5268710295306605,6.110571729927816,1.0176990032196045,-2.219226662312643
1708434603.3456333,-2.141784191131592,-1.3336720329574128,-2.526863400136129,6.110594260483541,1.0176295042037964,-2.219172779713766
1708434603.3476408,-2.141714572906494,-1.3336430352977295,-2.526867930089132,6.1105806706245325,1.0176622867584229,-2.2192142645465296
1708434603.3496354,-2.141721725463867,-1.3336344969323655,-2.5268266836749476,6.110642182617941,1.0176373720169067,-2.219222370778219
1708434603.3516374,-2.141747236251831,-1.3336840283921738,-2.5268340746508997,6.110609400063314,1.0176827907562256,-2.219205681477682
1708434603.3536582,-2.1417508125305176,-1.3336840283921738,-2.5268428961383265,6.11059735992507,1.0176665782928467,-2.219198528920309
1708434603.355693,-2.141763925552368,-1.3336189550212403,-2.5268428961383265,6.110609400063314,1.0176904201507568,-2.2192676703082483
1708434603.3576653,-2.141763925552368,-1.3336550307324906,-2.526878897343771,6.110606419831075,1.0176417827606201,-2.2192896048175257
1708434603.359639,-2.141742706298828,-1.3336634945920487,-2.526841704045431,6.11065565326766,1.0176860094070435,-2.2192190329181116
1708434603.3616793,-2.1416945457458496,-1.333618314271309,-2.5268505255328577,6.110524165421285,1.0176622867584229,-2.219247643147604
1708434603.3636672,-2.141685724258423,-1.3336225760034104,-2.526863400136129,6.110613810807028,1.0176947116851807,-2.219231430684225
1708434603.3656807,-2.1417341232299805,-1.3336720329574128,-2.526904884968893,6.110592949181356,1.0176947116851807,-2.219259564076559
1708434603.3676367,-2.141714572906494,-1.333659217958786,-2.5268548170672815,6.110634672432699,1.0176622867584229,-2.219259564076559
1708434603.3696365,-2.141726016998291,-1.3336146038821717,-2.5268505255328577,6.110643732338705,1.0176784992218018,-2.219259564076559
1708434603.3716495,-2.1417057514190674,-1.3336430203965683,-2.526863400136129,6.110609280854025,1.0176904201507568,-2.21924335161318
1708434603.3736455,-2.1417341232299805,-1.333610327248909,-2.5268264452563685,6.110643732338705,1.0176697969436646,-2.2192009131061
1708434603.375696,-2.1416988372802734,-1.3336549562266846,-2.5268266836749476,6.110613810807028,1.017657995223999,-2.2192638556109827
1708434603.3776546,-2.141746997833252,-1.3336840283921738,-2.5268753210650843,6.1106228707130334,1.017657995223999,-2.2192447821246546
1708434603.3797083,-2.1417174339294434,-1.3336678457311173,-2.526879612599508,6.110660064011373,1.0176904201507568,-2.2192400137530726
1708434603.3816702,-2.141747236251831,-1.3336146038821717,-2.52682334581484,6.110651123314657,1.017657995223999,-2.2192896048175257
1708434603.383641,-2.141747236251831,-1.3336463284543534,-2.5268548170672815,6.110630261688986,1.0176827907562256,-2.219222370778219
1708434603.3856754,-2.1417341232299805,-1.3336678457311173,-2.5268471876727503,6.110615360527792,1.0176904201507568,-2.219226662312643
1708434603.3876388,-2.1416943073272705,-1.333610327248909,-2.526835266743795,6.110616671829977,1.017674207687378,-2.2192400137530726
1708434603.3896372,-2.1417384147644043,-1.333659217958786,-2.526883904133932,6.110646593361654,1.017674207687378,-2.2192233244525355
1708434603.3916311,-2.141747236251831,-1.3336840283921738,-2.526872221623556,6.110625731735983,1.0176697969436646,-2.219218079243795
1708434603.3936214,-2.1417341232299805,-1.3336146038821717,-2.5268548170672815,6.110613810807028,1.0176947116851807,-2.2192357222186487
1708434603.39567,-2.1417171955108643,-1.333618314271309,-2.5268710295306605,6.110660064011373,1.017674207687378,-2.2192233244525355
1708434603.397642,-2.141714572906494,-1.3336189550212403,-2.5268340746508997,6.110592949181356,1.0176653861999512,-2.2192629019366663
1708434603.399673,-2.141779899597168,-1.3335740131190796,-2.526863400136129,6.110582339554586,1.017674207687378,-2.219213310872213
1708434603.4016285,-2.141763925552368,-1.333626852636673,-2.5269082228290003,6.110609400063314,1.0177072286605835,-2.219259564076559
1708434603.403672,-2.1417391300201416,-1.333626852636673,-2.526851479207174,6.1105627892311,1.017674207687378,-2.21924335161318
1708434603.4056754,-2.141685724258423,-1.333671198492386,-2.5268753210650843,6.110585200577535,1.0176784992218018,-2.2192638556109827
1708434603.407732,-2.1417102813720703,-1.333672047858574,-2.5269160906421106,6.110652673035421,1.017674207687378,-2.2192686239825647
1708434603.4096432,-2.141726016998291,-1.3336919260076066,-2.5268340746508997,6.110588538437643,1.0176827907562256,-2.2192519346820276
1708434603.41167,-2.141742706298828,-1.3336183589747925,-2.5268831888781946,6.110610949784078,1.0176904201507568,-2.219231430684225
1708434603.4136577,-2.1417102813720703,-1.3336396378329773,-2.5268994013415735,6.110630142479696,1.0177116394042969,-2.2192896048175257
1708434603.4156513,-2.141721725463867,-1.3335944724133988,-2.5268264452563685,6.110643732338705,1.0176784992218018,-2.219238583241598
1708434603.4176521,-2.1417508125305176,-1.333647297029831,-2.526884142552511,6.110589730530538,1.0176947116851807,-2.2192686239825647
1708434603.4196532,-2.1417057514190674,-1.333635465507843,-2.526835266743795,6.1106228707130334,1.0176827907562256,-2.21924335161318
1708434603.4216802,-2.141714572906494,-1.3336146038821717,-2.526879612599508,6.1106018898780725,1.0176373720169067,-2.2192142645465296
1708434603.423685,-2.141721725463867,-1.3336516630700608,-2.526900593434469,6.110634672432699,1.0176535844802856,-2.219194237385885
1708434603.4256392,-2.1417384147644043,-1.333622620706894,-2.526879851018087,6.110634672432699,1.0176990032196045,-2.219203297291891
1708434603.4276583,-2.1416900157928467,-1.3336840283921738,-2.5268591086017054,6.1106958267982385,1.0176904201507568,-2.2192638556109827
1708434603.4296339,-2.1417384147644043,-1.3336473119309922,-2.5268591086017054,6.110585200577535,1.0176784992218018,-2.21924335161318
1708434603.4316351,-2.141742706298828,-1.333704726105072,-2.5268264452563685,6.110639202385702,1.0176904201507568,-2.219247643147604
1708434603.4336336,-2.1416776180267334,-1.3336225760034104,-2.5268753210650843,6.110613810807028,1.0176904201507568,-2.219259564076559
1708434603.4356887,-2.1416900157928467,-1.3336754155210038,-2.5268221537219446,6.110592949181356,1.0176546573638916,-2.219281021748678
1708434603.4376748,-2.1417057514190674,-1.3336146038821717,-2.5268264452563685,6.110630261688986,1.0177202224731445,-2.21924335161318
1708434603.4396524,-2.1417391300201416,-1.3335740131190796,-2.526862446461813,6.110613810807028,1.0176990032196045,-2.2192638556109827
1708434603.4416764,-2.1417551040649414,-1.333647297029831,-2.5268710295306605,6.110592949181356,1.0176697969436646,-2.219255272542135
1708434603.4436631,-2.1417341232299805,-1.333618314271309,-2.5268710295306605,6.110637652664938,1.017674207687378,-2.21924335161318
1708434603.4456456,-2.1417551040649414,-1.333594412808754,-2.526863400136129,6.110634672432699,1.017707347869873,-2.219259564076559
1708434603.4476838,-2.1417391300201416,-1.3336225760034104,-2.5268548170672815,6.110530006676473,1.0176784992218018,-2.2192519346820276
1708434603.4496567,-2.141726016998291,-1.3336268377355118,-2.526879851018087,6.110625731735983,1.0176372528076172,-2.219271961842672
1708434603.4516466,-2.1417171955108643,-1.333594561820366,-2.5268266836749476,6.110634672432699,1.0176492929458618,-2.219255272542135
1708434603.4537332,-2.1417102813720703,-1.3336473119309922,-2.526813570653097,6.110576259880819,1.0176990032196045,-2.219247643147604
1708434603.4556463,-2.1417126655578613,-1.333662526016571,-2.5268591086017054,6.110637652664938,1.0176708698272705,-2.219226662312643
1708434603.457638,-2.1417596340179443,-1.3336919111064454,-2.5268710295306605,6.110592949181356,1.0176860094070435,-2.219231430684225
1708434603.4596822,-2.1417596340179443,-1.3336625558188935,-2.526841704045431,6.110612380295553,1.0176947116851807,-2.2192142645465296
1708434603.461633,-2.1417102813720703,-1.3336430203965683,-2.5268309752093714,6.110609400063314,1.017657995223999,-2.219259564076559
1708434603.4636757,-2.1417551040649414,-1.333638773565628,-2.526855770741598,6.110592949181356,1.0177202224731445,-2.219259564076559
1708434603.4656386,-2.141742706298828,-1.3336635392955323,-2.5268309752093714,6.1105806706245325,1.017674207687378,-2.219255272542135
1708434603.4676793,-2.1417171955108643,-1.333626852636673,-2.5269036928759974,6.110630142479696,1.0176665782928467,-2.2192142645465296
1708434603.46964,-2.1417126655578613,-1.3336396378329773,-2.5268874804126185,6.110634672432699,1.017646074295044,-2.219247643147604
1708434603.4716642,-2.141714572906494,-1.3335944724133988,-2.5268753210650843,6.110646593361654,1.0176827907562256,-2.219276253377096
1708434603.4736433,-2.141726016998291,-1.333659217958786,-2.5268917719470423,6.110637652664938,1.017674207687378,-2.219205681477682
1708434603.4756472,-2.1417102813720703,-1.3336230975440522,-2.5268548170672815,6.110633122711935,1.0176827907562256,-2.219231430684225
1708434603.4776404,-2.141721725463867,-1.3336189550212403,-2.5268710295306605,6.110688435822286,1.0176947116851807,-2.2192638556109827
1708434603.4796739,-2.1417102813720703,-1.333638773565628,-2.5268505255328577,6.110606419831075,1.017646074295044,-2.2192729155169886
1708434603.4816415,-2.141718864440918,-1.3336060655168076,-2.5268753210650843,6.110625731735983,1.017659068107605,-2.219205681477682
1708434603.4836516,-2.141747236251831,-1.3336311292699357,-2.526912514363424,6.110613810807028,1.0176665782928467,-2.219285313283102
1708434603.485656,-2.1417129039764404,-1.3336274039796372,-2.526900593434469,6.110588538437643,1.017657995223999,-2.2192190329181116
1708434603.4876544,-2.1417346000671387,-1.33364391446624,-2.5268591086017054,6.110555398255148,1.0176622867584229,-2.2192638556109827
1708434603.4896398,-2.1417129039764404,-1.333655835395195,-2.5268383661853235,6.110618221550741,1.0176947116851807,-2.219226662312643
1708434603.4916282,-2.141721725463867,-1.333696187739708,-2.5269246737109583,6.110597479134359,1.0176827907562256,-2.2192357222186487
1708434603.4936352,-2.141721725463867,-1.3336430352977295,-2.526884142552511,6.110606419831075,1.0176870822906494,-2.2192075888263147
1708434603.495659,-2.141751527786255,-1.333643065100052,-2.526896301900045,6.1106183407600305,1.0176990032196045,-2.2192099730121058
1708434603.497648,-2.141714572906494,-1.3336558502963562,-2.5268340746508997,6.110577809601583,1.0176417827606201,-2.2192686239825647
1708434603.4996297,-2.1416969299316406,-1.3336634945920487,-2.526863400136129,6.1105627892311,1.017674207687378,-2.2192075888263147
1708434603.501627,-2.141721725463867,-1.3336678755334397,-2.526845995579855,6.110651004105367,1.017657995223999,-2.2192519346820276
1708434603.5036829,-2.1416900157928467,-1.3336103421500702,-2.526884142552511,6.110535728722372,1.017657995223999,-2.2192729155169886
1708434603.5056555,-2.141730308532715,-1.333655835395195,-2.526851479207174,6.110589730530538,1.0176860094070435,-2.2192233244525355
1708434603.507651,-2.1416943073272705,-1.3336268824389954,-2.5268428961383265,6.110606419831075,1.0176546573638916,-2.219231430684225
1708434603.5096474,-2.1416988372802734,-1.3335739982179184,-2.526867691670553,6.110634672432699,1.0176904201507568,-2.2192567030536097
1708434603.511656,-2.1417384147644043,-1.3336430203965683,-2.5268831888781946,6.110555398255148,1.0176784992218018,-2.2192190329181116
1708434603.5136664,-2.1416943073272705,-1.3336840283921738,-2.5268548170672815,6.110648143082418,1.0176870822906494,-2.2192638556109827
1708434603.5156708,-2.141730308532715,-1.333618314271309,-2.5268874804126185,6.110627281456747,1.0176784992218018,-2.21924335161318
1708434603.5176504,-2.141721725463867,-1.3336840134910126,-2.5268428961383265,6.110585200577535,1.0176622867584229,-2.219259564076559
1708434603.5196824,-2.1417102813720703,-1.333635465507843,-2.5268471876727503,6.110634672432699,1.0176784992218018,-2.2192357222186487
1708434603.5216603,-2.1416988372802734,-1.3336592328599473,-2.5268471876727503,6.110643732338705,1.0176417827606201,-2.2192099730121058
1708434603.5236807,-2.14166522026062,-1.3336643737605591,-2.5268920103656214,6.110630261688986,1.0176784992218018,-2.219231430684225
1708434603.5256476,-2.141695022583008,-1.3336060655168076,-2.5268874804126185,6.110576259880819,1.0176860094070435,-2.2192567030536097
1708434603.5276897,-2.1416943073272705,-1.333659217958786,-2.5268591086017054,6.110639202385702,1.0176947116851807,-2.219231430684225
1708434603.5296597,-2.14168643951416,-1.3336274039796372,-2.5268386046039026,6.110592949181356,1.0176665782928467,-2.2192686239825647
1708434603.5316477,-2.1417276859283447,-1.3336678457311173,-2.5268831888781946,6.110621320992269,1.0176622867584229,-2.2192567030536097
1708434603.5336792,-2.141718864440918,-1.3336225760034104,-2.526863400136129,6.1106018898780725,1.0176784992218018,-2.2192638556109827
1708434603.5356464,-2.1416783332824707,-1.3336516332677384,-2.5268831888781946,6.110616671829977,1.0176827907562256,-2.2192190329181116
1708434603.5376685,-2.1416609287261963,-1.3336018037847062,-2.5268874804126185,6.110618221550741,1.0176622867584229,-2.21924335161318
1708434603.539651,-2.1417322158813477,-1.333607242708542,-2.5268753210650843,6.110634672432699,1.0176947116851807,-2.2192567030536097
1708434603.5416815,-2.141716480255127,-1.333663524394371,-2.5268667379962366,6.1106183407600305,1.017657995223999,-2.2192686239825647
1708434603.5436587,-2.141723394393921,-1.3336031299880524,-2.5268920103656214,6.1105806706245325,1.0176947116851807,-2.2192447821246546
1708434603.545634,-2.1416828632354736,-1.3336268675378342,-2.5268667379962366,6.11057327964858,1.0176653861999512,-2.219198528920309
1708434603.5476718,-2.1416988372802734,-1.3336516630700608,-2.5269203821765345,6.110613810807028,1.0177072286605835,-2.2192099730121058
1708434603.5496998,-2.141690731048584,-1.3336711835912247,-2.5268917719470423,6.110634672432699,1.0176817178726196,-2.2192190329181116
1708434603.5516737,-2.1416988372802734,-1.333582581286766,-2.5268591086017054,6.110559808998861,1.0176947116851807,-2.2192323843585413
1708434603.5536807,-2.1416828632354736,-1.333651677971222,-2.5268383661853235,6.110615360527792,1.017719030380249,-2.2192118803607386
1708434603.5556786,-2.141711711883545,-1.3336103719523926,-2.5269039312945765,6.1106228707130334,1.0177028179168701,-2.2191951910602015
1708434603.5576735,-2.141641139984131,-1.3336139482310791,-2.5268049875842493,6.110564338951864,1.017669677734375,-2.219285313283102
1708434603.5596447,-2.141658067703247,-1.3336507093957444,-2.526870314274923,6.110625731735983,1.017730951309204,-2.219231430684225
1708434603.561634,-2.1416783332824707,-1.3335987341455002,-2.5268710295306605,6.110618221550741,1.0177266597747803,-2.219226662312643
1708434603.5636656,-2.141666889190674,-1.3336189699224015,-2.5268667379962366,6.110643732338705,1.0177028179168701,-2.2192686239825647
1708434603.5656765,-2.141645669937134,-1.3336354506066819,-2.5268951098071497,6.1105806706245325,1.0177104473114014,-2.219259564076559
1708434603.5676737,-2.1416501998901367,-1.3336268824389954,-2.5268874804126185,6.110594141274252,1.0177028179168701,-2.2193053404437464
1708434603.569671,-2.1416783332824707,-1.3336678755334397,-2.5268591086017054,6.110613810807028,1.0177428722381592,-2.2192686239825647
1708434603.5716443,-2.1417083740234375,-1.3336796772531052,-2.5268667379962366,6.110577809601583,1.0177061557769775,-2.2192567030536097
1708434603.573662,-2.1416544914245605,-1.333626852636673,-2.5269442240344446,6.1106018898780725,1.0177223682403564,-2.2192099730121058
1708434603.5757039,-2.1416544914245605,-1.3336601120284577,-2.5269323031054896,6.110535609513082,1.0177799463272095,-2.2192190329181116
1708434603.5776677,-2.141674041748047,-1.333614633684494,-2.5269280115710657,6.110592949181356,1.0177507400512695,-2.2192357222186487
1708434603.579683,-2.1416757106781006,-1.3336388033679505,-2.526968304310934,6.110604870110311,1.0177748203277588,-2.2192967573748987
1708434603.581678,-2.141645669937134,-1.3336145889810105,-2.526951853428976,6.11053894737319,1.0177669525146484,-2.2192519346820276
1708434603.5836668,-2.14164137840271,-1.3335901510766526,-2.5269508997546595,6.110589730530538,1.0177298784255981,-2.2192638556109827
1708434603.585637,-2.141646385192871,-1.333647297029831,-2.5269551912890833,6.110634672432699,1.017783522605896,-2.219259564076559
1708434603.5876706,-2.141636848449707,-1.3336962473443528,-2.5270031134234827,6.110606419831075,1.0177704095840454,-2.219287697468893
1708434603.5896764,-2.141666889190674,-1.3336839836886902,-2.5269582907306116,6.110592949181356,1.0177958011627197,-2.219259564076559
1708434603.5916517,-2.141666889190674,-1.333626852636673,-2.526986900960104,6.11059735992507,1.0178076028823853,-2.21924335161318
1708434603.593679,-2.141666889190674,-1.3336145740798493,-2.5270116964923304,6.110568749695577,1.0177704095840454,-2.2192495504962366
1708434603.5956357,-2.1416587829589844,-1.3336919111064454,-2.52704364458193,6.110568749695577,1.0177826881408691,-2.219281021748678
1708434603.5976515,-2.1416378021240234,-1.3336018484881897,-2.5269575754748743,6.110625731735983,1.0177826881408691,-2.219234291707174
1708434603.5996628,-2.141662359237671,-1.3336753857186814,-2.527018133793966,6.110564338951864,1.017786979675293,-2.219304863606588
1708434603.6016452,-2.1416711807250977,-1.3336268377355118,-2.527059857045309,6.110576259880819,1.0177903175354004,-2.219283405934469
1708434603.6036851,-2.1416711807250977,-1.3336146187833329,-2.5270469824420374,6.110613810807028,1.0178076028823853,-2.219358746205465
1708434603.6056757,-2.141646385192871,-1.3336231273463746,-2.5270512739764612,6.110582339554586,1.017802119255066,-2.2192419211017054
1708434603.6077,-2.1416633129119873,-1.3335986894420166,-2.5270512739764612,6.110543477326193,1.0178393125534058,-2.219300095235006
1708434603.6096737,-2.1416633129119873,-1.3336072576097031,-2.5270686785327356,6.11057327964858,1.017757534980774,-2.2193363348590296
1708434603.6116455,-2.1416025161743164,-1.3336311143687745,-2.5270512739764612,6.1105642197425745,1.0177946090698242,-2.2193692366229456
1708434603.6136525,-2.141650676727295,-1.3336145889810105,-2.527043883000509,6.1106018898780725,1.0177934169769287,-2.2193477789508265
1708434603.615642,-2.1416633129119873,-1.333635465507843,-2.5270095507251185,6.110594260483541,1.0178393125534058,-2.219379727040426
1708434603.6176364,-2.1416103839874268,-1.3336018484881897,-2.5270512739764612,6.11063181140975,1.017814040184021,-2.219376866017477
1708434603.6196663,-2.141671895980835,-1.3336345267346879,-2.5270589033709925,6.110606419831075,1.0178961753845215,-2.2193754355060022
1708434603.6216323,-2.1416842937469482,-1.3335987341455002,-2.5270426909076136,6.1105806706245325,1.0178751945495605,-2.219416920338766
1708434603.6236396,-2.1416594982147217,-1.3336711686900635,-2.5271087328540247,6.110582339554586,1.0178874731063843,-2.219379727040426
1708434603.6256654,-2.1416842937469482,-1.3336796921542664,-2.5270589033709925,6.110606419831075,1.0178874731063843,-2.2194250265704554
1708434603.62764,-2.1416378021240234,-1.3336103570512314,-2.5270512739764612,6.110594260483541,1.0179154872894287,-2.2193425337420862
1708434603.6296413,-2.1416175365448,-1.3336439740708848,-2.527083698903219,6.11057327964858,1.0178906917572021,-2.2193921248065394
1708434603.631633,-2.1416420936584473,-1.33360609531913,-2.526990000401632,6.110589730530538,1.0179399251937866,-2.2194650808917444
1708434603.633648,-2.141650676727295,-1.33364391446624,-2.5270426909076136,6.110606419831075,1.017906904220581,-2.2194488684283655
1708434603.6356869,-2.141611099243164,-1.3336839836886902,-2.527018133793966,6.110606419831075,1.0179474353790283,-2.219497028981344
1708434603.6378882,-2.1416149139404297,-1.333663524394371,-2.527100149785177,6.110589730530538,1.0178980827331543,-2.219492260609762
1708434603.639647,-2.1415936946868896,-1.3336430203965683,-2.5270469824420374,6.110589730530538,1.0179356336593628,-2.219520870839254
1708434603.6416461,-2.1416306495666504,-1.3336189699224015,-2.527092520390646,6.110592949181356,1.0179474353790283,-2.2195103804217737
1708434603.6436377,-2.1416306495666504,-1.3336592030576249,-2.52706748643984,6.110556947975912,1.0179474353790283,-2.2195361296283167
1708434603.6456695,-2.1416378021240234,-1.3336268675378342,-2.527079407368795,6.110606419831075,1.0179625749588013,-2.219543759022848
1708434603.6476543,-2.141634941101074,-1.3336549711278458,-2.52706748643984,6.110615479737081,1.0179507732391357,-2.21960956255068
1708434603.6496482,-2.141650915145874,-1.3336430203965683,-2.5270589033709925,6.110589730530538,1.0179420709609985,-2.219605271016256
1708434603.6516664,-2.141663074493408,-1.3336430352977295,-2.5270350615130823,6.110610949784078,1.018003225326538,-2.219661537800924
1708434603.6536539,-2.141646385192871,-1.3336396527341385,-2.5270381609546106,6.110564338951864,1.0179669857025146,-2.2196810881244105
1708434603.6556475,-2.1416420936584473,-1.3336030852845688,-2.5270512739764612,6.110577809601583,1.0180153846740723,-2.219680134450094
1708434603.6576617,-2.1416594982147217,-1.3336354506066819,-2.5270708242999476,6.110598671227255,1.0179409980773926,-2.219717327748434
1708434603.6596353,-2.1416192054748535,-1.3336763691953202,-2.5270424524890345,6.110598671227255,1.0180360078811646,-2.2197254339801233
1708434603.661678,-2.141646385192871,-1.333618940120079,-2.52706748643984,6.110651004105367,1.0180435180664062,-2.2197445074664515
1708434603.663644,-2.1415979862213135,-1.3336711835912247,-2.5270913282977503,6.110568749695577,1.0180315971374512,-2.219731156026022
1708434603.6656775,-2.1416149139404297,-1.3336634945920487,-2.5270677248584192,6.110652792244711,1.018022894859314,-2.219792191182272
1708434603.6676939,-2.1416149139404297,-1.3336017292789002,-2.527083698903219,6.1106183407600305,1.0180554389953613,-2.2198498884784144
1708434603.6696396,-2.1415812969207764,-1.3336103570512314,-2.527083698903219,6.11057327964858,1.018101453781128,-2.2198613325702112
1708434603.6716866,-2.1416068077087402,-1.3335974526456376,-2.5270424524890345,6.11057327964858,1.0180381536483765,-2.2198389212237757
1708434603.6736634,-2.141610622406006,-1.333638773565628,-2.5271032492267054,6.110582339554586,1.0180964469909668,-2.219893280659811
1708434603.6756678,-2.1416234970092773,-1.333672047858574,-2.5270662943469446,6.110540258675375,1.0180799961090088,-2.2199576536761683
1708434603.6776574,-2.1416220664978027,-1.333655835395195,-2.5270946661578577,6.110606419831075,1.0181008577346802,-2.2199652830706995
1708434603.6796544,-2.141639471054077,-1.3336311292699357,-2.5271154085742396,6.110615479737081,1.0181244611740112,-2.2199767271624964
1708434603.6816967,-2.141639232635498,-1.333667815928795,-2.5271480719195765,6.110540258675375,1.018083095550537,-2.220008675252096
1708434603.6836727,-2.1415979862213135,-1.3336060655168076,-2.5270989576922815,6.110556947975912,1.0180829763412476,-2.2200239340411585
1708434603.6856384,-2.1416306495666504,-1.3336473268321534,-2.5271197001086634,6.110528695374288,1.0181114673614502,-2.2200644651996058
1708434603.687675,-2.141639471054077,-1.3336182844689866,-2.5270946661578577,6.110603201180258,1.0181028842926025,-2.220133606587545
1708434603.689636,-2.141611099243164,-1.333696187739708,-2.527078453694479,6.110586869507589,1.0180786848068237,-2.2201812903033655
1708434603.6916814,-2.1416234970092773,-1.3336345118335267,-2.5271111170398157,6.110553729325094,1.018181324005127,-2.2201431433307093
1708434603.6936512,-2.141594409942627,-1.3336430352977295,-2.527106825505392,6.110558140068807,1.0180743932724,-2.220241371785299
1708434603.695651,-2.1416728496551514,-1.3336473417333146,-2.5271764437304896,6.110544669419088,1.018097996711731,-2.2202943007098597
1708434603.6976838,-2.1416571140289307,-1.333672047858574,-2.527163330708639,6.110570418625631,1.018173098564148,-2.220309082661764
1708434603.6996887,-2.141611337661743,-1.3336273741773148,-2.52717096010317,6.1105092642600916,1.0181769132614136,-2.2203405539142054
1708434603.7016487,-2.141557216644287,-1.3336925071528931,-2.527184073125021,6.110567080765524,1.0181474685668945,-2.2204182783709925
1708434603.7036998,-2.1416032314300537,-1.3336549562266846,-2.527151409779684,6.110548126488485,1.0181552171707153,-2.2204411665545862
1708434603.705674,-2.1416075229644775,-1.3336882156184693,-2.527167860661642,6.110516655236044,1.0181552171707153,-2.2205637137042444
1708434603.707682,-2.141591787338257,-1.333647297029831,-2.5271547476397913,6.110473263054647,1.0181790590286255,-2.2205451170550745
1708434603.709679,-2.1415467262268066,-1.3336473119309922,-2.5271263758288782,6.110464203148641,1.018195629119873,-2.220588509236471
1708434603.711651,-2.141570568084717,-1.333610327248909,-2.5271721521960657,6.110519397049703,1.0181715488433838,-2.220645252858297
1708434603.7136655,-2.1415669918060303,-1.333626852636673,-2.527135197316305,6.110453593521871,1.0182000398635864,-2.2206810156451624
1708434603.7156608,-2.141526460647583,-1.3336311292699357,-2.527184073125021,6.1104822037513635,1.0181912183761597,-2.220736805592672
1708434603.7176511,-2.1415510177612305,-1.3336189103177567,-2.5271220842944544,6.110380637436666,1.018195629119873,-2.2207987944232386
1708434603.7196655,-2.1415441036224365,-1.333585963850357,-2.527191702519552,6.110437142639913,1.0181704759597778,-2.22091514268984
1708434603.7216313,-2.14151930809021,-1.3336669516614457,-2.52717096010317,6.110389458924093,1.018182635307312,-2.220872227345602
1708434603.7236521,-2.1414875984191895,-1.3336231124452134,-2.5271874109851282,6.110386597901144,1.018211007118225,-2.2210052649127405
1708434603.7256541,-2.141474485397339,-1.3336102974465867,-2.5271666685687464,6.110382067948141,1.0182271003723145,-2.221025292073385
1708434603.7276776,-2.1414947509765625,-1.333643065100052,-2.5271874109851282,6.110357987671652,1.018222689628601,-2.2210896650897425
1708434603.7296395,-2.1414794921875,-1.33360609531913,-2.5271952787982386,6.110310423165121,1.0182437896728516,-2.221207920704977
1708434603.7316382,-2.1414875984191895,-1.3336592477611084,-2.5271621386157435,6.110352146416464,1.0182968378067017,-2.2212522665606897
1708434603.7336383,-2.1414709091186523,-1.3336754751256485,-2.5271874109851282,6.110305893212118,1.0182557106018066,-2.2213147322284144
1708434603.7356348,-2.1414268016815186,-1.3336473268321534,-2.5271547476397913,6.110283362656393,1.0182589292526245,-2.221349541340963
1708434603.7376347,-2.1414496898651123,-1.333651677971222,-2.527179781590597,6.110292303353109,1.018270492553711,-2.221485439931051
1708434603.7396321,-2.1414356231689453,-1.3335944277099152,-2.5271995703326624,6.1102144596870325,1.0182749032974243,-2.2215116659747522
1708434603.7416153,-2.1414151191711426,-1.333663524394371,-2.5271666685687464,6.110195386200704,1.0182875394821167,-2.221545998250143
1708434603.7436392,-2.141406297683716,-1.333626852636673,-2.5271742979632776,6.110199916153707,1.0182790756225586,-2.2216647307025355
1708434603.7456472,-2.1414144039154053,-1.3336189550212403,-2.5271621386157435,6.110151755600729,1.018323302268982,-2.2216947714435022
1708434603.747637,-2.1413655281066895,-1.333659292464592,-2.5272114912616175,6.110151755600729,1.0183366537094116,-2.221795384083883
1708434603.7496338,-2.1414284706115723,-1.3336430501988907,-2.5271621386157435,6.110154855042257,1.018312931060791,-2.221851174031393
1708434603.751635,-2.1413586139678955,-1.3335944426110764,-2.527182165776388,6.110106932907858,1.0182740688323975,-2.2219608465777796
1708434603.7536385,-2.1414170265197754,-1.3336102974465867,-2.5272234121905726,6.110120403557577,1.0183442831039429,-2.2220070997821253
1708434603.7556274,-2.141404390335083,-1.333618940120079,-2.5272191206561487,6.110039698868551,1.0183321237564087,-2.2220967451678675
1708434603.7576287,-2.1413674354553223,-1.3336310994676133,-2.5272560755359095,6.110009777336874,1.0183231830596924,-2.222151581441061
1708434603.7596571,-2.141371726989746,-1.3336797517589112,-2.5272114912616175,6.110032307892599,1.0183607339859009,-2.2222397963153284
1708434603.7616463,-2.141322374343872,-1.3336268675378342,-2.5271909872638147,6.110011327057638,1.0183354616165161,-2.222316090260641
1708434603.763645,-2.1413066387176514,-1.3335973930409928,-2.5272889772998255,6.109991776734152,1.0183444023132324,-2.222424332295553
1708434603.7656405,-2.1413848400115967,-1.3336274337819596,-2.527242962514059,6.109972464829244,1.0183639526367188,-2.2224929968463343
1708434603.767641,-2.141356945037842,-1.3336797219565888,-2.527259174977438,6.109885561257162,1.0183231830596924,-2.2225521246539515
1708434603.769664,-2.141277313232422,-1.3336473119309922,-2.527254883443014,6.109861719399252,1.0183806419372559,-2.222656551991598
1708434603.7716334,-2.1413285732269287,-1.3336268377355118,-2.527238670979635,6.109908091812887,1.0184134244918823,-2.222724739705221
1708434603.7736444,-2.1412746906280518,-1.3336225909045716,-2.52722675005068,6.109900700836935,1.0183851718902588,-2.222776238118307
1708434603.7756853,-2.1412720680236816,-1.333647297029831,-2.527283493672506,6.109917032509603,1.0183836221694946,-2.2228849569903772
1708434603.7776592,-2.1412906646728516,-1.3336145889810105,-2.5272634665118616,6.109857547074117,1.0183550119400024,-2.2229607740985315
1708434603.7796695,-2.1412596702575684,-1.3336311143687745,-2.527316157017843,6.109832155495443,1.0183717012405396,-2.223060909901754
1708434603.7816584,-2.141272783279419,-1.3336189550212403,-2.5272136370288294,6.109791624336996,1.018388032913208,-2.223161045704977
1708434603.783649,-2.141186237335205,-1.3336268377355118,-2.5272629896747034,6.109805214196005,1.0183956623077393,-2.223257366810934
1708434603.7856631,-2.141240119934082,-1.333623157148697,-2.527250353490011,6.10975598075942,1.0184329748153687,-2.2232850233661097
1708434603.787674,-2.141242027282715,-1.3336311143687745,-2.527254883443014,6.10975598075942,1.0184370279312134,-2.2234094778644007
1708434603.789642,-2.1411995887756348,-1.3336189550212403,-2.5272374788867396,6.109761941223898,1.0184073448181152,-2.2234843412982386
1708434603.7916553,-2.141188144683838,-1.3336439293674012,-2.52728778520693,6.109691488533773,1.0184370279312134,-2.223593537007467
1708434603.7936285,-2.1411430835723877,-1.3336473119309922,-2.527299706135885,6.1096136448676965,1.0184403657913208,-2.223656956349508
1708434603.795628,-2.1411361694335938,-1.3336030405810853,-2.527250353490011,6.1096898196037195,1.0184240341186523,-2.223761860524313
1708434603.7976403,-2.1410911083221436,-1.3335782301476975,-2.527299706135885,6.109631645470419,1.0184074640274048,-2.223811928425924
1708434603.7996309,-2.1410865783691406,-1.3336189550212403,-2.527299706135885,6.109574663430013,1.0184067487716675,-2.2239015738116663
1708434603.8016338,-2.1411068439483643,-1.3336072725108643,-2.527283493672506,6.109630334168234,1.0184110403060913,-2.2240470091449183
1708434603.8036625,-2.1411285400390625,-1.3336354804090043,-2.5273118654834192,6.109625685005941,1.018473505973816,-2.224057976399557
1708434603.805716,-2.141080379486084,-1.3336030852845688,-2.5272911230670374,6.10953317859725,1.018419623374939,-2.224140469227926
1708434603.8076832,-2.1410608291625977,-1.3336311292699357,-2.527288023625509,6.109521257668295,1.01846444606781,-2.224241081868307
1708434603.809644,-2.1410000324249268,-1.3336354953101655,-2.5272911230670374,6.109531509667196,1.01846444606781,-2.2243579069720667
1708434603.8116565,-2.1410114765167236,-1.3336601567319413,-2.527288023625509,6.1094446060951135,1.0185004472732544,-2.2244752089129847
1708434603.8136446,-2.1410317420959473,-1.3335910749486466,-2.5273073355304163,6.109446155815878,1.0184677839279175,-2.224513832722799
1708434603.8156586,-2.141000747680664,-1.3335335862687607,-2.5272825399981897,6.109405982285299,1.0184677839279175,-2.2245805899249476
1708434603.8176715,-2.1409683227539062,-1.3336354804090043,-2.5273192564593714,6.109389531403341,1.0185376405715942,-2.224738899861471
1708434603.819655,-2.140944480895996,-1.333598719244339,-2.5272954146014612,6.109337198525228,1.0185049772262573,-2.224786106740133
1708434603.8216643,-2.1409318447113037,-1.3336311143687745,-2.5273192564593714,6.109375941544332,1.018484115600586,-2.224914852772848
1708434603.82364,-2.1409406661987305,-1.3336030852845688,-2.5273762384997767,6.109298455506124,1.018515944480896,-2.2249987761126917
1708434603.8256247,-2.1408958435058594,-1.3336030852845688,-2.5272868315326136,6.109257924347677,1.0184825658798218,-2.2250292936908167
1708434603.827644,-2.1408843994140625,-1.3336274337819596,-2.5273192564593714,6.109205591469564,1.018496036529541,-2.2251341978656214
1708434603.8296223,-2.140852451324463,-1.3336311143687745,-2.527297560368673,6.109157907753744,1.0185452699661255,-2.225218121205465
1708434603.831622,-2.1408119201660156,-1.3336072725108643,-2.5273311773883265,6.1091099856193445,1.0185203552246094,-2.225302521382467
1708434603.8336537,-2.1407511234283447,-1.333607242708542,-2.527306143437521,6.109109866410055,1.0185322761535645,-2.2253788153277796
1708434603.8356564,-2.140763521194458,-1.3336482358029862,-2.5273268858539026,6.109075772553243,1.018560528755188,-2.2254837195025843
1708434603.8376875,-2.1407570838928223,-1.3336231422475358,-2.527339045201437,6.10902630069808,1.0185070037841797,-2.2255547682391565
1708434603.839668,-2.140712022781372,-1.3335626435330887,-2.5273881594287317,6.108999240189352,1.0185974836349487,-2.225631062184469
1708434603.8416407,-2.1406683921813965,-1.3336030703834076,-2.527400080357687,6.1089680073554895,1.0186012983322144,-2.225698773060934
1708434603.8436904,-2.140685558319092,-1.33357127130542,-2.5273259321795862,6.108931886940756,1.0185561180114746,-2.2258318106280726
1708434603.8456435,-2.1406238079071045,-1.3336072725108643,-2.5274110476123255,6.108817088394918,1.0186225175857544,-2.225870911275045
1708434603.8476784,-2.1405558586120605,-1.3336115789464493,-2.5274034182177942,6.1088154194648645,1.0186045169830322,-2.225959602986471
1708434603.8497052,-2.140547752380371,-1.3336231869510193,-2.5274153391467493,6.108786809235372,1.0185667276382446,-2.226039234791891
1708434603.8516428,-2.140561819076538,-1.3336158257773896,-2.5274067560779017,6.108745205193319,1.0186164379119873,-2.2261036078082483
1708434603.853664,-2.1405088901519775,-1.333598719244339,-2.527452532445089,6.10869728305892,1.018595576286316,-2.2261551062213343
1708434603.8556435,-2.1404356956481934,-1.333664433365204,-2.5274482409106653,6.108612048416891,1.018661379814148,-2.2262395063983362
1708434603.857668,-2.1404733657836914,-1.3336354804090043,-2.527430836354391,6.108550655632772,1.0186492204666138,-2.2262900511371058
1708434603.8596797,-2.1404592990875244,-1.3335748773864289,-2.52744704881777,6.108512031822958,1.0186854600906372,-2.2263901869403284
1708434603.861637,-2.1403651237487793,-1.3336030554822464,-2.527458969746725,6.1084762690360925,1.0186928510665894,-2.226480309163229
1708434603.8638682,-2.140345573425293,-1.333615855579712,-2.527482811604635,6.1084046242530725,1.0186389684677124,-2.2265928427325647
1708434603.865643,-2.140293598175049,-1.3336274337819596,-2.527482811604635,6.1083655236061,1.0187005996704102,-2.226569954548971
1708434603.867635,-2.140254497528076,-1.3336060357144852,-2.527532164250509,6.108259546547689,1.0187169313430786,-2.226642910634176
