Eg3-git/Classifiers/Data Collection/u2/u2abc3_ur3e_joint_states.csv
time,elbow_joint,shoulder_lift_joint,shoulder_pan_joint,wrist_1_joint,wrist_2_joint,wrist_3_joint
1708434574.5778577,-2.1526575088500977,-1.3376129430583497,-2.529119078313009,6.14023123958663,1.022022008895874,-2.776626173649923
1708434574.579845,-2.1526620388031006,-1.3376326572946091,-2.5291340986834925,6.140201437264242,1.0220508575439453,-2.7766669432269495
1708434574.5818605,-2.1527116298675537,-1.3376085770181199,-2.529156748448507,6.140241968422689,1.0220551490783691,-2.77662164369692
1708434574.5838335,-2.1527116298675537,-1.3376489144614716,-2.5291431585894983,6.140222298889913,1.0220551490783691,-2.7766805330859583
1708434574.5858634,-2.1527163982391357,-1.3376098287156601,-2.529152218495504,6.1402344582374475,1.0220508575439453,-2.7766380945788782
1708434574.5878632,-2.1527276039123535,-1.3376326572946091,-2.5290890375720423,6.140258300095358,1.022038221359253,-2.776647154484884
1708434574.5898483,-2.1527276039123535,-1.3376160872033616,-2.5291717688189905,6.140247928887167,1.022087574005127,-2.7766550222979944
1708434574.591834,-2.15267014503479,-1.3376326572946091,-2.529114548360006,6.140168535500326,1.0220832824707031,-2.7766202131854456
1708434574.5938706,-2.152702808380127,-1.3376380366138,-2.5291340986834925,6.140196907311239,1.0220638513565063,-2.7766290346728724
1708434574.595834,-2.152644157409668,-1.3376652163318177,-2.5291596094714563,6.140180456429281,1.022071361541748,-2.7766550222979944
1708434574.5978284,-2.15269136428833,-1.3376292151263733,-2.5291295687304896,6.140279161721029,1.0220508575439453,-2.7766380945788782
1708434574.5998275,-2.1526939868927,-1.337657706146576,-2.5291219393359583,6.140259849816122,1.0220832824707031,-2.7766924540149134
1708434574.6018476,-2.152674436569214,-1.3375878793052216,-2.5291627089129847,6.140279161721029,1.0220832824707031,-2.7766290346728724
1708434574.603865,-2.152698278427124,-1.3376248639873047,-2.5291340986834925,6.140250789910116,1.0220998525619507,-2.7766462008105677
1708434574.6058254,-2.1527490615844727,-1.3376204085401078,-2.5290890375720423,6.1402132389839075,1.022087574005127,-2.7766788641559046
1708434574.6078765,-2.152644157409668,-1.337624878888466,-2.5291054884540003,6.140230047493734,1.022074580192566,-2.7766743342029017
1708434574.6098447,-2.1527581214904785,-1.3376370084336777,-2.5290890375720423,6.140288102417745,1.0220551490783691,-2.7766550222979944
1708434574.6118314,-2.1526620388031006,-1.3376129579595109,-2.529135529194967,6.140262710839071,1.0220832824707031,-2.7766581217395228
1708434574.613831,-2.152678966522217,-1.3376292002252121,-2.5291219393359583,6.140230047493734,1.022042155265808,-2.7766380945788782
1708434574.615858,-2.1527187824249268,-1.337608591919281,-2.5290964285479944,6.140258300095358,1.0220789909362793,-2.7766416708575647
1708434574.617819,-2.1527163982391357,-1.3375923496535798,-2.52916390100588,6.140196907311239,1.0220670700073242,-2.7766416708575647
1708434574.6198285,-2.1527116298675537,-1.3376248639873047,-2.5291009585009974,6.140283572464742,1.0220921039581299,-2.7766714731799524
1708434574.6218128,-2.152695894241333,-1.337648944263794,-2.5291550795184534,6.140270221024313,1.022042155265808,-2.7766876856433313
1708434574.6238263,-2.152714252471924,-1.337604136472084,-2.5291476885425013,6.140240418701925,1.0220296382904053,-2.7766624132739466
1708434574.625861,-2.15275239944458,-1.337645785217621,-2.5291476885425013,6.140250789910116,1.0220670700073242,-2.7767115275012415
1708434574.6278284,-2.152661085128784,-1.3376489293626328,-2.5291460196124476,6.140241968422689,1.022070288658142,-2.7767205874072474
1708434574.629838,-2.152674436569214,-1.3376204085401078,-2.5291431585894983,6.140246379166403,1.022042155265808,-2.7766953150378626
1708434574.6318297,-2.152669906616211,-1.337628350859024,-2.5291100184070032,6.1402132389839075,1.0220998525619507,-2.7766624132739466
1708434574.6338658,-2.15270733833313,-1.3376204383424302,-2.5291386286364954,6.140258300095358,1.0221279859542847,-2.7766862551318567
1708434574.635842,-2.152678966522217,-1.3375966560891648,-2.5291762987719935,6.140196907311239,1.0220911502838135,-2.7766876856433313
1708434574.6378155,-2.15269136428833,-1.3376532954028626,-2.5291264692889612,6.140258419304647,1.0220832824707031,-2.7766833941089075
1708434574.6398609,-2.1527116298675537,-1.3376086068204422,-2.5291219393359583,6.140342223435201,1.0220496654510498,-2.7766292730914515
1708434574.64181,-2.152665615081787,-1.3376074147275467,-2.529114548360006,6.1402087090309045,1.0220789909362793,-2.77665359178652
1708434574.6438384,-2.1526575088500977,-1.337574840789177,-2.5291431585894983,6.140232908516683,1.022087574005127,-2.7766669432269495
1708434574.6458213,-2.152674436569214,-1.3376335811666031,-2.5291596094714563,6.140258300095358,1.0221117734909058,-2.7766862551318567
1708434574.6478217,-2.1526825428009033,-1.3376041662744065,-2.5291386286364954,6.1403167126472376,1.0220832824707031,-2.776632849370138
1708434574.6498148,-2.152695894241333,-1.337633566265442,-2.5291054884540003,6.140223967819967,1.0221030712127686,-2.7767072359668177
1708434574.6518471,-2.15267014503479,-1.3375835430673142,-2.5291927496539515,6.140270221024313,1.0220834016799927,-2.776740614567892
1708434574.6538298,-2.152735471725464,-1.3376085770181199,-2.5291627089129847,6.140274631768026,1.022071361541748,-2.7766743342029017
1708434574.655836,-2.15269136428833,-1.3376283210567017,-2.5291550795184534,6.140258300095358,1.0221161842346191,-2.7767072359668177
1708434574.6578493,-2.15269136428833,-1.3376489591649552,-2.5291100184070032,6.140282380371847,1.022074580192566,-2.776740614567892
1708434574.6598494,-2.152695894241333,-1.3376117211631318,-2.5291596094714563,6.140303361206808,1.0220627784729004,-2.7766907850848597
1708434574.6618125,-2.1527323722839355,-1.3376414340785523,-2.5291340986834925,6.140319692879476,1.0220955610275269,-2.776670042668478
1708434574.6638305,-2.1526529788970947,-1.3376854074052353,-2.5291264692889612,6.140289771347799,1.0220987796783447,-2.776681963597433
1708434574.6658125,-2.1527116298675537,-1.3376488846591492,-2.5291672388659876,6.1402567503745935,1.022074580192566,-2.776665512715475
1708434574.6678274,-2.15270733833313,-1.3376532954028626,-2.5291550795184534,6.140333163529196,1.0221073627471924,-2.7767072359668177
1708434574.6698623,-2.1527209281921387,-1.3375879240087052,-2.5291672388659876,6.140306222229757,1.0220832824707031,-2.776740614567892
1708434574.671802,-2.152714252471924,-1.3375791174224396,-2.5291174093829554,6.140282380371847,1.022074580192566,-2.7767115275012415
1708434574.673818,-2.15270733833313,-1.3376248490861435,-2.5290890375720423,6.140303361206808,1.0221073627471924,-2.776727024708883
1708434574.675836,-2.152665615081787,-1.3376414638808747,-2.5291054884540003,6.140252220421591,1.0221235752105713,-2.776698176060812
1708434574.6778214,-2.152686834335327,-1.337575764661171,-2.5291174093829554,6.140253889351644,1.0221149921417236,-2.776731554661886
1708434574.679864,-2.1526825428009033,-1.337624878888466,-2.5290890375720423,6.140282380371847,1.0221192836761475,-2.7766953150378626
1708434574.6818457,-2.152702808380127,-1.3376501959613343,-2.5291340986834925,6.140273439675131,1.0220987796783447,-2.7767604033099573
1708434574.6838462,-2.1527445316314697,-1.337689996962883,-2.5291219393359583,6.1403106329734705,1.0220998525619507,-2.776693646107809
1708434574.685807,-2.152714252471924,-1.3376445484212418,-2.5291641394244593,6.140269028931417,1.0220868587493896,-2.776705567036764
1708434574.6878407,-2.152714252471924,-1.3376204085401078,-2.5291596094714563,6.140315162926473,1.0221686363220215,-2.776727024708883
1708434574.689854,-2.1526620388031006,-1.337648944263794,-2.5291505495654505,6.140297162323751,1.0220868587493896,-2.77671462694277
1708434574.6918182,-2.152740001678467,-1.3376326870969315,-2.5291476885425013,6.140301811486044,1.0221391916275024,-2.776672903691427
1708434574.6938477,-2.1526575088500977,-1.3376326125911255,-2.5291340986834925,6.140313613205709,1.0221192836761475,-2.7766862551318567
1708434574.6958203,-2.152686834335327,-1.3376577508500596,-2.5290966669665735,6.140318143158712,1.0220693349838257,-2.776672903691427
1708434574.697825,-2.152702808380127,-1.3376335960677643,-2.5291550795184534,6.140339362412252,1.0220911502838135,-2.7767091433154505
1708434574.6998367,-2.152698278427124,-1.3376489144614716,-2.5291550795184534,6.140363085060873,1.0220868587493896,-2.776727024708883
1708434574.7018373,-2.15269136428833,-1.337645785217621,-2.5291791597949427,6.140345084458151,1.0221481323242188,-2.776727024708883
1708434574.7038262,-2.15267014503479,-1.3376370084336777,-2.5291550795184534,6.140337812691488,1.0221567153930664,-2.7767253557788294
1708434574.7058637,-2.15267014503479,-1.3376501661590119,-2.5291596094714563,6.140394675522604,1.0221643447875977,-2.776734177266256
1708434574.7078247,-2.152735471725464,-1.3376217794469376,-2.5291264692889612,6.140361773758688,1.0221524238586426,-2.7767253557788294
1708434574.709854,-2.152709722518921,-1.3377065819552918,-2.5291386286364954,6.140382635384359,1.0221644639968872,-2.7767916361438196
1708434574.711812,-2.15270733833313,-1.3376458597234269,-2.5291174093829554,6.140378224640646,1.022151231765747,-2.7767723242389124
1708434574.7138214,-2.1526834964752197,-1.3375879240087052,-2.5291505495654505,6.140361892967977,1.0221306085586548,-2.7767344156848353
1708434574.7158422,-2.152686834335327,-1.3376414787820359,-2.5290966669665735,6.1403376934821985,1.0221030712127686,-2.776696507130758
1708434574.7178102,-2.1526825428009033,-1.3376041066697617,-2.5290847460376185,6.1403376934821985,1.0221686363220215,-2.7767091433154505
1708434574.7198503,-2.152698278427124,-1.337624878888466,-2.5291627089129847,6.14032136180953,1.0221350193023682,-2.7768095175372522
1708434574.7218144,-2.152686834335327,-1.337674008016922,-2.5291476885425013,6.140408146172323,1.0221805572509766,-2.7767840067492884
1708434574.7238138,-2.1527187824249268,-1.3376577359488984,-2.5291836897479456,6.140345084458151,1.022139310836792,-2.7767344156848353
1708434574.7258077,-2.15267014503479,-1.3376160275987168,-2.5291295687304896,6.140390145569601,1.022139310836792,-2.7767558733569544
1708434574.7278414,-2.152702808380127,-1.3376577508500596,-2.5291550795184534,6.140361892967977,1.0221061706542969,-2.7767751852618616
1708434574.7298212,-2.1526529788970947,-1.337662087087967,-2.5291717688189905,6.140420067101278,1.0221643447875977,-2.7767587343799036
1708434574.731864,-2.152695894241333,-1.3375834834626694,-2.5291219393359583,6.140378224640646,1.022151231765747,-2.7767840067492884
1708434574.733814,-2.1526575088500977,-1.337662087087967,-2.5291460196124476,6.140406477242269,1.0221469402313232,-2.7767587343799036
1708434574.7358544,-2.1527230739593506,-1.337608591919281,-2.5291791597949427,6.140378224640646,1.0221307277679443,-2.7767587343799036
1708434574.7378058,-2.1527230739593506,-1.3375923049500962,-2.5291505495654505,6.140390145569601,1.0221836566925049,-2.77675444284548
1708434574.7398148,-2.15269136428833,-1.337689996962883,-2.5291460196124476,6.140361773758688,1.0221717357635498,-2.77675444284548
1708434574.7418368,-2.152702808380127,-1.3376173239997406,-2.5291627089129847,6.140390145569601,1.0221631526947021,-2.7767797152148646
1708434574.7438402,-2.152637004852295,-1.3376609247973938,-2.5291414896594446,6.1403692839439294,1.0221588611602783,-2.776749912892477
1708434574.7458382,-2.1526825428009033,-1.3376532954028626,-2.5291717688189905,6.1403692839439294,1.0221806764602661,-2.77675444284548
1708434574.74782,-2.15270733833313,-1.3376326572946091,-2.5291717688189905,6.140391695290365,1.0221717357635498,-2.7767425219165247
1708434574.749812,-2.152637004852295,-1.3376501214555283,-2.5291414896594446,6.1403692839439294,1.0221959352493286,-2.7767165342914026
1708434574.7518106,-2.1527445316314697,-1.3376870912364502,-2.5291550795184534,6.140378224640646,1.022126317024231,-2.7767751852618616
1708434574.7538338,-2.15270733833313,-1.3376380068114777,-2.5291550795184534,6.140349614411154,1.0221750736236572,-2.776766363774435
1708434574.7558458,-2.152678966522217,-1.3376248490861435,-2.5291386286364954,6.1403647539909265,1.022126317024231,-2.77675444284548
1708434574.7578433,-2.152644157409668,-1.3375923496535798,-2.5291627089129847,6.140394556313314,1.0221750736236572,-2.776799027119772
1708434574.7598386,-2.152704954147339,-1.3376620423844834,-2.5291505495654505,6.140406596451559,1.022179365158081,-2.7768288294421595
1708434574.761855,-2.15267014503479,-1.3376160872033616,-2.5291414896594446,6.140423166542806,1.0221959352493286,-2.7768197695361536
1708434574.763824,-2.1527445316314697,-1.3376086217216034,-2.529170099888937,6.140394556313314,1.022182822227478,-2.7768004576312464
1708434574.7658293,-2.152674436569214,-1.3376489144614716,-2.5291340986834925,6.140378224640646,1.0221750736236572,-2.7768035570727747
1708434574.7678475,-2.1526567935943604,-1.3376664978316803,-2.5291460196124476,6.140418755799093,1.0222082138061523,-2.7767513434039515
1708434574.7698112,-2.152678966522217,-1.3375997704318543,-2.5291550795184534,6.140390145569601,1.0221219062805176,-2.776737991963522
1708434574.7718327,-2.152665615081787,-1.3376160275987168,-2.529170099888937,6.140406477242269,1.0222125053405762,-2.7767797152148646
1708434574.77382,-2.15267014503479,-1.3376292300275345,-2.529153649006979,6.140418755799093,1.022182822227478,-2.7767587343799036
1708434574.7758267,-2.15269136428833,-1.3376326572946091,-2.5292001406299036,6.1403857348258875,1.0221750736236572,-2.776749912892477
1708434574.7778487,-2.15273118019104,-1.3376458448222657,-2.5291369597064417,6.140444147377767,1.022154450416565,-2.7768049875842493
1708434574.7798562,-2.152702808380127,-1.3376458448222657,-2.529153649006979,6.1404470084007166,1.0221750736236572,-2.7768123785602015
1708434574.7818208,-2.1527490615844727,-1.3375997257283707,-2.5291581789599817,6.140435206681051,1.022203803062439,-2.7768035570727747
1708434574.7838323,-2.152695894241333,-1.3376855564168473,-2.529203001652853,6.140409815102377,1.0221916437149048,-2.776799027119772
1708434574.7858388,-2.1527276039123535,-1.337587834601738,-2.5291414896594446,6.1403857348258875,1.022231936454773,-2.776806418095724
1708434574.787821,-2.152665615081787,-1.337587834601738,-2.5291581789599817,6.140376674919882,1.0221742391586304,-2.7767825762378138
1708434574.7898498,-2.152740001678467,-1.3376414638808747,-2.5291836897479456,6.140418755799093,1.022228717803955,-2.7767825762378138
1708434574.7918446,-2.1526575088500977,-1.3376900267652054,-2.5292120615588587,6.140442478447714,1.0221619606018066,-2.7768242994891565
1708434574.793827,-2.1527116298675537,-1.3376577508500596,-2.529182020817892,6.140426146775045,1.022182822227478,-2.7768407503711146
1708434574.7958143,-2.152686834335327,-1.3376326125911255,-2.529186550770895,6.140426146775045,1.0221785306930542,-2.77677828470339
1708434574.7978501,-2.1526575088500977,-1.337645800118782,-2.529149119053976,6.140439617424764,1.0222200155258179,-2.776766363774435
1708434574.7998638,-2.1526620388031006,-1.3376457703164597,-2.529224220906393,6.140402066498556,1.0222232341766357,-2.7768495718585413
1708434574.8018043,-2.1527116298675537,-1.3376116466573258,-2.529177490864889,6.140376674919882,1.0222113132476807,-2.776761833821432
1708434574.8038208,-2.152678966522217,-1.3375997704318543,-2.5291956106769007,6.1403692839439294,1.0222440958023071,-2.7767751852618616
1708434574.8058202,-2.152674436569214,-1.337624878888466,-2.52919847169985,6.140373813896932,1.0222232341766357,-2.7768035570727747
1708434574.8078523,-2.152674436569214,-1.3376402717879792,-2.5292347113238733,6.140435206681051,1.02223539352417,-2.7768450419055384
1708434574.8098283,-2.1526529788970947,-1.3376326721957703,-2.5292556921588343,6.140381085663595,1.022263526916504,-2.776810948048727
1708434574.8118267,-2.15267014503479,-1.3376369935325165,-2.5292630831347864,6.1403857348258875,1.022247314453125,-2.77675444284548
1708434574.8138313,-2.152686834335327,-1.3376370084336777,-2.5292630831347864,6.140376674919882,1.0222516059875488,-2.7767916361438196
1708434574.8158398,-2.1527116298675537,-1.337648944263794,-2.5292704741107386,6.140406477242269,1.0222232341766357,-2.776761833821432
1708434574.8178263,-2.152661085128784,-1.3376577657512208,-2.5292823950396937,6.140448558121481,1.0222318172454834,-2.776794497166769
1708434574.8198407,-2.152735471725464,-1.3376370084336777,-2.5292778650866907,6.140406477242269,1.0222156047821045,-2.776799027119772
1708434574.8218288,-2.152700424194336,-1.3376577210477372,-2.529320303593771,6.140411007195272,1.02223539352417,-2.7768331209765833
1708434574.8238678,-2.152740001678467,-1.3375834834626694,-2.5292659441577356,6.140376674919882,1.022247314453125,-2.776794497166769
1708434574.8258126,-2.152702808380127,-1.337616042499878,-2.5292869249926966,6.1404305575187585,1.0222440958023071,-2.7768450419055384
1708434574.8278272,-2.152674436569214,-1.3376414638808747,-2.5292778650866907,6.140476929932394,1.0222026109695435,-2.7768331209765833
1708434574.8298333,-2.152740001678467,-1.3376292002252121,-2.5292778650866907,6.140397536545553,1.0222398042678833,-2.7768035570727747
1708434574.8318229,-2.15269136428833,-1.3376664978316803,-2.5292614142047327,6.140381085663595,1.0222070217132568,-2.776761833821432
1708434574.8338184,-2.1526825428009033,-1.337637023334839,-2.5292239824878138,6.140439617424764,1.0222232341766357,-2.7767871061908167
1708434574.8358295,-2.152641534805298,-1.3375757348588486,-2.5292704741107386,6.140423285752096,1.0222647190093994,-2.776766363774435
1708434574.8378475,-2.15267014503479,-1.3376248639873047,-2.5292421022998255,6.140397536545553,1.0222266912460327,-2.776794497166769
1708434574.8398223,-2.152674436569214,-1.3375834685615082,-2.5292778650866907,6.140458929329672,1.02223539352417,-2.776839796696798
1708434574.8418102,-2.15267014503479,-1.337669552569725,-2.5292823950396937,6.140415537148275,1.0222275257110596,-2.776761833821432
1708434574.8438163,-2.152698278427124,-1.3376621168902894,-2.5292750040637415,6.140372144966879,1.0222440958023071,-2.776778046284811
1708434574.8458018,-2.152646064758301,-1.3376783591559906,-2.5292988459216517,6.140418755799093,1.0222516059875488,-2.7768197695361536
1708434574.8478115,-2.1527445316314697,-1.337662087087967,-2.5293291250811976,6.140411007195272,1.02223539352417,-2.776769224797384
1708434574.8498054,-2.152678966522217,-1.3375923496535798,-2.5292795340167444,6.140409815102377,1.0222547054290771,-2.7768316904651087
1708434574.8518047,-2.152678966522217,-1.3376445335200806,-2.5292614142047327,6.14039300659255,1.0222430229187012,-2.77681547800173
1708434574.8538153,-2.15269136428833,-1.3376576763442536,-2.529245201741354,6.140405285149374,1.022284746170044,-2.776827398930685
1708434574.8558283,-2.152661085128784,-1.3376414489797135,-2.5292659441577356,6.1404350874717615,1.0222547054290771,-2.7768197695361536
1708434574.8578076,-2.1526780128479004,-1.3376248639873047,-2.5292778650866907,6.140442478447714,1.022284746170044,-2.7768316904651087
1708434574.8598275,-2.152756929397583,-1.337648944263794,-2.529306713734762,6.140394556313314,1.022247314453125,-2.7767871061908167
1708434574.8618183,-2.152702808380127,-1.337637023334839,-2.5292778650866907,6.140388595848837,1.02225923538208,-2.776794497166769
1708434574.8638213,-2.152714252471924,-1.3375998002341767,-2.5292704741107386,6.140397536545553,1.022263526916504,-2.776806418095724
1708434574.8658085,-2.1526734828948975,-1.3375998002341767,-2.529315773640768,6.140402066498556,1.02225923538208,-2.776766363774435
1708434574.8678055,-2.15275239944458,-1.3376414340785523,-2.5292914549456995,6.14041422584609,1.02225923538208,-2.776806418095724
1708434574.8698175,-2.152726650238037,-1.3376203638366242,-2.529289786015646,6.140406596451559,1.0222716331481934,-2.7767825762378138
1708434574.8718476,-2.152686834335327,-1.337604136472084,-2.5292375723468226,6.140458929329672,1.0222504138946533,-2.7768197695361536
1708434574.8738194,-2.152702808380127,-1.3376577210477372,-2.5292823950396937,6.140409815102377,1.022263526916504,-2.776794497166769
1708434574.875823,-2.152695894241333,-1.3376489144614716,-2.529228750859396,6.140409695893087,1.02225923538208,-2.776810948048727
1708434574.8778443,-2.1527116298675537,-1.3376652014306565,-2.5292704741107386,6.140397536545553,1.0222504138946533,-2.776822868977682
1708434574.8799443,-2.152686834335327,-1.3376942586949845,-2.5292914549456995,6.140439617424764,1.0222878456115723,-2.776799027119772
1708434574.8818216,-2.1526575088500977,-1.337579221730568,-2.5292704741107386,6.140397536545553,1.0222792625427246,-2.7767959276782435
1708434574.8838434,-2.152714252471924,-1.337620423441269,-2.5292494932757776,6.140427696495809,1.0222997665405273,-2.7767916361438196
1708434574.8858242,-2.1526825428009033,-1.3376086515239258,-2.5292449633227747,6.140376674919882,1.0222835540771484,-2.776794497166769
1708434574.8878334,-2.152702808380127,-1.337648869757988,-2.5292943159686487,6.140418755799093,1.0222792625427246,-2.7768316904651087
1708434574.889824,-2.152700424194336,-1.3376620721868058,-2.5292914549456995,6.140426146775045,1.0222878456115723,-2.7767825762378138
1708434574.8918645,-2.1526529788970947,-1.3376532656005402,-2.5292869249926966,6.140376674919882,1.0222835540771484,-2.77681547800173
1708434574.8938246,-2.152637004852295,-1.3376489591649552,-2.5292750040637415,6.140402066498556,1.0222792625427246,-2.776794497166769
1708434574.895829,-2.1527187824249268,-1.3375997704318543,-2.5292869249926966,6.1404305575187585,1.0223159790039062,-2.7767706553088587
1708434574.8978236,-2.152702808380127,-1.3376160574010392,-2.5292869249926966,6.140415417938986,1.0222954750061035,-2.776799027119772
1708434574.899828,-2.152714252471924,-1.3375997704318543,-2.5292869249926966,6.140439617424764,1.0222954750061035,-2.776806418095724
1708434574.9018276,-2.1527163982391357,-1.3376160723022004,-2.5292943159686487,6.14041422584609,1.0223116874694824,-2.776794497166769
1708434574.9038296,-2.1527230739593506,-1.3375878942063828,-2.5292869249926966,6.1404305575187585,1.0222923755645752,-2.776810948048727
1708434574.90582,-2.15267014503479,-1.3376739782145997,-2.5292614142047327,6.140399086266317,1.022308588027954,-2.7768035570727747
1708434574.9078271,-2.1527230739593506,-1.3376414787820359,-2.5292778650866907,6.140402066498556,1.0222878456115723,-2.776799027119772
1708434574.9098191,-2.1527276039123535,-1.3376621317914505,-2.529289786015646,6.140406477242269,1.0223116874694824,-2.776794497166769
1708434574.9118412,-2.15270733833313,-1.337641419177391,-2.5292778650866907,6.140373813896932,1.0222749710083008,-2.77677828470339
1708434574.9138024,-2.1527276039123535,-1.3375669729760666,-2.5292988459216517,6.140423285752096,1.0222630500793457,-2.776822868977682
1708434574.9158163,-2.152695894241333,-1.3376943630031128,-2.5292614142047327,6.1403812048728845,1.0222954750061035,-2.776810948048727
1708434574.9178264,-2.15267014503479,-1.3376414638808747,-2.529327694569723,6.140373813896932,1.0223073959350586,-2.776799027119772
1708434574.919804,-2.15270733833313,-1.3375998151353379,-2.5292614142047327,6.140390145569601,1.0222911834716797,-2.776768986378805
1708434574.921804,-2.152698278427124,-1.337608591919281,-2.529320303593771,6.140411007195272,1.0222867727279663,-2.776839796696798
1708434574.9238229,-2.152735471725464,-1.3376621317914505,-2.529327694569723,6.140406596451559,1.0222997665405273,-2.7768035570727747
1708434574.9258232,-2.15267014503479,-1.3376652163318177,-2.5292914549456995,6.14039300659255,1.0223073959350586,-2.776781145726339
1708434574.9278336,-2.152702808380127,-1.3376577657512208,-2.5292914549456995,6.140411007195272,1.0223116874694824,-2.776801888142721
1708434574.9298484,-2.152714252471924,-1.337644563322403,-2.5292943159686487,6.140423166542806,1.0223239660263062,-2.776799027119772
1708434574.9318209,-2.15267014503479,-1.3376414340785523,-2.5293076674090784,6.140435206681051,1.02232825756073,-2.77681547800173
1708434574.9338274,-2.152686834335327,-1.3376577359488984,-2.5292914549456995,6.140340673714437,1.0222986936569214,-2.7768576780902308
1708434574.9358547,-2.1527230739593506,-1.3376577508500596,-2.5292943159686487,6.140378224640646,1.022340178489685,-2.77681547800173
1708434574.9378293,-2.152702808380127,-1.3375954639962693,-2.5292585531817835,6.140357363014974,1.0222986936569214,-2.776769224797384
1708434574.9398317,-2.1526620388031006,-1.337599755530693,-2.5292823950396937,6.140382635384359,1.022340178489685,-2.776839796696798
1708434574.9418252,-2.152702808380127,-1.3376414787820359,-2.5292869249926966,6.140366303711691,1.0222911834716797,-2.776810948048727
1708434574.9438293,-2.152648448944092,-1.337637023334839,-2.5292375723468226,6.140390145569601,1.0223195552825928,-2.776827398930685
1708434574.9458365,-2.1526825428009033,-1.3376577508500596,-2.5292421022998255,6.1404199478919885,1.0223108530044556,-2.776822868977682
1708434574.9478264,-2.152695894241333,-1.3376445782235642,-2.5293079058276575,6.1403692839439294,1.0223392248153687,-2.776761833821432
1708434574.9498265,-2.1527230739593506,-1.3376403015903016,-2.5292778650866907,6.140357363014974,1.0222944021224976,-2.776794497166769
1708434574.9518154,-2.152695894241333,-1.3376664829305192,-2.5292778650866907,6.140390145569601,1.0223480463027954,-2.776757542287008
1708434574.9538739,-2.152702808380127,-1.337595449095108,-2.5292659441577356,6.1403753636176965,1.0223108530044556,-2.7768316904651087
1708434574.955836,-2.1526248455047607,-1.3376292449286957,-2.5292375723468226,6.140378224640646,1.0223883390426636,-2.776822868977682
1708434574.9578495,-2.15270733833313,-1.3376054924777527,-2.529245201741354,6.140411007195272,1.0223721265792847,-2.776813809071676
1708434574.959844,-2.15270733833313,-1.337624878888466,-2.529332224522726,6.140373813896932,1.0223227739334106,-2.776810948048727
1708434574.961815,-2.1526529788970947,-1.3375749450973053,-2.529245201741354,6.140387284546652,1.0223839282989502,-2.776801888142721
1708434574.9638548,-2.1526575088500977,-1.3376458150199433,-2.5293033758746546,6.14037977436141,1.0223480463027954,-2.77681547800173
1708434574.9658132,-2.1527163982391357,-1.3376129430583497,-2.5292914549456995,6.140361773758688,1.0223677158355713,-2.776809279118673
1708434574.9678502,-2.1527116298675537,-1.337645800118782,-2.5292540232287806,6.140399086266317,1.0223883390426636,-2.776872698460714
1708434574.9698098,-2.15267014503479,-1.3376783591559906,-2.5292869249926966,6.140349614411154,1.0223349332809448,-2.776773754750387
1708434574.9718049,-2.1527163982391357,-1.3376326274922867,-2.5293124357806605,6.140345084458151,1.0223677158355713,-2.776790205632345
1708434574.9738352,-2.152665615081787,-1.3376695972732087,-2.529289786015646,6.140345084458151,1.0223808288574219,-2.776799027119772
1708434574.9758132,-2.1526551246643066,-1.337620423441269,-2.5292659441577356,6.140412556916036,1.0223883390426636,-2.776810948048727
1708434574.9778535,-2.152704954147339,-1.3376204085401078,-2.5292659441577356,6.140304672508993,1.022359848022461,-2.7768316904651087
1708434574.9798224,-2.152641534805298,-1.337604136472084,-2.5292659441577356,6.140334832459249,1.0223721265792847,-2.776785437260763
1708434574.9818285,-2.1526291370391846,-1.3376326721957703,-2.5292614142047327,6.140309083252706,1.0223511457443237,-2.776794497166769
1708434574.9838254,-2.152678966522217,-1.337629259829857,-2.5292943159686487,6.140325891762533,1.0223634243011475,-2.776790205632345
1708434574.9858127,-2.1526665687561035,-1.3376855564168473,-2.5292988459216517,6.140342223435201,1.0223796367645264,-2.776822868977682
1708434574.9878445,-2.152678966522217,-1.3376577508500596,-2.529311243687765,6.140360224037924,1.0223796367645264,-2.776839796696798
1708434574.989814,-2.1526551246643066,-1.3376326125911255,-2.529268805180685,6.140313613205709,1.0223634243011475,-2.776790205632345
1708434574.9918275,-2.152646064758301,-1.3376664829305192,-2.5292704741107386,6.140325891762533,1.0223349332809448,-2.776844326649801
1708434574.9938083,-2.1526551246643066,-1.3376652312329789,-2.5292778650866907,6.14030014255599,1.0223796367645264,-2.7768035570727747
1708434574.995841,-2.1526596546173096,-1.337641493683197,-2.5292943159686487,6.140349614411154,1.0223468542099,-2.776848856602804
1708434574.997835,-2.1526665687561035,-1.3376380664161225,-2.5292943159686487,6.140400755196371,1.0223839282989502,-2.7768078486071985
1708434574.9998305,-2.1526596546173096,-1.337574840789177,-2.5292778650866907,6.1403225539024255,1.0223796367645264,-2.7768197695361536
1708434575.0018015,-2.1526925563812256,-1.3376172941974183,-2.5292659441577356,6.140289890557089,1.0223634243011475,-2.776801888142721
1708434575.0038378,-2.1526551246643066,-1.3376326572946091,-2.5292943159686487,6.140334832459249,1.022404670715332,-2.776822868977682
1708434575.005852,-2.1526665687561035,-1.3375954639962693,-2.5292823950396937,6.140294301300802,1.0224045515060425,-2.776794497166769
1708434575.0078595,-2.1526427268981934,-1.3375923496535798,-2.5292988459216517,6.14022837856368,1.0224077701568604,-2.776844326649801
1708434575.0098186,-2.1526427268981934,-1.3376369786313553,-2.529315773640768,6.140282380371847,1.0224077701568604,-2.776806418095724
1708434575.0118134,-2.1526010036468506,-1.3376652312329789,-2.5292704741107386,6.140303361206808,1.022355556488037,-2.7768078486071985
1708434575.0138037,-2.1526215076446533,-1.3375712794116517,-2.529289786015646,6.1402402994926355,1.022400140762329,-2.776764694844381
1708434575.0158138,-2.1526381969451904,-1.3376739782145997,-2.529306713734762,6.140212046891012,1.0223839282989502,-2.776794497166769
1708434575.017831,-2.1526381969451904,-1.3376160574010392,-2.529327694569723,6.140267240792074,1.0223753452301025,-2.776806418095724
1708434575.0198185,-2.1526472568511963,-1.3376414638808747,-2.529273335133688,6.140241968422689,1.0223677158355713,-2.776810948048727
1708434575.0218146,-2.152625799179077,-1.337637038236,-2.5292988459216517,6.140282380371847,1.0224045515060425,-2.776794497166769
1708434575.023833,-2.1526100635528564,-1.3376160275987168,-2.5292778650866907,6.140204298287191,1.0224077701568604,-2.776848856602804
1708434575.0258186,-2.1525940895080566,-1.3375912022641678,-2.5292614142047327,6.1402509091194055,1.0223796367645264,-2.776799027119772
1708434575.0278244,-2.1526596546173096,-1.3376943630031128,-2.5292943159686487,6.140288221627035,1.0223915576934814,-2.776806418095724
1708434575.0298493,-2.1526055335998535,-1.3376292300275345,-2.529247824345724,6.140225517540731,1.0223710536956787,-2.7767825762378138
1708434575.0318346,-2.1526100635528564,-1.3376695972732087,-2.529252354298727,6.140250789910116,1.0223753452301025,-2.776813809071676
1708434575.033822,-2.152634859085083,-1.3376608800939103,-2.5292869249926966,6.1402132389839075,1.0223839282989502,-2.776790205632345
1708434575.0358398,-2.1526336669921875,-1.3375800561955948,-2.5292823950396937,6.140292632370748,1.0223753452301025,-2.776799027119772
1708434575.0378208,-2.15263032913208,-1.337611661558487,-2.5292869249926966,6.140250789910116,1.0223666429519653,-2.7768197695361536
1708434575.039826,-2.1526639461517334,-1.3376501512578507,-2.529306713734762,6.14023898819045,1.0223915576934814,-2.77681547800173
1708434575.0418148,-2.15265154838562,-1.3376292300275345,-2.5292704741107386,6.140241968422689,1.0224120616912842,-2.776794497166769
1708434575.0438235,-2.1526143550872803,-1.3376085770181199,-2.529332224522726,6.140201318054952,1.0223958492279053,-2.7767825762378138
1708434575.0458183,-2.152639150619507,-1.3376695674708863,-2.5292823950396937,6.14023123958663,1.0223677158355713,-2.776790205632345
1708434575.047865,-2.152660608291626,-1.3376621317914505,-2.5292869249926966,6.14019404628829,1.0224164724349976,-2.7768738905536097
1708434575.0498395,-2.1525895595550537,-1.3376282912543793,-2.5292659441577356,6.140267240792074,1.0223796367645264,-2.776781145726339
1708434575.0518548,-2.1525940895080566,-1.3376160723022004,-2.5292943159686487,6.140156376152792,1.0223958492279053,-2.7768242994891565
1708434575.0538626,-2.1526100635528564,-1.3376664233258744,-2.529327694569723,6.140226709633627,1.0223753452301025,-2.776806418095724
1708434575.0558136,-2.152595043182373,-1.3376502406648179,-2.529285256062643,6.140198457032003,1.0223958492279053,-2.776806418095724
1708434575.0578234,-2.1526143550872803,-1.337604121570923,-2.5292988459216517,6.140248048096456,1.0223915576934814,-2.7768197695361536
1708434575.0598204,-2.1525816917419434,-1.3376708787730713,-2.529327694569723,6.140186536103048,1.022359013557434,-2.776799027119772
1708434575.061811,-2.152684450149536,-1.3376129281571885,-2.5292943159686487,6.140222298889913,1.0224120616912842,-2.7768316904651087
1708434575.0638356,-2.1526436805725098,-1.3376458597234269,-2.5292943159686487,6.140201318054952,1.0224002599716187,-2.776781145726339
1708434575.0658073,-2.152660608291626,-1.3376445335200806,-2.529327694569723,6.140189516335287,1.0224120616912842,-2.776794497166769
1708434575.067822,-2.152618885040283,-1.337595449095108,-2.529289786015646,6.140243518143453,1.0223634243011475,-2.776806418095724
1708434575.069878,-2.1525940895080566,-1.3375923347524186,-2.529318634663717,6.140214907913961,1.0223915576934814,-2.7768407503711146
1708434575.0718193,-2.152634859085083,-1.3376248639873047,-2.5292823950396937,6.140226709633627,1.0223753452301025,-2.776769224797384
1708434575.0738435,-2.1525771617889404,-1.3376445484212418,-2.529344145451681,6.140201318054952,1.0223990678787231,-2.77681547800173
1708434575.0758379,-2.1525986194610596,-1.3375998151353379,-2.529285256062643,6.140214907913961,1.0223591327667236,-2.776810948048727
1708434575.0778575,-2.1525986194610596,-1.3376576763442536,-2.529240433369772,6.140189516335287,1.0223753452301025,-2.776785437260763
1708434575.079859,-2.1526100635528564,-1.337637023334839,-2.5292943159686487,6.140182125359335,1.0223915576934814,-2.7768450419055384
1708434575.08183,-2.152634859085083,-1.3376248639873047,-2.5292449633227747,6.1402238486106775,1.0223710536956787,-2.776810948048727
1708434575.0838633,-2.1525862216949463,-1.3376370084336777,-2.529302183781759,6.140198457032003,1.0223828554153442,-2.776806418095724
1708434575.085836,-2.152623414993286,-1.3376577359488984,-2.5292943159686487,6.14022837856368,1.0224120616912842,-2.776790205632345
1708434575.0878491,-2.152623414993286,-1.337611736064293,-2.529289786015646,6.14019404628829,1.0223753452301025,-2.776835266743795
1708434575.0898297,-2.1525986194610596,-1.3376041513732453,-2.529273335133688,6.140177595406332,1.0223677158355713,-2.776806418095724
1708434575.0918128,-2.152616262435913,-1.3376248937896271,-2.529285256062643,6.140144455223837,1.022420048713684,-2.776801888142721
1708434575.0938141,-2.1525986194610596,-1.3376665127328415,-2.5292943159686487,6.140228259354391,1.0223721265792847,-2.7768362204181116
1708434575.0958543,-2.152639150619507,-1.3376335811666031,-2.5292988459216517,6.140174376755514,1.0223958492279053,-2.776860777531759
1708434575.0978363,-2.15263032913208,-1.337637023334839,-2.529252354298727,6.140178906708517,1.0224034786224365,-2.776810948048727
1708434575.0998242,-2.15259051322937,-1.3376445484212418,-2.5292823950396937,6.1400877116020105,1.0223915576934814,-2.776766363774435
1708434575.1018217,-2.152623414993286,-1.3376414489797135,-2.5292943159686487,6.1401370642478845,1.0224121809005737,-2.776822868977682
1708434575.103871,-2.152632236480713,-1.3376283061555405,-2.529320303593771,6.140191066056051,1.0223872661590576,-2.7767916361438196
1708434575.105834,-2.1525826454162598,-1.337653250699379,-2.5292614142047327,6.140211927681722,1.0223872661590576,-2.776801888142721
1708434575.107863,-2.15259051322937,-1.3376292300275345,-2.529315773640768,6.1401370642478845,1.0224121809005737,-2.776778046284811
1708434575.1098247,-2.15259051322937,-1.3376129579595109,-2.529332224522726,6.140192377358236,1.0223591327667236,-2.776794497166769
1708434575.1118333,-2.1526029109954834,-1.3376533103040238,-2.52925688425173,6.14023123958663,1.0223634243011475,-2.776785437260763
1708434575.113825,-2.15256929397583,-1.3376129430583497,-2.529320303593771,6.14013837555007,1.0224164724349976,-2.77677828470339
1708434575.1158204,-2.152599573135376,-1.3376248639873047,-2.52925688425173,6.14018331745223,1.0223796367645264,-2.776818339024679
1708434575.1178591,-2.152623414993286,-1.3376533103040238,-2.529306713734762,6.140120255738058,1.0223796367645264,-2.776822868977682
1708434575.119833,-2.152557611465454,-1.337587834601738,-2.529320303593771,6.140195596009054,1.0223634243011475,-2.776844326649801
1708434575.1218157,-2.15256929397583,-1.3375954043916245,-2.5292869249926966,6.140133845597067,1.0223958492279053,-2.776785437260763
1708434575.1238656,-2.152595043182373,-1.3376489591649552,-2.5292988459216517,6.1401415942008875,1.0223710536956787,-2.776773754750387
1708434575.1258087,-2.152616262435913,-1.3376414489797135,-2.5292943159686487,6.14012490490035,1.022359013557434,-2.776827398930685
1708434575.127849,-2.152618885040283,-1.3376369935325165,-2.529264275227682,6.140166866570272,1.022359013557434,-2.776766363774435
1708434575.1298072,-2.152578115463257,-1.3376085770181199,-2.529273335133688,6.140103924065389,1.0223839282989502,-2.776806418095724
1708434575.1318212,-2.1526074409484863,-1.3376489293626328,-2.52928072610964,6.140150534897604,1.0223958492279053,-2.776764694844381
1708434575.1338603,-2.152616262435913,-1.337678314452507,-2.529311243687765,6.140155064850607,1.0223753452301025,-2.776810948048727
1708434575.135843,-2.152595043182373,-1.33760421097789,-2.5292943159686487,6.140150534897604,1.0223796367645264,-2.776827398930685
1708434575.1378424,-2.152616262435913,-1.337620423441269,-2.529327694569723,6.140133845597067,1.0223883390426636,-2.77677828470339
1708434575.1398485,-2.152616262435913,-1.3376445782235642,-2.5292943159686487,6.140192377358236,1.022355556488037,-2.77677828470339
1708434575.141808,-2.152557611465454,-1.337637023334839,-2.529285256062643,6.140130984574117,1.0223547220230103,-2.7768035570727747
1708434575.143844,-2.152623414993286,-1.3375923049500962,-2.5292823950396937,6.140207516938009,1.0223547220230103,-2.776790205632345
1708434575.1458137,-2.1526436805725098,-1.337629185324051,-2.529327694569723,6.1401429055030725,1.0223872661590576,-2.776766363774435
1708434575.1478212,-2.152623414993286,-1.3376826804927369,-2.5292614142047327,6.140129315644064,1.0223753452301025,-2.776806418095724
1708434575.1498466,-2.152637004852295,-1.3376292151263733,-2.529289786015646,6.140122043877401,1.0223305225372314,-2.776799027119772
1708434575.1518147,-2.15259051322937,-1.3376172494939347,-2.5292704741107386,6.1401967881019495,1.0223958492279053,-2.7768080870257776
1708434575.1538405,-2.15259051322937,-1.3376577359488984,-2.5292959848987024,6.140187847405233,1.0223548412322998,-2.7767751852618616
1708434575.1558435,-2.152595043182373,-1.3376283061555405,-2.529311243687765,6.14014612415389,1.0223839282989502,-2.776790205632345
1708434575.157827,-2.152595043182373,-1.337648944263794,-2.52928072610964,6.140120374947347,1.0223634243011475,-2.7768316904651087
1708434575.1598275,-2.152623414993286,-1.337617279296257,-2.529273335133688,6.140175926476278,1.0224207639694214,-2.776810948048727
1708434575.161809,-2.152599573135376,-1.3376445484212418,-2.529306713734762,6.140142786293783,1.0223958492279053,-2.776799027119772
1708434575.163829,-2.1526029109954834,-1.3376414638808747,-2.529285256062643,6.1401415942008875,1.0223634243011475,-2.776761833821432
1708434575.1658537,-2.152573823928833,-1.3376620721868058,-2.529311243687765,6.140129315644064,1.0223634243011475,-2.776810948048727
1708434575.1678128,-2.1525826454162598,-1.3376326870969315,-2.52932316461672,6.1401429055030725,1.0223753452301025,-2.776794497166769
1708434575.1698527,-2.152557611465454,-1.3376533103040238,-2.5293033758746546,6.140112983971395,1.0223591327667236,-2.7768035570727747
1708434575.1718202,-2.1526074409484863,-1.3376129430583497,-2.529289786015646,6.140117394715109,1.0223677158355713,-2.776761833821432
1708434575.1738093,-2.1526527404785156,-1.3376239997199555,-2.5293033758746546,6.140147316246786,1.0223915576934814,-2.77681547800173
1708434575.1758378,-2.15259051322937,-1.3376160275987168,-2.529332224522726,6.140166985779562,1.0223764181137085,-2.776799027119772
1708434575.1778352,-2.1525862216949463,-1.3376336109689255,-2.5292943159686487,6.140187847405233,1.0223262310028076,-2.7768197695361536
1708434575.1798613,-2.1526074409484863,-1.3376546514085312,-2.529306713734762,6.140178787499227,1.0223468542099,-2.7768181006061
1708434575.1819303,-2.152599573135376,-1.3376160574010392,-2.5292823950396937,6.140162455826559,1.0223393440246582,-2.776799027119772
1708434575.1838777,-2.1526119709014893,-1.3376040917686005,-2.529268805180685,6.140146004944601,1.0223958492279053,-2.77677828470339
1708434575.1858556,-2.152616262435913,-1.3376248490861435,-2.529297653828756,6.1401415942008875,1.0223958492279053,-2.776773754750387
1708434575.1878128,-2.152573823928833,-1.3375911277583619,-2.529311243687765,6.140171396523275,1.0223677158355713,-2.776761833821432
1708434575.1898155,-2.1526436805725098,-1.337629185324051,-2.529311243687765,6.140096533089437,1.0223677158355713,-2.776794497166769
1708434575.191884,-2.15262770652771,-1.3376855564168473,-2.529302183781759,6.140171396523275,1.0223591327667236,-2.776799027119772
1708434575.1938107,-2.1526029109954834,-1.3376577508500596,-2.529268805180685,6.14013837555007,1.0223753452301025,-2.776794497166769
1708434575.1958227,-2.1526119709014893,-1.3376160574010392,-2.5292869249926966,6.140092122345724,1.0223677158355713,-2.77681547800173
1708434575.1978083,-2.1526100635528564,-1.3376116764596482,-2.5292823950396937,6.14018331745223,1.0223721265792847,-2.7768197695361536
1708434575.1998293,-2.152560234069824,-1.3375954639962693,-2.5292614142047327,6.140122043877401,1.0223796367645264,-2.776801888142721
1708434575.2018359,-2.15259051322937,-1.3376415085843583,-2.529285256062643,6.14018331745223,1.022355556488037,-2.776794497166769
1708434575.203821,-2.15262770652771,-1.3376621168902894,-2.529335085545675,6.140117394715109,1.0223721265792847,-2.7767871061908167
1708434575.2058222,-2.152621030807495,-1.3376203936389466,-2.5292988459216517,6.140171515732565,1.022392749786377,-2.7767871061908167
1708434575.2078059,-2.15259051322937,-1.337608591919281,-2.529273335133688,6.14018331745223,1.022359013557434,-2.776806418095724
1708434575.209807,-2.152585983276367,-1.337632642393448,-2.5292823950396937,6.140155064850607,1.0224164724349976,-2.7767916361438196
1708434575.211846,-2.15262770652771,-1.3376977008632203,-2.529289786015646,6.140153395920553,1.0223381519317627,-2.7768197695361536
1708434575.2138295,-2.152623414993286,-1.3376041513732453,-2.529327694569723,6.140147316246786,1.0223349332809448,-2.77681547800173
1708434575.215851,-2.152571201324463,-1.3376160574010392,-2.529311243687765,6.14013837555007,1.0223883390426636,-2.7768078486071985
1708434575.2178502,-2.1526119709014893,-1.3376009923270722,-2.529336754475729,6.140084612160482,1.0223796367645264,-2.776761833821432
1708434575.2198095,-2.1526119709014893,-1.3376783293536683,-2.5292943159686487,6.1401415942008875,1.0223796367645264,-2.7767751852618616
1708434575.2218096,-2.1525862216949463,-1.337662161593773,-2.529285256062643,6.1401415942008875,1.0223183631896973,-2.7767916361438196
1708434575.2238245,-2.15259051322937,-1.3376248490861435,-2.5292988459216517,6.140133845597067,1.0223839282989502,-2.7767916361438196
1708434575.2258008,-2.1526074409484863,-1.3376117211631318,-2.529336754475729,6.14012490490035,1.0223634243011475,-2.7767916361438196
1708434575.2278123,-2.15262770652771,-1.3376116913608094,-2.529327694569723,6.1401415942008875,1.0223839282989502,-2.776794497166769
1708434575.2298038,-2.152660608291626,-1.3376621317914505,-2.529289786015646,6.140155064850607,1.0223349332809448,-2.776794497166769
1708434575.2318342,-2.152595043182373,-1.3375757348588486,-2.529311243687765,6.14018331745223,1.0223677158355713,-2.776733462010519
1708434575.233818,-2.15259051322937,-1.3376085472157975,-2.529285256062643,6.140153395920553,1.0223721265792847,-2.7767825762378138
1708434575.235793,-2.1526119709014893,-1.3376248341849823,-2.529315773640768,6.14018331745223,1.0224132537841797,-2.7768197695361536
1708434575.23779,-2.152621030807495,-1.3376085770181199,-2.529268805180685,6.140166866570272,1.0223796367645264,-2.7768035570727747
1708434575.239802,-2.1525862216949463,-1.3376545471004029,-2.529302183781759,6.140175926476278,1.0223796367645264,-2.77675444284548
1708434575.2418196,-2.152578115463257,-1.337674008016922,-2.5292869249926966,6.140110122948446,1.0223591327667236,-2.7768331209765833
1708434575.2438328,-2.152599573135376,-1.3376370531371613,-2.529327694569723,6.14018331745223,1.0223764181137085,-2.7768078486071985
1708434575.2458284,-2.152578115463257,-1.3376532954028626,-2.529336754475729,6.140151846199789,1.0223677158355713,-2.7768095175372522
1708434575.2477958,-2.15256667137146,-1.3376827848008652,-2.5293033758746546,6.140155064850607,1.0223883390426636,-2.7768078486071985
1708434575.2498155,-2.152573823928833,-1.337626041179039,-2.529320303593771,6.140105592995443,1.0224251747131348,-2.7768004576312464
1708434575.2517974,-2.152573823928833,-1.3375757199576874,-2.5292869249926966,6.140112983971395,1.0223591327667236,-2.7767797152148646
1708434575.253841,-2.152553081512451,-1.3376327019980927,-2.5292914549456995,6.140147316246786,1.0223467350006104,-2.7767677942859095
1708434575.2558289,-2.15262770652771,-1.3376533401063462,-2.5293033758746546,6.1401429055030725,1.0223227739334106,-2.7767632643329065
1708434575.257837,-2.152545213699341,-1.3376784336617966,-2.5292614142047327,6.140098202019491,1.0223468542099,-2.7767344156848353
1708434575.259904,-2.1526119709014893,-1.3376414638808747,-2.529320303593771,6.140108454018392,1.022342562675476,-2.7767797152148646
1708434575.2618098,-2.152599573135376,-1.337662161593773,-2.529332224522726,6.14014612415389,1.0223677158355713,-2.7767587343799036
1708434575.2638257,-2.1526029109954834,-1.3376283210567017,-2.52932316461672,6.140135395317831,1.022359013557434,-2.7767959276782435
1708434575.2658281,-2.1525917053222656,-1.337629185324051,-2.529311243687765,6.140173065453329,1.0223796367645264,-2.7767842451678675
1708434575.2677987,-2.15259051322937,-1.3376620721868058,-2.529315773640768,6.140098082810201,1.0223721265792847,-2.7767632643329065
1708434575.2698371,-2.152557611465454,-1.337653325205185,-2.529330555592672,6.140105592995443,1.0223677158355713,-2.7767558733569544
1708434575.2718263,-2.152595043182373,-1.337637023334839,-2.529285256062643,6.140047061234274,1.0223634243011475,-2.776691977177755
1708434575.2737927,-2.1525862216949463,-1.3376129132560273,-2.529327694569723,6.140151726990499,1.0223677158355713,-2.7767677942859095
1708434575.2758138,-2.152545213699341,-1.3376085770181199,-2.5292943159686487,6.140089261322775,1.0223349332809448,-2.7767677942859095
1708434575.2778163,-2.1526119709014893,-1.3376326572946091,-2.529264275227682,6.140130984574117,1.022355556488037,-2.7767344156848353
1708434575.279892,-2.152599573135376,-1.3376292002252121,-2.5293033758746546,6.140105592995443,1.022400140762329,-2.7767558733569544
1708434575.281827,-2.152599573135376,-1.337674008016922,-2.529332224522726,6.140123593598165,1.0223511457443237,-2.7767768541919153
1708434575.283826,-2.152571201324463,-1.3376458150199433,-2.529315773640768,6.140118944435873,1.0223721265792847,-2.7767468134509485
1708434575.2858076,-2.1525542736053467,-1.3376117211631318,-2.529268805180685,6.140076982765951,1.0223634243011475,-2.776743475590841
1708434575.2878358,-2.152608633041382,-1.3376041513732453,-2.52925688425173,6.140060531883993,1.0223511457443237,-2.7767649332629603
1708434575.2898088,-2.1525917053222656,-1.337608591919281,-2.5292943159686487,6.1401100037391565,1.022330641746521,-2.776696507130758
1708434575.2918303,-2.1525542736053467,-1.337648944263794,-2.529252354298727,6.140151726990499,1.0223883390426636,-2.776701037083761
1708434575.2938163,-2.1525542736053467,-1.3376326870969315,-2.5292988459216517,6.14011167266921,1.0223677158355713,-2.77672249475588
1708434575.2958279,-2.152557611465454,-1.3376414638808747,-2.529273335133688,6.140135276108541,1.0223796367645264,-2.776727024708883
1708434575.2978582,-2.152562141418457,-1.337591217165329,-2.5292778650866907,6.14011167266921,1.0223511457443237,-2.7767027060138147
1708434575.2998116,-2.152608633041382,-1.337624044423439,-2.529302183781759,6.140102612763204,1.022392749786377,-2.7767604033099573
1708434575.3017998,-2.152604103088379,-1.337687150841095,-2.5292778650866907,6.14014886596755,1.0223547220230103,-2.77672249475588
1708434575.3038716,-2.15256667137146,-1.3376248639873047,-2.529289786015646,6.140078532486715,1.0223634243011475,-2.7767768541919153
1708434575.3058202,-2.1525917053222656,-1.3376292300275345,-2.529311243687765,6.140093672066488,1.0223839282989502,-2.776681963597433
1708434575.3078794,-2.1525375843048096,-1.3376282763532181,-2.5292943159686487,6.140128004341879,1.0223511457443237,-2.7767651716815394
1708434575.3098292,-2.1525721549987793,-1.3376621317914505,-2.5292823950396937,6.140069472580709,1.0223591327667236,-2.7766578833209437
1708434575.3118243,-2.15250563621521,-1.3376160723022004,-2.529315773640768,6.1400993941123865,1.0223634243011475,-2.7766907850848597
1708434575.313836,-2.152575731277466,-1.3375791770270844,-2.5293076674090784,6.140107142716207,1.0223839282989502,-2.7766953150378626
1708434575.3158133,-2.1525304317474365,-1.3376009923270722,-2.529339615498678,6.140036690026083,1.0223753452301025,-2.7766669432269495
1708434575.3178215,-2.152571201324463,-1.3376117211631318,-2.529289786015646,6.140062200814047,1.0223511457443237,-2.7766462008105677
1708434575.3198292,-2.1525588035583496,-1.337592290048935,-2.52928072610964,6.140057670861044,1.0223883390426636,-2.7766788641559046
1708434575.321821,-2.1525633335113525,-1.3376248639873047,-2.529306713734762,6.14000819900588,1.0224045515060425,-2.7766996065722864
1708434575.3238323,-2.1525721549987793,-1.3376248639873047,-2.529285256062643,6.140075671463766,1.0223677158355713,-2.7766202131854456
1708434575.3258212,-2.1525721549987793,-1.3376129430583497,-2.52932316461672,6.140053140908041,1.022376537322998,-2.776670042668478
1708434575.327832,-2.1525464057922363,-1.3376620423844834,-2.5293248335467737,6.1401206133659265,1.0223883390426636,-2.7766669432269495
1708434575.3298082,-2.152571201324463,-1.3376292300275345,-2.529336754475729,6.140020000725546,1.0224045515060425,-2.7766624132739466
1708434575.3318486,-2.1525189876556396,-1.3376283210567017,-2.529306713734762,6.140075671463766,1.0223677158355713,-2.7766416708575647
1708434575.3338091,-2.1525349617004395,-1.337574840789177,-2.529252354298727,6.14006661155776,1.0223599672317505,-2.7767027060138147
1708434575.3358297,-2.152510166168213,-1.3376577210477372,-2.5292943159686487,6.140059220581808,1.022342562675476,-2.7766788641559046
1708434575.3378701,-2.1525509357452393,-1.3376248639873047,-2.529268805180685,6.140075671463766,1.022342562675476,-2.7766879240619105
1708434575.339852,-2.1525464057922363,-1.3376292300275345,-2.5292988459216517,6.140014278679647,1.0223591327667236,-2.7766202131854456
1708434575.3418021,-2.1525933742523193,-1.3376041662744065,-2.529344145451681,6.140075671463766,1.022400140762329,-2.7766876856433313
1708434575.3438046,-2.1525261402130127,-1.3376240593246003,-2.5293248335467737,6.140017139702596,1.0223839282989502,-2.7766788641559046
1708434575.3458245,-2.1525766849517822,-1.3376533103040238,-2.529273335133688,6.139955746918478,1.0223511457443237,-2.7766669432269495
1708434575.3478048,-2.1525349617004395,-1.3376621317914505,-2.5292614142047327,6.140009748726644,1.0223839282989502,-2.7767236868487757
1708434575.3498564,-2.1525676250457764,-1.337612972860672,-2.529289786015646,6.139964687615194,1.0223511457443237,-2.7766996065722864
1708434575.3518062,-2.1525766849517822,-1.3376501959613343,-2.529273335133688,6.140035140305319,1.0224045515060425,-2.7766924540149134
1708434575.353795,-2.1525020599365234,-1.3376664382270356,-2.529252354298727,6.1400112984474084,1.022342562675476,-2.7766788641559046
1708434575.3558538,-2.1525349617004395,-1.3376292300275345,-2.529289786015646,6.13998709896163,1.022330641746521,-2.7766624132739466
1708434575.357803,-2.1525280475616455,-1.337604121570923,-2.5292988459216517,6.139970767288961,1.022359848022461,-2.77665359178652
1708434575.3597956,-2.1525065898895264,-1.337648944263794,-2.529311243687765,6.139942157059469,1.0223677158355713,-2.7766624132739466
1708434575.361828,-2.1525280475616455,-1.3376414638808747,-2.5292988459216517,6.139897215157308,1.0223796367645264,-2.7766624132739466
1708434575.3638115,-2.1524977684020996,-1.3376292300275345,-2.5292988459216517,6.139925706177511,1.0223796367645264,-2.776681725178854
1708434575.3658216,-2.1524977684020996,-1.3376010221293946,-2.529327694569723,6.139975178032675,1.0223839282989502,-2.7766550222979944
1708434575.3677955,-2.1525721549987793,-1.337620423441269,-2.529289786015646,6.139951097756185,1.0223634243011475,-2.7766788641559046
1708434575.3697915,-2.152543783187866,-1.337641493683197,-2.529327694569723,6.139972317009725,1.0223796367645264,-2.7766669432269495
1708434575.3718047,-2.1525189876556396,-1.3376501214555283,-2.52928072610964,6.139918434410848,1.0223591327667236,-2.7766788641559046
1708434575.3738167,-2.1525189876556396,-1.3376282912543793,-2.5292943159686487,6.139901745110311,1.0223677158355713,-2.7766788641559046
1708434575.3758428,-2.1525280475616455,-1.3376041513732453,-2.529314104710714,6.139922845154562,1.022330641746521,-2.7766953150378626
1708434575.37783,-2.1525235176086426,-1.3376546514085312,-2.5293248335467737,6.140014159470358,1.0223511457443237,-2.7766624132739466
1708434575.3799088,-2.1525235176086426,-1.3376248490861435,-2.529344145451681,6.139925706177511,1.022400140762329,-2.7766714731799524
1708434575.3819335,-2.1525304317474365,-1.3375923198512574,-2.529306713734762,6.139864313393392,1.0223827362060547,-2.7766669432269495
1708434575.3838718,-2.1525394916534424,-1.337653250699379,-2.529327694569723,6.13989423492507,1.0223721265792847,-2.7766624132739466
1708434575.3858066,-2.1525235176086426,-1.3376085770181199,-2.5292778650866907,6.139930236130514,1.0223883390426636,-2.7766996065722864
1708434575.3877962,-2.152510166168213,-1.3376335513642807,-2.529327694569723,6.139925706177511,1.0224120616912842,-2.7766624132739466
1708434575.3898158,-2.1525394916534424,-1.337604121570923,-2.52932316461672,6.139906155854025,1.0223796367645264,-2.7766953150378626
1708434575.3918135,-2.1525371074676514,-1.3376129430583497,-2.529285256062643,6.139955627709188,1.0223883390426636,-2.7766876856433313
1708434575.3938053,-2.152555227279663,-1.3375801158002396,-2.5292943159686487,6.139897215157308,1.0224330425262451,-2.7766907850848597
1708434575.395817,-2.1525280475616455,-1.3376489144614716,-2.5292778650866907,6.139922845154562,1.0224077701568604,-2.7766171137439173
1708434575.3978124,-2.1525235176086426,-1.3376695674708863,-2.5292943159686487,6.139901625901022,1.0223958492279053,-2.7766833941089075
1708434575.3998177,-2.1525394916534424,-1.3376172941974183,-2.529289786015646,6.139922845154562,1.0223796367645264,-2.77662164369692
1708434575.4018135,-2.1524808406829834,-1.3376217496446152,-2.5292659441577356,6.139906155854025,1.022400140762329,-2.7767089048968714
1708434575.4038277,-2.152553081512451,-1.3376041513732453,-2.52932316461672,6.139918434410848,1.0223828554153442,-2.7766462008105677
1708434575.4058158,-2.152435541152954,-1.3376292002252121,-2.5292614142047327,6.139906155854025,1.0223839282989502,-2.7766624132739466
1708434575.4078276,-2.1525111198425293,-1.3376141649535676,-2.529289786015646,6.139930236130514,1.0223677158355713,-2.7766416708575647
1708434575.4098191,-2.152557373046875,-1.3376160872033616,-2.529356066380636,6.139943825989523,1.0223796367645264,-2.7766550222979944
1708434575.4118125,-2.152543783187866,-1.3376172941974183,-2.529285256062643,6.139906155854025,1.0223796367645264,-2.7766459623919886
1708434575.413823,-2.152487277984619,-1.337621734743454,-2.529311243687765,6.1399690983589075,1.0223753452301025,-2.7766462008105677
1708434575.415824,-2.1525156497955322,-1.337566853766777,-2.529327694569723,6.139918315201559,1.0223511457443237,-2.7766669432269495
1708434575.4178472,-2.152494192123413,-1.337645874624588,-2.5292943159686487,6.139948236733236,1.022400140762329,-2.7766669432269495
1708434575.4198341,-2.1525189876556396,-1.337657780652382,-2.529268805180685,6.1399152157600305,1.0223915576934814,-2.7766550222979944
1708434575.4218285,-2.152548313140869,-1.3376054626754303,-2.529327694569723,6.139910685807028,1.0223753452301025,-2.7766714731799524
1708434575.42385,-2.1525280475616455,-1.3376664531281968,-2.529302183781759,6.1399093745048425,1.0224164724349976,-2.7766290346728724
1708434575.425819,-2.1525323390960693,-1.3376097542098542,-2.529306713734762,6.139918434410848,1.0224077701568604,-2.7766550222979944
1708434575.4278042,-2.152548313140869,-1.3376292151263733,-2.529311243687765,6.139960157662191,1.022359013557434,-2.776642624531881
1708434575.4298017,-2.1525235176086426,-1.337587834601738,-2.5292988459216517,6.1399139044578455,1.0223753452301025,-2.7766760031329554
1708434575.4318063,-2.1525323390960693,-1.3375835132649918,-2.5292778650866907,6.139910685807028,1.0223872661590576,-2.7766335646258753
1708434575.433805,-2.1525111198425293,-1.3376129132560273,-2.529327694569723,6.139952766686239,1.0223634243011475,-2.7766597906695765
1708434575.4358077,-2.1525394916534424,-1.337571309213974,-2.529318634663717,6.139922845154562,1.0224077701568604,-2.7766171137439173
1708434575.437834,-2.1525065898895264,-1.3375680905631562,-2.529318634663717,6.1399303553398035,1.0224002599716187,-2.7766624132739466
1708434575.4398122,-2.152494192123413,-1.3376664382270356,-2.5293033758746546,6.13993917682723,1.0223710536956787,-2.7766669432269495
1708434575.4418027,-2.152482748031616,-1.3376532954028626,-2.529367987309591,6.139972317009725,1.0223753452301025,-2.7766760031329554
1708434575.4438074,-2.152494192123413,-1.337633566265442,-2.5292778650866907,6.139897215157308,1.0223591327667236,-2.77665359178652
1708434575.4458039,-2.1525189876556396,-1.3375834685615082,-2.5292988459216517,6.139918315201559,1.0223796367645264,-2.7766335646258753
1708434575.447815,-2.1525189876556396,-1.3376326721957703,-2.529314104710714,6.1398987648780725,1.0223958492279053,-2.7766550222979944
1708434575.4498074,-2.152553081512451,-1.337637023334839,-2.529315773640768,6.139934766083517,1.022400140762329,-2.7766862551318567
1708434575.4517994,-2.1525235176086426,-1.3376664382270356,-2.529306713734762,6.139886963158407,1.0223796367645264,-2.7766714731799524
1708434575.4538188,-2.1524899005889893,-1.337616117005684,-2.529311243687765,6.13993917682723,1.0223677158355713,-2.776605192814962
1708434575.4558272,-2.1525111198425293,-1.3376695674708863,-2.529268805180685,6.1399303553398035,1.0224120616912842,-2.7766876856433313
1708434575.4578552,-2.1525111198425293,-1.337662087087967,-2.529339615498678,6.139901745110311,1.0224120616912842,-2.7766462008105677
1708434575.4598074,-2.1525235176086426,-1.3376203787377854,-2.52928072610964,6.139951097756185,1.0223677158355713,-2.7766504923449915
1708434575.4618063,-2.1525022983551025,-1.3376010221293946,-2.529276196156637,6.139955627709188,1.0223262310028076,-2.7766290346728724
1708434575.4638236,-2.1525235176086426,-1.3376664531281968,-2.529330555592672,6.13993917682723,1.0223883390426636,-2.7766335646258753
1708434575.4658291,-2.152482748031616,-1.3376501959613343,-2.5293033758746546,6.139906155854025,1.0223883390426636,-2.7766805330859583
1708434575.467846,-2.152498722076416,-1.337621734743454,-2.529348675404684,6.139889824181356,1.0223677158355713,-2.7766669432269495
1708434575.4698417,-2.1524782180786133,-1.3376010221293946,-2.529318634663717,6.139951216965475,1.0223796367645264,-2.7766714731799524
1708434575.4718056,-2.1524782180786133,-1.337617279296257,-2.529318634663717,6.139852511673727,1.0223381519317627,-2.7766459623919886
1708434575.4738526,-2.1525235176086426,-1.3376501959613343,-2.5292778650866907,6.139963376313009,1.0223381519317627,-2.7767205874072474
1708434575.4758189,-2.1525168418884277,-1.3376129430583497,-2.5292988459216517,6.139976846962728,1.0223796367645264,-2.7766171137439173
1708434575.4778159,-2.1525323390960693,-1.3375712049058457,-2.529339615498678,6.139922845154562,1.0223468542099,-2.7766595522509974
1708434575.4798267,-2.1525111198425293,-1.3376292151263733,-2.529306713734762,6.1399303553398035,1.0223883390426636,-2.7766640822040003
1708434575.4818277,-2.1525144577026367,-1.3376085770181199,-2.529268805180685,6.139960157662191,1.022342562675476,-2.7766595522509974
1708434575.4838226,-2.152503252029419,-1.337633566265442,-2.5292943159686487,6.1399139044578455,1.0223796367645264,-2.7766462008105677
1708434575.485814,-2.1525371074676514,-1.3376248639873047,-2.529297653828756,6.139960157662191,1.0223839282989502,-2.7766805330859583
1708434575.487815,-2.152498722076416,-1.3376664829305192,-2.529289786015646,6.1399303553398035,1.0223591327667236,-2.7766550222979944
1708434575.4898324,-2.1525235176086426,-1.3376085770181199,-2.52928072610964,6.139885294228353,1.0223958492279053,-2.7766290346728724
1708434575.4918115,-2.1525371074676514,-1.3375878793052216,-2.5292988459216517,6.13993917682723,1.0224164724349976,-2.7766550222979944
1708434575.4938228,-2.1525156497955322,-1.3376664829305192,-2.5293033758746546,6.139927375107565,1.022342562675476,-2.7766578833209437
1708434575.4958153,-2.152503490447998,-1.3376240593246003,-2.52928072610964,6.139963376313009,1.022342562675476,-2.7766669432269495
1708434575.4977992,-2.1525280475616455,-1.3376172941974183,-2.529318634663717,6.1399303553398035,1.0224164724349976,-2.7766504923449915
1708434575.4998364,-2.152498722076416,-1.3376248490861435,-2.5292943159686487,6.139910685807028,1.022400140762329,-2.776642624531881
1708434575.5018046,-2.1525371074676514,-1.337575690155365,-2.529315773640768,6.1399093745048425,1.0223958492279053,-2.7766953150378626
1708434575.5038466,-2.1524736881256104,-1.3375757199576874,-2.529318634663717,6.139960157662191,1.0223393440246582,-2.7766876856433313
1708434575.5058298,-2.152548313140869,-1.3376010221293946,-2.529289786015646,6.139918434410848,1.0224089622497559,-2.776642624531881
1708434575.5078359,-2.152498722076416,-1.3376577359488984,-2.529332224522726,6.1399093745048425,1.0223958492279053,-2.7766669432269495
1708434575.5098658,-2.152494192123413,-1.3375888627818604,-2.529302183781759,6.139918434410848,1.0223634243011475,-2.7766504923449915
1708434575.5118039,-2.1524853706359863,-1.337587760095932,-2.5292943159686487,6.139991628914633,1.0223753452301025,-2.7766876856433313
1708434575.513835,-2.1525371074676514,-1.337662087087967,-2.529240433369772,6.139922845154562,1.0223958492279053,-2.7766290346728724
1708434575.515852,-2.1525323390960693,-1.3376173090985795,-2.529315773640768,6.139946687012472,1.0223634243011475,-2.7766335646258753
1708434575.517861,-2.152482748031616,-1.3375878793052216,-2.529285256062643,6.13998423793868,1.022355556488037,-2.7766624132739466
1708434575.5198097,-2.1525111198425293,-1.3376010221293946,-2.529314104710714,6.139958846360006,1.0223839282989502,-2.7766850630389612
1708434575.5218334,-2.152543783187866,-1.3376414787820359,-2.52928072610964,6.139933216362753,1.0223591327667236,-2.7766640822040003
1708434575.5238438,-2.1525065898895264,-1.3376291555217286,-2.52932316461672,6.1399961588676355,1.0223677158355713,-2.776626173649923
1708434575.5258708,-2.1525111198425293,-1.337608591919281,-2.5292869249926966,6.139975297241964,1.0223883390426636,-2.7766969839679163
1708434575.5278192,-2.152498722076416,-1.3376248639873047,-2.5292943159686487,6.139942157059469,1.0223926305770874,-2.7766504923449915
1708434575.5298436,-2.152555227279663,-1.3376621168902894,-2.529306713734762,6.139991628914633,1.0223468542099,-2.7766969839679163
1708434575.5318394,-2.152520179748535,-1.3376458299211045,-2.52928072610964,6.139907705574789,1.0223839282989502,-2.7766595522509974
1708434575.5338178,-2.152555227279663,-1.337620423441269,-2.529285256062643,6.139966356545248,1.0223677158355713,-2.7765963713275355
1708434575.5358536,-2.1525280475616455,-1.3376248639873047,-2.5292978922473353,6.139994609146871,1.0223764181137085,-2.7766640822040003
1708434575.5378244,-2.1525323390960693,-1.3376532954028626,-2.5292869249926966,6.139999139099874,1.0223511457443237,-2.7766380945788782
1708434575.539857,-2.152498722076416,-1.337596670990326,-2.5292823950396937,6.139970767288961,1.0223721265792847,-2.7766669432269495
1708434575.5418046,-2.1525020599365234,-1.3376695674708863,-2.5293033758746546,6.140057551651754,1.022400140762329,-2.7766380945788782
1708434575.5438058,-2.152498722076416,-1.3376129430583497,-2.529320303593771,6.139994609146871,1.0223883390426636,-2.7766669432269495
1708434575.5458078,-2.1525509357452393,-1.337648944263794,-2.529289786015646,6.1400277493293665,1.0223721265792847,-2.7766099611865442
1708434575.5478032,-2.1525144577026367,-1.3376248639873047,-2.529268805180685,6.140014278679647,1.022359848022461,-2.7766669432269495
1708434575.5498083,-2.1525065898895264,-1.3376129430583497,-2.529320303593771,6.140063750534811,1.0223634243011475,-2.7766714731799524
1708434575.5518095,-2.1525766849517822,-1.3376248639873047,-2.5292823950396937,6.140057670861044,1.022359848022461,-2.7765918413745325
1708434575.55381,-2.1525022983551025,-1.3376695674708863,-2.529351536427633,6.140144455223837,1.0223511457443237,-2.776630703602926
1708434575.555832,-2.152514696121216,-1.3376414638808747,-2.5293033758746546,6.1401429055030725,1.0223227739334106,-2.7766335646258753
1708434575.5578198,-2.152548313140869,-1.3376292151263733,-2.529306713734762,6.140105592995443,1.0223677158355713,-2.7766504923449915
1708434575.5598586,-2.1525464057922363,-1.3375712794116517,-2.529327694569723,6.140107142716207,1.0223839282989502,-2.7766595522509974
1708434575.5618217,-2.1524603366851807,-1.3376380068114777,-2.5292823950396937,6.140155064850607,1.0223511457443237,-2.7766595522509974
1708434575.5647707,-2.152510166168213,-1.3375594478896637,-2.5292943159686487,6.140130984574117,1.0223883390426636,-2.7766669432269495
1708434575.5658472,-2.1525304317474365,-1.3375923049500962,-2.529318634663717,6.140166866570272,1.0223511457443237,-2.7766924540149134
1708434575.5678313,-2.1525394916534424,-1.3376414340785523,-2.529289786015646,6.140186536103048,1.0223721265792847,-2.7766550222979944
1708434575.5698195,-2.1525261402130127,-1.3376380068114777,-2.5292614142047327,6.140129315644064,1.0223808288574219,-2.7766171137439173
1708434575.5718172,-2.1524899005889893,-1.3375878793052216,-2.529327694569723,6.140202986985006,1.0223511457443237,-2.7766504923449915
1708434575.573815,-2.152543783187866,-1.3375888627818604,-2.5292704741107386,6.140144455223837,1.022359848022461,-2.776642624531881
1708434575.5758393,-2.1525394916534424,-1.337633566265442,-2.5292943159686487,6.140232789307394,1.022315263748169,-2.7766760031329554
1708434575.5778081,-2.1525509357452393,-1.337616117005684,-2.529318634663717,6.14019404628829,1.0223523378372192,-2.7766550222979944
1708434575.5798569,-2.1525588035583496,-1.3376129281571885,-2.5292943159686487,6.140198457032003,1.0223480463027954,-2.7766380945788782
1708434575.5818062,-2.1525588035583496,-1.3376041513732453,-2.529320303593771,6.1402344582374475,1.0224013328552246,-2.7766171137439173
1708434575.5838218,-2.152510166168213,-1.3376708936742325,-2.529273335133688,6.14022837856368,1.022359848022461,-2.7766714731799524
1708434575.5858138,-2.1525464057922363,-1.3376870167306443,-2.529311243687765,6.140208828240194,1.022355556488037,-2.7766550222979944
1708434575.5878394,-2.152510166168213,-1.3376664382270356,-2.5292943159686487,6.1402554390724084,1.0223392248153687,-2.7766743342029017
1708434575.5898724,-2.1525418758392334,-1.3376664382270356,-2.5292659441577356,6.140295851021566,1.0223357677459717,-2.776713196431295
1708434575.591841,-2.1525418758392334,-1.3376160723022004,-2.529332224522726,6.140255319863119,1.0223195552825928,-2.7766760031329554
1708434575.5938115,-2.1525676250457764,-1.3376532954028626,-2.529332224522726,6.140199768334188,1.0223523378372192,-2.7766876856433313
1708434575.5958416,-2.1525375843048096,-1.3376501661590119,-2.529311243687765,6.140283691674032,1.0223393440246582,-2.7767086664782923
1708434575.597815,-2.1525633335113525,-1.3376370531371613,-2.5292823950396937,6.140274631768026,1.0223349332809448,-2.7767041365252894
1708434575.599833,-2.1525375843048096,-1.3376292002252121,-2.529306713734762,6.14022837856368,1.0223642587661743,-2.7766805330859583
1708434575.6018066,-2.152575731277466,-1.337670774464943,-2.529273335133688,6.140270221024313,1.0223108530044556,-2.7766550222979944
1708434575.6038158,-2.1525464057922363,-1.3375878793052216,-2.529306713734762,6.140253889351644,1.0223239660263062,-2.7766833941089075
1708434575.60582,-2.152571201324463,-1.3376129430583497,-2.529235903416769,6.140253889351644,1.0223610401153564,-2.7766969839679163
1708434575.607815,-2.152566432952881,-1.337648944263794,-2.529289786015646,6.1403106329734705,1.0223480463027954,-2.7766760031329554
1708434575.6098158,-2.1525216102600098,-1.3376204383424302,-2.529315773640768,6.140285360604086,1.0222986936569214,-2.7766595522509974
1708434575.611836,-2.1525588035583496,-1.3376086217216034,-2.529285256062643,6.140282380371847,1.0223029851913452,-2.7766380945788782
1708434575.6138003,-2.152604103088379,-1.337620423441269,-2.5292988459216517,6.140289890557089,1.0222899913787842,-2.7766876856433313
1708434575.6158068,-2.1525497436523438,-1.337637023334839,-2.5292614142047327,6.140339362412252,1.022340178489685,-2.776670042668478
1708434575.6178205,-2.1525962352752686,-1.3376326572946091,-2.5292988459216517,6.140315162926473,1.0223029851913452,-2.7766833941089075
1708434575.6198132,-2.1525328159332275,-1.337620423441269,-2.5292704741107386,6.140292751580038,1.0223073959350586,-2.7766850630389612
1708434575.621808,-2.152629852294922,-1.3376532954028626,-2.5292943159686487,6.140334832459249,1.022315263748169,-2.7766669432269495
1708434575.6238425,-2.1525588035583496,-1.337648944263794,-2.5292449633227747,6.140334832459249,1.0223314762115479,-2.7766669432269495
1708434575.6258183,-2.1526131629943848,-1.3376458299211045,-2.529320303593771,6.14035855510787,1.0223073959350586,-2.7766788641559046
1708434575.6278126,-2.1525826454162598,-1.3375791174224396,-2.529320303593771,6.14037977436141,1.0223108530044556,-2.7767117659198206
1708434575.6298196,-2.152629852294922,-1.337675304417946,-2.529285256062643,6.140378224640646,1.02232825756073,-2.7766459623919886
1708434575.6318126,-2.152545213699341,-1.3376414787820359,-2.529273335133688,6.140328752785482,1.0222374200820923,-2.7766907850848597
1708434575.633811,-2.1525826454162598,-1.3376248639873047,-2.529335085545675,6.140418755799093,1.0223116874694824,-2.7766924540149134
1708434575.6358368,-2.152604103088379,-1.3376740378192444,-2.529332224522726,6.140378224640646,1.0222911834716797,-2.7766907850848597
1708434575.6378262,-2.152562141418457,-1.3376709383777161,-2.5292704741107386,6.140405285149374,1.022340178489685,-2.776623551045553
1708434575.6398287,-2.1526412963867188,-1.3375954043916245,-2.5292943159686487,6.14040087440566,1.0223567485809326,-2.7767027060138147
1708434575.6418457,-2.152616262435913,-1.3376336109689255,-2.529285256062643,6.14049648025588,1.0223239660263062,-2.7767234484301966
1708434575.6438484,-2.152627944946289,-1.3375878495028992,-2.5292778650866907,6.140421616822042,1.0223239660263062,-2.7766953150378626
1708434575.6458387,-2.15256667137146,-1.3376041811755677,-2.5293248335467737,6.140442478447714,1.0222911834716797,-2.7766743342029017
1708434575.6478508,-2.152604103088379,-1.3376501214555283,-2.529289786015646,6.140478479653158,1.0222867727279663,-2.7767613569842737
1708434575.6498199,-2.15259051322937,-1.3375878793052216,-2.529315773640768,6.140438067704,1.0222911834716797,-2.7766788641559046
1708434575.6518295,-2.15256929397583,-1.337620423441269,-2.5292659441577356,6.140458929329672,1.0222630500793457,-2.7766996065722864
1708434575.6538315,-2.152604103088379,-1.3376283210567017,-2.5293121973620813,6.140433656960287,1.0222954750061035,-2.7767072359668177
1708434575.655843,-2.1526119709014893,-1.3376370084336777,-2.529306713734762,6.140499460488119,1.02232825756073,-2.7766953150378626
1708434575.6578364,-2.15256929397583,-1.337674008016922,-2.5293033758746546,6.140449988632955,1.0222867727279663,-2.77665359178652
1708434575.6598475,-2.15259051322937,-1.3376204532435914,-2.529327694569723,6.140469658165731,1.0223073959350586,-2.7767279783831995
1708434575.6618147,-2.152660608291626,-1.3376664382270356,-2.529231373463766,6.140469658165731,1.0223239660263062,-2.776710096989767
1708434575.6638696,-2.1526436805725098,-1.3376783591559906,-2.5292375723468226,6.140501129418173,1.0223029851913452,-2.776740614567892
1708434575.6658454,-2.152634859085083,-1.3376129430583497,-2.5292988459216517,6.140424597054281,1.0223040580749512,-2.776677195225851
1708434575.6678212,-2.1525771617889404,-1.337637023334839,-2.529332224522726,6.140488850861349,1.0222911834716797,-2.776731554661886
1708434575.6698306,-2.152656078338623,-1.337616042499878,-2.529268805180685,6.14052032211379,1.0223073959350586,-2.776731793080465
1708434575.6718163,-2.15265154838562,-1.337628350859024,-2.5292614142047327,6.140466677933492,1.0223029851913452,-2.77671462694277
1708434575.673837,-2.152639389038086,-1.3376160723022004,-2.5292943159686487,6.140499460488119,1.0222911834716797,-2.776748005543844
1708434575.6758285,-2.1526427268981934,-1.3376326721957703,-2.5292494932757776,6.1405056593711755,1.0223195552825928,-2.776705567036764
1708434575.6778126,-2.1526381969451904,-1.3375834983638306,-2.5292614142047327,6.1404859898384,1.0223195552825928,-2.776734177266256
1708434575.679841,-2.1526641845703125,-1.3375954043916245,-2.5293033758746546,6.140453326493063,1.022233009338379,-2.776738945637838
1708434575.6818252,-2.1526055335998535,-1.3376445782235642,-2.5292704741107386,6.140490400582113,1.0223073959350586,-2.7767468134509485
1708434575.683863,-2.152625799179077,-1.3376458448222657,-2.529315773640768,6.1405056593711755,1.0223116874694824,-2.776743475590841
1708434575.68581,-2.1526551246643066,-1.3376160574010392,-2.5292943159686487,6.140474068909445,1.0223116874694824,-2.77672249475588
1708434575.6878202,-2.1526339054107666,-1.3376414340785523,-2.5292869249926966,6.140506851464071,1.0222997665405273,-2.776738945637838
1708434575.6898127,-2.1526427268981934,-1.3376326572946091,-2.529289786015646,6.140490519791403,1.0223203897476196,-2.7767162958728235
1708434575.691811,-2.1526596546173096,-1.3376620572856446,-2.5292869249926966,6.140469538956442,1.0223073959350586,-2.7768097559558313
1708434575.693813,-2.152647018432617,-1.337637023334839,-2.5292750040637415,6.140521991043844,1.0222911834716797,-2.7767751852618616
1708434575.6958282,-2.1526641845703125,-1.3376740378192444,-2.5292988459216517,6.140564071923055,1.0223029851913452,-2.7767797152148646
1708434575.697824,-2.1527013778686523,-1.3376160574010392,-2.5292614142047327,6.140512931137838,1.0222824811935425,-2.7767165342914026
1708434575.6998172,-2.1526143550872803,-1.3375791174224396,-2.5292585531817835,6.140521991043844,1.0222586393356323,-2.776810948048727
1708434575.7018023,-2.1526753902435303,-1.3376577359488984,-2.5292869249926966,6.140542852669515,1.0223369598388672,-2.776799027119772
1708434575.7038343,-2.1526427268981934,-1.3376335960677643,-2.5292869249926966,6.140533911972799,1.0223239660263062,-2.7768362204181116
1708434575.7059717,-2.152646064758301,-1.3376977902701874,-2.5292988459216517,6.140526401787557,1.0223073959350586,-2.776766363774435
1708434575.7078192,-2.1526551246643066,-1.3375878495028992,-2.5292823950396937,6.140538441925802,1.02232825756073,-2.776733462010519
1708434575.709864,-2.1526427268981934,-1.3376370084336777,-2.5292823950396937,6.140546071320333,1.0223116874694824,-2.776794497166769
1708434575.7118273,-2.1526710987091064,-1.337624878888466,-2.529306713734762,6.1406030533607385,1.0222911834716797,-2.776806418095724
1708434575.7138138,-2.1526665687561035,-1.337648944263794,-2.5292659441577356,6.140574443131246,1.0223195552825928,-2.7767916361438196
1708434575.715822,-2.152678966522217,-1.3376173090985795,-2.5292778650866907,6.140589582711019,1.0222986936569214,-2.7767797152148646
1708434575.7178113,-2.152678966522217,-1.3376204085401078,-2.5292988459216517,6.140635835915365,1.0222867727279663,-2.7768197695361536
1708434575.7197974,-2.152678966522217,-1.3376282912543793,-2.5292959848987024,6.140601503639974,1.0222792625427246,-2.7767825762378138
1708434575.7217925,-2.152679920196533,-1.3376160574010392,-2.5292704741107386,6.140605914383688,1.0222835540771484,-2.776761833821432
1708434575.7238355,-2.1526753902435303,-1.3376533103040238,-2.5292778650866907,6.140638696938314,1.0222997665405273,-2.7768035570727747
1708434575.7257988,-2.1526834964752197,-1.3376414787820359,-2.52925688425173,6.14058946350173,1.02232825756073,-2.776799027119772
1708434575.727806,-2.1526427268981934,-1.3375954043916245,-2.5292778650866907,6.140571462899008,1.0223029851913452,-2.776799027119772
1708434575.7298005,-2.152695894241333,-1.3376414787820359,-2.5293121973620813,6.140662896424093,1.0222792625427246,-2.776761833821432
1708434575.731817,-2.15270733833313,-1.337604136472084,-2.5292750040637415,6.140617835312643,1.0223116874694824,-2.776831928883688
1708434575.7337985,-2.1526575088500977,-1.3376204085401078,-2.5292988459216517,6.1405761120613,1.0222792625427246,-2.776827398930685
1708434575.735803,-2.15267014503479,-1.3375878495028992,-2.5292614142047327,6.140637504845419,1.0222997665405273,-2.776881519948141
1708434575.7378063,-2.1527116298675537,-1.3376695972732087,-2.5292869249926966,6.140650975495138,1.0222954750061035,-2.776794497166769
1708434575.7398376,-2.152620315551758,-1.3376458597234269,-2.5292778650866907,6.140629756241598,1.0222792625427246,-2.776822868977682
1708434575.7418084,-2.1527187824249268,-1.3376458299211045,-2.5292823950396937,6.140567052155294,1.0223041772842407,-2.776806418095724
1708434575.7437923,-2.1527116298675537,-1.337604136472084,-2.5292614142047327,6.140637504845419,1.0223040580749512,-2.776876989995138
1708434575.7457998,-2.152682304382324,-1.3376326572946091,-2.5292704741107386,6.1406792280967615,1.0222997665405273,-2.776844326649801
1708434575.7478127,-2.1527163982391357,-1.337624878888466,-2.5292823950396937,6.1405924437339685,1.0222954750061035,-2.776860777531759
1708434575.749838,-2.152714252471924,-1.3376621168902894,-2.529311243687765,6.140667307167806,1.0223116874694824,-2.776822868977682
1708434575.751867,-2.1527187824249268,-1.337599830036499,-2.529315773640768,6.140650975495138,1.0222749710083008,-2.7767556349383753
1708434575.7538183,-2.152735471725464,-1.3376709383777161,-2.529320303593771,6.140617835312643,1.0222997665405273,-2.776827398930685
1708434575.7558265,-2.152714252471924,-1.3376326572946091,-2.529336754475729,6.140592324524679,1.0223073959350586,-2.7768426577197474
1708434575.7578614,-2.15267014503479,-1.337637023334839,-2.5292988459216517,6.140676367073812,1.0223029851913452,-2.776856247578756
1708434575.759822,-2.1527230739593506,-1.3376695972732087,-2.529311243687765,6.140583503037252,1.0222835540771484,-2.776813809071676
1708434575.761881,-2.152661085128784,-1.3376414787820359,-2.5292449633227747,6.140622246056356,1.0222749710083008,-2.776797358189718
1708434575.763842,-2.1527230739593506,-1.3376533103040238,-2.5292943159686487,6.140638696938314,1.0222867727279663,-2.7768307367907923
1708434575.765819,-2.152686834335327,-1.337648944263794,-2.5292540232287806,6.140598523407736,1.0223073959350586,-2.776856247578756
1708434575.7678373,-2.152702808380127,-1.3376740378192444,-2.5293033758746546,6.1406582472618005,1.0222835540771484,-2.7768800894366663
1708434575.7698169,-2.15275239944458,-1.3376652014306565,-2.529315773640768,6.140692698746481,1.0223195552825928,-2.776822868977682
1708434575.7718105,-2.1526825428009033,-1.3376652312329789,-2.5292239824878138,6.140605914383688,1.0223195552825928,-2.7768545786487024
1708434575.7738144,-2.15269136428833,-1.3376326572946091,-2.529273335133688,6.140629756241598,1.0223239660263062,-2.7767885367022913
1708434575.7758577,-2.1526939868927,-1.3376621168902894,-2.529273335133688,6.140683758049764,1.0222911834716797,-2.7768636385547083
1708434575.7778378,-2.152735471725464,-1.3376784187606354,-2.5293076674090784,6.1406792280967615,1.0223195552825928,-2.7768874804126185
1708434575.779859,-2.152740001678467,-1.3376116913608094,-2.5292614142047327,6.140634286194601,1.0223116874694824,-2.77688438097109
1708434575.7818506,-2.152698278427124,-1.3376811903766175,-2.5292747656451624,6.140628444939413,1.0222911834716797,-2.776921812688009
1708434575.7838962,-2.1526894569396973,-1.3376445782235642,-2.529228750859396,6.140659916191854,1.0222954750061035,-2.7768307367907923
1708434575.7858171,-2.152726650238037,-1.3376403015903016,-2.5293248335467737,6.140659796982565,1.0223073959350586,-2.7768874804126185
1708434575.7878323,-2.152722120285034,-1.337689996962883,-2.529240433369772,6.140604364662924,1.0222954750061035,-2.7768710295306605
1708434575.789808,-2.152726650238037,-1.3376577508500596,-2.529327694569723,6.140617835312643,1.0222954750061035,-2.7769036928759974
1708434575.7918024,-2.1527435779571533,-1.337648944263794,-2.5292823950396937,6.140632974892416,1.022340178489685,-2.7768710295306605
1708434575.7938075,-2.152698278427124,-1.3376740378192444,-2.5292614142047327,6.140605914383688,1.0223160982131958,-2.7768502871142786
1708434575.7958372,-2.152705430984497,-1.337660865192749,-2.5292704741107386,6.140608775406637,1.0223203897476196,-2.7768755594836634
1708434575.7978134,-2.1527435779571533,-1.3376532805017014,-2.529289786015646,6.14064775684432,1.0222835540771484,-2.7769067923175257
1708434575.7998257,-2.152735471725464,-1.3376326572946091,-2.5292778650866907,6.140650975495138,1.0222997665405273,-2.7769036928759974
1708434575.801799,-2.1527130603790283,-1.3376565885594864,-2.52925688425173,6.140649425774374,1.0222997665405273,-2.7768994013415735
1708434575.8038116,-2.152759313583374,-1.3376240146211167,-2.52932316461672,6.140625226288595,1.0223116874694824,-2.776869599019186
1708434575.8058467,-2.152726650238037,-1.3376240593246003,-2.5292943159686487,6.140641915589132,1.0223239660263062,-2.7769158522235315
1708434575.807905,-2.1527459621429443,-1.3376129430583497,-2.5292704741107386,6.140571582108297,1.0223029851913452,-2.7769158522235315
1708434575.8098297,-2.1527178287506104,-1.337676779632904,-2.5292750040637415,6.140683638840475,1.0222748517990112,-2.776931111012594
1708434575.81185,-2.152759313583374,-1.3376652312329789,-2.5292659441577356,6.140605914383688,1.0223029851913452,-2.776926581059591
1708434575.8138492,-2.1527390480041504,-1.337660865192749,-2.5292614142047327,6.140580642014303,1.0223073959350586,-2.7768903414355677
1708434575.8158662,-2.152759313583374,-1.337619574075081,-2.5292988459216517,6.140604364662924,1.0222911834716797,-2.776944700871603
1708434575.817818,-2.1527504920959473,-1.3376403015903016,-2.5292421022998255,6.140650975495138,1.0222792625427246,-2.7769401709186
1708434575.819822,-2.15275502204895,-1.3376652312329789,-2.5293033758746546,6.140587913780966,1.0222878456115723,-2.7769113222705286
1708434575.8218162,-2.1527504920959473,-1.3376652312329789,-2.5293033758746546,6.140641915589132,1.0223325490951538,-2.776853148137228
1708434575.823843,-2.1527843475341797,-1.3376248639873047,-2.5292659441577356,6.140653836518087,1.0222835540771484,-2.777001921330587
1708434575.8258147,-2.1527628898620605,-1.33769345403228,-2.5292704741107386,6.140662896424093,1.0223116874694824,-2.776909653340475
1708434575.827825,-2.1527583599090576,-1.337689996962883,-2.529320303593771,6.140661227494039,1.0222835540771484,-2.7769022623645228
1708434575.8298085,-2.1527345180511475,-1.337660865192749,-2.5292823950396937,6.140670168190756,1.0222954750061035,-2.776952091847555
1708434575.8318288,-2.1527299880981445,-1.3376695972732087,-2.5292988459216517,6.140662896424093,1.0222587585449219,-2.776931111012594
1708434575.8338277,-2.152722120285034,-1.3376977902701874,-2.529245201741354,6.140625226288595,1.0222911834716797,-2.776931111012594
1708434575.8358166,-2.15275502204895,-1.337648944263794,-2.5292959848987024,6.140683638840475,1.0223249197006226,-2.7769692579852503
1708434575.8378613,-2.1527209281921387,-1.337648944263794,-2.5293121973620813,6.140620815544882,1.0222911834716797,-2.776926581059591
1708434575.8398309,-2.1527888774871826,-1.3376240146211167,-2.5292659441577356,6.140641915589132,1.0222997665405273,-2.776881281529562
1708434575.8418303,-2.1527299880981445,-1.3377021563104172,-2.5292449633227747,6.140625226288595,1.0222997665405273,-2.7769599596606653
1708434575.8438547,-2.1528048515319824,-1.3376978200725098,-2.5292750040637415,6.1406746981437585,1.0223369598388672,-2.7769401709186
1708434575.8458252,-2.1527345180511475,-1.3376725328019639,-2.5292750040637415,6.140547501831808,1.0222792625427246,-2.776926581059591
1708434575.8478463,-2.152770757675171,-1.3376740378192444,-2.529245201741354,6.140634166985311,1.0223116874694824,-2.776947561894552
1708434575.8498306,-2.1527414321899414,-1.3376403015903016,-2.5292614142047327,6.140604364662924,1.0223160982131958,-2.776900593434469
1708434575.8518324,-2.1527130603790283,-1.3376695972732087,-2.5292914549456995,6.140667307167806,1.0222748517990112,-2.776947561894552
1708434575.8538558,-2.1528003215789795,-1.3376987290433426,-2.5292585531817835,6.140629756241598,1.0222792625427246,-2.776956621800558
1708434575.8558273,-2.152775287628174,-1.3376652312329789,-2.529273335133688,6.140625226288595,1.0223325490951538,-2.776943031941549
1708434575.8578684,-2.152754068374634,-1.3376403015903016,-2.5292630831347864,6.140625226288595,1.0222911834716797,-2.776931111012594
1708434575.8598344,-2.1527369022369385,-1.337648944263794,-2.5293033758746546,6.140625226288595,1.0222878456115723,-2.776935879384176
1708434575.86181,-2.152766466140747,-1.3376358610442658,-2.5292988459216517,6.140585052758016,1.0222954750061035,-2.776931111012594
1708434575.8638413,-2.1528003215789795,-1.337689996962883,-2.5293033758746546,6.140629756241598,1.0222673416137695,-2.776914183293478
1708434575.8658242,-2.1527583599090576,-1.3376477819732209,-2.5292959848987024,6.140655386238851,1.0222716331481934,-2.776952091847555
1708434575.8678505,-2.1527414321899414,-1.3376768243363877,-2.5292704741107386,6.140634286194601,1.0222716331481934,-2.776926581059591
1708434575.8698437,-2.1527888774871826,-1.3376282912543793,-2.5292704741107386,6.1406582472618005,1.0222792625427246,-2.7769232431994837
1708434575.8718104,-2.1527798175811768,-1.3376811903766175,-2.5292869249926966,6.140667307167806,1.0222504138946533,-2.776904884968893
1708434575.8738313,-2.1527504920959473,-1.337681160574295,-2.5292778650866907,6.1405924437339685,1.0222761631011963,-2.776952091847555
1708434575.87587,-2.152775287628174,-1.3376326572946091,-2.5293076674090784,6.140620815544882,1.0222878456115723,-2.7769599596606653
1708434575.8778229,-2.1527955532073975,-1.3376768243363877,-2.5292614142047327,6.140649425774374,1.0222878456115723,-2.7769022623645228
1708434575.8798716,-2.1527867317199707,-1.337637023334839,-2.5292988459216517,6.1406134245689294,1.0222673416137695,-2.776944700871603
1708434575.88197,-2.152770757675171,-1.3376326572946091,-2.5292914549456995,6.1406582472618005,1.0222761631011963,-2.7769401709186
1708434575.8838768,-2.1528091430664062,-1.337660865192749,-2.5292988459216517,6.1406134245689294,1.0222504138946533,-2.776926581059591
1708434575.8858666,-2.152775287628174,-1.337660865192749,-2.5293033758746546,6.140653836518087,1.0222878456115723,-2.776904884968893
1708434575.8877914,-2.152775287628174,-1.3376652610353013,-2.529245201741354,6.140650975495138,1.0222547054290771,-2.77689773241152
1708434575.8898358,-2.1527280807495117,-1.3376695823720475,-2.5292823950396937,6.1406582472618005,1.0222835540771484,-2.7769187132464808
1708434575.8918014,-2.1527912616729736,-1.3376740378192444,-2.5292659441577356,6.140638696938314,1.0222878456115723,-2.776886049901144
1708434575.8938003,-2.152770757675171,-1.3376521331122895,-2.5292823950396937,6.140580642014303,1.0222716331481934,-2.776952091847555
1708434575.8957968,-2.1528160572052,-1.3376811903766175,-2.5292659441577356,6.140670287400045,1.0222761631011963,-2.776931111012594
1708434575.8978002,-2.152775287628174,-1.3376326572946091,-2.5292988459216517,6.140595304756918,1.0222430229187012,-2.776909653340475
1708434575.8998163,-2.1528069972991943,-1.3376489740661164,-2.5292659441577356,6.140683758049764,1.0222629308700562,-2.776888672505514
1708434575.9018018,-2.1527912616729736,-1.3376403015903016,-2.5292778650866907,6.140671837120809,1.0222429037094116,-2.776935640965597
1708434575.9038594,-2.1528239250183105,-1.3376891624978562,-2.529245201741354,6.140646445542135,1.022263526916504,-2.776973549519674
1708434575.9058406,-2.1527867317199707,-1.337672547703125,-2.5292614142047327,6.140608775406637,1.0222547054290771,-2.776952091847555
1708434575.9078262,-2.1527369022369385,-1.337648944263794,-2.5292869249926966,6.140620696335592,1.0222222805023193,-2.776931111012594
1708434575.9098275,-2.1527867317199707,-1.337619574075081,-2.5292659441577356,6.140683758049764,1.0222384929656982,-2.776886049901144
1708434575.9118273,-2.1527583599090576,-1.3376358610442658,-2.5292838255511683,6.140655386238851,1.022263526916504,-2.7769554297076624
1708434575.9138184,-2.1527912616729736,-1.3376934391311188,-2.529245201741354,6.140674578934469,1.0223010778427124,-2.7769232431994837
1708434575.915856,-2.1528027057647705,-1.337648944263794,-2.5292213598834437,6.14058946350173,1.0222430229187012,-2.776931111012594
1708434575.9178452,-2.1527628898620605,-1.3376695972732087,-2.5292750040637415,6.1406134245689294,1.0222761631011963,-2.776881281529562
1708434575.91984,-2.1527583599090576,-1.337648944263794,-2.5292750040637415,6.140650975495138,1.0222516059875488,-2.7769599596606653
1708434575.9218373,-2.1527867317199707,-1.3376891624978562,-2.5292659441577356,6.140585052758016,1.022217869758606,-2.776914183293478
1708434575.923857,-2.1527822017669678,-1.3376768243363877,-2.5292540232287806,6.140646445542135,1.0222430229187012,-2.776888672505514
1708434575.9258158,-2.1527676582336426,-1.3376521331122895,-2.5293124357806605,6.140655505448141,1.0222430229187012,-2.7768903414355677
1708434575.9278262,-2.1528239250183105,-1.3376652312329789,-2.5292676130877894,6.140622246056356,1.0222026109695435,-2.7769809404956263
1708434575.9298115,-2.1527912616729736,-1.337676779632904,-2.5292421022998255,6.140616285591879,1.0222398042678833,-2.776947561894552
1708434575.9318316,-2.1527628898620605,-1.337631495004036,-2.5293050448047083,6.140638696938314,1.0222145318984985,-2.776931111012594
1708434575.9338524,-2.152777910232544,-1.3377097111991425,-2.5292540232287806,6.140667307167806,1.0222430229187012,-2.776869599019186
1708434575.9358177,-2.152775287628174,-1.3376934391311188,-2.5292375723468226,6.140604364662924,1.0222560167312622,-2.7769320646869105
1708434575.937824,-2.1528027057647705,-1.337718443279602,-2.5292540232287806,6.1406134245689294,1.0222529172897339,-2.776869599019186
1708434575.9398263,-2.1527912616729736,-1.3376977902701874,-2.529240433369772,6.140662896424093,1.0222440958023071,-2.7768710295306605
1708434575.9418213,-2.1527369022369385,-1.3376977902701874,-2.5292795340167444,6.140608775406637,1.0222276449203491,-2.7768784205066126
1708434575.943834,-2.1527912616729736,-1.3377021563104172,-2.5292750040637415,6.140641915589132,1.0222516059875488,-2.7768948713885706
1708434575.9458306,-2.1527414321899414,-1.3376533103040238,-2.5292630831347864,6.140608775406637,1.0221697092056274,-2.7769082228290003
1708434575.947814,-2.1528239250183105,-1.3376282912543793,-2.5292750040637415,6.140650975495138,1.0222275257110596,-2.7768173853503626
1708434575.9498358,-2.152754068374634,-1.33759859324012,-2.5292540232287806,6.140646445542135,1.0222516059875488,-2.7768471876727503
1708434575.9518104,-2.1527822017669678,-1.3376282912543793,-2.5292840639697474,6.140662896424093,1.0221951007843018,-2.776806418095724
1708434575.9538126,-2.152775287628174,-1.3376768243363877,-2.5292823950396937,6.140698897629537,1.0221949815750122,-2.776827398930685
1708434575.9558249,-2.1527676582336426,-1.3376681071570893,-2.5292750040637415,6.14061330535964,1.0221785306930542,-2.776799027119772
1708434575.957815,-2.1527981758117676,-1.3376160574010392,-2.5292330423938196,6.140637504845419,1.02219820022583,-2.776831928883688
1708434575.9598293,-2.152770757675171,-1.337689996962883,-2.5292137304889124,6.140632974892416,1.0222156047821045,-2.776749912892477
1708434575.9618278,-2.1527867317199707,-1.3376652312329789,-2.5292001406299036,6.1406746981437585,1.022182822227478,-2.776794497166769
1708434575.963857,-2.1528162956237793,-1.337672547703125,-2.5292630831347864,6.140629756241598,1.0221872329711914,-2.7767797152148646
1708434575.9658282,-2.1528162956237793,-1.3376326572946091,-2.5292795340167444,6.140662896424093,1.0221750736236572,-2.7767344156848353
1708434575.9678488,-2.1527955532073975,-1.33759859324012,-2.5292540232287806,6.140667307167806,1.0221872329711914,-2.7767842451678675
1708434575.9698126,-2.152754068374634,-1.3376811903766175,-2.5292213598834437,6.140659916191854,1.0221916437149048,-2.776693646107809
1708434575.9718237,-2.1528196334838867,-1.3376445782235642,-2.5292421022998255,6.140596973686971,1.0221916437149048,-2.7767027060138147
1708434575.9738297,-2.1527867317199707,-1.3376891624978562,-2.5292180220233362,6.140653836518087,1.0221381187438965,-2.7766669432269495
1708434575.9758341,-2.1528003215789795,-1.3376445782235642,-2.5292347113238733,6.140567171364584,1.0221750736236572,-2.7766459623919886
1708434575.9778187,-2.152775287628174,-1.3376811903766175,-2.5292256514178675,6.140617835312643,1.0221916437149048,-2.7765935103045862
1708434575.9798257,-2.1527583599090576,-1.3376891624978562,-2.5292213598834437,6.140605795174398,1.0221469402313232,-2.7766504923449915
1708434575.9818385,-2.1527912616729736,-1.3376652312329789,-2.5292556921588343,6.140608775406637,1.0221750736236572,-2.776557747517721
1708434575.983874,-2.1528284549713135,-1.337619574075081,-2.5292392412768763,6.1405924437339685,1.0221381187438965,-2.7765405813800257
1708434575.9858186,-2.152770757675171,-1.3376116913608094,-2.5292375723468226,6.140625226288595,1.022179365158081,-2.7764766852008265
1708434575.987854,-2.1528408527374268,-1.3376768243363877,-2.5292676130877894,6.140646445542135,1.0221350193023682,-2.7765021959887903
1708434575.989822,-2.1527628898620605,-1.3376768243363877,-2.5291596094714563,6.140641915589132,1.0221967697143555,-2.776487175618307
1708434575.9918275,-2.1527912616729736,-1.3376608502915879,-2.5292089621173304,6.140662896424093,1.0221469402313232,-2.77643853822817
1708434575.9938297,-2.152770757675171,-1.3376934391311188,-2.5292511622058313,6.140655386238851,1.0221307277679443,-2.776393715535299
1708434575.9958491,-2.1528115272521973,-1.3376489293626328,-2.529193941746847,6.140601384430685,1.0220974683761597,-2.776419226323263
1708434575.9978905,-2.1527414321899414,-1.3376521331122895,-2.529206101094381,6.14061330535964,1.0221017599105835,-2.7763710657702845
1708434575.9998705,-2.1528239250183105,-1.3376282912543793,-2.529186550770895,6.140629756241598,1.022167444229126,-2.7763307730304163
1708434576.0018117,-2.1527843475341797,-1.3376855564168473,-2.529144589100973,6.1406134245689294,1.0221481323242188,-2.776295010243551
1708434576.0038354,-2.1527867317199707,-1.3376445782235642,-2.5291460196124476,6.140622246056356,1.0221149921417236,-2.7762752215014856
1708434576.0058143,-2.1527912616729736,-1.3376489740661164,-2.5291386286364954,6.140620815544882,1.0220540761947632,-2.776206080113546
1708434576.007844,-2.152749538421631,-1.3376934391311188,-2.5291550795184534,6.1406476376350305,1.0221061706542969,-2.7761862913714808
1708434576.0098429,-2.1527822017669678,-1.3376977902701874,-2.529114548360006,6.140589582711019,1.0221481323242188,-2.7761176268206995
1708434576.011816,-2.1527912616729736,-1.3376977902701874,-2.52908164659609,6.1405608532722376,1.0221481323242188,-2.776064936314718
1708434576.0138533,-2.1527628898620605,-1.337628335957863,-2.529119078313009,6.140622365265646,1.0221350193023682,-2.7760263125049036
1708434576.0158145,-2.1527280807495117,-1.3376637411168595,-2.529107157384054,6.1405924437339685,1.0221149921417236,-2.7760029474841517
1708434576.0178447,-2.1527278423309326,-1.3376891624978562,-2.5290890375720423,6.14058946350173,1.0221149921417236,-2.775916639958517
1708434576.0198293,-2.152766466140747,-1.3376847070506592,-2.529114548360006,6.140572774201193,1.0221192836761475,-2.7758446375476282
1708434576.021802,-2.152775287628174,-1.3376652312329789,-2.529128138219015,6.140523659973898,1.0221030712127686,-2.775752607976095
1708434576.0238473,-2.1527981758117676,-1.3376934093287964,-2.52914005914797,6.140617835312643,1.0220911502838135,-2.7756999174701136
1708434576.0258133,-2.1528115272521973,-1.3377096515944977,-2.529102627431051,6.140598523407736,1.0220868587493896,-2.775611464177267
1708434576.0278425,-2.152745008468628,-1.3376637411168595,-2.52914005914797,6.140557992249288,1.0220911502838135,-2.7755520979510706
1708434576.0298584,-2.1527822017669678,-1.337672547703125,-2.529119078313009,6.140550601273336,1.0220911502838135,-2.775503222142355
1708434576.0318277,-2.1527719497680664,-1.3376652312329789,-2.5291476885425013,6.140524852066793,1.022074580192566,-2.7754374186145228
1708434576.0338156,-2.1527936458587646,-1.3376282912543793,-2.52908164659609,6.140532719879904,1.0220789909362793,-2.7753191629992884
1708434576.035814,-2.1527981758117676,-1.3376695972732087,-2.529107157384054,6.140557992249288,1.0220789909362793,-2.7752628962146204
1708434576.0378175,-2.1527843475341797,-1.3376489293626328,-2.529152218495504,6.140444147377767,1.0220134258270264,-2.7752049604998987
1708434576.039823,-2.1527912616729736,-1.3376204085401078,-2.52908164659609,6.140519130020895,1.0220177173614502,-2.7750423590289515
1708434576.0418122,-2.1527459621429443,-1.3376240146211167,-2.529123608266012,6.140481579094686,1.0220508575439453,-2.775029246007101
1708434576.0438263,-2.15275502204895,-1.3376565736583252,-2.529102627431051,6.14048312881545,1.022071361541748,-2.7748716513263147
1708434576.0458179,-2.1527888774871826,-1.3376652312329789,-2.529114548360006,6.140433537750997,1.0220296382904053,-2.774730984364645
1708434576.0478597,-2.1527628898620605,-1.3376369786313553,-2.52914005914797,6.140409815102377,1.0220351219177246,-2.774647061024801
1708434576.0498188,-2.1527414321899414,-1.3376767945340653,-2.529144589100973,6.140360224037924,1.0220146179199219,-2.7745142618762415
1708434576.051839,-2.152770757675171,-1.3376533103040238,-2.52914005914797,6.140406596451559,1.022055745124817,-2.774390999470846
1708434576.0538197,-2.1528027057647705,-1.3376414787820359,-2.529086176549093,6.140370833664694,1.0220308303833008,-2.774233643208639
1708434576.0558145,-2.1527459621429443,-1.3377022010139008,-2.529098097478048,6.140283691674032,1.0220427513122559,-2.774108950291769
1708434576.057846,-2.1527719497680664,-1.3376445782235642,-2.529144350682394,6.140315162926473,1.022010326385498,-2.7740357557879847
1708434576.0598326,-2.1527583599090576,-1.3376204085401078,-2.529074255620138,6.14022837856368,1.021998405456543,-2.7738164106952112
1708434576.061831,-2.1527676582336426,-1.337653325205185,-2.529078785573141,6.140195357590475,1.0220308303833008,-2.7737730185138147
1708434576.0638201,-2.1527345180511475,-1.3376248639873047,-2.529083315526144,6.1402132389839075,1.0220308303833008,-2.7735660711871546
1708434576.065824,-2.1527085304260254,-1.337637023334839,-2.5290923754321497,6.140198457032003,1.0220156908035278,-2.7734230200396937
1708434576.067813,-2.1527504920959473,-1.3376203936389466,-2.529083315526144,6.140169846802511,1.0219697952270508,-2.7732110659228724
