Eg3-git/Classifiers/Data Collection/u2/u2abc5_ur3e_joint_states.csv
time,elbow_joint,shoulder_lift_joint,shoulder_pan_joint,wrist_1_joint,wrist_2_joint,wrist_3_joint
1708434619.7335675,-2.140733480453491,-1.3333800596049805,-2.52735406557192,6.108512031822958,1.0187277793884277,-2.889046017323629
1708434619.7355418,-2.1407251358032227,-1.333359346990921,-2.5274081865893763,6.10852991321639,1.0187650918960571,-2.8890116850482386
1708434619.7375424,-2.140720844268799,-1.3333559793284913,-2.527320925389425,6.108525502472677,1.0187891721725464,-2.8889737764941614
1708434619.7395828,-2.1406939029693604,-1.333372638826706,-2.527372185383932,6.108485209732809,1.0187112092971802,-2.888986412678854
1708434619.7415917,-2.140744924545288,-1.333363727932312,-2.527379576359884,6.1085253832633875,1.018785834312439,-2.889029566441671
1708434619.7435777,-2.1407575607299805,-1.3333233457854767,-2.5273705164538782,6.1084927199180505,1.018781304359436,-2.8889909426318567
1708434619.7455587,-2.140720844268799,-1.3333219301751633,-2.527346436177389,6.1084807989890955,1.018784761428833,-2.8890236059771937
1708434619.7475774,-2.140716552734375,-1.3333559793284913,-2.527400557194845,6.108489858895101,1.018781304359436,-2.8890653292285364
1708434619.7495596,-2.1407532691955566,-1.3333396476558228,-2.527358595524923,6.108468520432272,1.0187443494796753,-2.8890400568591517
1708434619.7515655,-2.1406896114349365,-1.333339662556984,-2.5273824373828333,6.108452069550314,1.018757700920105,-2.8890324274646204
1708434619.7535698,-2.1406965255737305,-1.3333637428334733,-2.52733284631838,6.108473050385275,1.0187935829162598,-2.8890488783465784
1708434619.7555597,-2.140681266784668,-1.3333559793284913,-2.527375046406881,6.108432519226827,1.0187321901321411,-2.8890324274646204
1708434619.7575653,-2.1407177448272705,-1.3333351773074646,-2.52735406557192,6.108388292580404,1.0187695026397705,-2.8889909426318567
1708434619.7595696,-2.140720844268799,-1.3333470982364197,-2.5274036566363733,6.108407485276022,1.0187410116195679,-2.8890488783465784
1708434619.76157,-2.140709400177002,-1.333339662556984,-2.527367655430929,6.108417975693502,1.0187606811523438,-2.8890116850482386
1708434619.7635636,-2.1407322883605957,-1.3333756637624283,-2.527346436177389,6.108401524811544,1.0187606811523438,-2.8890133539782923
1708434619.7655811,-2.1407408714294434,-1.3333055836013337,-2.5273705164538782,6.108435976296224,1.018781304359436,-2.8890162150012415
1708434619.7675507,-2.1407251358032227,-1.3333426427892228,-2.527384106312887,6.108398306160726,1.0188099145889282,-2.8890488783465784
1708434619.7695668,-2.1407408714294434,-1.333317608838417,-2.52735406557192,6.1084269163902185,1.0187978744506836,-2.8890772501574915
1708434619.7715425,-2.140709400177002,-1.3333681386760254,-2.5273495356189173,6.108401524811544,1.0187277793884277,-2.8890236059771937
1708434619.7735698,-2.1407532691955566,-1.3333175790360947,-2.527358595524923,6.108407246857443,1.0187355279922485,-2.8890400568591517
1708434619.7755713,-2.140749454498291,-1.3333426874927063,-2.527384106312887,6.108413445740499,1.0187979936599731,-2.8890443483935755
1708434619.7775605,-2.1406683921813965,-1.333437905912735,-2.5273495356189173,6.1083446619804285,1.0187400579452515,-2.8890281359301966
1708434619.7795975,-2.1407251358032227,-1.3334086549333115,-2.527355496083395,6.108406054764547,1.0187695026397705,-2.8890488783465784
1708434619.7815578,-2.1407365798950195,-1.3334174317172547,-2.527355496083395,6.108417856484213,1.018785834312439,-2.889002863560812
1708434619.783551,-2.1407134532928467,-1.3333668571761628,-2.527358595524923,6.108384835511007,1.0187562704086304,-2.8890071550952356
1708434619.785548,-2.140709400177002,-1.3334052723697205,-2.527358595524923,6.1084433672721765,1.0187650918960571,-2.888977352772848
1708434619.7875671,-2.140705108642578,-1.3333933514407654,-2.527325455342428,6.108393895417013,1.0187355279922485,-2.8890236059771937
1708434619.7895453,-2.1407322883605957,-1.3334334206632157,-2.527341906224386,6.108398306160726,1.0187487602233887,-2.8890815416919153
1708434619.7915485,-2.1407408714294434,-1.333421916966774,-2.5273824373828333,6.108396994858541,1.018814206123352,-2.8890236059771937
1708434619.793561,-2.140748977661133,-1.3333800596049805,-2.527396027241842,6.108413445740499,1.0187739133834839,-2.8890190760241907
1708434619.7955842,-2.1407008171081543,-1.3333814305118104,-2.527337376271383,6.108414995461263,1.0187770128250122,-2.8889909426318567
1708434619.7975461,-2.140705108642578,-1.3333756637624283,-2.527367655430929,6.108368384629049,1.0187695026397705,-2.8889909426318567
1708434619.7995596,-2.140697956085205,-1.333377019768097,-2.52735406557192,6.108377444535055,1.018751859664917,-2.8890400568591517
1708434619.8015702,-2.1407532691955566,-1.333347038631775,-2.527325455342428,6.108393776207723,1.0187650918960571,-2.8890562693225306
1708434619.8035762,-2.1407575607299805,-1.3333351773074646,-2.527358595524923,6.10838936546401,1.0187726020812988,-2.8890607992755335
1708434619.8055732,-2.1407134532928467,-1.3333559793284913,-2.527341906224386,6.108375894814291,1.0187400579452515,-2.8889952341662806
1708434619.807566,-2.140745162963867,-1.3333233457854767,-2.5273495356189173,6.10841058471755,1.0187562704086304,-2.8889275232898157
1708434619.8095763,-2.1406896114349365,-1.3333681386760254,-2.527334515248434,6.108397114067831,1.0187606811523438,-2.8890116850482386
1708434619.811576,-2.1406850814819336,-1.33340077221904,-2.527379576359884,6.1083565829093835,1.018751859664917,-2.8889737764941614
1708434619.8135908,-2.1407575607299805,-1.333339662556984,-2.527379576359884,6.1084269163902185,1.0187277793884277,-2.8890443483935755
1708434619.8155634,-2.140716552734375,-1.3333559793284913,-2.527384106312887,6.108377444535055,1.0187474489212036,-2.88898736635317
1708434619.8176067,-2.1407134532928467,-1.333388940697052,-2.5274036566363733,6.1084269163902185,1.018751859664917,-2.888977352772848
1708434619.8195603,-2.140716552734375,-1.3333559793284913,-2.527341906224386,6.1083189127738855,1.0187277793884277,-2.8890443483935755
1708434619.8215547,-2.1407365798950195,-1.3333844554475327,-2.5273659865008753,6.108377444535055,1.0187726020812988,-2.8890190760241907
1708434619.8236005,-2.1407408714294434,-1.3333681386760254,-2.527384106312887,6.108349191933431,1.0187739133834839,-2.8890236059771937
1708434619.8255885,-2.140705108642578,-1.3333814305118104,-2.527358595524923,6.108372914582052,1.018735647201538,-2.889030996953146
1708434619.8275657,-2.140716552734375,-1.333359346990921,-2.527396027241842,6.108401524811544,1.0187695026397705,-2.8890162150012415
1708434619.829595,-2.1406896114349365,-1.3333381426385422,-2.527421776448385,6.108384835511007,1.0187277793884277,-2.8890281359301966
1708434619.831559,-2.140744924545288,-1.3333800596049805,-2.527313295994894,6.10841058471755,1.0187739133834839,-2.8889997641192835
1708434619.8335721,-2.140709400177002,-1.3333963763764878,-2.527341906224386,6.108327972679891,1.0187649726867676,-2.8890488783465784
1708434619.8355732,-2.1407322883605957,-1.333351494078972,-2.527329985295431,6.108424055367269,1.0187156200408936,-2.8889737764941614
1708434619.8375654,-2.140720844268799,-1.3333548468402405,-2.527358595524923,6.108377444535055,1.0187366008758545,-2.889014546071188
1708434619.8395946,-2.1407179832458496,-1.3333559793284913,-2.527355496083395,6.10841058471755,1.0187277793884277,-2.8890371958362024
1708434619.8415575,-2.1406939029693604,-1.3333559793284913,-2.527393166218893,6.108401524811544,1.0187562704086304,-2.8890326658831995
1708434619.8435524,-2.1407079696655273,-1.3334052723697205,-2.527346436177389,6.10841058471755,1.0187277793884277,-2.8890162150012415
1708434619.845585,-2.140720844268799,-1.3333933514407654,-2.527339045201437,6.1083459732826135,1.0187366008758545,-2.8890355269061487
1708434619.847562,-2.1406896114349365,-1.333351494078972,-2.527337376271383,6.108393895417013,1.0187739133834839,-2.8890653292285364
1708434619.849589,-2.1407008171081543,-1.3333756637624283,-2.527329985295431,6.108407366066732,1.0187650918960571,-2.8890445868121546
1708434619.8515556,-2.140716552734375,-1.3333800596049805,-2.527358595524923,6.108363973885336,1.0187036991119385,-2.8890190760241907
1708434619.8535488,-2.1407618522644043,-1.333421916966774,-2.527334515248434,6.108393776207723,1.018720030784607,-2.8890400568591517
1708434619.8555474,-2.1407408714294434,-1.3333426874927063,-2.527346436177389,6.108368384629049,1.0186830759048462,-2.8890116850482386
1708434619.8575826,-2.140720844268799,-1.333351494078972,-2.527372185383932,6.108413445740499,1.018720030784607,-2.8890281359301966
1708434619.859552,-2.140716552734375,-1.3333933514407654,-2.527346436177389,6.108406054764547,1.0187410116195679,-2.8890281359301966
1708434619.8615487,-2.140720844268799,-1.333338127737381,-2.527355496083395,6.108393776207723,1.018737554550171,-2.8890400568591517
1708434619.8635473,-2.1407322883605957,-1.3333559793284913,-2.5273869673358362,6.108380305558004,1.018720030784607,-2.8890400568591517
1708434619.865546,-2.1407408714294434,-1.3333889704993744,-2.5273435751544397,6.108413445740499,1.01868736743927,-2.8889907042132776
1708434619.867564,-2.1407251358032227,-1.333388940697052,-2.527350966130392,6.108445870667257,1.0187112092971802,-2.8889909426318567
1708434619.8695464,-2.1406965255737305,-1.3333637428334733,-2.527317825947897,6.108392584114828,1.0187005996704102,-2.8890488783465784
1708434619.8715525,-2.140705108642578,-1.3333756637624283,-2.5272985140429896,6.108392584114828,1.0187125205993652,-2.8889909426318567
1708434619.873566,-2.1407532691955566,-1.3333963763764878,-2.5273314158069056,6.108434307366171,1.0187005996704102,-2.8889952341662806
1708434619.8755736,-2.140705108642578,-1.3333426874927063,-2.5272985140429896,6.108413445740499,1.0186840295791626,-2.8890443483935755
1708434619.8775723,-2.1407291889190674,-1.3334096682122727,-2.5272491613971155,6.108413445740499,1.0186676979064941,-2.8890071550952356
1708434619.8795834,-2.140727996826172,-1.3333874952844162,-2.5273166338550013,6.108413445740499,1.0186809301376343,-2.8890045324908655
1708434619.8815527,-2.140723705291748,-1.3333963763764878,-2.5272911230670374,6.108409034996786,1.0186601877212524,-2.889047447835104
1708434619.8835726,-2.140727996826172,-1.3333963763764878,-2.5272792021380823,6.108458149224081,1.0186270475387573,-2.8889952341662806
1708434619.885544,-2.1406939029693604,-1.3333844554475327,-2.5272582213031214,6.10843704917983,1.0186690092086792,-2.8890355269061487
1708434619.8875685,-2.1407322883605957,-1.3333189201406022,-2.527226511632101,6.108429777413168,1.0186195373535156,-2.8890190760241907
1708434619.8895538,-2.1407008171081543,-1.333351494078972,-2.5272355715381067,6.108474600106039,1.0186971426010132,-2.8889382521258753
1708434619.8915627,-2.140723705291748,-1.333371178512909,-2.5272520224200647,6.108423578530111,1.0186313390731812,-2.8890026251422327
1708434619.893568,-2.140720844268799,-1.333388940697052,-2.52718168893923,6.108498680382528,1.0186612606048584,-2.8890536467181605
1708434619.8955562,-2.1407365798950195,-1.3333175790360947,-2.527238432561056,6.108522522240438,1.0186415910720825,-2.8889861742602747
1708434619.8976066,-2.140712261199951,-1.333338202243187,-2.527238432561056,6.10852991321639,1.0186164379119873,-2.8889737764941614
1708434619.8995776,-2.140744686126709,-1.333377019768097,-2.527259413396017,6.108512031822958,1.0186001062393188,-2.8890445868121546
1708434619.9015536,-2.1407358646392822,-1.3334096682122727,-2.527193609868185,6.108549225121298,1.0185712575912476,-2.8889997641192835
1708434619.9035714,-2.1407439708709717,-1.3333470684340973,-2.527198139821188,6.108573066979208,1.0185801982879639,-2.8890281359301966
1708434619.9055505,-2.1407439708709717,-1.333371178512909,-2.527193609868185,6.108598816185751,1.0185967683792114,-2.8890534082995813
1708434619.907594,-2.1407852172851562,-1.333388940697052,-2.5272191206561487,6.108613598137655,1.0185353755950928,-2.888996187840597
1708434619.9095612,-2.1407933235168457,-1.33340077221904,-2.5272610823260706,6.108556735306539,1.018515944480896,-2.8889737764941614
1708434619.9115465,-2.140789747238159,-1.333339662556984,-2.527247492467062,6.108638989716329,1.0184870958328247,-2.888996426259176
1708434619.9135582,-2.1407933235168457,-1.3333145391992112,-2.5272191206561487,6.108607518463888,1.018496036529541,-2.8889365831958216
1708434619.9155564,-2.140784740447998,-1.3333559793284913,-2.5271695295916956,6.108586776047506,1.0184634923934937,-2.888935152684347
1708434619.917566,-2.1408090591430664,-1.3333726090243836,-2.5271907488452356,6.108661281853475,1.0184600353240967,-2.8890007177936
1708434619.9195552,-2.1408004760742188,-1.3333603751710434,-2.5272281805621546,6.108627187996664,1.018452525138855,-2.888930622731344
1708434619.9215388,-2.1407723426818848,-1.3333396476558228,-2.5272207895862024,6.108676421433248,1.0184942483901978,-2.888951603566305
1708434619.923597,-2.1408119201660156,-1.3333998334458848,-2.5271998087512415,6.10866008976058,1.0183911323547363,-2.888935152684347
1708434619.9255626,-2.1408162117004395,-1.333314449792244,-2.5271876494037073,6.1086792824561975,1.0184240341186523,-2.888951603566305
1708434619.9275858,-2.1408162117004395,-1.3333603900722046,-2.5271454493152063,6.108703481941976,1.018358588218689,-2.888880793248312
1708434619.9295545,-2.1408908367156982,-1.3333603900722046,-2.527180020009176,6.108733403473654,1.0183748006820679,-2.888906780873434
1708434619.931548,-2.1408822536468506,-1.3333603751710434,-2.5272043387042444,6.1087214825446985,1.0183507204055786,-2.888923231755392
1708434619.9335735,-2.140873670578003,-1.3333559793284913,-2.527175490056173,6.108794319420614,1.0183639526367188,-2.8888734022723597
1708434619.935548,-2.1408610343933105,-1.3333681386760254,-2.527138058339254,6.108727204590597,1.0183144807815552,-2.8888869921313685
1708434619.9375477,-2.1409175395965576,-1.3333233755877991,-2.527139727269308,6.108776438027181,1.0183444023132324,-2.8889079729663294
1708434619.939567,-2.140820026397705,-1.333426372413971,-2.52710205713381,6.1088048098380945,1.0183244943618774,-2.8888734022723597
1708434619.9415543,-2.1408605575561523,-1.3333294999650498,-2.527139727269308,6.108791339188375,1.0182749032974243,-2.8889158407794397
1708434619.9435852,-2.140901803970337,-1.3334052723697205,-2.5271275679217737,6.108829009323873,1.0182512998580933,-2.8888986746417444
1708434619.945542,-2.1408772468566895,-1.33341737211261,-2.527113978062765,6.1088260290916345,1.0182632207870483,-2.8888915220843714
1708434619.9475703,-2.140904426574707,-1.33335596442733,-2.5271156469928187,6.10889624336318,1.018227219581604,-2.8888869921313685
1708434619.949542,-2.1409168243408203,-1.333339662556984,-2.527113978062765,6.108900654106893,1.0182316303253174,-2.88883883157839
1708434619.951535,-2.1409449577331543,-1.3333603900722046,-2.5270660559283655,6.108915555268087,1.0182075500488281,-2.888846222554342
1708434619.9535728,-2.140974283218384,-1.333388940697052,-2.5270615259753626,6.108960616379537,1.0181987285614014,-2.888825241719381
1708434619.9555523,-2.1409406661987305,-1.3333637428334733,-2.5270705858813685,6.108926164894857,1.0182163715362549,-2.888834540043966
1708434619.9575577,-2.140974283218384,-1.333326370721199,-2.5271080175982874,6.108947026520529,1.0181386470794678,-2.8888626734363
1708434619.9595783,-2.140965461730957,-1.3333800596049805,-2.5270541349994105,6.109020101815023,1.0181474685668945,-2.888883654271261
1708434619.9615808,-2.1409525871276855,-1.3333397221616288,-2.527072254811422,6.109006631165304,1.018164038658142,-2.888806168233053
1708434619.963552,-2.140961170196533,-1.3333889108947297,-2.527008835469381,6.109065162926473,1.018148422241211,-2.888822380696432
1708434619.9655557,-2.140979766845703,-1.3334130209735413,-2.527043883000509,6.109030711441793,1.0181158781051636,-2.888871733342306
1708434619.9675593,-2.1409921646118164,-1.3333933514407654,-2.527017895375387,6.109059083252706,1.0181366205215454,-2.8888405005084437
1708434619.9695396,-2.1410317420959473,-1.333360419874527,-2.526989523564474,6.109104025154867,1.0180917978286743,-2.8888116518603724
1708434619.9715633,-2.1410582065582275,-1.3333844554475327,-2.5270450750934046,6.109083163529196,1.0180377960205078,-2.8887861410724085
1708434619.9735851,-2.14104962348938,-1.3334246438792725,-2.5270031134234827,6.109151708870687,1.0180511474609375,-2.8888071219073694
1708434619.9755573,-2.1410539150238037,-1.333351494078972,-2.5269747416125696,6.109135377198019,1.0180555582046509,-2.8887997309314173
1708434619.9775667,-2.141101360321045,-1.3333889257958909,-2.5269911924945276,6.109183299332418,1.0180197954177856,-2.8887816111194056
1708434619.9795544,-2.1410279273986816,-1.3333144050887604,-2.5269747416125696,6.109187829285421,1.0179777145385742,-2.8887861410724085
1708434619.9815495,-2.1410720348358154,-1.333385781650879,-2.5269792715655726,6.109260666161337,1.0180110931396484,-2.888787810002462
1708434619.9836216,-2.1410927772521973,-1.3333307367614289,-2.526943031941549,6.1091980812843225,1.017991065979004,-2.8887503782855433
1708434619.9855897,-2.1411125659942627,-1.3333977323821564,-2.526952091847555,6.1092309830482385,1.017970323562622,-2.888796631489889
1708434619.9875605,-2.141119956970215,-1.3334174019149323,-2.526964251195089,6.109274375229635,1.0179550647735596,-2.888742987309591
1708434619.9895456,-2.1410982608795166,-1.3333681386760254,-2.526914660130636,6.109319436341085,1.0179387331008911,-2.888780180607931
1708434619.9915502,-2.141167640686035,-1.333326370721199,-2.526956621800558,6.109283315926351,1.017959475517273,-2.888754908238546
1708434619.9935844,-2.1411757469177246,-1.3333963465741654,-2.526869599019186,6.10930751541213,1.0178935527801514,-2.888768259678976
1708434619.995587,-2.141143321990967,-1.333375633960106,-2.526886049901144,6.10933397987441,1.0179024934768677,-2.888742987309591
1708434619.9975593,-2.14123272895813,-1.3333726537278672,-2.5268664995776575,6.109387981682577,1.017894983291626,-2.888731066380636
1708434619.999564,-2.141188144683838,-1.333384470348694,-2.5268619696246546,6.109375941544332,1.0178874731063843,-2.8886948267566126
1708434620.0015695,-2.1412153244018555,-1.3334051978639145,-2.5268996397601526,6.109349119454183,1.0178349018096924,-2.888744656239645
1708434620.003578,-2.141248941421509,-1.3333919656327744,-2.5268967787372034,6.109410512238302,1.017809510231018,-2.8886857668506067
1708434620.0055544,-2.1412770748138428,-1.3333787632039567,-2.5268545786487024,6.109389650612631,1.017809510231018,-2.8886905352221888
1708434620.0075645,-2.141263961791992,-1.333377019768097,-2.5268619696246546,6.109372842102804,1.0178481340408325,-2.8886829058276575
1708434620.0095696,-2.141263961791992,-1.33340077221904,-2.5268335978137415,6.1094223139579675,1.0177782773971558,-2.8887112776385706
1708434620.011544,-2.141307830810547,-1.3333188158324738,-2.5268381277667444,6.109462487488546,1.0177913904190063,-2.8886829058276575
1708434620.0135863,-2.141263961791992,-1.3333933514407654,-2.5268006960498255,6.109428274422445,1.0177792310714722,-2.888712708150045
1708434620.0155916,-2.141242504119873,-1.333326445227005,-2.526856247578756,6.109494077950277,1.017767071723938,-2.8886426130877894
1708434620.0175593,-2.1412792205810547,-1.3333470982364197,-2.526789967213766,6.109497177391805,1.0177552700042725,-2.8886590639697474
1708434620.0195708,-2.141319751739502,-1.3333470982364197,-2.5268307367907923,6.109530198365011,1.017734169960022,-2.8886383215533655
1708434620.0215647,-2.141315460205078,-1.3333426874927063,-2.526815954838888,6.109579193383016,1.0177310705184937,-2.8886635939227503
1708434620.0235739,-2.141298532485962,-1.333351494078972,-2.526839796696798,6.109558093338766,1.0176740884780884,-2.888604704533712
1708434620.025573,-2.1413559913635254,-1.33340077221904,-2.526778046284811,6.109516846924581,1.0176621675491333,-2.888651672993795
1708434620.0275688,-2.141322612762451,-1.333326370721199,-2.526820484791891,6.109606134682455,1.0176546573638916,-2.888613764439718
1708434620.029585,-2.1413393020629883,-1.333339662556984,-2.526778046284811,6.109619605332174,1.017638087272644,-2.88863188425173
1708434620.031556,-2.141371726989746,-1.3333933514407654,-2.5267661253558558,6.109592664032736,1.0176842212677002,-2.888656202946798
1708434620.0335758,-2.1413803100585938,-1.333338202243187,-2.5268035570727747,6.109646785050192,1.017593264579773,-2.88859731355776
1708434620.0355518,-2.1413588523864746,-1.3333726239255448,-2.5267496744738978,6.109658586769857,1.0176228284835815,-2.888610903416769
1708434620.0375865,-2.1413745880126953,-1.333351508980133,-2.5267723242389124,6.109648096352377,1.017606496810913,-2.8885915915118616
1708434620.0396044,-2.1414082050323486,-1.3333559793284913,-2.5267887751208704,6.109668957978048,1.0175987482070923,-2.8886125723468226
1708434620.041562,-2.1413700580596924,-1.3333889704993744,-2.5267558733569544,6.109706151276388,1.0175824165344238,-2.8885989824878138
1708434620.0436025,-2.1414361000061035,-1.3334052872708817,-2.5267227331744593,6.1097004292304895,1.0175539255142212,-2.8886199633227747
1708434620.0455809,-2.141479969024658,-1.3334007573178788,-2.5267346541034144,6.109730350762167,1.0175912380218506,-2.8886080423938196
1708434620.047571,-2.1414449214935303,-1.3333800596049805,-2.526715103779928,6.109742271691122,1.0175461769104004,-2.8885915915118616
1708434620.049627,-2.141483783721924,-1.3333339256099244,-2.526731793080465,6.109728801041403,1.017496943473816,-2.8885625044452112
1708434620.0516024,-2.1414670944213867,-1.3333307665637513,-2.526686731969015,6.109736192017355,1.017498254776001,-2.8886006514178675
1708434620.0535784,-2.141451358795166,-1.3334219616702576,-2.526670281087057,6.109748351364889,1.017510175704956,-2.8885915915118616
1708434620.0555594,-2.1414918899536133,-1.3333844554475327,-2.526691261922018,6.10976933219985,1.0174776315689087,-2.8885672728167933
1708434620.0575864,-2.1414918899536133,-1.3334219616702576,-2.5266462008105677,6.109805094986715,1.017465353012085,-2.8885796705829065
1708434620.0595734,-2.1414947509765625,-1.3333756488612671,-2.5266884008990687,6.109794485359945,1.0175026655197144,-2.888538424168722
1708434620.0615687,-2.1414990425109863,-1.3333593618920823,-2.5266581217395228,6.109797227173605,1.0174486637115479,-2.8885887304889124
1708434620.0635753,-2.141510486602783,-1.333384470348694,-2.5266221205340784,6.109841096192159,1.017445683479309,-2.8885462919818323
1708434620.0655696,-2.1415481567382812,-1.3333998036435624,-2.5266597906695765,6.109767424851217,1.0174249410629272,-2.8885751406299036
1708434620.067595,-2.1415185928344727,-1.333359346990921,-2.5266552607165735,6.109850036888876,1.0174545049667358,-2.888571802769796
1708434620.0695734,-2.1415438652038574,-1.3333548170379181,-2.5266507307635706,6.109845626145162,1.017400860786438,-2.888526503239767
1708434620.07157,-2.141559600830078,-1.3333396476558228,-2.5265892187701624,6.109857547074117,1.0173600912094116,-2.888559881840841
1708434620.0735543,-2.1415467262268066,-1.3333427023938675,-2.5266431013690394,6.109848487168112,1.0173944234848022,-2.888538185750143
1708434620.0756006,-2.1415748596191406,-1.3333548468402405,-2.526590887700216,6.109832036286154,1.017403244972229,-2.888514582310812
1708434620.0776055,-2.1415748596191406,-1.3334097129157563,-2.526607338582174,6.109867799073019,1.0173702239990234,-2.88853103319277
1708434620.079578,-2.1415791511535645,-1.3333756637624283,-2.526670281087057,6.109837996750631,1.017370343208313,-2.888526503239767
1708434620.0815482,-2.141566038131714,-1.333326355820038,-2.52661639848818,6.109846937447347,1.0173251628875732,-2.8884907404529017
1708434620.083605,-2.1415531635284424,-1.3333593022874375,-2.526590887700216,6.109854447632589,1.0172818899154663,-2.8885191122638147
1708434620.0855887,-2.1416068077087402,-1.3333756488612671,-2.526557509099142,6.109899031906881,1.0172808170318604,-2.8884580771075647
1708434620.0875976,-2.1416068077087402,-1.3334409457496186,-2.526599947606222,6.109887230187216,1.0172356367111206,-2.8884833494769495
1708434620.089581,-2.141590118408203,-1.3334289652160187,-2.526604477559225,6.109928953438558,1.0172532796859741,-2.888481918965475
1708434620.0915484,-2.1415531635284424,-1.3333681237748642,-2.5265381971942347,6.1099125025566,1.017220377922058,-2.8884907404529017
1708434620.0935504,-2.1415743827819824,-1.333388940697052,-2.5265381971942347,6.1099785445030115,1.0172173976898193,-2.8885162512408655
1708434620.0955582,-2.1416149139404297,-1.3333919805339356,-2.5265501181231897,6.109910952835836,1.0172247886657715,-2.8885369936572474
1708434620.0975957,-2.1416306495666504,-1.3333158952048798,-2.5265472571002405,6.109944212227621,1.0172216892242432,-2.8885040918933313
1708434620.099543,-2.1416420936584473,-1.3333756488612671,-2.5265517870532435,6.109935152321615,1.01723051071167,-2.88843804994692
1708434620.1015584,-2.1416828632354736,-1.3333681535771866,-2.5265262762652796,6.109972464829244,1.0172141790390015,-2.8884759585009974
1708434620.1035802,-2.1416289806365967,-1.3333756488612671,-2.5265234152423304,6.110000717430868,1.0172020196914673,-2.8884807268725794
1708434620.1055443,-2.1416501998901367,-1.3333593320897599,-2.5265217463122767,6.109991776734152,1.0171735286712646,-2.8885014692889612
1708434620.1075697,-2.1416501998901367,-1.3333844256452103,-2.5265067259417933,6.110015857010641,1.0171527862548828,-2.8884759585009974
1708434620.1095512,-2.141674041748047,-1.3334174466184159,-2.5265021959887903,6.109999167710104,1.0171571969985962,-2.888473097478048
1708434620.1115398,-2.141695022583008,-1.3333800596049805,-2.5265067259417933,6.1099856970603845,1.0171494483947754,-2.888426129017965
1708434620.1135788,-2.141658067703247,-1.3334008020213624,-2.526515785847799,6.110020386963644,1.0171616077423096,-2.888427797948019
1708434620.115573,-2.1416327953338623,-1.333417461519577,-2.526511255894796,6.110044228821554,1.0171256065368652,-2.888426129017965
1708434620.1175647,-2.14168643951416,-1.3333919805339356,-2.526482645665304,6.110027777939596,1.0171494483947754,-2.888390604649679
1708434620.1195905,-2.14168643951416,-1.3334086400321503,-2.526503864918844,6.1099737761314294,1.0170923471450806,-2.8884695211993616
1708434620.1215374,-2.1416945457458496,-1.333387480383255,-2.526511255894796,6.110047089844503,1.0171136856079102,-2.8884158770190638
1708434620.1235569,-2.1416611671447754,-1.333440975551941,-2.526499334965841,6.110080230026998,1.0171419382095337,-2.888423267995016
1708434620.1255565,-2.141751527786255,-1.333396391277649,-2.526466194783346,6.11008762100295,1.0170568227767944,-2.8883710543261927
1708434620.1275473,-2.141721725463867,-1.3333593171885987,-2.526458803807394,6.110121953278341,1.0170804262161255,-2.8883495966540735
1708434620.12955,-2.141767978668213,-1.3334086400321503,-2.5264843145953577,6.11010109165267,1.0170568227767944,-2.8883994261371058
1708434620.1315618,-2.1417839527130127,-1.3334467870048066,-2.5264559427844446,6.110105621605673,1.0170326232910156,-2.8883965651141565
1708434620.1335628,-2.1417839527130127,-1.3333889704993744,-2.5264514128314417,6.11008762100295,1.0170817375183105,-2.8884010950671595
1708434620.1355581,-2.1416945457458496,-1.3334086400321503,-2.5264437834369105,6.110095011978903,1.0170533657073975,-2.8884246985064905
1708434620.1375868,-2.1417129039764404,-1.3333470684340973,-2.5264318625079554,6.110075700073995,1.0170906782150269,-2.8883467356311243
1708434620.1395564,-2.1417667865753174,-1.3333559793284913,-2.5264604727374476,6.110129344254293,1.017037034034729,-2.8883541266070765
1708434620.1415482,-2.1417174339294434,-1.3333800596049805,-2.526458803807394,6.11008762100295,1.017038106918335,-2.8883677164660853
1708434620.1435573,-2.1417622566223145,-1.333405302172043,-2.5264151732074183,6.110103952675619,1.0170217752456665,-2.8883302847491663
1708434620.1455402,-2.1417462825775146,-1.3334008020213624,-2.5264604727374476,6.110071289330282,1.0169726610183716,-2.8883348147021692
1708434620.147562,-2.1417579650878906,-1.3333889704993744,-2.5264273325549524,6.110156285553732,1.0169888734817505,-2.888322893773214
1708434620.1495616,-2.1417462825775146,-1.333375633960106,-2.5264151732074183,6.11008762100295,1.0169603824615479,-2.8883093039142054
1708434620.151561,-2.1417789459228516,-1.333342657690384,-2.5264106432544153,6.110123383789816,1.0169780254364014,-2.888376537953512
1708434620.153557,-2.141737699508667,-1.3333919805339356,-2.5263987223254603,6.110130774765768,1.0169603824615479,-2.888310972844259
1708434620.155555,-2.1417789459228516,-1.3333756488612671,-2.526424233113424,6.110168444901266,1.0169363021850586,-2.888310972844259
1708434620.1575727,-2.141770362854004,-1.3333800596049805,-2.526395861302511,6.110135304718771,1.0169166326522827,-2.888303581868307
1708434620.1595402,-2.1417834758758545,-1.3334086400321503,-2.5263658205615442,6.110130893975057,1.0169495344161987,-2.8882902304278772
1708434620.1615615,-2.1417622566223145,-1.3333889704993744,-2.526403252278463,6.1101218340690515,1.0169122219085693,-2.888315502797262
1708434620.1635559,-2.141791343688965,-1.3333668273738404,-2.52637488046755,6.110180365830221,1.016942024230957,-2.8883124033557337
1708434620.1655514,-2.141791343688965,-1.3333381575397034,-2.5264139811145228,6.110175835877218,1.0168673992156982,-2.888275210057394
1708434620.16757,-2.141770362854004,-1.3333681386760254,-2.526353899632589,6.110189306526937,1.0169254541397095,-2.888275210057394
1708434620.1695411,-2.14182710647583,-1.3333919805339356,-2.526388470326559,6.110184895783224,1.01692533493042,-2.888266150151388
1708434620.1715472,-2.141805648803711,-1.3333470684340973,-2.526391331349508,6.11013816574172,1.0168927907943726,-2.8882411162005823
1708434620.1735609,-2.141782760620117,-1.333363727932312,-2.52640945116152,6.110190975456991,1.0168728828430176,-2.888284508381979
1708434620.1755626,-2.1418309211730957,-1.3334008020213624,-2.526372019444601,6.110162246018209,1.0168521404266357,-2.8883007208453577
1708434620.177608,-2.141787052154541,-1.3334086400321503,-2.5263221899615687,6.110211837082662,1.0168403387069702,-2.8882673422442835
1708434620.1795573,-2.1417698860168457,-1.3334246438792725,-2.5263341108905237,6.1101921675498865,1.0168490409851074,-2.8882764021502894
1708434620.1815345,-2.141822338104248,-1.3334201139262696,-2.5263312498675745,6.110211837082662,1.016844630241394,-2.8882175127612513
1708434620.183553,-2.141794204711914,-1.3333681386760254,-2.5263598600970667,6.110162246018209,1.0168284177780151,-2.8882175127612513
1708434620.1855898,-2.1418521404266357,-1.3334158223918458,-2.5262892881976526,6.110190856247701,1.0168083906173706,-2.888264004384176
1708434620.1875622,-2.141794204711914,-1.333372638826706,-2.5263102690326136,6.110144364624777,1.0168293714523315,-2.8882291952716272
1708434620.1895807,-2.141843318939209,-1.333384470348694,-2.5263147989856165,6.110220896988668,1.0168172121047974,-2.88820726076235
1708434620.191561,-2.1418673992156982,-1.3333668273738404,-2.5263147989856165,6.110202896385946,1.0168293714523315,-2.888259474431173
1708434620.1935756,-2.1418673992156982,-1.3333711487105866,-2.5263312498675745,6.1101324436958215,1.016796588897705,-2.88820726076235
1708434620.1955693,-2.1418137550354004,-1.3334008020213624,-2.5262983481036585,6.110223400383749,1.016833782196045,-2.888228241597311
1708434620.197591,-2.1418585777282715,-1.333363727932312,-2.5263028780566614,6.110260951309957,1.0168052911758423,-2.888240162526266
1708434620.1995637,-2.1418259143829346,-1.3333711487105866,-2.5263283888446253,6.110223400383749,1.0167887210845947,-2.888195339833395
1708434620.2015612,-2.1418416500091553,-1.3333263260177155,-2.5262864271747034,6.110259520798483,1.0167964696884155,-2.888228241597311
1708434620.2035716,-2.1418585777282715,-1.3333593171885987,-2.5263028780566614,6.1102521298225305,1.0167691707611084,-2.8882208506213587
1708434620.2055535,-2.1418797969818115,-1.333405302172043,-2.526278797780172,6.1102309105689905,1.0168185234069824,-2.8881998697863978
1708434620.2075784,-2.1418585777282715,-1.3333800596049805,-2.5262909571277063,6.1102250693138025,1.0167354345321655,-2.88820726076235
1708434620.209565,-2.1418752670288086,-1.3333998185447236,-2.5263329187976282,6.11019383647994,1.0167486667633057,-2.888190809880392
1708434620.2115538,-2.1418259143829346,-1.3333593171885987,-2.52631646791567,6.11019383647994,1.016769289970398,-2.8881879488574427
1708434620.2136328,-2.1418752670288086,-1.3333580058864136,-2.526266876851217,6.110247599869528,1.016769289970398,-2.8881545702563685
1708434620.2155654,-2.1418347358703613,-1.3334086400321503,-2.5263329187976282,6.110271322518148,1.0167618989944458,-2.8882043997394007
1708434620.2176,-2.1418673992156982,-1.3333756488612671,-2.52627140680422,6.110284912377157,1.016715407371521,-2.8881500403033655
1708434620.219538,-2.1419222354888916,-1.3333593171885987,-2.526287857686178,6.110284912377157,1.0166916847229004,-2.8881455103503626
1708434620.2215698,-2.1418542861938477,-1.3334364754012604,-2.5262742678271692,6.110301363259115,1.0167196989059448,-2.8881924788104456
1708434620.223544,-2.1418752670288086,-1.3333800596049805,-2.526309076939718,6.110243069916525,1.0167080163955688,-2.8882134596454065
1708434620.2255418,-2.1418542861938477,-1.333363727932312,-2.526233736668722,6.110334384232321,1.0167286396026611,-2.8881545702563685
1708434620.2275424,-2.1418585777282715,-1.3334008020213624,-2.526275936757223,6.110259401589193,1.0167449712753296,-2.8881471792804163
1708434620.2295365,-2.141845703125,-1.333372638826706,-2.52625018755068,6.110220658570089,1.0167242288589478,-2.888167921696798
1708434620.2315292,-2.14189076423645,-1.3333668273738404,-2.52627140680422,6.110308992653646,1.0166882276535034,-2.8881800810443323
1708434620.2335567,-2.1418709754943848,-1.3334219616702576,-2.526341740285055,6.110250580101766,1.0167003870010376,-2.8881188074695032
1708434620.2355447,-2.1418709754943848,-1.3334219616702576,-2.5262683073626917,6.11025499084548,1.0166794061660767,-2.8881188074695032
1708434620.2375531,-2.1418981552124023,-1.3333756488612671,-2.526275936757223,6.11025499084548,1.01668381690979,-2.8881307283984583
1708434620.2395487,-2.141850471496582,-1.3333831590465088,-2.526233736668722,6.110274183541097,1.0166763067245483,-2.8881142775165003
1708434620.241561,-2.1418938636779785,-1.3333593171885987,-2.526287857686178,6.110287773400106,1.0166763067245483,-2.8881352583514612
1708434620.2435825,-2.1419053077697754,-1.3333756488612671,-2.526245657597677,6.110325324326315,1.0166807174682617,-2.8881636301623743
1708434620.2455587,-2.1418371200561523,-1.3334041398814698,-2.526259247456686,6.110283362656393,1.0167014598846436,-2.888127867375509
1708434620.2475736,-2.1418938636779785,-1.3334334653666993,-2.526287857686178,6.110283243447103,1.0166597366333008,-2.888120476399557
1708434620.2495787,-2.141909599304199,-1.3333919805339356,-2.526275936757223,6.1103237746055505,1.0166895389556885,-2.888132158909933
1708434620.2515533,-2.1418895721435547,-1.333440975551941,-2.5262189547168177,6.110295522003927,1.0166641473770142,-2.888160530720846
1708434620.2536213,-2.141913890838623,-1.3333889704993744,-2.526217285786764,6.110274302750387,1.016652226448059,-2.8880601564990442
1708434620.2555392,-2.1419386863708496,-1.3334008169225235,-2.52627140680422,6.110266911774435,1.016685128211975,-2.888132158909933
1708434620.2575502,-2.1419053077697754,-1.333387480383255,-2.526275936757223,6.110344397812643,1.016702651977539,-2.888073507939474
1708434620.2595458,-2.1418824195861816,-1.3334130507758637,-2.5262637774096888,6.1103237746055505,1.0166311264038086,-2.888136927281515
1708434620.261556,-2.141909599304199,-1.3333919805339356,-2.526242796574728,6.110277640610494,1.0166773796081543,-2.888102356587545
1708434620.2635982,-2.1419053077697754,-1.3333800596049805,-2.526259247456686,6.110262381821432,1.016672968864441,-2.888061587010519
1708434620.2655585,-2.141873836517334,-1.333363727932312,-2.5261932055102747,6.110241400986471,1.016640067100525,-2.888099495564596
1708434620.2678347,-2.14193058013916,-1.333387480383255,-2.5262473265277308,6.110269772797384,1.0166162252426147,-2.888094965611593
1708434620.2695763,-2.1418895721435547,-1.3334041398814698,-2.5262728373156946,6.110265362053671,1.0166075229644775,-2.888099495564596
1708434620.27155,-2.141909599304199,-1.3334086400321503,-2.5262022654162806,6.110253441124716,1.0166444778442383,-2.888099495564596
1708434620.2735457,-2.1419219970703125,-1.3333954078010102,-2.5262518564807337,6.110330927162924,1.0166817903518677,-2.8880916277514856
1708434620.275551,-2.1418895721435547,-1.3333756488612671,-2.5262563864337366,6.110269772797384,1.01664137840271,-2.888104263936178
1708434620.277579,-2.141885280609131,-1.3333470684340973,-2.5262399355517786,6.110370147019186,1.0166325569152832,-2.8880916277514856
1708434620.279604,-2.141885280609131,-1.3333514791778107,-2.5262444655047815,6.110290992050924,1.016702651977539,-2.8880961577044886
1708434620.28157,-2.1418967247009277,-1.3334158223918458,-2.5262280146228235,6.1102731106574915,1.0166281461715698,-2.8880632559405726
1708434620.2836485,-2.1419010162353516,-1.333384470348694,-2.526188913975851,6.110220658570089,1.0166939496994019,-2.8880496660815638
1708434620.2855473,-2.1418538093566895,-1.333420143728592,-2.5262234846698206,6.110347616463461,1.0166281461715698,-2.888094965611593
1708434620.2875297,-2.1419010162353516,-1.3334008020213624,-2.5262940565692347,6.11032651641921,1.0166281461715698,-2.888113085423605
1708434620.2895424,-2.1418938636779785,-1.333387480383255,-2.5262308756457728,6.110368478089132,1.0166040658950806,-2.8880496660815638
1708434620.291531,-2.1419429779052734,-1.3333831590465088,-2.5261855761157435,6.110332834511556,1.0166610479354858,-2.888099495564596
1708434620.2935324,-2.14193058013916,-1.3334246438792725,-2.5262728373156946,6.110330927162924,1.0166325569152832,-2.8880961577044886
1708434620.2955413,-2.1419177055358887,-1.333396391277649,-2.5262637774096888,6.110294091492452,1.016611933708191,-2.8880468050586146
1708434620.2975414,-2.141885280609131,-1.33340077221904,-2.5262280146228235,6.110296952515402,1.016611933708191,-2.888066116963522
1708434620.299554,-2.141878128051758,-1.3333756488612671,-2.5262189547168177,6.110375988274374,1.0166531801223755,-2.8880823294269007
1708434620.3015347,-2.141909599304199,-1.3334041398814698,-2.5262234846698206,6.1103341458137415,1.0166281461715698,-2.8880601564990442
1708434620.3035715,-2.1419460773468018,-1.3333711487105866,-2.5262234846698206,6.1103670475776575,1.0166162252426147,-2.888066116963522
1708434620.3055742,-2.141934394836426,-1.3333831590465088,-2.5262144247638147,6.110329735070028,1.0166040658950806,-2.8880870977984827
1708434620.3075542,-2.1419429779052734,-1.3333548170379181,-2.5262189547168177,6.1102895615394495,1.0166206359863281,-2.8880260626422327
1708434620.309536,-2.1419003009796143,-1.3333831590465088,-2.5262444655047815,6.110375988274374,1.0166206359863281,-2.8880587259875696
1708434620.3115354,-2.141885280609131,-1.3334290546229859,-2.5262189547168177,6.110321986466207,1.016636848449707,-2.8881457487689417
1708434620.3135543,-2.1419503688812256,-1.333405302172043,-2.526280466710226,6.110371458321371,1.0166206359863281,-2.8880425135241907
1708434620.3155468,-2.1419670581817627,-1.3333460849574585,-2.5262399355517786,6.110329735070028,1.0165833234786987,-2.8880706469165247
1708434620.3175466,-2.1419386863708496,-1.3333548170379181,-2.5262234846698206,6.110341536789694,1.0166128873825073,-2.888113085423605
1708434620.319582,-2.141979455947876,-1.3333831590465088,-2.5262444655047815,6.1103505966956995,1.0166444778442383,-2.888037983571188
1708434620.3215306,-2.1419589519500732,-1.3333910268596192,-2.5262022654162806,6.110400187760153,1.0166369676589966,-2.8880348841296595
1708434620.323556,-2.1419923305511475,-1.3334219616702576,-2.5262609163867396,6.110409128456869,1.0166075229644775,-2.8880425135241907
1708434620.3255458,-2.141913414001465,-1.3334007424167176,-2.5262113253222864,6.110357987671652,1.0166162252426147,-2.8880677858935755
1708434620.327595,-2.1419503688812256,-1.3333711487105866,-2.52622634569277,6.110337006836691,1.0166040658950806,-2.888037983571188
1708434620.3295536,-2.1419010162353516,-1.333396391277649,-2.5262308756457728,6.110357987671652,1.0166250467300415,-2.8880870977984827
1708434620.3316061,-2.1419460773468018,-1.333350495701172,-2.5262189547168177,6.110313045769491,1.016611933708191,-2.8880541960345667
1708434620.3335648,-2.141913414001465,-1.333321825867035,-2.5262683073626917,6.110407459526815,1.0166162252426147,-2.8880468050586146
1708434620.3355594,-2.141941547393799,-1.3333711487105866,-2.5262354055987757,6.1103625176246545,1.0166369676589966,-2.8880751768695276
1708434620.3375366,-2.1419546604156494,-1.3333504808000107,-2.5262609163867396,6.110428440361776,1.0166206359863281,-2.8881049791919153
1708434620.3395758,-2.141908884048462,-1.3333963614753266,-2.5262563864337366,6.110391127854147,1.0166457891464233,-2.8880842367755335
1708434620.3415785,-2.141913414001465,-1.333420143728592,-2.5262354055987757,6.110386597901144,1.0166369676589966,-2.8880468050586146
1708434620.3435967,-2.1419546604156494,-1.3334290546229859,-2.5262683073626917,6.11038218715743,1.0166369676589966,-2.8880260626422327
1708434620.3455334,-2.1419670581817627,-1.3333548170379181,-2.5262354055987757,6.110382067948141,1.0166620016098022,-2.8880394140826624
1708434620.3475535,-2.141937255859375,-1.333354876642563,-2.5262354055987757,6.110402929573812,1.0166281461715698,-2.888054434453146
1708434620.3495543,-2.1419386863708496,-1.3333800596049805,-2.5261977354632776,6.11041938045577,1.0166698694229126,-2.8880677858935755
1708434620.351553,-2.141883611679077,-1.3333800596049805,-2.5262773672686976,6.110427129059591,1.016611933708191,-2.8880916277514856
1708434620.3536115,-2.1419169902801514,-1.3334130507758637,-2.5262308756457728,6.110438930779257,1.0166444778442383,-2.8880766073810022
1708434620.3555653,-2.141937255859375,-1.333413080578186,-2.5262609163867396,6.110405909806051,1.0166620016098022,-2.8880839983569544
1708434620.3575654,-2.141930103302002,-1.3334041398814698,-2.5262609163867396,6.110413777619161,1.016636848449707,-2.8880916277514856
1708434620.3595495,-2.141979455947876,-1.333440975551941,-2.5262280146228235,6.110459673195638,1.0166250467300415,-2.8880394140826624
1708434620.361549,-2.141979455947876,-1.3333919805339356,-2.5262234846698206,6.11043010929183,1.0165833234786987,-2.8880751768695276
1708434620.3635423,-2.141887903213501,-1.3334130507758637,-2.5261781851397913,6.110476004868307,1.0166325569152832,-2.8880587259875696
1708434620.365545,-2.141930103302002,-1.3334041249803086,-2.5262354055987757,6.110386478691854,1.0166523456573486,-2.8880186716662806
1708434620.3675475,-2.1419460773468018,-1.3334041398814698,-2.5262234846698206,6.110439049988546,1.016608476638794,-2.8880677858935755
1708434620.3695452,-2.141937255859375,-1.3333580058864136,-2.5262189547168177,6.11038504818038,1.0166531801223755,-2.8881004492389124
1708434620.3715596,-2.141953945159912,-1.3333668273738404,-2.5262113253222864,6.110404598503866,1.0166488885879517,-2.888005081807272
1708434620.3735518,-2.141941547393799,-1.3334246438792725,-2.5262189547168177,6.110458123474874,1.0166531801223755,-2.8880305925952356
1708434620.375538,-2.141970634460449,-1.333407000904419,-2.5262609163867396,6.110443579941549,1.0166369676589966,-2.8880348841296595
1708434620.377557,-2.1419837474823,-1.333440975551941,-2.5262399355517786,6.110462534218588,1.0166488885879517,-2.8880229632007044
1708434620.3795907,-2.141953945159912,-1.3334097129157563,-2.5261977354632776,6.110471474915304,1.0166206359863281,-2.8880513350116175
1708434620.3815713,-2.141974925994873,-1.3334041100791474,-2.5262325445758265,6.110474812775411,1.0166206359863281,-2.8881004492389124
1708434620.3835945,-2.141932964324951,-1.3334158223918458,-2.5261946360217493,6.110453593521871,1.0166325569152832,-2.8880260626422327
1708434620.3855693,-2.141904592514038,-1.3334289950183411,-2.5262189547168177,6.110443699150839,1.0166531801223755,-2.8880766073810022
1708434620.3875628,-2.141970634460449,-1.3334130507758637,-2.5262022654162806,6.110479342728414,1.0166531801223755,-2.8880706469165247
1708434620.389555,-2.1419951915740967,-1.3333953779986878,-2.5262399355517786,6.110458123474874,1.0166566371917725,-2.8880394140826624
1708434620.3915436,-2.141937255859375,-1.3334041398814698,-2.5262308756457728,6.110419142037191,1.016611933708191,-2.8880632559405726
1708434620.393577,-2.141979455947876,-1.3334290844253083,-2.5262189547168177,6.110528456955709,1.0166531801223755,-2.8880541960345667
1708434620.395537,-2.1419906616210938,-1.3334573370269318,-2.5262067953692835,6.1104986546333215,1.0166281461715698,-2.8880468050586146
1708434620.3975866,-2.141930103302002,-1.3333787334016343,-2.5262683073626917,6.1105525372321985,1.0166237354278564,-2.8881176153766077
1708434620.3995564,-2.141921281814575,-1.3334321540645142,-2.5262234846698206,6.1104867337043665,1.0166698694229126,-2.8880885283099573
1708434620.4015641,-2.141974925994873,-1.3334246438792725,-2.5262637774096888,6.110518204956808,1.0166444778442383,-2.8880632559405726
1708434620.403582,-2.141958236694336,-1.3334364754012604,-2.5262144247638147,6.110473263054647,1.0166817903518677,-2.8880513350116175
1708434620.405541,-2.141974925994873,-1.333412991171219,-2.5262189547168177,6.110548126488485,1.0166282653808594,-2.8880677858935755
1708434620.4075797,-2.141932964324951,-1.3333998632482071,-2.526259247456686,6.110571610718527,1.0166356563568115,-2.8880842367755335
1708434620.4095604,-2.1419620513916016,-1.3333800596049805,-2.5262022654162806,6.110534655838766,1.016652226448059,-2.8880468050586146
1708434620.411543,-2.1419453620910645,-1.3334364754012604,-2.526275936757223,6.110551106720724,1.0166281461715698,-2.8880468050586146
1708434620.4135537,-2.1419286727905273,-1.3333711487105866,-2.5262354055987757,6.1105137942130945,1.0166356563568115,-2.8880303541766565
1708434620.4155583,-2.1419243812561035,-1.333440975551941,-2.526242796574728,6.110513675003805,1.016652226448059,-2.8880797068225306
1708434620.4175777,-2.141970634460449,-1.3334174317172547,-2.5262189547168177,6.110504853516378,1.0166763067245483,-2.8880439440356653
1708434620.4195595,-2.1419777870178223,-1.333424688582756,-2.5262563864337366,6.110530125885763,1.0166566371917725,-2.8880632559405726
1708434620.421557,-2.141974925994873,-1.3334086400321503,-2.5262308756457728,6.110548007279196,1.0166597366333008,-2.8880468050586146
1708434620.4235554,-2.1419496536254883,-1.333374337559082,-2.5262399355517786,6.11056004741744,1.0166852474212646,-2.8880885283099573
1708434620.4255438,-2.141953945159912,-1.3333953779986878,-2.5262563864337366,6.110534655838766,1.0166685581207275,-2.8880558649646204
1708434620.4275885,-2.1419243812561035,-1.3334497970393677,-2.5262518564807337,6.110550987511434,1.016672968864441,-2.8880468050586146
1708434620.4295568,-2.1419663429260254,-1.333429069524147,-2.526284996663229,6.110558140068807,1.0166641473770142,-2.8880513350116175
1708434620.431555,-2.1419777870178223,-1.333420143728592,-2.5262637774096888,6.110567080765524,1.0166685581207275,-2.8880587259875696
1708434620.433554,-2.1419286727905273,-1.3334130507758637,-2.526209894810812,6.110501396446981,1.0166641473770142,-2.8880930582629603
1708434620.4355462,-2.141921281814575,-1.3333460849574585,-2.52622634569277,6.110583770066061,1.0166312456130981,-2.8880587259875696
1708434620.4375687,-2.141962766647339,-1.3333919060281296,-2.526275936757223,6.110580551415243,1.016685128211975,-2.8880797068225306
1708434620.4395483,-2.141974925994873,-1.333371104007103,-2.526296679173605,6.110546457558431,1.0167136192321777,-2.8880558649646204
1708434620.4415452,-2.141997814178467,-1.3334694516709824,-2.526209894810812,6.110550987511434,1.0167092084884644,-2.8880632559405726
1708434620.443567,-2.1419734954833984,-1.333440975551941,-2.5262308756457728,6.11051224449233,1.016704797744751,-2.8880723158465784
1708434620.4455452,-2.1419620513916016,-1.3333954078010102,-2.5262683073626917,6.110544669419088,1.0167255401611328,-2.8880959192859095
1708434620.4475522,-2.141970634460449,-1.3334814769080658,-2.526209894810812,6.110507714539327,1.0167003870010376,-2.8880468050586146
1708434620.4495401,-2.141970634460449,-1.3334617179683228,-2.526238266621725,6.110516774445333,1.0167211294174194,-2.888104263936178
1708434620.4515328,-2.1420063972473145,-1.333444060092308,-2.526309076939718,6.110582339554586,1.0167449712753296,-2.8880184332477015
1708434620.45356,-2.14198637008667,-1.3333909970572968,-2.526238266621725,6.110582220345297,1.0167574882507324,-2.8880751768695276
1708434620.4555445,-2.1419663429260254,-1.333420143728592,-2.526280228291647,6.110561358719625,1.0167617797851562,-2.888104263936178
1708434620.4575438,-2.14198637008667,-1.3334650707295914,-2.526254717503683,6.110565888672628,1.0167492628097534,-2.8880797068225306
1708434620.4595413,-2.1419286727905273,-1.3334069860032578,-2.5262773672686976,6.110620009690084,1.0167529582977295,-2.88808256784548
1708434620.4615328,-2.1419734954833984,-1.3334441047957917,-2.526309076939718,6.1105196354682825,1.0167900323867798,-2.8880916277514856
1708434620.4635828,-2.141974925994873,-1.333366797571518,-2.526313606892721,6.110540258675375,1.0167604684829712,-2.8880870977984827
1708434620.4655395,-2.1419200897216797,-1.333427758221962,-2.526233975087301,6.110607611923971,1.016739845275879,-2.8880332151996058
1708434620.4675333,-2.141997814178467,-1.3333910268596192,-2.526292387639181,6.110651123314657,1.016727328300476,-2.8880496660815638
1708434620.469534,-2.141997814178467,-1.3334321838668366,-2.526304546986715,6.11065565326766,1.0167317390441895,-2.8880632559405726
1708434620.4715364,-2.14198637008667,-1.3334070605090638,-2.526266876851217,6.110639202385702,1.016830325126648,-2.8880706469165247
1708434620.4735656,-2.1419453620910645,-1.3334364605000992,-2.526241127644674,6.110585200577535,1.0167725086212158,-2.8881338278399866
1708434620.4755244,-2.141970634460449,-1.3334563386491318,-2.526266876851217,6.110586869507589,1.0168097019195557,-2.888108555470602
1708434620.4775436,-2.141932964324951,-1.3334694516709824,-2.5263329187976282,6.110594260483541,1.016767978668213,-2.888066116963522
1708434620.4796076,-2.1419734954833984,-1.3334099811366578,-2.5263329187976282,6.110651123314657,1.016800880432129,-2.888054434453146
1708434620.4815323,-2.141982078552246,-1.3333910268596192,-2.526300017033712,6.110634672432699,1.016793131828308,-2.888061587010519
1708434620.483545,-2.1419243812561035,-1.3334070605090638,-2.526320997868673,6.1106183407600305,1.0168260335922241,-2.888115946446554
1708434620.4855537,-2.141982078552246,-1.3334188622287293,-2.526300017033712,6.110646593361654,1.0167843103408813,-2.888153378163473
1708434620.4875429,-2.1419663429260254,-1.3334069711020966,-2.526283327733175,6.11059735992507,1.0168415307998657,-2.88812500635256
1708434620.4895356,-2.1419777870178223,-1.3334485006383439,-2.52627140680422,6.110669243126669,1.016833782196045,-2.888148609791891
1708434620.491538,-2.1419663429260254,-1.3334453862956543,-2.526300017033712,6.1105806706245325,1.016833782196045,-2.888052527104513
1708434620.4935346,-2.1420187950134277,-1.3333865863135834,-2.526358191167013,6.110661494522848,1.0167964696884155,-2.888102356587545
1708434620.4955468,-2.1419906616210938,-1.3334321838668366,-2.5263283888446253,6.110674965172567,1.0167920589447021,-2.888123337422506
1708434620.497545,-2.1419577598571777,-1.333432139163353,-2.526304546986715,6.110654341965475,1.0168503522872925,-2.888144318257467
1708434620.4995596,-2.1419692039489746,-1.3334857833436509,-2.526320759450094,6.110654341965475,1.016812801361084,-2.888139788304464
1708434620.5015502,-2.1419734954833984,-1.3334114116481324,-2.5263238588916224,6.110646593361654,1.0168415307998657,-2.888106886540548
1708434620.5035453,-2.141989231109619,-1.333409996037819,-2.5262909571277063,6.110646593361654,1.0167920589447021,-2.8880935351001185
1708434620.5055294,-2.1419620513916016,-1.3334517937949677,-2.526300017033712,6.110703217774191,1.0168371200561523,-2.8881517092334192
1708434620.507541,-2.1419734954833984,-1.3334306937507172,-2.5263403097735804,6.11068223693923,1.0168533325195312,-2.888156239186422
1708434620.5095394,-2.1419453620910645,-1.3334396493485947,-2.5263403097735804,6.110633122711935,1.0168533325195312,-2.8882015387164515
1708434620.5115466,-2.1419410705566406,-1.3334518533996125,-2.5263312498675745,6.110677945404806,1.0168415307998657,-2.8881924788104456
1708434620.5135422,-2.142014503479004,-1.3334889721921463,-2.5263689200030726,6.110686886101522,1.0168284177780151,-2.8881591002093714
1708434620.5155354,-2.1419620513916016,-1.333481417303421,-2.5263028780566614,6.110649812012472,1.016898274421692,-2.8881335894214075
1708434620.5175362,-2.1419453620910645,-1.3334025603583832,-2.5263267199145716,6.110673415451803,1.0168652534484863,-2.8881455103503626
1708434620.5195663,-2.1420059204101562,-1.3334396344474335,-2.5263193289386194,6.110718476563253,1.0168728828430176,-2.8882043997394007
1708434620.5215228,-2.141997814178467,-1.3334563386491318,-2.5263357798205774,6.110640990525045,1.0168728828430176,-2.8882325331317347
1708434620.5235922,-2.1419806480407715,-1.3334385764649888,-2.5263522307025355,6.11066900470809,1.0168653726577759,-2.888188187276022
1708434620.5255463,-2.1419734954833984,-1.3334307831576844,-2.5263312498675745,6.110702025681295,1.0168521404266357,-2.88820726076235
1708434620.5275607,-2.1420016288757324,-1.3334100556424637,-2.5263193289386194,6.1106300232704065,1.0168403387069702,-2.888195339833395
1708434620.529561,-2.142042636871338,-1.3334681701711197,-2.5263403097735804,6.110659825592794,1.0168850421905518,-2.888219181691305
1708434620.5315416,-2.141993522644043,-1.3334593188813706,-2.5263403097735804,6.110709416657247,1.016877293586731,-2.8882444540606897
1708434620.5335462,-2.1419410705566406,-1.3335291606238862,-2.5263403097735804,6.110693084984579,1.0168850421905518,-2.888223711644308
1708434620.5355446,-2.14198637008667,-1.3335114133409043,-2.5263267199145716,6.110693084984579,1.0168683528900146,-2.8881729284869593
1708434620.537538,-2.14201021194458,-1.3334218126586457,-2.526388470326559,6.110667335778036,1.0168653726577759,-2.888223711644308
1708434620.5395439,-2.141936779022217,-1.3335202944329758,-2.5263102690326136,6.110700475960531,1.0168806314468384,-2.888210121785299
1708434620.5415306,-2.142014503479004,-1.3334964674762269,-2.5262954870807093,6.110730278282919,1.0168771743774414,-2.888228241597311
1708434620.543535,-2.1419806480407715,-1.3334743988564988,-2.5263147989856165,6.110647904663839,1.0168771743774414,-2.888214651738302
1708434620.5455358,-2.141944646835327,-1.3334699732116242,-2.5263312498675745,6.110721337586202,1.0168850421905518,-2.888238493596212
1708434620.5475392,-2.1419763565063477,-1.333491028552391,-2.5263221899615687,6.110721337586202,1.0168850421905518,-2.888247553502218
1708434620.54954,-2.1419849395751953,-1.3334865880063553,-2.5263267199145716,6.110670435219564,1.0169016122817993,-2.888259474431173
1708434620.551555,-2.1419734954833984,-1.3335157346776505,-2.5263431707965296,6.110700475960531,1.01693856716156,-2.8882222811328333
1708434620.5535336,-2.14201021194458,-1.333527759914734,-2.5263312498675745,6.1107287285621545,1.016909122467041,-2.888247553502218
1708434620.5555418,-2.1420183181762695,-1.33346243322406,-2.5263267199145716,6.110763418465414,1.0168684720993042,-2.888259474431173
1708434620.5575356,-2.1419692039489746,-1.3335320961526413,-2.5263312498675745,6.1107122776801965,1.0168806314468384,-2.88823110262026
1708434620.5595417,-2.1419718265533447,-1.3335233342698594,-2.5263598600970667,6.1107332585151575,1.0169179439544678,-2.8882764021502894
1708434620.5615323,-2.1420297622680664,-1.333490939145424,-2.5263477007495325,6.1107122776801965,1.0168806314468384,-2.8882339636432093
1708434620.5635738,-2.1420297622680664,-1.333487556581833,-2.5263386408435267,6.1107287285621545,1.01682710647583,-2.888238493596212
1708434620.5655544,-2.1420226097106934,-1.3335396510413666,-2.526313130055563,6.110700475960531,1.0169134140014648,-2.8882890383349817
1708434620.5675404,-2.1420140266418457,-1.3335144978812714,-2.526362959538595,6.110725867539205,1.0168884992599487,-2.88825494447817
1708434620.5695403,-2.1420297622680664,-1.3334788096002121,-2.5263553301440638,6.110745417862692,1.016897201538086,-2.8882582823382776
1708434620.571528,-2.142038345336914,-1.333514468078949,-2.5263810793506067,6.110752808838644,1.0169179439544678,-2.8883124033557337
1708434620.5735483,-2.1420254707336426,-1.3334865880063553,-2.5263176600085657,6.110791790276327,1.016892910003662,-2.888296190892355
1708434620.575548,-2.1420254707336426,-1.3335277152112504,-2.5263553301440638,6.11076186874465,1.0169134140014648,-2.8883007208453577
1708434620.577554,-2.142059087753296,-1.3335233193686982,-2.526367489491598,6.110757338791647,1.016909122467041,-2.8883498350726526
1708434620.5795813,-2.142059087753296,-1.3335114282420655,-2.526350800191061,6.110728609352865,1.0168927907943726,-2.888279740010397
1708434620.5815387,-2.1419973373413086,-1.333563746219017,-2.526350800191061,6.110827433853903,1.0168840885162354,-2.88830811182131
1708434620.583589,-2.142000913619995,-1.3335365515998383,-2.526372019444601,6.1107332585151575,1.016892910003662,-2.888299051915304
1708434620.5855396,-2.1420183181762695,-1.3335069876960297,-2.526350800191061,6.110781180649557,1.0169016122817993,-2.8882842699633997
1708434620.5875652,-2.1420791149139404,-1.3334787648967286,-2.5263057390796106,6.110757338791647,1.0169254541397095,-2.8883124033557337
1708434620.5895536,-2.142042398452759,-1.333498166208603,-2.5263477007495325,6.110802042275228,1.0169048309326172,-2.888261858616964
1708434620.5915687,-2.142054557800293,-1.3334997457316895,-2.5263341108905237,6.1107332585151575,1.016892910003662,-2.8882582823382776
1708434620.5935802,-2.1420297622680664,-1.3335233640721817,-2.5263598600970667,6.1107122776801965,1.0169048309326172,-2.888296190892355
1708434620.5955434,-2.1420834064483643,-1.3335202199271698,-2.5263386408435267,6.110724198609152,1.0169297456741333,-2.888357226048605
1708434620.5975487,-2.1420466899871826,-1.333483101134636,-2.5263267199145716,6.110778200417318,1.016892910003662,-2.888320032750265
1708434620.599586,-2.1420297622680664,-1.3335277301124115,-2.5263312498675745,6.11078559139327,1.0169135332107544,-2.888282601033346
1708434620.601541,-2.1420209407806396,-1.3334787499955674,-2.5263267199145716,6.110764848976888,1.016909122467041,-2.888340775166647
1708434620.6035864,-2.1420860290527344,-1.333507017498352,-2.5263598600970667,6.110745417862692,1.0169376134872437,-2.888278309498922
1708434620.6055393,-2.141979932785034,-1.3334875118783494,-2.526383940373556,6.110802042275228,1.0169134140014648,-2.8883021513568323
1708434620.6075377,-2.142042398452759,-1.3335246306708832,-2.5263357798205774,6.110769259720602,1.0168640613555908,-2.888310972844259
1708434620.609574,-2.142016649246216,-1.3334416312030335,-2.5263643900500696,6.110797512322225,1.016876220703125,-2.888315502797262
1708434620.6115327,-2.142054557800293,-1.3334700030139466,-2.5263312498675745,6.110715257912435,1.016910433769226,-2.8882857004748743
1708434620.6135628,-2.142005205154419,-1.3334830862334748,-2.526346270238058,6.110757338791647,1.016897201538086,-2.888306442891256
1708434620.615541,-2.142005205154419,-1.333507002597191,-2.5263477007495325,6.11074839809493,1.0168850421905518,-2.888357226048605
1708434620.6175437,-2.142037868499756,-1.3334536713412781,-2.5263477007495325,6.110743987351217,1.016897201538086,-2.8883243242846888
1708434620.6195438,-2.142037868499756,-1.333540902738907,-2.5263477007495325,6.110781180649557,1.0168806314468384,-2.88829476038088
1708434620.621534,-2.142042398452759,-1.3335277450135727,-2.5263312498675745,6.1107767699058435,1.0168927907943726,-2.888373676930563
1708434620.6235685,-2.142073154449463,-1.3334875714829941,-2.5263477007495325,6.1107767699058435,1.0168553590774536,-2.8883348147021692
1708434620.6255286,-2.142050266265869,-1.3335650277188797,-2.5263341108905237,6.1107767699058435,1.0169463157653809,-2.8882857004748743
1708434620.627542,-2.1420817375183105,-1.3334954392961045,-2.526367489491598,6.110764848976888,1.016892910003662,-2.888348166142599
1708434620.6295469,-2.142054557800293,-1.3335397255471726,-2.526350800191061,6.110727536469259,1.0169179439544678,-2.8883021513568323
1708434620.6315286,-2.1421265602111816,-1.3335157495788117,-2.5263431707965296,6.1108229039009,1.0168806314468384,-2.8882857004748743
1708434620.6335764,-2.1420702934265137,-1.3335650277188797,-2.5263221899615687,6.110802042275228,1.0169060230255127,-2.8883186022387903
1708434620.6355453,-2.1420459747314453,-1.333548368220665,-2.5263431707965296,6.110802042275228,1.0168684720993042,-2.8883021513568323
1708434620.637575,-2.1419756412506104,-1.333495409493782,-2.5263312498675745,6.1108425734336755,1.016892910003662,-2.888364617024557
1708434620.6395845,-2.142029285430908,-1.333520234828331,-2.5263312498675745,6.110802042275228,1.0169016122817993,-2.8883066813098353
1708434620.6415453,-2.1420459747314453,-1.333498091702797,-2.5263221899615687,6.1107767699058435,1.016843318939209,-2.8883186022387903
1708434620.643546,-2.1420249938964844,-1.3334997457316895,-2.5263312498675745,6.1108425734336755,1.0169016122817993,-2.888340775166647
1708434620.6455328,-2.1420702934265137,-1.3334460419467469,-2.5263312498675745,6.110793101578512,1.0168806314468384,-2.888322893773214
1708434620.6475518,-2.1420860290527344,-1.333483101134636,-2.5263431707965296,6.110723125725546,1.0168895721435547,-2.888339344655172
1708434620.6495354,-2.1420459747314453,-1.3334910434535523,-2.5263102690326136,6.1107603190238855,1.0168806314468384,-2.888360087071554
1708434620.6515353,-2.1420249938964844,-1.3335070323995133,-2.5263522307025355,6.110802042275228,1.0168850421905518,-2.888322893773214
1708434620.653548,-2.1420748233795166,-1.3334743243506928,-2.5263267199145716,6.1107603190238855,1.0169016122817993,-2.8882857004748743
1708434620.6555622,-2.142050266265869,-1.3334875863841553,-2.5263147989856165,6.110834824829855,1.0168894529342651,-2.8883846441852015
1708434620.6575696,-2.1420860290527344,-1.3334954541972657,-2.5263147989856165,6.110790121346273,1.0168565511703491,-2.88833195367922
1708434620.6595595,-2.142016649246216,-1.3335682463696976,-2.5263147989856165,6.110802042275228,1.0168728828430176,-2.8883140722857874
1708434620.6615932,-2.1420416831970215,-1.3335233640721817,-2.5263221899615687,6.110764848976888,1.0168565511703491,-2.888352696095602
1708434620.6635537,-2.1420817375183105,-1.3335070323995133,-2.5263312498675745,6.1107767699058435,1.0168195962905884,-2.8883512655841272
1708434620.6655736,-2.142033576965332,-1.3334910583547135,-2.5263357798205774,6.110752928047933,1.0168521404266357,-2.888327423726217
1708434620.6675568,-2.14208984375,-1.3334580671838303,-2.5263899008380335,6.110772239952841,1.0168578624725342,-2.888336245213644
1708434620.6695666,-2.1420249938964844,-1.3335483831218262,-2.5263810793506067,6.11078559139327,1.0168490409851074,-2.8882737795459192
1708434620.671552,-2.1420416831970215,-1.3335563403419037,-2.526350800191061,6.110802042275228,1.0168490409851074,-2.888310972844259
1708434620.6735792,-2.1420531272888184,-1.333486632709839,-2.5262938181506556,6.110751378327169,1.0168653726577759,-2.888348166142599
1708434620.675561,-2.14208984375,-1.3335474592498322,-2.5263477007495325,6.11080943325118,1.0168815851211548,-2.888339344655172
1708434620.6775901,-2.142085552215576,-1.3335069876960297,-2.5263689200030726,6.110772239952841,1.0168447494506836,-2.8883186022387903
1708434620.679614,-2.1420531272888184,-1.333478794699051,-2.5263221899615687,6.1107287285621545,1.0167995691299438,-2.88829476038088
1708434620.6815634,-2.1420860290527344,-1.3334830713323136,-2.5263477007495325,6.1107767699058435,1.0168696641921997,-2.888327423726217
1708434620.6836047,-2.142057418823242,-1.3335246604732056,-2.5263057390796106,6.110731947212972,1.0168533325195312,-2.888327423726217
1708434620.685557,-2.1421027183532715,-1.3334954392961045,-2.5262864271747034,6.11074839809493,1.0168533325195312,-2.888364617024557
1708434620.6875663,-2.142073154449463,-1.3335157495788117,-2.5262909571277063,6.110790121346273,1.0168460607528687,-2.8882902304278772
1708434620.6895542,-2.142085552215576,-1.3335157346776505,-2.5263312498675745,6.110797512322225,1.0168249607086182,-2.888322893773214
1708434620.691576,-2.1420702934265137,-1.3334963929704209,-2.5263312498675745,6.11080943325118,1.016829490661621,-2.888320032750265
1708434620.6935809,-2.1420531272888184,-1.333513082270958,-2.5262983481036585,6.1107767699058435,1.016800880432129,-2.888310972844259
1708434620.6955764,-2.142073154449463,-1.333532066350319,-2.526344601308004,6.110778200417318,1.0168293714523315,-2.888320032750265
1708434620.6975536,-2.1420207023620605,-1.333507002597191,-2.5263147989856165,6.110788571625509,1.0168216228485107,-2.88833195367922
1708434620.6995554,-2.1420488357543945,-1.3335289818099518,-2.5263689200030726,6.110802042275228,1.0167964696884155,-2.888320032750265
1708434620.7015486,-2.1420416831970215,-1.3335042309812088,-2.5262776056872767,6.11078571060256,1.016812801361084,-2.88833195367922
1708434620.7035859,-2.142033100128174,-1.3334954392961045,-2.5263448397265833,6.110781180649557,1.016779899597168,-2.88833195367922
1708434620.7055495,-2.1420488357543945,-1.3334712249091645,-2.5262983481036585,6.110769259720602,1.016751766204834,-2.888294521962301
1708434620.707555,-2.142057418823242,-1.3334830713323136,-2.5263267199145716,6.110806572228231,1.0167605876922607,-2.88833195367922
1708434620.7095544,-2.142085552215576,-1.3334997457316895,-2.5262697378741663,6.110781180649557,1.0167810916900635,-2.8883348147021692
1708434620.7115452,-2.1420416831970215,-1.3335070473006745,-2.5262983481036585,6.110751378327169,1.0167723894119263,-2.8882857004748743
1708434620.713553,-2.1420207023620605,-1.3335042160800477,-2.5263238588916224,6.110701906472006,1.016769289970398,-2.888360325490133
1708434620.7155395,-2.1420459747314453,-1.3335130375674744,-2.5263074080096644,6.110751378327169,1.0167930126190186,-2.888336245213644
1708434620.7175362,-2.1420416831970215,-1.3335042160800477,-2.5263238588916224,6.110818373947897,1.016781210899353,-2.888303581868307
1708434620.719542,-2.1420249938964844,-1.333478794699051,-2.526300017033712,6.110755908280172,1.0167855024337769,-2.888282601033346
1708434620.7215278,-2.1420459747314453,-1.333462418322899,-2.5262697378741663,6.110816943436422,1.0167485475540161,-2.888343874608175
1708434620.7235713,-2.1420817375183105,-1.3335086119225998,-2.5263238588916224,6.110723125725546,1.0167485475540161,-2.8882902304278772
1708434620.7255418,-2.14206600189209,-1.3335497391274949,-2.5262909571277063,6.110735046654501,1.016727328300476,-2.888339344655172
1708434620.7275338,-2.1420860290527344,-1.3335086417249222,-2.526320997868673,6.110723125725546,1.0167529582977295,-2.8883183638202112
1708434620.729556,-2.142073154449463,-1.3334218722632905,-2.5262697378741663,6.1107603190238855,1.0167316198349,-2.888348166142599
1708434620.7315686,-2.14206600189209,-1.3335042309812088,-2.5262578169452112,6.110734927445211,1.0167286396026611,-2.888315502797262
1708434620.733564,-2.1420373916625977,-1.3334875863841553,-2.5262578169452112,6.110802042275228,1.0167330503463745,-2.888348404561178
1708434620.7355728,-2.1420416831970215,-1.3334504526904603,-2.526287857686178,6.110797512322225,1.0167618989944458,-2.888320032750265
1708434620.7375648,-2.1420817375183105,-1.3334919822267075,-2.526283327733175,6.110825884133138,1.0167080163955688,-2.888278309498922
1708434620.7395356,-2.1420702934265137,-1.3334800911000748,-2.526275936757223,6.110821473389425,1.0167781114578247,-2.888282839451925
1708434620.7415292,-2.142073154449463,-1.3335042011788865,-2.526300017033712,6.110781180649557,1.0166960954666138,-2.888320032750265
1708434620.743598,-2.142057418823242,-1.3334787350944062,-2.526346270238058,6.110860454827108,1.0167080163955688,-2.888266388569967
1708434620.7455375,-2.142094135284424,-1.3335454177907486,-2.526280466710226,6.1107767699058435,1.0166926383972168,-2.888385597859518
1708434620.747548,-2.142094135284424,-1.333429829483368,-2.526266876851217,6.110779630928793,1.0166676044464111,-2.888291660939352
1708434620.7495441,-2.14206600189209,-1.333508626823761,-2.526300017033712,6.11074839809493,1.0166970491409302,-2.88829476038088
1708434620.751536,-2.142033100128174,-1.3334997457316895,-2.526233736668722,6.110834824829855,1.0166969299316406,-2.888315502797262
1708434620.7535357,-2.1420459747314453,-1.333475650554039,-2.526283327733175,6.110781180649557,1.016671895980835,-2.888299051915304
1708434620.7555714,-2.1420645713806152,-1.3334844571403046,-2.5262895266162317,6.110813963204183,1.0166763067245483,-2.888322893773214
1708434620.7575707,-2.1420984268188477,-1.3334624630263825,-2.526296679173605,6.110773789673605,1.0166478157043457,-2.888320032750265
1708434620.7595844,-2.142057418823242,-1.3334430319121857,-2.526254717503683,6.110718595772543,1.0166807174682617,-2.888303581868307
1708434620.7615187,-2.1420645713806152,-1.3334351491979142,-2.5262637774096888,6.110764848976888,1.0166641473770142,-2.888244930897848
1708434620.7635493,-2.142073154449463,-1.333471269612648,-2.526242796574728,6.110794532089987,1.0166444778442383,-2.888275210057394
1708434620.765542,-2.1420416831970215,-1.3334997457316895,-2.526287857686178,6.1108425734336755,1.0166488885879517,-2.888312641774313
1708434620.7675622,-2.1420905590057373,-1.333508701329567,-2.526259247456686,6.1107767699058435,1.0166325569152832,-2.88830811182131
1708434620.7695491,-2.1420645713806152,-1.3334385615638276,-2.526254717503683,6.110793101578512,1.0166566371917725,-2.888291660939352
1708434620.7715428,-2.142073154449463,-1.3334800612977524,-2.5262563864337366,6.110806572228231,1.0166685581207275,-2.888320032750265
1708434620.7735932,-2.142094135284424,-1.3334875863841553,-2.5262518564807337,6.110806453018942,1.0166369676589966,-2.8883243242846888
1708434620.7755454,-2.142050266265869,-1.333442972307541,-2.526309076939718,6.11080943325118,1.0166728496551514,-2.8883288542376917
1708434620.777539,-2.142094135284424,-1.333462418322899,-2.526209894810812,6.110741007118978,1.016648769378662,-2.888278309498922
1708434620.7795632,-2.1420531272888184,-1.3335042756846924,-2.526284996663229,6.110757338791647,1.0166237354278564,-2.888299051915304
1708434620.7815688,-2.142061710357666,-1.333447427754738,-2.5263012091266077,6.110740887909689,1.0166163444519043,-2.888291660939352
1708434620.7835445,-2.142033576965332,-1.333454893236496,-2.526242796574728,6.110773670464315,1.016608476638794,-2.8882582823382776
1708434620.7855644,-2.142033100128174,-1.3334712398103257,-2.526254717503683,6.110781180649557,1.016611933708191,-2.8882456461535853
1708434620.7875679,-2.142061710357666,-1.3334963780692597,-2.5262473265277308,6.110769259720602,1.0166282653808594,-2.888296190892355
1708434620.7895505,-2.1420774459838867,-1.333439664249756,-2.5262308756457728,6.11078571060256,1.0165834426879883,-2.8882673422442835
1708434620.791547,-2.1420702934265137,-1.3334681701711197,-2.5262354055987757,6.11078559139327,1.0166457891464233,-2.888279740010397
1708434620.7935407,-2.142061710357666,-1.3334637445262452,-2.5262489954577845,6.110778200417318,1.0166040658950806,-2.8882935682879847
1708434620.7956002,-2.142057418823242,-1.3335052740624924,-2.5262308756457728,6.110810982971945,1.0166127681732178,-2.88825494447817
1708434620.7975516,-2.1420488357543945,-1.333483101134636,-2.5262518564807337,6.1107332585151575,1.0165965557098389,-2.88825494447817
1708434620.7996178,-2.1420488357543945,-1.3335174334100266,-2.5262189547168177,6.11076174953536,1.016587734222412,-2.888250176106588
1708434620.8015418,-2.1420488357543945,-1.3334173125079651,-2.5261810461627405,6.11070333698348,1.0166128873825073,-2.888264004384176
1708434620.8035603,-2.1420373916625977,-1.3334637445262452,-2.5262399355517786,6.110790121346273,1.016575574874878,-2.888210121785299
1708434620.8055544,-2.142029285430908,-1.333483101134636,-2.5262234846698206,6.110790121346273,1.0165711641311646,-2.8881920019732874
1708434620.8075607,-2.1420531272888184,-1.3335008484176178,-2.5261901060687464,6.1107122776801965,1.0165965557098389,-2.888214651738302
1708434620.8095713,-2.142057418823242,-1.333466724758484,-2.5262067953692835,6.110790121346273,1.0166206359863281,-2.888247553502218
1708434620.8115594,-2.1421151161193848,-1.3334429574063797,-2.5261855761157435,6.110757338791647,1.016592264175415,-2.888219181691305
1708434620.8135397,-2.1420328617095947,-1.3334889572909852,-2.5261946360217493,6.110707866936483,1.016608476638794,-2.888210121785299
1708434620.8155437,-2.1420645713806152,-1.3334473830512543,-2.5262144247638147,6.11074839809493,1.0165636539459229,-2.888219181691305
1708434620.8175929,-2.1420774459838867,-1.333447427754738,-2.5261946360217493,6.110790121346273,1.0165395736694336,-2.888256374989645
1708434620.8195884,-2.14208984375,-1.333439664249756,-2.5262067953692835,6.11074839809493,1.0165724754333496,-2.88823110262026
1708434620.8215528,-2.14208984375,-1.333456353550293,-2.5262518564807337,6.110745417862692,1.0166128873825073,-2.88819390932192
1708434620.8235562,-2.142068862915039,-1.3334307831576844,-2.5262022654162806,6.110770809441366,1.0166009664535522,-2.88820726076235
1708434620.825547,-2.1420416831970215,-1.3335053634694596,-2.5262144247638147,6.110719668656149,1.016555905342102,-2.888228241597311
1708434620.8275833,-2.14206600189209,-1.3334637445262452,-2.5261781851397913,6.110752928047933,1.0166172981262207,-2.888219181691305
1708434620.829549,-2.14208984375,-1.3334548783353348,-2.5262532869922083,6.1107332585151575,1.0165681838989258,-2.8882163206683558
1708434620.8315606,-2.1420984268188477,-1.3334889572909852,-2.526209894810812,6.110719787865438,1.0165724754333496,-2.88820726076235
1708434620.8335779,-2.14206600189209,-1.333414302473404,-2.5262158552752894,6.110716926842489,1.016514539718628,-2.8881998697863978
1708434620.8355467,-2.1420984268188477,-1.3333909672549744,-2.5262113253222864,6.110746729164877,1.016576886177063,-2.8881574312793177
1708434620.8375485,-2.142050266265869,-1.3334351491979142,-2.5262113253222864,6.110791671067037,1.016527771949768,-2.888190809880392
1708434620.8395624,-2.1421151161193848,-1.3334307235530396,-2.5261932055102747,6.110719787865438,1.0165855884552002,-2.8881834189044397
1708434620.841564,-2.142094135284424,-1.3334637445262452,-2.5262370745288294,6.1107122776801965,1.0165441036224365,-2.8881619612323206
1708434620.8435888,-2.142061710357666,-1.3334233176759263,-2.5262444655047815,6.1107544777686975,1.0165202617645264,-2.888195339833395
1708434620.8455434,-2.1420702934265137,-1.33345182359729,-2.5262325445758265,6.1107287285621545,1.0165646076202393,-2.8881619612323206
1708434620.8475976,-2.1420774459838867,-1.3334233474782486,-2.5262325445758265,6.110745417862692,1.0165690183639526,-2.8881710211383265
1708434620.8495848,-2.142033576965332,-1.3334607642940064,-2.5261781851397913,6.110725748329916,1.0165352821350098,-2.8881879488574427
1708434620.8515644,-2.142106533050537,-1.3334321689656754,-2.5262370745288294,6.110741007118978,1.0165647268295288,-2.888223711644308
1708434620.8535476,-2.142050266265869,-1.333439664249756,-2.5262370745288294,6.110730278282919,1.0165483951568604,-2.888186279927389
1708434620.8555434,-2.1420488357543945,-1.3334277433208008,-2.5261991659747522,6.11067949512557,1.016576886177063,-2.8882043997394007
1708434620.8575916,-2.142054557800293,-1.3334113967469712,-2.5261781851397913,6.1107122776801965,1.0165233612060547,-2.8882160822497767
1708434620.8595784,-2.1420984268188477,-1.3334188026240845,-2.5261991659747522,6.110730278282919,1.0165603160858154,-2.8882299105273646
1708434620.8615773,-2.1420774459838867,-1.3334277284196396,-2.526187245045797,6.1107228873069666,1.0165690183639526,-2.8881574312793177
1708434620.8635993,-2.142073154449463,-1.3334321689656754,-2.5261498133288782,6.110709416657247,1.0165526866912842,-2.8881834189044397
1708434620.865554,-2.1420416831970215,-1.3334770959666749,-2.5261827150927942,6.110725748329916,1.0165646076202393,-2.8881755510913294
1708434620.8675613,-2.1420373916625977,-1.3334307980588456,-2.5261991659747522,6.110676276474752,1.016527771949768,-2.8881755510913294
1708434620.8695529,-2.1420488357543945,-1.333436445598938,-2.5262535254107874,6.110721337586202,1.0165603160858154,-2.8881054560290735
1708434620.8715568,-2.14208984375,-1.3333981347135087,-2.526203695927755,6.110648023873129,1.0165441036224365,-2.8881591002093714
1708434620.8735778,-2.1420817375183105,-1.333374248152115,-2.526208225880758,6.110725748329916,1.0165603160858154,-2.8881681601153772
1708434620.8755555,-2.142073154449463,-1.3334113967469712,-2.5261781851397913,6.110702025681295,1.016576886177063,-2.8881545702563685
1708434620.8775702,-2.1420817375183105,-1.3334365052035828,-2.526224915181295,6.110676276474752,1.0165441036224365,-2.8881591002093714
1708434620.879591,-2.1420984268188477,-1.3333711189082642,-2.5261827150927942,6.110631930619039,1.0165526866912842,-2.8881710211383265
1708434620.8815503,-2.142094135284424,-1.3334158223918458,-2.526187245045797,6.110731708794393,1.0165646076202393,-2.8881455103503626
1708434620.8835921,-2.1420633792877197,-1.3334651750377198,-2.526196304951803,6.110702144890585,1.016532063484192,-2.88817269006838
1708434620.8855486,-2.1420373916625977,-1.3333909672549744,-2.526179854069845,6.110652553826132,1.0165483951568604,-2.8881188074695032
1708434620.8875813,-2.142106533050537,-1.3333998036435624,-2.526158873234884,6.110664355545797,1.016515851020813,-2.8881517092334192
1708434620.8895535,-2.142073154449463,-1.3333800596049805,-2.526170794163839,6.110731828003683,1.0165321826934814,-2.8881352583514612
1708434620.8915477,-2.1420531272888184,-1.3334086251309891,-2.526146952305929,6.1106570837791345,1.0165483951568604,-2.8881142775165003
1708434620.8935559,-2.14208984375,-1.3334651750377198,-2.526170794163839,6.110673415451803,1.0165483951568604,-2.8881307283984583
1708434620.8955665,-2.142110824584961,-1.3334410053542634,-2.526170794163839,6.110706555634298,1.0165646076202393,-2.888144318257467
1708434620.8975823,-2.14208984375,-1.3334113967469712,-2.526179854069845,6.110619771271505,1.0165201425552368,-2.888127867375509
1708434620.8995469,-2.142094135284424,-1.3334572625211258,-2.526179854069845,6.110659944802084,1.0165395736694336,-2.888172451649801
1708434620.901551,-2.142073154449463,-1.3334410053542634,-2.526175324116842,6.110636460572042,1.016540765762329,-2.888139788304464
1708434620.9035573,-2.1420207023620605,-1.3334321689656754,-2.526179854069845,6.110665905266561,1.0165733098983765,-2.888102356587545
1708434620.9055607,-2.1420774459838867,-1.333424673681595,-2.526175324116842,6.110665905266561,1.0165526866912842,-2.888106886540548
1708434620.907568,-2.1420860290527344,-1.333375633960106,-2.526200834904806,6.110628711968221,1.016576886177063,-2.888111416493551
1708434620.9095795,-2.1420812606811523,-1.3334321689656754,-2.526187245045797,6.110628711968221,1.0165526866912842,-2.8880870977984827
1708434620.9115438,-2.142061710357666,-1.333424673681595,-2.526175324116842,6.110640990525045,1.0165352821350098,-2.888111416493551
1708434620.9135647,-2.1420531272888184,-1.333445430999138,-2.526170794163839,6.110636460572042,1.0165733098983765,-2.88808256784548
1708434620.915561,-2.142094135284424,-1.3334158223918458,-2.526170794163839,6.110579478531637,1.0165603160858154,-2.888115946446554
1708434620.9175408,-2.142050266265869,-1.3334113967469712,-2.526179854069845,6.110628711968221,1.0165321826934814,-2.888078037892477
1708434620.9195635,-2.1420557498931885,-1.3334321689656754,-2.526179854069845,6.110665905266561,1.0165483951568604,-2.8880496660815638
1708434620.9215446,-2.14206600189209,-1.3334041398814698,-2.5261452833758753,6.1107003567512415,1.0165441036224365,-2.888120476399557
1708434620.9235702,-2.14208984375,-1.3334527772716065,-2.526200834904806,6.110700237541952,1.0165321826934814,-2.8880706469165247
1708434620.92562,-2.1420774459838867,-1.3334069711020966,-2.526187245045797,6.110633122711935,1.0165570974349976,-2.8880706469165247
1708434620.9275692,-2.1420164108276367,-1.3334453415921708,-2.5261917749988,6.110707628517904,1.0165855884552002,-2.888120476399557
1708434620.9295478,-2.142057418823242,-1.333457351928093,-2.526224915181295,6.110658871918478,1.0165646076202393,-2.888104263936178
1708434620.9315464,-2.1420774459838867,-1.3334158223918458,-2.526200834904806,6.110592949181356,1.016515851020813,-2.888078037892477
1708434620.9335878,-2.1420817375183105,-1.333378718500473,-2.526187245045797,6.110592949181356,1.016515851020813,-2.888099495564596
1708434620.9355617,-2.1420459747314453,-1.3334086549333115,-2.5261126200305384,6.110633122711935,1.0165321826934814,-2.888094965611593
1708434620.9375722,-2.142061710357666,-1.333375633960106,-2.526196304951803,6.110677826195516,1.0165526866912842,-2.888099495564596
1708434620.9395485,-2.142061710357666,-1.3333742928555985,-2.526163403187887,6.110686766892233,1.0165321826934814,-2.888141457234518
1708434620.9415457,-2.1420702934265137,-1.3333697778037568,-2.526200834904806,6.110646593361654,1.016507625579834,-2.888066116963522
1708434620.9435685,-2.1420702934265137,-1.3334528368762513,-2.5261917749988,6.110637652664938,1.0165321826934814,-2.888115946446554
1708434620.9455457,-2.1421151161193848,-1.3334528368762513,-2.526179854069845,6.110628711968221,1.0165202617645264,-2.888078037892477
1708434620.9475782,-2.1420373916625977,-1.3334233176759263,-2.526187245045797,6.1106454012687585,1.0165647268295288,-2.88808256784548
1708434620.949566,-2.1420459747314453,-1.3334410053542634,-2.526142422352926,6.110628711968221,1.0165321826934814,-2.888066116963522
1708434620.9515426,-2.142033100128174,-1.333378718500473,-2.526154343281881,6.11065565326766,1.0165483951568604,-2.888120476399557
1708434620.9535494,-2.14206600189209,-1.333424673681595,-2.526187245045797,6.110654341965475,1.0165483951568604,-2.888104025517599
1708434620.9555893,-2.142094135284424,-1.3333953779986878,-2.526175324116842,6.110663282662191,1.0165483951568604,-2.88808256784548
1708434620.957561,-2.1420774459838867,-1.3334321689656754,-2.526130501423971,6.110665905266561,1.0165321826934814,-2.888111416493551
1708434620.9595618,-2.142057418823242,-1.3333831292441864,-2.526229445134298,6.110670435219564,1.0165454149246216,-2.8880706469165247
1708434620.9615521,-2.1420774459838867,-1.3334498566440125,-2.526151482258932,6.110654341965475,1.0165483951568604,-2.888153378163473
1708434620.9635763,-2.14208984375,-1.3333831292441864,-2.526158873234884,6.110624301224508,1.0165483951568604,-2.888120476399557
1708434620.965574,-2.142068862915039,-1.333413080578186,-2.5261917749988,6.1105795977409265,1.0165202617645264,-2.888094965611593
1708434620.9675722,-2.142061710357666,-1.3334277433208008,-2.5261917749988,6.1106183407600305,1.0165603160858154,-2.8881457487689417
1708434620.96955,-2.142061710357666,-1.333424673681595,-2.526175324116842,6.110674845963278,1.0165441036224365,-2.888094965611593
1708434620.9715612,-2.142057418823242,-1.333445430999138,-2.526142422352926,6.110649812012472,1.016527771949768,-2.888104025517599
1708434620.9735603,-2.1420373916625977,-1.3334321689656754,-2.526154343281881,6.110628711968221,1.0165616273880005,-2.888094965611593
1708434620.9755797,-2.1420774459838867,-1.3334321689656754,-2.526196304951803,6.1106018898780725,1.016515851020813,-2.888094965611593
1708434620.9775987,-2.1420817375183105,-1.3333953779986878,-2.526184384022848,6.110642063408651,1.0165483951568604,-2.8880870977984827
1708434620.9795878,-2.142085552215576,-1.3333919805339356,-2.526175324116842,6.110612380295553,1.0165483951568604,-2.888066116963522
1708434620.9815896,-2.142073154449463,-1.3334233176759263,-2.5261946360217493,6.110688435822286,1.0165646076202393,-2.8880906740771692
1708434620.9836338,-2.142073154449463,-1.3333919805339356,-2.526163403187887,6.110637652664938,1.0165441036224365,-2.888104025517599
1708434620.9855688,-2.142073154449463,-1.3334440898946305,-2.526146952305929,6.110665905266561,1.0165603160858154,-2.888094965611593
1708434620.9875686,-2.1420416831970215,-1.3333953779986878,-2.5261452833758753,6.110642063408651,1.0165290832519531,-2.888099495564596
1708434620.9895463,-2.142110824584961,-1.3334607642940064,-2.526163403187887,6.110700237541952,1.0165483951568604,-2.888073507939474
1708434620.9915836,-2.142057418823242,-1.3334321689656754,-2.526156012211935,6.110603320389547,1.0165483951568604,-2.88809043565859
1708434620.993558,-2.142073154449463,-1.3334233176759263,-2.526170794163839,6.110661494522848,1.0165483951568604,-2.8881025950061243
1708434620.9955342,-2.142110824584961,-1.3333953779986878,-2.526175324116842,6.110686766892233,1.0165441036224365,-2.888108555470602
1708434620.9975712,-2.1420984268188477,-1.333448515539505,-2.526188913975851,6.11059735992507,1.0165570974349976,-2.888111416493551
1708434620.999543,-2.1420984268188477,-1.333436445598938,-2.526184384022848,6.11067675331191,1.0165321826934814,-2.888139788304464
1708434621.0015237,-2.142050266265869,-1.3334158223918458,-2.5261917749988,6.110654341965475,1.0165733098983765,-2.8880906740771692
1708434621.003562,-2.142073154449463,-1.3334409457496186,-2.526187245045797,6.110670435219564,1.0165778398513794,-2.8880980650531214
1708434621.0055432,-2.142068862915039,-1.3334351790002366,-2.526184384022848,6.110651004105367,1.0165646076202393,-2.8880980650531214
1708434621.0075793,-2.142073154449463,-1.3334528368762513,-2.526187245045797,6.110694277077474,1.0165115594863892,-2.8880861441241663
1708434621.0095792,-2.1421027183532715,-1.3334277433208008,-2.526142422352926,6.110674965172567,1.0164989233016968,-2.888132397328512
1708434621.0115497,-2.14206600189209,-1.3333954078010102,-2.526196304951803,6.110642063408651,1.0165646076202393,-2.888144079838888
1708434621.0135527,-2.142094135284424,-1.3334607046893616,-2.526179854069845,6.110649812012472,1.0165570974349976,-2.8881846109973353
1708434621.0155556,-2.142033576965332,-1.3334526878646393,-2.5261917749988,6.110642063408651,1.0165526866912842,-2.8880816141711634
1708434621.0175748,-2.1420645713806152,-1.3333668571761628,-2.526158873234884,6.110649812012472,1.0165483951568604,-2.8881307283984583
1708434621.019574,-2.1419994831085205,-1.333447427754738,-2.526179854069845,6.110637652664938,1.016527771949768,-2.888176981602804
1708434621.0215466,-2.1420249938964844,-1.3334233176759263,-2.5261662642108362,6.110652553826132,1.0165233612060547,-2.8882299105273646
1708434621.023557,-2.1420249938964844,-1.3333954376033326,-2.526142422352926,6.110628711968221,1.0165483951568604,-2.888174597417013
1708434621.0255563,-2.1420769691467285,-1.333371178512909,-2.526175324116842,6.110658871918478,1.016555905342102,-2.888211790715353
1708434621.0275886,-2.1420207023620605,-1.3334114265492936,-2.526170794163839,6.110683786659994,1.0165975093841553,-2.888211790715353
1708434621.0295532,-2.142057418823242,-1.3334086251309891,-2.5261917749988,6.110633122711935,1.0165352821350098,-2.888235632573263
1708434621.0315492,-2.1420416831970215,-1.3334277433208008,-2.526175324116842,6.110686766892233,1.0165483951568604,-2.888251845036642
1708434621.033605,-2.142068862915039,-1.3334041398814698,-2.526158873234884,6.110648023873129,1.0165646076202393,-2.8881965319262903
1708434621.035575,-2.1420602798461914,-1.3334277433208008,-2.5262203852282923,6.110736357956686,1.016555905342102,-2.888259474431173
1708434621.037589,-2.142110824584961,-1.3334321689656754,-2.5261917749988,6.1106454012687585,1.0165321826934814,-2.888296190892355
1708434621.039544,-2.14206600189209,-1.3334485304406662,-2.526187245045797,6.110677945404806,1.0165441036224365,-2.888275210057394
1708434621.041529,-2.1420373916625977,-1.3334233176759263,-2.526224915181295,6.110677945404806,1.0165811777114868,-2.888287130986349
1708434621.0435462,-2.1420373916625977,-1.3334277433208008,-2.526170794163839,6.110661494522848,1.0165812969207764,-2.888372008000509
1708434621.0455506,-2.1420817375183105,-1.3334651750377198,-2.5261452833758753,6.110691296845236,1.016515851020813,-2.8884175459491175
1708434621.0475442,-2.142073154449463,-1.3334441047957917,-2.5262067953692835,6.110689866333761,1.0165690183639526,-2.8883803526507776
1708434621.0495744,-2.14206600189209,-1.3334563386491318,-2.526184384022848,6.1107228873069666,1.0166141986846924,-2.888427797948019
1708434621.0515552,-2.142068862915039,-1.3334086549333115,-2.5262158552752894,6.110661494522848,1.0165483951568604,-2.8884201685534876
1708434621.0535839,-2.142094135284424,-1.3333998036435624,-2.5262461344348353,6.110689866333761,1.0165352821350098,-2.8884714285479944
1708434621.0555525,-2.142057418823242,-1.3334113967469712,-2.526212755833761,6.110685336380758,1.016576886177063,-2.8884924093829554
1708434621.0575633,-2.1420488357543945,-1.333448515539505,-2.5261617342578333,6.110697495728292,1.016555905342102,-2.888498369847433
1708434621.0595367,-2.142117977142334,-1.3333909672549744,-2.5261572043048304,6.110680687218466,1.0166184902191162,-2.888580862675802
1708434621.0615234,-2.142106533050537,-1.3334351491979142,-2.5262113253222864,6.110702144890585,1.016576886177063,-2.8886097113238733
1708434621.063573,-2.142094135284424,-1.3334233176759263,-2.526224915181295,6.110680687218466,1.0165441036224365,-2.8885989824878138
1708434621.065539,-2.14208984375,-1.3333909672549744,-2.5261946360217493,6.11075125911788,1.0165843963623047,-2.8886681238757532
1708434621.067535,-2.1420817375183105,-1.3334113967469712,-2.5261781851397913,6.110704886704244,1.0166172981262207,-2.8886845747577112
1708434621.0695531,-2.142068862915039,-1.3334113967469712,-2.526179854069845,6.110746609955587,1.0165886878967285,-2.8886786142932337
1708434621.0715208,-2.1420488357543945,-1.3334651750377198,-2.5261901060687464,6.110799181252279,1.0165843963623047,-2.888761107121603
1708434621.0735672,-2.1420645713806152,-1.333474026327469,-2.5262113253222864,6.11076186874465,1.0165965557098389,-2.888787810002462
1708434621.075547,-2.1420645713806152,-1.3334158223918458,-2.5262370745288294,6.1107438681419275,1.0165965557098389,-2.8888359705554407
1708434621.0775306,-2.142073154449463,-1.333442972307541,-2.5261917749988,6.110782730370321,1.0165921449661255,-2.888923231755392
1708434621.079557,-2.1421308517456055,-1.3335054081729432,-2.5261946360217493,6.110773789673605,1.0165965557098389,-2.8889413515674036
1708434621.0815766,-2.142106533050537,-1.3334188026240845,-2.5261736551867884,6.110790121346273,1.01664137840271,-2.889022413884298
1708434621.0835528,-2.1421022415161133,-1.3334440898946305,-2.5261736551867884,6.110806572228231,1.0166250467300415,-2.8890371958362024
1708434621.0855446,-2.1421308517456055,-1.3334351491979142,-2.5262489954577845,6.110752808838644,1.016575574874878,-2.889121119176046
1708434621.0875633,-2.142106533050537,-1.3334188026240845,-2.5262189547168177,6.110781180649557,1.0166162252426147,-2.8891566435443323
1708434621.08958,-2.1421265602111816,-1.3334454757026215,-2.5262234846698206,6.11074839809493,1.0166741609573364,-2.889254871998922
1708434621.091556,-2.142117977142334,-1.3334607642940064,-2.5261901060687464,6.110788571625509,1.016623854637146,-2.8892725149737757
1708434621.0935442,-2.142085552215576,-1.3334187281182786,-2.5261991659747522,6.110813963204183,1.0166610479354858,-2.8893354574786585
1708434621.0955632,-2.14211368560791,-1.333405540590622,-2.5262189547168177,6.110879885941305,1.0166939496994019,-2.8894828001605433
1708434621.097565,-2.14208984375,-1.3334845167449494,-2.5262370745288294,6.110871064453878,1.0166685581207275,-2.8895095030414026
1708434621.099595,-2.1421093940734863,-1.3335175824216385,-2.5261736551867884,6.110824572830953,1.0166597366333008,-2.889596764241354
1708434621.1015642,-2.14211368560791,-1.333439664249756,-2.5261855761157435,6.110861885338583,1.0166926383972168,-2.8896687666522425
1708434621.1035411,-2.142085552215576,-1.333423302774765,-2.5262280146228235,6.110886084824362,1.0167014598846436,-2.889782492314474
1708434621.105576,-2.1420724391937256,-1.3334800911000748,-2.5262518564807337,6.1108529446418665,1.0166926383972168,-2.889857594166891
1708434621.1075623,-2.1421093940734863,-1.333492026930191,-2.5262489954577845,6.110861885338583,1.0167298316955566,-2.889941994343893
1708434621.1095538,-2.14208984375,-1.33341737211261,-2.5262609163867396,6.110897648125448,1.0166795253753662,-2.890066210423605
1708434621.1115558,-2.1421093940734863,-1.3334830713323136,-2.5262354055987757,6.110891568451681,1.0167535543441772,-2.8901827971087855
1708434621.113566,-2.1420979499816895,-1.3335381311229249,-2.5262399355517786,6.110908019333639,1.0167286396026611,-2.8902536074267786
1708434621.115552,-2.1421048641204834,-1.3334593039802094,-2.5262325445758265,6.110917079239645,1.0167574882507324,-2.8903992811786097
1708434621.1176097,-2.1421093940734863,-1.3334307235530396,-2.5262189547168177,6.110957610398092,1.0167330503463745,-2.890498701726095
1708434621.1195648,-2.142134189605713,-1.3334307235530396,-2.5262728373156946,6.11091576793746,1.016782522201538,-2.890578095112936
1708434621.121551,-2.142163038253784,-1.3334263128093262,-2.5262683073626917,6.110932099610128,1.0167605876922607,-2.8907187620746058
1708434621.1235733,-2.1420962810516357,-1.3335410517505188,-2.5262354055987757,6.111005055695333,1.016797423362732,-2.890808884297506
1708434621.1255605,-2.142084836959839,-1.3335291606238862,-2.526275936757223,6.111002552300253,1.0168097019195557,-2.8910234610186976
1708434621.1276047,-2.1421306133270264,-1.3334712398103257,-2.52622634569277,6.110993492394247,1.016767978668213,-2.891135040913717
1708434621.1295466,-2.142134189605713,-1.3334800911000748,-2.526284996663229,6.110951769142904,1.0168216228485107,-2.891313378010885
1708434621.1315448,-2.1421456336975098,-1.3335454624942322,-2.526259247456686,6.111029374390402,1.0168216228485107,-2.8914104143725794
1708434621.1335728,-2.1421263217926025,-1.3334712398103257,-2.526283327733175,6.111057507782736,1.0168170928955078,-2.891554896031515
1708434621.1355765,-2.1421515941619873,-1.333495409493782,-2.526337448750631,6.111013042717733,1.0168216228485107,-2.891702715550558
1708434621.1375806,-2.1421048641204834,-1.3334143471768876,-2.526287857686178,6.111044156342306,1.0168083906173706,-2.8918355146991175
1708434621.1395528,-2.1421263217926025,-1.33349201202903,-2.5262742678271692,6.111107098847189,1.0168696641921997,-2.8920088450061243
1708434621.1415517,-2.1421263217926025,-1.3334624034217377,-2.5262697378741663,6.111032235413351,1.0168696641921997,-2.8921311537372034
1708434621.1435611,-2.1421263217926025,-1.33348901689563,-2.52631646791567,6.111024844437399,1.0168578624725342,-2.8923211733447474
1708434621.1455913,-2.1421306133270264,-1.3334340465119858,-2.526283327733175,6.110999452858724,1.0168728828430176,-2.892456118260519
1708434621.1475623,-2.142084836959839,-1.3334875863841553,-2.5263238588916224,6.1110113737876794,1.0168684720993042,-2.8926194349872034
1708434621.1495438,-2.1421430110931396,-1.3335291159204026,-2.5263028780566614,6.111098158150472,1.0169016122817993,-2.892825190220968
1708434621.1515732,-2.1421048641204834,-1.3334473979524155,-2.5262909571277063,6.110993373184957,1.0169297456741333,-2.892933193837301
1708434621.1535492,-2.1421093940734863,-1.333492026930191,-2.5263057390796106,6.111060964852133,1.0169342756271362,-2.8931761423694056
1708434621.155558,-2.14211368560791,-1.333524615769722,-2.5263193289386194,6.111081826477804,1.0169166326522827,-2.8933473269092005
1708434621.1575935,-2.142113208770752,-1.3334593188813706,-2.5263312498675745,6.111039626389303,1.0169004201889038,-2.893527094517843
1708434621.1595716,-2.142174482345581,-1.3335042160800477,-2.5263431707965296,6.111077296524801,1.016921043395996,-2.8937531153308313
1708434621.161538,-2.1421217918395996,-1.3335130971721192,-2.5263341108905237,6.111018764763632,1.0169867277145386,-2.8939698378192347
1708434621.163555,-2.142117500305176,-1.3334756654552002,-2.5263643900500696,6.111081707268514,1.0169363021850586,-2.894160334263937
1708434621.1655478,-2.1421830654144287,-1.3335130971721192,-2.5263810793506067,6.111051904946127,1.0169363021850586,-2.8943679968463343
1708434621.1675832,-2.1421430110931396,-1.3334742796472092,-2.5263810793506067,6.1110936281974695,1.0169657468795776,-2.8946664969073694
1708434621.1695812,-2.1421384811401367,-1.3334624034217377,-2.526383940373556,6.110995042115011,1.016973614692688,-2.8948729673968714
1708434621.1715424,-2.1420891284942627,-1.3334875863841553,-2.526372019444601,6.111041176110067,1.0169605016708374,-2.895092312489645
1708434621.173584,-2.1421048641204834,-1.333495394592621,-2.526329580937521,6.111039626389303,1.0170139074325562,-2.8953455130206507
1708434621.1755693,-2.1420891284942627,-1.3335042607835312,-2.526400391255514,6.111123430519857,1.017005205154419,-2.895560089741842
1708434621.1775558,-2.142134189605713,-1.3335247796824952,-2.526362959538595,6.111044156342306,1.0170096158981323,-2.89579683939089
1708434621.17957,-2.1421005725860596,-1.3335366559079667,-2.5263598600970667,6.111023175507345,1.0170007944107056,-2.8960045019732874
1708434621.1815698,-2.1421456336975098,-1.3334997457316895,-2.526437822972433,6.11108015754775,1.017033576965332,-2.896310631428854
1708434621.183626,-2.1420936584472656,-1.333536611204483,-2.526428763066427,6.111077296524801,1.0170173645019531,-2.8966403643237513
1708434621.1855915,-2.1421384811401367,-1.3334997457316895,-2.526403252278463,6.111015784531393,1.0170042514801025,-2.896853748952047
1708434621.1875427,-2.142084836959839,-1.333508701329567,-2.526412312184469,6.111039626389303,1.017069935798645,-2.897187058125631
1708434621.1895428,-2.1421005725860596,-1.333548442726471,-2.5263450781451624,6.111065375595846,1.0170817375183105,-2.897491518651144
1708434621.1915412,-2.142117500305176,-1.333515779381134,-2.526353899632589,6.110957610398092,1.0170445442199707,-2.89779502550234
1708434621.1935987,-2.142080545425415,-1.3334742796472092,-2.526403252278463,6.111044156342306,1.0170936584472656,-2.8981075922595423
1708434621.1955318,-2.142134189605713,-1.333533601169922,-2.526403252278463,6.111036646157064,1.0170774459838867,-2.898367468510763
1708434621.1975322,-2.142117500305176,-1.3334130358747025,-2.5264483133899134,6.111098158150472,1.0170774459838867,-2.89876372018923
1708434621.1995466,-2.1421430110931396,-1.3334787350944062,-2.5264228026019495,6.111005294113912,1.017098069190979,-2.8990841547595423
1708434621.201522,-2.1420812606811523,-1.3335484874299546,-2.5264228026019495,6.111060845642843,1.0171012878417969,-2.899386231099264
1708434621.2035778,-2.1421093940734863,-1.3334415715983887,-2.5264437834369105,6.111039626389303,1.017134428024292,-2.899736229573385
1708434621.2055383,-2.142167329788208,-1.3335042756846924,-2.526419703160421,6.111018645554342,1.0171551704406738,-2.9000805060016077
1708434621.2075455,-2.142113208770752,-1.3334875863841553,-2.5264933745013636,6.111051904946127,1.017116904258728,-2.9004274050342005
1708434621.20954,-2.1421263217926025,-1.3334548783353348,-2.5264468828784388,6.111093747406759,1.017096757888794,-2.9007962385760706
1708434621.2115502,-2.1421430110931396,-1.333492026930191,-2.5264723936664026,6.1110068438346765,1.0171581506729126,-2.9011650721179407
1708434621.2135441,-2.1421263217926025,-1.3334964525750657,-2.5264769236194056,6.111036765366354,1.0171360969543457,-2.9015656153308313
1708434621.2155507,-2.1420979499816895,-1.3335663092187424,-2.5264483133899134,6.110995042115011,1.0171945095062256,-2.9019139448748987
1708434621.2175314,-2.142080545425415,-1.3334593039802094,-2.5264888445483606,6.1110113737876794,1.017145037651062,-2.9023450056659144
1708434621.219574,-2.1420769691467285,-1.3335042756846924,-2.5265219847308558,6.111002313881674,1.0171945095062256,-2.9027062098132532
1708434621.221542,-2.1420891284942627,-1.3334756654552002,-2.526487175618307,6.111068236618795,1.0171573162078857,-2.903114382420675
1708434621.2235713,-2.1421473026275635,-1.3335321110538025,-2.526463333760397,6.111044156342306,1.017164707183838,-2.9035068194018763
