Eg3-git/Classifiers/Data Collection/u2/u2abc1_ur3e_joint_states.csv
time,elbow_joint,shoulder_lift_joint,shoulder_pan_joint,wrist_1_joint,wrist_2_joint,wrist_3_joint
1708434497.0844183,1.7055705229388636,-2.7465926609435023,-1.7659133116351526,6.170229542046346,-0.4539240042315882,-4.873910252247946
1708434497.0864277,1.7055423895465296,-2.7465855083861292,-1.765904728566305,6.170245873719015,-0.4539249579059046,-4.873901430760519
1708434497.0884614,1.705540959035055,-2.7465440235533656,-1.765949551259176,6.1702414629753015,-0.4539077917682093,-4.873873416577474
1708434497.090423,1.705484692250387,-2.746556421319479,-1.765899960194723,6.170237052231588,-0.4539240042315882,-4.873901430760519
1708434497.0924067,1.7055705229388636,-2.746601720849508,-1.765883747731344,6.170211660652914,-0.45391637483705694,-4.873893920575277
1708434497.0944057,1.7055748144732874,-2.7465926609435023,-1.7658761183368128,6.170216071396627,-0.4538677374469202,-4.873856727276937
1708434497.0964072,1.705566708241598,-2.746601720849508,-1.7658956686602991,6.170199739723959,-0.45390445390810186,-4.873893920575277
1708434497.0984306,1.7055538336383265,-2.7465487919249476,-1.765871826802389,6.170298325806417,-0.4538958708392542,-4.873844687138693
1708434497.1004279,1.7055466810809534,-2.7465678654112757,-1.765925709401266,6.1702414629753015,-0.45391637483705694,-4.873877827321188
1708434497.102404,1.7055018583880823,-2.7465840778746546,-1.765923802052633,6.170244800835409,-0.45394879976381475,-4.8738805691348475
1708434497.1044211,1.7055423895465296,-2.7465883694090785,-1.765867058430807,6.170195328980245,-0.4538958708392542,-4.873873416577474
1708434497.1064026,1.705533806477682,-2.7465316257872523,-1.765921417866842,6.170249211579122,-0.45393592516054326,-4.873905841504232
1708434497.1084492,1.7055748144732874,-2.7465678654112757,-1.765899960194723,6.170199739723959,-0.45387489000429326,-4.873840395604269
1708434497.1104,1.7055581251727503,-2.7465812168517054,-1.7658956686602991,6.170211660652914,-0.4538958708392542,-4.873889509831564
1708434497.1124194,1.7055257002459925,-2.7465859852232875,-1.76591664949526,6.170216190605917,-0.45393687883485967,-4.873882357274191
1708434497.1144063,1.705533806477682,-2.7466007671751917,-1.765928093587057,6.170258271485128,-0.4539120833026331,-4.87389845052828
1708434497.11641,1.7055257002459925,-2.746502538720602,-1.765890900288717,6.170270073204794,-0.4539077917682093,-4.873893920575277
1708434497.1184332,1.7055581251727503,-2.7465363941588343,-1.7659090201007288,6.170265543251791,-0.4538958708392542,-4.873877827321188
1708434497.1204264,1.7055423895465296,-2.7465397320189417,-1.7659090201007288,6.170229542046346,-0.4538829962359827,-4.873861138020651
1708434497.1224055,1.7055624167071741,-2.7466260395445765,-1.765928093587057,6.1702626822288416,-0.45390445390810186,-4.873865667973654
1708434497.124405,1.7055257002459925,-2.7465440235533656,-1.765850845967428,6.170286524086752,-0.4539077917682093,-4.87389845052828
1708434497.1264448,1.7055094877826136,-2.7465650043883265,-1.7659371534930628,6.170249211579122,-0.45385486284364873,-4.873856727276937
1708434497.1284215,1.705500904713766,-2.7465363941588343,-1.7658880392657679,6.1702191708381555,-0.4539240042315882,-4.873856727276937
1708434497.1303978,1.705533806477682,-2.746535440484518,-1.7659042517291468,6.170225131302633,-0.45390016237367803,-4.873877827321188
1708434497.1324036,1.7055342833148401,-2.7465530834593714,-1.7658746878253382,6.170244800835409,-0.45390016237367803,-4.873837653790609
1708434497.1344097,1.7055214087115687,-2.7466231785216273,-1.7659371534930628,6.170229542046346,-0.4538677374469202,-4.873861138020651
1708434497.136453,1.7055180708514612,-2.7465530834593714,-1.765899960194723,6.170274603157797,-0.4538958708392542,-4.8739147822009485
1708434497.1385772,1.7055957953082483,-2.7465769253172816,-1.7658761183368128,6.1702414629753015,-0.4538834730731409,-4.873835865651266
1708434497.1404722,1.7055171171771448,-2.7466050587096156,-1.765829865132467,6.17022072055892,-0.45387059846986944,-4.873886887227194
1708434497.1424341,1.705512825642721,-2.7465363941588343,-1.7659042517291468,6.170249211579122,-0.4538915793048304,-4.873865667973654
1708434497.1444128,1.7055171171771448,-2.746547361413473,-1.765921417866842,6.170286524086752,-0.4538829962359827,-4.873815361653463
1708434497.1463983,1.7055094877826136,-2.746596952477926,-1.765921417866842,6.17027901390151,-0.4538958708392542,-4.873849336300985
1708434497.148418,1.705512825642721,-2.7465440235533656,-1.765867058430807,6.170281994133749,-0.4538915793048304,-4.873882357274191
1708434497.150411,1.7055495421039026,-2.7466350994505824,-1.765883747731344,6.170258271485128,-0.4538915793048304,-4.873893920575277
1708434497.152412,1.705512825642721,-2.7465440235533656,-1.765871826802389,6.170237052231588,-0.45390016237367803,-4.873833243046896
1708434497.1544154,1.7055624167071741,-2.7465678654112757,-1.76591664949526,6.170178878098287,-0.4539077917682093,-4.873865667973654
1708434497.1564052,1.7055299917804163,-2.7465397320189417,-1.7658956686602991,6.1702414629753015,-0.4538992086993616,-4.873847786580221
1708434497.158402,1.7055423895465296,-2.7465483150877894,-1.7658956686602991,6.170204269676962,-0.4538791815387171,-4.87389845052828
1708434497.1604064,1.7054770628558558,-2.746556421319479,-1.7659042517291468,6.170222151070394,-0.4538992086993616,-4.873886887227194
1708434497.1623938,1.7055171171771448,-2.7465607128539027,-1.7659042517291468,6.170227992325582,-0.45388776460756475,-4.873833243046896
1708434497.164416,1.7055423895465296,-2.7465883694090785,-1.7659090201007288,6.170271622925558,-0.45387059846986944,-4.873893920575277
1708434497.1664224,1.7055299917804163,-2.7465487919249476,-1.7658880392657679,6.170249211579122,-0.4539120833026331,-4.873864595090048
1708434497.168409,1.7055094877826136,-2.7466007671751917,-1.765867058430807,6.170258271485128,-0.4539077917682093,-4.873919192944662
1708434497.170415,1.7055380980121058,-2.7465883694090785,-1.7658956686602991,6.17027901390151,-0.4539120833026331,-4.873893920575277
1708434497.1723993,1.7055299917804163,-2.746549745599264,-1.765925709401266,6.170195209770956,-0.45393592516054326,-4.873901430760519
1708434497.174397,1.7055466810809534,-2.7465769253172816,-1.765925709401266,6.17022072055892,-0.45387489000429326,-4.873893920575277
1708434497.1763961,1.7055380980121058,-2.746596475640768,-1.7658956686602991,6.170253741532125,-0.45387489000429326,-4.8739147822009485
1708434497.1784067,1.7055380980121058,-2.7465726337828578,-1.7658923308001917,6.170253741532125,-0.45391971269716436,-4.873835865651266
1708434497.1804073,1.7055509726153772,-2.7465740642943324,-1.7659195105182093,6.170190918236532,-0.45387059846986944,-4.873873416577474
1708434497.1824079,1.7055423895465296,-2.746601720849508,-1.765850845967428,6.170199739723959,-0.4539077917682093,-4.873877827321188
1708434497.1844113,1.7055171171771448,-2.746535440484518,-1.7659133116351526,6.1702027199561975,-0.45390350023378545,-4.873893920575277
1708434497.1864145,1.7055299917804163,-2.7465726337828578,-1.765871826802389,6.170232522278585,-0.4538634459124964,-4.8738805691348475
1708434497.1884446,1.705538574849264,-2.7465650043883265,-1.765878979359762,6.170286404877462,-0.4539120833026331,-4.873910252247946
1708434497.1904128,1.7055094877826136,-2.746535440484518,-1.7659371534930628,6.170192348748007,-0.4539077917682093,-4.8738970200168055
1708434497.1923935,1.7055748144732874,-2.7465926609435023,-1.7659042517291468,6.170274603157797,-0.45388728777040654,-4.8739147822009485
1708434497.1944017,1.7055137793170374,-2.7465182743468226,-1.765928093587057,6.170287954598226,-0.4539240042315882,-4.873889509831564
1708434497.1963954,1.7055380980121058,-2.7465530834593714,-1.7659042517291468,6.170208680420675,-0.4538958708392542,-4.87392229238619
1708434497.1984115,1.7055171171771448,-2.7465926609435023,-1.7659032980548304,6.170211660652914,-0.4539120833026331,-4.873864475880758
1708434497.2004063,1.705533806477682,-2.7465650043883265,-1.765878979359762,6.170211660652914,-0.453928295766012,-4.873901430760519
1708434497.2024045,1.7055214087115687,-2.7465397320189417,-1.7659123579608362,6.170289385109701,-0.4539402166949671,-4.873844687138693
1708434497.2044127,1.7054889837848108,-2.7465530834593714,-1.765857998524801,6.170290934830465,-0.45387202898134404,-4.87382680574526
1708434497.2064147,1.7055214087115687,-2.7465397320189417,-1.7658923308001917,6.170290934830465,-0.4539120833026331,-4.8739312330829065
1708434497.2084014,1.7055466810809534,-2.746594568292135,-1.765890900288717,6.17030297496871,-0.453928295766012,-4.873869005833761
1708434497.2103994,1.7055748144732874,-2.7466184101500453,-1.76591664949526,6.1702191708381555,-0.45390016237367803,-4.873905841504232
1708434497.212424,1.7055748144732874,-2.7465769253172816,-1.7658866087542933,6.17022072055892,-0.4539120833026331,-4.873925511037008
1708434497.2144141,1.7055299917804163,-2.7465440235533656,-1.7659123579608362,6.170199739723959,-0.4539445082293909,-4.873934570943014
1708434497.216403,1.7055094877826136,-2.7465926609435023,-1.765923802052633,6.170253741532125,-0.4538915793048304,-4.873923722897665
1708434497.2184012,1.7055214087115687,-2.746556421319479,-1.7659080664264124,6.170232522278585,-0.45385486284364873,-4.87392229238619
1708434497.220403,1.7055051962481897,-2.7465859852232875,-1.76591664949526,6.170228111534872,-0.4539240042315882,-4.873856727276937
1708434497.2224312,1.7055051962481897,-2.746544977227682,-1.7658923308001917,6.170258152275839,-0.45390016237367803,-4.873930040990011
1708434497.2244291,1.70546800294985,-2.7466098270811976,-1.7659042517291468,6.170274483948507,-0.4538791815387171,-4.8738805691348475
1708434497.2264142,1.7055171171771448,-2.746606012383932,-1.765949551259176,6.170229542046346,-0.4539530912982386,-4.873901430760519
1708434497.228439,1.7055423895465296,-2.7465607128539027,-1.7658370176898401,6.170190918236532,-0.4538791815387171,-4.873901430760519
1708434497.230411,1.7055423895465296,-2.7465440235533656,-1.7659042517291468,6.170232522278585,-0.4538958708392542,-4.8738970200168055
1708434497.2324138,1.7055094877826136,-2.7466098270811976,-1.765949551259176,6.1702414629753015,-0.4538634459124964,-4.873917881642477
1708434497.2344744,1.7055380980121058,-2.7465273342528285,-1.7658866087542933,6.170258152275839,-0.45387059846986944,-4.8738970200168055
1708434497.2364097,1.7055466810809534,-2.7465883694090785,-1.765923802052633,6.170237052231588,-0.45387059846986944,-4.873869005833761
1708434497.2384202,1.7055299917804163,-2.7465487919249476,-1.7658923308001917,6.170223581581869,-0.45390350023378545,-4.873917762433187
1708434497.2404215,1.7055137793170374,-2.7466050587096156,-1.765862766896383,6.170250403672018,-0.4538467566119593,-4.873888079320089
1708434497.242422,1.7055214087115687,-2.7465926609435023,-1.7658956686602991,6.17022072055892,-0.4538958708392542,-4.873930040990011
1708434497.2444026,1.7055257002459925,-2.7465650043883265,-1.765878979359762,6.170204269676962,-0.4538834730731409,-4.8738970200168055
1708434497.2464304,1.7054608503924769,-2.746655603448385,-1.7658956686602991,6.1702459929283044,-0.4539077917682093,-4.873913351689474
1708434497.2484086,1.7055257002459925,-2.7466379604735316,-1.765899960194723,6.170261132508077,-0.4539077917682093,-4.873896900807516
1708434497.2504191,1.7055342833148401,-2.746596475640768,-1.7658956686602991,6.170258271485128,-0.4538791815387171,-4.873934570943014
1708434497.2524111,1.7055257002459925,-2.7465726337828578,-1.765883747731344,6.170237052231588,-0.4539077917682093,-4.873913351689474
1708434497.2544112,1.7055094877826136,-2.7465650043883265,-1.765890900288717,6.170228111534872,-0.4539120833026331,-4.873910252247946
1708434497.256407,1.7055257002459925,-2.7465883694090785,-1.765921417866842,6.170232522278585,-0.4538958708392542,-4.873892370854513
1708434497.2584329,1.7055257002459925,-2.7466050587096156,-1.765932861958639,6.170258152275839,-0.453928295766012,-4.873950664197103
1708434497.260432,1.7055171171771448,-2.7466184101500453,-1.7659090201007288,6.170258271485128,-0.45387059846986944,-4.873950664197103
1708434497.2623954,1.7055624167071741,-2.7465859852232875,-1.7659042517291468,6.170208799629965,-0.45390016237367803,-4.873904410992758
1708434497.2644336,1.7055466810809534,-2.7466050587096156,-1.765883747731344,6.170229542046346,-0.4539120833026331,-4.8739461342441
1708434497.2664018,1.705538574849264,-2.7466050587096156,-1.7658956686602991,6.170225131302633,-0.4538791815387171,-4.8738879601108
1708434497.268447,1.7055423895465296,-2.7465926609435023,-1.7658818403827112,6.170237052231588,-0.45387489000429326,-4.8739580551730555
1708434497.2704213,1.7055466810809534,-2.7466260395445765,-1.765899960194723,6.170253741532125,-0.4538915793048304,-4.873899881039755
1708434497.2724102,1.7055214087115687,-2.7465769253172816,-1.765928093587057,6.170208799629965,-0.45390016237367803,-4.8738879601108
1708434497.2744424,1.7055257002459925,-2.746530672112936,-1.765878979359762,6.170290934830465,-0.45390016237367803,-4.873932663594381
1708434497.2764108,1.7055257002459925,-2.7465769253172816,-1.7659042517291468,6.170227992325582,-0.4539111296283167,-4.873912159596578
1708434497.278425,1.7055380980121058,-2.746596952477926,-1.7658880392657679,6.170225131302633,-0.4539445082293909,-4.873921100293295
1708434497.2804291,1.7055257002459925,-2.7465726337828578,-1.7658818403827112,6.170216190605917,-0.453928295766012,-4.873949114476339
1708434497.2824197,1.7055423895465296,-2.7465607128539027,-1.7659123579608362,6.170253741532125,-0.4539445082293909,-4.873993817959921
1708434497.2844026,1.7055748144732874,-2.7465230427184046,-1.765925709401266,6.170253741532125,-0.4538958708392542,-4.873986426983969
1708434497.286404,1.70557147661318,-2.7465607128539027,-1.765890900288717,6.170216190605917,-0.4539077917682093,-4.874012891446249
1708434497.2884197,1.7055342833148401,-2.7465859852232875,-1.765878979359762,6.1702459929283044,-0.4539120833026331,-4.873952094708578
1708434497.290414,1.7055214087115687,-2.746601720849508,-1.765883747731344,6.1702072499092,-0.4539240042315882,-4.873989407216207
1708434497.2924054,1.7055299917804163,-2.7466050587096156,-1.7659452597247522,6.1702414629753015,-0.45388776460756475,-4.873989407216207
1708434497.2944274,1.7055624167071741,-2.7466184101500453,-1.765883747731344,6.170262563019552,-0.45391637483705694,-4.873989407216207
1708434497.2964096,1.7055214087115687,-2.746535440484518,-1.765878979359762,6.170244800835409,-0.45394879976381475,-4.873992387448446
1708434497.2984502,1.7055624167071741,-2.746596952477926,-1.76591664949526,6.170261132508077,-0.4538829962359827,-4.873971406613485
1708434497.3004405,1.7055624167071741,-2.7466007671751917,-1.765899960194723,6.170245873719015,-0.4538791815387171,-4.874014679585592
1708434497.302432,1.705538574849264,-2.7466050587096156,-1.765930477772848,6.170244800835409,-0.45385915437807256,-4.87395960489382
1708434497.3044205,1.7055094877826136,-2.746596952477926,-1.7659452597247522,6.170178997307577,-0.45391542116274053,-4.873993817959921
1708434497.3064225,1.7055299917804163,-2.7465692959227503,-1.765923802052633,6.170286524086752,-0.4539120833026331,-4.87405497232546
1708434497.3084445,1.7055466810809534,-2.7465573749937953,-1.765878979359762,6.170195328980245,-0.45390016237367803,-4.874032560979025
1708434497.3105023,1.7055018583880823,-2.7465769253172816,-1.765890900288717,6.170299875527181,-0.4538915793048304,-4.8740084807025355
1708434497.3124242,1.705512825642721,-2.7465678654112757,-1.7659133116351526,6.1702459929283044,-0.4539077917682093,-4.87402064005007
1708434497.3144138,1.7055214087115687,-2.7466217480101527,-1.765899960194723,6.170237052231588,-0.45387489000429326,-4.87407881418337
1708434497.3164155,1.7055423895465296,-2.7465726337828578,-1.765921417866842,6.170258152275839,-0.45390016237367803,-4.873971525822775
1708434497.3184164,1.7055466810809534,-2.7465726337828578,-1.7659042517291468,6.170237052231588,-0.45388728777040654,-4.8739967981921595
1708434497.3204846,1.7055094877826136,-2.746606012383932,-1.76591664949526,6.170228111534872,-0.4539120833026331,-4.874041620885031
1708434497.3224118,1.7054932753192347,-2.7465769253172816,-1.765949551259176,6.170199739723959,-0.4538915793048304,-4.873966995869772
1708434497.3244588,1.7055214087115687,-2.7466184101500453,-1.7658923308001917,6.170270192414083,-0.45394784608949834,-4.87402064005007
1708434497.3264153,1.7055094877826136,-2.746556421319479,-1.765928093587057,6.170258152275839,-0.45388728777040654,-4.87399942079653
1708434497.3284118,1.7055171171771448,-2.7465692959227503,-1.765925709401266,6.170205819397726,-0.45391637483705694,-4.874029580746786
1708434497.3303933,1.7055509726153772,-2.7465902767577113,-1.765932861958639,6.170228111534872,-0.45391637483705694,-4.8739967981921595
1708434497.3324223,1.7055791060077112,-2.7465769253172816,-1.765878979359762,6.17022072055892,-0.4539120833026331,-4.874028150235311
1708434497.3344162,1.7055466810809534,-2.7466169796385707,-1.7659123579608362,6.170244800835409,-0.45388728777040654,-4.874028150235311
1708434497.3364618,1.7055423895465296,-2.7465607128539027,-1.7659371534930628,6.170211660652914,-0.4538663069354456,-4.874028150235311
1708434497.3384254,1.7055257002459925,-2.7465726337828578,-1.765921417866842,6.170249211579122,-0.4538677374469202,-4.87399942079653
1708434497.3404877,1.7055624167071741,-2.7466050587096156,-1.7659371534930628,6.170249211579122,-0.4538958708392542,-4.874037090932028
1708434497.3425207,1.7055509726153772,-2.7465607128539027,-1.7659419218646448,6.170195328980245,-0.4539120833026331,-4.874032560979025
1708434497.3444202,1.7055466810809534,-2.746596475640768,-1.7658746878253382,6.170211660652914,-0.45387489000429326,-4.874019209538595
1708434497.3464186,1.7055495421039026,-2.7466050587096156,-1.765883747731344,6.170245873719015,-0.4538958708392542,-4.874032560979025
1708434497.3484173,1.7055624167071741,-2.746601720849508,-1.765890900288717,6.170265543251791,-0.45387489000429326,-4.874062124882833
1708434497.3504357,1.70557147661318,-2.7466231785216273,-1.7658880392657679,6.170199739723959,-0.4538510481463831,-4.874028150235311
1708434497.3524094,1.7055171171771448,-2.7466217480101527,-1.7659123579608362,6.170225131302633,-0.45387489000429326,-4.874016110097067
1708434497.3543959,1.7055094877826136,-2.7465726337828578,-1.765932861958639,6.170237052231588,-0.45387489000429326,-4.874032560979025
1708434497.35641,1.705533806477682,-2.746502538720602,-1.765899960194723,6.170270192414083,-0.4538958708392542,-4.873979036008016
1708434497.3584273,1.7055214087115687,-2.7465926609435023,-1.765850845967428,6.170258152275839,-0.4539693037616175,-4.874023620282308
1708434497.3604217,1.7055380980121058,-2.7465902767577113,-1.765890900288717,6.170249211579122,-0.4539077917682093,-4.874053064976827
1708434497.3624203,1.7055085341082972,-2.7465230427184046,-1.7658923308001917,6.170228111534872,-0.4538829962359827,-4.8740519920932215
1708434497.3644142,1.705533806477682,-2.7465812168517054,-1.7659195105182093,6.1702414629753015,-0.4538634459124964,-4.874039713536398
1708434497.3663952,1.7055171171771448,-2.7465487919249476,-1.7659090201007288,6.17030285575942,-0.45390016237367803,-4.874019209538595
1708434497.3684604,1.7055257002459925,-2.7465883694090785,-1.765899960194723,6.1702459929283044,-0.4538920561419886,-4.874081794415609
1708434497.3704345,1.705500904713766,-2.7465726337828578,-1.7658956686602991,6.170265543251791,-0.4538915793048304,-4.87400716940035
1708434497.372462,1.7055495421039026,-2.7466303310790003,-1.7659462133990687,6.170186388283529,-0.45387489000429326,-4.874047342930929
1708434497.3744457,1.7055423895465296,-2.746530672112936,-1.7658956686602991,6.170274603157797,-0.4538958708392542,-4.87406832376589
1708434497.3764095,1.705496613179342,-2.7465726337828578,-1.7658956686602991,6.170237052231588,-0.4539077917682093,-4.874060932789938
1708434497.3784177,1.705533806477682,-2.7465859852232875,-1.765970532094137,6.170237052231588,-0.4538915793048304,-4.8740190903293055
1708434497.3804016,1.705533806477682,-2.7466098270811976,-1.765862766896383,6.170244800835409,-0.4538791815387171,-4.874039713536398
1708434497.3823988,1.7055452505694788,-2.7465230427184046,-1.7659042517291468,6.170270073204794,-0.4538834730731409,-4.874035183583395
1708434497.3844068,1.7055380980121058,-2.7465769253172816,-1.76591664949526,6.170237052231588,-0.4538834730731409,-4.8740682045566
1708434497.3863962,1.7055380980121058,-2.7465726337828578,-1.7659042517291468,6.170253741532125,-0.4538791815387171,-4.874043051396505
1708434497.388427,1.7055257002459925,-2.7466303310790003,-1.7659080664264124,6.170237052231588,-0.4538634459124964,-4.874028150235311
1708434497.3904057,1.7055051962481897,-2.7465769253172816,-1.765899960194723,6.170228111534872,-0.45390016237367803,-4.874051872883932
1708434497.3924036,1.7055257002459925,-2.7465769253172816,-1.7658818403827112,6.170283424645223,-0.4538791815387171,-4.874071303998129
1708434497.394409,1.7055257002459925,-2.7465812168517054,-1.765932861958639,6.170225131302633,-0.4538958708392542,-4.874100748692648
1708434497.396401,1.7055824438678187,-2.746498247186178,-1.765883747731344,6.170265543251791,-0.4538510481463831,-4.874035183583395
1708434497.398399,1.7055094877826136,-2.7465726337828578,-1.7658970991717737,6.17023133018569,-0.45388776460756475,-4.874105278645651
1708434497.4004016,1.7055748144732874,-2.7466050587096156,-1.765899960194723,6.170178997307577,-0.45391637483705694,-4.874056402836935
1708434497.4024098,1.7055423895465296,-2.7465650043883265,-1.7659662405597132,6.170249211579122,-0.4538467566119593,-4.8740519920932215
1708434497.4044075,1.7055748144732874,-2.7466260395445765,-1.765899960194723,6.170262563019552,-0.45390445390810186,-4.874077383671896
1708434497.4064655,1.7055214087115687,-2.7466050587096156,-1.7658923308001917,6.17026566246108,-0.45387489000429326,-4.874043051396505
1708434497.408416,1.7055051962481897,-2.7466217480101527,-1.7658923308001917,6.170253741532125,-0.4538791815387171,-4.874093715344564
1708434497.4103873,1.7055495421039026,-2.7466465435423792,-1.7658880392657679,6.170258152275839,-0.45388728777040654,-4.8741130272494715
1708434497.4124162,1.7055257002459925,-2.7465726337828578,-1.7659123579608362,6.170253741532125,-0.4539120833026331,-4.874077383671896
1708434497.4143956,1.7055257002459925,-2.746596952477926,-1.765878979359762,6.170211660652914,-0.45393687883485967,-4.8740519920932215
1708434497.4163802,1.7055662314044397,-2.7465769253172816,-1.765899960194723,6.170265543251791,-0.45390016237367803,-4.8740519920932215
1708434497.4184194,1.7055466810809534,-2.7465440235533656,-1.7658746878253382,6.170261132508077,-0.45390445390810186,-4.874100748692648
1708434497.422402,1.7055452505694788,-2.7465812168517054,-1.7659180800067347,6.170216190605917,-0.45390445390810186,-4.874063793812887
1708434497.424398,1.705529514943258,-2.7466350994505824,-1.765921417866842,6.170293915062704,-0.45390016237367803,-4.874071303998129
1708434497.426389,1.705561939870016,-2.7465769253172816,-1.7658956686602991,6.170253741532125,-0.4538791815387171,-4.874019209538595
1708434497.4284074,1.7055624167071741,-2.7465769253172816,-1.7658880392657679,6.170237052231588,-0.45388776460756475,-4.874081794415609
1708434497.4303896,1.705561939870016,-2.7465769253172816,-1.765867058430807,6.1702459929283044,-0.4538958708392542,-4.874096337948934
1708434497.4324102,1.705533806477682,-2.7466231785216273,-1.765862766896383,6.170199739723959,-0.45393687883485967,-4.874075833951132
1708434497.434411,1.7055791060077112,-2.7465650043883265,-1.7658956686602991,6.17022072055892,-0.45390016237367803,-4.874023620282308
1708434497.4364147,1.7055910269366663,-2.7465678654112757,-1.765883747731344,6.170258152275839,-0.4539402166949671,-4.874080244694845
1708434497.4384248,1.705529514943258,-2.7465607128539027,-1.765850845967428,6.170253741532125,-0.453928295766012,-4.8741130272494715
1708434497.4404309,1.705529514943258,-2.7465230427184046,-1.765921417866842,6.170253741532125,-0.45394879976381475,-4.874091927205221
1708434497.4424322,1.7055466810809534,-2.746596952477926,-1.765899960194723,6.170195328980245,-0.45391971269716436,-4.87406832376589
1708434497.4444098,1.7055214087115687,-2.7466184101500453,-1.765878979359762,6.17022072055892,-0.4538958708392542,-4.87406832376589
1708434497.4463975,1.7055380980121058,-2.7466231785216273,-1.765883747731344,6.1702459929283044,-0.45390016237367803,-4.874084774647848
1708434497.448471,1.7055824438678187,-2.7465926609435023,-1.765878979359762,6.170261132508077,-0.4539120833026331,-4.874091927205221
1708434497.4504125,1.705512825642721,-2.746535440484518,-1.765970532094137,6.170265543251791,-0.4538677374469202,-4.874033991490499
1708434497.4524179,1.7055171171771448,-2.7465487919249476,-1.7659123579608362,6.170281994133749,-0.4538510481463831,-4.874087397252218
1708434497.4544034,1.7055538336383265,-2.7465182743468226,-1.7658880392657679,6.1702414629753015,-0.4538510481463831,-4.874030653630392
1708434497.4564137,1.705529514943258,-2.7465621433653773,-1.7658923308001917,6.170223581581869,-0.4538834730731409,-4.874084774647848
1708434497.458406,1.7055252234088343,-2.7465812168517054,-1.765883747731344,6.1702072499092,-0.4538763205157679,-4.87406832376589
1708434497.4603984,1.7055705229388636,-2.7465926609435023,-1.765925709401266,6.170249211579122,-0.45390445390810186,-4.874072853718893
1708434497.4624338,1.7055748144732874,-2.7466141186156214,-1.7658923308001917,6.170244800835409,-0.45387202898134404,-4.874084774647848
1708434497.4644072,1.7055495421039026,-2.746556421319479,-1.7658970991717737,6.17026566246108,-0.4538958708392542,-4.874096337948934
1708434497.466413,1.7055214087115687,-2.7465273342528285,-1.765899960194723,6.17022072055892,-0.4538958708392542,-4.874072853718893
1708434497.4684157,1.705533806477682,-2.7465812168517054,-1.7659042517291468,6.170169937401571,-0.4538915793048304,-4.874077383671896
1708434497.470397,1.7055705229388636,-2.7465812168517054,-1.7658880392657679,6.170232522278585,-0.4538834730731409,-4.874077383671896
1708434497.47243,1.7055662314044397,-2.7465726337828578,-1.765862766896383,6.170192348748007,-0.45392066637148076,-4.874056402836935
1708434497.4744146,1.7055538336383265,-2.7465363941588343,-1.7659133116351526,6.170253741532125,-0.4538791815387171,-4.874065343533651
1708434497.4764068,1.705512825642721,-2.7466169796385707,-1.7659123579608362,6.170199739723959,-0.45390445390810186,-4.874084774647848
1708434497.478395,1.7055452505694788,-2.746601720849508,-1.765899960194723,6.170307385712423,-0.4539240042315882,-4.874080244694845
1708434497.4804356,1.7055705229388636,-2.7465440235533656,-1.765921417866842,6.17030285575942,-0.4538958708392542,-4.874117557202474
1708434497.4824288,1.705561939870016,-2.7465316257872523,-1.7659133116351526,6.17019675949172,-0.45388776460756475,-4.87406832376589
1708434497.484394,1.7055867354022425,-2.7466098270811976,-1.765921417866842,6.1702414629753015,-0.4539120833026331,-4.874087397252218
1708434497.4864275,1.7055495421039026,-2.7465292416014613,-1.765878979359762,6.170237052231588,-0.45390016237367803,-4.874054853116171
1708434497.4884021,1.705533806477682,-2.7465926609435023,-1.765867058430807,6.170232522278585,-0.45390016237367803,-4.874117557202474
1708434497.4904094,1.7055252234088343,-2.7466260395445765,-1.765878979359762,6.170256721764364,-0.4538834730731409,-4.874056402836935
1708434497.4924436,1.7055781523333948,-2.7465726337828578,-1.7658761183368128,6.170250403672018,-0.45391637483705694,-4.874109927807943
1708434497.4944112,1.7055781523333948,-2.7465678654112757,-1.7658970991717737,6.170216190605917,-0.4538834730731409,-4.874091927205221
1708434497.496407,1.7055662314044397,-2.7465859852232875,-1.76591664949526,6.170281994133749,-0.4538834730731409,-4.874091927205221
1708434497.4983978,1.705533806477682,-2.7465650043883265,-1.7658746878253382,6.170265543251791,-0.4538915793048304,-4.874038402234213
1708434497.5004015,1.7055214087115687,-2.7465487919249476,-1.765883747731344,6.170249211579122,-0.45388776460756475,-4.874063793812887
1708434497.5024188,1.7055581251727503,-2.7465316257872523,-1.7659419218646448,6.170270073204794,-0.45388728777040654,-4.874063793812887
1708434497.5044188,1.7055085341082972,-2.7465859852232875,-1.7658880392657679,6.170195328980245,-0.4538639227496546,-4.874080244694845
1708434497.5064125,1.7055085341082972,-2.7466184101500453,-1.7658923308001917,6.170237052231588,-0.45390016237367803,-4.874059502278463
1708434497.508422,1.7055085341082972,-2.7465859852232875,-1.765899960194723,6.17022072055892,-0.4538791815387171,-4.874117437993185
1708434497.5103917,1.705540959035055,-2.7465926609435023,-1.7659404913531702,6.170228111534872,-0.45387489000429326,-4.874038521443502
1708434497.512447,1.7055495421039026,-2.746535440484518,-1.7658880392657679,6.170244800835409,-0.45385486284364873,-4.874089185391561
1708434497.5143957,1.7055867354022425,-2.746596952477926,-1.765899960194723,6.170216190605917,-0.4538834730731409,-4.874121967946188
1708434497.5164044,1.705500904713766,-2.7465440235533656,-1.765878979359762,6.170192348748007,-0.4538915793048304,-4.874100748692648
1708434497.5184,1.7055452505694788,-2.7465440235533656,-1.7658923308001917,6.170232522278585,-0.4538958708392542,-4.874014679585592
1708434497.520427,1.7055867354022425,-2.746606012383932,-1.765890900288717,6.170211660652914,-0.4538834730731409,-4.874077383671896
1708434497.5224462,1.705540959035055,-2.746540685693258,-1.76591664949526,6.1702730534370325,-0.4538510481463831,-4.87406832376589
1708434497.524446,1.7055581251727503,-2.7465487919249476,-1.765899960194723,6.1702414629753015,-0.4538634459124964,-4.874056402836935
1708434497.5264368,1.7055423895465296,-2.7465678654112757,-1.7658551375018519,6.170249211579122,-0.45393687883485967,-4.874059502278463
1708434497.5284293,1.7055538336383265,-2.7465650043883265,-1.7658880392657679,6.1702414629753015,-0.4538677374469202,-4.874014679585592
1708434497.5304031,1.705533806477682,-2.7465440235533656,-1.7658641974078577,6.170229542046346,-0.45388776460756475,-4.87405497232546
1708434497.5324242,1.7055824438678187,-2.7465487919249476,-1.765867058430807,6.170315015106954,-0.4538791815387171,-4.874071303998129
1708434497.5343983,1.7055257002459925,-2.7465812168517054,-1.765923802052633,6.170265543251791,-0.45392066637148076,-4.874063913022177
1708434497.5364509,1.7055662314044397,-2.7465440235533656,-1.765899960194723,6.170270073204794,-0.4538763205157679,-4.874021832142965
1708434497.5384097,1.705540959035055,-2.7465397320189417,-1.7658880392657679,6.170232522278585,-0.4538958708392542,-4.874063793812887
1708434497.5406334,1.7055705229388636,-2.7465926609435023,-1.7659090201007288,6.17027901390151,-0.4538920561419886,-4.874063913022177
1708434497.542444,1.7055495421039026,-2.7466231785216273,-1.765862766896383,6.17026566246108,-0.45390016237367803,-4.874121967946188
1708434497.5444171,1.7055380980121058,-2.7465769253172816,-1.765923802052633,6.170286524086752,-0.45385915437807256,-4.874038521443502
1708434497.5464349,1.7055986563311976,-2.7466141186156214,-1.765871826802389,6.170232522278585,-0.45390016237367803,-4.874034110699789
1708434497.5484443,1.7056029478656214,-2.7465650043883265,-1.765883747731344,6.1702414629753015,-0.4538763205157679,-4.87406832376589
1708434497.550431,1.705533806477682,-2.746556421319479,-1.7658551375018519,6.1702626822288416,-0.4538791815387171,-4.874080244694845
1708434497.5524414,1.7055252234088343,-2.746596475640768,-1.7658761183368128,6.170204269676962,-0.45388776460756475,-4.8741130272494715
1708434497.5544062,1.7055624167071741,-2.746596952477926,-1.76591664949526,6.17022072055892,-0.4538958708392542,-4.874071303998129
1708434497.556426,1.7055867354022425,-2.7465273342528285,-1.7659042517291468,6.170211660652914,-0.45391637483705694,-4.87406832376589
1708434497.558402,1.705533806477682,-2.7465650043883265,-1.76591664949526,6.170249211579122,-0.4538958708392542,-4.874059502278463
1708434497.5604136,1.705573860798971,-2.7465650043883265,-1.765871826802389,6.170258152275839,-0.45388728777040654,-4.874071303998129
1708434497.5624595,1.7055986563311976,-2.7465840778746546,-1.76591664949526,6.170240270882406,-0.4538467566119593,-4.87406832376589
1708434497.5644166,1.7055695692645472,-2.7465883694090785,-1.765923802052633,6.170270073204794,-0.45385533968080694,-4.874126497899191
1708434497.5664313,1.7055380980121058,-2.7466260395445765,-1.76591664949526,6.170249211579122,-0.4538467566119593,-4.874063913022177
1708434497.5684068,1.7055252234088343,-2.7465740642943324,-1.7658656279193323,6.170232522278585,-0.45388776460756475,-4.874059502278463
1708434497.5704024,1.7055986563311976,-2.7465926609435023,-1.765878979359762,6.170265543251791,-0.4538834730731409,-4.87406832376589
1708434497.5724623,1.705540959035055,-2.746530672112936,-1.7659080664264124,6.170286524086752,-0.45383912721742803,-4.874089185391561
1708434497.574407,1.705512825642721,-2.746547361413473,-1.7658866087542933,6.170216190605917,-0.4538639227496546,-4.87405497232546
1708434497.5764284,1.7055538336383265,-2.7466350994505824,-1.765925709401266,6.170211779862203,-0.45387202898134404,-4.874033991490499
1708434497.5783982,1.7055209318744105,-2.746547361413473,-1.7658880392657679,6.170232522278585,-0.4538834730731409,-4.874063913022177
1708434497.5804024,1.7055257002459925,-2.7465883694090785,-1.7659371534930628,6.170270073204794,-0.45385533968080694,-4.874089185391561
1708434497.5824234,1.7055695692645472,-2.746556421319479,-1.7658866087542933,6.170261132508077,-0.45387202898134404,-4.874071303998129
1708434497.584407,1.7055781523333948,-2.7465397320189417,-1.765867058430807,6.17022060134963,-0.45390445390810186,-4.874089185391561
1708434497.586445,1.7055257002459925,-2.7465397320189417,-1.7658551375018519,6.170187938004293,-0.4538677374469202,-4.874059502278463
1708434497.5884247,1.705496613179342,-2.7465812168517054,-1.7659042517291468,6.170265543251791,-0.4538920561419886,-4.874087397252218
1708434497.5904033,1.705540959035055,-2.7465883694090785,-1.7658866087542933,6.170261132508077,-0.4538834730731409,-4.87411600748171
1708434497.592421,1.705561939870016,-2.7465793095030726,-1.7658880392657679,6.1702626822288416,-0.4538763205157679,-4.874117437993185
1708434497.5943992,1.705496613179342,-2.746596952477926,-1.765899960194723,6.170256721764364,-0.4538920561419886,-4.874104086552755
1708434497.5964177,1.7055252234088343,-2.7466007671751917,-1.7658832708941858,6.170235860138693,-0.45381004015077764,-4.874087397252218
1708434497.5983965,1.7055781523333948,-2.7466303310790003,-1.765921417866842,6.170199739723959,-0.4538381735431116,-4.874091927205221
1708434497.6004128,1.7055824438678187,-2.746596952477926,-1.765871826802389,6.170253741532125,-0.45388776460756475,-4.874043051396505
1708434497.60243,1.7055495421039026,-2.7465812168517054,-1.7658832708941858,6.1702459929283044,-0.4538510481463831,-4.874096337948934
1708434497.6043918,1.705573860798971,-2.746551652947897,-1.7658880392657679,6.170216190605917,-0.45388776460756475,-4.874121967946188
1708434497.6063988,1.7056029478656214,-2.746556421319479,-1.7658746878253382,6.170281994133749,-0.45388776460756475,-4.8741130272494715
1708434497.6083946,1.7056077162372034,-2.7466050587096156,-1.7658923308001917,6.170258271485128,-0.45385963121523076,-4.874047462140219
1708434497.6103973,1.7055781523333948,-2.7465883694090785,-1.765857998524801,6.170216190605917,-0.4538763205157679,-4.874077383671896
1708434497.6124015,1.7055986563311976,-2.7466169796385707,-1.765932861958639,6.170265543251791,-0.45387202898134404,-4.874121967946188
1708434497.6144004,1.7055662314044397,-2.746556421319479,-1.7659080664264124,6.170256721764364,-0.45382720628847295,-4.874087397252218
1708434497.616434,1.7055781523333948,-2.746556421319479,-1.765899960194723,6.170253741532125,-0.45385963121523076,-4.87406832376589
1708434497.6184342,1.70559007326235,-2.7465840778746546,-1.765867058430807,6.17030285575942,-0.45388490358461553,-4.874080244694845
1708434497.6204023,1.7055748144732874,-2.746563573876852,-1.765878979359762,6.170199739723959,-0.4538958708392542,-4.874108616505758
1708434497.6224577,1.7055252234088343,-2.746601720849508,-1.7658880392657679,6.1702626822288416,-0.45387489000429326,-4.8741130272494715
1708434497.6244147,1.7055452505694788,-2.7465812168517054,-1.7658880392657679,6.170267092972555,-0.4539411703692835,-4.8741130272494715
1708434497.626453,1.7055209318744105,-2.7466141186156214,-1.765899960194723,6.170261132508077,-0.4538834730731409,-4.874096337948934
1708434497.6284277,1.7055452505694788,-2.7466141186156214,-1.7658684889422815,6.170270073204794,-0.4538920561419886,-4.874100748692648
1708434497.630401,1.705540959035055,-2.7465440235533656,-1.7659419218646448,6.170208799629965,-0.4538677374469202,-4.874089185391561
1708434497.6324205,1.7055986563311976,-2.7465273342528285,-1.765921417866842,6.170270073204794,-0.4538348356830042,-4.874080244694845
1708434497.6343944,1.705557648335592,-2.7465230427184046,-1.765857998524801,6.170290934830465,-0.4538834730731409,-4.8740519920932215
1708434497.636414,1.705540959035055,-2.746596952477926,-1.765958611165182,6.170258152275839,-0.45385533968080694,-4.874084774647848
1708434497.6384182,1.705529514943258,-2.7466303310790003,-1.7658746878253382,6.170195328980245,-0.45387202898134404,-4.874059502278463
1708434497.6404493,1.705500904713766,-2.7465883694090785,-1.7659080664264124,6.170249211579122,-0.45384341875185186,-4.87405497232546
1708434497.6424592,1.7055533568011683,-2.746547361413473,-1.765878979359762,6.170211779862203,-0.4538067022906702,-4.874063793812887
1708434497.6444693,1.705540959035055,-2.7465607128539027,-1.765883747731344,6.1702459929283044,-0.4538677374469202,-4.874093834553854
1708434497.6464257,1.7055533568011683,-2.7466289005675257,-1.7658551375018519,6.170228111534872,-0.4538639227496546,-4.874054853116171
1708434497.648416,1.7055366675006312,-2.7465726337828578,-1.7659042517291468,6.170249211579122,-0.4538763205157679,-4.874089185391561
1708434497.6504083,1.705540959035055,-2.7465926609435023,-1.7658746878253382,6.170229542046346,-0.4538510481463831,-4.874091927205221
1708434497.6524453,1.705533806477682,-2.7465926609435023,-1.7658551375018519,6.1702414629753015,-0.4538634459124964,-4.874063793812887
1708434497.6543968,1.705561939870016,-2.7465926609435023,-1.7659371534930628,6.170216190605917,-0.45387202898134404,-4.8740519920932215
1708434497.6564224,1.7055495421039026,-2.7466007671751917,-1.765890900288717,6.1701968787010095,-0.45385963121523076,-4.874149862919943
1708434497.6583948,1.705540959035055,-2.7466336689391078,-1.765862766896383,6.170281994133749,-0.4538763205157679,-4.874030653630392
1708434497.6603897,1.7055452505694788,-2.7465650043883265,-1.7659042517291468,6.170258152275839,-0.4538467566119593,-4.874060932789938
1708434497.6623905,1.7055533568011683,-2.7465769253172816,-1.765867058430807,6.170244800835409,-0.45383912721742803,-4.874072853718893
1708434497.6644204,1.7055366675006312,-2.7465678654112757,-1.765899960194723,6.17022072055892,-0.4538639227496546,-4.874044243489401
1708434497.6663997,1.705561939870016,-2.7465883694090785,-1.76591664949526,6.170253741532125,-0.45385963121523076,-4.874061051999227
1708434497.6684353,1.7055824438678187,-2.7465397320189417,-1.7658956686602991,6.170232522278585,-0.45385533968080694,-4.8740519920932215
1708434497.670395,1.7055662314044397,-2.7465607128539027,-1.7658746878253382,6.170232522278585,-0.45385963121523076,-4.874077383671896
1708434497.6724038,1.705540959035055,-2.7465726337828578,-1.7658880392657679,6.170195328980245,-0.45385533968080694,-4.87406832376589
1708434497.674407,1.7055318991290491,-2.746547361413473,-1.7658761183368128,6.170195328980245,-0.4538834730731409,-4.874047462140219
1708434497.6764565,1.7055695692645472,-2.7466007671751917,-1.7659090201007288,6.170211660652914,-0.4538510481463831,-4.874081794415609
1708434497.678402,1.7055943647967737,-2.7466050587096156,-1.76591664949526,6.170281994133749,-0.45385533968080694,-4.874105278645651
1708434497.6803987,1.7056029478656214,-2.7465487919249476,-1.765862766896383,6.17022072055892,-0.4538348356830042,-4.87406832376589
1708434497.6823907,1.7055867354022425,-2.746596952477926,-1.765871826802389,6.170283424645223,-0.4538834730731409,-4.874044243489401
1708434497.684405,1.7055986563311976,-2.7466260395445765,-1.7658956686602991,6.170211660652914,-0.45385963121523076,-4.87406832376589
1708434497.6864,1.7055824438678187,-2.7465483150877894,-1.7658956686602991,6.170270073204794,-0.4538963476764124,-4.874048654233114
1708434497.6884048,1.7056196371661585,-2.7465883694090785,-1.765867058430807,6.170249211579122,-0.4538806120501917,-4.874053064976827
1708434497.6904023,1.7055662314044397,-2.7465883694090785,-1.7658956686602991,6.170281994133749,-0.45384341875185186,-4.874056402836935
1708434497.6924036,1.7055209318744105,-2.7465678654112757,-1.7659090201007288,6.170261132508077,-0.4538920561419886,-4.87406832376589
1708434497.6943998,1.7055662314044397,-2.7466217480101527,-1.76591664949526,6.17022072055892,-0.4538677374469202,-4.87408167520632
1708434497.6963913,1.705529514943258,-2.746556421319479,-1.76591664949526,6.170265543251791,-0.45388490358461553,-4.874023620282308
1708434497.698394,1.7055662314044397,-2.7466141186156214,-1.7659371534930628,6.1702953455741785,-0.4538477102862757,-4.874060932789938
1708434497.7007697,1.7055824438678187,-2.7466141186156214,-1.765878979359762,6.1702953455741785,-0.45382720628847295,-4.87408167520632
1708434497.7024007,1.705573860798971,-2.7465726337828578,-1.765930477772848,6.170274603157797,-0.4538639227496546,-4.874039713536398
1708434497.7044687,1.705585781727926,-2.7466007671751917,-1.76591664949526,6.170293915062704,-0.45387202898134404,-4.874056402836935
1708434497.706391,1.7055533568011683,-2.7466141186156214,-1.765890900288717,6.170237052231588,-0.45383912721742803,-4.874100748692648
1708434497.7084255,1.7055695692645472,-2.7465793095030726,-1.765899960194723,6.170211660652914,-0.45382720628847295,-4.874072853718893
1708434497.7104027,1.705540959035055,-2.7465678654112757,-1.7659371534930628,6.170240270882406,-0.4538477102862757,-4.874063913022177
1708434497.7124047,1.7055252234088343,-2.7465883694090785,-1.765923802052633,6.170228111534872,-0.45388776460756475,-4.874059502278463
1708434497.7144122,1.705529514943258,-2.746547361413473,-1.7659042517291468,6.170216190605917,-0.45390063921083623,-4.874080244694845
1708434497.7164176,1.705561939870016,-2.7466169796385707,-1.7659042517291468,6.170261132508077,-0.4538806120501917,-4.874014679585592
1708434497.718399,1.70559007326235,-2.7466098270811976,-1.7659347693072718,6.170270192414083,-0.4538186232196253,-4.874044243489401
1708434497.7204168,1.7055495421039026,-2.7465883694090785,-1.765949551259176,6.1702414629753015,-0.45382720628847295,-4.874047462140219
1708434497.7223942,1.7055533568011683,-2.746596475640768,-1.7659090201007288,6.17022072055892,-0.4538314978228968,-4.874060932789938
1708434497.7244022,1.705561939870016,-2.7466050587096156,-1.765899960194723,6.170240270882406,-0.45385963121523076,-4.874060932789938
1708434497.7264273,1.705561939870016,-2.7465316257872523,-1.76591664949526,6.170195328980245,-0.4538639227496546,-4.874060932789938
1708434497.7284353,1.705557648335592,-2.7465926609435023,-1.7659171263324183,6.1702459929283044,-0.45388490358461553,-4.874014679585592
1708434497.7303882,1.7055695692645472,-2.7466007671751917,-1.7659090201007288,6.170237052231588,-0.4538467566119593,-4.874060932789938
1708434497.7324288,1.705529514943258,-2.746575017968649,-1.765867058430807,6.170253741532125,-0.4538510481463831,-4.874077383671896
1708434497.734403,1.7055452505694788,-2.7466184101500453,-1.765867058430807,6.170289385109701,-0.4538314978228968,-4.874039713536398
1708434497.736416,1.705540959035055,-2.746554513970846,-1.7659042517291468,6.170216190605917,-0.45383912721742803,-4.874028150235311
1708434497.7384217,1.705561939870016,-2.746612688104147,-1.7659090201007288,6.170265543251791,-0.45385533968080694,-4.874063793812887
1708434497.7404191,1.7055495421039026,-2.7466007671751917,-1.7659090201007288,6.170228111534872,-0.45384341875185186,-4.874084774647848
1708434497.742408,1.705561939870016,-2.746559282342428,-1.765867058430807,6.170204269676962,-0.4538639227496546,-4.8740519920932215
1708434497.7444038,1.7055452505694788,-2.746551652947897,-1.76591664949526,6.170232522278585,-0.4538834730731409,-4.874056402836935
1708434497.74641,1.7055452505694788,-2.746556421319479,-1.765899960194723,6.1703117964561365,-0.45387202898134404,-4.874028150235311
1708434497.7484424,1.7055662314044397,-2.7465607128539027,-1.765871826802389,6.170213210373678,-0.4538477102862757,-4.874028150235311
1708434497.750393,1.7055824438678187,-2.7466217480101527,-1.7658656279193323,6.170253741532125,-0.45384341875185186,-4.874051872883932
1708434497.752392,1.70559007326235,-2.7465678654112757,-1.7659080664264124,6.170235860138693,-0.45390063921083623,-4.874035183583395
1708434497.7543886,1.705561939870016,-2.7465487919249476,-1.765930477772848,6.170237052231588,-0.4538314978228968,-4.874035183583395
1708434497.7564003,1.7055452505694788,-2.7466217480101527,-1.765883747731344,6.1702459929283044,-0.4538348356830042,-4.8740519920932215
1708434497.7584217,1.705585781727926,-2.7466422520079554,-1.7659452597247522,6.17027901390151,-0.45384341875185186,-4.874056402836935
1708434497.760439,1.7055662314044397,-2.7466169796385707,-1.7659123579608362,6.170265543251791,-0.45383912721742803,-4.874051872883932
1708434497.7623923,1.7055452505694788,-2.7465397320189417,-1.765883747731344,6.170211660652914,-0.4538510481463831,-4.874035183583395
1708434497.7644022,1.705585781727926,-2.746535440484518,-1.7659133116351526,6.170225131302633,-0.4538186232196253,-4.874023620282308
1708434497.766391,1.7055533568011683,-2.7465883694090785,-1.765850845967428,6.170225131302633,-0.4538763205157679,-4.874028150235311
1708434497.7684047,1.7055986563311976,-2.746620317498678,-1.765850845967428,6.170281994133749,-0.45390063921083623,-4.874056402836935
1708434497.7704003,1.7055824438678187,-2.746601720849508,-1.765834156666891,6.170268642693319,-0.45384341875185186,-4.874023620282308
1708434497.772439,1.70559007326235,-2.7465840778746546,-1.765899960194723,6.1702414629753015,-0.4538920561419886,-4.874072853718893
1708434497.7744246,1.7055986563311976,-2.7466098270811976,-1.765899960194723,6.170228111534872,-0.4538357893573206,-4.874051872883932
1708434497.7764015,1.7055824438678187,-2.7465883694090785,-1.7658761183368128,6.170258152275839,-0.4539087454425257,-4.874056402836935
1708434497.7784219,1.705573860798971,-2.7466422520079554,-1.765838925038473,6.170237052231588,-0.4538763205157679,-4.87406832376589
1708434497.7804263,1.7055366675006312,-2.7465440235533656,-1.765878979359762,6.170253741532125,-0.45384341875185186,-4.874077383671896
1708434497.7824066,1.7055452505694788,-2.7465397320189417,-1.7658866087542933,6.170286524086752,-0.45385963121523076,-4.874093715344564
1708434497.7844253,1.70559007326235,-2.7465883694090785,-1.76591664949526,6.170258152275839,-0.45382720628847295,-4.874084774647848
1708434497.7864125,1.705540959035055,-2.7466007671751917,-1.765899960194723,6.1702626822288416,-0.45384341875185186,-4.874043051396505
1708434497.7885227,1.7055452505694788,-2.746608396569723,-1.765871826802389,6.170281994133749,-0.45384341875185186,-4.874047462140219
1708434497.7904067,1.7056105772601526,-2.7466350994505824,-1.7659090201007288,6.1702414629753015,-0.45387202898134404,-4.87406832376589
1708434497.7924147,1.7055781523333948,-2.7465726337828578,-1.765871826802389,6.170213210373678,-0.45382720628847295,-4.874044243489401
1708434497.7944055,1.7055252234088343,-2.7466498814024867,-1.7659123579608362,6.170274603157797,-0.45383912721742803,-4.874026362095968
1708434497.7963986,1.7055538336383265,-2.7465926609435023,-1.765883747731344,6.170256721764364,-0.45385533968080694,-4.874023501073019
1708434497.7983956,1.705585781727926,-2.7465812168517054,-1.765867058430807,6.170298325806417,-0.4538195768939417,-4.874047462140219
1708434497.8004115,1.7055781523333948,-2.746620317498678,-1.7658956686602991,6.170190918236532,-0.45384341875185186,-4.8740307728396814
1708434497.802399,1.7056148687945765,-2.7466498814024867,-1.765932861958639,6.170291054039755,-0.4538763205157679,-4.874051872883932
1708434497.8044243,1.7055986563311976,-2.7465926609435023,-1.765857998524801,6.170216190605917,-0.4538639227496546,-4.874077383671896
1708434497.806413,1.705601994191305,-2.746559282342428,-1.7659090201007288,6.17022072055892,-0.4538357893573206,-4.874065343533651
1708434497.808461,1.7056148687945765,-2.7465769253172816,-1.765871826802389,6.170237052231588,-0.45388490358461553,-4.874051872883932
1708434497.8104258,1.7056267897235315,-2.746596475640768,-1.765932861958639,6.1702072499092,-0.4538314978228968,-4.874048654233114
1708434497.8124154,1.7056105772601526,-2.7466217480101527,-1.7659042517291468,6.170232522278585,-0.4538682142840784,-4.874044243489401
1708434497.8144257,1.7055495421039026,-2.746547361413473,-1.765878979359762,6.170245873719015,-0.4538639227496546,-4.8740307728396814
1708434497.8164165,1.7055490652667444,-2.746624609033102,-1.7659133116351526,6.170261132508077,-0.45387202898134404,-4.874056402836935
1708434497.818409,1.705585781727926,-2.7466379604735316,-1.765878979359762,6.170211660652914,-0.4538682142840784,-4.874075833951132
1708434497.8204136,1.705557648335592,-2.7466217480101527,-1.765883747731344,6.17022072055892,-0.45385533968080694,-4.87406832376589
1708434497.8224118,1.7055695692645472,-2.7465726337828578,-1.765867058430807,6.170216190605917,-0.4538682142840784,-4.874063793812887
1708434497.8244123,1.7056224981891077,-2.7466260395445765,-1.76591664949526,6.170204269676962,-0.4538682142840784,-4.874051872883932
1708434497.8264005,1.7055943647967737,-2.746612688104147,-1.765883747731344,6.17026566246108,-0.4538920561419886,-4.874063913022177
1708434497.8284178,1.7056062857257288,-2.7465726337828578,-1.7658880392657679,6.170216190605917,-0.45385533968080694,-4.874077383671896
1708434497.8304098,1.7055781523333948,-2.7466303310790003,-1.765883747731344,6.170223581581869,-0.45385963121523076,-4.874026362095968
1708434497.832413,1.705573860798971,-2.7466050587096156,-1.765932861958639,6.170199739723959,-0.4538477102862757,-4.874089185391561
1708434497.8344176,1.7055814901935022,-2.746596952477926,-1.7659090201007288,6.170290934830465,-0.45385533968080694,-4.874056402836935
1708434497.8364313,1.70559007326235,-2.7465831242003382,-1.7658880392657679,6.170237052231588,-0.4538934866534632,-4.874072734509603
1708434497.838422,1.7055695692645472,-2.7466260395445765,-1.765932861958639,6.170237052231588,-0.4538920561419886,-4.874039713536398
1708434497.8404243,1.7055447737323206,-2.746596475640768,-1.765899960194723,6.170237052231588,-0.4538357893573206,-4.874105278645651
1708434497.8424256,1.7055366675006312,-2.746526380578512,-1.7659090201007288,6.170232522278585,-0.4538152853595179,-4.874109808598654
1708434497.8444288,1.7055490652667444,-2.746547361413473,-1.765850845967428,6.170228111534872,-0.4538348356830042,-4.874044243489401
1708434497.8463929,1.7055490652667444,-2.7465812168517054,-1.765899960194723,6.170249211579122,-0.45385533968080694,-4.87406832376589
1708434497.8484292,1.7055695692645472,-2.7465726337828578,-1.7659347693072718,6.170237052231588,-0.4538763205157679,-4.874043051396505
1708434497.850398,1.7055609861956995,-2.7465883694090785,-1.765862766896383,6.170244800835409,-0.4538186232196253,-4.874075833951132
1708434497.8524172,1.7055943647967737,-2.7466098270811976,-1.7658761183368128,6.170199739723959,-0.45384341875185186,-4.87405497232546
1708434497.8543937,1.7055986563311976,-2.7465678654112757,-1.7658923308001917,6.170240270882406,-0.45385963121523076,-4.87406832376589
1708434497.8563948,1.7055824438678187,-2.7466217480101527,-1.7659032980548304,6.1702414629753015,-0.45385533968080694,-4.874059502278463
1708434497.858411,1.7055652777301233,-2.7466050587096156,-1.765867058430807,6.170214640885153,-0.4538639227496546,-4.874089185391561
1708434497.8603969,1.70559007326235,-2.7465726337828578,-1.765878979359762,6.170195328980245,-0.45381099382509404,-4.874084655438558
1708434497.8623962,1.7055533568011683,-2.7465926609435023,-1.765878979359762,6.170232522278585,-0.45384008089174444,-4.874063913022177
1708434497.864492,1.7055533568011683,-2.7466007671751917,-1.765871826802389,6.170249211579122,-0.45387250581850225,-4.874038521443502
1708434497.8663948,1.7056182066546839,-2.7465483150877894,-1.765899960194723,6.170274603157797,-0.45388490358461553,-4.87405497232546
1708434497.868415,1.7055695692645472,-2.7465840778746546,-1.765883747731344,6.170232522278585,-0.45384341875185186,-4.87406832376589
1708434497.8704593,1.705573860798971,-2.7465883694090785,-1.765899960194723,6.170274603157797,-0.45390493074526006,-4.8740519920932215
1708434497.8724055,1.7055781523333948,-2.746559282342428,-1.7659042517291468,6.170253741532125,-0.4538314978228968,-4.87405497232546
1708434497.8744054,1.7055490652667444,-2.746612688104147,-1.7658970991717737,6.170237052231588,-0.4538195768939417,-4.874084655438558
1708434497.876412,1.7055490652667444,-2.7465793095030726,-1.7659090201007288,6.170228111534872,-0.4538639227496546,-4.874141041432516
1708434497.878388,1.7055814901935022,-2.7466098270811976,-1.765890900288717,6.170253741532125,-0.4538639227496546,-4.874063793812887
1708434497.8804128,1.7055695692645472,-2.746563573876852,-1.7658880392657679,6.170270073204794,-0.4538639227496546,-4.874149982129232
1708434497.8824139,1.705585781727926,-2.7466422520079554,-1.7658761183368128,6.170265543251791,-0.4538920561419886,-4.874141041432516
1708434497.884419,1.7056062857257288,-2.7466050587096156,-1.765925709401266,6.170265543251791,-0.45388490358461553,-4.874108616505758
1708434497.88642,1.7056105772601526,-2.7465926609435023,-1.765883747731344,6.170216190605917,-0.4538682142840784,-4.874075833951132
1708434497.8884027,1.7055447737323206,-2.7465926609435023,-1.7659090201007288,6.170249211579122,-0.45384341875185186,-4.874017302189962
1708434497.890401,1.7055447737323206,-2.746570726434225,-1.765883747731344,6.170223581581869,-0.4538639227496546,-4.874059502278463
1708434497.8924403,1.7055695692645472,-2.746509691277975,-1.7658808867083948,6.170270192414083,-0.4538806120501917,-4.874063793812887
1708434497.894398,1.7055771986590784,-2.7465840778746546,-1.7658923308001917,6.170281874924459,-0.4538520018206995,-4.874117437993185
1708434497.896403,1.7055695692645472,-2.7466331921019496,-1.765899960194723,6.170240270882406,-0.4538639227496546,-4.874138299618856
1708434497.8983967,1.70559007326235,-2.7465769253172816,-1.7658880392657679,6.170223581581869,-0.45392162004579717,-4.874108616505758
1708434497.900412,1.7055695692645472,-2.746551652947897,-1.7658761183368128,6.1702626822288416,-0.4538682142840784,-4.874096337948934
1708434497.9024158,1.7055824438678187,-2.7465726337828578,-1.7658923308001917,6.170270073204794,-0.4538510481463831,-4.874091927205221
1708434497.904413,1.7056062857257288,-2.7465926609435023,-1.7659090201007288,6.170290934830465,-0.45387250581850225,-4.87411600748171
1708434497.9063985,1.705601994191305,-2.7465926609435023,-1.7659042517291468,6.170253741532125,-0.4538477102862757,-4.874144140874044
1708434497.9084203,1.705573860798971,-2.7466584644713343,-1.765867058430807,6.170253741532125,-0.45385963121523076,-4.874099556599752
1708434497.9104054,1.705585781727926,-2.7465926609435023,-1.76591664949526,6.170249211579122,-0.4538763205157679,-4.874144021664755
1708434497.912399,1.7055695692645472,-2.746556421319479,-1.765925709401266,6.170216190605917,-0.45390493074526006,-4.87411600748171
1708434497.9144022,1.7055652777301233,-2.7465678654112757,-1.765871826802389,6.170237052231588,-0.45387250581850225,-4.8741321007358
1708434497.916425,1.7055891195880335,-2.7465230427184046,-1.7659419218646448,6.170293915062704,-0.45385963121523076,-4.874176923428671
1708434497.9183917,1.7056105772601526,-2.7466050587096156,-1.765958611165182,6.17022072055892,-0.45387250581850225,-4.874135080968038
1708434497.920433,1.705601994191305,-2.7465726337828578,-1.7658761183368128,6.170253741532125,-0.4538477102862757,-4.874136511479513
1708434497.9223979,1.7055986563311976,-2.7466098270811976,-1.7659090201007288,6.170244800835409,-0.4538477102862757,-4.874157492314474
1708434497.9244223,1.70559007326235,-2.7465650043883265,-1.7658970991717737,6.170225131302633,-0.45385963121523076,-4.874135080968038
1708434497.9263964,1.7055695692645472,-2.7465926609435023,-1.7659042517291468,6.170265543251791,-0.4538920561419886,-4.874135080968038
1708434497.9283988,1.705601994191305,-2.7465926609435023,-1.765867058430807,6.170208680420675,-0.45384341875185186,-4.874167863522665
1708434497.9304085,1.7055977026568812,-2.746556421319479,-1.7657936255084437,6.170240270882406,-0.45382720628847295,-4.8741753737079065
1708434497.9323955,1.7056148687945765,-2.7465726337828578,-1.7658923308001917,6.1702250120933435,-0.45385963121523076,-4.874170843754904
1708434497.9343913,1.705561939870016,-2.746556421319479,-1.7659013907061976,6.170237052231588,-0.45383912721742803,-4.8741918245898646
1708434497.9363961,1.7055814901935022,-2.7466422520079554,-1.7659266630755823,6.1702414629753015,-0.4538520018206995,-4.874200646077291
1708434497.9383934,1.7055977026568812,-2.7466217480101527,-1.765954319630758,6.170237052231588,-0.4538314978228968,-4.8741753737079065
1708434497.9404044,1.7055695692645472,-2.7465273342528285,-1.7658599058734339,6.170270073204794,-0.45384341875185186,-4.874142948781149
1708434497.9424143,1.7056182066546839,-2.7465926609435023,-1.7659180800067347,6.170261132508077,-0.4538348356830042,-4.8741918245898646
1708434497.9444087,1.70559007326235,-2.7465840778746546,-1.765925709401266,6.170174467354574,-0.45384341875185186,-4.874170962964193
1708434497.9464192,1.705601994191305,-2.7465812168517054,-1.7658761183368128,6.1702459929283044,-0.45385963121523076,-4.874159042035238
1708434497.9484403,1.7055781523333948,-2.7465769253172816,-1.7658432165728968,6.170253741532125,-0.4538682142840784,-4.874170843754904
1708434497.950395,1.7055566946612757,-2.7466098270811976,-1.7658923308001917,6.1702027199561975,-0.45384341875185186,-4.8741589228259485
1708434497.952412,1.705585781727926,-2.746596475640768,-1.7658522764789026,6.170211660652914,-0.4538806120501917,-4.8741799036609095
1708434497.9544222,1.7055447737323206,-2.746559282342428,-1.7658432165728968,6.170286524086752,-0.4538348356830042,-4.8741799036609095
1708434497.956403,1.7055609861956995,-2.7465926609435023,-1.7658804098712366,6.1702730534370325,-0.4539087454425257,-4.8741753737079065
1708434497.9583964,1.7055609861956995,-2.7465883694090785,-1.7659061590777796,6.170277464180746,-0.4538639227496546,-4.874121729527609
1708434497.9603946,1.7056224981891077,-2.7465440235533656,-1.7658923308001917,6.170237052231588,-0.4538477102862757,-4.8741918245898646
1708434497.9623923,1.705585781727926,-2.7465607128539027,-1.765878979359762,6.170256721764364,-0.4538314978228968,-4.8741753737079065
1708434497.9643934,1.705585781727926,-2.7465769253172816,-1.7658851782428187,6.170311677246847,-0.4538639227496546,-4.874187294636862
1708434497.9663908,1.7056224981891077,-2.7465363941588343,-1.765850845967428,6.170253741532125,-0.4538639227496546,-4.874142829571859
1708434497.968412,1.705585781727926,-2.7465812168517054,-1.7658923308001917,6.170232522278585,-0.4538677374469202,-4.874184195195333
1708434497.97039,1.70561391512026,-2.7465397320189417,-1.765883747731344,6.170258152275839,-0.45388919511903936,-4.874170962964193
1708434497.9724007,1.705585781727926,-2.7465926609435023,-1.7658599058734339,6.170234071999349,-0.45385963121523076,-4.874147359524862
1708434497.9743917,1.705561939870016,-2.746547361413473,-1.7658594290362757,6.1702072499092,-0.45382720628847295,-4.874191705380575
1708434497.976386,1.7055447737323206,-2.7465769253172816,-1.7658432165728968,6.170267092972555,-0.4538639227496546,-4.87420362630953
1708434497.978415,1.7055986563311976,-2.7465883694090785,-1.765834156666891,6.1702414629753015,-0.45383912721742803,-4.874170962964193
1708434497.9803934,1.7055652777301233,-2.746530672112936,-1.7658970991717737,6.170249211579122,-0.45384341875185186,-4.8741753737079065
1708434497.9823866,1.7055814901935022,-2.746556421319479,-1.7658551375018519,6.170249211579122,-0.4538934866534632,-4.874191705380575
1708434497.984419,1.7055943647967737,-2.7465607128539027,-1.765867058430807,6.170240270882406,-0.4538763205157679,-4.87420362630953
1708434497.9863853,1.7055490652667444,-2.7466098270811976,-1.765871826802389,6.170244800835409,-0.4538834730731409,-4.874191705380575
1708434497.9884007,1.7055695692645472,-2.746526380578512,-1.7658479849444788,6.170253741532125,-0.45383912721742803,-4.874170962964193
1708434497.9903967,1.7055609861956995,-2.7465859852232875,-1.7658775488482874,6.170225131302633,-0.45384341875185186,-4.8741753737079065
1708434497.9924164,1.7055824438678187,-2.7465607128539027,-1.7658761183368128,6.170253741532125,-0.45381099382509404,-4.8741753737079065
1708434497.994423,1.705585781727926,-2.7466184101500453,-1.765838925038473,6.170258152275839,-0.4539130369769495,-4.8741799036609095
1708434497.996382,1.705573860798971,-2.7466422520079554,-1.7658804098712366,6.170208799629965,-0.4538477102862757,-4.8741753737079065
1708434497.9983814,1.70559007326235,-2.746596952477926,-1.7658479849444788,6.170274603157797,-0.4538920561419886,-4.874170843754904
1708434498.0004044,1.70561391512026,-2.746556421319479,-1.7658684889422815,6.17030285575942,-0.45383912721742803,-4.87417978445162
1708434498.002396,1.7055652777301233,-2.7465769253172816,-1.7658804098712366,6.170235860138693,-0.4538677374469202,-4.874191705380575
1708434498.0044086,1.7055814901935022,-2.7465769253172816,-1.7658479849444788,6.170232522278585,-0.45385963121523076,-4.87417978445162
1708434498.0063856,1.70559007326235,-2.7465650043883265,-1.7658551375018519,6.170237052231588,-0.4538634459124964,-4.874142948781149
1708434498.0083897,1.7055490652667444,-2.7466050587096156,-1.7658551375018519,6.170249211579122,-0.4538682142840784,-4.874191705380575
1708434498.0104,1.7055814901935022,-2.7465316257872523,-1.7658970991717737,6.170274603157797,-0.4538806120501917,-4.874187294636862
1708434498.0123875,1.7055814901935022,-2.7465678654112757,-1.7658804098712366,6.170190918236532,-0.4538963476764124,-4.8741753737079065
1708434498.014395,1.70559007326235,-2.7466050587096156,-1.7658599058734339,6.170228111534872,-0.4538477102862757,-4.874170962964193
1708434498.0164065,1.7055814901935022,-2.7466050587096156,-1.7658351103412073,6.170216190605917,-0.45385533968080694,-4.87420362630953
1708434498.0183978,1.7055771986590784,-2.7465812168517054,-1.7658308188067835,6.170240390091696,-0.4538357893573206,-4.874170962964193
1708434498.0204008,1.7055729071246546,-2.7465812168517054,-1.7658804098712366,6.170265543251791,-0.4538639227496546,-4.874170962964193
1708434498.0224092,1.705585781727926,-2.746561666528219,-1.7658594290362757,6.170253741532125,-0.4538639227496546,-4.8741753737079065
1708434498.0244224,1.7055652777301233,-2.7466050587096156,-1.7658599058734339,6.170225131302633,-0.45384341875185186,-4.8741753737079065
1708434498.026395,1.7055609861956995,-2.746596952477926,-1.7658761183368128,6.170261132508077,-0.4538477102862757,-4.874162022267477
1708434498.028382,1.7055814901935022,-2.7465883694090785,-1.765850845967428,6.170253741532125,-0.4539087454425257,-4.8741753737079065
1708434498.0304024,1.7055977026568812,-2.7465812168517054,-1.7658599058734339,6.170261132508077,-0.4538467566119593,-4.874182883893148
1708434498.0323913,1.7056506315814417,-2.746601720849508,-1.7658398787127894,6.170258152275839,-0.45383912721742803,-4.874208156262533
1708434498.0344057,1.705573860798971,-2.7465726337828578,-1.7658551375018519,6.170253741532125,-0.45383912721742803,-4.874191705380575
1708434498.0363991,1.7055609861956995,-2.7465530834593714,-1.7659013907061976,6.170249211579122,-0.45384341875185186,-4.8741634527789515
1708434498.0383952,1.7056224981891077,-2.7465793095030726,-1.7658970991717737,6.170228111534872,-0.4538639227496546,-4.874217096959249
1708434498.0404308,1.7056062857257288,-2.7465812168517054,-1.7659180800067347,6.170211660652914,-0.45385963121523076,-4.87417978445162
1708434498.0423896,1.7056182066546839,-2.7465607128539027,-1.7658851782428187,6.170258152275839,-0.45385533968080694,-4.874187294636862
1708434498.044401,1.7056182066546839,-2.746556421319479,-1.7658804098712366,6.170228111534872,-0.4538682142840784,-4.874208275471823
1708434498.046389,1.705601994191305,-2.7465607128539027,-1.7659090201007288,6.170228111534872,-0.45385963121523076,-4.874206606541769
1708434498.0483935,1.7056182066546839,-2.7465487919249476,-1.76591664949526,6.170249211579122,-0.45383912721742803,-4.874191705380575
1708434498.0504065,1.7055977026568812,-2.7466141186156214,-1.7658551375018519,6.170232522278585,-0.45382720628847295,-4.8741753737079065
1708434498.0523868,1.7055276075946253,-2.7466050587096156,-1.7658599058734339,6.1702072499092,-0.4538229147540491,-4.874224607144491
1708434498.0543792,1.70561391512026,-2.7465607128539027,-1.7658804098712366,6.170223581581869,-0.45382720628847295,-4.874161903058187
1708434498.0564537,1.7055652777301233,-2.7466217480101527,-1.765834156666891,6.170193779259481,-0.45382720628847295,-4.8741753737079065
1708434498.0583968,1.7056344191180628,-2.7465230427184046,-1.7658970991717737,6.17022072055892,-0.4538186232196253,-4.874170843754904
1708434498.0603995,1.7055652777301233,-2.7465678654112757,-1.7659042517291468,6.170228111534872,-0.4538920561419886,-4.8741753737079065
1708434498.062401,1.7055490652667444,-2.7465530834593714,-1.7658641974078577,6.170270192414083,-0.4538763205157679,-4.8741634527789515
1708434498.0644052,1.7055652777301233,-2.7465692959227503,-1.7658923308001917,6.170211660652914,-0.45385963121523076,-4.874215666447775
1708434498.0663815,1.7056344191180628,-2.7465607128539027,-1.7659180800067347,6.1701711294944666,-0.45381099382509404,-4.874170843754904
1708434498.0683856,1.705573860798971,-2.746578355828756,-1.7658599058734339,6.170237052231588,-0.4538639227496546,-4.87420374551882
1708434498.0703843,1.7055609861956995,-2.7465812168517054,-1.7659090201007288,6.170281994133749,-0.45385533968080694,-4.8741753737079065
1708434498.0724087,1.7056096235858362,-2.7465034923949183,-1.7658804098712366,6.170229542046346,-0.45384341875185186,-4.874224607144491
1708434498.074399,1.70559007326235,-2.7465812168517054,-1.765883747731344,6.170244800835409,-0.4538920561419886,-4.874170843754904
1708434498.0763848,1.705601994191305,-2.746556421319479,-1.7658956686602991,6.170258152275839,-0.45384341875185186,-4.8741753737079065
1708434498.078385,1.705573860798971,-2.7465607128539027,-1.765850845967428,6.170261132508077,-0.45382720628847295,-4.874170843754904
1708434498.080411,1.7056182066546839,-2.7465859852232875,-1.7658641974078577,6.170225131302633,-0.4538677374469202,-4.87416643301119
1708434498.0823858,1.7056096235858362,-2.7465607128539027,-1.7659180800067347,6.170249211579122,-0.4538024107562464,-4.8741918245898646
1708434498.0843956,1.705601994191305,-2.746556421319479,-1.7658804098712366,6.170253741532125,-0.4538806120501917,-4.8741918245898646
1708434498.0864174,1.7055729071246546,-2.746551652947897,-1.7658641974078577,6.170258152275839,-0.45381099382509404,-4.874182883893148
1708434498.0883992,1.7055566946612757,-2.7465678654112757,-1.7658851782428187,6.170211660652914,-0.45385963121523076,-4.87417978445162
1708434498.0904224,1.705630127583639,-2.7465440235533656,-1.765871826802389,6.170261132508077,-0.4538920561419886,-4.8741753737079065
1708434498.0923903,1.7056182066546839,-2.7465678654112757,-1.7658432165728968,6.170249211579122,-0.45388776460756475,-4.874194804822103
1708434498.094387,1.7055977026568812,-2.7465740642943324,-1.7658761183368128,6.170252191811361,-0.45383912721742803,-4.874187294636862
1708434498.0963843,1.7055934111224573,-2.7465812168517054,-1.765834156666891,6.1702414629753015,-0.45384341875185186,-4.8742244879352015
1708434498.0983899,1.705585781727926,-2.7465397320189417,-1.7658641974078577,6.170267092972555,-0.45382720628847295,-4.874215666447775
1708434498.1004193,1.7055977026568812,-2.7466303310790003,-1.7658894697772425,6.1702414629753015,-0.4538920561419886,-4.874138418828146
1708434498.1023881,1.7056062857257288,-2.746556421319479,-1.7659133116351526,6.170286524086752,-0.45390063921083623,-4.874157492314474
1708434498.1044066,1.7055977026568812,-2.7465812168517054,-1.765834156666891,6.1702459929283044,-0.45383912721742803,-4.874196235333578
1708434498.1063876,1.7056062857257288,-2.746507307092184,-1.7658026854144495,6.1702626822288416,-0.45385963121523076,-4.87420362630953
1708434498.1083987,1.7055977026568812,-2.7465692959227503,-1.7658599058734339,6.170265543251791,-0.4538682142840784,-4.874178353940145
1708434498.110427,1.7056182066546839,-2.7465440235533656,-1.7658804098712366,6.1702626822288416,-0.4538639227496546,-4.874199096356527
1708434498.1124027,1.705585781727926,-2.7466141186156214,-1.7658432165728968,6.170270073204794,-0.4538682142840784,-4.874187294636862
1708434498.1143968,1.7056391874896448,-2.7465607128539027,-1.7658761183368128,6.170261132508077,-0.4538806120501917,-4.87416643301119
1708434498.1164176,1.7056062857257288,-2.746601720849508,-1.7658923308001917,6.170293915062704,-0.45382720628847295,-4.874191705380575
1708434498.1183941,1.7056062857257288,-2.7465440235533656,-1.7658217589007776,6.170270073204794,-0.4538357893573206,-4.8741753737079065
1708434498.1204093,1.7055695692645472,-2.746551652947897,-1.7658851782428187,6.170249211579122,-0.45384341875185186,-4.874170962964193
1708434498.122392,1.7056224981891077,-2.7465621433653773,-1.7658599058734339,6.170265543251791,-0.45385963121523076,-4.874208156262533
1708434498.1243997,1.705561939870016,-2.7465273342528285,-1.765834156666891,6.170211660652914,-0.45388490358461553,-4.874187294636862
1708434498.1263907,1.7055986563311976,-2.7465812168517054,-1.7658970991717737,6.170277464180746,-0.45384341875185186,-4.874159042035238
1708434498.1283922,1.7056105772601526,-2.7465902767577113,-1.7659013907061976,6.170277464180746,-0.4538806120501917,-4.874138418828146
1708434498.1304252,1.7056511084186,-2.746606012383932,-1.765867058430807,6.170225131302633,-0.45385533968080694,-4.874199215565817
1708434498.1323903,1.705585781727926,-2.7465440235533656,-1.7658641974078577,6.170315015106954,-0.4538639227496546,-4.874187294636862
1708434498.1344042,1.7056096235858362,-2.7465316257872523,-1.7658880392657679,6.170256721764364,-0.45385963121523076,-4.874196235333578
1708434498.1363935,1.7056062857257288,-2.7465740642943324,-1.7658150831805628,6.17022072055892,-0.4538477102862757,-4.874170843754904
1708434498.1383955,1.7055977026568812,-2.746596952477926,-1.765850845967428,6.170237052231588,-0.4538477102862757,-4.87416643301119
1708434498.1404185,1.7056182066546839,-2.7465483150877894,-1.7658684889422815,6.170253741532125,-0.4538477102862757,-4.874191705380575
1708434498.1423903,1.705585781727926,-2.7465487919249476,-1.7658265272723597,6.1702730534370325,-0.4538639227496546,-4.874159042035238
1708434498.144406,1.705585781727926,-2.7465855083861292,-1.7658732573138636,6.170274603157797,-0.45385533968080694,-4.87417978445162
1708434498.1463983,1.7055848280536097,-2.7465440235533656,-1.7658641974078577,6.170240270882406,-0.4538763205157679,-4.8741753737079065
1708434498.1484125,1.705601994191305,-2.7465692959227503,-1.765871826802389,6.170253741532125,-0.45383912721742803,-4.874170843754904
1708434498.1504006,1.7055662314044397,-2.7465740642943324,-1.7657979170428675,6.170232522278585,-0.45385963121523076,-4.874215666447775
1708434498.1523957,1.7055276075946253,-2.7465397320189417,-1.765850845967428,6.170227992325582,-0.45383912721742803,-4.87417978445162
1708434498.1544087,1.7056258360492151,-2.7465692959227503,-1.7658479849444788,6.170298325806417,-0.4538520018206995,-4.874191705380575
1708434498.1563888,1.7056182066546839,-2.7465812168517054,-1.7658599058734339,6.170286524086752,-0.4538963476764124,-4.8741753737079065
1708434498.1583877,1.7056096235858362,-2.746551652947897,-1.7658732573138636,6.170249211579122,-0.45385629335512334,-4.874191705380575
1708434498.1603975,1.705601994191305,-2.7465692959227503,-1.7658432165728968,6.170307385712423,-0.4538510481463831,-4.874191705380575
1708434498.1623788,1.7056062857257288,-2.746544500390524,-1.7658641974078577,6.170204269676962,-0.4538348356830042,-4.874191705380575
1708434498.1643977,1.7056096235858362,-2.746518751183981,-1.7659133116351526,6.17030285575942,-0.45385533968080694,-4.874191705380575
1708434498.1663816,1.7056387106524866,-2.7465115986266078,-1.7658761183368128,6.170281994133749,-0.4538314978228968,-4.874212567006246
1708434498.1684127,1.7055729071246546,-2.7465812168517054,-1.7658880392657679,6.170286404877462,-0.4538348356830042,-4.874196235333578
1708434498.170385,1.7055652777301233,-2.7465902767577113,-1.765806023274557,6.170253741532125,-0.4538477102862757,-4.874220077191488
1708434498.1723833,1.7055562178241175,-2.746578355828756,-1.7658880392657679,6.17030297496871,-0.4538314978228968,-4.874170962964193
1708434498.1743927,1.70559007326235,-2.746535440484518,-1.7658804098712366,6.170265543251791,-0.4538510481463831,-4.874170962964193
1708434498.1764011,1.7056105772601526,-2.7465230427184046,-1.7658804098712366,6.170237052231588,-0.4538639227496546,-4.874170962964193
1708434498.178419,1.7055771986590784,-2.746639390985006,-1.7658551375018519,6.170232522278585,-0.4538963476764124,-4.8741753737079065
1708434498.1803808,1.7055609861956995,-2.7465621433653773,-1.7658432165728968,6.170298325806417,-0.4538806120501917,-4.87416643301119
1708434498.1823823,1.7055814901935022,-2.7465769253172816,-1.7658970991717737,6.1702626822288416,-0.4538834730731409,-4.874159042035238
1708434498.1843908,1.7055771986590784,-2.7466050587096156,-1.7658804098712366,6.170237052231588,-0.45385533968080694,-4.874191705380575
1708434498.1863947,1.705585781727926,-2.7465769253172816,-1.7659090201007288,6.1703117964561365,-0.4538477102862757,-4.874142948781149
1708434498.1884105,1.70561391512026,-2.7465249500670375,-1.7658641974078577,6.170286404877462,-0.45390493074526006,-4.874167863522665
1708434498.1904118,1.7055814901935022,-2.7465273342528285,-1.7658808867083948,6.170293915062704,-0.4538834730731409,-4.874170962964193
1708434498.192399,1.705601994191305,-2.7465607128539027,-1.7659180800067347,6.170274603157797,-0.45384341875185186,-4.874159042035238
1708434498.1944067,1.705601994191305,-2.7465692959227503,-1.7659042517291468,6.170237052231588,-0.4538763205157679,-4.874191705380575
1708434498.1964207,1.7055934111224573,-2.7466184101500453,-1.7659266630755823,6.1702730534370325,-0.45385963121523076,-4.874187294636862
1708434498.1983995,1.7056096235858362,-2.7465883694090785,-1.7658599058734339,6.170237052231588,-0.45385533968080694,-4.8741753737079065
1708434498.2004066,1.7055366675006312,-2.746540685693258,-1.765925709401266,6.170232522278585,-0.4538520018206995,-4.874187294636862
1708434498.2023985,1.7055318991290491,-2.7465483150877894,-1.7658217589007776,6.170244800835409,-0.4538477102862757,-4.874194685612814
1708434498.2044337,1.7055771986590784,-2.7465397320189417,-1.7658565680133265,6.170258152275839,-0.45385963121523076,-4.8742244879352015
1708434498.2063994,1.705601994191305,-2.7465812168517054,-1.7658804098712366,6.170232522278585,-0.45388490358461553,-4.8741753737079065
1708434498.2084131,1.705561939870016,-2.746627470056051,-1.7658308188067835,6.1702849743659876,-0.4538639227496546,-4.8741634527789515
1708434498.210403,1.7055771986590784,-2.74664368251943,-1.7658804098712366,6.170315015106954,-0.4538639227496546,-4.874208156262533
1708434498.212425,1.705585781727926,-2.7465530834593714,-1.7658641974078577,6.170249211579122,-0.45388490358461553,-4.874157492314474
1708434498.2143831,1.7056182066546839,-2.7465397320189417,-1.765867058430807,6.170244800835409,-0.4538314978228968,-4.874191705380575
1708434498.216411,1.70559007326235,-2.746507307092184,-1.7658355871783655,6.170261132508077,-0.4538314978228968,-4.8741753737079065
1708434498.2184472,1.705601994191305,-2.7465726337828578,-1.7658565680133265,6.170270192414083,-0.45390493074526006,-4.87416643301119
1708434498.220404,1.7056463400470179,-2.7465740642943324,-1.7658804098712366,6.170253741532125,-0.4538682142840784,-4.874191705380575
1708434498.2224205,1.705585781727926,-2.746601720849508,-1.7658522764789026,6.170253741532125,-0.45385963121523076,-4.874191705380575
1708434498.2243981,1.705601994191305,-2.7465316257872523,-1.765925709401266,6.1702459929283044,-0.45384341875185186,-4.874170962964193
1708434498.2264183,1.705601994191305,-2.7465607128539027,-1.7659042517291468,6.170261132508077,-0.45384341875185186,-4.874138418828146
1708434498.228411,1.7056387106524866,-2.7465726337828578,-1.7659090201007288,6.1702626822288416,-0.4538763205157679,-4.874170962964193
1708434498.2303762,1.7056224981891077,-2.746561666528219,-1.765883747731344,6.170223581581869,-0.45381099382509404,-4.87417978445162
1708434498.2324126,1.7055814901935022,-2.7466184101500453,-1.7658551375018519,6.170211660652914,-0.4538357893573206,-4.8741753737079065
1708434498.234384,1.7056096235858362,-2.746544500390524,-1.7658150831805628,6.170281994133749,-0.4538477102862757,-4.8741634527789515
1708434498.2363925,1.7055891195880335,-2.7465607128539027,-1.7659061590777796,6.1702191708381555,-0.45385963121523076,-4.874170962964193
1708434498.2384357,1.7055729071246546,-2.746578355828756,-1.7658923308001917,6.170240270882406,-0.4539092222796839,-4.874150101338522
1708434498.2404273,1.70561391512026,-2.7465440235533656,-1.7658880392657679,6.170319545059957,-0.4538477102862757,-4.874191705380575
1708434498.2424707,1.705585781727926,-2.7465230427184046,-1.7659042517291468,6.170274603157797,-0.4538639227496546,-4.874220077191488
1708434498.2444499,1.7055652777301233,-2.7465363941588343,-1.7658880392657679,6.1702459929283044,-0.4538477102862757,-4.874218527470724
1708434498.2464247,1.7056053320514124,-2.7465530834593714,-1.7658599058734339,6.170277464180746,-0.4538314978228968,-4.874220077191488
1708434498.248441,1.7055814901935022,-2.7465487919249476,-1.7659090201007288,6.170270192414083,-0.45385629335512334,-4.874170843754904
1708434498.2504218,1.7055805365191858,-2.7466007671751917,-1.7658599058734339,6.170265543251791,-0.4538520018206995,-4.8741753737079065
1708434498.252448,1.705585781727926,-2.7465902767577113,-1.76591664949526,6.170286524086752,-0.4538639227496546,-4.874182883893148
1708434498.2544222,1.7055977026568812,-2.7465840778746546,-1.7658599058734339,6.170277464180746,-0.45387202898134404,-4.874134008084432
1708434498.2563977,1.70559007326235,-2.7465926609435023,-1.7658684889422815,6.170286524086752,-0.4538763205157679,-4.874159042035238
1708434498.2584007,1.7055490652667444,-2.746601720849508,-1.7658942381488245,6.170232522278585,-0.4538186232196253,-4.874199215565817
1708434498.2604072,1.7055977026568812,-2.7465692959227503,-1.7658761183368128,6.1702250120933435,-0.4538639227496546,-4.8742409388171595
1708434498.2624183,1.7056010405169886,-2.746561666528219,-1.7658732573138636,6.170281994133749,-0.4538763205157679,-4.874159042035238
1708434498.2644103,1.7056062857257288,-2.746561666528219,-1.7658804098712366,6.170281994133749,-0.4538806120501917,-4.874170962964193
1708434498.2664149,1.7055814901935022,-2.7465769253172816,-1.7658804098712366,6.1703117964561365,-0.4538634459124964,-4.874208156262533
1708434498.2683964,1.7055814901935022,-2.746578355828756,-1.765921417866842,6.1702730534370325,-0.4538510481463831,-4.874154512082235
1708434498.2703838,1.70561391512026,-2.746556421319479,-1.7659180800067347,6.170232522278585,-0.45385963121523076,-4.87416643301119
1708434498.272434,1.70559007326235,-2.7465316257872523,-1.7658851782428187,6.1702730534370325,-0.4538639227496546,-4.8741753737079065
1708434498.2743855,1.7055652777301233,-2.7465859852232875,-1.7658599058734339,6.170249211579122,-0.4538920561419886,-4.87420374551882
1708434498.2763817,1.7055729071246546,-2.7465487919249476,-1.765883747731344,6.170240270882406,-0.4538229147540491,-4.874178353940145
1708434498.2784002,1.7056224981891077,-2.7465573749937953,-1.7658761183368128,6.170290934830465,-0.4538477102862757,-4.874121729527609
1708434498.2803822,1.7055977026568812,-2.7465607128539027,-1.7657979170428675,6.170261132508077,-0.4538314978228968,-4.874170843754904
1708434498.2824268,1.7055695692645472,-2.7465249500670375,-1.7659013907061976,6.170256721764364,-0.45385963121523076,-4.874182883893148
1708434498.2843907,1.7056258360492151,-2.746634622613424,-1.7658970991717737,6.170270073204794,-0.45381099382509404,-4.8741918245898646
1708434498.2863753,1.705585781727926,-2.7465726337828578,-1.7659042517291468,6.170261132508077,-0.45385963121523076,-4.8741753737079065
1708434498.2883785,1.7055771986590784,-2.7465487919249476,-1.7658641974078577,6.170268642693319,-0.45387250581850225,-4.8741918245898646
1708434498.2903826,1.70559007326235,-2.7465115986266078,-1.7658732573138636,6.170253741532125,-0.4538806120501917,-4.874199215565817
1708434498.292397,1.7055934111224573,-2.7465769253172816,-1.765834156666891,6.1702730534370325,-0.4538639227496546,-4.874157492314474
1708434498.294382,1.7055533568011683,-2.7465573749937953,-1.7659042517291468,6.170298325806417,-0.45385963121523076,-4.874194685612814
1708434498.2963862,1.7055771986590784,-2.7465273342528285,-1.7658641974078577,6.1702730534370325,-0.4538677374469202,-4.874162022267477
1708434498.2983923,1.7055609861956995,-2.7465158901610316,-1.7659013907061976,6.170261132508077,-0.4538510481463831,-4.874157492314474
1708434498.3003843,1.705585781727926,-2.7465883694090785,-1.7658804098712366,6.170256721764364,-0.45385963121523076,-4.874170962964193
1708434498.3023925,1.7056224981891077,-2.7464992008604945,-1.7658599058734339,6.170265543251791,-0.45385963121523076,-4.874208156262533
1708434498.3043838,1.705585781727926,-2.7465363941588343,-1.7659090201007288,6.170244800835409,-0.4538186232196253,-4.8741753737079065
1708434498.3064144,1.7055695692645472,-2.7465902767577113,-1.7659042517291468,6.170253741532125,-0.45385963121523076,-4.87420362630953
1708434498.3083978,1.7055814901935022,-2.746556421319479,-1.7659013907061976,6.170211660652914,-0.45385533968080694,-4.8741753737079065
1708434498.3104126,1.705585781727926,-2.7465607128539027,-1.7658880392657679,6.170249211579122,-0.4538510481463831,-4.874191705380575
1708434498.3124106,1.7055977026568812,-2.7465530834593714,-1.765834156666891,6.170250403672018,-0.4538634459124964,-4.874208156262533
1708434498.3144014,1.705585781727926,-2.7465487919249476,-1.7658174673663538,6.1702953455741785,-0.4538467566119593,-4.8741634527789515
1708434498.3164237,1.7055934111224573,-2.7465573749937953,-1.7659042517291468,6.170298325806417,-0.4538806120501917,-4.874208156262533
1708434498.318403,1.7055771986590784,-2.7465273342528285,-1.7658761183368128,6.170258152275839,-0.45383912721742803,-4.874208156262533
1708434498.320416,1.705601994191305,-2.7465692959227503,-1.7658894697772425,6.170228111534872,-0.4538834730731409,-4.8741753737079065
1708434498.3223817,1.7055652777301233,-2.7465158901610316,-1.7658641974078577,6.170240270882406,-0.4538305441485804,-4.874200646077291
1708434498.3244038,1.7055652777301233,-2.7465273342528285,-1.7658551375018519,6.170227992325582,-0.45387202898134404,-4.874170962964193
1708434498.3264203,1.7056387106524866,-2.746540685693258,-1.7658761183368128,6.170232522278585,-0.4538763205157679,-4.874154512082235
1708434498.3284092,1.7055609861956995,-2.7465363941588343,-1.7658641974078577,6.170281994133749,-0.4538791815387171,-4.874191705380575
1708434498.3304188,1.7056224981891077,-2.7465740642943324,-1.7658761183368128,6.170249211579122,-0.45385533968080694,-4.874170962964193
1708434498.3324356,1.7055977026568812,-2.7465316257872523,-1.7658761183368128,6.170249211579122,-0.4538791815387171,-4.87417978445162
1708434498.3344178,1.7056182066546839,-2.7465926609435023,-1.7658432165728968,6.1702626822288416,-0.4538639227496546,-4.874162022267477
1708434498.336478,1.7055814901935022,-2.7465650043883265,-1.765883747731344,6.170244800835409,-0.4538920561419886,-4.874162022267477
1708434498.3384173,1.7055814901935022,-2.7465840778746546,-1.7658970991717737,6.170253741532125,-0.4538920561419886,-4.8741753737079065
1708434498.3404837,1.705573860798971,-2.7466465435423792,-1.7658641974078577,6.170258152275839,-0.45385533968080694,-4.87416643301119
1708434498.3424714,1.7055814901935022,-2.7464992008604945,-1.7659462133990687,6.170265543251791,-0.45390063921083623,-4.874154512082235
1708434498.3444474,1.7056182066546839,-2.746556421319479,-1.7658684889422815,6.170290934830465,-0.4538510481463831,-4.8741753737079065
1708434498.346437,1.70561391512026,-2.7465650043883265,-1.7658970991717737,6.170232522278585,-0.4538510481463831,-4.874191705380575
1708434498.348402,1.7056434790240687,-2.7465158901610316,-1.7658761183368128,6.170274603157797,-0.45387202898134404,-4.87420362630953
1708434498.3503895,1.705630127583639,-2.7465363941588343,-1.7659123579608362,6.170281994133749,-0.4538467566119593,-4.874187294636862
1708434498.352442,1.7056062857257288,-2.7465249500670375,-1.7658641974078577,6.170267092972555,-0.4538963476764124,-4.8741753737079065
1708434498.3543942,1.7056182066546839,-2.7465740642943324,-1.7659042517291468,6.170265543251791,-0.4539249579059046,-4.874142948781149
1708434498.356445,1.705601994191305,-2.746601720849508,-1.7658923308001917,6.170253741532125,-0.45382625261415654,-4.874170962964193
1708434498.3583794,1.7056553999530237,-2.7465397320189417,-1.765871826802389,6.170232522278585,-0.45390016237367803,-4.874196235333578
1708434498.3604074,1.7056096235858362,-2.746601720849508,-1.7659090201007288,6.170249211579122,-0.4538920561419886,-4.874121729527609
1708434498.3623998,1.7055814901935022,-2.7465573749937953,-1.7658923308001917,6.170229542046346,-0.4538763205157679,-4.8741589228259485
1708434498.3643947,1.7055490652667444,-2.746540685693258,-1.7658599058734339,6.170211660652914,-0.4538763205157679,-4.874170962964193
1708434498.3664148,1.7055771986590784,-2.7465573749937953,-1.765871826802389,6.170214640885153,-0.4538791815387171,-4.8741753737079065
1708434498.368392,1.705585781727926,-2.7465363941588343,-1.7658551375018519,6.17022072055892,-0.45392066637148076,-4.874142948781149
1708434498.3704014,1.70559007326235,-2.7465316257872523,-1.7658732573138636,6.170277464180746,-0.45387202898134404,-4.8741799036609095
1708434498.372419,1.705601994191305,-2.746598859826559,-1.765838925038473,6.170256721764364,-0.45388776460756475,-4.8741589228259485
1708434498.3743858,1.705540959035055,-2.7465812168517054,-1.7658970991717737,6.170265543251791,-0.45385533968080694,-4.874191705380575
1708434498.3764417,1.7055934111224573,-2.7465530834593714,-1.7658894697772425,6.1702414629753015,-0.4538958708392542,-4.874167863522665
1708434498.3784056,1.7056148687945765,-2.7465034923949183,-1.7659314314471644,6.170290934830465,-0.45387202898134404,-4.874159042035238
1708434498.3804033,1.705585781727926,-2.7465530834593714,-1.7658551375018519,6.170258152275839,-0.4538958708392542,-4.874130670224325
1708434498.382395,1.705573860798971,-2.746544500390524,-1.765838925038473,6.170290934830465,-0.4538958708392542,-4.8741753737079065
1708434498.3843968,1.705561939870016,-2.746594568292135,-1.7658804098712366,6.170237052231588,-0.45387489000429326,-4.874138418828146
1708434498.3863888,1.7055366675006312,-2.7465363941588343,-1.7658551375018519,6.170265543251791,-0.45392066637148076,-4.874147359524862
1708434498.3883984,1.7055662314044397,-2.746596952477926,-1.765867058430807,6.170253741532125,-0.45392066637148076,-4.8741799036609095
1708434498.3904057,1.7055252234088343,-2.74658264736318,-1.76591664949526,6.170240270882406,-0.45390016237367803,-4.874167863522665
1708434498.392433,1.7055652777301233,-2.7465292416014613,-1.765899960194723,6.170265543251791,-0.4539120833026331,-4.874159042035238
1708434498.3943942,1.7055323759662073,-2.7465487919249476,-1.765871826802389,6.170256721764364,-0.45390016237367803,-4.874142948781149
1708434498.396449,1.705585781727926,-2.746606012383932,-1.7658970991717737,6.170244800835409,-0.45391542116274053,-4.8741753737079065
1708434498.3983855,1.7055566946612757,-2.7465115986266078,-1.7658479849444788,6.170232522278585,-0.4539077917682093,-4.8741918245898646
1708434498.4003947,1.7055662314044397,-2.7465740642943324,-1.7658641974078577,6.170258271485128,-0.453928295766012,-4.874184195195333
1708434498.4024272,1.7056477705584925,-2.7464949093260707,-1.7658775488482874,6.170256721764364,-0.45390350023378545,-4.874167744313375
1708434498.4044094,1.7055533568011683,-2.7465316257872523,-1.7658894697772425,6.170216190605917,-0.453928295766012,-4.8741589228259485
1708434498.406458,1.705540959035055,-2.746551652947897,-1.7658537069903772,6.17022060134963,-0.45390016237367803,-4.8741753737079065
1708434498.4084134,1.705561939870016,-2.746610303918356,-1.7658970991717737,6.1702730534370325,-0.45391971269716436,-4.874142829571859
1708434498.4103913,1.7055581251727503,-2.7465573749937953,-1.7658923308001917,6.170289385109701,-0.45391971269716436,-4.8741634527789515
1708434498.4124217,1.7055495421039026,-2.7465812168517054,-1.7658522764789026,6.170274483948507,-0.4538992086993616,-4.874200646077291
1708434498.414388,1.7056120077716272,-2.746540685693258,-1.7658894697772425,6.17022072055892,-0.45391971269716436,-4.874130670224325
1708434498.416408,1.705533806477682,-2.7465487919249476,-1.7658217589007776,6.17023133018569,-0.4539230505572718,-4.874147359524862
1708434498.4183984,1.7055538336383265,-2.7465292416014613,-1.7658851782428187,6.170244800835409,-0.45393592516054326,-4.874139610921041
1708434498.420397,1.7054923216449183,-2.7465902767577113,-1.7658432165728968,6.170281994133749,-0.45395213762392217,-4.87417978445162
1708434498.422386,1.7055252234088343,-2.7465812168517054,-1.7658103148089808,6.170232522278585,-0.4539435545550745,-4.87417978445162
1708434498.4243968,1.705533806477682,-2.7465206585326136,-1.7658308188067835,6.170235860138693,-0.4539392630206507,-4.8741517702685755
1708434498.4263835,1.7055299917804163,-2.7465249500670375,-1.7658551375018519,6.170256721764364,-0.4539273420916956,-4.8741517702685755
1708434498.4283907,1.7054932753192347,-2.746622701684469,-1.765850845967428,6.170281994133749,-0.45395118394960576,-4.874127689992086
1708434498.4303968,1.7055299917804163,-2.746507307092184,-1.7658761183368128,6.170281994133749,-0.4539716879474085,-4.87411863008608
1708434498.4323866,1.7054813543902796,-2.7465249500670375,-1.7658880392657679,6.170223581581869,-0.4538982550250452,-4.874108616505758
1708434498.4343994,1.7055342833148401,-2.7465206585326136,-1.765871826802389,6.170265543251791,-0.4540002981769007,-4.8740907351123255
1708434498.4363751,1.7055180708514612,-2.746512552300924,-1.7658761183368128,6.170256721764364,-0.45396310487856084,-4.8740519920932215
1708434498.4383855,1.7054856459247034,-2.7465530834593714,-1.7658761183368128,6.170258152275839,-0.453958813344137,-4.874043051396505
1708434498.4404688,1.70551044145693,-2.7465487919249476,-1.7659180800067347,6.170237052231588,-0.4539883772479456,-4.874084774647848
1708434498.4424572,1.705461327229635,-2.7465363941588343,-1.7658970991717737,6.170237052231588,-0.45402843156923467,-4.874081794415609
1708434498.4444633,1.7054975668536585,-2.7465363941588343,-1.765867058430807,6.170204269676962,-0.4540360609637659,-4.874011818562643
1708434498.446393,1.7054370085345667,-2.7465115986266078,-1.765829865132467,6.170270073204794,-0.4540036360370081,-4.874060932789938
1708434498.4484258,1.7055028120623987,-2.746556421319479,-1.7658761183368128,6.170243251114645,-0.454019848500387,-4.874037090932028
1708434498.450382,1.705454174672262,-2.746502538720602,-1.765862766896383,6.170228111534872,-0.4540599028216761,-4.8739803473102015
1708434498.4523888,1.7054122130023401,-2.7465855083861292,-1.765923802052633,6.170270073204794,-0.45404035249818975,-4.8739967981921595
1708434498.4544325,1.7054045836078089,-2.7465530834593714,-1.7659195105182093,6.1702237007911584,-0.454019848500387,-4.873977486287252
1708434498.4563985,1.7054255644427698,-2.7465855083861292,-1.765928093587057,6.170277464180746,-0.4540804068194788,-4.874036971722738
1708434498.4583895,1.705421272908346,-2.746551652947897,-1.7659733931170862,6.170301663666525,-0.45402747789491826,-4.874010268841879
1708434498.460383,1.7054136435138147,-2.7465650043883265,-1.765928093587057,6.170195328980245,-0.45405465761293584,-4.873913351689474
1708434498.4624107,1.7054265181170862,-2.7466260395445765,-1.7659524122821253,6.170223581581869,-0.4540918509112757,-4.873892370854513
1708434498.4644275,1.7053287664996546,-2.7465621433653773,-1.7659481207477015,6.170240270882406,-0.45405465761293584,-4.873916570340292
1708434498.4664097,1.7053239981280726,-2.7465607128539027,-1.7659719626056116,6.170277464180746,-0.4540789763080042,-4.87392229238619
1708434498.4683998,1.705390755330221,-2.7465230427184046,-1.7659795920001429,6.170243251114645,-0.4541071097003382,-4.873835746441976
1708434498.4704096,1.7053001562701624,-2.746606012383932,-1.7660420576678675,6.170270073204794,-0.45413190523256475,-4.873844687138693
1708434498.4723895,1.705341641102926,-2.7466050587096156,-1.7660406271563929,6.170270073204794,-0.45411903062929326,-4.8738537470446985
1708434498.4743898,1.7053101698504847,-2.7465397320189417,-1.766010586415426,6.170232522278585,-0.45417625108827764,-4.873773161564962
1708434498.4764087,1.7053101698504847,-2.7465855083861292,-1.7660439650165003,6.170323955803671,-0.454139534627096,-4.873806301747457
1708434498.4784138,1.705273453389303,-2.7465607128539027,-1.7660859266864222,6.170216190605917,-0.4541590849505823,-4.873733345662252
1708434498.4804325,1.7052534262286585,-2.7465855083861292,-1.7660768667804163,6.170240270882406,-0.4542039076434534,-4.873770538960592
1708434498.4823895,1.7052205244647425,-2.7465902767577113,-1.7660425345050257,6.170298325806417,-0.45422345796693975,-4.873730246220724
1708434498.4844065,1.7052620092975062,-2.7465769253172816,-1.7661498228656214,6.170298325806417,-0.45421153703798467,-4.873706404362814
1708434498.4864101,1.705287281666891,-2.7465621433653773,-1.7661245504962366,6.170286404877462,-0.4542191664325159,-4.873652760182516
1708434498.4884043,1.7052057425128382,-2.746507307092184,-1.7660992781268519,6.170301663666525,-0.454263989125387,-4.8736141363727015
1708434498.4903955,1.7052109877215784,-2.7465692959227503,-1.7661574522601526,6.170249211579122,-0.4542596975909632,-4.873590175305502
1708434498.492413,1.7051656881915491,-2.7465692959227503,-1.7661317030536097,6.170244800835409,-0.45426685014833623,-4.873606983815328
1708434498.494397,1.7051785627948206,-2.7465740642943324,-1.766156021748678,6.170261132508077,-0.4542906920062464,-4.873575631772177
1708434498.4964273,1.7051423231707972,-2.746601720849508,-1.7661798636065882,6.170277464180746,-0.45433122316469365,-4.873523537312643
1708434498.4983883,1.7051542440997522,-2.7465769253172816,-1.7662056128131312,6.170264112740316,-0.454322640095846,-4.873551432286398
1708434498.5004263,1.7051227728473108,-2.7465883694090785,-1.7661712805377405,6.170277464180746,-0.4543712774859827,-4.87353235880007
1708434498.5024083,1.705073658620016,-2.7466050587096156,-1.7662113348590296,6.170315015106954,-0.45436269441713506,-4.87344736257662
1708434498.5044053,1.7051194349872034,-2.7465793095030726,-1.7662485281573694,6.170315015106954,-0.45437461534609014,-4.873448912297384
1708434498.5063827,1.7050836722003382,-2.7465769253172816,-1.766230885182516,6.1703600762184045,-0.4544108549701136,-4.873429600392477
1708434498.5084093,1.7050464789019983,-2.7465573749937953,-1.766296688710348,6.170259582787313,-0.45442277589906865,-4.873380724583761
1708434498.5104156,1.7049863974200647,-2.7465678654112757,-1.766270939503805,6.170301663666525,-0.45448381105531865,-4.873344961796896
1708434498.5124054,1.7049863974200647,-2.7465769253172816,-1.7662790457354944,6.17025505283431,-0.45453149477113897,-4.873369876538412
1708434498.5143957,1.7049215475665491,-2.7466141186156214,-1.7662790457354944,6.170292722969808,-0.4545510450946253,-4.873350922261373
1708434498.5163999,1.7049139181720179,-2.7465855083861292,-1.7662771383868616,6.170226800232687,-0.45454246202577764,-4.8732808271991175
1708434498.51841,1.7048986593829554,-2.746606012383932,-1.766374413167135,6.17031358459548,-0.4545829931842249,-4.873244945202963
1708434498.5204167,1.7048819700824183,-2.746544500390524,-1.7663877646075647,6.170391309052267,-0.45459491411318,-4.873258415852682
1708434498.5224044,1.7048504988299769,-2.7465530834593714,-1.7663911024676722,6.1704256413276575,-0.45457441011537725,-4.8732550779925745
1708434498.5244145,1.704858128224508,-2.746596952477926,-1.7663939634906214,6.170454370766439,-0.4546468893634241,-4.873177949582235
1708434498.5263934,1.7047937552081507,-2.746596475640768,-1.7664435545550745,6.170415627747335,-0.4546545187579554,-4.873158876095907
1708434498.5283954,1.7047823111163538,-2.7466331921019496,-1.7664716879474085,6.170443761139669,-0.454686466847555,-4.873106781636373
1708434498.5304098,1.7047579924212855,-2.7465726337828578,-1.7664297262774866,6.170481431275167,-0.4547513167010706,-4.873111192380087
1708434498.5324204,1.704770867024557,-2.746535440484518,-1.7664387861834925,6.170481431275167,-0.4547341505633753,-4.87303060690035
1708434498.5343919,1.7047179380999964,-2.7466513119139613,-1.766470734273092,6.170455801277914,-0.45477468172182256,-4.873002115880148
1708434498.5363781,1.704714600239889,-2.746627470056051,-1.76650315919985,6.170571076660909,-0.4547775427447718,-4.873015467320577
1708434498.538383,1.704703156148092,-2.7466541729369105,-1.766531769429342,6.1704842922981165,-0.4548428694354456,-4.8729546705829065
1708434498.5404,1.7046783606158655,-2.746603628198141,-1.7665675322162073,6.170538294106283,-0.4548137823687952,-4.872936789189474
1708434498.5424256,1.7046425978290003,-2.7466899357237757,-1.7665675322162073,6.170479881554403,-0.4548581282245081,-4.872932259236471
1708434498.5444183,1.7046478430377405,-2.746652742425436,-1.7665827910052698,6.170467960625448,-0.4548738638507288,-4.872847382222311
1708434498.5463936,1.7046688238727015,-2.7466260395445765,-1.766618553792135,6.170529353409567,-0.45495492616762334,-4.872869674359457
1708434498.5486624,1.7045825163470667,-2.7467056713499964,-1.7666228453265589,6.170487272530355,-0.4549506346331995,-4.872801367436544
1708434498.550398,1.7045424620257776,-2.7467338047423304,-1.7666543165790003,6.170458900719442,-0.45489341417421514,-4.872768584881918
1708434498.5524042,1.704571549092428,-2.7467128239073695,-1.7666824499713343,6.170550215035238,-0.45500308672060186,-4.87276274362673
1708434498.5544052,1.7045066992389124,-2.7467056713499964,-1.7666452566729944,6.170503604203024,-0.45499879518617803,-4.872706000004904
1708434498.5564692,1.7044509092914026,-2.746732374230856,-1.7667115370379847,6.170550215035238,-0.45503026643861944,-4.87269109884371
1708434498.5584123,1.7044509092914026,-2.7467786274352015,-1.7667425314532679,6.170491802483358,-0.4550870100604456,-4.872641984616415
1708434498.560397,1.7044814268695276,-2.746788641015524,-1.7667620817767542,6.170521604805746,-0.45507842699159795,-4.872552816067831
1708434498.5623946,1.7044027487384241,-2.746793409387106,-1.766766373311178,6.170559155731954,-0.45507842699159795,-4.87257963815798
1708434498.5644195,1.7043755690204065,-2.7467643223204554,-1.766787354146139,6.170508134156027,-0.4551304022418421,-4.8725274244891565
1708434498.5663893,1.7042534987079065,-2.7467757664122523,-1.7667620817767542,6.170550215035238,-0.4551294485675257,-4.8725051323520105
1708434498.5684023,1.7042830626117151,-2.7467552624144496,-1.7668383757220667,6.17052041271285,-0.45516950288881475,-4.8724157253848475
1708434498.5703914,1.7042391935931605,-2.7468120060362757,-1.7668965498553675,6.1705126641090295,-0.45518523851503545,-4.872405592595236
1708434498.5723839,1.7041948477374476,-2.7468577824034632,-1.7668550650226038,6.1704753516014,-0.45527869859804326,-4.8723724524127405
