Eg3-git/Classifiers/Data Collection/u2/u2abc2_ur3e_joint_states.csv
time,elbow_joint,shoulder_lift_joint,shoulder_pan_joint,wrist_1_joint,wrist_2_joint,wrist_3_joint
1708434553.4879792,-2.1410679817199707,-1.33310920119796,-2.5260489622699183,6.1079561589057825,1.0161950588226318,-2.878033701573507
1708434553.4899764,-2.1410725116729736,-1.333100677733757,-2.5259953180896204,6.107942569046774,1.0161995887756348,-2.878000799809591
1708434553.4919877,-2.140997886657715,-1.3330529195121308,-2.5260193983661097,6.107960569649496,1.0161950588226318,-2.878037993107931
1708434553.494022,-2.1410679817199707,-1.3331297200969239,-2.5260120073901575,6.1079620001609705,1.0162326097488403,-2.878054443989889
1708434553.4959495,-2.1410226821899414,-1.3331092160991211,-2.5259791056262415,6.107963430672445,1.016211748123169,-2.878017250691549
1708434553.497952,-2.1410226821899414,-1.3331135225347062,-2.5259791056262415,6.107925879746237,1.0161950588226318,-2.878000799809591
1708434553.499962,-2.1410317420959473,-1.3330930185369034,-2.526026789342062,6.107872235565939,1.016192078590393,-2.87803823152651
1708434553.5019479,-2.141052007675171,-1.3331168305924912,-2.5259996096240442,6.107942569046774,1.0162208080291748,-2.878049914036886
1708434553.503969,-2.1410815715789795,-1.3331134778312226,-2.5259864966021937,6.107885706215658,1.0161832571029663,-2.878017250691549
1708434553.5059707,-2.14104962348938,-1.3331383180669327,-2.5259864966021937,6.107888686447897,1.0161741971969604,-2.878045622502462
1708434553.5079696,-2.1410610675811768,-1.33313304305587,-2.5259907881366175,6.107921349793234,1.016190528869629,-2.878033701573507
1708434553.5099592,-2.1410655975341797,-1.3330724847367783,-2.5259791056262415,6.107890236168661,1.0161876678466797,-2.878033701573507
1708434553.5119672,-2.1410610675811768,-1.3331701469472428,-2.5259907881366175,6.107947098999777,1.016211748123169,-2.878000799809591
1708434553.5139694,-2.1410770416259766,-1.333141566520073,-2.5260282198535364,6.1079139588172815,1.0161906480789185,-2.878061834965841
1708434553.5159612,-2.1410892009735107,-1.3330930185369034,-2.5259745756732386,6.1079410193260095,1.016141414642334,-2.877996269856588
1708434553.517962,-2.1410655975341797,-1.3331296753934403,-2.5259791056262415,6.107861506729879,1.0162415504455566,-2.877972666417257
1708434553.5199523,-2.141054153442383,-1.333113507633545,-2.5260029474841517,6.107894646912374,1.0161950588226318,-2.878009859715597
1708434553.521951,-2.1410269737243652,-1.3331297200969239,-2.5260239283191126,6.10790370681838,1.0162208080291748,-2.878005329762594
1708434553.5240324,-2.141056537628174,-1.3330725294402619,-2.5260327498065394,6.107899176865377,1.016141414642334,-2.878021780644552
1708434553.5259562,-2.1410610675811768,-1.3331220161965867,-2.5259504953967493,6.107908236771383,1.0161995887756348,-2.877993408833639
1708434553.5279675,-2.1410088539123535,-1.3331049096635361,-2.5259667078601282,6.107931959420004,1.0161906480789185,-2.877988878880636
1708434553.5299785,-2.1410067081451416,-1.3330768060735245,-2.5259996096240442,6.107894646912374,1.016141414642334,-2.8780022303210657
1708434553.531942,-2.141054153442383,-1.333129734998085,-2.5259700457202356,6.107877957611837,1.016228199005127,-2.878021780644552
1708434553.5339973,-2.1409876346588135,-1.3330358278802414,-2.5260162989245813,6.107875096588888,1.016211748123169,-2.877984587346212
1708434553.5359561,-2.1410317420959473,-1.3331211519292374,-2.5259667078601282,6.107854592591085,1.0162250995635986,-2.877939049397604
1708434553.5379562,-2.1410610675811768,-1.333044396047928,-2.5260239283191126,6.107933628350057,1.0162327289581299,-2.877965037022726
1708434553.5399828,-2.141045093536377,-1.333092988734581,-2.5259907881366175,6.107920157700338,1.0161950588226318,-2.877939049397604
1708434553.5419421,-2.1410632133483887,-1.3331092310002823,-2.5259700457202356,6.107899176865377,1.0161906480789185,-2.8780158201800745
1708434553.5439415,-2.141054153442383,-1.333084450369217,-2.5260446707354944,6.107915627747335,1.0161906480789185,-2.877976957951681
1708434553.5459504,-2.14104962348938,-1.3330682230046769,-2.5260120073901575,6.10789583900527,1.016192078590393,-2.877960745488302
1708434553.547942,-2.1410226821899414,-1.3330639165690918,-2.5259910265551966,6.10790370681838,1.0161995887756348,-2.877974335347311
1708434553.5499778,-2.1410701274871826,-1.3331167560866852,-2.5259624163257044,6.107828724175253,1.0162028074264526,-2.878026072178976
1708434553.5519466,-2.1410317420959473,-1.3330520552447815,-2.525987688695089,6.107884037285604,1.0161668062210083,-2.877965037022726
1708434553.5539794,-2.141054153442383,-1.3331091862967988,-2.5259996096240442,6.1078423140342615,1.0161995887756348,-2.877976957951681
1708434553.5559785,-2.1410202980041504,-1.3330520403436203,-2.5260074774371546,6.107904898911276,1.0161832571029663,-2.877968136464254
1708434553.5579696,-2.1410317420959473,-1.333097295170166,-2.5260401407824915,6.107912647515096,1.0162252187728882,-2.877922598515646
1708434553.5600243,-2.1410157680511475,-1.3331006479314347,-2.5259791056262415,6.107846724777975,1.0161622762680054,-2.877986017857687
1708434553.561953,-2.1410586833953857,-1.3330810827067872,-2.5259791056262415,6.107849943428793,1.0161950588226318,-2.8780234495746058
1708434553.5639615,-2.1410157680511475,-1.3331135225347062,-2.5259791056262415,6.1078423140342615,1.0162162780761719,-2.8779524008380335
1708434553.5659945,-2.1409919261932373,-1.333089680676796,-2.5260074774371546,6.107908236771383,1.0161787271499634,-2.8779435793506067
1708434553.5679557,-2.1410157680511475,-1.3330605638078232,-2.5259745756732386,6.107863414078512,1.0162206888198853,-2.87793475786318
1708434553.5699935,-2.1410586833953857,-1.3330768060735245,-2.5260120073901575,6.107866036682882,1.0161995887756348,-2.877981487904684
1708434553.571943,-2.1410157680511475,-1.3330606085113068,-2.5260282198535364,6.107839333802023,1.0162039995193481,-2.8780186812030237
1708434553.573985,-2.1409964561462402,-1.3331101846745987,-2.526037041340963,6.107822882920065,1.0162280797958374,-2.8779452482806605
1708434553.575965,-2.1410248279571533,-1.3330734831145783,-2.5259879271136683,6.107863414078512,1.0161995887756348,-2.8779831568347376
1708434553.5779622,-2.1410586833953857,-1.3330887270024796,-2.5259833971606653,6.107830273896017,1.0162162780761719,-2.8780022303210657
1708434553.5799503,-2.1410179138183594,-1.3330605787089844,-2.5260120073901575,6.107834923058309,1.016223669052124,-2.877965037022726
1708434553.5819795,-2.1410720348358154,-1.3330724847367783,-2.5260239283191126,6.107877003937521,1.0162073373794556,-2.8779571692096155
1708434553.5840263,-2.1410088539123535,-1.3330648851445694,-2.5260074774371546,6.10783480384902,1.0162162780761719,-2.877969566975729
1708434553.5860388,-2.1410176753997803,-1.3331006479314347,-2.525965754185812,6.1078154919441126,1.0161995887756348,-2.8779616991626185
1708434553.588042,-2.140974998474121,-1.3330281984857102,-2.525965754185812,6.107848274498739,1.0161950588226318,-2.8779616991626185
1708434553.5899704,-2.1409592628479004,-1.3330734235099335,-2.5259953180896204,6.107860195427694,1.0161995887756348,-2.877939287816183
1708434553.591967,-2.1410043239593506,-1.333089680676796,-2.5259667078601282,6.107818472176351,1.0162327289581299,-2.8779571692096155
1708434553.593967,-2.1409876346588135,-1.333073453312256,-2.5259953180896204,6.107848274498739,1.0161995887756348,-2.8779287973987024
1708434553.5959582,-2.1409919261932373,-1.3330972802690049,-2.5260074774371546,6.107822882920065,1.0161832571029663,-2.8779497782336634
1708434553.5979557,-2.1410133838653564,-1.333092988734581,-2.526020590459005,6.1077778218086145,1.0162327289581299,-2.8778870741473597
1708434553.599948,-2.141000986099243,-1.3331253987601777,-2.5259953180896204,6.107849943428793,1.0162039995193481,-2.8779526392566126
1708434553.6019468,-2.1409502029418945,-1.3330896359733124,-2.526037041340963,6.107841002732076,1.016228199005127,-2.877965037022726
1708434553.6039493,-2.140984058380127,-1.3330453497222443,-2.5259907881366175,6.1078154919441126,1.0162039995193481,-2.8779831568347376
1708434553.6059515,-2.140963554382324,-1.333110125069954,-2.5259791056262415,6.107765900879659,1.0161995887756348,-2.8779616991626185
1708434553.6079493,-2.1409707069396973,-1.3330768060735245,-2.5259667078601282,6.107768881111898,1.0161950588226318,-2.8779035250293177
1708434553.609949,-2.1409547328948975,-1.3330648851445694,-2.5259953180896204,6.107791411667623,1.0162162780761719,-2.8779361883746546
1708434553.6119637,-2.140963554382324,-1.333057240848877,-2.5260193983661097,6.10780035236434,1.0161668062210083,-2.8779378573047083
1708434553.6139827,-2.1409919261932373,-1.3331006479314347,-2.5259953180896204,6.107779490738668,1.0162039995193481,-2.8779407183276575
1708434553.6159601,-2.1409523487091064,-1.3330853891423722,-2.5260327498065394,6.107795941620626,1.0162162780761719,-2.8779123465167444
1708434553.6179762,-2.1409521102905273,-1.3331168454936524,-2.5259996096240442,6.10778688171462,1.0162162780761719,-2.8779333273517054
1708434553.61996,-2.1410133838653564,-1.3330401194146653,-2.5259910265551966,6.107866275101461,1.016162395477295,-2.8779080549823206
1708434553.621971,-2.140974998474121,-1.3330649149468918,-2.5260074774371546,6.107774960785665,1.0162206888198853,-2.8779168764697474
1708434553.6239831,-2.140984058380127,-1.3330401194146653,-2.5260282198535364,6.107774960785665,1.0161741971969604,-2.8779497782336634
1708434553.625943,-2.1409566402435303,-1.3330777150443573,-2.5259953180896204,6.107774960785665,1.0161832571029663,-2.8779497782336634
1708434553.6279633,-2.140984058380127,-1.3331177693656464,-2.526020590459005,6.107751118927755,1.0161950588226318,-2.8778887430774134
1708434553.629965,-2.140981435775757,-1.3330529642156144,-2.5259581247912806,6.107763159066,1.016208529472351,-2.877963129674093
1708434553.6319528,-2.1409523487091064,-1.3330930036357422,-2.5259953180896204,6.107791411667623,1.0162084102630615,-2.8778961340533655
1708434553.6339772,-2.140993118286133,-1.3331015569022675,-2.5259581247912806,6.107784020691671,1.0161950588226318,-2.8779214064227503
1708434553.635951,-2.1409928798675537,-1.3330810827067872,-2.5259953180896204,6.107779490738668,1.0162252187728882,-2.8778961340533655
1708434553.637982,-2.1409521102905273,-1.3330443513444443,-2.5259791056262415,6.107755648880758,1.016211748123169,-2.8779245058642786
1708434553.6399412,-2.14094877243042,-1.333069161777832,-2.5259745756732386,6.1077884314353845,1.016211748123169,-2.8778887430774134
1708434553.6419537,-2.140977144241333,-1.3330972802690049,-2.5260074774371546,6.107797372132101,1.0161861181259155,-2.8779407183276575
1708434553.643981,-2.140977144241333,-1.3330896359733124,-2.5259907881366175,6.107760178833761,1.016192078590393,-2.8779287973987024
1708434553.6459818,-2.140977144241333,-1.3330810827067872,-2.525977675114767,6.107784020691671,1.016207218170166,-2.8779006640063685
1708434553.6479897,-2.1409478187561035,-1.3330810827067872,-2.5259996096240442,6.107755648880758,1.016208529472351,-2.8779378573047083
1708434553.649957,-2.140953302383423,-1.333069161777832,-2.5260356108294886,6.107734787255087,1.016153335571289,-2.8779168764697474
1708434553.6519508,-2.140965700149536,-1.3330158752254029,-2.526069943104879,6.107722866326132,1.0161622762680054,-2.8779333273517054
1708434553.6539903,-2.140961170196533,-1.3330939275077363,-2.5259953180896204,6.107781040459432,1.0161668062210083,-2.877976719533102
1708434553.6559618,-2.140927314758301,-1.3330324751189728,-2.5259833971606653,6.107722866326132,1.0161950588226318,-2.8779049555407923
1708434553.6579652,-2.141014337539673,-1.3331134778312226,-2.526037041340963,6.107659804611959,1.0162162780761719,-2.8779287973987024
1708434553.659988,-2.140993118286133,-1.333069161777832,-2.5260239283191126,6.107691275864401,1.0162039995193481,-2.8779049555407923
1708434553.6619513,-2.1409363746643066,-1.3330281984857102,-2.5260162989245813,6.107748257904806,1.0161712169647217,-2.8779049555407923
1708434553.663964,-2.140965700149536,-1.3330529642156144,-2.526020590459005,6.107709395676412,1.0162280797958374,-2.877909485493795
1708434553.666026,-2.1409354209899902,-1.333069161777832,-2.5260193983661097,6.107706534653463,1.0162039995193481,-2.8778768221484583
1708434553.6679738,-2.14094877243042,-1.333044396047928,-2.5259791056262415,6.107718455582418,1.0162415504455566,-2.877942148839132
1708434553.6699705,-2.140944242477417,-1.3330410432866593,-2.5260193983661097,6.107713925629415,1.0162208080291748,-2.8778722921954554
1708434553.6719558,-2.140974760055542,-1.3331015569022675,-2.526020590459005,6.107740866928854,1.0162206888198853,-2.87795859972109
1708434553.6740072,-2.140953302383423,-1.333069161777832,-2.5260193983661097,6.10767029502944,1.016208529472351,-2.8779259363757532
1708434553.6759992,-2.1409974098205566,-1.333057240848877,-2.5259624163257044,6.107731807022848,1.0162039995193481,-2.877893034611837
1708434553.6779556,-2.1409623622894287,-1.3331058484366913,-2.526004139577047,6.107736336975851,1.0161876678466797,-2.8778842131244105
1708434553.679967,-2.140974760055542,-1.3330367666533967,-2.5260074774371546,6.107703196793356,1.0162371397018433,-2.8778677622424524
1708434553.6819592,-2.140911340713501,-1.3330853593400498,-2.5259953180896204,6.107740866928854,1.0161921977996826,-2.877918306981222
1708434553.6839755,-2.14094877243042,-1.33308960617099,-2.5260162989245813,6.1077391979988,1.0161950588226318,-2.87795859972109
1708434553.6860409,-2.140981674194336,-1.3330496859601517,-2.5259667078601282,6.10767029502944,1.0161950588226318,-2.8779049555407923
1708434553.688044,-2.14097261428833,-1.3330159497312088,-2.5260239283191126,6.107682215958395,1.0161995887756348,-2.877909485493795
1708434553.689984,-2.140944242477417,-1.3330810827067872,-2.526025120412008,6.1077109453971765,1.016223669052124,-2.8779049555407923
1708434553.691984,-2.1409637928009033,-1.333070160155632,-2.5260074774371546,6.107719886093893,1.0161741971969604,-2.877890412007467
1708434553.693944,-2.14094877243042,-1.3331015569022675,-2.5260193983661097,6.107728945999899,1.0161995887756348,-2.8779168764697474
1708434553.6959698,-2.140927314758301,-1.3330777150443573,-2.5259535948382776,6.107719886093893,1.0161741971969604,-2.8779378573047083
1708434553.6979609,-2.14098858833313,-1.3330367666533967,-2.5260117689715784,6.10767029502944,1.0161622762680054,-2.877955738698141
1708434553.6999545,-2.140927314758301,-1.3330658835223694,-2.5260162989245813,6.107707726746359,1.0162252187728882,-2.8778768221484583
1708434553.701958,-2.140984058380127,-1.3330896359733124,-2.5259907881366175,6.107757317810812,1.016157865524292,-2.8779259363757532
1708434553.7039423,-2.14094877243042,-1.3330073964646836,-2.5259624163257044,6.107733475952902,1.0162206888198853,-2.8778768221484583
1708434553.7059515,-2.140922784805298,-1.333057240848877,-2.526004139577047,6.1077109453971765,1.016211748123169,-2.8778961340533655
1708434553.7079706,-2.140907049179077,-1.3330529493144532,-2.5259791056262415,6.107740866928854,1.0161622762680054,-2.8778885046588343
1708434553.709985,-2.140915870666504,-1.3330734384110947,-2.5260074774371546,6.107757317810812,1.0161995887756348,-2.87793475786318
1708434553.711953,-2.140944480895996,-1.3330725294402619,-2.5259864966021937,6.107736217766561,1.0161787271499634,-2.8778722921954554
1708434553.7139707,-2.140965700149536,-1.3330615174821396,-2.5260239283191126,6.1077661392982385,1.0161786079406738,-2.877876583729879
1708434553.7159648,-2.1409566402435303,-1.333056316976883,-2.5259907881366175,6.107748138695516,1.0162326097488403,-2.877951208745138
1708434553.7179763,-2.140944242477417,-1.3330648851445694,-2.5260029474841517,6.107697474747457,1.0162039995193481,-2.8778796831714075
1708434553.7199607,-2.140981435775757,-1.3331134778312226,-2.5259791056262415,6.10777364948348,1.0162250995635986,-2.877918306981222
1708434553.7219403,-2.140939712524414,-1.333028794532158,-2.5260282198535364,6.10769413688735,1.0161832571029663,-2.8779452482806605
1708434553.7239394,-2.140953302383423,-1.3330606085113068,-2.5260120073901575,6.10765694358901,1.0161668062210083,-2.87789756456484
1708434553.7259564,-2.140939950942993,-1.3331263226321717,-2.5259996096240442,6.107748257904806,1.016211748123169,-2.8779259363757532
1708434553.7279425,-2.140944242477417,-1.3330606085113068,-2.5259907881366175,6.107724416046896,1.0161713361740112,-2.8778768221484583
1708434553.7299588,-2.1408989429473877,-1.3330768060735245,-2.5260074774371546,6.107748257904806,1.0162252187728882,-2.8779168764697474
1708434553.731963,-2.140961170196533,-1.3330529642156144,-2.5259745756732386,6.107695805817404,1.0161622762680054,-2.877930227910177
1708434553.7339468,-2.140939712524414,-1.3330116730979462,-2.5260074774371546,6.107745396881857,1.016211748123169,-2.877890412007467
1708434553.7359536,-2.14094877243042,-1.3330520403436203,-2.5259907881366175,6.10769413688735,1.0161861181259155,-2.8779259363757532
1708434553.7379527,-2.1410021781921387,-1.3330939275077363,-2.5259745756732386,6.107761728554525,1.0162206888198853,-2.877939287816183
1708434553.739954,-2.140953302383423,-1.3330777150443573,-2.5260193983661097,6.10767029502944,1.0161787271499634,-2.877868715916769
1708434553.7419658,-2.140974760055542,-1.3331144911101838,-2.5259953180896204,6.10771535614089,1.016223669052124,-2.877963129674093
1708434553.7439716,-2.1409354209899902,-1.3330410432866593,-2.5259996096240442,6.1076838848884485,1.0161995887756348,-2.8779259363757532
1708434553.7459712,-2.140939712524414,-1.3330853593400498,-2.5259910265551966,6.10777364948348,1.0162039995193481,-2.8779049555407923
1708434553.7479784,-2.1409249305725098,-1.3330606085113068,-2.5260162989245813,6.107707726746359,1.0161995887756348,-2.8779006640063685
1708434553.749952,-2.140939950942993,-1.3330615174821396,-2.526020590459005,6.10771535614089,1.0162206888198853,-2.8779049555407923
1708434553.7519696,-2.140961170196533,-1.333045319919922,-2.5259745756732386,6.107712256699362,1.016211748123169,-2.8779333273517054
1708434553.753934,-2.140927314758301,-1.3330529642156144,-2.5259745756732386,6.107802021294393,1.0161995887756348,-2.877909485493795
1708434553.7559583,-2.140944242477417,-1.3330648851445694,-2.525965754185812,6.107760059624471,1.0162296295166016,-2.877918306981222
1708434553.757959,-2.140953540802002,-1.333057240848877,-2.525998655949728,6.107736336975851,1.016192078590393,-2.877894703541891
1708434553.759954,-2.140965700149536,-1.3330896359733124,-2.5260239283191126,6.107712256699362,1.0161548852920532,-2.877951208745138
1708434553.761944,-2.14094877243042,-1.3330853593400498,-2.5259745756732386,6.107736217766561,1.0161832571029663,-2.877901856099264
1708434553.7639565,-2.140944242477417,-1.3330245178988953,-2.5260401407824915,6.10769413688735,1.016145944595337,-2.8778677622424524
1708434553.7659566,-2.1409318447113037,-1.3330658835223694,-2.5260282198535364,6.1076897261436365,1.0162206888198853,-2.8778887430774134
1708434553.7679758,-2.14094877243042,-1.3330615174821396,-2.5259581247912806,6.107740866928854,1.0162327289581299,-2.877946678792135
1708434553.7699437,-2.140981674194336,-1.333069161777832,-2.5259535948382776,6.107691275864401,1.0162039995193481,-2.877930227910177
1708434553.7719984,-2.1409623622894287,-1.3330529791167756,-2.526020590459005,6.107728945999899,1.016228199005127,-2.877906624470846
1708434553.77395,-2.140970230102539,-1.333126263027527,-2.5259833971606653,6.1077003357704065,1.0162162780761719,-2.877927605305807
1708434553.775952,-2.140957832336426,-1.3330701303533097,-2.5259953180896204,6.107686745911398,1.0161995887756348,-2.877963129674093
1708434553.7779703,-2.140911340713501,-1.3330648851445694,-2.5260120073901575,6.107736336975851,1.0162162780761719,-2.8779049555407923
1708434553.779967,-2.14098858833313,-1.333060623412468,-2.5260074774371546,6.1077109453971765,1.0162296295166016,-2.877914015446798
1708434553.7819865,-2.1409316062927246,-1.333069161777832,-2.5260120073901575,6.107724535256185,1.0161876678466797,-2.877918306981222
1708434553.7839737,-2.140944242477417,-1.3331424456885834,-2.525949303303854,6.10777364948348,1.0161622762680054,-2.8779049555407923
1708434553.7860186,-2.1409566402435303,-1.3330734235099335,-2.526008431111471,6.10771535614089,1.0161876678466797,-2.877918306981222
1708434553.788038,-2.140993118286133,-1.333020271067955,-2.5259624163257044,6.107740866928854,1.0162039995193481,-2.8779214064227503
1708434553.7899508,-2.1409318447113037,-1.3330116730979462,-2.5259667078601282,6.107682335167684,1.0162206888198853,-2.877909485493795
1708434553.7919812,-2.140953302383423,-1.3330325198224564,-2.5259864966021937,6.1077154753501794,1.0161995887756348,-2.8778842131244105
1708434553.7939456,-2.141014337539673,-1.3330125969699402,-2.5260325113879603,6.10773931720809,1.0162252187728882,-2.8779049555407923
1708434553.7959497,-2.140990734100342,-1.3330160093358536,-2.5259745756732386,6.107757317810812,1.0161876678466797,-2.877909485493795
1708434553.79796,-2.140961170196533,-1.333086372619011,-2.5259996096240442,6.107761728554525,1.0162039995193481,-2.8779049555407923
1708434553.7999585,-2.140961170196533,-1.3330777150443573,-2.5260282198535364,6.107722866326132,1.0162162780761719,-2.877930227910177
1708434553.8019857,-2.1409928798675537,-1.3330539625934144,-2.5259953180896204,6.107789981156149,1.0162296295166016,-2.8779378573047083
1708434553.8040068,-2.140961170196533,-1.3330245178988953,-2.526037041340963,6.107751118927755,1.0161876678466797,-2.87793475786318
1708434553.8059592,-2.141026735305786,-1.3330853593400498,-2.5260120073901575,6.107743727951803,1.0161876678466797,-2.877909485493795
1708434553.807976,-2.140968084335327,-1.3331263226321717,-2.525971237813131,6.10772584655837,1.0161713361740112,-2.87795859972109
1708434553.8099496,-2.140986204147339,-1.3330853593400498,-2.5259745756732386,6.107764589577474,1.0161995887756348,-2.8778796831714075
1708434553.8119555,-2.1409354209899902,-1.3330367666533967,-2.526012961064474,6.107764589577474,1.0161668062210083,-2.877930227910177
1708434553.8140125,-2.1409363746643066,-1.333069161777832,-2.526004139577047,6.107752668648519,1.016211748123169,-2.8778887430774134
1708434553.81596,-2.140974760055542,-1.333020271067955,-2.525987688695089,6.107755648880758,1.0161787271499634,-2.87785512605776
1708434553.8179529,-2.1409566402435303,-1.3330615025809784,-2.5259879271136683,6.107706534653463,1.0161713361740112,-2.8779497782336634
1708434553.8199532,-2.1408979892730713,-1.3330486875823517,-2.5259907881366175,6.107784020691671,1.0161906480789185,-2.877930227910177
1708434553.8219788,-2.140984058380127,-1.3330367815545578,-2.5259907881366175,6.107709395676412,1.0161548852920532,-2.8779049555407923
1708434553.824045,-2.14097261428833,-1.3331015420011063,-2.5259385744677942,6.107764589577474,1.0162296295166016,-2.877942148839132
1708434553.8259592,-2.140963554382324,-1.3330982339433213,-2.5259879271136683,6.107797372132101,1.016192078590393,-2.8778796831714075
1708434553.827959,-2.140965700149536,-1.3330401641181489,-2.5259342829333704,6.107764589577474,1.0162296295166016,-2.8779006640063685
1708434553.8299606,-2.1409566402435303,-1.333048702483513,-2.5259669462787073,6.107764589577474,1.0161995887756348,-2.8779378573047083
1708434553.831995,-2.14094877243042,-1.3330239218524476,-2.5259297529803675,6.1077929613883875,1.016192078590393,-2.8779378573047083
1708434553.8339963,-2.1410021781921387,-1.333048702483513,-2.5260162989245813,6.107751118927755,1.0161757469177246,-2.877942148839132
1708434553.835958,-2.140965700149536,-1.3331177693656464,-2.525998655949728,6.1078048823173425,1.0161594152450562,-2.8779616991626185
1708434553.8380377,-2.1409974098205566,-1.3330853444388886,-2.5259702841388147,6.1077884314353845,1.0161668062210083,-2.877954069768087
1708434553.8400185,-2.140961170196533,-1.3330649000457306,-2.526004139577047,6.107743727951803,1.0162415504455566,-2.8779287973987024
1708434553.8419967,-2.141005277633667,-1.3330658686212082,-2.5259953180896204,6.107795941620626,1.0161832571029663,-2.8779333273517054
1708434553.8439863,-2.140961170196533,-1.3330245178988953,-2.5260282198535364,6.107821213990011,1.0161832571029663,-2.8779125849353235
1708434553.845996,-2.140984058380127,-1.3330410581878205,-2.525949303303854,6.107791411667623,1.0161548852920532,-2.8779361883746546
1708434553.8479745,-2.1409637928009033,-1.3330410581878205,-2.5259879271136683,6.107755648880758,1.0161594152450562,-2.877970520650045
1708434553.8499763,-2.140984058380127,-1.3330324751189728,-2.5259504953967493,6.1077929613883875,1.016208529472351,-2.8779407183276575
1708434553.8519607,-2.140986204147339,-1.333069161777832,-2.5259535948382776,6.107755648880758,1.0161757469177246,-2.8779571692096155
1708434553.8539586,-2.140927314758301,-1.333060623412468,-2.526012961064474,6.107840883522787,1.0161594152450562,-2.8779080549823206
1708434553.855975,-2.140944242477417,-1.3331263226321717,-2.525987688695089,6.107751118927755,1.0161832571029663,-2.877975050603048
1708434553.857962,-2.140965700149536,-1.3330281984857102,-2.5260117689715784,6.107829081803121,1.0161757469177246,-2.8779659906970423
1708434553.8599787,-2.141026735305786,-1.3330486875823517,-2.5259996096240442,6.107779490738668,1.0161638259887695,-2.8779740969287317
1708434553.861957,-2.14097261428833,-1.333048702483513,-2.5259996096240442,6.107824551850118,1.0161548852920532,-2.8779452482806605
1708434553.8639734,-2.140927314758301,-1.3331091862967988,-2.5260282198535364,6.10789047458724,1.0161876678466797,-2.8779125849353235
1708434553.865976,-2.141014337539673,-1.3330443811467667,-2.5259791056262415,6.107782351761617,1.0161548852920532,-2.8779407183276575
1708434553.8679485,-2.141014337539673,-1.333057240848877,-2.5259953180896204,6.107798802643575,1.0162162780761719,-2.8780084292041224
1708434553.8699772,-2.140977144241333,-1.3330529791167756,-2.5259624163257044,6.107806551247396,1.0161757469177246,-2.877970520650045
1708434553.8719492,-2.14100980758667,-1.3330245178988953,-2.5259996096240442,6.107839333802023,1.0161995887756348,-2.8779786268817347
1708434553.8739495,-2.140977144241333,-1.3330853593400498,-2.5259953180896204,6.107860195427694,1.0161638259887695,-2.8779786268817347
1708434553.875985,-2.141005277633667,-1.3330734384110947,-2.526004139577047,6.107872473984518,1.016180157661438,-2.8779481093036097
1708434553.8779435,-2.1409478187561035,-1.333069161777832,-2.5259624163257044,6.107892977982321,1.016196608543396,-2.8779526392566126
1708434553.879998,-2.1409928798675537,-1.3330853444388886,-2.526004139577047,6.107860195427694,1.0161713361740112,-2.8779197374926966
1708434553.8819463,-2.140968084335327,-1.333122045998909,-2.5259996096240442,6.10781096199111,1.0162129402160645,-2.8779571692096155
1708434553.883968,-2.14100980758667,-1.3330367666533967,-2.5259667078601282,6.107846724777975,1.0161594152450562,-2.8779950777636927
1708434553.886,-2.140961170196533,-1.3330896359733124,-2.525971237813131,6.107802021294393,1.0161832571029663,-2.877969566975729
1708434553.8879526,-2.140981674194336,-1.333020271067955,-2.5260074774371546,6.107830273896017,1.0161594152450562,-2.878002468739645
1708434553.8899763,-2.1409928798675537,-1.333052085047104,-2.525971237813131,6.1078975079353235,1.0161876678466797,-2.8779197374926966
1708434553.891961,-2.141005277633667,-1.3330810827067872,-2.5259624163257044,6.107830273896017,1.016180157661438,-2.877974335347311
1708434553.8939896,-2.14097261428833,-1.3330938828042527,-2.5259833971606653,6.107818472176351,1.016196608543396,-2.8779905478106897
1708434553.8959818,-2.14100980758667,-1.3330040288022538,-2.5259581247912806,6.1078213331993005,1.0162039995193481,-2.8779571692096155
1708434553.8979614,-2.140918254852295,-1.3331015569022675,-2.5259669462787073,6.107888567238607,1.0161757469177246,-2.8779361883746546
1708434553.900005,-2.140961170196533,-1.3331015420011063,-2.5260208288775843,6.107830273896017,1.0161548852920532,-2.878009859715597
1708434553.9019694,-2.141022205352783,-1.3330896359733124,-2.5260172525988978,6.107833254128256,1.0161832571029663,-2.8780561129199427
1708434553.9039676,-2.140984058380127,-1.333114431505539,-2.5259833971606653,6.107879507332601,1.016192078590393,-2.878005329762594
1708434553.9059541,-2.140968084335327,-1.3330777001431962,-2.5259833971606653,6.10782145240859,1.0161548852920532,-2.878042523060934
1708434553.9079556,-2.140984058380127,-1.3330725145391007,-2.5259624163257044,6.1078377840812585,1.0161848068237305,-2.87803823152651
1708434553.9099514,-2.1409387588500977,-1.3330529791167756,-2.5259953180896204,6.107872473984518,1.016192078590393,-2.878021780644552
1708434553.9120042,-2.140979528427124,-1.333048702483513,-2.5260446707354944,6.107920157700338,1.0161713361740112,-2.878005329762594
1708434553.913959,-2.141026735305786,-1.3330073964646836,-2.5259879271136683,6.107830273896017,1.0162039995193481,-2.878000799809591
1708434553.9159572,-2.14098858833313,-1.3330896359733124,-2.526004139577047,6.107920157700338,1.016192078590393,-2.878012720738546
1708434553.9179766,-2.141014337539673,-1.3331058037332078,-2.525987688695089,6.107945430069723,1.0161594152450562,-2.878045622502462
1708434553.9199553,-2.1410043239593506,-1.3330648702434083,-2.525987688695089,6.107887017517843,1.0161467790603638,-2.8780701796161097
1708434553.9219542,-2.141005277633667,-1.3330930036357422,-2.525975529347555,6.107912647515096,1.0161594152450562,-2.878012720738546
1708434553.9239872,-2.1410088539123535,-1.333057240848877,-2.525971237813131,6.107908236771383,1.0162252187728882,-2.878012720738546
1708434553.9259713,-2.141000986099243,-1.3330724698356171,-2.5259504953967493,6.1079574702079675,1.0161832571029663,-2.878045622502462
1708434553.9279587,-2.14100980758667,-1.3330768060735245,-2.525971237813131,6.107939469605245,1.0161848068237305,-2.8780701796161097
1708434553.9299612,-2.140939950942993,-1.3330734384110947,-2.5259624163257044,6.107894766121664,1.0161594152450562,-2.8780880610095423
1708434553.9319656,-2.1409432888031006,-1.3330896210721512,-2.5259624163257044,6.10790370681838,1.0161713361740112,-2.8780835310565394
1708434553.9339807,-2.140979528427124,-1.3330367666533967,-2.5259745756732386,6.107891547470846,1.0161668062210083,-2.878033701573507
1708434553.9359605,-2.1410133838653564,-1.333069161777832,-2.5259996096240442,6.107899176865377,1.0161548852920532,-2.8780575434314173
1708434553.937972,-2.14097261428833,-1.3330519956401368,-2.5259791056262415,6.107921469002523,1.0161876678466797,-2.8780744711505335
1708434553.9399595,-2.1409592628479004,-1.3330887270024796,-2.5259624163257044,6.107894646912374,1.0162039995193481,-2.8780038992511194
1708434553.941974,-2.14103364944458,-1.3331424456885834,-2.5259791056262415,6.107923018723287,1.016196608543396,-2.8780701796161097
1708434553.9439528,-2.140961170196533,-1.333060623412468,-2.5260239283191126,6.107872235565939,1.016168475151062,-2.8780410925494593
1708434553.94595,-2.1410133838653564,-1.3330734235099335,-2.525987688695089,6.1079304096992395,1.0161757469177246,-2.878054443989889
1708434553.9479644,-2.1409637928009033,-1.3330615174821396,-2.526037041340963,6.107948410301962,1.0162129402160645,-2.878017250691549
1708434553.9499617,-2.1409752368927,-1.3330572259477158,-2.526037041340963,6.107943880348959,1.0162039995193481,-2.8780575434314173
1708434553.951967,-2.1410133838653564,-1.3330606085113068,-2.5260208288775843,6.107877957611837,1.0161594152450562,-2.878012720738546
1708434553.9539604,-2.1409964561462402,-1.333069161777832,-2.525987688695089,6.1079304096992395,1.0161876678466797,-2.878017250691549
1708434553.95596,-2.141042709350586,-1.3330649000457306,-2.5259581247912806,6.107943880348959,1.016196608543396,-2.8780365625964563
1708434553.9579546,-2.140963554382324,-1.3330982339433213,-2.5259702841388147,6.107948410301962,1.0161467790603638,-2.878029171620504
1708434553.9599602,-2.1410176753997803,-1.3330529791167756,-2.525987688695089,6.1078975079353235,1.0162129402160645,-2.8780112902270716
1708434553.9619982,-2.1410179138183594,-1.3331339371255417,-2.5259864966021937,6.1079304096992395,1.016180157661438,-2.878061834965841
1708434553.9639945,-2.14100980758667,-1.3330853593400498,-2.5259535948382776,6.10797547081069,1.0161288976669312,-2.8780365625964563
1708434553.9659483,-2.141022205352783,-1.333069161777832,-2.525975529347555,6.10793815830306,1.0162296295166016,-2.878045622502462
1708434553.9679635,-2.14103364944458,-1.333060623412468,-2.5259910265551966,6.1079516289527795,1.0162252187728882,-2.8779874483691614
1708434553.9699516,-2.1409637928009033,-1.3330930036357422,-2.5259745756732386,6.107995974808492,1.0161504745483398,-2.8780835310565394
1708434553.9719524,-2.140974998474121,-1.3330649000457306,-2.5259953180896204,6.10797547081069,1.0161876678466797,-2.878012720738546
1708434553.9739563,-2.140979528427124,-1.3330930036357422,-2.5260327498065394,6.107918488770284,1.0161638259887695,-2.878012720738546
1708434553.9759645,-2.140979528427124,-1.3330734384110947,-2.5260325113879603,6.1079561589057825,1.0161757469177246,-2.8780246416675013
1708434553.9779742,-2.1410043239593506,-1.33310920119796,-2.5259879271136683,6.107951748162069,1.0161786079406738,-2.8779829184161585
1708434553.9799602,-2.140979528427124,-1.3330691468766709,-2.5259879271136683,6.107979881554403,1.016208529472351,-2.878045622502462
1708434553.981981,-2.1409707069396973,-1.3331168454936524,-2.5259791056262415,6.107954489975729,1.0161548852920532,-2.8780365625964563
1708434553.9839716,-2.1409876346588135,-1.3331144911101838,-2.526008431111471,6.107963549881735,1.0162039995193481,-2.878012720738546
1708434553.985994,-2.14103364944458,-1.3331015420011063,-2.5259702841388147,6.107966530113973,1.0161594152450562,-2.87806207338442
1708434553.9880154,-2.141029119491577,-1.3330444407514115,-2.5259996096240442,6.1079680798347376,1.0162208080291748,-2.8781116644488733
1708434553.9900413,-2.1409997940063477,-1.3331296902946015,-2.5259996096240442,6.107970940857687,1.0161876678466797,-2.878033463154928
1708434553.99204,-2.140979528427124,-1.333019719724991,-2.5259953180896204,6.107933747559347,1.016208529472351,-2.878029171620504
1708434553.9939716,-2.1410088539123535,-1.3330930036357422,-2.526004139577047,6.107995974808492,1.016196608543396,-2.8780410925494593
1708434553.9959748,-2.1410000324249268,-1.3330938828042527,-2.525987688695089,6.1079455492790125,1.0161995887756348,-2.8780365625964563
1708434553.9979727,-2.1409876346588135,-1.3331424456885834,-2.5260162989245813,6.107970940857687,1.0161668062210083,-2.878045622502462
1708434553.9999723,-2.141040802001953,-1.3330777150443573,-2.525965754185812,6.107979881554403,1.0162039995193481,-2.877996269856588
1708434554.0019662,-2.1410248279571533,-1.3330486875823517,-2.5259833971606653,6.1079914448554895,1.0162039995193481,-2.8780320326434534
1708434554.0039728,-2.1410176753997803,-1.3330930036357422,-2.525987688695089,6.107973563462057,1.016157865524292,-2.878045622502462
1708434554.005958,-2.1409752368927,-1.3330691766789933,-2.526020590459005,6.107966530113973,1.0162129402160645,-2.8780155817614954
1708434554.0079768,-2.14103627204895,-1.3330367666533967,-2.5259702841388147,6.107991564064779,1.0162129402160645,-2.878045622502462
1708434554.0099678,-2.1410157680511475,-1.3330691468766709,-2.525987688695089,6.107929217606344,1.0161876678466797,-2.878012720738546
1708434554.0119796,-2.1410112380981445,-1.3330887270024796,-2.525971237813131,6.10797809341506,1.0161832571029663,-2.8780744711505335
1708434554.0139678,-2.1410248279571533,-1.3330648851445694,-2.5259833971606653,6.107970940857687,1.0161832571029663,-2.8780790011035364
1708434554.0159645,-2.1410043239593506,-1.3331058484366913,-2.5260193983661097,6.108020174294271,1.0162039995193481,-2.8780530134784144
1708434554.0179923,-2.1409919261932373,-1.3330245178988953,-2.5260162989245813,6.107987034111776,1.0161876678466797,-2.8780246416675013
1708434554.0199893,-2.1409547328948975,-1.3330529940179368,-2.5259581247912806,6.107966530113973,1.016190528869629,-2.8780530134784144
1708434554.0219724,-2.1410675048828125,-1.333056316976883,-2.526004139577047,6.107995974808492,1.0162208080291748,-2.8780439535724085
1708434554.0239558,-2.1410632133483887,-1.3330606085113068,-2.5259864966021937,6.107950198441305,1.016192078590393,-2.878045622502462
1708434554.025947,-2.1409964561462402,-1.333057315354683,-2.525965754185812,6.107963549881735,1.0161950588226318,-2.87806207338442
1708434554.0279703,-2.1409707069396973,-1.3330929738334198,-2.526008431111471,6.108041035919943,1.0161876678466797,-2.8780484835254114
1708434554.0299764,-2.1409919261932373,-1.333105818634369,-2.5259879271136683,6.107959019928732,1.0161995887756348,-2.878066364918844
1708434554.031956,-2.1410088539123535,-1.3330529493144532,-2.5259791056262415,6.108003723412313,1.0161668062210083,-2.878045622502462
1708434554.0339763,-2.1410043239593506,-1.3330810827067872,-2.5259819666491907,6.107954609185018,1.0161950588226318,-2.878061834965841
1708434554.0359762,-2.1409752368927,-1.3330777448466797,-2.5259819666491907,6.107966530113973,1.0161786079406738,-2.878037993107931
1708434554.0379775,-2.1410088539123535,-1.3330810827067872,-2.5260162989245813,6.107966530113973,1.0161622762680054,-2.8779965082751673
1708434554.0399559,-2.1410043239593506,-1.3330725294402619,-2.5259745756732386,6.1079993126686,1.016192078590393,-2.8780203501330774
1708434554.0419867,-2.1409783363342285,-1.333056316976883,-2.5259879271136683,6.107987034111776,1.0161741971969604,-2.8780575434314173
1708434554.0439854,-2.1410088539123535,-1.3330930036357422,-2.5259907881366175,6.107954489975729,1.0162208080291748,-2.8780201117144983
1708434554.045956,-2.1409783363342285,-1.333069161777832,-2.5259953180896204,6.107995974808492,1.0161995887756348,-2.878033701573507
1708434554.0479658,-2.1410248279571533,-1.3330691766789933,-2.525971237813131,6.107966530113973,1.0161995887756348,-2.8780365625964563
1708434554.0499582,-2.1410088539123535,-1.3330401641181489,-2.5259624163257044,6.1079620001609705,1.0161786079406738,-2.878029171620504
1708434554.0519795,-2.1410632133483887,-1.3330734384110947,-2.5260282198535364,6.108003723412313,1.016208529472351,-2.8780530134784144
1708434554.0539877,-2.1410317420959473,-1.3330529642156144,-2.5259791056262415,6.108008134156027,1.0162028074264526,-2.8780654112445276
1708434554.0559783,-2.1409752368927,-1.3330486875823517,-2.5259953180896204,6.10791705825881,1.0161668062210083,-2.8780084292041224
1708434554.0579567,-2.141000986099243,-1.3330487173846741,-2.5259791056262415,6.107950198441305,1.0161995887756348,-2.8780365625964563
1708434554.0599806,-2.1409964561462402,-1.33308960617099,-2.5259907881366175,6.107966530113973,1.0161950588226318,-2.878045622502462
1708434554.0619702,-2.1410088539123535,-1.3330777150443573,-2.5260120073901575,6.107970940857687,1.0161832571029663,-2.8780832926379603
1708434554.064014,-2.141045093536377,-1.3331168454936524,-2.5259864966021937,6.108020174294271,1.0162129402160645,-2.878033701573507
1708434554.0659606,-2.1410202980041504,-1.3330734384110947,-2.526004139577047,6.107966530113973,1.0161832571029663,-2.8779874483691614
1708434554.0679696,-2.14104962348938,-1.3330767762712021,-2.5260325113879603,6.107970940857687,1.0161832571029663,-2.8780530134784144
1708434554.069985,-2.14103627204895,-1.3330486875823517,-2.525971237813131,6.107950198441305,1.0162162780761719,-2.8780575434314173
1708434554.071953,-2.1410248279571533,-1.3330649149468918,-2.5259907881366175,6.107942569046774,1.0161950588226318,-2.8780410925494593
1708434554.0739584,-2.1410043239593506,-1.3330853295377274,-2.5259373823748987,6.107987034111776,1.0162208080291748,-2.878029171620504
1708434554.0759647,-2.141045093536377,-1.3330520403436203,-2.5259581247912806,6.107907998352804,1.0161757469177246,-2.8779755274402063
1708434554.077964,-2.1409876346588135,-1.3330768060735245,-2.5259996096240442,6.107942569046774,1.0161995887756348,-2.878029171620504
1708434554.0799592,-2.1410067081451416,-1.3330810827067872,-2.5259907881366175,6.107925879746237,1.0161950588226318,-2.878017250691549
1708434554.081958,-2.14104962348938,-1.3330972653678437,-2.5260489622699183,6.107963549881735,1.0161786079406738,-2.8779709974872034
1708434554.0839849,-2.1410701274871826,-1.3330768060735245,-2.5259953180896204,6.107963549881735,1.0162280797958374,-2.8780203501330774
1708434554.0859644,-2.1409952640533447,-1.3331144017032166,-2.5259953180896204,6.107954489975729,1.0161950588226318,-2.8780365625964563
1708434554.0880277,-2.1410043239593506,-1.3330444258502503,-2.5260239283191126,6.108000504761495,1.0161995887756348,-2.878012720738546
1708434554.0900152,-2.141040563583374,-1.3330359023860474,-2.5259791056262415,6.107970940857687,1.0162041187286377,-2.878061834965841
1708434554.091969,-2.1410088539123535,-1.3331495535424729,-2.5259833971606653,6.107933747559347,1.0161876678466797,-2.878045622502462
1708434554.0939512,-2.1410317420959473,-1.3330734831145783,-2.526004139577047,6.1079574702079675,1.016136884689331,-2.878033701573507
1708434554.0959706,-2.1410202980041504,-1.3331006628325959,-2.5259745756732386,6.108003723412313,1.0161876678466797,-2.878021780644552
1708434554.097957,-2.1410586833953857,-1.33310920119796,-2.5259581247912806,6.1079620001609705,1.0161832571029663,-2.878012720738546
1708434554.0999575,-2.1410133838653564,-1.333060623412468,-2.5260193983661097,6.107942569046774,1.0162538290023804,-2.8779919783221644
1708434554.1019483,-2.1410157680511475,-1.3330768209746857,-2.525971237813131,6.108003723412313,1.0161741971969604,-2.87806207338442
1708434554.1039996,-2.1410586833953857,-1.333110125069954,-2.5260239283191126,6.107979881554403,1.0162073373794556,-2.878005329762594
1708434554.1059656,-2.1409952640533447,-1.3330324751189728,-2.5259907881366175,6.107973563462057,1.016192078590393,-2.8779965082751673
1708434554.1079905,-2.1410157680511475,-1.3330682230046769,-2.5259581247912806,6.107973563462057,1.0162162780761719,-2.878037993107931
1708434554.1099725,-2.1410088539123535,-1.3331176948598404,-2.5259700457202356,6.108024585037985,1.0162327289581299,-2.878000799809591
1708434554.1119618,-2.1409783363342285,-1.3331177693656464,-2.5259953180896204,6.10797809341506,1.0162162780761719,-2.8780790011035364
1708434554.1139479,-2.140990734100342,-1.3330368113568802,-2.526053492222921,6.107970940857687,1.0161696672439575,-2.878045622502462
1708434554.1159594,-2.14104962348938,-1.333056316976883,-2.5259864966021937,6.1079516289527795,1.0162162780761719,-2.8780081907855433
1708434554.1179755,-2.141040563583374,-1.3330810827067872,-2.526037041340963,6.107963549881735,1.0161995887756348,-2.878005329762594
1708434554.1199603,-2.1410088539123535,-1.3330887270024796,-2.525965754185812,6.1079914448554895,1.016219139099121,-2.878017250691549
1708434554.1219463,-2.1410157680511475,-1.333110125069954,-2.525987688695089,6.107947098999777,1.0161950588226318,-2.8779800573932093
1708434554.1239796,-2.1409707069396973,-1.3330972653678437,-2.5260117689715784,6.108020055084982,1.0162371397018433,-2.878033701573507
1708434554.1259422,-2.1409831047058105,-1.3330444705537339,-2.5259996096240442,6.107959019928732,1.0162162780761719,-2.878037993107931
1708434554.1279588,-2.1410088539123535,-1.3330410432866593,-2.5260327498065394,6.1079726097877405,1.0162280797958374,-2.8779800573932093
1708434554.1299462,-2.1409952640533447,-1.3331006479314347,-2.526020590459005,6.108020055084982,1.0161876678466797,-2.878009859715597
1708434554.131969,-2.1409919261932373,-1.3331382435611268,-2.5259953180896204,6.107979881554403,1.0161831378936768,-2.878017250691549
1708434554.1339438,-2.14103627204895,-1.333122045998909,-2.5259907881366175,6.1079574702079675,1.0161832571029663,-2.878033701573507
1708434554.135947,-2.1410655975341797,-1.333092988734581,-2.5259910265551966,6.107954489975729,1.016190528869629,-2.8779965082751673
1708434554.1379848,-2.141045093536377,-1.3330648851445694,-2.5259624163257044,6.107970940857687,1.0161786079406738,-2.878017250691549
1708434554.1399913,-2.1410701274871826,-1.3330972802690049,-2.525987688695089,6.107979881554403,1.016196608543396,-2.878005329762594
1708434554.1419752,-2.1410317420959473,-1.3331253987601777,-2.5260325113879603,6.10797547081069,1.0162073373794556,-2.8779874483691614
1708434554.1439908,-2.14103627204895,-1.3331296753934403,-2.5260120073901575,6.1079680798347376,1.016219139099121,-2.8779800573932093
1708434554.1459517,-2.1410317420959473,-1.3330972802690049,-2.525987688695089,6.10802315452651,1.0162028074264526,-2.87803823152651
1708434554.1479633,-2.1410000324249268,-1.3330972504666825,-2.5259535948382776,6.1079516289527795,1.016211748123169,-2.878005329762594
1708434554.1499493,-2.1410088539123535,-1.333088756804802,-2.526008431111471,6.107954489975729,1.016211748123169,-2.8780351320849817
1708434554.151964,-2.1410181522369385,-1.3331382435611268,-2.5259745756732386,6.107982623368063,1.0161906480789185,-2.878029171620504
1708434554.1539598,-2.1410701274871826,-1.333121122126915,-2.5259745756732386,6.107966530113973,1.0162162780761719,-2.878000799809591
1708434554.1559613,-2.1410655975341797,-1.3330486875823517,-2.5260325113879603,6.1079914448554895,1.0162162780761719,-2.877960745488302
1708434554.157944,-2.1410181522369385,-1.3330648851445694,-2.526037041340963,6.107966530113973,1.0162039995193481,-2.878037993107931
1708434554.1599455,-2.1410000324249268,-1.3331253987601777,-2.5259833971606653,6.1079304096992395,1.0161741971969604,-2.878026072178976
1708434554.1619406,-2.1410317420959473,-1.3331210774234314,-2.5259581247912806,6.107954609185018,1.0161741971969604,-2.878042523060934
1708434554.163961,-2.14104962348938,-1.33308960617099,-2.526041332875387,6.107959019928732,1.0162073373794556,-2.878021780644552
1708434554.1659582,-2.14104962348938,-1.3330606085113068,-2.5259879271136683,6.107982623368063,1.0161786079406738,-2.878005329762594
1708434554.167959,-2.1410317420959473,-1.3331177693656464,-2.5259550253497522,6.107942569046774,1.0162162780761719,-2.877988878880636
1708434554.1699772,-2.141040563583374,-1.3331058484366913,-2.5259745756732386,6.10793815830306,1.016211748123169,-2.877986017857687
1708434554.1719506,-2.1409876346588135,-1.3330844205668946,-2.525944773350851,6.107979881554403,1.0161741971969604,-2.878026310597555
1708434554.1739917,-2.1410982608795166,-1.3331306886724015,-2.526008431111471,6.107920276909628,1.0162582397460938,-2.8780143896686
1708434554.1759508,-2.1409952640533447,-1.3330973249724885,-2.5260074774371546,6.107941138535299,1.01617431640625,-2.877968136464254
1708434554.1779819,-2.141049861907959,-1.333129660492279,-2.5259745756732386,6.108008134156027,1.0161786079406738,-2.877984587346212
1708434554.1799493,-2.141049861907959,-1.3330529642156144,-2.5259504953967493,6.107970940857687,1.0161712169647217,-2.877988878880636
1708434554.1819494,-2.1410655975341797,-1.3330768060735245,-2.5259953180896204,6.108003723412313,1.0161787271499634,-2.8780186812030237
1708434554.1840184,-2.141045093536377,-1.3331372898868104,-2.5259996096240442,6.107994782715597,1.016157865524292,-2.878033701573507
1708434554.185954,-2.14104962348938,-1.333069161777832,-2.5260208288775843,6.108006703644552,1.0162162780761719,-2.877922836934225
1708434554.188014,-2.1410226821899414,-1.3330682826093216,-2.5260193983661097,6.107990252762594,1.0161950588226318,-2.877993408833639
1708434554.1900733,-2.1410655975341797,-1.3330820512822648,-2.5259667078601282,6.1079620001609705,1.016228199005127,-2.8780186812030237
1708434554.1919794,-2.1410903930664062,-1.333110125069954,-2.5259864966021937,6.107954609185018,1.016153335571289,-2.877956215535299
1708434554.1939623,-2.1410157680511475,-1.3330649000457306,-2.5259791056262415,6.107966530113973,1.016211748123169,-2.877988878880636
1708434554.1959522,-2.1410112380981445,-1.333101601605751,-2.5260282198535364,6.107942569046774,1.0161995887756348,-2.8780186812030237
1708434554.1979697,-2.1410067081451416,-1.3330887270024796,-2.5260029474841517,6.107963549881735,1.0161995887756348,-2.8780351320849817
1708434554.1999555,-2.141040563583374,-1.3331210625222703,-2.5259745756732386,6.107959019928732,1.0162073373794556,-2.877960745488302
1708434554.2019653,-2.14103627204895,-1.3330682528069993,-2.5260117689715784,6.10791705825881,1.0162403583526611,-2.8779905478106897
1708434554.2039986,-2.1410701274871826,-1.3330972802690049,-2.5259879271136683,6.107942688256063,1.0161995887756348,-2.8779526392566126
1708434554.2059867,-2.1410226821899414,-1.3330648851445694,-2.5259667078601282,6.10797809341506,1.016211748123169,-2.8780115286456507
1708434554.2080016,-2.1410272121429443,-1.333104894762375,-2.5260074774371546,6.1080126641090295,1.016157865524292,-2.877956215535299
1708434554.2099586,-2.141049861907959,-1.3331006479314347,-2.5259953180896204,6.1079620001609705,1.0162028074264526,-2.878002468739645
1708434554.2119672,-2.1409952640533447,-1.3330844354680558,-2.5260162989245813,6.107936608582296,1.016211748123169,-2.878030602131979
1708434554.2139592,-2.1410317420959473,-1.3330605787089844,-2.5260325113879603,6.108024585037985,1.016211748123169,-2.8780022303210657
1708434554.215975,-2.141040563583374,-1.3331006479314347,-2.5260074774371546,6.107973563462057,1.0162162780761719,-2.8780069986926478
1708434554.2179587,-2.1410937309265137,-1.3330563616803666,-2.5259910265551966,6.10797547081069,1.0162039995193481,-2.8779740969287317
1708434554.2199733,-2.1410768032073975,-1.3330810827067872,-2.5259490648852747,6.108052837639608,1.016207218170166,-2.8779481093036097
1708434554.2219648,-2.140990734100342,-1.3331210923245926,-2.525965754185812,6.107994782715597,1.0162041187286377,-2.877969566975729
1708434554.2239656,-2.141045093536377,-1.3330767911723633,-2.5259624163257044,6.107982623368063,1.016211748123169,-2.877960745488302
1708434554.2259612,-2.141052007675171,-1.333129660492279,-2.5260029474841517,6.107990252762594,1.0161995887756348,-2.877976957951681
1708434554.227984,-2.141052007675171,-1.333114431505539,-2.5260120073901575,6.107982623368063,1.0162614583969116,-2.8779481093036097
1708434554.2299516,-2.1410815715789795,-1.3330725592425843,-2.5259907881366175,6.10797547081069,1.0161832571029663,-2.8780515829669397
1708434554.2319841,-2.1410815715789795,-1.3330358427814026,-2.5260239283191126,6.1079620001609705,1.016208529472351,-2.8779361883746546
1708434554.2339606,-2.1410679817199707,-1.333068237905838,-2.5259702841388147,6.1079620001609705,1.0161876678466797,-2.877969566975729
1708434554.235964,-2.1410317420959473,-1.3330520403436203,-2.5259535948382776,6.108027565270223,1.0161950588226318,-2.8780022303210657
1708434554.2379663,-2.1410181522369385,-1.3331177693656464,-2.5260074774371546,6.107935058861532,1.016208529472351,-2.877965037022726
1708434554.239966,-2.1410229206085205,-1.3330810827067872,-2.5259953180896204,6.108015763550558,1.016211748123169,-2.8779524008380335
1708434554.2419672,-2.1410136222839355,-1.3330887270024796,-2.525965754185812,6.107982623368063,1.0162280797958374,-2.8779950777636927
1708434554.2439427,-2.1410770416259766,-1.333146945839264,-2.5259745756732386,6.107994782715597,1.0162162780761719,-2.8779361883746546
1708434554.2459755,-2.1410610675811768,-1.3330887121013184,-2.5259578863727015,6.107973563462057,1.016211748123169,-2.877997938786642
1708434554.2479599,-2.1410136222839355,-1.333068237905838,-2.5259953180896204,6.108090626984396,1.0162280797958374,-2.8779571692096155
1708434554.2499917,-2.14103627204895,-1.3330930185369034,-2.525987688695089,6.108027565270223,1.0162208080291748,-2.8779905478106897
1708434554.2519917,-2.141056537628174,-1.33310920119796,-2.5260446707354944,6.107994782715597,1.016223669052124,-2.877997938786642
1708434554.2539618,-2.1410725116729736,-1.3330768060735245,-2.5259864966021937,6.10797809341506,1.0162206888198853,-2.877965037022726
1708434554.2559712,-2.141052007675171,-1.333129660492279,-2.5260029474841517,6.107982623368063,1.0162039995193481,-2.8779435793506067
1708434554.2579465,-2.1410725116729736,-1.3330487620881577,-2.5260313192950647,6.108048546105184,1.016211748123169,-2.877981487904684
1708434554.259986,-2.1410768032073975,-1.3330768060735245,-2.5259833971606653,6.108018624573507,1.0162280797958374,-2.8779526392566126
1708434554.261936,-2.141047716140747,-1.3330724996379395,-2.5260162989245813,6.108042704849996,1.0161669254302979,-2.877984587346212
1708434554.2639775,-2.1410927772521973,-1.3331253987601777,-2.5260074774371546,6.108030545502462,1.016211748123169,-2.877976957951681
1708434554.2659614,-2.1410937309265137,-1.3330973100713273,-2.5259864966021937,6.108072626381674,1.0162162780761719,-2.877956215535299
1708434554.267958,-2.1410892009735107,-1.3331624579480668,-2.5259581247912806,6.108021485596456,1.016223669052124,-2.8780115286456507
1708434554.2699728,-2.141047716140747,-1.3331210923245926,-2.5259953180896204,6.108038174896993,1.0162162780761719,-2.877986017857687
1708434554.271981,-2.1410768032073975,-1.3331168454936524,-2.5260074774371546,6.108018624573507,1.0162129402160645,-2.8779950777636927
1708434554.273954,-2.1410610675811768,-1.3330649149468918,-2.5259953180896204,6.10802315452651,1.0162403583526611,-2.877981487904684
1708434554.2759514,-2.1410892009735107,-1.3330768060735245,-2.5260074774371546,6.107984173088827,1.016244888305664,-2.877969566975729
1708434554.2779503,-2.141080379486084,-1.333076835875847,-2.5259996096240442,6.10806821563796,1.0161787271499634,-2.877965037022726
1708434554.2799628,-2.1410655975341797,-1.333121122126915,-2.5260074774371546,6.108062016754904,1.0161950588226318,-2.8780351320849817
1708434554.2819488,-2.141084909439087,-1.33310920119796,-2.5260117689715784,6.1080665467079065,1.0162327289581299,-2.877981487904684
1708434554.2839463,-2.141056537628174,-1.333092988734581,-2.5259910265551966,6.108096825867452,1.0162162780761719,-2.8780186812030237
1708434554.2860227,-2.1410634517669678,-1.33311681569133,-2.5259700457202356,6.108071076660909,1.0161906480789185,-2.8779271284686487
1708434554.2880182,-2.1410679817199707,-1.333088682298996,-2.5260327498065394,6.1080877659614465,1.016211748123169,-2.877988878880636
1708434554.2900167,-2.1410610675811768,-1.3331091862967988,-2.5260117689715784,6.108059155731954,1.0162403583526611,-2.877965037022726
1708434554.2919652,-2.141056537628174,-1.3331006181291123,-2.5260356108294886,6.108071076660909,1.0162146091461182,-2.877972666417257
1708434554.293984,-2.1410679817199707,-1.333044396047928,-2.525987688695089,6.108095156937399,1.016207218170166,-2.877997938786642
1708434554.2959504,-2.14111065864563,-1.3331006479314347,-2.5260193983661097,6.1080877659614465,1.016223669052124,-2.877965037022726
1708434554.2980163,-2.1410973072052,-1.3330853593400498,-2.5260074774371546,6.108081805496969,1.016249418258667,-2.877997938786642
1708434554.29996,-2.1410725116729736,-1.33310920119796,-2.5259910265551966,6.108095156937399,1.0162571668624878,-2.877997938786642
1708434554.3019602,-2.141108512878418,-1.3331253987601777,-2.5260193983661097,6.108057486801901,1.0162525177001953,-2.878009859715597
1708434554.3039732,-2.1410892009735107,-1.333113433127739,-2.525998655949728,6.108105170517721,1.0161906480789185,-2.8780515829669397
1708434554.305968,-2.1411244869232178,-1.333121122126915,-2.52598220506777,6.108151900559225,1.0162312984466553,-2.877956215535299
1708434554.3079588,-2.1410927772521973,-1.333121122126915,-2.5260074774371546,6.108115780144491,1.0162525177001953,-2.878030602131979
1708434554.3099818,-2.1410715579986572,-1.333112583761551,-2.5260356108294886,6.108079898148336,1.0162146091461182,-2.877968136464254
1708434554.3119493,-2.141080379486084,-1.3331253987601777,-2.5260029474841517,6.108151781349935,1.0162144899368286,-2.878009859715597
1708434554.3139493,-2.141047716140747,-1.3330767911723633,-2.526004139577047,6.108151900559225,1.0162312984466553,-2.8779800573932093
1708434554.3160033,-2.141084909439087,-1.3330811125091095,-2.5260074774371546,6.108079898148336,1.0162312984466553,-2.878009859715597
1708434554.3179636,-2.1410892009735107,-1.3330554080060502,-2.5259791056262415,6.108133780747213,1.0162615776062012,-2.878030602131979
1708434554.3199859,-2.1410388946533203,-1.333113433127739,-2.5260029474841517,6.108150231629171,1.016226887702942,-2.8779471556292933
1708434554.321952,-2.141052007675171,-1.3331253987601777,-2.5260074774371546,6.108105170517721,1.0162570476531982,-2.87803823152651
1708434554.3239946,-2.141080379486084,-1.3331580770066758,-2.5260565916644495,6.108133899956503,1.0162146091461182,-2.8780246416675013
1708434554.3259487,-2.141075849533081,-1.3330810380033036,-2.5260523001300257,6.10817431190566,1.0162571668624878,-2.878009859715597
1708434554.3279612,-2.141104221343994,-1.333084450369217,-2.5259745756732386,6.108199822693624,1.0162525177001953,-2.878017250691549
1708434554.3299484,-2.1410884857177734,-1.3331253987601777,-2.5260611216174524,6.108117449074545,1.0162599086761475,-2.878012720738546
1708434554.3319736,-2.1411218643188477,-1.3331373196891327,-2.5260282198535364,6.108105170517721,1.0162644386291504,-2.878012720738546
1708434554.333944,-2.141108512878418,-1.3331091862967988,-2.5260193983661097,6.1081697819526575,1.016309380531311,-2.8780790011035364
1708434554.3359525,-2.1410839557647705,-1.3331253838590165,-2.5260074774371546,6.1081710932548425,1.0162792205810547,-2.8780482451068323
1708434554.3380167,-2.1410927772521973,-1.3330844652703782,-2.5259700457202356,6.108145701676168,1.0163171291351318,-2.878017250691549
1708434554.3399851,-2.141084909439087,-1.3331082475236435,-2.5260523001300257,6.108260857849874,1.0163172483444214,-2.878050152455465
1708434554.3419683,-2.141113042831421,-1.333133877520897,-2.5260029474841517,6.108211743622579,1.016312599182129,-2.878066364918844
1708434554.3439837,-2.1410839557647705,-1.3331125986627121,-2.526010576878683,6.108141171723165,1.0163289308547974,-2.8780654112445276
1708434554.345944,-2.1410634517669678,-1.3331125390580674,-2.525965754185812,6.108123290329733,1.0162945985794067,-2.8780699411975306
1708434554.3479831,-2.141059160232544,-1.3331211370280762,-2.5260356108294886,6.108193743019857,1.0163486003875732,-2.8781281153308313
1708434554.3499777,-2.1411244869232178,-1.3330520403436203,-2.526080910359518,6.108147370606222,1.0163486003875732,-2.8780937830554407
1708434554.351972,-2.1410884857177734,-1.333056391482689,-2.5260074774371546,6.108251797943868,1.0163273811340332,-2.8780608812915247
1708434554.353949,-2.141108512878418,-1.3331049394658585,-2.5260074774371546,6.108233916550436,1.0163486003875732,-2.87807280222048
1708434554.355943,-2.1411173343658447,-1.333153785472252,-2.5260401407824915,6.108238446503439,1.016351580619812,-2.878080193196432
1708434554.3579836,-2.141080379486084,-1.3331373047879715,-2.526048008595602,6.108217465668478,1.016335129737854,-2.878063980733053
1708434554.3599885,-2.1411173343658447,-1.333140881066658,-2.5260523001300257,6.108292567520895,1.0163800716400146,-2.878084723149435
1708434554.3619432,-2.141075849533081,-1.3331091713956376,-2.526018206273214,6.108241307526388,1.0164130926132202,-2.8781474272357386
1708434554.3640325,-2.141122579574585,-1.3331296157887955,-2.526010576878683,6.108289229660787,1.0163878202438354,-2.878141466771261
1708434554.3659413,-2.141108512878418,-1.3331168603948136,-2.5260401407824915,6.10826991775588,1.0163967609405518,-2.878136936818258
1708434554.3679464,-2.141111135482788,-1.3331168603948136,-2.526006285344259,6.1083072302635095,1.0163679122924805,-2.8781591097461146
1708434554.3699434,-2.141111135482788,-1.3330844801715394,-2.5260642210589808,6.108232247620382,1.016395092010498,-2.878145758305685
1708434554.371996,-2.1410884857177734,-1.3331081432155152,-2.526026789342062,6.10829375961379,1.016420602798462,-2.8781781832324427
1708434554.3739436,-2.1410794258117676,-1.3330963563970109,-2.526076380406515,6.10831497886733,1.0164204835891724,-2.8781407515155237
1708434554.37595,-2.141127109527588,-1.3331168454936524,-2.526026789342062,6.108236777573385,1.016437292098999,-2.8781824747668665
1708434554.3779707,-2.1411361694335938,-1.3330810827067872,-2.526039187108175,6.1083059189613245,1.016416072845459,-2.87819749513735
1708434554.3799486,-2.1410927772521973,-1.333112583761551,-2.526097122822897,6.108272778778829,1.0163997411727905,-2.87819749513735
1708434554.3819604,-2.141115665435791,-1.3330682826093216,-2.5260215441333216,6.108289229660787,1.0164568424224854,-2.8782511393176478
1708434554.383996,-2.141104221343994,-1.3331253838590165,-2.5260544458972376,6.108350384026327,1.0164613723754883,-2.878213946019308
1708434554.3859568,-2.1410927772521973,-1.333104894762375,-2.5261197725879114,6.1083295224006555,1.016501784324646,-2.878204886113302
1708434554.3880124,-2.141099691390991,-1.3331373196891327,-2.5261197725879114,6.108353602677145,1.0164809226989746,-2.8782241980182093
1708434554.3900337,-2.1411244869232178,-1.3331211072257538,-2.5261529127704065,6.108315932541647,1.0164551734924316,-2.8782621065722864
1708434554.3920972,-2.141120195388794,-1.333133028154709,-2.5261314550982874,6.108315932541647,1.0164927244186401,-2.8783066908465784
1708434554.3940334,-2.141104221343994,-1.3331452769092103,-2.5260782877551478,6.108281600266256,1.0165201425552368,-2.878284517918722
1708434554.3959982,-2.1411244869232178,-1.3331125688603898,-2.526151482258932,6.108393895417013,1.0165528059005737,-2.8783262411700647
1708434554.3979914,-2.1411404609680176,-1.3331287664226075,-2.526142660771505,6.1083446619804285,1.0165201425552368,-2.878312651311056
1708434554.3999798,-2.1411561965942383,-1.3330844652703782,-2.526184145604269,6.108422505646505,1.0165528059005737,-2.878308121358053
1708434554.4020336,-2.1410927772521973,-1.3330758673003693,-2.526187245045797,6.10838936546401,1.0165528059005737,-2.8783414999591272
1708434554.404032,-2.1410748958587646,-1.3331091564944764,-2.526170794163839,6.108413445740499,1.0165680646896362,-2.8783414999591272
1708434554.405992,-2.1410748958587646,-1.3331700724414368,-2.526203457509176,6.108351933747091,1.0166056156158447,-2.878374163304464
1708434554.407988,-2.1411020755767822,-1.3331091564944764,-2.526170794163839,6.108392584114828,1.0166174173355103,-2.87843901315798
1708434554.4099784,-2.1411244869232178,-1.3331373494914551,-2.5262323061572474,6.108445870667257,1.0166175365447998,-2.8783755938159388
1708434554.411988,-2.1411495208740234,-1.3331581068089982,-2.5262280146228235,6.108413445740499,1.016603946685791,-2.878455464039938
1708434554.4139977,-2.1411449909210205,-1.3331092310002823,-2.5262485186206263,6.10845040062026,1.0166534185409546,-2.8783965746508997
1708434554.4159913,-2.141170024871826,-1.3331415367177506,-2.526219193135397,6.108432519226827,1.016689658164978,-2.87842828432192
1708434554.418031,-2.1410953998565674,-1.333161474471428,-2.52621037164797,6.108494269638815,1.0166566371917725,-2.8784030119525355
1708434554.4200275,-2.1411449909210205,-1.3331776422313233,-2.5262723604785364,6.10846112945632,1.0166897773742676,-2.8784616629229944
1708434554.4219992,-2.141131639480591,-1.3331539046815415,-2.526259247456686,6.108473050385275,1.0166852474212646,-2.8784974257098597
1708434554.423993,-2.141106605529785,-1.3331244003823777,-2.5262561480151575,6.108522641449728,1.016709327697754,-2.878530804310934
1708434554.4260187,-2.141118049621582,-1.3331495535424729,-2.52621037164797,6.108531582146444,1.0167347192764282,-2.878575388585226
1708434554.4279912,-2.141127109527588,-1.3331372749856492,-2.526313130055563,6.108483540802755,1.0167495012283325,-2.8785203138934534
1708434554.4300148,-2.141131639480591,-1.3331287664226075,-2.526287619267599,6.10856722572402,1.0167313814163208,-2.8785739580737513
1708434554.431971,-2.1411359310150146,-1.3331125688603898,-2.526259247456686,6.108516442566671,1.016785740852356,-2.8785486857043665
1708434554.4340215,-2.1411540508270264,-1.3331453067115326,-2.526304308568136,6.108483540802755,1.0167841911315918,-2.8785350958453577
1708434554.4360301,-2.141120195388794,-1.3331528466990967,-2.526275936757223,6.108533131867208,1.016800880432129,-2.8785842100726526
1708434554.4380252,-2.1411404609680176,-1.3331528466990967,-2.526267115269796,6.10847173908309,1.0168625116348267,-2.87864596048464
1708434554.439983,-2.1410906314849854,-1.3331168454936524,-2.526328150426046,6.108537661820211,1.016808271408081,-2.8786502520190638
1708434554.4419847,-2.141111135482788,-1.3331201386502762,-2.52633244196047,6.1085537550743005,1.0168789625167847,-2.878678623829977
1708434554.4440005,-2.1410748958587646,-1.3331614595702668,-2.5263193289386194,6.108544814377584,1.0168941020965576,-2.8786607424365442
1708434554.445998,-2.1410906314849854,-1.3331615042737504,-2.52635103860964,6.108598696976461,1.0168941020965576,-2.8787151018725794
1708434554.4479818,-2.1411404609680176,-1.3331898760846634,-2.5263267199145716,6.108594405442037,1.016897201538086,-2.8787298838244837
1708434554.4499588,-2.1411359310150146,-1.333188847904541,-2.526317898427145,6.108613598137655,1.0169540643692017,-2.8787434736834925
1708434554.4519854,-2.141122579574585,-1.3331357848695298,-2.526367489491598,6.108588206558981,1.0169377326965332,-2.8787580172168177
1708434554.4539812,-2.1411519050598145,-1.3331803989461442,-2.526395622883932,6.108609187393942,1.016996145248413,-2.878753725682394
1708434554.4560053,-2.1411359310150146,-1.3332374107888718,-2.526400152836935,6.108649718552389,1.0169858932495117,-2.878756586705343
1708434554.4580228,-2.141099691390991,-1.3332332086614151,-2.526383701954977,6.108628737717428,1.0169769525527954,-2.8787933031665247
1708434554.4599643,-2.1410906314849854,-1.33323226988826,-2.526407782231466,6.108698951988973,1.0169798135757446,-2.8788514772998255
1708434554.4619646,-2.141122579574585,-1.3331909489682694,-2.526407543812887,6.108715283661642,1.017021894454956,-2.87880522409548
1708434554.46401,-2.1411449909210205,-1.3332398247769852,-2.5263944307910364,6.108610856323995,1.0170292854309082,-2.8788707892047327
1708434554.4659812,-2.141115665435791,-1.3332682710937043,-2.5263856093036097,6.108716952591696,1.0170533657073975,-2.8789027372943323
1708434554.4679816,-2.141127109527588,-1.3332474839738389,-2.526419464741842,6.108709203987875,1.017102837562561,-2.8789191881762903
1708434554.470015,-2.1411564350128174,-1.3332801771214982,-2.5264645258532923,6.108655559807577,1.0171183347702026,-2.8788848559008997
1708434554.4719844,-2.141115665435791,-1.3332354438355942,-2.5264347235309046,6.108667361527242,1.0171419382095337,-2.8789010683642786
1708434554.4739919,-2.141111135482788,-1.3333006364158173,-2.5264645258532923,6.108701932221212,1.0171583890914917,-2.878991190587179
1708434554.4760048,-2.1411564350128174,-1.3332271140864869,-2.5264886061297815,6.108728873520651,1.0172110795974731,-2.878965679799215
1708434554.477983,-2.1411540508270264,-1.33332875490699,-2.5264914671527308,6.108651029854574,1.0171359777450562,-2.8789354006396692
1708434554.4800136,-2.1411495208740234,-1.3333165061524888,-2.526479784642355,6.108676421433248,1.0172396898269653,-2.8789849917041224
1708434554.481968,-2.141127109527588,-1.3332811158946534,-2.526499334965841,6.108691203385153,1.017208218574524,-2.8789952437030237
1708434554.4840128,-2.1411428451538086,-1.3333330017379303,-2.52651554742922,6.108716952591696,1.0172834396362305,-2.8790624777423304
1708434554.4859877,-2.141122579574585,-1.3332994294217606,-2.5264621416675013,6.108757126122274,1.0172908306121826,-2.879040066395895
1708434554.488041,-2.1411404609680176,-1.3332682412913819,-2.5265145937549036,6.108701932221212,1.0172698497772217,-2.879115883504049
1708434554.4900227,-2.1411845684051514,-1.3333202463439484,-2.526505772267477,6.1087317345436,1.0173312425613403,-2.8791640440570276
1708434554.4920259,-2.1411564350128174,-1.3332844537547608,-2.5265308062182825,6.108757126122274,1.0172805786132812,-2.8791423479663294
1708434554.4939785,-2.141131639480591,-1.333312214618065,-2.5265265146838587,6.108764874726095,1.0173674821853638,-2.87917143503298
1708434554.4959762,-2.141120195388794,-1.33332875490699,-2.52653414407839,6.108752715378561,1.0173794031143188,-2.879190508519308
1708434554.4979923,-2.141122579574585,-1.3332673770240326,-2.526604239140646,6.108743655472555,1.0173659324645996,-2.8791564146624964
1708434554.499968,-2.141127109527588,-1.3332312268069764,-2.526566807423727,6.108736264496603,1.0174108743667603,-2.8792277018176478
1708434554.5019646,-2.1411609649658203,-1.3333093237927933,-2.526607338582174,6.108767497330465,1.0174140930175781,-2.8792508284198206
1708434554.5039868,-2.141113519668579,-1.3333165061524888,-2.52663237253298,6.108795869141378,1.0174680948257446,-2.8792746702777308
1708434554.5059817,-2.1411564350128174,-1.3333207678845902,-2.5266147295581263,6.1088048098380945,1.0174620151519775,-2.879265610371725
1708434554.5079887,-2.141122341156006,-1.3332844537547608,-2.5266147295581263,6.108808028488912,1.0175117254257202,-2.879273001347677
1708434554.5099995,-2.1411449909210205,-1.3332878363183518,-2.5266016165362757,6.1088318703468225,1.0175145864486694,-2.87930137315859
1708434554.511978,-2.1410906314849854,-1.3333006364158173,-2.5266671816455286,6.10882447937087,1.0174741744995117,-2.879322115574972
1708434554.5139668,-2.141115665435791,-1.3332921874574204,-2.5266552607165735,6.1088154194648645,1.0175312757492065,-2.8793211619006556
1708434554.5159957,-2.1411020755767822,-1.3333092045835038,-2.5266760031329554,6.108860480576315,1.0175718069076538,-2.8793168703662317
1708434554.5179818,-2.141115665435791,-1.3333080571940918,-2.526658360158102,6.108881461411276,1.0175750255584717,-2.879319731389181
1708434554.5199685,-2.141111135482788,-1.3332631301930924,-2.526675049458639,6.108839499741354,1.017594337463379,-2.879319731389181
1708434554.522021,-2.1411519050598145,-1.3333525967649003,-2.526703182850973,6.1088634608085535,1.017611026763916,-2.8794060389148157
1708434554.5240111,-2.1411609649658203,-1.3332887154868622,-2.526691261922018,6.1088634608085535,1.0175853967666626,-2.879371706639425
1708434554.525996,-2.141120195388794,-1.3333408397487183,-2.5267184416400355,6.108888494759359,1.0176514387130737,-2.8794577757464808
1708434554.5279732,-2.1411404609680176,-1.3333122444203873,-2.526736084614889,6.1088929055030725,1.0176502466201782,-2.8794475237475794
1708434554.529995,-2.1411359310150146,-1.3333611351302643,-2.5267062822925013,6.10888837555007,1.0177297592163086,-2.8794949690448206
1708434554.5320144,-2.141181468963623,-1.3332835745862504,-2.526731793080465,6.108878242760458,1.0177356004714966,-2.8795023600207728
1708434554.5339718,-2.141131639480591,-1.3332921874574204,-2.5267513434039515,6.108854400902548,1.0177356004714966,-2.879489008580343
1708434554.5359886,-2.1411449909210205,-1.3332750362208863,-2.5267303625689905,6.108903634339132,1.0176938772201538,-2.8795023600207728
1708434554.538023,-2.1411449909210205,-1.3333364141038437,-2.5267916361438196,6.10892008522109,1.017767071723938,-2.8795133272754114
1708434554.5400221,-2.1411609649658203,-1.3332994294217606,-2.526799027119772,6.108891713410177,1.0177793502807617,-2.8795045057879847
1708434554.5419924,-2.1411449909210205,-1.3333483201316376,-2.526811424885885,6.10892008522109,1.0177825689315796,-2.8795343081103724
1708434554.544013,-2.1411473751068115,-1.3333449524692078,-2.526839796696798,6.108905064850607,1.0178108215332031,-2.879528347645895
1708434554.545974,-2.141106605529785,-1.3333483201316376,-2.526867930089132,6.108915555268087,1.017813801765442,-2.8795819918261927
1708434554.5479617,-2.141131639480591,-1.3333602410605927,-2.526872221623556,6.108857023506918,1.017830491065979,-2.879606310521261
1708434554.5499582,-2.141111135482788,-1.333332137470581,-2.5268264452563685,6.108882772713461,1.0178709030151367,-2.879618231450216
1708434554.5519793,-2.1411495208740234,-1.3333407652429123,-2.5269203821765345,6.10889624336318,1.0178993940353394,-2.879630152379171
1708434554.5539942,-2.141113519668579,-1.3333080571940918,-2.5269323031054896,6.10892008522109,1.0179113149642944,-2.879691187535421
1708434554.5559983,-2.141115665435791,-1.3333037060550232,-2.526911799107687,6.108882772713461,1.01796555519104,-2.8796449343310755
1708434554.557969,-2.1410953998565674,-1.3333687794259568,-2.526919190083639,6.108890044480123,1.0179640054702759,-2.8796613852130335
1708434554.5599678,-2.141127109527588,-1.33332875490699,-2.526939932500021,6.108944165497579,1.0179387331008911,-2.879685703908102
1708434554.5619886,-2.1410839557647705,-1.3332750660232087,-2.526931111012594,6.1089364168937585,1.0180089473724365,-2.879709545766012
1708434554.5639904,-2.1410906314849854,-1.3332844537547608,-2.5269179979907435,6.108981478005209,1.0179880857467651,-2.879768196736471
1708434554.566017,-2.141099691390991,-1.3333159548095246,-2.526992384587423,6.108915555268087,1.017991065979004,-2.8797174135791224
1708434554.5679715,-2.141120195388794,-1.3333491694978257,-2.5269342104541224,6.108948695450582,1.0180121660232544,-2.8797829786883753
1708434554.5699666,-2.1411540508270264,-1.3333122444203873,-2.5269835630999964,6.108922946244039,1.0179986953735352,-2.8797696272479456
1708434554.571993,-2.1411359310150146,-1.3332994294217606,-2.5269880930529993,6.108958947449484,1.018034815788269,-2.8797369639026087
1708434554.5739603,-2.1410627365112305,-1.3333483201316376,-2.5270119349109095,6.1090667126472376,1.0180302858352661,-2.879782025014059
1708434554.5759907,-2.141104221343994,-1.333320216541626,-2.5269747416125696,6.108956086426534,1.0180633068084717,-2.879814688359396
1708434554.5779858,-2.141104221343994,-1.3332951378873368,-2.526961628590719,6.108918416291036,1.0180917978286743,-2.879813257847921
1708434554.5800135,-2.1411449909210205,-1.3333407652429123,-2.527026955281393,6.10902618148879,1.0180710554122925,-2.8798134962665003
1708434554.5820324,-2.141108512878418,-1.3332921874574204,-2.5270569960223597,6.108972418099203,1.018099308013916,-2.879838530217306
1708434554.583986,-2.141115665435791,-1.3332749766162415,-2.526994291936056,6.108979928284445,1.0181233882904053,-2.8798535505877894
1708434554.5859818,-2.1410953998565674,-1.3333645176938553,-2.526994291936056,6.109037983208456,1.0181397199630737,-2.8798869291888636
1708434554.5880399,-2.1411244869232178,-1.3333364141038437,-2.527052704487936,6.108926164894857,1.0181759595870972,-2.8799269835101526
1708434554.5900407,-2.141104221343994,-1.33334735155616,-2.5270543734179896,6.108975398331442,1.0181552171707153,-2.8798778692828577
1708434554.5920374,-2.141099691390991,-1.3333560091308136,-2.527083937321798,6.108970868378439,1.0181552171707153,-2.879857126866476
1708434554.5939734,-2.1411495208740234,-1.3333201867393036,-2.5270305315600794,6.108958947449484,1.0182209014892578,-2.8799312750445765
1708434554.5959864,-2.141131639480591,-1.3333278608373185,-2.5270262400256556,6.109000670700826,1.0182616710662842,-2.879904810582296
1708434554.5979834,-2.1410748958587646,-1.3333397817662735,-2.5270870367633265,6.108958947449484,1.018215298652649,-2.879979674016134
1708434554.5999818,-2.141127109527588,-1.3333278757384797,-2.5270217100726526,6.108942615776815,1.0182360410690308,-2.879953924809591
1708434554.601968,-2.141131639480591,-1.3333853495172043,-2.5271077791797083,6.108963477402487,1.0182393789291382,-2.879953924809591
1708434554.6039839,-2.1410973072052,-1.3333354157260437,-2.5270946661578577,6.1089515564735315,1.018276572227478,-2.8799811045276087
1708434554.6059957,-2.141111135482788,-1.3333929789117356,-2.5271077791797083,6.108938205033102,1.0183173418045044,-2.8799691835986536
1708434554.60798,-2.1411402225494385,-1.333412767653801,-2.5271032492267054,6.108960497170248,1.018301010131836,-2.8799811045276087
1708434554.6100285,-2.1410953998565674,-1.3333886873773118,-2.5271111170398157,6.109021532326498,1.0183038711547852,-2.8799930254565638
1708434554.6119952,-2.1410953998565674,-1.333363876943924,-2.5270782152758997,6.10905014255599,1.0183488130569458,-2.879960362111227
1708434554.613988,-2.141170024871826,-1.3333638620427628,-2.5270989576922815,6.1089515564735315,1.0183309316635132,-2.8800302187549036
1708434554.615993,-2.1411449909210205,-1.333441511993744,-2.5270782152758997,6.1089680073554895,1.0183309316635132,-2.8799975554095667
1708434554.618016,-2.141099691390991,-1.333387629394867,-2.527102295552389,6.108966457634725,1.0184060335159302,-2.8800461927997034
1708434554.6199958,-2.141113042831421,-1.3334048700383683,-2.5270782152758997,6.108979928284445,1.0183806419372559,-2.880024019871847
1708434554.6220183,-2.1411244869232178,-1.33334735155616,-2.52714711824526,6.1090290425117395,1.0183790922164917,-2.8800907770739954
1708434554.6240463,-2.1411244869232178,-1.3333929491094132,-2.5271440188037317,6.108984339028158,1.0183864831924438,-2.8801234404193323
1708434554.6259873,-2.1411333084106445,-1.333326907163002,-2.5271721521960657,6.108979928284445,1.0184329748153687,-2.8801072279559534
1708434554.62799,-2.1411173343658447,-1.3333886873773118,-2.527155939732687,6.10901569107131,1.0183864831924438,-2.8800938765155237
1708434554.630018,-2.1410927772521973,-1.3333344918540497,-2.527139488850729,6.1089918492134,1.0184659957885742,-2.8801117579089563
1708434554.63199,-2.1410672664642334,-1.333367259507515,-2.52714711824526,6.109023320465841,1.018457055091858,-2.880085055028097
1708434554.6339765,-2.141075849533081,-1.3333596003106614,-2.527155939732687,6.1089918492134,1.0184481143951416,-2.8801265398608606
1708434554.6359847,-2.141101598739624,-1.3333596003106614,-2.527163569127218,6.109048831253805,1.0184359550476074,-2.8801265398608606
1708434554.6380403,-2.1410973072052,-1.3333681386760254,-2.527179781590597,6.108999240189352,1.0184437036514282,-2.8801584879504603
1708434554.640014,-2.1410973072052,-1.3333559793284913,-2.5271547476397913,6.10895453670577,1.018473505973816,-2.880195919667379
1708434554.6419957,-2.1410388946533203,-1.333432899122574,-2.527167860661642,6.108994710236349,1.0184677839279175,-2.880108658467428
1708434554.6440296,-2.141059160232544,-1.3334610027125855,-2.527175251637594,6.109035241394796,1.0184930562973022,-2.880146567021505
1708434554.645978,-2.141059160232544,-1.333387629394867,-2.527182165776388,6.108985769539633,1.0185338258743286,-2.8801732699023646
1708434554.6479797,-2.1411402225494385,-1.333444820051529,-2.5271909872638147,6.1089738486106775,1.0185428857803345,-2.8801689783679407
1708434554.6500282,-2.141101598739624,-1.3334286224893113,-2.5271831194507044,6.109024631768026,1.0184661149978638,-2.8801570574389856
1708434554.6520288,-2.141080379486084,-1.3334200096181412,-2.5271742979632776,6.108969318657675,1.0185546875,-2.8801777998553675
1708434554.653995,-2.1411173343658447,-1.3334200096181412,-2.5272026697741907,6.109003770142355,1.018515944480896,-2.8802030722247522
1708434554.6560042,-2.141104221343994,-1.3333834272674103,-2.527186457310812,6.10901569107131,1.0185441970825195,-2.880180899296896
1708434554.6579585,-2.141059160232544,-1.3334200096181412,-2.5272191206561487,6.109008180886068,1.0185561180114746,-2.8802269140826624
1708434554.6599486,-2.1410973072052,-1.3334320050529023,-2.52720290819277,6.109027850418844,1.018560528755188,-2.8802016417132776
1708434554.6619735,-2.141075849533081,-1.333363876943924,-2.5272026697741907,6.109011161118307,1.018560528755188,-2.880237881337301
1708434554.6639733,-2.141108512878418,-1.3334320050529023,-2.527254883443014,6.108990180283346,1.0185728073120117,-2.88025147119631
1708434554.6659527,-2.1410317420959473,-1.333367259507515,-2.527259174977438,6.109027850418844,1.018560528755188,-2.8802207151996058
1708434554.6679823,-2.141080379486084,-1.3334610027125855,-2.527254883443014,6.1089918492134,1.018571138381958,-2.8801956812488
1708434554.669966,-2.141099691390991,-1.333399922852852,-2.5272672812091272,6.108933555870809,1.0185638666152954,-2.880216423665182
1708434554.6719637,-2.141113042831421,-1.333456740980484,-2.5272541681872767,6.109002101212301,1.0185593366622925,-2.880233351384298
1708434554.673985,-2.1410927772521973,-1.3334234815886994,-2.5272956530200403,6.109023320465841,1.0185593366622925,-2.880270544682638
1708434554.6759603,-2.1410679817199707,-1.3333791357329865,-2.5272629896747034,6.109032380371847,1.0186045169830322,-2.8802364508258265
1708434554.6779542,-2.1410634517669678,-1.333444820051529,-2.527250353490011,6.109044301300802,1.018613576889038,-2.880315367375509
1708434554.6799686,-2.1410892009735107,-1.3334005188992997,-2.527283493672506,6.10906349399642,1.0185878276824951,-2.8802900950061243
1708434554.681955,-2.141101598739624,-1.3334243607572098,-2.5272823015796106,6.109011161118307,1.018575668334961,-2.880282704030172
1708434554.6839898,-2.1410679817199707,-1.3333749038032074,-2.5272987524615687,6.109035241394796,1.0185878276824951,-2.8803139368640345
1708434554.685949,-2.14103627204895,-1.3333834272674103,-2.5273118654834192,6.108976709633627,1.0186283588409424,-2.8803399244891565
1708434554.6879761,-2.1410655975341797,-1.3334361922791977,-2.5272911230670374,6.109030711441793,1.0186446905136108,-2.8802900950061243
1708434554.6900523,-2.141084909439087,-1.3334200096181412,-2.5273073355304163,6.109035241394796,1.0186536312103271,-2.8803635279284876
1708434554.692011,-2.141084909439087,-1.3333956909230729,-2.5272541681872767,6.109042632370748,1.0186209678649902,-2.8803094069110315
1708434554.6940355,-2.141047716140747,-1.3334405583194275,-2.527238670979635,6.109021651535787,1.0186524391174316,-2.8802974859820765
1708434554.6959658,-2.1410768032073975,-1.333439664249756,-2.5272541681872767,6.108969318657675,1.0186536312103271,-2.8803473154651087
1708434554.6979635,-2.1410815715789795,-1.3334647429040452,-2.527254883443014,6.109047162323751,1.018623948097229,-2.880317274724142
1708434554.699975,-2.1410768032073975,-1.3334277433208008,-2.5272417704211634,6.10902630069808,1.0186446905136108,-2.8803337256061
1708434554.7019615,-2.141052007675171,-1.3334158223918458,-2.5272823015796106,6.108993160515585,1.0186491012573242,-2.880390707646505
1708434554.7039642,-2.141101598739624,-1.3334115606597443,-2.5272792021380823,6.109092223435201,1.0186691284179688,-2.8803427855121058
1708434554.7059693,-2.1410112380981445,-1.3334439259818573,-2.5272868315326136,6.109075772553243,1.0186809301376343,-2.88029128709902
1708434554.7079747,-2.141040563583374,-1.333444820051529,-2.5272911230670374,6.109063613205709,1.0187019109725952,-2.8803744951831263
1708434554.7099578,-2.1410655975341797,-1.3334481877139588,-2.527304236088888,6.109080302506246,1.0186854600906372,-2.880379025136129
1708434554.7119753,-2.1410768032073975,-1.3334115606597443,-2.527344528828756,6.109062301903524,1.0186809301376343,-2.880341116582052
1708434554.7139635,-2.1410181522369385,-1.333402932887413,-2.5272496382342737,6.109095084458151,1.0186721086502075,-2.8803818861590784
1708434554.7159908,-2.1410136222839355,-1.3334158223918458,-2.527299944554464,6.109024750977316,1.0186721086502075,-2.8803818861590784
1708434554.7179563,-2.141047716140747,-1.3334234666875382,-2.527278010045187,6.109069692879476,1.018655776977539,-2.8804190794574183
1708434554.719962,-2.1410634517669678,-1.3334604513696213,-2.527246061955587,6.109062301903524,1.0187095403671265,-2.8803847471820276
1708434554.7219644,-2.1410984992980957,-1.3334561747363587,-2.5272911230670374,6.109062301903524,1.018655776977539,-2.880413595830099
1708434554.7239816,-2.1410317420959473,-1.3334191155484696,-2.5272942225085657,6.109074342041769,1.0187169313430786,-2.880418125783102
1708434554.7259638,-2.141045093536377,-1.333398626451828,-2.5273149649249476,6.109136807709493,1.018676519393921,-2.8804317156421106
1708434554.727951,-2.1410317420959473,-1.333402932887413,-2.5272541681872767,6.109147298126974,1.0186645984649658,-2.8803966681109827
1708434554.729963,-2.1410610675811768,-1.333435298209526,-2.5272868315326136,6.109138238220968,1.0186928510665894,-2.88045841852297
1708434554.7319593,-2.1410725116729736,-1.3334766340306778,-2.5273399988757532,6.109159219055929,1.018683910369873,-2.880413595830099
1708434554.7339606,-2.141084909439087,-1.3334439408830185,-2.5272746721850794,6.10916684845046,1.0187005996704102,-2.88045841852297
1708434554.7359514,-2.141040563583374,-1.3334115606597443,-2.5273192564593714,6.109228002816,1.018688440322876,-2.880441967641012
1708434554.7379558,-2.1410679817199707,-1.3335013401559372,-2.5272985140429896,6.109207141190328,1.018683910369873,-2.880479160939352
1708434554.739948,-2.1410610675811768,-1.3334353131106873,-2.5272703806506556,6.109256255417623,1.018705129623413,-2.8804004828082483
1708434554.7419815,-2.141056537628174,-1.3334148538163682,-2.5273073355304163,6.109256255417623,1.0186675786972046,-2.8804450670825403
1708434554.743963,-2.1410725116729736,-1.33345182359729,-2.5272868315326136,6.109184610634603,1.01873779296875,-2.8804240862475794
1708434554.7459598,-2.1410937309265137,-1.3334158223918458,-2.5272954146014612,6.10921739318923,1.018683910369873,-2.880437437688009
1708434554.7479496,-2.1410181522369385,-1.3334200096181412,-2.527273480092184,6.109323966294088,1.0187095403671265,-2.880486551915304
1708434554.7499678,-2.1411030292510986,-1.3334756654552002,-2.5273192564593714,6.109308826714315,1.018688440322876,-2.8805199305163782
1708434554.7519364,-2.141047716140747,-1.333509014253952,-2.5273192564593714,6.1092203734214685,1.0186961889266968,-2.880486551915304
1708434554.7539542,-2.1410226821899414,-1.3334647131017228,-2.5273357073413294,6.10933397987441,1.0187095403671265,-2.8804777304278772
1708434554.7559407,-2.1410725116729736,-1.333402932887413,-2.5272746721850794,6.109351861267843,1.0186917781829834,-2.8805230299579065
1708434554.7579608,-2.1410768032073975,-1.3334234815886994,-2.527278010045187,6.1093716500099084,1.018688440322876,-2.8805437723742884
1708434554.7599547,-2.1410679817199707,-1.3334353131106873,-2.5273311773883265,6.109346139221945,1.018683910369873,-2.8804686705218714
1708434554.761988,-2.141049861907959,-1.3334267747453232,-2.5272868315326136,6.109395372658529,1.0186928510665894,-2.8804569880114954
1708434554.7639678,-2.1410679817199707,-1.3334647429040452,-2.5273311773883265,6.1093580601509,1.018705129623413,-2.8805111090289515
1708434554.7659752,-2.1410181522369385,-1.3334225130132218,-2.527318064366476,6.109365451126852,1.018676519393921,-2.8805065790759485
1708434554.7679427,-2.1410655975341797,-1.3334799271873017,-2.5273192564593714,6.109401452332296,1.0187125205993652,-2.8805185000049036
1708434554.76997,-2.1411027908325195,-1.3334723722985764,-2.5273399988757532,6.109446155815878,1.0186750888824463,-2.8804777304278772
1708434554.7719378,-2.14111065864563,-1.3334561747363587,-2.5273399988757532,6.10939251163558,1.0186917781829834,-2.8805094400988978
1708434554.7739918,-2.141106128692627,-1.3334432703307648,-2.5272746721850794,6.109462487488546,1.018733263015747,-2.8805304209338587
1708434554.775941,-2.1410679817199707,-1.3334885847619553,-2.527328077946798,6.109477746277609,1.018683910369873,-2.8805065790759485
1708434554.778057,-2.141080379486084,-1.3335126352361222,-2.527328077946798,6.1094281552131555,1.0187125205993652,-2.8804851214038294
1708434554.7800095,-2.1410937309265137,-1.333524228339531,-2.5272911230670374,6.109515177994528,1.01873779296875,-2.880493227635519
1708434554.781938,-2.1410679817199707,-1.33345519125972,-2.5273106733905237,6.109482276230612,1.018705129623413,-2.880537811909811
1708434554.783957,-2.141047716140747,-1.3334267747453232,-2.5273268858539026,6.109534728318014,1.0187125205993652,-2.8805511633502405
1708434554.7859294,-2.141104221343994,-1.3334390234998246,-2.527332369481222,6.109518039017477,1.018683910369873,-2.880505148564474
1708434554.787951,-2.1411218643188477,-1.3334790480187912,-2.5272954146014612,6.109558093338766,1.0186961889266968,-2.8805466333972376
1708434554.790046,-2.141101598739624,-1.333491863017418,-2.5272703806506556,6.109544741898336,1.0187499523162842,-2.8805466333972376
1708434554.7919624,-2.141075849533081,-1.3334961396506806,-2.5272985140429896,6.109577882080831,1.0187288522720337,-2.8806031386004847
1708434554.7940218,-2.1411244869232178,-1.3334799271873017,-2.527365271245138,6.1095971939857385,1.0187288522720337,-2.880537811909811
1708434554.795958,-2.1410884857177734,-1.333455206160881,-2.5272868315326136,6.109609353333273,1.018757700920105,-2.880540911351339
1708434554.797956,-2.141050338745117,-1.3335041117719193,-2.5273433367358606,6.109621274262228,1.0187095403671265,-2.880557123814718
1708434554.799989,-2.1410839557647705,-1.333504096870758,-2.5272942225085657,6.109661567002096,1.0186721086502075,-2.880540911351339
1708434554.8019445,-2.1410927772521973,-1.3334875863841553,-2.5273357073413294,6.109633195191183,1.0187125205993652,-2.88056451479067
1708434554.8039556,-2.1410927772521973,-1.3335285049727936,-2.5273357073413294,6.109751331597128,1.018705129623413,-2.880594317113058
1708434554.8059514,-2.141104221343994,-1.333491863017418,-2.5273073355304163,6.1097333309944055,1.0186721086502075,-2.8805809656726282
1708434554.8079507,-2.141131639480591,-1.3334985387376328,-2.5272703806506556,6.109749662667074,1.018705129623413,-2.8806305567370813
1708434554.8099391,-2.1411359310150146,-1.3334714037230988,-2.5272749106036585,6.109764802246847,1.018705129623413,-2.8806143442737024
1708434554.8119657,-2.1411244869232178,-1.333515615468361,-2.5272942225085657,6.109780895500936,1.018683910369873,-2.8806234041797083
1708434554.813988,-2.1410861015319824,-1.3334918481162568,-2.527332607899801,6.109788405686178,1.018683910369873,-2.8806098143206995
1708434554.8159611,-2.141131639480591,-1.3334790480187912,-2.5273478666888636,6.1098259566123865,1.0186928510665894,-2.8805933634387415
1708434554.8179834,-2.1411495208740234,-1.333467037682869,-2.5272746721850794,6.109824406891622,1.0187005996704102,-2.8806381861316126
1708434554.819941,-2.1411495208740234,-1.3334756654552002,-2.5273030439959925,6.109832036286154,1.018683910369873,-2.8806009928332728
1708434554.8219838,-2.1410975456237793,-1.3335404259017487,-2.5273237864123743,6.109884249954977,1.018705129623413,-2.8806143442737024
1708434554.8239763,-2.1411404609680176,-1.3334997457316895,-2.5273106733905237,6.109867799073019,1.0187095403671265,-2.8806620279895228
1708434554.825949,-2.1411449909210205,-1.3335168969682236,-2.5272987524615687,6.10991262176589,1.0187333822250366,-2.8806923071490687
1708434554.8279376,-2.141122341156006,-1.3335126352361222,-2.5272746721850794,6.109948622971334,1.0187005996704102,-2.8806381861316126
1708434554.8299725,-2.1411385536193848,-1.333536149268486,-2.5273073355304163,6.109964954644003,1.018705129623413,-2.8806663195239466
1708434554.831962,-2.1411473751068115,-1.3335317981294175,-2.5273399988757532,6.109972464829244,1.0186721086502075,-2.8806620279895228
1708434554.83396,-2.141195058822632,-1.333539531832077,-2.527261797581808,6.11000822761611,1.0187139511108398,-2.8806291262256067
1708434554.8359642,-2.1412084102630615,-1.333495558505394,-2.527289930974142,6.109990107804098,1.018688440322876,-2.8806291262256067
1708434554.838,-2.1412041187286377,-1.3335722398808976,-2.5272942225085657,6.110032307892599,1.018683910369873,-2.8806455771075647
1708434554.8399544,-2.141183614730835,-1.3335199666074296,-2.527261559163229,6.110057699471273,1.0186721086502075,-2.880652968083517
1708434554.841955,-2.141233444213867,-1.333495558505394,-2.5273357073413294,6.110048639565267,1.0186928510665894,-2.8806777636157435
1708434554.8439605,-2.1412243843078613,-1.3335199666074296,-2.5273073355304163,6.110129344254293,1.0186675786972046,-2.880643908177511
1708434554.8459723,-2.14127779006958,-1.3335560721210022,-2.5273106733905237,6.110120403557577,1.0186524391174316,-2.8806915918933313
1708434554.8479502,-2.141244888305664,-1.3335352700999756,-2.5272746721850794,6.110120403557577,1.0186972618103027,-2.88066536584963
1708434554.8499935,-2.1412596702575684,-1.3335431677154084,-2.527316157017843,6.110097992211141,1.0186973810195923,-2.880678955708639
1708434554.8519404,-2.1412765979766846,-1.3335114282420655,-2.5273073355304163,6.110172974854269,1.018705129623413,-2.8807149569140833
1708434554.8539321,-2.141268730163574,-1.3335395467332383,-2.5273073355304163,6.11019383647994,1.0186721086502075,-2.8806780020343226
1708434554.8559844,-2.1412596702575684,-1.333559350376465,-2.5272703806506556,6.110129105835714,1.018655776977539,-2.8807197252856653
1708434554.857949,-2.1412880420684814,-1.3335841608098526,-2.5272987524615687,6.110169756203451,1.0186312198638916,-2.88069731393923
1708434554.8599727,-2.1413073539733887,-1.3334826690009614,-2.5273399988757532,6.110227811127462,1.0186268091201782,-2.8807387987719935
1708434554.8619409,-2.141328811645508,-1.33357127130542,-2.5273030439959925,6.110264050751486,1.0186645984649658,-2.8807225863086146
1708434554.863939,-2.1413118839263916,-1.33357127130542,-2.5272823015796106,6.110271441727438,1.0186312198638916,-2.8807135264026087
1708434554.86595,-2.1413118839263916,-1.3335266423276444,-2.5273149649249476,6.110246050148763,1.0186479091644287,-2.8807714621173304
1708434554.8679645,-2.1412858963012695,-1.3335345101407547,-2.5272911230670374,6.110253321915426,1.0186479091644287,-2.880716625844137
1708434554.869965,-2.141364812850952,-1.333587796693184,-2.527283493672506,6.110302912979879,1.0186402797698975,-2.88069731393923
1708434554.8719766,-2.141322374343872,-1.3335388761809845,-2.5272792021380823,6.110380399018087,1.018619418144226,-2.88075834909548
1708434554.8739572,-2.141413688659668,-1.3335474294475098,-2.5272868315326136,6.110338675766744,1.0186327695846558,-2.880778137837545
1708434554.875957,-2.1413650512695312,-1.33357127130542,-2.5272868315326136,6.110391127854147,1.0186371803283691,-2.880819861088888
1708434554.8779602,-2.141383409500122,-1.3335636121085663,-2.5273073355304163,6.110458719521322,1.0186001062393188,-2.88072115579714
1708434554.8799407,-2.141374349594116,-1.3335920882276078,-2.5272746721850794,6.110393988877096,1.018650770187378,-2.880761210118429
1708434554.8819492,-2.1414172649383545,-1.3335748624852677,-2.5273118654834192,6.110407459526815,1.0186001062393188,-2.8807693163501185
1708434554.883967,-2.1414151191711426,-1.3335877817920228,-2.5272746721850794,6.110418069153585,1.018630027770996,-2.880724016820089
1708434554.8859406,-2.1414363384246826,-1.3336030852845688,-2.5272703806506556,6.1104867337043665,1.0185847282409668,-2.8807736078845423
1708434554.8879688,-2.141394853591919,-1.3335669201663514,-2.5272911230670374,6.110494124680319,1.0185426473617554,-2.880807940159933
1708434554.8900232,-2.141427516937256,-1.333559350376465,-2.5272792021380823,6.110513675003805,1.0185471773147583,-2.880778137837545
1708434554.89201,-2.1414601802825928,-1.3335834306529541,-2.5272823015796106,6.110620009690084,1.018592357635498,-2.8807693163501185
1708434554.8939874,-2.141435384750366,-1.3336115342429657,-2.5272792021380823,6.110533106118002,1.0185682773590088,-2.8808019796954554
1708434554.8960066,-2.141467332839966,-1.3336516630700608,-2.5273192564593714,6.110606419831075,1.0185515880584717,-2.880859915410177
1708434554.8979452,-2.141447067260742,-1.3335910898498078,-2.5272911230670374,6.110652792244711,1.0185189247131348,-2.8808303515063685
1708434554.8999476,-2.141500949859619,-1.3336316657117386,-2.5272746721850794,6.1106793759162805,1.0185397863388062,-2.8807767073260706
1708434554.9019353,-2.1414875984191895,-1.33357489228759,-2.527299944554464,6.110628711968221,1.0185935497283936,-2.8808303515063685
1708434554.9039533,-2.1414875984191895,-1.3335541945746918,-2.5272792021380823,6.110706555634298,1.0185728073120117,-2.8808465639697474
1708434554.9059448,-2.1414573192596436,-1.3336274039796372,-2.5273073355304163,6.11071394661025,1.0185397863388062,-2.8808005491839808
1708434554.907978,-2.1414787769317627,-1.3336274039796372,-2.527299944554464,6.110704886704244,1.0185233354568481,-2.8808756510363978
1708434554.9099772,-2.141510486602783,-1.3336189550212403,-2.5272868315326136,6.110724198609152,1.0185786485671997,-2.8808799425708216
1708434554.911928,-2.1415319442749023,-1.3335791540196915,-2.527304236088888,6.110841023712911,1.0185294151306152,-2.8808332125293177
1708434554.9139407,-2.1415512561798096,-1.3336601120284577,-2.5272541681872767,6.110793101578512,1.0184868574142456,-2.8808212916003626
1708434554.9159684,-2.1415600776672363,-1.333571196799614,-2.5272749106036585,6.110806572228231,1.0185441970825195,-2.8808167616473597
1708434554.9179463,-2.1415581703186035,-1.3335663092187424,-2.5272629896747034,6.110821473389425,1.0185322761535645,-2.880890432988302
1708434554.9199493,-2.1415491104125977,-1.3336439591697236,-2.527254883443014,6.1107661602790735,1.0185049772262573,-2.8809245268451136
1708434554.921939,-2.1415581703186035,-1.333611549144127,-2.5273073355304163,6.1108693955238245,1.018538236618042,-2.880887571965353
1708434554.9239616,-2.141592025756836,-1.3335834306529541,-2.5272823015796106,6.110877024918356,1.018496036529541,-2.880866829548971
1708434554.9259608,-2.141587734222412,-1.3336082708886643,-2.5272956530200403,6.110893118172445,1.0184885263442993,-2.880885903035299
1708434554.9279375,-2.141648530960083,-1.3335834306529541,-2.527238670979635,6.110893118172445,1.0184632539749146,-2.880899254475729
1708434554.929943,-2.1416068077087402,-1.3336030852845688,-2.527299944554464,6.11089442947463,1.0184677839279175,-2.880881373082296
1708434554.9319682,-2.14164400100708,-1.3336145889810105,-2.5272672812091272,6.110987651139059,1.0185093879699707,-2.880914274846212
1708434554.93395,-2.1416234970092773,-1.333635465507843,-2.527250353490011,6.110965239792623,1.0184885263442993,-2.880899492894308
1708434554.935966,-2.1416633129119873,-1.3336158108762284,-2.5272792021380823,6.110932099610128,1.0184721946716309,-2.8808844725238245
1708434554.9379356,-2.1416714191436768,-1.3336030852845688,-2.52727181116213,6.111023175507345,1.0184721946716309,-2.880951229725973
1708434554.9399397,-2.1416714191436768,-1.3336158257773896,-2.527283493672506,6.11100064495162,1.0184555053710938,-2.880963150654928
1708434554.9419367,-2.1416828632354736,-1.3336354804090043,-2.5272584597217005,6.111041176110067,1.0184767246246338,-2.880914274846212
1708434554.943974,-2.1416454315185547,-1.3336311143687745,-2.5272792021380823,6.111081707268514,1.0184106826782227,-2.880963150654928
1708434554.9459536,-2.141716718673706,-1.3336481910995026,-2.5272672812091272,6.111053097039022,1.0184314250946045,-2.8808963934527796
1708434554.9479356,-2.1417236328125,-1.3336072725108643,-2.527238670979635,6.111051785736837,1.018415093421936,-2.8809543291675013
1708434554.9500053,-2.1416773796081543,-1.333626852636673,-2.527316157017843,6.1110890982444666,1.0184481143951416,-2.8809261957751673
1708434554.9519408,-2.141723394393921,-1.3336317104152222,-2.5272374788867396,6.111044156342306,1.0184779167175293,-2.8809381167041224
1708434554.953941,-2.141719102859497,-1.3336030852845688,-2.527250353490011,6.111092078476705,1.0184029340744019,-2.8809712568866175
1708434554.955946,-2.141735076904297,-1.333598719244339,-2.527246061955587,6.111075627594747,1.0183908939361572,-2.8809290567981165
1708434554.9579372,-2.1417713165283203,-1.3336231422475358,-2.527259174977438,6.111148702889242,1.0184285640716553,-2.8809455076800745
1708434554.9599671,-2.1417670249938965,-1.3336473119309922,-2.5272629896747034,6.111169802933492,1.0183836221694946,-2.8809669653521937
1708434554.9619322,-2.1417429447174072,-1.3336754155210038,-2.5272417704211634,6.111102330475607,1.0184162855148315,-2.8809128443347376
1708434554.963966,-2.1417713165283203,-1.3336396527341385,-2.527283493672506,6.111139762192526,1.0184073448181152,-2.880969826375143
1708434554.9659817,-2.1417837142944336,-1.33358687282119,-2.527250353490011,6.111139762192526,1.0183627605438232,-2.880949083958761
1708434554.9679532,-2.1417622566223145,-1.3336189550212403,-2.5272672812091272,6.111126172333517,1.018388032913208,-2.8809409777270716
1708434554.969947,-2.1417577266693115,-1.333675430422165,-2.5272472540484827,6.111159312516012,1.0183672904968262,-2.880953613911764
1708434554.9719586,-2.1417489051818848,-1.3335825067809601,-2.527283493672506,6.11117576339797,1.0183717012405396,-2.880932156239645
1708434554.973951,-2.1417958736419678,-1.3336396676352997,-2.527206007634298,6.111199843674459,1.018388032913208,-2.881007496510641
1708434554.975973,-2.141787052154541,-1.3336354804090043,-2.527254883443014,6.111187922745504,1.018399953842163,-2.8809896151172083
1708434554.977943,-2.1418187618255615,-1.3336311143687745,-2.527250353490011,6.111195313721456,1.0183627605438232,-2.88101035753359
