Eg3-git/Classifiers/Data Collection/u2/u2cir1_ur3e_joint_states.csv
time,elbow_joint,shoulder_lift_joint,shoulder_pan_joint,wrist_1_joint,wrist_2_joint,wrist_3_joint
1708434927.8529174,-2.1571316719055176,-1.3392813515714188,-2.5295639673816126,6.152099716454305,1.0226653814315796,-2.1596105734454554
1708434927.8549068,-2.15712308883667,-1.339322881107666,-2.5295267740832728,6.152141439705648,1.0226606130599976,-2.159607712422506
1708434927.8568978,-2.157111883163452,-1.3393022877028962,-2.5295267740832728,6.152053224831381,1.022669792175293,-2.159549061452047
1708434927.8589087,-2.1571602821350098,-1.3393031370690842,-2.5295267740832728,6.152111518173971,1.0226318836212158,-2.15957481065859
1708434927.8608897,-2.1571078300476074,-1.339322881107666,-2.529494110737936,6.152140247612753,1.0226109027862549,-2.159553352986471
1708434927.8628938,-2.1571245193481445,-1.3393304657987137,-2.529501501713888,6.152104246407308,1.0226787328720093,-2.1595614592181605
1708434927.8648992,-2.1571316719055176,-1.3393022877028962,-2.529518191014425,6.152140247612753,1.0226742029190063,-2.1595824400531214
1708434927.866899,-2.1571078300476074,-1.3392988008311768,-2.529497210179464,6.152165639191427,1.0225826501846313,-2.159586731587545
1708434927.8689377,-2.1570827960968018,-1.3392900091460724,-2.529494110737936,6.152132499008932,1.0226318836212158,-2.159591023121969
1708434927.870913,-2.1571078300476074,-1.3393467229655762,-2.529522482548849,6.152156579285421,1.0226036310195923,-2.15953237215151
1708434927.8729153,-2.1571474075317383,-1.3393391382745286,-2.5295303503619593,6.152162658959188,1.022657871246338,-2.1595714727984827
1708434927.874941,-2.1571288108825684,-1.3392857027104874,-2.529485289250509,6.152132499008932,1.0226243734359741,-2.159562412892477
1708434927.876937,-2.157151460647583,-1.339355395441391,-2.529534641896383,6.15218352058486,1.0226243734359741,-2.1595385710345667
1708434927.8789282,-2.1571078300476074,-1.3393391382745286,-2.529538933430807,6.1521819708640955,1.0226036310195923,-2.1595385710345667
1708434927.8808956,-2.1570868492126465,-1.3393763315728684,-2.529538933430807,6.152140247612753,1.0226080417633057,-2.159529511128561
1708434927.8829248,-2.157158851623535,-1.3393066239408036,-2.529522482548849,6.152131187706747,1.0226408243179321,-2.1595400015460413
1708434927.8849056,-2.1571602821350098,-1.3393922609141846,-2.5295608679400843,6.152140247612753,1.0225720405578613,-2.1594799200641077
1708434927.8869228,-2.1571245193481445,-1.3392900240472336,-2.529494110737936,6.152136909752645,1.0225917100906372,-2.159534279500143
1708434927.8889136,-2.1571245193481445,-1.339322881107666,-2.5295477549182337,6.152127969055929,1.0225917100906372,-2.1594842115985315
1708434927.8909054,-2.1571760177612305,-1.3393066239408036,-2.5295892397509974,6.152120578079977,1.0225660800933838,-2.1595428625689905
1708434927.8929338,-2.1571078300476074,-1.3393597465804596,-2.5294745604144495,6.152127969055929,1.0226109027862549,-2.159513298665182
1708434927.8949218,-2.1571202278137207,-1.3392893385938187,-2.529505793248312,6.152174460678854,1.0226125717163086,-2.1595385710345667
1708434927.8969183,-2.1570825576782227,-1.3393142086318512,-2.529555384312765,6.152123439102926,1.022579312324524,-2.1595757643329065
1708434927.8989062,-2.1571273803710938,-1.3393348020366211,-2.5295313040362757,6.152154910355367,1.022621512413025,-2.1594980398761194
1708434927.9008982,-2.157144546508789,-1.3393719804337998,-2.529522482548849,6.1521609900291345,1.0226006507873535,-2.159550491963522
1708434927.9029286,-2.157151460647583,-1.3393066239408036,-2.5295401255237024,6.152107107430258,1.0225704908370972,-2.1595266501056116
1708434927.9048955,-2.157148838043213,-1.3393391382745286,-2.529489580784933,6.1521819708640955,1.0225553512573242,-2.1595714727984827
1708434927.9069226,-2.157151460647583,-1.3393391382745286,-2.529489580784933,6.15212498882369,1.0225884914398193,-2.1595547834979456
1708434927.908894,-2.157073974609375,-1.3392694306424637,-2.5295258204089563,6.152111518173971,1.0225553512573242,-2.1595667044269007
1708434927.9108927,-2.1571273803710938,-1.3393632930568238,-2.5295103232013147,6.1521819708640955,1.0225720405578613,-2.1595147291766565
1708434927.9129517,-2.157151460647583,-1.339322881107666,-2.5295642058001917,6.152111518173971,1.0225435495376587,-2.1595428625689905
1708434927.9149346,-2.157116174697876,-1.3393142086318512,-2.5295279661761683,6.152127969055929,1.0225974321365356,-2.1595175901996058
1708434927.9169078,-2.157158851623535,-1.3392650944045563,-2.52954346338381,6.152149188309469,1.0225883722305298,-2.1595266501056116
1708434927.9189,-2.1571202278137207,-1.3392900389483948,-2.5295103232013147,6.152107107430258,1.0225598812103271,-2.1595338026629847
1708434927.9208899,-2.157107353210449,-1.3393272173455735,-2.529538933430807,6.152178990631857,1.0225435495376587,-2.1595266501056116
1708434927.9229264,-2.157116174697876,-1.3393391382745286,-2.5295072237597864,6.152187931328573,1.0225598812103271,-2.1595104376422327
1708434927.924891,-2.157144546508789,-1.3392813515714188,-2.529480759297506,6.152132499008932,1.0225343704223633,-2.1595547834979456
1708434927.9269044,-2.157099485397339,-1.3392979365638276,-2.5295072237597864,6.1520951865013025,1.0225811004638672,-2.1595023314105433
1708434927.928928,-2.1570992469787598,-1.3393109750798722,-2.5295477549182337,6.152195322304525,1.0225176811218262,-2.1595085302936
1708434927.9308958,-2.157158851623535,-1.3393510592034836,-2.529522482548849,6.152141439705648,1.0225765705108643,-2.1595056692706507
1708434927.9329097,-2.1571078300476074,-1.3393676441958924,-2.529489580784933,6.152162658959188,1.0225344896316528,-2.1595147291766565
1708434927.9349244,-2.157134532928467,-1.3393304508975525,-2.529449526463644,6.152099716454305,1.0225974321365356,-2.1595190207110804
1708434927.9368958,-2.157179355621338,-1.3393597465804596,-2.5294984022723597,6.152104246407308,1.0225268602371216,-2.1594513098346155
1708434927.9389062,-2.1571316719055176,-1.339272679095604,-2.529494110737936,6.152120578079977,1.022568941116333,-2.159534279500143
1708434927.9409232,-2.1571245193481445,-1.33933478713546,-2.5295477549182337,6.152153718262472,1.0225765705108643,-2.1595309416400355
1708434927.9429328,-2.157099485397339,-1.3392979365638276,-2.5295313040362757,6.15212498882369,1.0225104093551636,-2.1595056692706507
1708434927.944948,-2.157140016555786,-1.3392868500998993,-2.529456917439596,6.152181851654806,1.0225435495376587,-2.1595519224749964
1708434927.9469206,-2.1571202278137207,-1.3392813813737412,-2.5295234362231653,6.152144658356466,1.0225733518600464,-2.1595476309405726
1708434927.94893,-2.157116174697876,-1.339380757217743,-2.5295313040362757,6.152129637985983,1.0225311517715454,-2.1595266501056116
1708434927.9509456,-2.1570992469787598,-1.339331642990448,-2.529522482548849,6.152132499008932,1.022498369216919,-2.1595776716815394
1708434927.9528987,-2.1571273803710938,-1.3393260103515168,-2.529555384312765,6.152120578079977,1.022514820098877,-2.1594980398761194
1708434927.9548905,-2.157155990600586,-1.339355395441391,-2.5294984022723597,6.152116167336263,1.022547960281372,-2.1594889799701136
1708434927.956913,-2.157099485397339,-1.3393154007247468,-2.529494110737936,6.152078497200765,1.022535800933838,-2.1595428625689905
1708434927.958906,-2.1571755409240723,-1.339322881107666,-2.529494110737936,6.152117597847738,1.0225435495376587,-2.1595175901996058
1708434927.9608843,-2.157155990600586,-1.3393272173455735,-2.5295072237597864,6.152108657151022,1.022552490234375,-2.159534279500143
1708434927.962904,-2.1571035385131836,-1.339293510918953,-2.5295234362231653,6.1520951865013025,1.0225104093551636,-2.1595056692706507
1708434927.9649086,-2.1571245193481445,-1.3393109750798722,-2.5295072237597864,6.152132499008932,1.022531270980835,-2.1595266501056116
1708434927.9669342,-2.1571474075317383,-1.3393391382745286,-2.5295477549182337,6.152120578079977,1.022547960281372,-2.1595175901996058
1708434927.968905,-2.1571273803710938,-1.339343474512436,-2.529527727757589,6.152165639191427,1.022552490234375,-2.1595266501056116
1708434927.970941,-2.1571388244628906,-1.3393763315728684,-2.529461447392599,6.152149188309469,1.0225822925567627,-2.159522358571188
1708434927.9729006,-2.1571245193481445,-1.339343474512436,-2.5295072237597864,6.152177321701803,1.0225030183792114,-2.159522358571188
1708434927.9749067,-2.157116174697876,-1.3393348020366211,-2.5295401255237024,6.15212498882369,1.0224984884262085,-2.1595266501056116
1708434927.9769213,-2.157116174697876,-1.339309738283493,-2.5295313040362757,6.152158129006185,1.022535800933838,-2.1595638434039515
1708434927.9789073,-2.157111883163452,-1.3392988008311768,-2.5295267740832728,6.15212498882369,1.0225164890289307,-2.159522358571188
1708434927.9809248,-2.157111883163452,-1.339331642990448,-2.529489580784933,6.15212498882369,1.0224955081939697,-2.1595848242389124
1708434927.9829102,-2.1571273803710938,-1.3393317025950928,-2.5294745604144495,6.152136909752645,1.0225238800048828,-2.1594980398761194
1708434927.9848905,-2.1571316719055176,-1.3393510592034836,-2.529489580784933,6.152090775757589,1.0225163698196411,-2.1595519224749964
1708434927.9868999,-2.1571245193481445,-1.3393272173455735,-2.5295072237597864,6.152153599053182,1.0225447416305542,-2.1595104376422327
1708434927.9888988,-2.1571316719055176,-1.3393197369626542,-2.5294583479510706,6.152190911560812,1.0225328207015991,-2.1595476309405726
1708434927.9908915,-2.1571388244628906,-1.3393641722253342,-2.5295267740832728,6.152152168541708,1.0224956274032593,-2.1595595518695276
1708434927.9928854,-2.1571602821350098,-1.339310960178711,-2.529527012501852,6.152116167336263,1.0224956274032593,-2.1595023314105433
1708434927.9948988,-2.157155990600586,-1.339310960178711,-2.5295234362231653,6.152087557106771,1.0225030183792114,-2.1595266501056116
1708434927.9969354,-2.157151460647583,-1.3393228960088273,-2.529516045247213,6.152117717057028,1.0225119590759277,-2.1595147291766565
1708434927.9989324,-2.157151460647583,-1.3393272173455735,-2.5295401255237024,6.152107107430258,1.0225075483322144,-2.1595519224749964
1708434928.000877,-2.157151460647583,-1.3393066239408036,-2.5295115152942103,6.152120578079977,1.0225491523742676,-2.1595104376422327
1708434928.0029242,-2.157140016555786,-1.339310960178711,-2.529449526463644,6.152136909752645,1.0225328207015991,-2.1595309416400355
1708434928.0049074,-2.157151699066162,-1.3393185448697587,-2.5295146147357386,6.152120578079977,1.0225164890289307,-2.1594694296466272
1708434928.0069168,-2.157163143157959,-1.3393023324063797,-2.529516045247213,6.152149188309469,1.0224740505218506,-2.1595023314105433
1708434928.0089092,-2.1571357250213623,-1.3393142086318512,-2.5294984022723597,6.152116167336263,1.0225374698638916,-2.1595104376422327
1708434928.0108912,-2.1571316719055176,-1.3393142086318512,-2.529494110737936,6.152120578079977,1.022482991218567,-2.1595104376422327
1708434928.0129704,-2.157155990600586,-1.3393510592034836,-2.5295072237597864,6.152127969055929,1.022482991218567,-2.1594932715045374
1708434928.014896,-2.1571431159973145,-1.3393510592034836,-2.5295401255237024,6.152104246407308,1.0224956274032593,-2.1595280806170862
1708434928.0169652,-2.1571202278137207,-1.3393109899810334,-2.529494110737936,6.152108776360311,1.0224965810775757,-2.1594842115985315
1708434928.0189252,-2.157140016555786,-1.3393348020366211,-2.5295115152942103,6.152156579285421,1.0225046873092651,-2.1595056692706507
1708434928.0209086,-2.1571402549743652,-1.3393360090306778,-2.529494110737936,6.15212498882369,1.0224666595458984,-2.1594980398761194
1708434928.0228996,-2.157163143157959,-1.3393685084632416,-2.5295103232013147,6.152108657151022,1.0224910974502563,-2.1595190207110804
1708434928.0249047,-2.15718412399292,-1.339327187543251,-2.529494110737936,6.152140128403463,1.022471308708191,-2.1594813505755823
1708434928.0269008,-2.157116174697876,-1.3393391382745286,-2.529489580784933,6.152083027153768,1.0225328207015991,-2.1595280806170862
1708434928.0289261,-2.1571357250213623,-1.3393109750798722,-2.5294984022723597,6.152165639191427,1.0225163698196411,-2.1595190207110804
1708434928.0309014,-2.157158851623535,-1.3393685233644028,-2.5295115152942103,6.152174460678854,1.0224757194519043,-2.1594412962542933
1708434928.0328948,-2.157151460647583,-1.3392650944045563,-2.5295072237597864,6.152119028359213,1.0224621295928955,-2.159457508717672
1708434928.0348895,-2.1571474075317383,-1.339290053849556,-2.5295146147357386,6.1520951865013025,1.0224965810775757,-2.1594741980182093
1708434928.0369208,-2.157163143157959,-1.339343474512436,-2.529494110737936,6.152136909752645,1.0224920511245728,-2.1594651381122034
1708434928.0389175,-2.157140016555786,-1.3393066388419648,-2.5295146147357386,6.152108657151022,1.0224920511245728,-2.1595328489886683
1708434928.0408971,-2.1571755409240723,-1.3393641871264954,-2.529456917439596,6.15212510803298,1.0224876403808594,-2.159494702016012
1708434928.0429144,-2.157116174697876,-1.3393022877028962,-2.529456917439596,6.152149188309469,1.0224502086639404,-2.159482781087057
1708434928.0449388,-2.157151460647583,-1.3393467378667374,-2.529494110737936,6.152132499008932,1.0224385261535645,-2.159520451222555
1708434928.0469131,-2.1571431159973145,-1.3393685084632416,-2.5294876734363,6.152141439705648,1.0224920511245728,-2.159490410481588
1708434928.0489275,-2.1571273803710938,-1.3393676292947312,-2.52944523492922,6.152093755989828,1.0224637985229492,-2.159462277089254
1708434928.0509338,-2.1571474075317383,-1.3393022877028962,-2.5294984022723597,6.152141439705648,1.022482991218567,-2.15942889848818
1708434928.0529008,-2.157094955444336,-1.3393272173455735,-2.5294583479510706,6.152123439102926,1.0225046873092651,-2.159419838582174
1708434928.0548964,-2.1571273803710938,-1.339343474512436,-2.529449526463644,6.152140247612753,1.0224876403808594,-2.159478489552633
1708434928.0568933,-2.1571388244628906,-1.3393597465804596,-2.5294132868396204,6.152149188309469,1.022500991821289,-2.159466568623678
1708434928.0589201,-2.1571316719055176,-1.3392987859300156,-2.5295313040362757,6.15212510803298,1.0224876403808594,-2.159462277089254
1708434928.060902,-2.1571273803710938,-1.3392694306424637,-2.5294745604144495,6.152140128403463,1.0224846601486206,-2.159487549458639
1708434928.0629213,-2.1571357250213623,-1.3392814260772248,-2.5295072237597864,6.152099835663595,1.0224666595458984,-2.159487549458639
1708434928.0649507,-2.15712308883667,-1.339343474512436,-2.5294745604144495,6.152141320496359,1.0224429368972778,-2.159437958394186
1708434928.0668888,-2.157111883163452,-1.3393564981273194,-2.529449526463644,6.15217004993514,1.022454857826233,-2.159499470387594
1708434928.0689318,-2.1571459770202637,-1.3392737370780488,-2.5294328371631067,6.1521609900291345,1.0224785804748535,-2.159470860158102
1708434928.070915,-2.157151460647583,-1.3393553656390687,-2.5294342676745813,6.15212498882369,1.0224666595458984,-2.159475628529684
1708434928.0728855,-2.1571316719055176,-1.3393434596112748,-2.5295234362231653,6.152145969658651,1.022471308708191,-2.159499470387594
1708434928.0749266,-2.1571474075317383,-1.3393316578916092,-2.52944523492922,6.152141439705648,1.0225090980529785,-2.159450356160299
1708434928.0768871,-2.157158851623535,-1.3392943751863022,-2.5294297377215784,6.152162658959188,1.0224920511245728,-2.159450356160299
1708434928.078934,-2.1571474075317383,-1.3393597465804596,-2.5294788519488733,6.152140247612753,1.0224920511245728,-2.159491840993063
1708434928.080905,-2.157155990600586,-1.3392892640880127,-2.5294504801379603,6.1521116373832605,1.0224876403808594,-2.159416977559225
1708434928.082904,-2.157116174697876,-1.33933478713546,-2.529449526463644,6.152136909752645,1.0224666595458984,-2.159466568623678
1708434928.0848966,-2.1571474075317383,-1.339322881107666,-2.5294328371631067,6.15212510803298,1.0224637985229492,-2.159437958394186
1708434928.0868974,-2.157134532928467,-1.339266301398613,-2.5294626394854944,6.152153599053182,1.0224474668502808,-2.159449879323141
1708434928.0889297,-2.157151460647583,-1.3393316578916092,-2.5294297377215784,6.152100908547201,1.0224473476409912,-2.1594260374652308
1708434928.09092,-2.157111883163452,-1.3393022877028962,-2.5294132868396204,6.152107226639547,1.0225210189819336,-2.1594303289996546
1708434928.092893,-2.157094955444336,-1.3393022877028962,-2.5294459501849573,6.1520951865013025,1.0224666595458984,-2.159470860158102
1708434928.0949094,-2.1570863723754883,-1.3393510294011612,-2.529410187398092,6.152158129006185,1.0224757194519043,-2.159445587788717
1708434928.0968916,-2.1571202278137207,-1.339310960178711,-2.529414478932516,6.152108657151022,1.0224876403808594,-2.159419838582174
1708434928.0989556,-2.157151460647583,-1.3393197071603318,-2.5293565432177942,6.152132499008932,1.0224385261535645,-2.159395996724264
1708434928.1009145,-2.1571316719055176,-1.339310960178711,-2.5293577353106897,6.1521984217460535,1.022454857826233,-2.159458939229147
1708434928.1028984,-2.1571717262268066,-1.3393434596112748,-2.5293951670276087,6.152132499008932,1.0224757194519043,-2.1593969503985804
1708434928.1049082,-2.1571388244628906,-1.3392575693181534,-2.529358688985006,6.152129637985983,1.0224920511245728,-2.159454647694723
1708434928.1069024,-2.157163143157959,-1.3393316727927704,-2.5293577353106897,6.152083027153768,1.0224846601486206,-2.15940505663027
1708434928.1089232,-2.157155990600586,-1.3393185448697587,-2.5293455759631556,6.152127969055929,1.0225046873092651,-2.1594274679767054
1708434928.1108882,-2.1571035385131836,-1.339330480699875,-2.529379669819967,6.152190911560812,1.0224921703338623,-2.1593926588641565
1708434928.112905,-2.1571273803710938,-1.33931419373069,-2.529379669819967,6.152141439705648,1.0224846601486206,-2.1593878904925745
1708434928.114955,-2.1571431159973145,-1.3393023026040574,-2.5293501059161585,6.152104246407308,1.0224502086639404,-2.159415070210592
1708434928.1168926,-2.1571431159973145,-1.33930657923732,-2.5293543974505823,6.15212498882369,1.0224801301956177,-2.159323517476217
1708434928.1189153,-2.157140016555786,-1.3393391233733674,-2.5293424765216272,6.152132499008932,1.0224757194519043,-2.1593864599811
1708434928.1209717,-2.1571755409240723,-1.3393153709224244,-2.5293784777270716,6.152102696686544,1.0224757194519043,-2.159370247517721
1708434928.122941,-2.157155990600586,-1.3392979812673111,-2.5293131510363978,6.1520951865013025,1.022454857826233,-2.159365955983297
1708434928.1249394,-2.157158851623535,-1.3393272024444123,-2.529400412236349,6.152108657151022,1.0225163698196411,-2.159308735524313
1708434928.1269433,-2.157163143157959,-1.3393641126206894,-2.5293543974505823,6.152178990631857,1.022454857826233,-2.15934926668276
1708434928.128927,-2.1571474075317383,-1.3392900985530396,-2.5293753782855433,6.15212498882369,1.0224802494049072,-2.1593459288226526
1708434928.1308897,-2.157163143157959,-1.3393553805402298,-2.5293424765216272,6.152190792351522,1.0224876403808594,-2.15934926668276
1708434928.1329358,-2.1571316719055176,-1.33928136647258,-2.5293622652636927,6.152104246407308,1.0224876403808594,-2.159340206776754
1708434928.134947,-2.1571474075317383,-1.339310960178711,-2.529391590748922,6.152153599053182,1.0224876403808594,-2.159374539052145
1708434928.136919,-2.15712308883667,-1.3393153709224244,-2.5293501059161585,6.152119028359213,1.0224876403808594,-2.159358326588766
1708434928.1389103,-2.1571035385131836,-1.3393197071603318,-2.5293753782855433,6.152174460678854,1.022433876991272,-2.159365955983297
1708434928.1409078,-2.157158851623535,-1.339310960178711,-2.5293665567981165,6.152127969055929,1.0224385261535645,-2.1593506971942347
1708434928.1429539,-2.157167434692383,-1.3393348020366211,-2.5293381849872034,6.152116167336263,1.0224474668502808,-2.159354035054342
1708434928.1449091,-2.157144546508789,-1.3392857325128098,-2.5293665567981165,6.152108657151022,1.0224801301956177,-2.159379307423727
1708434928.1469233,-2.157167434692383,-1.3393467378667374,-2.5292893091784876,6.152174460678854,1.0224965810775757,-2.1593039671527308
1708434928.1489248,-2.1571755409240723,-1.339302272801735,-2.5293381849872034,6.1520413039024255,1.022454857826233,-2.159358326588766
1708434928.1508915,-2.1571245193481445,-1.3393272173455735,-2.5293381849872034,6.152149188309469,1.0224965810775757,-2.159354035054342
1708434928.1529388,-2.1571273803710938,-1.3393055659583588,-2.5293455759631556,6.152149188309469,1.0224757194519043,-2.159354035054342
1708434928.1549258,-2.1571474075317383,-1.3393023026040574,-2.5293424765216272,6.152120578079977,1.022471308708191,-2.1592968145953577
1708434928.1569173,-2.157158851623535,-1.3392900985530396,-2.5293174425708216,6.152207124024191,1.0224876403808594,-2.1593502203570765
1708434928.158924,-2.157155990600586,-1.339310960178711,-2.529391590748922,6.152149188309469,1.0224757194519043,-2.159354035054342
1708434928.1608946,-2.1571431159973145,-1.3393185597709198,-2.5293455759631556,6.152202832489767,1.0225000381469727,-2.159354035054342
1708434928.1629374,-2.1571717262268066,-1.3392694008401413,-2.5293622652636927,6.1521774409110925,1.0224920511245728,-2.1593502203570765
1708434928.164907,-2.157118797302246,-1.3393153709224244,-2.5294037500964563,6.152149188309469,1.0225136280059814,-2.159341637288229
1708434928.1669123,-2.157151460647583,-1.339310960178711,-2.5293622652636927,6.152107107430258,1.0225210189819336,-2.159375015889303
1708434928.168931,-2.1571388244628906,-1.3393553805402298,-2.5293994585620325,6.152099716454305,1.0225136280059814,-2.159341637288229
1708434928.1709242,-2.1571755409240723,-1.3392943900874634,-2.5293577353106897,6.152116167336263,1.022471308708191,-2.15934926668276
1708434928.172921,-2.1571121215820312,-1.3393348020366211,-2.5293741861926478,6.152156579285421,1.0224502086639404,-2.1593039671527308
1708434928.1748998,-2.157163143157959,-1.339322881107666,-2.5293741861926478,6.152145969658651,1.022471308708191,-2.159365955983297
1708434928.1769228,-2.1571357250213623,-1.339326099758484,-2.5293336550342005,6.152087557106771,1.0224385261535645,-2.159354035054342
1708434928.1789339,-2.1570987701416016,-1.3393391531756897,-2.5293577353106897,6.152144658356466,1.022471308708191,-2.1593864599811
1708434928.1808999,-2.15712308883667,-1.339324028497078,-2.5293872992144983,6.152074086457052,1.0224920511245728,-2.159354035054342
1708434928.1829097,-2.1571316719055176,-1.3392825585654755,-2.529369656239645,6.152145969658651,1.0224920511245728,-2.159358326588766
1708434928.1848931,-2.15712308883667,-1.3393066388419648,-2.5293951670276087,6.152174460678854,1.0224876403808594,-2.159367386494772
1708434928.1869013,-2.1571357250213623,-1.3392988008311768,-2.529391590748922,6.152158129006185,1.0224785804748535,-2.159400288258688
1708434928.1889532,-2.1571273803710938,-1.3393023026040574,-2.5293543974505823,6.152165639191427,1.0225211381912231,-2.1593039671527308
1708434928.1908965,-2.157107353210449,-1.339322881107666,-2.5293994585620325,6.152116167336263,1.0225046873092651,-2.159421745930807
1708434928.192908,-2.157078266143799,-1.3393304956010361,-2.529369656239645,6.152099835663595,1.0225255489349365,-2.159367386494772
1708434928.1948955,-2.1571474075317383,-1.3393565279296418,-2.5293455759631556,6.152136909752645,1.0224502086639404,-2.159370247517721
1708434928.196898,-2.1571357250213623,-1.3393521916917344,-2.5293906370746058,6.152176010399618,1.0225328207015991,-2.159365955983297
1708434928.1989176,-2.157163143157959,-1.3393478703549881,-2.5293949286090296,6.152132499008932,1.0225000381469727,-2.1593449751483362
1708434928.2009308,-2.157158851623535,-1.3393031370690842,-2.5293741861926478,6.15213571765975,1.0225163698196411,-2.159382168446676
1708434928.2029302,-2.1571357250213623,-1.3393272173455735,-2.5294364134417933,6.152107107430258,1.0224740505218506,-2.159374539052145
1708434928.2049081,-2.1571474075317383,-1.3392979812673111,-2.5293293634997767,6.152107107430258,1.0225447416305542,-2.15934926668276
1708434928.2069187,-2.1571316719055176,-1.3393641126206894,-2.5293665567981165,6.1520951865013025,1.0225374698638916,-2.159367386494772
1708434928.2089095,-2.1571202278137207,-1.3393434596112748,-2.5293455759631556,6.152074086457052,1.0225402116775513,-2.159365955983297
1708434928.2108946,-2.157163143157959,-1.3393023026040574,-2.5294068495379847,6.15213571765975,1.0225491523742676,-2.1593945662127894
1708434928.212944,-2.157158851623535,-1.3393434596112748,-2.5293872992144983,6.152108657151022,1.0224910974502563,-2.159370247517721
1708434928.2149348,-2.1571357250213623,-1.3393553805402298,-2.5293741861926478,6.152123439102926,1.0225046873092651,-2.1593864599811
1708434928.21694,-2.1571388244628906,-1.3393272024444123,-2.5293741861926478,6.152123439102926,1.0225211381912231,-2.15934926668276
1708434928.2188973,-2.157107353210449,-1.339322881107666,-2.529402558003561,6.152102696686544,1.0224955081939697,-2.159382168446676
1708434928.2209105,-2.157116174697876,-1.3393467229655762,-2.5294037500964563,6.152123439102926,1.0225030183792114,-2.159330193196432
1708434928.2229338,-2.1571388244628906,-1.3393023026040574,-2.5294395128833216,6.152099716454305,1.022526741027832,-2.159416977559225
1708434928.2249331,-2.1571502685546875,-1.3393066388419648,-2.529360834752218,6.15217004993514,1.0225447416305542,-2.159403626118795
1708434928.2269175,-2.157073974609375,-1.3393197071603318,-2.5293741861926478,6.152167069702902,1.0225194692611694,-2.159370247517721
1708434928.2289047,-2.1571316719055176,-1.339253233080246,-2.5294113794909876,6.152144658356466,1.0225238800048828,-2.1593864599811
1708434928.2308946,-2.1571545600891113,-1.3393316280892869,-2.529414478932516,6.152099716454305,1.0225282907485962,-2.159341637288229
1708434928.2329288,-2.1571431159973145,-1.3393423122218628,-2.5293455759631556,6.152120578079977,1.0225074291229248,-2.159407917653219
1708434928.2348912,-2.1571035385131836,-1.3393402707627793,-2.5294068495379847,6.152104246407308,1.022557020187378,-2.159332577382223
1708434928.236936,-2.1571273803710938,-1.3392943900874634,-2.5293784777270716,6.152140247612753,1.0225194692611694,-2.159374539052145
1708434928.2389014,-2.15712308883667,-1.3393348020366211,-2.5294113794909876,6.152123439102926,1.022568941116333,-2.15937310854067
1708434928.240884,-2.157155990600586,-1.3393153709224244,-2.529377524052755,6.152108657151022,1.022526741027832,-2.159415070210592
1708434928.242903,-2.1571922302246094,-1.3393185597709198,-2.5293741861926478,6.152107107430258,1.022531270980835,-2.159398857747213
1708434928.2448967,-2.15712308883667,-1.3393467229655762,-2.5293906370746058,6.152158129006185,1.02256441116333,-2.15934926668276
1708434928.2469277,-2.1571502685546875,-1.339327187543251,-2.5294233004199427,6.152141439705648,1.022498369216919,-2.1593864599811
1708434928.248922,-2.1571316719055176,-1.3392857325128098,-2.529414478932516,6.152119028359213,1.022547960281372,-2.1593864599811
1708434928.2509212,-2.1571474075317383,-1.3392857325128098,-2.529386345540182,6.152104246407308,1.0225974321365356,-2.159370247517721
1708434928.2529325,-2.1571273803710938,-1.3393066388419648,-2.529386345540182,6.152090775757589,1.0225811004638672,-2.1593568960772913
1708434928.2548897,-2.157196521759033,-1.339278132920601,-2.5294233004199427,6.1521819708640955,1.0226141214370728,-2.159407917653219
1708434928.2569103,-2.15718412399292,-1.3393023026040574,-2.529414478932516,6.152111518173971,1.0225435495376587,-2.159379307423727
1708434928.2589254,-2.1571357250213623,-1.3393185597709198,-2.529393736516134,6.152160870819845,1.0226097106933594,-2.159354035054342
1708434928.2608964,-2.1571474075317383,-1.3392988008311768,-2.529386345540182,6.152190911560812,1.0225884914398193,-2.159382168446676
1708434928.2629364,-2.1571273803710938,-1.339310960178711,-2.529410187398092,6.152107107430258,1.0225839614868164,-2.159398857747213
1708434928.2649086,-2.1570863723754883,-1.3392900389483948,-2.529475990925924,6.152140247612753,1.0226051807403564,-2.159382168446676
1708434928.2669325,-2.1571545600891113,-1.3392857325128098,-2.529414478932516,6.152132499008932,1.0226080417633057,-2.159382168446676
1708434928.2689393,-2.157134532928467,-1.339276985531189,-2.5294669310199183,6.1521655199821375,1.0225794315338135,-2.1593945662127894
1708434928.2709343,-2.157111883163452,-1.3392979812673111,-2.529454771672384,6.152111518173971,1.02263343334198,-2.159415070210592
1708434928.2729304,-2.157167434692383,-1.339335949426033,-2.5294669310199183,6.152144658356466,1.022649884223938,-2.159398857747213
1708434928.2748969,-2.157111883163452,-1.3393316280892869,-2.5295072237597864,6.15217004993514,1.0225871801376343,-2.15941030183901
1708434928.2769222,-2.1571359634399414,-1.3393316280892869,-2.5295313040362757,6.152149188309469,1.0225991010665894,-2.15937310854067
1708434928.2789123,-2.157151699066162,-1.3393272024444123,-2.529494110737936,6.152132618218221,1.0226107835769653,-2.1594365278827112
1708434928.2809253,-2.1571474075317383,-1.3393641126206894,-2.5295267740832728,6.152120578079977,1.0226489305496216,-2.1593778769122522
1708434928.2829196,-2.1571431159973145,-1.3392988008311768,-2.529522482548849,6.152141439705648,1.022628903388977,-2.159382168446676
1708434928.2849689,-2.157158851623535,-1.3393260550550004,-2.529497210179464,6.152158129006185,1.0225749015808105,-2.159327809010641
1708434928.2869093,-2.1571388244628906,-1.3393066239408036,-2.529538933430807,6.152202832489767,1.0226171016693115,-2.159382168446676
1708434928.2889156,-2.157158851623535,-1.339303122167923,-2.5295093695269983,6.152116167336263,1.0225917100906372,-2.159431759511129
1708434928.2908905,-2.157179832458496,-1.3393641126206894,-2.529522482548849,6.152152168541708,1.0226199626922607,-2.159415070210592
1708434928.2929103,-2.1571545600891113,-1.3393434596112748,-2.529538933430807,6.152141439705648,1.0225871801376343,-2.1594274679767054
1708434928.2949271,-2.157140016555786,-1.3393402707627793,-2.529546562825338,6.152156579285421,1.0226364135742188,-2.159391228352682
1708434928.296911,-2.1571502685546875,-1.3393197071603318,-2.529550854359762,6.152108657151022,1.0226244926452637,-2.159398857747213
1708434928.2988937,-2.157163143157959,-1.3393402707627793,-2.5295313040362757,6.152153718262472,1.022657871246338,-2.159361187611715
1708434928.3008845,-2.1571388244628906,-1.3392694604447861,-2.5294926802264612,6.1520964978034876,1.0225991010665894,-2.159398857747213
1708434928.3029356,-2.157196521759033,-1.3393391233733674,-2.529534641896383,6.152169930725851,1.0226318836212158,-2.1593778769122522
1708434928.3049197,-2.1571388244628906,-1.339322881107666,-2.5294926802264612,6.1521609900291345,1.0226243734359741,-2.1593902746783655
1708434928.3069284,-2.15718412399292,-1.3393185597709198,-2.5295267740832728,6.152107107430258,1.022644281387329,-2.159403626118795
1708434928.30891,-2.1571357250213623,-1.3392825585654755,-2.529550854359762,6.15213571765975,1.0226272344589233,-2.1594060103045862
1708434928.310901,-2.157158851623535,-1.3393391233733674,-2.529506031666891,6.152090775757589,1.0226398706436157,-2.159398857747213
1708434928.3129613,-2.157158851623535,-1.339324028497078,-2.529538933430807,6.152120578079977,1.0226562023162842,-2.1593778769122522
1708434928.3149009,-2.1570992469787598,-1.3392564964345475,-2.529522482548849,6.152177321701803,1.0226770639419556,-2.159440819417135
1708434928.3169267,-2.157151460647583,-1.3392825585654755,-2.5295267740832728,6.1521609900291345,1.0226635932922363,-2.1593778769122522
1708434928.318898,-2.1571431159973145,-1.3393066388419648,-2.5295313040362757,6.152120578079977,1.0226397514343262,-2.159358326588766
1708434928.3209362,-2.1571273803710938,-1.3392825585654755,-2.529501501713888,6.152116167336263,1.0226562023162842,-2.15941030183901
1708434928.3229315,-2.1570863723754883,-1.339330480699875,-2.529518191014425,6.1521655199821375,1.0226937532424927,-2.1594060103045862
1708434928.3248944,-2.1571922302246094,-1.3393478703549881,-2.5295258204089563,6.152162658959188,1.0226318836212158,-2.1593855063067835
1708434928.326921,-2.1570863723754883,-1.339310960178711,-2.529518191014425,6.152099835663595,1.022644281387329,-2.1594060103045862
1708434928.3288963,-2.157167434692383,-1.3393272024444123,-2.5295215288745325,6.15215944030837,1.0226606130599976,-2.159415070210592
1708434928.3308942,-2.157158851623535,-1.3392857027104874,-2.5295267740832728,6.152111518173971,1.0226606130599976,-2.1593902746783655
1708434928.3329117,-2.157116174697876,-1.3393479001573105,-2.52956730524172,6.152167069702902,1.022606372833252,-2.1594393889056605
1708434928.3349233,-2.157167434692383,-1.3393597465804596,-2.529518191014425,6.152078497200765,1.0226802825927734,-2.1594465414630335
1708434928.3369203,-2.157107353210449,-1.3392943751863022,-2.5295477549182337,6.152153599053182,1.0226471424102783,-2.1594513098346155
1708434928.3389056,-2.1571388244628906,-1.3393316280892869,-2.529501501713888,6.152144658356466,1.0226681232452393,-2.1594393889056605
1708434928.340895,-2.157167434692383,-1.3393066388419648,-2.529506031666891,6.152195441513815,1.0226635932922363,-2.159398857747213
1708434928.3429148,-2.1571474075317383,-1.3392813515714188,-2.529555384312765,6.152144658356466,1.0226967334747314,-2.1593902746783655
1708434928.3449328,-2.157116174697876,-1.339319722061493,-2.5295103232013147,6.152165639191427,1.0226922035217285,-2.1593902746783655
1708434928.3469555,-2.1571357250213623,-1.3392813515714188,-2.5295267740832728,6.152152168541708,1.0226695537567139,-2.159415070210592
1708434928.3489015,-2.157107353210449,-1.3393434596112748,-2.5295267740832728,6.1521609900291345,1.0226877927780151,-2.1594060103045862
1708434928.350896,-2.1571357250213623,-1.3393348020366211,-2.5295596758471888,6.152108657151022,1.0227208137512207,-2.1594303289996546
1708434928.352903,-2.1571388244628906,-1.3393921715072175,-2.52954346338381,6.152153599053182,1.0227162837982178,-2.1593945662127894
1708434928.3548942,-2.157163143157959,-1.3393359792283555,-2.529538933430807,6.152141439705648,1.0227162837982178,-2.1593945662127894
1708434928.356919,-2.1571388244628906,-1.3393348020366211,-2.529538933430807,6.152116167336263,1.0227208137512207,-2.1593993345843714
1708434928.3589287,-2.157163143157959,-1.3393109899810334,-2.529480759297506,6.152107226639547,1.0227329730987549,-2.1593688170062464
1708434928.3609023,-2.1571755409240723,-1.3393316280892869,-2.529489580784933,6.152099716454305,1.022740364074707,-2.1593597571002405
1708434928.3629265,-2.157158851623535,-1.3393272024444123,-2.5294926802264612,6.152140128403463,1.0227162837982178,-2.159431759511129
1708434928.3648942,-2.1571273803710938,-1.3393402707627793,-2.529555384312765,6.152066814690389,1.022728443145752,-2.1593945662127894
1708434928.3669257,-2.1571078300476074,-1.339322881107666,-2.529497210179464,6.152144658356466,1.0227329730987549,-2.1593902746783655
1708434928.3688903,-2.157107353210449,-1.3393478703549881,-2.529506031666891,6.152149188309469,1.0226876735687256,-2.1593969503985804
1708434928.370888,-2.1571402549743652,-1.339364157324173,-2.529518191014425,6.152153718262472,1.0226995944976807,-2.159415070210592
1708434928.3729143,-2.157099485397339,-1.3393074733069916,-2.5295642058001917,6.152111518173971,1.022729754447937,-2.15941030183901
1708434928.374889,-2.1571755409240723,-1.339293510918953,-2.529513661061422,6.152119028359213,1.0226950645446777,-2.1593521277057093
1708434928.376967,-2.157151460647583,-1.3392813515714188,-2.529550854359762,6.152119028359213,1.0226905345916748,-2.1593855063067835
1708434928.378905,-2.1571316719055176,-1.339310960178711,-2.529538933430807,6.152119028359213,1.0226995944976807,-2.1594346205340784
1708434928.3808951,-2.157140016555786,-1.3393434596112748,-2.5295215288745325,6.1520951865013025,1.0227162837982178,-2.1594093481646937
1708434928.3829293,-2.1571388244628906,-1.3393553656390687,-2.5295584837542933,6.152108776360311,1.0227117538452148,-2.1594513098346155
1708434928.3848948,-2.157090663909912,-1.3393098276904603,-2.529571596776144,6.152127969055929,1.0226949453353882,-2.1594060103045862
1708434928.386899,-2.1571431159973145,-1.3392857027104874,-2.5295422712909144,6.152108657151022,1.0227375030517578,-2.1594060103045862
1708434928.388943,-2.1571755409240723,-1.3393478703549881,-2.529546562825338,6.1522148726280115,1.022723913192749,-2.159398857747213
1708434928.390899,-2.157163143157959,-1.3393511039069672,-2.5296042601214808,6.152169930725851,1.022752285003662,-2.1593778769122522
1708434928.3929188,-2.157116174697876,-1.3393272024444123,-2.529513661061422,6.152127969055929,1.022728443145752,-2.1594556013690394
1708434928.394916,-2.157111883163452,-1.3393446070006867,-2.529571596776144,6.152120578079977,1.0227359533309937,-2.159463707600729
1708434928.396935,-2.1571273803710938,-1.3392814111760636,-2.5295258204089563,6.152108657151022,1.0227240324020386,-2.1594141165362757
1708434928.3989305,-2.1571316719055176,-1.3392943900874634,-2.529534641896383,6.152107226639547,1.0227566957473755,-2.1593969503985804
1708434928.400892,-2.157116174697876,-1.3393272024444123,-2.529538933430807,6.152153599053182,1.0226860046386719,-2.1594141165362757
1708434928.4029253,-2.1571357250213623,-1.3393228513053437,-2.529518191014425,6.152144658356466,1.022702693939209,-2.1594226996051233
1708434928.4049153,-2.1571717262268066,-1.3393109899810334,-2.5295303503619593,6.15217291095809,1.0227162837982178,-2.1594060103045862
1708434928.4069088,-2.1571273803710938,-1.339319722061493,-2.5295258204089563,6.152137028961935,1.0227447748184204,-2.1594513098346155
1708434928.4089036,-2.157155990600586,-1.339331642990448,-2.529562775288717,6.1521609900291345,1.022756814956665,-2.1594260374652308
1708434928.410903,-2.157095193862915,-1.3393142235330124,-2.529583517705099,6.152149188309469,1.0227566957473755,-2.1593969503985804
1708434928.4129348,-2.1571273803710938,-1.33929796636615,-2.5295215288745325,6.152136909752645,1.0227612257003784,-2.159416977559225
1708434928.414924,-2.1571474075317383,-1.339322881107666,-2.529562775288717,6.152099716454305,1.0227432250976562,-2.1594346205340784
1708434928.4169073,-2.1571273803710938,-1.3393422675183793,-2.529513661061422,6.152111518173971,1.022735834121704,-2.1594513098346155
1708434928.418897,-2.1571357250213623,-1.3393510443023224,-2.529513661061422,6.1521609900291345,1.022752285003662,-2.1594017187701624
1708434928.4208891,-2.1571273803710938,-1.3392893236926575,-2.529518191014425,6.152127969055929,1.0227477550506592,-2.1593764464007776
1708434928.4229012,-2.157069683074951,-1.3393185597709198,-2.529534641896383,6.152137028961935,1.0227854251861572,-2.1593926588641565
1708434928.4249022,-2.1571474075317383,-1.3393272024444123,-2.529513661061422,6.152174579888143,1.0227686166763306,-2.1594556013690394
1708434928.426887,-2.1570868492126465,-1.3393641126206894,-2.529562775288717,6.152158129006185,1.022752285003662,-2.1594260374652308
1708434928.4289043,-2.157155990600586,-1.3393316280892869,-2.5295377413379114,6.152158129006185,1.0227763652801514,-2.1594226996051233
1708434928.4308798,-2.1571273803710938,-1.3393922013095398,-2.529522482548849,6.152123439102926,1.022740364074707,-2.159437958394186
1708434928.4328916,-2.1570866107940674,-1.3393066388419648,-2.529538933430807,6.152149188309469,1.0227268934249878,-2.159437958394186
1708434928.4349031,-2.1571431159973145,-1.3393023175052186,-2.529538933430807,6.15217004993514,1.022752285003662,-2.1594017187701624
1708434928.4368951,-2.157140016555786,-1.3393434149077912,-2.5296085516559046,6.1520951865013025,1.0227763652801514,-2.1594303289996546
1708434928.4389052,-2.15712308883667,-1.339347929959633,-2.5295377413379114,6.152111518173971,1.022752285003662,-2.1594274679767054
1708434928.4409318,-2.1571273803710938,-1.3393390786698838,-2.52956730524172,6.152099716454305,1.0227854251861572,-2.1594346205340784
1708434928.4428875,-2.157167434692383,-1.3393023175052186,-2.529546562825338,6.1521116373832605,1.022752285003662,-2.1594303289996546
1708434928.444894,-2.1571600437164307,-1.339322881107666,-2.5295048395739954,6.152120578079977,1.0227642059326172,-2.1594184080706995
1708434928.4469376,-2.157116174697876,-1.339322881107666,-2.529574696217672,6.152116167336263,1.0227149724960327,-2.1594017187701624
1708434928.4489622,-2.1571273803710938,-1.3393272024444123,-2.529579226170675,6.152140128403463,1.0227731466293335,-2.1593764464007776
1708434928.45093,-2.1571273803710938,-1.3393597167781373,-2.529534641896383,6.152127969055929,1.022740364074707,-2.1594436804400843
1708434928.452898,-2.1571316719055176,-1.3393434596112748,-2.5295866171466272,6.152158129006185,1.0227195024490356,-2.159458939229147
1708434928.4548905,-2.1571245193481445,-1.3393553358367463,-2.5295584837542933,6.152116167336263,1.0227104425430298,-2.1594422499286097
1708434928.4568834,-2.157158851623535,-1.3393359196237107,-2.529579226170675,6.152120578079977,1.022752285003662,-2.1594226996051233
1708434928.4589045,-2.157163143157959,-1.3392737817815323,-2.529534641896383,6.152140247612753,1.022752285003662,-2.1594141165362757
1708434928.4609149,-2.157090663909912,-1.339310960178711,-2.5295303503619593,6.1521116373832605,1.0227612257003784,-2.1594303289996546
1708434928.4629006,-2.1571402549743652,-1.3393348020366211,-2.5295377413379114,6.152158129006185,1.0227432250976562,-2.1594184080706995
1708434928.464902,-2.157163143157959,-1.3393467229655762,-2.5295596758471888,6.152149188309469,1.0227642059326172,-2.1594346205340784
1708434928.466906,-2.1571357250213623,-1.339359701876976,-2.5295422712909144,6.152120697289266,1.0227988958358765,-2.1594556013690394
1708434928.468925,-2.157116174697876,-1.3393153709224244,-2.529579226170675,6.15217004993514,1.0227642059326172,-2.1593855063067835
1708434928.470901,-2.1571078300476074,-1.3393478703549881,-2.5295291582690638,6.152081835060873,1.0227898359298706,-2.1594465414630335
1708434928.472944,-2.157167434692383,-1.339359701876976,-2.529518191014425,6.152107107430258,1.0227854251861572,-2.1594303289996546
1708434928.4748986,-2.1571717262268066,-1.339330480699875,-2.5295704046832483,6.152141439705648,1.0227808952331543,-2.1594260374652308
1708434928.476912,-2.1571717262268066,-1.3392943900874634,-2.529550854359762,6.152099835663595,1.022797703742981,-2.15940505663027
1708434928.4789052,-2.157151699066162,-1.3393316280892869,-2.529555384312765,6.152158129006185,1.0227596759796143,-2.1594465414630335
1708434928.4808886,-2.1571035385131836,-1.339309812789299,-2.5294926802264612,6.152140128403463,1.022752285003662,-2.1594184080706995
1708434928.482911,-2.157107353210449,-1.3392943900874634,-2.529550854359762,6.152136909752645,1.02274489402771,-2.1594260374652308
1708434928.4848871,-2.157116651535034,-1.3393478703549881,-2.529562775288717,6.152102696686544,1.0227854251861572,-2.159496609364645
1708434928.4868898,-2.1571273803710938,-1.3393023026040574,-2.529550854359762,6.152179109841146,1.0227104425430298,-2.1594260374652308
1708434928.4888966,-2.1571202278137207,-1.3393260550550004,-2.529583517705099,6.1520906565483,1.02274489402771,-2.1593969503985804
1708434928.4908893,-2.1570868492126465,-1.3392979812673111,-2.5295258204089563,6.1521609900291345,1.0227432250976562,-2.159463707600729
1708434928.4929092,-2.1571388244628906,-1.339290053849556,-2.5295541922198694,6.1521774409110925,1.022797703742981,-2.1594465414630335
1708434928.4948862,-2.157151699066162,-1.3392857325128098,-2.529579226170675,6.152153599053182,1.0228229761123657,-2.1594303289996546
1708434928.496882,-2.1571402549743652,-1.3393467229655762,-2.5295093695269983,6.152127969055929,1.0227930545806885,-2.159463707600729
1708434928.4989324,-2.157144546508789,-1.3393676292947312,-2.529546562825338,6.152107107430258,1.0227596759796143,-2.1594727675067347
1708434928.5008943,-2.157118797302246,-1.339359701876976,-2.529576126729147,6.152083027153768,1.0227686166763306,-2.1594303289996546
1708434928.502901,-2.15712308883667,-1.3393272024444123,-2.529588047658102,6.152131306916036,1.022797703742981,-2.1594679991351526
1708434928.5048919,-2.157151699066162,-1.3393316280892869,-2.5295334498034876,6.1520951865013025,1.0227477550506592,-2.1593688170062464
1708434928.5068967,-2.1571273803710938,-1.3393391233733674,-2.529546562825338,6.152158129006185,1.0227841138839722,-2.1594393889056605
1708434928.5089276,-2.157094955444336,-1.3393142235330124,-2.529562775288717,6.152153599053182,1.0227885246276855,-2.1594260374652308
1708434928.510889,-2.1571388244628906,-1.3393142235330124,-2.5295258204089563,6.152177321701803,1.0227885246276855,-2.1593969503985804
1708434928.5128994,-2.1571474075317383,-1.3393553805402298,-2.5295541922198694,6.152141439705648,1.0227687358856201,-2.1594513098346155
1708434928.5149212,-2.157155990600586,-1.3393153709224244,-2.529574696217672,6.152099835663595,1.0227386951446533,-2.1593969503985804
1708434928.516891,-2.1571431159973145,-1.3393391233733674,-2.5295005480395716,6.152108657151022,1.0228095054626465,-2.1594513098346155
1708434928.5189054,-2.157158851623535,-1.339309812789299,-2.5295541922198694,6.152132499008932,1.0227432250976562,-2.1594303289996546
1708434928.5208938,-2.1571402549743652,-1.3393023026040574,-2.5295541922198694,6.152156579285421,1.0227104425430298,-2.15940505663027
1708434928.5229,-2.1571202278137207,-1.3393272024444123,-2.5295422712909144,6.152123558312216,1.0227195024490356,-2.1594274679767054
1708434928.5249317,-2.1570868492126465,-1.3392979812673111,-2.5294962565051478,6.152127969055929,1.0227930545806885,-2.1594274679767054
1708434928.5268867,-2.157111883163452,-1.3393684488585968,-2.529524628316061,6.152127969055929,1.0227642059326172,-2.159475628529684
1708434928.5289195,-2.157163143157959,-1.3393348020366211,-2.529562775288717,6.1521609900291345,1.0227687358856201,-2.1594393889056605
1708434928.5309062,-2.1571316719055176,-1.3393066388419648,-2.529607597981588,6.152090775757589,1.0227975845336914,-2.1594260374652308
1708434928.5328856,-2.157094955444336,-1.3393185597709198,-2.529579226170675,6.1520951865013025,1.0227447748184204,-2.1594679991351526
1708434928.534896,-2.157163143157959,-1.3393348020366211,-2.5295334498034876,6.152120578079977,1.0227808952331543,-2.1594303289996546
1708434928.536884,-2.1571202278137207,-1.3393316280892869,-2.529579226170675,6.152102696686544,1.022740364074707,-2.1594465414630335
1708434928.5389585,-2.15712308883667,-1.3392979812673111,-2.529595438634054,6.152158129006185,1.0227314233779907,-2.1594141165362757
1708434928.54089,-2.157167434692383,-1.3392857325128098,-2.529574696217672,6.15212498882369,1.0227763652801514,-2.1594556013690394
1708434928.5428798,-2.157158851623535,-1.3393066388419648,-2.529562775288717,6.152219521790304,1.0227432250976562,-2.1593945662127894
1708434928.5449436,-2.157094955444336,-1.3393304657987137,-2.5295541922198694,6.152111518173971,1.0227763652801514,-2.1593969503985804
1708434928.546937,-2.15712308883667,-1.339359701876976,-2.5295987764941614,6.1520964978034876,1.0227885246276855,-2.1593969503985804
1708434928.548955,-2.157116174697876,-1.3393316280892869,-2.529611889516012,6.1521655199821375,1.0227432250976562,-2.1594141165362757
1708434928.5509088,-2.157062530517578,-1.3393066388419648,-2.5295704046832483,6.152149188309469,1.022825837135315,-2.1594141165362757
1708434928.5529222,-2.157094955444336,-1.3393478703549881,-2.529513661061422,6.152140128403463,1.0227432250976562,-2.1594465414630335
1708434928.5549126,-2.157151699066162,-1.3393391233733674,-2.529583517705099,6.152102696686544,1.0227975845336914,-2.1593812147723597
1708434928.556904,-2.15712308883667,-1.3393676292947312,-2.529562775288717,6.152116167336263,1.0227596759796143,-2.1594017187701624
1708434928.558938,-2.1570911407470703,-1.3393806976130982,-2.5295541922198694,6.152141439705648,1.0228095054626465,-2.1594017187701624
1708434928.5609145,-2.1571202278137207,-1.339322881107666,-2.529607597981588,6.152108657151022,1.0227854251861572,-2.159415070210592
1708434928.5628943,-2.1570992469787598,-1.339322881107666,-2.529546562825338,6.152174460678854,1.0227763652801514,-2.1594484488116663
1708434928.5648918,-2.1571388244628906,-1.3393510443023224,-2.529546562825338,6.152153599053182,1.022735834121704,-2.15941030183901
1708434928.566922,-2.1571273803710938,-1.339310960178711,-2.5295093695269983,6.1521655199821375,1.0227432250976562,-2.1594226996051233
1708434928.5689209,-2.1571288108825684,-1.339359701876976,-2.529574696217672,6.152141439705648,1.0227810144424438,-2.1593812147723597
1708434928.5709043,-2.1571316719055176,-1.3393228662065049,-2.5295422712909144,6.152078497200765,1.0227686166763306,-2.159403626118795
1708434928.572894,-2.1571602821350098,-1.3393641126206894,-2.5295704046832483,6.15220724323348,1.022825837135315,-2.1594274679767054
1708434928.574929,-2.157155990600586,-1.3393391233733674,-2.529611889516012,6.152108657151022,1.0227808952331543,-2.1593778769122522
1708434928.576886,-2.157151460647583,-1.3393391233733674,-2.5295704046832483,6.152137028961935,1.0227808952331543,-2.1593945662127894
1708434928.578914,-2.157116174697876,-1.3393391233733674,-2.52959114709963,6.1521655199821375,1.0227506160736084,-2.159382168446676
1708434928.5809002,-2.1571357250213623,-1.339322881107666,-2.5295584837542933,6.15217004993514,1.0227975845336914,-2.1593568960772913
1708434928.5829074,-2.157158851623535,-1.3393023026040574,-2.529562775288717,6.152140128403463,1.0227551460266113,-2.159398857747213
1708434928.584906,-2.1571273803710938,-1.3393806976130982,-2.529550854359762,6.152136909752645,1.0228095054626465,-2.159365955983297
1708434928.5869288,-2.157163143157959,-1.339359701876976,-2.5295749346362513,6.152132499008932,1.0227975845336914,-2.159440819417135
1708434928.5889082,-2.1571717262268066,-1.3393553805402298,-2.529623810444967,6.152190911560812,1.0227686166763306,-2.1593864599811
1708434928.590945,-2.1571273803710938,-1.339310960178711,-2.529579226170675,6.152111518173971,1.0227854251861572,-2.1594436804400843
1708434928.592932,-2.1571078300476074,-1.339359701876976,-2.5296033064471644,6.152153599053182,1.0227718353271484,-2.1594017187701624
1708434928.5949152,-2.157158851623535,-1.3392857325128098,-2.5295541922198694,6.152141439705648,1.0227478742599487,-2.1594274679767054
1708434928.5969348,-2.157167434692383,-1.339330480699875,-2.5295377413379114,6.152090775757589,1.0227222442626953,-2.159370247517721
1708434928.5989017,-2.1571245193481445,-1.3392979812673111,-2.529579226170675,6.152149188309469,1.0227763652801514,-2.1594017187701624
1708434928.6009247,-2.1571288108825684,-1.3393023026040574,-2.5295615831958216,6.152132499008932,1.0227612257003784,-2.159403626118795
1708434928.6029155,-2.157116174697876,-1.3393142235330124,-2.529546562825338,6.152099716454305,1.0227885246276855,-2.159415070210592
1708434928.6048949,-2.1571316719055176,-1.3392943900874634,-2.5295704046832483,6.152116167336263,1.0227686166763306,-2.1594060103045862
1708434928.6069412,-2.157151460647583,-1.3393510443023224,-2.529574696217672,6.152144658356466,1.0227642059326172,-2.159382168446676
1708434928.6089034,-2.1571316719055176,-1.3393272024444123,-2.5295048395739954,6.152141439705648,1.0227477550506592,-2.159407917653219
1708434928.6108956,-2.1571431159973145,-1.3392979812673111,-2.5295093695269983,6.1521609900291345,1.0227642059326172,-2.159398857747213
1708434928.6129286,-2.1571035385131836,-1.339278132920601,-2.529546562825338,6.152127969055929,1.0227386951446533,-2.159370247517721
1708434928.614907,-2.1571474075317383,-1.3393272024444123,-2.5295377413379114,6.152090775757589,1.0227731466293335,-2.15934926668276
1708434928.6169062,-2.157167434692383,-1.339322881107666,-2.5295866171466272,6.152140247612753,1.0227596759796143,-2.1593521277057093
1708434928.618915,-2.15712308883667,-1.3393348020366211,-2.529546562825338,6.152098166733541,1.0227854251861572,-2.1594060103045862
1708434928.6209173,-2.157155990600586,-1.3393272024444123,-2.529578987752096,6.152108776360311,1.0227975845336914,-2.1593568960772913
1708434928.622953,-2.157111644744873,-1.3393066388419648,-2.529583517705099,6.152123558312216,1.0227898359298706,-2.1593568960772913
1708434928.624899,-2.1571474075317383,-1.3393434596112748,-2.5295334498034876,6.15217004993514,1.0227686166763306,-2.159403626118795
1708434928.626886,-2.157116174697876,-1.3393391233733674,-2.529574696217672,6.152102577477255,1.0227432250976562,-2.159336868916647
1708434928.628908,-2.157140016555786,-1.3393348020366211,-2.5295704046832483,6.152140247612753,1.0227642059326172,-2.159391228352682
1708434928.6308942,-2.1571273803710938,-1.339318574672081,-2.5295377413379114,6.152100789337911,1.0227731466293335,-2.159398857747213
1708434928.6329112,-2.1571273803710938,-1.3393260550550004,-2.529583517705099,6.152111518173971,1.0227642059326172,-2.159354035054342
1708434928.6348944,-2.1571431159973145,-1.3393142235330124,-2.5294962565051478,6.1521819708640955,1.0227718353271484,-2.159391228352682
1708434928.6369045,-2.1571431159973145,-1.339322881107666,-2.5295172373401087,6.152193772583761,1.0228021144866943,-2.159332577382223
1708434928.6389163,-2.1571357250213623,-1.3393546354821702,-2.5295258204089563,6.152123439102926,1.0227975845336914,-2.15934926668276
1708434928.6409204,-2.1571717262268066,-1.3393348020366211,-2.529562775288717,6.152116167336263,1.0227687358856201,-2.159391228352682
1708434928.6429253,-2.157118797302246,-1.3393719506314774,-2.529550854359762,6.15211449840621,1.0227642059326172,-2.1593778769122522
1708434928.6448965,-2.157111883163452,-1.3393272024444123,-2.529546562825338,6.152114617615499,1.0227596759796143,-2.159374539052145
1708434928.6469278,-2.157151460647583,-1.339359701876976,-2.5295596758471888,6.1521116373832605,1.0227687358856201,-2.159358326588766
1708434928.6489577,-2.1571712493896484,-1.3393553656390687,-2.5295303503619593,6.1521386978919885,1.0227808952331543,-2.1593864599811
1708434928.6509087,-2.157107353210449,-1.3393434596112748,-2.5295584837542933,6.152114617615499,1.0227808952331543,-2.1593864599811
1708434928.6529481,-2.157155752182007,-1.339359701876976,-2.5295584837542933,6.152135836869039,1.0227808952331543,-2.159374539052145
1708434928.654908,-2.157094955444336,-1.339327187543251,-2.5295496622668665,6.152152168541708,1.0227268934249878,-2.159374539052145
1708434928.656898,-2.157118797302246,-1.3392979812673111,-2.529562775288717,6.152147757797994,1.0227642059326172,-2.159370247517721
1708434928.6589105,-2.157116174697876,-1.3393142235330124,-2.529579226170675,6.152140128403463,1.0227477550506592,-2.159412686024801
1708434928.6609051,-2.157099485397339,-1.3393348020366211,-2.5295258204089563,6.152153718262472,1.0227687358856201,-2.159330193196432
1708434928.662916,-2.157163143157959,-1.3393348020366211,-2.5295704046832483,6.152164089470663,1.0227642059326172,-2.159370247517721
1708434928.6648967,-2.157116174697876,-1.3392943900874634,-2.529595438634054,6.152150499611654,1.0227195024490356,-2.1593835989581507
1708434928.666944,-2.15712308883667,-1.3393272173455735,-2.529562775288717,6.152188169747152,1.0227566957473755,-2.159358326588766
1708434928.6689029,-2.157155990600586,-1.3393510741046448,-2.529546562825338,6.152189361840048,1.0227642059326172,-2.1593449751483362
1708434928.670905,-2.157111883163452,-1.3393348020366211,-2.5295048395739954,6.152164089470663,1.0227686166763306,-2.159370247517721
1708434928.6729093,-2.157155990600586,-1.3393142235330124,-2.529579226170675,6.152175891190328,1.0227731466293335,-2.159398857747213
1708434928.6748912,-2.157163143157959,-1.3393272024444123,-2.5295422712909144,6.152188169747152,1.0227686166763306,-2.159354035054342
1708434928.6769807,-2.157151460647583,-1.3393423122218628,-2.529607597981588,6.152216422348776,1.0227478742599487,-2.159358326588766
1708434928.6789384,-2.1571474075317383,-1.3393272024444123,-2.529550854359762,6.1522583840186975,1.0227195024490356,-2.1593449751483362
1708434928.6809099,-2.1571922302246094,-1.339330480699875,-2.5295584837542933,6.152240502625265,1.0227359533309937,-2.159299675618307
1708434928.6829379,-2.1571359634399414,-1.3393023026040574,-2.5295005480395716,6.152276026993551,1.0227988958358765,-2.159367386494772
1708434928.684904,-2.1571388244628906,-1.339330480699875,-2.529546562825338,6.152280437737264,1.022728443145752,-2.159379307423727
1708434928.6869159,-2.157158851623535,-1.3393185597709198,-2.529541079198019,6.152276026993551,1.0227329730987549,-2.159374539052145
1708434928.688942,-2.1571357250213623,-1.3393510443023224,-2.52959114709963,6.152264344483175,1.0227359533309937,-2.1593835989581507
1708434928.6908875,-2.157134532928467,-1.3392857325128098,-2.529574696217672,6.15230010727004,1.022749423980713,-2.1593459288226526
1708434928.692921,-2.1571273803710938,-1.3393553805402298,-2.5295215288745325,6.1522971270378015,1.0227447748184204,-2.1593039671527308
1708434928.6949189,-2.157111644744873,-1.3392694902471085,-2.529562775288717,6.152309047966757,1.0227329730987549,-2.159379307423727
1708434928.6969469,-2.157158851623535,-1.3393316280892869,-2.5295584837542933,6.152271497040548,1.0227162837982178,-2.1593502203570765
1708434928.698942,-2.157158851623535,-1.339359701876976,-2.5295258204089563,6.152292835503378,1.022707223892212,-2.159330193196432
1708434928.700956,-2.1571145057678223,-1.3392857325128098,-2.5295866171466272,6.152262675553121,1.0227731466293335,-2.1593344847308558
1708434928.7029397,-2.1571202278137207,-1.3393185448697587,-2.5295584837542933,6.152259933739462,1.0227359533309937,-2.1593130270587366
1708434928.704916,-2.1571755409240723,-1.3393478107503434,-2.529513661061422,6.152266967087545,1.022752285003662,-2.159367386494772
1708434928.7069254,-2.1571273803710938,-1.3393023026040574,-2.529546562825338,6.152271497040548,1.0227028131484985,-2.1593502203570765
1708434928.7089245,-2.157151699066162,-1.3393272173455735,-2.529574696217672,6.152276026993551,1.0227822065353394,-2.159367386494772
1708434928.710884,-2.157111644744873,-1.3393272024444123,-2.5295048395739954,6.152304518013754,1.0227329730987549,-2.159358326588766
1708434928.712926,-2.15712308883667,-1.3392857325128098,-2.5295661131488245,6.1522137997444055,1.0226861238479614,-2.159358326588766
1708434928.7149022,-2.15712308883667,-1.3393260103515168,-2.5295541922198694,6.152225601464071,1.0227117538452148,-2.1593835989581507
1708434928.7169168,-2.1571545600891113,-1.339359701876976,-2.529576126729147,6.152267086296835,1.0227195024490356,-2.159391228352682
1708434928.7189198,-2.1571357250213623,-1.3393260550550004,-2.529546562825338,6.152250993042745,1.022707223892212,-2.159341637288229
1708434928.7208948,-2.1571712493896484,-1.339359701876976,-2.529555384312765,6.152320968895712,1.0227447748184204,-2.15934926668276
1708434928.7229269,-2.1571474075317383,-1.339309812789299,-2.529546562825338,6.152295696526327,1.0227195024490356,-2.159358326588766
1708434928.7249048,-2.157163143157959,-1.3393023026040574,-2.529513661061422,6.152267086296835,1.022728443145752,-2.159336868916647
1708434928.7269225,-2.1571922302246094,-1.3393423569253464,-2.529562775288717,6.152312028198995,1.022728443145752,-2.15932542482485
1708434928.7289648,-2.1571431159973145,-1.3392769259265442,-2.529562775288717,6.1522793648536584,1.0226950645446777,-2.1593387762652796
1708434928.7308936,-2.1571459770202637,-1.33929796636615,-2.52956730524172,6.152267086296835,1.0227240324020386,-2.1593764464007776
1708434928.7329416,-2.15712308883667,-1.3393478852561493,-2.5295615831958216,6.152307617455282,1.0227208137512207,-2.159354035054342
1708434928.7348936,-2.1571273803710938,-1.3393588823131104,-2.5295215288745325,6.152292716294088,1.022728443145752,-2.159379307423727
1708434928.736948,-2.157179832458496,-1.3392979365638276,-2.5295584837542933,6.1522748349006555,1.0227162837982178,-2.159330193196432
1708434928.7389412,-2.1571316719055176,-1.3393719804337998,-2.5295050779925745,6.152341830521383,1.0227162837982178,-2.159374539052145
1708434928.7408955,-2.1571669578552246,-1.3393142384341736,-2.5295878092395228,6.152267086296835,1.0226740837097168,-2.159374539052145
1708434928.7429118,-2.1571388244628906,-1.3393806976130982,-2.529546562825338,6.152304518013754,1.0227420330047607,-2.15934926668276
1708434928.7448924,-2.157134532928467,-1.3392813962749024,-2.529583517705099,6.1522912857826135,1.0226713418960571,-2.1593864599811
1708434928.746938,-2.157158851623535,-1.3393719357303162,-2.5295258204089563,6.152266967087545,1.0227208137512207,-2.15932542482485
1708434928.7489498,-2.157212495803833,-1.3393510443023224,-2.5295749346362513,6.1523406384284876,1.0226950645446777,-2.159379307423727
1708434928.7510726,-2.157158851623535,-1.3393185597709198,-2.5295215288745325,6.15226577499465,1.0226922035217285,-2.1593177954303187
1708434928.7529736,-2.157158851623535,-1.3393272024444123,-2.5295215288745325,6.152276026993551,1.022708535194397,-2.1593716780291956
1708434928.7549481,-2.1571431159973145,-1.3393511039069672,-2.5296033064471644,6.152309047966757,1.0226922035217285,-2.159292523060934
1708434928.7569244,-2.1571388244628906,-1.3393597614816208,-2.5295704046832483,6.1523194191749475,1.02267587184906,-2.1593626181231897
1708434928.758923,-2.157114267349243,-1.3393676590970536,-2.529546562825338,6.152312028198995,1.0226876735687256,-2.159330193196432
1708434928.7609046,-2.157134532928467,-1.339269520049431,-2.5295866171466272,6.152288186341085,1.0226995944976807,-2.159308735524313
1708434928.7629175,-2.1571273803710938,-1.3393260550550004,-2.5295584837542933,6.152312028198995,1.0226802825927734,-2.1593864599811
1708434928.7649126,-2.1571431159973145,-1.339293510918953,-2.5295541922198694,6.152271497040548,1.02267587184906,-2.1593387762652796
1708434928.766896,-2.157134532928467,-1.3393422973207016,-2.529574696217672,6.152320968895712,1.022642731666565,-2.159370247517721
1708434928.7689266,-2.157158851623535,-1.3393142086318512,-2.5295334498034876,6.152316438942709,1.0226713418960571,-2.159374539052145
1708434928.7709029,-2.157196521759033,-1.3393632930568238,-2.529562775288717,6.152320968895712,1.022659182548523,-2.159367386494772
1708434928.772919,-2.1571431159973145,-1.3393632930568238,-2.529555384312765,6.152283775597372,1.0226471424102783,-2.159332577382223
1708434928.77489,-2.157208204269409,-1.339309812789299,-2.529578987752096,6.152316438942709,1.0226635932922363,-2.159374539052145
1708434928.7769046,-2.157158851623535,-1.339322881107666,-2.529518191014425,6.152370321541586,1.022696614265442,-2.159358326588766
1708434928.7789154,-2.157162666320801,-1.3393185448697587,-2.529574696217672,6.15233730056838,1.022650122642517,-2.159341637288229
1708434928.7809072,-2.157158851623535,-1.3393423122218628,-2.5295704046832483,6.1522536156471155,1.022696614265442,-2.159367386494772
1708434928.7829123,-2.157179355621338,-1.339317486887314,-2.529555384312765,6.152349579125204,1.0226922035217285,-2.1593864599811
1708434928.7849083,-2.1571967601776123,-1.339322881107666,-2.5295172373401087,6.152325498848715,1.02267587184906,-2.1593549887286585
1708434928.7869062,-2.157167434692383,-1.3393588674119492,-2.529555384312765,6.152266967087545,1.022729754447937,-2.159332577382223
1708434928.7889051,-2.15712308883667,-1.3393467229655762,-2.529534641896383,6.152373420983114,1.022696614265442,-2.159354035054342
1708434928.7909088,-2.157111644744873,-1.3393023026040574,-2.529546562825338,6.152295577317037,1.0226802825927734,-2.1593626181231897
1708434928.7929,-2.157158136367798,-1.3393466931632538,-2.5295878092395228,6.152367341309347,1.0227130651474,-2.159341637288229
1708434928.7949023,-2.1571836471557617,-1.3393553805402298,-2.529546562825338,6.152255403786459,1.0226562023162842,-2.1593502203570765
1708434928.79691,-2.157158851623535,-1.3392979812673111,-2.52956730524172,6.152331697731771,1.0226681232452393,-2.1593387762652796
1708434928.7989068,-2.1571545600891113,-1.3392979812673111,-2.5295258204089563,6.152304518013754,1.0227175951004028,-2.159341637288229
1708434928.80089,-2.1571922302246094,-1.339326099758484,-2.529555384312765,6.152270304947653,1.0226893424987793,-2.1593459288226526
1708434928.8029413,-2.1571388244628906,-1.3393391233733674,-2.5295422712909144,6.152279245644369,1.0226635932922363,-2.159341637288229
1708434928.8049045,-2.1571996212005615,-1.3393467229655762,-2.5295866171466272,6.152288186341085,1.0226590633392334,-2.159358326588766
1708434928.8069015,-2.1571502685546875,-1.3393185448697587,-2.529583517705099,6.1523194191749475,1.0226922035217285,-2.159379307423727
1708434928.8088892,-2.1571474075317383,-1.3393676292947312,-2.529513661061422,6.152292716294088,1.0227041244506836,-2.159379307423727
1708434928.8108816,-2.1571879386901855,-1.3393272173455735,-2.529546562825338,6.152316438942709,1.0226848125457764,-2.159379307423727
1708434928.8129175,-2.157134532928467,-1.3393423420241852,-2.529538933430807,6.152295696526327,1.0226877927780151,-2.1593177954303187
1708434928.8148901,-2.1571879386901855,-1.3393467378667374,-2.529571596776144,6.152331697731771,1.0226590633392334,-2.159403626118795
1708434928.8170295,-2.157134532928467,-1.3393762719682236,-2.5295215288745325,6.152292716294088,1.0226545333862305,-2.1593459288226526
1708434928.8189116,-2.1571712493896484,-1.3393478256515046,-2.5295584837542933,6.152292716294088,1.0227130651474,-2.1593459288226526
1708434928.8209271,-2.157118797302246,-1.3393304657987137,-2.5295584837542933,6.152312028198995,1.022642731666565,-2.15932542482485
1708434928.822927,-2.1571879386901855,-1.3393066090396424,-2.5295539538012903,6.152366030007162,1.0226681232452393,-2.15932542482485
1708434928.8249104,-2.1571388244628906,-1.339331568484642,-2.529546562825338,6.15230010727004,1.02267587184906,-2.1593864599811
1708434928.8269193,-2.1571502685546875,-1.3392936301282425,-2.529574696217672,6.1522912857826135,1.0227012634277344,-2.159354035054342
1708434928.8289142,-2.1571474075317383,-1.3393185448697587,-2.5295303503619593,6.152341830521383,1.0226218700408936,-2.1593864599811
1708434928.830896,-2.15718412399292,-1.3393381100944062,-2.529518191014425,6.152283775597372,1.0226848125457764,-2.1593626181231897
1708434928.8329227,-2.1571836471557617,-1.3393391233733674,-2.529522482548849,6.15232394912795,1.0226471424102783,-2.159354035054342
1708434928.834887,-2.1571712493896484,-1.3393218231252213,-2.529555384312765,6.152258026390829,1.022633671760559,-2.159374539052145
1708434928.8369036,-2.1571459770202637,-1.339310960178711,-2.52953011194338,6.152374970703878,1.0227175951004028,-2.159391228352682
1708434928.8388944,-2.1571545600891113,-1.3393228662065049,-2.529513661061422,6.152325498848715,1.0226635932922363,-2.1593945662127894
1708434928.8409023,-2.1571922302246094,-1.3393348020366211,-2.529546562825338,6.152270304947653,1.0226681232452393,-2.159370247517721
1708434928.8429074,-2.15712308883667,-1.3393022877028962,-2.529595438634054,6.152303087502279,1.0227011442184448,-2.159398857747213
1708434928.8448973,-2.157158851623535,-1.3393348020366211,-2.529583517705099,6.152349579125204,1.0226848125457764,-2.1593716780291956
1708434928.846941,-2.157167434692383,-1.3393675696900864,-2.5295584837542933,6.1522748349006555,1.0227012634277344,-2.159424130116598
1708434928.8489823,-2.157158851623535,-1.33933478713546,-2.5295215288745325,6.152295577317037,1.0226517915725708,-2.159358326588766
1708434928.8509414,-2.157158851623535,-1.3393304657987137,-2.529518191014425,6.152304518013754,1.0226757526397705,-2.159382168446676
1708434928.8529012,-2.157179832458496,-1.3393434298089524,-2.5295596758471888,6.152295696526327,1.0226802825927734,-2.1593449751483362
1708434928.8549106,-2.1571712493896484,-1.3393185299685975,-2.5294926802264612,6.152242052346029,1.0226922035217285,-2.159428421651022
1708434928.8569508,-2.1571545600891113,-1.3393467229655762,-2.5295093695269983,6.152329790383138,1.0226635932922363,-2.159419361745016
1708434928.8589146,-2.1571922302246094,-1.3393510443023224,-2.529588047658102,6.152295696526327,1.0227012634277344,-2.159321133290426
1708434928.8609245,-2.1571967601776123,-1.33937622726474,-2.529546562825338,6.152270185738363,1.0226848125457764,-2.1593864599811
1708434928.862931,-2.1571474075317383,-1.3393338036588212,-2.52956730524172,6.152320968895712,1.0226713418960571,-2.159358326588766
1708434928.8648934,-2.157130241394043,-1.3393315982869645,-2.529538933430807,6.152325498848715,1.0226922035217285,-2.159382168446676
1708434928.8669205,-2.1571388244628906,-1.3393835884383698,-2.529562775288717,6.152320968895712,1.0226668119430542,-2.159424130116598
1708434928.868924,-2.1571755409240723,-1.339368389253952,-2.529562775288717,6.152292716294088,1.0227012634277344,-2.159382168446676
1708434928.8708885,-2.157158851623535,-1.3393676590970536,-2.529583517705099,6.152349579125204,1.02267587184906,-2.15931207338442
1708434928.8729408,-2.1571712493896484,-1.3393510443023224,-2.5295048395739954,6.152292716294088,1.0226500034332275,-2.159365955983297
1708434928.8749173,-2.157174825668335,-1.339363307957985,-2.529513661061422,6.15231345871047,1.0227012634277344,-2.159398857747213
1708434928.8769088,-2.1571502685546875,-1.3393229109099885,-2.5295704046832483,6.152288186341085,1.0226922035217285,-2.159370247517721
1708434928.8789165,-2.157163143157959,-1.3393675845912476,-2.5295541922198694,6.152283775597372,1.0226590633392334,-2.159365955983297
1708434928.8808947,-2.1571755409240723,-1.3393260550550004,-2.529546562825338,6.152307617455282,1.0226802825927734,-2.159365955983297
1708434928.8828974,-2.1571712493896484,-1.3393467229655762,-2.52956730524172,6.15230010727004,1.0226622819900513,-2.159382168446676
1708434928.884894,-2.1571712493896484,-1.3393348020366211,-2.529579226170675,6.152316438942709,1.0226893424987793,-2.15937310854067
1708434928.8869221,-2.1571431159973145,-1.3393260401538392,-2.529534641896383,6.15233730056838,1.0227175951004028,-2.159365955983297
1708434928.8889277,-2.1571879386901855,-1.339290053849556,-2.529571596776144,6.152309047966757,1.0226922035217285,-2.159403626118795
1708434928.8908992,-2.1571414470672607,-1.339346708064415,-2.5295377413379114,6.152307617455282,1.0227012634277344,-2.159361187611715
1708434928.8929434,-2.1571502685546875,-1.339318574672081,-2.5295944849597376,6.152316438942709,1.0226668119430542,-2.1593835989581507
1708434928.8948896,-2.1571316719055176,-1.3393228215030213,-2.5295499006854456,6.15231333950118,1.0227389335632324,-2.159354035054342
1708434928.8969276,-2.157162666320801,-1.3393792372993012,-2.5295127073871058,6.152304518013754,1.0226922035217285,-2.159398857747213
1708434928.8989165,-2.1572039127349854,-1.3393719804337998,-2.5295422712909144,6.152346122055807,1.0226802825927734,-2.159415070210592
1708434928.900899,-2.1571879386901855,-1.3393791925958176,-2.5295258204089563,6.152271497040548,1.0226500034332275,-2.159382168446676
1708434928.902923,-2.157179355621338,-1.3393434298089524,-2.52956730524172,6.15230010727004,1.0227130651474,-2.159445110951559
1708434928.904897,-2.157118797302246,-1.3393304508975525,-2.529578987752096,6.152262556343832,1.0226922035217285,-2.1593778769122522
1708434928.9069238,-2.157179355621338,-1.3393228662065049,-2.5295377413379114,6.152292716294088,1.0226668119430542,-2.159398857747213
1708434928.9089022,-2.1571459770202637,-1.339322881107666,-2.5295050779925745,6.152325498848715,1.02267587184906,-2.159382168446676
1708434928.9108775,-2.1571712493896484,-1.3393391233733674,-2.5295303503619593,6.15230010727004,1.0226848125457764,-2.1594017187701624
1708434928.9128957,-2.1571388244628906,-1.3393510443023224,-2.5295303503619593,6.152304637223043,1.0226893424987793,-2.159365955983297
1708434928.9148898,-2.1571273803710938,-1.3393055659583588,-2.529562775288717,6.152316438942709,1.0226802825927734,-2.159407917653219
1708434928.9169037,-2.1571502685546875,-1.3393109899810334,-2.529546562825338,6.152295696526327,1.0226666927337646,-2.1593568960772913
1708434928.9189045,-2.1571669578552246,-1.3393510294011612,-2.5296040217029017,6.152345049172201,1.0227175951004028,-2.15941030183901
1708434928.9208946,-2.1571502685546875,-1.339350314145424,-2.529595438634054,6.152276026993551,1.0226922035217285,-2.159327809010641
1708434928.9228928,-2.1571459770202637,-1.339290053849556,-2.5295422712909144,6.152262556343832,1.0226893424987793,-2.159370247517721
1708434928.924894,-2.157134532928467,-1.3393554103425522,-2.5295584837542933,6.152295577317037,1.0226876735687256,-2.159391228352682
1708434928.9269,-2.1571431159973145,-1.3392684173635026,-2.529546562825338,6.152246582299032,1.02273428440094,-2.159361187611715
1708434928.9288864,-2.1571388244628906,-1.339276985531189,-2.5295379797564905,6.15233730056838,1.02267587184906,-2.1593945662127894
1708434928.9308987,-2.157162666320801,-1.3393023026040574,-2.529550854359762,6.1522971270378015,1.0226848125457764,-2.159361187611715
1708434928.9329145,-2.1571474075317383,-1.3393588823131104,-2.529562775288717,6.152279245644369,1.0227253437042236,-2.1593778769122522
1708434928.9348865,-2.157134532928467,-1.3393676292947312,-2.5295377413379114,6.15231345871047,1.0227208137512207,-2.1593945662127894
1708434928.9369123,-2.15712308883667,-1.339347855453827,-2.5295866171466272,6.152250993042745,1.0226786136627197,-2.1594436804400843
1708434928.9389272,-2.1571273803710938,-1.3393434596112748,-2.5295422712909144,6.152234661370077,1.022729754447937,-2.1593945662127894
1708434928.940938,-2.157179355621338,-1.3393632930568238,-2.5295541922198694,6.152309167176046,1.0227253437042236,-2.1594060103045862
1708434928.9429061,-2.1571755409240723,-1.3393467229655762,-2.529562775288717,6.152276026993551,1.0227162837982178,-2.159398857747213
1708434928.9449356,-2.1571545600891113,-1.3393676292947312,-2.5295303503619593,6.152250993042745,1.0227041244506836,-2.1593864599811
1708434928.946928,-2.1571388244628906,-1.3392979812673111,-2.5295704046832483,6.152264344483175,1.0226922035217285,-2.159370247517721
1708434928.948941,-2.157158851623535,-1.339346708064415,-2.5295048395739954,6.152262556343832,1.022708535194397,-2.15937310854067
1708434928.9509487,-2.1571030616760254,-1.339322881107666,-2.5295704046832483,6.152289259224691,1.0227117538452148,-2.1593778769122522
1708434928.9529214,-2.1571431159973145,-1.3393641126206894,-2.529579226170675,6.152292716294088,1.022728443145752,-2.1593568960772913
1708434928.9549007,-2.157130241394043,-1.3393055212548752,-2.5295422712909144,6.152259933739462,1.0227130651474,-2.1593864599811
1708434928.956898,-2.1571879386901855,-1.339310960178711,-2.529579226170675,6.152273165970602,1.0227253437042236,-2.159403626118795
1708434928.9589188,-2.1571388244628906,-1.3393546354821702,-2.5295704046832483,6.152250993042745,1.0227329730987549,-2.159403626118795
1708434928.9609225,-2.15712308883667,-1.3393304657987137,-2.5295215288745325,6.152259933739462,1.0227240324020386,-2.1593778769122522
1708434928.9629068,-2.157158851623535,-1.3393553805402298,-2.529534641896383,6.152256834297933,1.0227375030517578,-2.159323517476217
1708434928.9648998,-2.157158851623535,-1.3393546354821702,-2.5295377413379114,6.152338731079855,1.0227329730987549,-2.1593568960772913
1708434928.9668906,-2.15712308883667,-1.3393348169377823,-2.529551092778341,6.152268755226888,1.0227329730987549,-2.15941030183901
1708434928.9689069,-2.1571922302246094,-1.339290128355362,-2.529491964970724,6.152322399407186,1.0227162837982178,-2.1594226996051233
1708434928.9708743,-2.1571316719055176,-1.339330480699875,-2.5295541922198694,6.152306067734518,1.0227375030517578,-2.1593568960772913
1708434928.9728987,-2.1571502685546875,-1.339302272801735,-2.529550854359762,6.152255403786459,1.0227117538452148,-2.159415070210592
1708434928.9748988,-2.1571712493896484,-1.3393719506314774,-2.529546562825338,6.152284848480978,1.022728443145752,-2.1593688170062464
1708434928.9768908,-2.1571388244628906,-1.3393260550550004,-2.529562775288717,6.152293789177694,1.022723913192749,-2.1593969503985804
1708434928.978907,-2.1571388244628906,-1.33933478713546,-2.5295093695269983,6.152273165970602,1.0226949453353882,-2.1593902746783655
1708434928.9809067,-2.1571502685546875,-1.3392979812673111,-2.5295377413379114,6.152292716294088,1.0227162837982178,-2.1593945662127894
1708434928.9828904,-2.1571755409240723,-1.33937922239814,-2.5295584837542933,6.15225242355422,1.0226995944976807,-2.1593568960772913
1708434928.9848943,-2.157179832458496,-1.3393185597709198,-2.52956730524172,6.152256834297933,1.0227240324020386,-2.159440819417135
1708434928.9869037,-2.1571474075317383,-1.3393348020366211,-2.529574696217672,6.152259933739462,1.0227822065353394,-2.15937310854067
1708434928.9889305,-2.157158851623535,-1.339359701876976,-2.5295215288745325,6.152264344483175,1.0226995944976807,-2.15941030183901
1708434928.9909058,-2.1571431159973145,-1.3393878650716324,-2.529480759297506,6.152198540955343,1.0226740837097168,-2.1593945662127894
1708434928.9928865,-2.1571755409240723,-1.3393391233733674,-2.5295422712909144,6.152161347657003,1.0227493047714233,-2.1594060103045862
1708434928.9949176,-2.1571712493896484,-1.3393434596112748,-2.529546562825338,6.152273285179891,1.0227329730987549,-2.1593778769122522
1708434928.9969113,-2.1571545600891113,-1.3393434894135972,-2.5295377413379114,6.152191030770101,1.0227657556533813,-2.15937310854067
1708434928.9989023,-2.1571388244628906,-1.3393632781556626,-2.5295103232013147,6.152249443321981,1.0227240324020386,-2.15941030183901
1708434929.0009022,-2.1571202278137207,-1.3393553358367463,-2.529583517705099,6.152204501419821,1.022707223892212,-2.1593902746783655
1708434929.0029244,-2.157155990600586,-1.3393304657987137,-2.5295093695269983,6.152232754021444,1.0227162837982178,-2.159365955983297
1708434929.004918,-2.157116174697876,-1.3392979812673111,-2.5295704046832483,6.152150618820944,1.0227359533309937,-2.15941030183901
1708434929.0068896,-2.157144546508789,-1.3393348020366211,-2.5295422712909144,6.1521925804908655,1.0227612257003784,-2.1593864599811
1708434929.0088918,-2.157167434692383,-1.3393747818521042,-2.529562775288717,6.15217291095809,1.022749423980713,-2.159382168446676
1708434929.0108824,-2.1571431159973145,-1.3393675994924088,-2.5295541922198694,6.1521503804023645,1.022740364074707,-2.1593478361712855
1708434929.012877,-2.157116174697876,-1.3393467229655762,-2.529562775288717,6.152078497200765,1.0227447748184204,-2.159382168446676
1708434929.0148873,-2.1571357250213623,-1.3392936003259202,-2.529574696217672,6.152120578079977,1.0227539539337158,-2.159419361745016
1708434929.016886,-2.157094955444336,-1.3393348020366211,-2.5294721762286585,6.152089106827535,1.022756814956665,-2.1593778769122522
1708434929.018932,-2.1571545600891113,-1.339330480699875,-2.529546562825338,6.152059185295858,1.0227447748184204,-2.159365955983297
1708434929.0209153,-2.157111644744873,-1.33929796636615,-2.5295377413379114,6.152105438500204,1.0227686166763306,-2.1593778769122522
1708434929.0228899,-2.1570992469787598,-1.3393467229655762,-2.529546562825338,6.1520529864128015,1.0227359533309937,-2.1593902746783655
1708434929.024913,-2.1571273803710938,-1.3392900091460724,-2.5295260588275355,6.152024733811178,1.0227612257003784,-2.159398857747213
1708434929.0268834,-2.1571035385131836,-1.3393553656390687,-2.52959114709963,6.152024733811178,1.022752285003662,-2.159398857747213
1708434929.0289254,-2.1571316719055176,-1.3393315982869645,-2.529546562825338,6.151963341027059,1.0227686166763306,-2.1594393889056605
1708434929.0308988,-2.157140016555786,-1.33931419373069,-2.5295584837542933,6.152009594231405,1.0227359533309937,-2.159382168446676
1708434929.032916,-2.1571357250213623,-1.3393467378667374,-2.5295303503619593,6.151952731400289,1.0227478742599487,-2.159382168446676
1708434929.0349193,-2.1570794582366943,-1.3393596571734925,-2.5295215288745325,6.151924478798666,1.0227898359298706,-2.159382168446676
1708434929.0369024,-2.157099962234497,-1.3392988604358216,-2.5295541922198694,6.151894438057699,1.0227763652801514,-2.159358326588766
1708434929.0389209,-2.1570839881896973,-1.3393478703549881,-2.529546562825338,6.151864278107443,1.0227566957473755,-2.159370247517721
1708434929.0409222,-2.157071590423584,-1.3393023324063797,-2.5295749346362513,6.151820885926046,1.0227117538452148,-2.159370247517721
1708434929.0429091,-2.1570794582366943,-1.3393098425916214,-2.5295866171466272,6.151768433838644,1.022728443145752,-2.1593778769122522
1708434929.0448844,-2.1570520401000977,-1.3392935705235978,-2.5295453707324427,6.151699650078573,1.0227566957473755,-2.159365955983297
1708434929.0468862,-2.157054901123047,-1.3392769259265442,-2.5295334498034876,6.151689040451803,1.022752285003662,-2.159374539052145
1708434929.0489292,-2.1570563316345215,-1.3393228662065049,-2.529546562825338,6.151689040451803,1.022735834121704,-2.159330193196432
1708434929.0509644,-2.15701961517334,-1.3393511486104508,-2.5295172373401087,6.151636588364401,1.0227686166763306,-2.159367386494772
1708434929.052939,-2.156970262527466,-1.3392900836518784,-2.5295422712909144,6.151572334557333,1.022728443145752,-2.1593459288226526
1708434929.0549355,-2.1569876670837402,-1.3393185597709198,-2.529583517705099,6.151594745903768,1.022707223892212,-2.1593101660357874
1708434929.0569224,-2.1569664478302,-1.3392869097045441,-2.52956730524172,6.151517021446981,1.0227566957473755,-2.1593177954303187
1708434929.0589273,-2.1569552421569824,-1.3393554252437134,-2.5295258204089563,6.151464569359579,1.0227566957473755,-2.1593344847308558
1708434929.0609055,-2.156935691833496,-1.3392706525376816,-2.5295866171466272,6.151430117874899,1.0227447748184204,-2.159307305012838
1708434929.062894,-2.1569724082946777,-1.3392814111760636,-2.529595438634054,6.15136872509078,1.0226740837097168,-2.1592701117144983
1708434929.0648983,-2.156881809234619,-1.339303122167923,-2.529579226170675,6.151386725693502,1.0227195024490356,-2.1592662970172327
1708434929.0668929,-2.1568782329559326,-1.3392607432654877,-2.5295334498034876,6.151301252632894,1.0227447748184204,-2.1592214743243616
1708434929.0689173,-2.156851053237915,-1.3393185597709198,-2.529579226170675,6.151215779572286,1.0227117538452148,-2.1591318289386194
1708434929.0709112,-2.156839370727539,-1.3393117797425766,-2.529546562825338,6.1511621353919885,1.022707223892212,-2.1591418425189417
1708434929.0728967,-2.156888484954834,-1.3392272752574463,-2.529599730168478,6.151115405350485,1.0227612257003784,-2.159100357686178
1708434929.0749252,-2.156832218170166,-1.3392511171153565,-2.5295093695269983,6.15109275558547,1.0227162837982178,-2.159109894429342
1708434929.0769086,-2.1567678451538086,-1.3392153543284913,-2.5295496622668665,6.151061641960897,1.0226905345916748,-2.1589983145343226
1708434929.0789208,-2.156764030456543,-1.3392272752574463,-2.5295303503619593,6.150980818062582,1.0227329730987549,-2.159036461506979
1708434929.0809104,-2.1567282676696777,-1.339211032991745,-2.529546562825338,6.150953876763143,1.0227375030517578,-2.158947292958395
1708434929.0828907,-2.1566638946533203,-1.3392328184894104,-2.529534641896383,6.150816190033712,1.0226786136627197,-2.158936325703756
1708434929.084896,-2.1566643714904785,-1.3391334575465699,-2.5295584837542933,6.1507441876228235,1.0227162837982178,-2.1589344183551233
1708434929.0868816,-2.156648635864258,-1.3391631108573456,-2.529497210179464,6.150730597763815,1.0226950645446777,-2.1588733831988733
1708434929.0889232,-2.1566123962402344,-1.3391881001046677,-2.529534641896383,6.150666343956747,1.0227130651474,-2.158820454274313
1708434929.090905,-2.156526803970337,-1.3391638857177277,-2.5295303503619593,6.150582420616903,1.0226757526397705,-2.158760372792379
1708434929.0929132,-2.156503915786743,-1.339128167634346,-2.529513661061422,6.150428163796224,1.0226848125457764,-2.158728901539938
1708434929.094918,-2.156492233276367,-1.3390466284802933,-2.529550854359762,6.150360572129049,1.02262282371521,-2.158685032521383
1708434929.0968797,-2.1564488410949707,-1.3390187484076996,-2.529506031666891,6.150318729668417,1.0226353406906128,-2.1585548559771937
1708434929.098898,-2.156372547149658,-1.3390759092620392,-2.529562775288717,6.150173413544454,1.0226606130599976,-2.158515278493063
1708434929.1009104,-2.1563773155212402,-1.3390231740525742,-2.529546562825338,6.150122511177816,1.0226398706436157,-2.158459488545553
1708434929.1028986,-2.156357765197754,-1.3390000772527237,-2.5294883886920374,6.1500130770500085,1.0226489305496216,-2.1583502928363245
1708434929.1049314,-2.1563425064086914,-1.3389838349870224,-2.529513661061422,6.1499096033866785,1.0226155519485474,-2.158302132283346
1708434929.106906,-2.156278133392334,-1.339009867315628,-2.529513661061422,6.1497617838676355,1.0226199626922607,-2.158231560383932
1708434929.1089206,-2.156169891357422,-1.3389153194478531,-2.529518191014425,6.149651038437643,1.0226036310195923,-2.1581628958331507
1708434929.1109288,-2.1561408042907715,-1.3389239770225068,-2.5295303503619593,6.149496662407675,1.0225839614868164,-2.1580947081195276
1708434929.1129034,-2.1560604572296143,-1.3388760548881073,-2.529555384312765,6.1493661282356165,1.0225839614868164,-2.15803033510317
1708434929.114902,-2.1560254096984863,-1.3389219355634232,-2.5295313040362757,6.149282562523641,1.022567629814148,-2.1579092184649866
1708434929.1169252,-2.156017303466797,-1.3388034117272873,-2.5295596758471888,6.1491384384925745,1.022526741027832,-2.157853428517477
1708434929.118903,-2.1559500694274902,-1.3387673807195206,-2.5295267740832728,6.148905145912924,1.0225193500518799,-2.1577823797809046
1708434929.1209018,-2.155876874923706,-1.3387879443219681,-2.529550854359762,6.148769962578573,1.0225075483322144,-2.1576908270465296
1708434929.1229072,-2.1558139324188232,-1.3387804490378876,-2.529506031666891,6.148593532830038,1.0225075483322144,-2.157553021107809
1708434929.1249132,-2.155777931213379,-1.3387606751969834,-2.529518191014425,6.14844690540389,1.0224666595458984,-2.157489601765768
1708434929.1269283,-2.1556825637817383,-1.3387325269034882,-2.529522482548849,6.148243176728048,1.022546410560608,-2.157438103352682
1708434929.1289272,-2.1556098461151123,-1.3387325269034882,-2.529522482548849,6.148054587631979,1.0224666595458984,-2.157276455556051
1708434929.130901,-2.155521869659424,-1.3386881065419693,-2.5295258204089563,6.147895562439718,1.0224593877792358,-2.1571891943561
1708434929.132961,-2.155458450317383,-1.3386520159295578,-2.529562775288717,6.147706854134359,1.022430658340454,-2.157055679951803
1708434929.13491,-2.155406951904297,-1.3387065392783661,-2.52954346338381,6.147522437363424,1.0223931074142456,-2.1569812933551233
1708434929.136928,-2.155348300933838,-1.3386336427978058,-2.529497210179464,6.147314655571737,1.022430658340454,-2.1568763891803187
1708434929.138929,-2.1552345752716064,-1.338583843117096,-2.529550854359762,6.147178280144491,1.022444248199463,-2.1567276159869593
1708434929.140901,-2.1551873683929443,-1.3386054796031495,-2.529550854359762,6.146932589798727,1.0224413871765137,-2.1566618124591272
1708434929.14292,-2.1550791263580322,-1.3385816377452393,-2.529555384312765,6.14670346954421,1.0223989486694336,-2.156473938618795
1708434929.1448975,-2.154952049255371,-1.3385532361320038,-2.5295267740832728,6.1464669583137415,1.0224156379699707,-2.156362835560934
1708434929.146891,-2.1548635959625244,-1.3385868680528183,-2.529571596776144,6.146264540940084,1.0223915576934814,-2.1562259832965296
1708434929.148924,-2.154744863510132,-1.3385420453599473,-2.5295267740832728,6.146072852402487,1.0223631858825684,-2.1561101118670862
1708434929.150969,-2.1546483039855957,-1.3384857934764405,-2.529480759297506,6.1458661434944055,1.0223796367645264,-2.1560185591327112
1708434929.152957,-2.1545767784118652,-1.3384651255658646,-2.5295398871051233,6.145650255471029,1.0224004983901978,-2.155882183705465
1708434929.1549137,-2.154432535171509,-1.3384370517781754,-2.529555384312765,6.1454107640083215,1.022363305091858,-2.155740563069479
1708434929.156893,-2.1543171405792236,-1.3383763891509552,-2.5295477549182337,6.145154821663656,1.0223723649978638,-2.155630890523092
1708434929.1589093,-2.154233932495117,-1.3383981001428147,-2.529538933430807,6.144868838578024,1.0223767757415771,-2.155473057423727
1708434929.1608837,-2.1540725231170654,-1.338394508962967,-2.529513661061422,6.144621717720785,1.022348165512085,-2.1553619543658655
1708434929.1629155,-2.1539900302886963,-1.338357688193657,-2.529506031666891,6.144353496819296,1.0223268270492554,-2.155147377644674
1708434929.1648855,-2.1538093090057373,-1.338343323474266,-2.529522482548849,6.144037234574117,1.0223722457885742,-2.1549914518939417
1708434929.1669085,-2.153681993484497,-1.3383018535426636,-2.529538933430807,6.143844353943624,1.0223466157913208,-2.154822651539938
1708434929.1689045,-2.153599739074707,-1.3383357387832184,-2.529518191014425,6.143479096680441,1.0223345756530762,-2.154684368764059
1708434929.170889,-2.1533944606781006,-1.3382869821837922,-2.529501501713888,6.143231618195333,1.022355556488037,-2.15446645418276
1708434929.1729016,-2.1533031463623047,-1.3382794868997117,-2.5295804182635706,6.142966496735372,1.022326946258545,-2.154330078755514
1708434929.1748872,-2.1531713008880615,-1.3381619167378922,-2.52954346338381,6.142611729889669,1.0223510265350342,-2.154203240071432
1708434929.176891,-2.1529946327209473,-1.338178501730301,-2.5295639673816126,6.142316448479452,1.022322416305542,-2.1540029684649866
1708434929.178909,-2.1528067588806152,-1.3381379854730149,-2.529555384312765,6.141970860749044,1.0223690271377563,-2.1538551489459437
1708434929.1808774,-2.152683973312378,-1.3380976629308243,-2.529555384312765,6.141705500870504,1.0223510265350342,-2.1536491552936
1708434929.1829152,-2.1524930000305176,-1.3381031316569825,-2.529518191014425,6.1413951990898035,1.0223464965820312,-2.1534646193133753
1708434929.1848822,-2.1523282527923584,-1.3380738210729142,-2.529562775288717,6.141017901688375,1.0223796367645264,-2.1532886664019983
1708434929.1868982,-2.1521856784820557,-1.3380139780095597,-2.529546562825338,6.140687095909872,1.0223677158355713,-2.1530726591693323
1708434929.1888955,-2.1520144939422607,-1.3380152148059388,-2.529644791279928,6.140315639763632,1.022363305091858,-2.1528804937945765
1708434929.1908877,-2.151806116104126,-1.338039831524231,-2.5295615831958216,6.139865982323446,1.0223751068115234,-2.1527207533465784
1708434929.1929176,-2.151611089706421,-1.3379953664592286,-2.5295780340777796,6.139466392784872,1.0224111080169678,-2.1524670759784144
1708434929.1948807,-2.151398181915283,-1.3379026812366028,-2.5296555201159876,6.1390559552009485,1.0224441289901733,-2.1523082892047327
1708434929.1968925,-2.1512162685394287,-1.3379110556891938,-2.529621664677755,6.1386321661765955,1.0224920511245728,-2.152090374623434
1708434929.1989193,-2.1509950160980225,-1.3378750544837494,-2.5296500364886683,6.138133632927694,1.0225211381912231,-2.1519315878497522
1708434929.20093,-2.15079665184021,-1.3378600937179108,-2.5297635237323206,6.137672173767843,1.0225614309310913,-2.1517446676837366
1708434929.2029295,-2.150531530380249,-1.3377666783383866,-2.5297635237323206,6.137303340225973,1.02256441116333,-2.1514738241778772
1708434929.2049084,-2.1503541469573975,-1.3377190691283722,-2.5297744909869593,6.136838066368856,1.0225598812103271,-2.151334587727682
1708434929.2069204,-2.1501259803771973,-1.3377641600421448,-2.5297775904284876,6.136387336045065,1.0225720405578613,-2.151032272969381
1708434929.2089171,-2.1498825550079346,-1.3377199333957215,-2.5298059622394007,6.135963785439291,1.0225794315338135,-2.150837246571676
1708434929.2109027,-2.149587392807007,-1.337695763712265,-2.529850784932272,6.135422932892599,1.0226199626922607,-2.150599781666891
1708434929.2129233,-2.14935564994812,-1.3376555305770417,-2.5298779646502894,6.1349971173103235,1.022653341293335,-2.150383774434225
1708434929.2148983,-2.149071455001831,-1.337648169403412,-2.5299304167376917,6.13443289974288,1.0227175951004028,-2.1501548925982874
1708434929.2169037,-2.148777723312378,-1.337644712334015,-2.5299585501300257,6.133913266449728,1.0227240324020386,-2.1499550978290003
1708434929.2189107,-2.1484737396240234,-1.3376285594752808,-2.5300186316119593,6.133418667107382,1.0228110551834106,-2.1497133413897913
1708434929.2208974,-2.1481406688690186,-1.337576077585556,-2.5300100485431116,6.132911550789633,1.0228527784347534,-2.149514977131979
1708434929.2229083,-2.147907257080078,-1.3375327450088044,-2.530070130025045,6.132356273918905,1.0228862762451172,-2.1492789427386683
1708434929.224888,-2.147588014602661,-1.337505505686142,-2.530168358479635,6.131767856865682,1.0229463577270508,-2.149045769368307
1708434929.2268977,-2.1472127437591553,-1.3374771040729065,-2.530158344899313,6.131241786270895,1.0230015516281128,-2.148853603993551
1708434929.2288957,-2.146897315979004,-1.3374574941447754,-2.53022271791567,6.130646216660299,1.02302885055542,-2.1485684553729456
1708434929.230899,-2.1465535163879395,-1.3373967868140717,-2.5303362051593226,6.1299500344093225,1.0231550931930542,-2.1483524481402796
1708434929.232903,-2.1461498737335205,-1.3374302846244355,-2.5303426424609583,6.129348146706381,1.0232062339782715,-2.1481521765338343
1708434929.2348886,-2.1458113193511963,-1.3373857301524659,-2.530463997517721,6.128721821099081,1.0232739448547363,-2.1479361693011683
1708434929.236908,-2.1454272270202637,-1.3373168867877503,-2.5305162111865442,6.128022300987997,1.0233745574951172,-2.147698227559225
1708434929.2389073,-2.1450438499450684,-1.3373708885959168,-2.5305760542498987,6.127325999527731,1.0234962701797485,-2.1475165526019495
1708434929.2408864,-2.1446378231048584,-1.337269739513733,-2.5306435267077845,6.126768696099081,1.0235997438430786,-2.1472299734698694
1708434929.2429566,-2.1441779136657715,-1.3372413379004975,-2.5306904951678675,6.126105057984152,1.0236964225769043,-2.14703876176943
1708434929.244902,-2.1437742710113525,-1.3372135919383545,-2.530767027531759,6.125378000527181,1.0238419771194458,-2.146801773701803
1708434929.2469108,-2.1433398723602295,-1.337234840994217,-2.5309000650988978,6.124554383545675,1.023950219154358,-2.1465938727008265
1708434929.2489238,-2.142873525619507,-1.3372099113515397,-2.5310166517840784,6.12382065036849,1.0240446329116821,-2.1463854948626917
1708434929.2509568,-2.142406463623047,-1.3371865910342713,-2.5310800711261194,6.122946369438925,1.0242387056350708,-2.1461766401873987
1708434929.2529638,-2.1419687271118164,-1.3371301156333466,-2.5311551729785364,6.122246730118551,1.0243165493011475,-2.1459763685809534
1708434929.2549179,-2.141484498977661,-1.3371227544597168,-2.5312510172473353,6.121398913651266,1.0244371891021729,-2.1457560698138636
1708434929.2569208,-2.1409857273101807,-1.3371385794929047,-2.5313602129565638,6.120664226799764,1.0246644020080566,-2.145552937184469
1708434929.2589283,-2.140543222427368,-1.337050126200058,-2.531426731740133,6.119815933495321,1.0247992277145386,-2.1453078428851526
1708434929.2608867,-2.1400158405303955,-1.3370586794665833,-2.531571690236227,6.119028675347128,1.0248910188674927,-2.1451032797442835
1708434929.2629042,-2.1395697593688965,-1.3370671433261414,-2.531671110783712,6.118142354279318,1.0250188112258911,-2.144940201436178
1708434929.2649117,-2.1390178203582764,-1.3369784963181992,-2.531811777745382,6.117363202362814,1.0252364873886108,-2.144693676625387
1708434929.2669256,-2.138484239578247,-1.337026910190918,-2.531895939503805,6.116395103722372,1.0253973007202148,-2.1445263067828577
1708434929.2689433,-2.1379892826080322,-1.3369987469962616,-2.5320475737201136,6.115533697396078,1.0255162715911865,-2.144289795552389
1708434929.270891,-2.1373822689056396,-1.3370636862567444,-2.5321553389178675,6.114555942803182,1.0256813764572144,-2.144118134175436
1708434929.272906,-2.1368281841278076,-1.3370195490172883,-2.5322960058795374,6.113681423455038,1.0258408784866333,-2.143961731587545
1708434929.2748942,-2.136237144470215,-1.3369423610023041,-2.532407347355978,6.112604605942526,1.0260345935821533,-2.1437199751483362
1708434929.2769213,-2.1356141567230225,-1.3369622987559815,-2.532559935246603,6.1117228148277185,1.0262271165847778,-2.1436145941363733
1708434929.2789142,-2.135040521621704,-1.3369546097568055,-2.532687489186422,6.110684978752889,1.0264147520065308,-2.1433938185321253
1708434929.2808986,-2.134458065032959,-1.3369465929320832,-2.53284460703005,6.109756338387289,1.0265834331512451,-2.1431878248797815
1708434929.282979,-2.1338517665863037,-1.3369749945453187,-2.532959286366598,6.1088130352790735,1.0267635583877563,-2.1430276075946253
1708434929.2848997,-2.1332685947418213,-1.337003932600357,-2.533140007649557,6.107750403672018,1.0269694328308105,-2.142885986958639
1708434929.2869432,-2.1325671672821045,-1.337006853227951,-2.5333126227008265,6.106656777649679,1.0272101163864136,-2.1426923910724085
1708434929.2889001,-2.1319336891174316,-1.3370280128768464,-2.5334509054767054,6.105511653214254,1.0273979902267456,-2.142498795186178
1708434929.2909122,-2.1312124729156494,-1.3370237809470673,-2.53363544145693,6.104349601059713,1.0276051759719849,-2.1423633734332483
1708434929.2929497,-2.1305313110351562,-1.3370237809470673,-2.533844772969381,6.103301512985983,1.0278666019439697,-2.1422117392169397
1708434929.2948945,-2.129878044128418,-1.3369987469962616,-2.534016195927755,6.102106797486105,1.028095006942749,-2.142035786305563
1708434929.2969198,-2.1291799545288086,-1.3370515269092103,-2.5342167059527796,6.101001727371969,1.0283564329147339,-2.141879383717672
1708434929.2989447,-2.1284494400024414,-1.337026910190918,-2.534401241933004,6.099957334786215,1.028576374053955,-2.1418054739581507
1708434929.3008986,-2.1277520656585693,-1.3370544177344819,-2.534555737172262,6.09866892078475,1.0288209915161133,-2.141606156026022
1708434929.3029268,-2.1270012855529785,-1.33707149446521,-2.534767452870504,6.09748541095809,1.0291023254394531,-2.1415322462665003
1708434929.304903,-2.1261491775512695,-1.3370756965926667,-2.5349844137774866,6.096316683083334,1.0293909311294556,-2.14136249223818
1708434929.3069375,-2.1254055500030518,-1.337033973341324,-2.5352090040790003,6.09500406959609,1.0296554565429688,-2.141226116810934
1708434929.308924,-2.124598264694214,-1.3371108335307618,-2.5354281107531946,6.093798982888021,1.0298945903778076,-2.1411502997027796
1708434929.310902,-2.1238033771514893,-1.3370981377414246,-2.5356321970569056,6.092555987625875,1.0301668643951416,-2.1410916487323206
1708434929.3129184,-2.12302303314209,-1.3371100586703797,-2.5358200708972376,6.091312157898702,1.0304280519485474,-2.1408727804767054
1708434929.3149054,-2.1221492290496826,-1.337150053387024,-2.5360892454730433,6.090033519058981,1.030709147453308,-2.1408513228045862
1708434929.3169374,-2.1212897300720215,-1.3371823591044922,-2.5362592379199427,6.088650691300192,1.0309646129608154,-2.140737835560934
1708434929.3189144,-2.1203441619873047,-1.337231145506241,-2.5365408102618616,6.087294328003683,1.0312652587890625,-2.1406458059894007
1708434929.3209033,-2.119471788406372,-1.3372957569411774,-2.5367394129382532,6.085874902993002,1.0315343141555786,-2.1405332724200647
1708434929.3229098,-2.1185364723205566,-1.3373274368098755,-2.537020508443014,6.084523308068075,1.0318795442581177,-2.1404908339129847
1708434929.3249238,-2.117595911026001,-1.3372993928245087,-2.537269179021017,6.083015429764547,1.032166838645935,-2.140374008809225
1708434929.3269293,-2.116610288619995,-1.3373389107039948,-2.5374918619738978,6.081557261734762,1.0325080156326294,-2.140351120625631
1708434929.3289382,-2.1156165599823,-1.3373422783664246,-2.5378223101245325,6.0800667879875085,1.0328540802001953,-2.1402700583087366
1708434929.3308995,-2.1146905422210693,-1.3374104362777253,-2.537988011037008,6.0786406872566126,1.0331878662109375,-2.1402395407306116
1708434929.332938,-2.1136815547943115,-1.3373772513917466,-2.5382474104510706,6.077165114670553,1.033494472503662,-2.1401575247394007
1708434929.3349183,-2.1125845909118652,-1.337409572010376,-2.5384798685656946,6.075633036881246,1.0339016914367676,-2.1401060263263147
1708434929.3369248,-2.1116127967834473,-1.3374413263848801,-2.538710896168844,6.0739972470100305,1.0341967344284058,-2.14005691209902
1708434929.338912,-2.1105122566223145,-1.3374889355948945,-2.5390401522265833,6.0723469136054895,1.034598708152771,-2.140059296284811
1708434929.340903,-2.1094582080841064,-1.3375301224044343,-2.539320770894186,6.070699679642477,1.0349838733673096,-2.140050713215963
1708434929.342906,-2.1082677841186523,-1.3375618916800995,-2.5395668188678187,6.069073784142294,1.0353893041610718,-2.1399853865252894
1708434929.344925,-2.107189655303955,-1.337621496324875,-2.539856020604269,6.0673578856285,1.0357409715652466,-2.140055004750387
