Eg3-git/Classifiers/Data Collection/u2/u2cir4_ur3e_joint_states.csv
time,elbow_joint,shoulder_lift_joint,shoulder_pan_joint,wrist_1_joint,wrist_2_joint,wrist_3_joint
1708435026.121033,-2.142190456390381,-1.333702878361084,-2.526727263127462,6.111663329392233,1.0174096822738647,-2.5119903723346155
1708435026.1230507,-2.1422104835510254,-1.3336998683265229,-2.526715103779928,6.111642348557272,1.017397403717041,-2.5120068232165735
1708435026.1250184,-2.1421823501586914,-1.3336702150157471,-2.5267139116870325,6.111670362740316,1.0174140930175781,-2.5120187441455286
1708435026.1270118,-2.1422061920166016,-1.3336790365031739,-2.5267062822925013,6.111633527069845,1.0174229145050049,-2.5120096842395228
1708435026.1290483,-2.1422019004821777,-1.333683506851532,-2.526727263127462,6.111682283669271,1.0174229145050049,-2.5120349566089075
1708435026.131025,-2.142186164855957,-1.3336746257594605,-2.526710573826925,6.111694562226095,1.0174351930618286,-2.5120022932635706
1708435026.1330245,-2.14216947555542,-1.3336865466884156,-2.5267391840564173,6.111685502320089,1.017381191253662,-2.512021605168478
1708435026.135021,-2.1421327590942383,-1.333649144773819,-2.526694361363546,6.1116524813468835,1.017401933670044,-2.5120142141925257
1708435026.1370304,-2.142148494720459,-1.3337072891047974,-2.526715103779928,6.111685621529379,1.0174307823181152,-2.511972490941183
1708435026.1390197,-2.14219331741333,-1.3336865466884156,-2.5267062822925013,6.111652362137594,1.0174185037612915,-2.512005392705099
1708435026.141046,-2.142209053039551,-1.333637223844864,-2.52669865289797,6.111715423851766,1.017451524734497,-2.5120306650744837
1708435026.1430063,-2.142165184020996,-1.3336821359447022,-2.526677672063009,6.111715423851766,1.0174140930175781,-2.511972490941183
1708435026.144998,-2.1421844959259033,-1.333690957432129,-2.526710573826925,6.111677872925558,1.017397403717041,-2.5120261351214808
1708435026.1470025,-2.14219331741333,-1.3336835366538544,-2.526686731969015,6.111726033478536,1.0173733234405518,-2.511977020894186
1708435026.1490183,-2.1421775817871094,-1.3336821359447022,-2.5267558733569544,6.111701953202047,1.0173527002334595,-2.5120514074908655
1708435026.1510208,-2.14219331741333,-1.3336579662612458,-2.526677672063009,6.111681091576376,1.0174318552017212,-2.512021605168478
1708435026.1530447,-2.142204761505127,-1.3336623770049592,-2.526715103779928,6.111713874131002,1.0174107551574707,-2.5120096842395228
1708435026.155024,-2.142235517501831,-1.333702878361084,-2.526748005543844,6.111704814224996,1.0174051523208618,-2.51200515428652
1708435026.157002,-2.1422133445739746,-1.3336835217526932,-2.526731793080465,6.111730563431539,1.0174678564071655,-2.5120425860034388
1708435026.1590302,-2.142171621322632,-1.3336821061423798,-2.526736084614889,6.111700403481283,1.017401933670044,-2.5120471159564417
1708435026.1609979,-2.142181873321533,-1.3337103885463257,-2.526736084614889,6.111726033478536,1.0174229145050049,-2.512000862752096
1708435026.16305,-2.1421844959259033,-1.3336702597192307,-2.526724163685934,6.111709344177999,1.0173856019973755,-2.5120142141925257
1708435026.16503,-2.142246961593628,-1.3337442737868805,-2.526677672063009,6.111742365151205,1.017439603805542,-2.5120096842395228
1708435026.1670225,-2.14219331741333,-1.3336746257594605,-2.526752535496847,6.111713874131002,1.017418622970581,-2.5120351950274866
1708435026.1690357,-2.1422226428985596,-1.3337072891047974,-2.526752535496847,6.111683952599325,1.0174140930175781,-2.51200515428652
1708435026.1710124,-2.142258405685425,-1.3337161999991913,-2.5267558733569544,6.111755955010214,1.0174229145050049,-2.5120425860034388
1708435026.1730561,-2.142200231552124,-1.3336835366538544,-2.5267184416400355,6.111775266915121,1.017401933670044,-2.512033526097433
1708435026.1750042,-2.1422619819641113,-1.3337042790702363,-2.526686731969015,6.111730563431539,1.0174052715301514,-2.5120187441455286
1708435026.1770294,-2.142209529876709,-1.3337072891047974,-2.526748005543844,6.11171709278182,1.017397403717041,-2.512061897908346
1708435026.179025,-2.142171621322632,-1.3336702150157471,-2.52674371400942,6.11171709278182,1.0173778533935547,-2.5119932333575647
1708435026.1810248,-2.1422312259674072,-1.333671287899353,-2.526731793080465,6.1117604849632166,1.0173856019973755,-2.5120261351214808
1708435026.1830359,-2.142266273498535,-1.3336746257594605,-2.526703182850973,6.111704814224996,1.017359972000122,-2.512038056050436
1708435026.1850061,-2.142200231552124,-1.3337116998485108,-2.526682202016012,6.111742484360494,1.0174140930175781,-2.5120917002307337
1708435026.1870115,-2.1422269344329834,-1.3336865466884156,-2.52674371400942,6.111767875939169,1.017401933670044,-2.5120394865619105
1708435026.1890306,-2.1422133445739746,-1.3337072891047974,-2.526736084614889,6.111742484360494,1.0173856019973755,-2.5120797793017786
1708435026.191046,-2.1422181129455566,-1.3337161999991913,-2.526710573826925,6.111779796868124,1.0173975229263306,-2.5120468775378626
1708435026.1930306,-2.142204761505127,-1.3336776804975052,-2.526694122944967,6.111770736962118,1.0173766613006592,-2.512021605168478
1708435026.1950128,-2.1422181129455566,-1.3336984676173707,-2.5266955534564417,6.1117334244544885,1.017369031906128,-2.512024704610006
1708435026.1970096,-2.1421828269958496,-1.333702878361084,-2.526740852986471,6.111729013710775,1.0173856019973755,-2.512054506932394
1708435026.1990504,-2.142220973968506,-1.3337192100337525,-2.526694361363546,6.111775266915121,1.0174107551574707,-2.512033526097433
1708435026.2010207,-2.142270803451538,-1.3336835366538544,-2.52669865289797,6.111757266312399,1.0173571109771729,-2.512049976979391
1708435026.2030413,-2.142245292663574,-1.333702878361084,-2.526719633732931,6.11175428608016,1.0174063444137573,-2.512033526097433
1708435026.2050214,-2.142249584197998,-1.3336535555175324,-2.526731793080465,6.111761796265402,1.0173900127410889,-2.5120425860034388
1708435026.2070427,-2.142287492752075,-1.3337072891047974,-2.52675706544985,6.111729013710775,1.0174140930175781,-2.5120917002307337
1708435026.2090082,-2.142249584197998,-1.3336746108582993,-2.526682202016012,6.111712562828817,1.0173481702804565,-2.5120707193957728
1708435026.2109973,-2.142266273498535,-1.3337280315211792,-2.526682202016012,6.1117215035255334,1.017397403717041,-2.512012783681051
1708435026.2130828,-2.142266273498535,-1.3337280315211792,-2.526740614567892,6.111742365151205,1.0174063444137573,-2.512033526097433
1708435026.21502,-2.1422295570373535,-1.3336984676173707,-2.52674371400942,6.111767875939169,1.0173778533935547,-2.512054506932394
1708435026.2170455,-2.1422252655029297,-1.333714799290039,-2.526740852986471,6.111745464592733,1.0173778533935547,-2.512061897908346
1708435026.2190287,-2.1422410011291504,-1.3337311309627076,-2.526740852986471,6.111700403481283,1.0174107551574707,-2.5120707193957728
1708435026.2210042,-2.142213821411133,-1.3337399524501343,-2.526736084614889,6.1117215035255334,1.0174140930175781,-2.512029234563009
1708435026.223058,-2.1421759128570557,-1.3337192100337525,-2.5266898314105433,6.111712562828817,1.017401933670044,-2.512070957814352
1708435026.2250292,-2.1421959400177,-1.3337191504291077,-2.526682202016012,6.111704814224996,1.0173527002334595,-2.512054506932394
1708435026.2270494,-2.1422367095947266,-1.3336701852134247,-2.526691261922018,6.111712562828817,1.0174484252929688,-2.512049976979391
1708435026.2290835,-2.1422367095947266,-1.3336865317872544,-2.526686731969015,6.11175428608016,1.017397403717041,-2.512082640324728
1708435026.2310212,-2.14224910736084,-1.3337236207774659,-2.526731793080465,6.111708032875814,1.0174063444137573,-2.512054506932394
1708435026.2330394,-2.142220973968506,-1.3336984676173707,-2.526727263127462,6.111761796265402,1.0173778533935547,-2.512082640324728
1708435026.235013,-2.142213821411133,-1.333649144773819,-2.526719633732931,6.111775266915121,1.0174107551574707,-2.512049976979391
1708435026.2370405,-2.1422829627990723,-1.3336835366538544,-2.5267227331744593,6.1117215035255334,1.017369031906128,-2.512073818837301
1708435026.2390256,-2.142266273498535,-1.3337103885463257,-2.52667481104006,6.111761796265402,1.0174063444137573,-2.512061897908346
1708435026.2410183,-2.1422619819641113,-1.3337430518916626,-2.526724163685934,6.111787426262655,1.0173527002334595,-2.512069288884298
1708435026.24306,-2.1422367095947266,-1.333637223844864,-2.52674371400942,6.111709344177999,1.017381191253662,-2.512045447026388
1708435026.2450461,-2.1422743797302246,-1.3336940866759797,-2.526736084614889,6.1117215035255334,1.0174107551574707,-2.512099806462423
1708435026.2470338,-2.1422295570373535,-1.3337072891047974,-2.526686731969015,6.1117544052894495,1.017369031906128,-2.512061897908346
1708435026.2490327,-2.142266273498535,-1.3336865466884156,-2.526677672063009,6.111712562828817,1.0174274444580078,-2.512082878743307
1708435026.2510185,-2.142213821411133,-1.3336547774127503,-2.5266898314105433,6.11179660537795,1.0173900127410889,-2.512073818837301
1708435026.253055,-2.1422533988952637,-1.333714799290039,-2.526715103779928,6.1116676209266565,1.0174062252044678,-2.512078348790304
1708435026.255006,-2.142245292663574,-1.3336790365031739,-2.52669865289797,6.111787426262655,1.0173944234848022,-2.51205283800234
1708435026.2570508,-2.1422324180603027,-1.3337161850980301,-2.526719633732931,6.1117379544074915,1.0173856019973755,-2.512049976979391
1708435026.259022,-2.142228364944458,-1.3336284023574372,-2.5266643206225794,6.111745464592733,1.0174140930175781,-2.5120862166034144
1708435026.2610366,-2.142213821411133,-1.3336668473533173,-2.526731793080465,6.1117544052894495,1.017439603805542,-2.51205283800234
1708435026.2630386,-2.1422252655029297,-1.3336777252009888,-2.526724163685934,6.111775266915121,1.0173900127410889,-2.5120890776263636
1708435026.2650204,-2.142220973968506,-1.333637223844864,-2.526677910481588,6.111704814224996,1.017401933670044,-2.512082640324728
1708435026.267033,-2.1422009468078613,-1.3336535555175324,-2.526670281087057,6.111720073014059,1.0173900127410889,-2.512061897908346
1708435026.2690058,-2.1422410011291504,-1.3337072891047974,-2.526719633732931,6.111724483757772,1.0173778533935547,-2.512082640324728
1708435026.2710176,-2.142216682434082,-1.3337042790702363,-2.5267227331744593,6.111742484360494,1.017381191253662,-2.5121100584613245
1708435026.2730224,-2.142220973968506,-1.3337412786534806,-2.5267062822925013,6.111729013710775,1.0174063444137573,-2.5120862166034144
1708435026.2750273,-2.142270088195801,-1.3337072891047974,-2.5267062822925013,6.111773955612936,1.0173778533935547,-2.5120981375323694
1708435026.2770402,-2.1422533988952637,-1.3336658042720337,-2.526707712803976,6.1117544052894495,1.0174107551574707,-2.5120602289782923
1708435026.2790194,-2.1422367095947266,-1.333702878361084,-2.526727263127462,6.111778485565939,1.0173945426940918,-2.5120907465564173
1708435026.2810414,-2.142220973968506,-1.3336865466884156,-2.5267346541034144,6.111773955612936,1.0174063444137573,-2.5121145884143274
1708435026.2830317,-2.1422901153564453,-1.333690957432129,-2.526710573826925,6.111761796265402,1.0174063444137573,-2.512064758931295
1708435026.2850235,-2.1422743797302246,-1.333701567058899,-2.526727263127462,6.111790048867025,1.0173945426940918,-2.5121265093432825
1708435026.287036,-2.142270088195801,-1.333702878361084,-2.52674371400942,6.111773955612936,1.0173778533935547,-2.5121026674853724
1708435026.2890117,-2.1422252655029297,-1.3337637943080445,-2.526731793080465,6.111766207009115,1.0173900127410889,-2.5120936075793665
1708435026.2910025,-2.142216682434082,-1.333735541706421,-2.52669865289797,6.111773955612936,1.0173945426940918,-2.5121145884143274
1708435026.293015,-2.1422576904296875,-1.3336790365031739,-2.5267167727099817,6.111733543663778,1.0173945426940918,-2.5121219793902796
1708435026.2950473,-2.1422252655029297,-1.3337325316718598,-2.526727263127462,6.111773955612936,1.017381191253662,-2.5120936075793665
1708435026.2970455,-2.1422786712646484,-1.3336535555175324,-2.526710573826925,6.111752855568685,1.0173527002334595,-2.5121310392962855
1708435026.2990465,-2.1422617435455322,-1.3336658042720337,-2.526731793080465,6.111729013710775,1.0173496007919312,-2.5121145884143274
1708435026.3009953,-2.142220973968506,-1.333690957432129,-2.526703182850973,6.111761796265402,1.0174274444580078,-2.5121145884143274
1708435026.303059,-2.1422367095947266,-1.3337192100337525,-2.52669865289797,6.111704814224996,1.0173437595367432,-2.5121434370623987
1708435026.304996,-2.142270088195801,-1.3336746257594605,-2.526715103779928,6.111720073014059,1.0173733234405518,-2.51212984720339
1708435026.3070366,-2.142289876937866,-1.3336658042720337,-2.526740852986471,6.1117663262184045,1.0174108743667603,-2.5121598879443567
1708435026.3090026,-2.142209529876709,-1.3337399524501343,-2.526719633732931,6.1117663262184045,1.0174318552017212,-2.5120845476733606
1708435026.3110054,-2.142205238342285,-1.333702878361084,-2.526712242756979,6.111729013710775,1.017401933670044,-2.5121536890613
1708435026.3130214,-2.142220973968506,-1.3337072891047974,-2.52674371400942,6.111806380539694,1.0173900127410889,-2.5121434370623987
1708435026.315011,-2.142220973968506,-1.333714799290039,-2.526703182850973,6.111778485565939,1.0173945426940918,-2.512155357991354
1708435026.3170485,-2.1422367095947266,-1.3336746257594605,-2.5267346541034144,6.111724483757772,1.0173856019973755,-2.512103859578268
1708435026.3190289,-2.142294406890869,-1.3336746555617829,-2.52667481104006,6.111761796265402,1.0173856019973755,-2.512134377156393
1708435026.3210082,-2.1422410011291504,-1.3336984825185318,-2.526677672063009,6.111778485565939,1.0174063444137573,-2.512146298085348
1708435026.3230464,-2.1422252655029297,-1.333702878361084,-2.52666145959963,6.111757266312399,1.017364501953125,-2.512134377156393
1708435026.3250682,-2.1422617435455322,-1.3337280464223404,-2.5266898314105433,6.1117989895637415,1.0173856019973755,-2.512146298085348
1708435026.3270538,-2.1422533988952637,-1.333735541706421,-2.526703182850973,6.111740815430441,1.0173733234405518,-2.51212984720339
1708435026.3290007,-2.1422617435455322,-1.3337325316718598,-2.5267229715930384,6.111766207009115,1.0174063444137573,-2.512125317250387
1708435026.331027,-2.1422743797302246,-1.3337236207774659,-2.52674371400942,6.111745345383444,1.0174063444137573,-2.512200657521383
1708435026.3330202,-2.142249584197998,-1.333716170196869,-2.5267391840564173,6.111726033478536,1.0174273252487183,-2.5122080484973353
1708435026.33503,-2.142220973968506,-1.333690957432129,-2.5267120043383997,6.111766207009115,1.0174063444137573,-2.512116257344381
1708435026.3370824,-2.142216682434082,-1.3336821061423798,-2.526727263127462,6.111787426262655,1.0173733234405518,-2.512179676686422
1708435026.3389957,-2.14224910736084,-1.3336777102998276,-2.526703182850973,6.111761796265402,1.0173900127410889,-2.512146298085348
1708435026.340993,-2.142209529876709,-1.3336579364589234,-2.526752535496847,6.111773955612936,1.0174262523651123,-2.512150828038351
1708435026.3430378,-2.1422324180603027,-1.3337072891047974,-2.52669865289797,6.111758816033163,1.017369031906128,-2.5121536890613
1708435026.345027,-2.1422619819641113,-1.3337430518916626,-2.526686731969015,6.111712562828817,1.0173945426940918,-2.512125555668966
1708435026.3470023,-2.1422410011291504,-1.333698497419693,-2.526748243962423,6.11171709278182,1.0173945426940918,-2.512132708226339
1708435026.3490164,-2.14224910736084,-1.3337072891047974,-2.526710573826925,6.111770736962118,1.017436146736145,-2.512146298085348
1708435026.3510067,-2.1422367095947266,-1.333739922647812,-2.526715103779928,6.1117498753364465,1.0174229145050049,-2.5121536890613
1708435026.3530343,-2.1422252655029297,-1.3337072444013138,-2.526719633732931,6.111709344177999,1.0173900127410889,-2.512179676686422
1708435026.3550286,-2.142245054244995,-1.3337072891047974,-2.526715103779928,6.111767875939169,1.0173900127410889,-2.5121660868274134
1708435026.3570793,-2.142245292663574,-1.3336448234370728,-2.526719633732931,6.11171709278182,1.0173615217208862,-2.512179676686422
1708435026.3590162,-2.1422338485717773,-1.333702878361084,-2.526677672063009,6.111770736962118,1.0173615217208862,-2.5122080484973353
1708435026.3610463,-2.142245292663574,-1.333744378095009,-2.526731793080465,6.111770736962118,1.0173975229263306,-2.512116257344381
1708435026.3630474,-2.1422252655029297,-1.3337116551450272,-2.5267227331744593,6.1117215035255334,1.0173900127410889,-2.5121660868274134
1708435026.365006,-2.14229416847229,-1.3337192100337525,-2.526707712803976,6.111758816033163,1.0173856019973755,-2.512158219014303
1708435026.3670344,-2.1422786712646484,-1.333674670462944,-2.5266898314105433,6.1117334244544885,1.017401933670044,-2.512137238179342
1708435026.3690546,-2.142302989959717,-1.3336865466884156,-2.5267329851733606,6.11169587352828,1.017401933670044,-2.512179676686422
1708435026.371034,-2.1422743797302246,-1.3336835366538544,-2.5267062822925013,6.111745345383444,1.0173900127410889,-2.512162748967306
1708435026.3730474,-2.1422295570373535,-1.3337192100337525,-2.5267046133624476,6.111697542458334,1.0173856019973755,-2.512205187474386
1708435026.3750062,-2.1422181129455566,-1.3336865913918992,-2.526677672063009,6.111726033478536,1.017401933670044,-2.512179676686422
1708435026.37703,-2.1422619819641113,-1.3337192100337525,-2.526752535496847,6.111761796265402,1.0173615217208862,-2.5121989885913294
1708435026.3790135,-2.142209529876709,-1.3336865615895768,-2.526707712803976,6.111779796868124,1.0173571109771729,-2.5121706167804163
1708435026.3810024,-2.1422009468078613,-1.333735541706421,-2.526682202016012,6.111770736962118,1.0174063444137573,-2.5121825377093714
1708435026.383041,-2.1422901153564453,-1.3336865615895768,-2.526724163685934,6.111775266915121,1.0173734426498413,-2.512179676686422
1708435026.38501,-2.1422619819641113,-1.3337205660394211,-2.526719633732931,6.111742484360494,1.0174062252044678,-2.512120787297384
1708435026.3870258,-2.1422786712646484,-1.3336865466884156,-2.526712242756979,6.111796486168661,1.017369031906128,-2.512171808873312
1708435026.3890214,-2.1422295570373535,-1.3336865615895768,-2.526653830205099,6.111701953202047,1.0173733234405518,-2.512200657521383
1708435026.391019,-2.1422786712646484,-1.333637223844864,-2.526719633732931,6.111735093384542,1.017401933670044,-2.512216869984762
1708435026.3930273,-2.142245292663574,-1.3337325316718598,-2.526710573826925,6.111775147705831,1.0174063444137573,-2.51216704050173
1708435026.395,-2.1422410011291504,-1.3336417388967057,-2.526710573826925,6.111718284874716,1.017397403717041,-2.51219612756838
1708435026.397009,-2.142245292663574,-1.3336702150157471,-2.526727263127462,6.111697542458334,1.017382264137268,-2.512212578450338
1708435026.399008,-2.142220973968506,-1.3337103885463257,-2.526710573826925,6.111718404084005,1.0173900127410889,-2.512137238179342
1708435026.4009924,-2.1422743797302246,-1.3336165857366105,-2.526736084614889,6.111713874131002,1.0173900127410889,-2.512167278920309
1708435026.403046,-2.1422252655029297,-1.3337192100337525,-2.526677910481588,6.111755955010214,1.0173900127410889,-2.51212984720339
1708435026.4050171,-2.1422181129455566,-1.333714784388878,-2.526682202016012,6.111668813019552,1.0174229145050049,-2.512179676686422
1708435026.4070334,-2.142209529876709,-1.333690957432129,-2.526727263127462,6.111659753113546,1.0173778533935547,-2.512184206639425
1708435026.4090161,-2.142220973968506,-1.3336746257594605,-2.526710573826925,6.111649858742513,1.0173944234848022,-2.51212984720339
1708435026.4110036,-2.142249584197998,-1.3336865466884156,-2.526731793080465,6.111677872925558,1.0173856019973755,-2.512120787297384
1708435026.4130476,-2.1422295570373535,-1.3336613935283204,-2.526727263127462,6.111685502320089,1.017381191253662,-2.5121870676623743
1708435026.4150193,-2.1422743797302246,-1.33371918023143,-2.526719633732931,6.111633527069845,1.0173975229263306,-2.5121751467334192
1708435026.4170284,-2.142242670059204,-1.3336790365031739,-2.526719633732931,6.111654269486227,1.0173571109771729,-2.5121617952929896
1708435026.4190264,-2.1422367095947266,-1.3337073040059586,-2.526703182850973,6.111592757492819,1.0174063444137573,-2.512224260960714
1708435026.4210627,-2.142266273498535,-1.3336909723332901,-2.526736084614889,6.111625659256735,1.0173810720443726,-2.5121870676623743
1708435026.4231298,-2.142266273498535,-1.3336657744697114,-2.526736084614889,6.111597406655111,1.0173988342285156,-2.5121825377093714
1708435026.425021,-2.1422338485717773,-1.3337028634599228,-2.526707712803976,6.111540424614706,1.0173856019973755,-2.5121915976153772
1708435026.4270055,-2.1422226428985596,-1.3337072742036362,-2.52675706544985,6.111556756287374,1.0173929929733276,-2.512120787297384
1708435026.429015,-2.1422410011291504,-1.3337443631938477,-2.526724163685934,6.111619818001547,1.0173527002334595,-2.5121751467334192
1708435026.431004,-2.1422367095947266,-1.3336821508458634,-2.526727263127462,6.11156581619338,1.0173856019973755,-2.51212984720339
1708435026.433037,-2.142287492752075,-1.3336658042720337,-2.526752535496847,6.111603486328878,1.0173988342285156,-2.512132708226339
1708435026.4350011,-2.142249584197998,-1.333747462635376,-2.52669865289797,6.111542331963339,1.017369031906128,-2.5121870676623743
1708435026.4370208,-2.1422383785247803,-1.3336579960635682,-2.5267017523394983,6.111574876099386,1.017401933670044,-2.5122197310077112
1708435026.4391031,-2.1421916484832764,-1.3337072891047974,-2.526682440434591,6.111558425217428,1.017415165901184,-2.512141768132345
1708435026.4409912,-2.142209529876709,-1.3337116998485108,-2.5267062822925013,6.111553895264425,1.0174185037612915,-2.512141768132345
1708435026.4430258,-2.142270088195801,-1.3336953532746811,-2.526686731969015,6.11157916763381,1.0173496007919312,-2.51219612756838
1708435026.4450424,-2.142220973968506,-1.333679051404335,-2.526752535496847,6.111538994103231,1.0174317359924316,-2.5121753851519983
1708435026.4470286,-2.142213821411133,-1.333711640243866,-2.526691261922018,6.1115912077720544,1.017382264137268,-2.512149159108297
1708435026.4490087,-2.1422295570373535,-1.33374439299617,-2.5267227331744593,6.111586797028341,1.017382264137268,-2.512149159108297
1708435026.450999,-2.1421873569488525,-1.333702878361084,-2.526724163685934,6.111576306610861,1.017369031906128,-2.51212984720339
1708435026.4530015,-2.1421959400177,-1.3336984825185318,-2.526691261922018,6.111509310990133,1.0174063444137573,-2.512137238179342
1708435026.4550123,-2.142209529876709,-1.3336702448180695,-2.52669865289797,6.111506211548605,1.017348289489746,-2.5121915976153772
1708435026.4570074,-2.142213821411133,-1.3336835366538544,-2.526686731969015,6.111513602524557,1.0174107551574707,-2.512125317250387
1708435026.458993,-2.1421759128570557,-1.333714799290039,-2.526707712803976,6.111548054009237,1.0173900127410889,-2.512108389531271
1708435026.4610157,-2.1421844959259033,-1.3337028634599228,-2.526719633732931,6.111489522248068,1.0173944234848022,-2.51219612756838
1708435026.4630165,-2.1422009468078613,-1.3336702150157471,-2.526677910481588,6.111506211548605,1.0173856019973755,-2.512146298085348
1708435026.4650161,-2.1421873569488525,-1.3337072891047974,-2.526712242756979,6.111555802613058,1.0173778533935547,-2.5121536890613
1708435026.4670234,-2.1421959400177,-1.3336821508458634,-2.526727263127462,6.11151813247756,1.017401933670044,-2.512132708226339
1708435026.469029,-2.1421916484832764,-1.3336790663054963,-2.52669865289797,6.111489522248068,1.0174063444137573,-2.512146298085348
1708435026.471005,-2.1421959400177,-1.333702878361084,-2.5267284552203577,6.111474740296163,1.0173988342285156,-2.512125555668966
1708435026.473011,-2.1421844959259033,-1.3336984676173707,-2.52675706544985,6.111441600113668,1.0173900127410889,-2.51208740869631
1708435026.4750164,-2.142209053039551,-1.3336790365031739,-2.5266898314105433,6.111456739693441,1.017401933670044,-2.51212984720339
1708435026.4770281,-2.142204761505127,-1.333620862369873,-2.526736084614889,6.111462819367208,1.0173571109771729,-2.512138907109396
1708435026.4790196,-2.1421844959259033,-1.3337280315211792,-2.52674371400942,6.11147021034316,1.0173615217208862,-2.512120787297384
1708435026.480998,-2.1422181129455566,-1.333753303890564,-2.52669865289797,6.111449348717489,1.0173975229263306,-2.512155357991354
1708435026.4830332,-2.142204761505127,-1.3336940568736573,-2.5266898314105433,6.1115243313606165,1.0173900127410889,-2.512150828038351
1708435026.485009,-2.142197608947754,-1.3337192100337525,-2.526665989552633,6.111524212151327,1.0174185037612915,-2.5121174494372767
1708435026.4870217,-2.142197608947754,-1.3337072891047974,-2.526715103779928,6.111486661225118,1.0173944234848022,-2.512137238179342
1708435026.4890103,-2.142200231552124,-1.3336865466884156,-2.526707712803976,6.1115198014076135,1.0173615217208862,-2.512132708226339
1708435026.4910035,-2.1422295570373535,-1.3337325316718598,-2.526665989552633,6.111465799599447,1.0173988342285156,-2.5121174494372767
1708435026.493024,-2.1422269344329834,-1.333670200114586,-2.52675706544985,6.111495601921835,1.0173437595367432,-2.5120964686023157
1708435026.4950192,-2.1421687602996826,-1.3336658340743561,-2.526703182850973,6.111504542618551,1.017382264137268,-2.51212984720339
1708435026.4970164,-2.1421844959259033,-1.3336909723332901,-2.52666145959963,6.111491191178121,1.0173778533935547,-2.5121265093432825
1708435026.499045,-2.1422019004821777,-1.3336579662612458,-2.526694361363546,6.111462819367208,1.0174185037612915,-2.512125555668966
1708435026.5010166,-2.1421353816986084,-1.3337235909751435,-2.526715103779928,6.111418235092916,1.0173659324645996,-2.5120893160449427
1708435026.5030954,-2.142204761505127,-1.3337235909751435,-2.52674371400942,6.111436116486349,1.0173900127410889,-2.512134377156393
1708435026.5050137,-2.1422133445739746,-1.3337073189071198,-2.526703182850973,6.11142252662734,1.0173944234848022,-2.5121009985553187
1708435026.5070572,-2.1422338485717773,-1.333739922647812,-2.526707712803976,6.111413585930624,1.0173615217208862,-2.5121174494372767
1708435026.509058,-2.142209053039551,-1.3337072891047974,-2.526745144520895,6.111418235092916,1.0174317359924316,-2.5121100584613245
1708435026.511019,-2.14219331741333,-1.3336746257594605,-2.526719633732931,6.111443507462301,1.017401933670044,-2.5120509306537073
1708435026.513026,-2.1422269344329834,-1.3336491149714966,-2.526778046284811,6.111401784210958,1.017348289489746,-2.5121308008777063
1708435026.5150108,-2.142165184020996,-1.3337235909751435,-2.526715103779928,6.111374604492941,1.0174185037612915,-2.5120893160449427
1708435026.5170336,-2.1422312259674072,-1.3336984825185318,-2.526736084614889,6.111365544586935,1.017382264137268,-2.5121100584613245
1708435026.5190706,-2.1422019004821777,-1.3336702150157471,-2.526670281087057,6.111320602684774,1.0173571109771729,-2.5121145884143274
1708435026.521034,-2.14216947555542,-1.3337192249349137,-2.5266626516925257,6.1113672135169885,1.0173571109771729,-2.5120936075793665
1708435026.5230463,-2.1421775817871094,-1.33370594800029,-2.526703182850973,6.111363994866171,1.0173856019973755,-2.5121236483203333
1708435026.525046,-2.142165184020996,-1.3337116551450272,-2.526727263127462,6.111301290779867,1.017369031906128,-2.5120936075793665
1708435026.5270636,-2.142186164855957,-1.333657981162407,-2.526694361363546,6.111335742264547,1.0173944234848022,-2.5121117273913782
1708435026.529031,-2.1421990394592285,-1.3337804538062592,-2.526761595402853,6.111314761429586,1.0173988342285156,-2.5120273272143763
1708435026.5310173,-2.142190456390381,-1.3336984676173707,-2.5267165342914026,6.111323821335592,1.017382264137268,-2.512031857167379
1708435026.533029,-2.142152786254883,-1.3336984825185318,-2.526748005543844,6.111302959709921,1.0173659324645996,-2.512064758931295
1708435026.535008,-2.1421456336975098,-1.3337311011603852,-2.526691261922018,6.111310350685873,1.0173527002334595,-2.512082878743307
1708435026.5370412,-2.14216947555542,-1.3337280464223404,-2.526724163685934,6.111298429756918,1.0173856019973755,-2.512045447026388
1708435026.5390875,-2.142144203186035,-1.333714784388878,-2.526731793080465,6.111344682961263,1.017364501953125,-2.512061897908346
1708435026.541018,-2.142144203186035,-1.3337518733790894,-2.5267120043383997,6.111311900406637,1.0173944234848022,-2.512008253728048
1708435026.5430446,-2.142197608947754,-1.3337116998485108,-2.5266838709460657,6.111286508827963,1.0173734426498413,-2.5120425860034388
1708435026.5450122,-2.142214775085449,-1.3337072891047974,-2.526724163685934,6.111323821335592,1.017382264137268,-2.5120871702777308
1708435026.5470507,-2.142197608947754,-1.333707259302475,-2.526736084614889,6.111270177155294,1.0173733234405518,-2.512021605168478
1708435026.549094,-2.142165184020996,-1.3337279719165345,-2.52666145959963,6.111307370453634,1.0173571109771729,-2.5120261351214808
1708435026.5510573,-2.1422019004821777,-1.3337399822524567,-2.5267329851733606,6.111302840500631,1.017415165901184,-2.5120425860034388
1708435026.553066,-2.1422104835510254,-1.3336746406606217,-2.526694361363546,6.111302959709921,1.017382264137268,-2.512038056050436
1708435026.5550287,-2.1421170234680176,-1.3337161552957078,-2.526740614567892,6.111307370453634,1.0173778533935547,-2.512033526097433
1708435026.5570319,-2.1421947479248047,-1.3337235909751435,-2.52669865289797,6.11131631115035,1.0173988342285156,-2.5120514074908655
1708435026.5590665,-2.1421570777893066,-1.3337607097676774,-2.5266733805285853,6.111277568131246,1.0173778533935547,-2.5120230356799524
1708435026.5610328,-2.142191171646118,-1.3337072891047974,-2.5267229715930384,6.11131631115035,1.0173734426498413,-2.512038056050436
1708435026.5629976,-2.142141342163086,-1.333682121043541,-2.526686731969015,6.111302959709921,1.0173615217208862,-2.5119858423816126
1708435026.5650172,-2.1421284675598145,-1.3337399673512955,-2.526731793080465,6.111314761429586,1.017324447631836,-2.512005392705099
1708435026.5670228,-2.142087459564209,-1.3336702448180695,-2.526691261922018,6.111311900406637,1.0173571109771729,-2.512005392705099
1708435026.5690098,-2.1421542167663574,-1.3337399524501343,-2.526686731969015,6.111274587899008,1.0173540115356445,-2.5119643847094935
1708435026.5710335,-2.142148494720459,-1.3337223541787644,-2.526719633732931,6.111349093704977,1.0173615217208862,-2.511939827595846
1708435026.5730057,-2.142169952392578,-1.3336998385242005,-2.526682202016012,6.111245977669515,1.0173659324645996,-2.51197320619692
1708435026.575013,-2.1421217918395996,-1.3337236207774659,-2.5267227331744593,6.111346232682028,1.017382264137268,-2.5119524637805384
1708435026.5770056,-2.142113208770752,-1.3336579960635682,-2.526715103779928,6.111344563751974,1.0173615217208862,-2.51197320619692
1708435026.5790615,-2.1421456336975098,-1.333719165330269,-2.526731793080465,6.111290919571676,1.0173615217208862,-2.5119994322406214
1708435026.5810578,-2.1421256065368652,-1.3337235909751435,-2.526665989552633,6.111295449524679,1.0173659324645996,-2.5120113531695765
1708435026.5830195,-2.1421256065368652,-1.3337072742036362,-2.526691261922018,6.111274587899008,1.0173571109771729,-2.5119569937335413
1708435026.5850265,-2.1421613693237305,-1.3336746406606217,-2.52675706544985,6.1112533686454675,1.0173659324645996,-2.511958185826437
1708435026.587046,-2.1421005725860596,-1.3336909425309678,-2.526686731969015,6.111347543984213,1.0174076557159424,-2.5120158831225794
1708435026.5890408,-2.142169952392578,-1.3336790365031739,-2.5266626516925257,6.111311900406637,1.0173944234848022,-2.511975113545553
1708435026.5910408,-2.142129898071289,-1.3336865913918992,-2.526694361363546,6.111344563751974,1.0173496007919312,-2.511982504521505
1708435026.5930283,-2.142084836959839,-1.3337311756661911,-2.526761595402853,6.111299979477682,1.0173944234848022,-2.511966053639547
1708435026.5950446,-2.1421384811401367,-1.3336658340743561,-2.526736084614889,6.111250388413229,1.0173988342285156,-2.5119643847094935
1708435026.5970304,-2.1421430110931396,-1.3336746555617829,-2.526686731969015,6.111283528595724,1.0173615217208862,-2.511953655873434
1708435026.5991075,-2.142134189605713,-1.3336953532746811,-2.526686731969015,6.111320960312643,1.0173496007919312,-2.511987034474508
1708435026.6014822,-2.1421430110931396,-1.3337072444013138,-2.526679340993063,6.111265647202291,1.0173988342285156,-2.511937204991476
1708435026.6032524,-2.1421263217926025,-1.333641679292061,-2.526707712803976,6.111295449524679,1.0173747539520264,-2.511948887501852
1708435026.605542,-2.1421217918395996,-1.3336133819869538,-2.52669865289797,6.111262309342184,1.0173747539520264,-2.5119505564319056
1708435026.6072664,-2.1421263217926025,-1.333710403447487,-2.526712242756979,6.111299860268392,1.0173866748809814,-2.5119670073138636
1708435026.6090097,-2.1420936584472656,-1.333702878361084,-2.526691261922018,6.111278998642721,1.017370343208313,-2.5119670073138636
1708435026.611028,-2.1421384811401367,-1.3337205958417435,-2.526727263127462,6.111266839295187,1.0173615217208862,-2.511920992528097
1708435026.6130004,-2.1420891284942627,-1.3337028932622452,-2.526719633732931,6.111297118454733,1.0173615217208862,-2.511925284062521
1708435026.615036,-2.1421217918395996,-1.3336658340743561,-2.526670281087057,6.111262309342184,1.0173451900482178,-2.511979643498556
1708435026.6170309,-2.1420812606811523,-1.3336579960635682,-2.5267000834094446,6.111260998039999,1.017382264137268,-2.511996094380514
1708435026.6190412,-2.1421093940734863,-1.333686501984932,-2.5266955534564417,6.111229526787557,1.0173629522323608,-2.511932675038473
1708435026.6210315,-2.142084836959839,-1.333670274620392,-2.526691261922018,6.111297118454733,1.0173659324645996,-2.5119550863849085
1708435026.6230218,-2.1420891284942627,-1.333690957432129,-2.526715103779928,6.111238586693563,1.0173031091690063,-2.5119386355029505
1708435026.6250346,-2.1421093940734863,-1.3337162149003525,-2.526677910481588,6.111254918366232,1.017382264137268,-2.511937204991476
1708435026.6270144,-2.142117500305176,-1.3336668473533173,-2.526715103779928,6.111189353256979,1.0173571109771729,-2.5119133631335657
1708435026.6290247,-2.1421048641204834,-1.3336953532746811,-2.5267046133624476,6.111199843674459,1.017370343208313,-2.511984173451559
1708435026.6310408,-2.1421022415161133,-1.3337325316718598,-2.526703182850973,6.1112356064613245,1.017382264137268,-2.5119462648974817
1708435026.6330175,-2.1420769691467285,-1.3336746406606217,-2.526691261922018,6.111218917160787,1.0173615217208862,-2.511908833180563
1708435026.6350276,-2.1420602798461914,-1.3336614233306427,-2.5267000834094446,6.111178982048788,1.0173451900482178,-2.511958185826437
1708435026.637025,-2.142073154449463,-1.3336821359447022,-2.5266404787646692,6.111195313721456,1.017382264137268,-2.5119343439685267
1708435026.6390178,-2.1420488357543945,-1.3337191951325913,-2.526715103779928,6.111138331681051,1.017382264137268,-2.5119343439685267
1708435026.6410277,-2.1421306133270264,-1.3336713028005143,-2.526695791875021,6.111145841866293,1.0173747539520264,-2.5119298140155237
1708435026.6430175,-2.14211368560791,-1.3336984825185318,-2.526670281087057,6.111201512604513,1.0173866748809814,-2.5119386355029505
1708435026.6450188,-2.1420891284942627,-1.3337161254933854,-2.526670281087057,6.111171233444967,1.0173451900482178,-2.511897150670187
1708435026.6470258,-2.1420769691467285,-1.3336701852134247,-2.5267284552203577,6.111204373627462,1.0173866748809814,-2.5119178930865687
1708435026.6490142,-2.1420645713806152,-1.3337413680604477,-2.526691261922018,6.111133920937338,1.0173615217208862,-2.5119178930865687
1708435026.6510546,-2.142073154449463,-1.3336297434619446,-2.526731793080465,6.111184704094686,1.0173659324645996,-2.5119386355029505
1708435026.6530204,-2.1420531272888184,-1.3336702150157471,-2.526691261922018,6.11117576339797,1.017382264137268,-2.511909071599142
1708435026.655033,-2.142143487930298,-1.3337072742036362,-2.526665989552633,6.111206042557516,1.017311930656433,-2.5119014422046106
1708435026.6570117,-2.1420979499816895,-1.333702878361084,-2.526724163685934,6.111192452698507,1.0173659324645996,-2.5118845144854944
1708435026.659048,-2.142106533050537,-1.3337325316718598,-2.526677672063009,6.11119698265151,1.0173540115356445,-2.5119105021106165
1708435026.66101,-2.1420984268188477,-1.3336790365031739,-2.526682202016012,6.111118781357565,1.0173615217208862,-2.5119386355029505
1708435026.6630597,-2.1420979499816895,-1.3337116998485108,-2.526703182850973,6.111171233444967,1.0173451900482178,-2.5118845144854944
1708435026.6650345,-2.142122268676758,-1.3337355119040986,-2.526736323033468,6.111147391587057,1.0173615217208862,-2.5119133631335657
1708435026.667019,-2.14208984375,-1.3337236207774659,-2.526736084614889,6.111121642380514,1.0173451900482178,-2.5118890444384974
1708435026.669002,-2.1420812606811523,-1.3337236207774659,-2.526724163685934,6.111201512604513,1.0173615217208862,-2.5118845144854944
1708435026.6710382,-2.142085552215576,-1.3336865466884156,-2.526715103779928,6.111213433533468,1.017382264137268,-2.5119059721576136
1708435026.6730177,-2.142094135284424,-1.3336623919061203,-2.5266581217395228,6.111187922745504,1.0173615217208862,-2.511892620717184
1708435026.6750124,-2.142068862915039,-1.3336835217526932,-2.526686731969015,6.111187922745504,1.0173540115356445,-2.5119314829455774
1708435026.677016,-2.142068862915039,-1.3336623770049592,-2.5267496744738978,6.1111429808433435,1.017382264137268,-2.5119343439685267
1708435026.6791098,-2.142085552215576,-1.3337325316718598,-2.526703182850973,6.111178862839498,1.017324447631836,-2.5118935743915003
1708435026.6810246,-2.142073154449463,-1.3336923581412812,-2.52666145959963,6.111135232239523,1.017403244972229,-2.5119269529925745
1708435026.6830502,-2.1420488357543945,-1.3336668771556397,-2.52666145959963,6.111133920937338,1.0173571109771729,-2.5118935743915003
1708435026.6850348,-2.142068862915039,-1.3336746108582993,-2.526707712803976,6.1112133143241785,1.0173988342285156,-2.5118799845324915
1708435026.6870136,-2.1420984268188477,-1.3336790365031739,-2.526691261922018,6.111166703491964,1.017337679862976,-2.5118845144854944
1708435026.6890304,-2.142073154449463,-1.3336668771556397,-2.526715103779928,6.111213433533468,1.017336368560791,-2.5119105021106165
1708435026.691027,-2.142057418823242,-1.3336835366538544,-2.526670519505636,6.11113070228652,1.017382264137268,-2.5118935743915003
1708435026.6930509,-2.1420416831970215,-1.333713100557663,-2.526695791875021,6.111220705300131,1.0173659324645996,-2.5118969122516077
1708435026.6950145,-2.14208984375,-1.3336579662612458,-2.526679340993063,6.111199843674459,1.0173747539520264,-2.5118845144854944
1708435026.6970325,-2.142143487930298,-1.3336984825185318,-2.526736084614889,6.111138331681051,1.0173615217208862,-2.5119059721576136
1708435026.6990373,-2.1420531272888184,-1.3336297136596222,-2.52665359178652,6.111192452698507,1.0173496007919312,-2.5119269529925745
1708435026.7009897,-2.1420860290527344,-1.3336865466884156,-2.526677672063009,6.111163842469015,1.0173496007919312,-2.5119388739215296
1708435026.7030187,-2.14208984375,-1.3336549562266846,-2.526670281087057,6.1111745713050745,1.0173659324645996,-2.5118845144854944
1708435026.70506,-2.1421194076538086,-1.3336668771556397,-2.526719633732931,6.111135232239523,1.0173659324645996,-2.5118799845324915
1708435026.7070217,-2.14206600189209,-1.3337235909751435,-2.526691261922018,6.111168372422018,1.0173659324645996,-2.511958185826437
1708435026.709038,-2.142073154449463,-1.3336746108582993,-2.526686731969015,6.111180293350973,1.0173659324645996,-2.5118845144854944
1708435026.7110105,-2.14206600189209,-1.333723635678627,-2.5267284552203577,6.111150371819296,1.0173866748809814,-2.5119105021106165
1708435026.7130187,-2.1420207023620605,-1.3336953681758423,-2.526740852986471,6.111157882004537,1.0173659324645996,-2.5119150320636194
1708435026.7150006,-2.1420488357543945,-1.3336998683265229,-2.526731793080465,6.111180293350973,1.0173571109771729,-2.5119107405291956
1708435026.7170255,-2.14206600189209,-1.3336416345885773,-2.526703182850973,6.11119698265151,1.017370343208313,-2.5119107405291956
1708435026.7190423,-2.1420249938964844,-1.3337042790702363,-2.526715103779928,6.111139762192526,1.0173289775848389,-2.5119059721576136
1708435026.721036,-2.14208984375,-1.3337072891047974,-2.526670281087057,6.111225354462423,1.017370343208313,-2.5118935743915003
1708435026.7231035,-2.1420817375183105,-1.3336984825185318,-2.526695791875021,6.111171233444967,1.017382264137268,-2.5118635336505335
1708435026.725042,-2.1420249938964844,-1.3336535555175324,-2.526649300252096,6.111159312516012,1.017311930656433,-2.5118592421161097
1708435026.7270286,-2.1420416831970215,-1.333690957432129,-2.526694361363546,6.1111594317253015,1.0173571109771729,-2.5119150320636194
1708435026.7290313,-2.142073154449463,-1.3337413531592865,-2.5267046133624476,6.11117576339797,1.017386555671692,-2.5119386355029505
1708435026.7310052,-2.14206600189209,-1.3336208921721955,-2.526715103779928,6.111201512604513,1.0173289775848389,-2.5119550863849085
1708435026.7330647,-2.1420702934265137,-1.3336953532746811,-2.526710573826925,6.11119698265151,1.0173945426940918,-2.5119224230395716
1708435026.735012,-2.1420774459838867,-1.333702878361084,-2.526691261922018,6.111166703491964,1.0173792839050293,-2.5119405428515833
1708435026.7370148,-2.1420774459838867,-1.333739922647812,-2.526703182850973,6.11113070228652,1.0173571109771729,-2.5119178930865687
1708435026.7390113,-2.14206600189209,-1.3336777252009888,-2.526694361363546,6.111147391587057,1.017382264137268,-2.5119133631335657
1708435026.7410285,-2.142061710357666,-1.3337369424155732,-2.526677910481588,6.111183392792501,1.0174195766448975,-2.5119150320636194
1708435026.7430217,-2.1420459747314453,-1.3337236207774659,-2.526677910481588,6.111232268601217,1.0173988342285156,-2.5118754545794886
1708435026.7450066,-2.142061710357666,-1.3336702448180695,-2.5267062822925013,6.111217844277181,1.0173944234848022,-2.5119224230395716
1708435026.747026,-2.1419923305511475,-1.3336953681758423,-2.526691261922018,6.111147391587057,1.0173615217208862,-2.511902395878927
1708435026.7490172,-2.1420702934265137,-1.3337072742036362,-2.526703182850973,6.111187922745504,1.0173571109771729,-2.5119434038745325
1708435026.7510068,-2.1420297622680664,-1.333690957432129,-2.526695791875021,6.1112027046974084,1.017382264137268,-2.511897150670187
1708435026.7530303,-2.142042398452759,-1.333683506851532,-2.52669865289797,6.111121642380514,1.017403244972229,-2.5118888060199183
1708435026.7550066,-2.142029285430908,-1.3336372685483475,-2.5266645590411585,6.111208903580465,1.0173289775848389,-2.5119150320636194
1708435026.7570283,-2.1420984268188477,-1.3336865466884156,-2.526731793080465,6.111178982048788,1.017316460609436,-2.5119434038745325
1708435026.759033,-2.14206600189209,-1.333689646129944,-2.526665989552633,6.111154782563009,1.0173778533935547,-2.5118890444384974
1708435026.7609944,-2.142000913619995,-1.3337072891047974,-2.526703182850973,6.111187922745504,1.0173733234405518,-2.5119059721576136
1708435026.7630386,-2.1420702934265137,-1.3337072891047974,-2.5266571680652063,6.1111429808433435,1.0173407793045044,-2.5118888060199183
1708435026.764993,-2.14206600189209,-1.3336835366538544,-2.526695791875021,6.1112297652061365,1.0173615217208862,-2.5119224230395716
1708435026.7670298,-2.142042398452759,-1.3336579662612458,-2.5267120043383997,6.111163842469015,1.0174107551574707,-2.5119059721576136
1708435026.7690258,-2.142061710357666,-1.3337206107429047,-2.526710573826925,6.111187922745504,1.0173733234405518,-2.5119598547564905
1708435026.7710056,-2.142050266265869,-1.3336623770049592,-2.526719633732931,6.11117576339797,1.0173659324645996,-2.5118845144854944
1708435026.773069,-2.142057418823242,-1.3337324869683762,-2.526719633732931,6.111121642380514,1.0173821449279785,-2.5119059721576136
1708435026.775035,-2.1420748233795166,-1.3336879473975678,-2.526719633732931,6.11119698265151,1.0173900127410889,-2.5118888060199183
1708435026.7770243,-2.1420466899871826,-1.3336821359447022,-2.526691261922018,6.11109338977889,1.0173988342285156,-2.5119014422046106
1708435026.7790275,-2.1420459747314453,-1.333649144773819,-2.526677910481588,6.11119698265151,1.017369031906128,-2.5119224230395716
1708435026.7810187,-2.142037868499756,-1.333690957432129,-2.526695791875021,6.11115192154006,1.017382264137268,-2.5118444601642054
1708435026.783056,-2.142037868499756,-1.3336835366538544,-2.5267284552203577,6.111138331681051,1.017382264137268,-2.511902634297506
1708435026.7850156,-2.141979932785034,-1.3336879473975678,-2.52667481104006,6.1112252352531335,1.0173988342285156,-2.511902395878927
1708435026.7870343,-2.142008066177368,-1.333649144773819,-2.526719633732931,6.111180293350973,1.0173571109771729,-2.5119105021106165
1708435026.789148,-2.142054557800293,-1.3336835366538544,-2.526686731969015,6.11117576339797,1.017382264137268,-2.5119224230395716
1708435026.7910314,-2.142054557800293,-1.333637223844864,-2.526703182850973,6.111126172333517,1.017382264137268,-2.511897150670187
1708435026.7930393,-2.142029285430908,-1.3336746257594605,-2.526682202016012,6.111138331681051,1.017415165901184,-2.5119059721576136
1708435026.7950206,-2.142029285430908,-1.3337072891047974,-2.526719633732931,6.111157882004537,1.0173900127410889,-2.5118935743915003
1708435026.7970402,-2.1420209407806396,-1.3337116998485108,-2.52669865289797,6.111160981446066,1.017401933670044,-2.5119269529925745
1708435026.7990427,-2.142033576965332,-1.3336208921721955,-2.526719633732931,6.11117576339797,1.0173734426498413,-2.5119105021106165
1708435026.8010025,-2.1420249938964844,-1.3336637777141114,-2.526677910481588,6.111156451493063,1.0174107551574707,-2.5118845144854944
1708435026.803062,-2.1420254707336426,-1.3336623770049592,-2.526686731969015,6.111205923348226,1.0173734426498413,-2.511902634297506
1708435026.8050487,-2.142037868499756,-1.3336821359447022,-2.5266626516925257,6.111192452698507,1.0174107551574707,-2.5118935743915003
1708435026.8070378,-2.142033576965332,-1.3337042790702363,-2.526682440434591,6.11119698265151,1.017415165901184,-2.511892620717184
1708435026.8090172,-2.142033576965332,-1.3336668771556397,-2.526694361363546,6.111120569496908,1.0173778533935547,-2.5119059721576136
1708435026.8110325,-2.1420633792877197,-1.3336416345885773,-2.526682202016012,6.1112297652061365,1.0173900127410889,-2.5119434038745325
1708435026.8130448,-2.142061710357666,-1.3337072891047974,-2.526727263127462,6.1111429808433435,1.0173733234405518,-2.5119014422046106
1708435026.8150365,-2.142094850540161,-1.3336835366538544,-2.526644770299093,6.111121642380514,1.0173646211624146,-2.5119105021106165
1708435026.8170352,-2.142059087753296,-1.3337236207774659,-2.5267120043383997,6.111159312516012,1.017397403717041,-2.511902634297506
1708435026.8190522,-2.142029285430908,-1.3336460453322907,-2.526665989552633,6.111168253212728,1.0173571109771729,-2.511902395878927
1708435026.8210456,-2.14206600189209,-1.3337236207774659,-2.526686731969015,6.11119698265151,1.0174063444137573,-2.5119014422046106
1708435026.823041,-2.1420140266418457,-1.3337161999991913,-2.52667481104006,6.111180174141683,1.0174273252487183,-2.5118799845324915
1708435026.8249984,-2.1420466899871826,-1.3336579662612458,-2.52674371400942,6.111222374230184,1.0173659324645996,-2.5119224230395716
1708435026.827045,-2.142042398452759,-1.3336535555175324,-2.526703182850973,6.111163842469015,1.0174185037612915,-2.5118845144854944
1708435026.8290527,-2.142037868499756,-1.3336998683265229,-2.526695791875021,6.111201393395223,1.0173900127410889,-2.5118981043445032
1708435026.8310452,-2.142033576965332,-1.3336668771556397,-2.526731793080465,6.111156451493063,1.017364501953125,-2.5119434038745325
1708435026.833024,-2.142012357711792,-1.3336549562266846,-2.5266733805285853,6.1111429808433435,1.0173734426498413,-2.5119553248034876
1708435026.835004,-2.142037868499756,-1.3336801093867798,-2.526710573826925,6.111147391587057,1.0174440145492554,-2.5119059721576136
1708435026.8370254,-2.142059087753296,-1.3337161999991913,-2.526707712803976,6.111163842469015,1.017369031906128,-2.5119269529925745
1708435026.8390133,-2.142059087753296,-1.3336756986430665,-2.526736323033468,6.111208903580465,1.0173900127410889,-2.5118890444384974
1708435026.8410373,-2.142061710357666,-1.3336342436126252,-2.526677672063009,6.111199843674459,1.0174140930175781,-2.5119221846209925
1708435026.8430238,-2.142033576965332,-1.3337116700461884,-2.526719633732931,6.111156451493063,1.0174483060836792,-2.5119195620166224
1708435026.8450115,-2.1420209407806396,-1.333690957432129,-2.526712242756979,6.111154782563009,1.017401933670044,-2.5119014422046106
1708435026.8470182,-2.142033576965332,-1.3336461049369355,-2.526731793080465,6.111112820893087,1.0173929929733276,-2.511941734944479
1708435026.8490267,-2.1420509815216064,-1.3337072891047974,-2.526694361363546,6.111163842469015,1.0174440145492554,-2.5119178930865687
1708435026.8510034,-2.1419973373413086,-1.3336460453322907,-2.526748243962423,6.11119698265151,1.017401933670044,-2.5119505564319056
1708435026.853052,-2.1420209407806396,-1.3336416643908997,-2.5266733805285853,6.111184704094686,1.0174140930175781,-2.5119224230395716
1708435026.855007,-2.1420249938964844,-1.3337249618819733,-2.5266898314105433,6.111138450890341,1.0173964500427246,-2.5119059721576136
1708435026.857044,-2.1420254707336426,-1.333702878361084,-2.5267658869372767,6.111201393395223,1.0174306631088257,-2.5118890444384974
1708435026.858997,-2.142037868499756,-1.3336253476193924,-2.526694361363546,6.111192452698507,1.0173734426498413,-2.511941734944479
1708435026.8609936,-2.142033576965332,-1.3336416345885773,-2.526748005543844,6.111201393395223,1.017401933670044,-2.5118935743915003
1708435026.863009,-2.142009735107422,-1.3336998385242005,-2.526719633732931,6.11115192154006,1.0174140930175781,-2.5119014422046106
1708435026.8649862,-2.1420209407806396,-1.3336790365031739,-2.526719633732931,6.111217844277181,1.017401933670044,-2.5119343439685267
1708435026.8670335,-2.1420748233795166,-1.3336702150157471,-2.526727263127462,6.111166703491964,1.0174185037612915,-2.511908833180563
1708435026.868995,-2.1420791149139404,-1.3336879473975678,-2.526769224797384,6.111172902375021,1.0173929929733276,-2.5119462648974817
1708435026.8710117,-2.1420340538024902,-1.3336623770049592,-2.526694361363546,6.1112133143241785,1.017381191253662,-2.5118890444384974
1708435026.8730142,-2.1420466899871826,-1.3336953681758423,-2.526715103779928,6.111166703491964,1.0174062252044678,-2.5118845144854944
1708435026.8750074,-2.142005205154419,-1.333668277864792,-2.526694361363546,6.111184704094686,1.0174096822738647,-2.5119388739215296
1708435026.8770049,-2.1420297622680664,-1.3336835366538544,-2.526736084614889,6.111147391587057,1.0173975229263306,-2.5119178930865687
1708435026.879001,-2.1420209407806396,-1.3336790365031739,-2.526691261922018,6.111206042557516,1.0174262523651123,-2.5118799845324915
1708435026.8809888,-2.1420340538024902,-1.3336879473975678,-2.526724163685934,6.11119698265151,1.0173975229263306,-2.5119343439685267
1708435026.8830016,-2.142054557800293,-1.3336328131011506,-2.526707712803976,6.111171233444967,1.0174306631088257,-2.5119178930865687
1708435026.8849795,-2.1420297622680664,-1.3337042790702363,-2.526710573826925,6.111206042557516,1.0174381732940674,-2.5119388739215296
1708435026.8870056,-2.142059087753296,-1.3336865466884156,-2.5266898314105433,6.111147391587057,1.0174381732940674,-2.5118799845324915
1708435026.8890245,-2.142016649246216,-1.333649144773819,-2.526686731969015,6.1112133143241785,1.0174469947814941,-2.5119343439685267
1708435026.8909853,-2.141988515853882,-1.3336746257594605,-2.526707712803976,6.11119698265151,1.017451524734497,-2.5119627157794397
1708435026.8929954,-2.1420140266418457,-1.3336879473975678,-2.526686731969015,6.111154782563009,1.017421841621399,-2.5119059721576136
1708435026.894985,-2.1420016288757324,-1.3336953681758423,-2.526724163685934,6.111172902375021,1.0174381732940674,-2.5119224230395716
1708435026.8970158,-2.1420633792877197,-1.3336746257594605,-2.526731793080465,6.1111172316368005,1.0174095630645752,-2.511883322392599
1708435026.8989968,-2.14206600189209,-1.3336623770049592,-2.526682202016012,6.111166703491964,1.0173929929733276,-2.511897150670187
1708435026.9009929,-2.1420254707336426,-1.3336579662612458,-2.526719633732931,6.11117576339797,1.017421841621399,-2.511897150670187
1708435026.9030046,-2.1420748233795166,-1.3337072891047974,-2.526682202016012,6.111150371819296,1.0174306631088257,-2.5119505564319056
1708435026.9050033,-2.1420254707336426,-1.3337236207774659,-2.526694361363546,6.111184704094686,1.0174262523651123,-2.5119462648974817
1708435026.907197,-2.142005205154419,-1.3336746257594605,-2.526679340993063,6.111166703491964,1.0174052715301514,-2.5119298140155237
1708435026.9090276,-2.142037868499756,-1.3336535555175324,-2.526731793080465,6.111163842469015,1.0174096822738647,-2.511984173451559
1708435026.910991,-2.1420209407806396,-1.3336623770049592,-2.52669865289797,6.111192452698507,1.0173975229263306,-2.5118969122516077
1708435026.9130602,-2.1420633792877197,-1.3336386245540162,-2.526665989552633,6.111139762192526,1.0174262523651123,-2.511904541646139
1708435026.9150016,-2.1420297622680664,-1.3336835366538544,-2.526724163685934,6.111163842469015,1.0174096822738647,-2.511908833180563
1708435026.917014,-2.142042398452759,-1.3336253029159089,-2.5267391840564173,6.11117576339797,1.0174294710159302,-2.5119462648974817
1708435026.918998,-2.1419966220855713,-1.3336460453322907,-2.5267062822925013,6.11119698265151,1.0174140930175781,-2.511892620717184
1708435026.9210458,-2.142016649246216,-1.3336668771556397,-2.5266898314105433,6.111150371819296,1.0174587965011597,-2.5119670073138636
1708435026.9230464,-2.141988515853882,-1.3337042790702363,-2.526748005543844,6.111172902375021,1.0174096822738647,-2.5119434038745325
1708435026.92503,-2.1419923305511475,-1.3336460453322907,-2.526731793080465,6.111154782563009,1.0174096822738647,-2.511948887501852
1708435026.9271417,-2.1420633792877197,-1.3336821359447022,-2.526727263127462,6.111204254418173,1.0174140930175781,-2.511920992528097
1708435026.929032,-2.142033576965332,-1.3336998683265229,-2.526740614567892,6.111171233444967,1.017401933670044,-2.5119550863849085
1708435026.9310224,-2.1420466899871826,-1.3336416345885773,-2.526707712803976,6.111156451493063,1.0174425840377808,-2.5119624773608606
1708435026.933078,-2.1419930458068848,-1.3336998683265229,-2.526736084614889,6.111125099449911,1.017421841621399,-2.511975113545553
1708435026.9350107,-2.142012357711792,-1.3336386245540162,-2.5267284552203577,6.111150371819296,1.0174381732940674,-2.5119462648974817
1708435026.9370291,-2.142037868499756,-1.3336012226394196,-2.526727263127462,6.111201393395223,1.0174381732940674,-2.511932675038473
1708435026.9390433,-2.1420297622680664,-1.3336254072240372,-2.526686731969015,6.111201393395223,1.0174262523651123,-2.511953655873434
1708435026.9410203,-2.1420466899871826,-1.3336505454829712,-2.5266688505755823,6.1111429808433435,1.0174306631088257,-2.511958185826437
1708435026.9430184,-2.1420466899871826,-1.3336549562266846,-2.526694361363546,6.111163842469015,1.0174052715301514,-2.511966053639547
1708435026.9450147,-2.141988515853882,-1.3336879473975678,-2.526686731969015,6.111139762192526,1.0173975229263306,-2.511987034474508
1708435026.9470475,-2.142037868499756,-1.3336386394551774,-2.526707712803976,6.11115192154006,1.017435073852539,-2.511982504521505
1708435026.9490018,-2.142042636871338,-1.333716170196869,-2.52674371400942,6.111206042557516,1.0174500942230225,-2.5119994322406214
1708435026.951005,-2.1420209407806396,-1.333641694193222,-2.526731793080465,6.1111594317253015,1.0174140930175781,-2.511937204991476
1708435026.953031,-2.142054557800293,-1.3336756837419053,-2.5266404787646692,6.111192452698507,1.0174514055252075,-2.511991564427511
1708435026.9550014,-2.1420509815216064,-1.3336702597192307,-2.526682202016012,6.111138450890341,1.0174883604049683,-2.511987034474508
1708435026.9570374,-2.142054557800293,-1.333671287899353,-2.52666145959963,6.111147510796346,1.017400860786438,-2.5119615236865442
1708435026.959007,-2.142054557800293,-1.3336623770049592,-2.52669865289797,6.111217844277181,1.0174394845962524,-2.511937204991476
1708435026.9610026,-2.1420254707336426,-1.3336386245540162,-2.52669865289797,6.111208903580465,1.017421841621399,-2.51197320619692
1708435026.9630256,-2.1420466899871826,-1.3336835366538544,-2.526670281087057,6.111135232239523,1.0174663066864014,-2.5120068232165735
1708435026.9650126,-2.1420226097106934,-1.3336505454829712,-2.526727263127462,6.111187922745504,1.0173975229263306,-2.5119903723346155
1708435026.9670234,-2.142005205154419,-1.3336865466884156,-2.5266853014575403,6.111166703491964,1.0174307823181152,-2.5120113531695765
1708435026.9689963,-2.142042398452759,-1.3336746257594605,-2.526719633732931,6.111126291542806,1.0174425840377808,-2.5119951407061976
1708435026.9710252,-2.142054557800293,-1.333659366970398,-2.52674371400942,6.11117576339797,1.0174052715301514,-2.5120022932635706
1708435026.9730499,-2.1419973373413086,-1.3337294322303315,-2.526694361363546,6.11117576339797,1.0174543857574463,-2.511993471776144
1708435026.9750068,-2.142037868499756,-1.3336725992015381,-2.526677910481588,6.11119698265151,1.017421841621399,-2.5119524637805384
1708435026.9770436,-2.142054557800293,-1.3336460453322907,-2.526686731969015,6.111187922745504,1.0174052715301514,-2.5120471159564417
1708435026.9790022,-2.142005205154419,-1.3336756986430665,-2.526694361363546,6.111187922745504,1.017417550086975,-2.5120678583728235
1708435026.9810083,-2.1420140266418457,-1.3336668771556397,-2.526727263127462,6.111127841263571,1.0174500942230225,-2.5120096842395228
1708435026.9830263,-2.1419973373413086,-1.3336623770049592,-2.526719633732931,6.111180174141683,1.017445683479309,-2.512017313634054
1708435026.9850025,-2.1420466899871826,-1.3336416345885773,-2.526682202016012,6.111171233444967,1.017421841621399,-2.5120752493487757
1708435026.9870124,-2.142009735107422,-1.3336835366538544,-2.526707712803976,6.1112133143241785,1.0174500942230225,-2.512054506932394
1708435026.9890122,-2.1420209407806396,-1.3336623770049592,-2.5267227331744593,6.111159312516012,1.0173813104629517,-2.512038056050436
1708435026.991003,-2.1420297622680664,-1.3336953681758423,-2.52669865289797,6.111147510796346,1.017421841621399,-2.5120752493487757
1708435026.9930475,-2.1420466899871826,-1.3336460453322907,-2.5266898314105433,6.111153352051534,1.0174096822738647,-2.512021605168478
1708435026.9950128,-2.141984224319458,-1.3336790365031739,-2.5267391840564173,6.111171233444967,1.0174140930175781,-2.5120142141925257
1708435026.997045,-2.1420016288757324,-1.3336505454829712,-2.526710573826925,6.111192452698507,1.0174721479415894,-2.512033526097433
1708435026.9990897,-2.1419849395751953,-1.3336342138103028,-2.5267227331744593,6.111079919129171,1.0174262523651123,-2.5120425860034388
1708435027.0010042,-2.142016649246216,-1.3336702150157471,-2.52675706544985,6.111118781357565,1.0174306631088257,-2.512017313634054
1708435027.0030484,-2.1420297622680664,-1.333659366970398,-2.526752535496847,6.111150371819296,1.017467737197876,-2.512038056050436
1708435027.005092,-2.142050266265869,-1.3336998683265229,-2.5267062822925013,6.111201393395223,1.0173975229263306,-2.512061897908346
1708435027.0070412,-2.1420552730560303,-1.3336579662612458,-2.5267391840564173,6.111156451493063,1.017433762550354,-2.512054506932394
1708435027.0090308,-2.1420209407806396,-1.3336756986430665,-2.526715103779928,6.11117576339797,1.0174306631088257,-2.5120871702777308
1708435027.0110178,-2.1420297622680664,-1.3336505603841324,-2.52666145959963,6.111109840660848,1.0174514055252075,-2.512041155491964
1708435027.013038,-2.1420466899871826,-1.333649144773819,-2.526703182850973,6.111133920937338,1.0174425840377808,-2.512045447026388
1708435027.0150218,-2.142042398452759,-1.333637223844864,-2.526727263127462,6.111201393395223,1.017417550086975,-2.5120707193957728
1708435027.01704,-2.1420016288757324,-1.3336208921721955,-2.526731793080465,6.111145841866293,1.017421841621399,-2.512049976979391
1708435027.0190063,-2.1420466899871826,-1.333659366970398,-2.526727263127462,6.11117576339797,1.0174394845962524,-2.512041155491964
1708435027.021022,-2.142087697982788,-1.3336879473975678,-2.526748005543844,6.11117576339797,1.0174587965011597,-2.512045447026388
1708435027.0230613,-2.141988515853882,-1.3336998683265229,-2.526769224797384,6.1111594317253015,1.0173964500427246,-2.512066427861349
1708435027.0250156,-2.1420209407806396,-1.3336208921721955,-2.526736084614889,6.11117576339797,1.0173813104629517,-2.512033526097433
1708435027.027028,-2.142042398452759,-1.3336746257594605,-2.526715103779928,6.111162292748251,1.0174633264541626,-2.512000862752096
1708435027.0290403,-2.1420226097106934,-1.3337042790702363,-2.526727263127462,6.111147391587057,1.0174306631088257,-2.512038056050436
1708435027.0310104,-2.1420466899871826,-1.3336460453322907,-2.5267062822925013,6.111138331681051,1.0174707174301147,-2.512045447026388
1708435027.0330064,-2.1419930458068848,-1.3336386245540162,-2.526715103779928,6.11123417594985,1.0173965692520142,-2.5120096842395228
1708435027.0350218,-2.142005205154419,-1.3336835366538544,-2.526694361363546,6.111154782563009,1.0174633264541626,-2.512033526097433
1708435027.0370133,-2.142016649246216,-1.3336623770049592,-2.52666145959963,6.1111594317253015,1.0174633264541626,-2.51200515428652
1708435027.0390286,-2.1420509815216064,-1.333605633383133,-2.5267496744738978,6.111168253212728,1.0174096822738647,-2.512045447026388
1708435027.0410314,-2.1420254707336426,-1.3336505454829712,-2.526694361363546,6.1111429808433435,1.017400860786438,-2.512054506932394
1708435027.0430202,-2.1419930458068848,-1.3336953681758423,-2.526694361363546,6.11117576339797,1.0174262523651123,-2.5120425860034388
1708435027.0450022,-2.1420140266418457,-1.3336012226394196,-2.526748005543844,6.111160981446066,1.0174381732940674,-2.512033526097433
1708435027.0470312,-2.142029285430908,-1.3336835366538544,-2.526703182850973,6.111189234047689,1.0174381732940674,-2.512061897908346
1708435027.0490162,-2.1420209407806396,-1.333637223844864,-2.526731793080465,6.111189234047689,1.017400860786438,-2.512012783681051
1708435027.0509856,-2.1419930458068848,-1.3336923134377976,-2.5266898314105433,6.111160981446066,1.0174514055252075,-2.5120425860034388
1708435027.0529916,-2.142005205154419,-1.3336056482842942,-2.5267227331744593,6.11117576339797,1.0174587965011597,-2.512059036885397
1708435027.055017,-2.142042398452759,-1.333596722488739,-2.526736084614889,6.111154782563009,1.0174633264541626,-2.512017313634054
1708435027.056994,-2.1419763565063477,-1.3336342436126252,-2.526736084614889,6.111133920937338,1.0174839496612549,-2.5120425860034388
1708435027.0590253,-2.1420140266418457,-1.3336593818715592,-2.5267284552203577,6.111121642380514,1.017421841621399,-2.512019936238424
1708435027.0610344,-2.1420183181762695,-1.3337325316718598,-2.526719633732931,6.11113070228652,1.0174351930618286,-2.512017313634054
1708435027.062999,-2.1420791149139404,-1.3336460453322907,-2.526752535496847,6.1111981747444055,1.0174140930175781,-2.512078348790304
1708435027.0650272,-2.1420016288757324,-1.3337369424155732,-2.526707712803976,6.111123311310568,1.0174140930175781,-2.512038056050436
1708435027.0670044,-2.1420059204101562,-1.3337072891047974,-2.526694361363546,6.111145841866293,1.017433762550354,-2.512038056050436
1708435027.0690372,-2.142042398452759,-1.3336835366538544,-2.526727263127462,6.11117576339797,1.017417550086975,-2.512061897908346
1708435027.0710268,-2.142012357711792,-1.3336702150157471,-2.526752535496847,6.111147391587057,1.017433762550354,-2.512125078831808
1708435027.0730078,-2.1420552730560303,-1.3336133819869538,-2.526752535496847,6.111138331681051,1.017433762550354,-2.51202899614443
1708435027.0750375,-2.1419973373413086,-1.3336297136596222,-2.52669865289797,6.111198293953695,1.017421841621399,-2.512054506932394
1708435027.0770016,-2.142050266265869,-1.333690957432129,-2.5267062822925013,6.111118781357565,1.0174096822738647,-2.5120707193957728
1708435027.079013,-2.1420340538024902,-1.3336835366538544,-2.526736084614889,6.111144292145529,1.0174052715301514,-2.512054506932394
1708435027.0810566,-2.1420297622680664,-1.3337116998485108,-2.526715103779928,6.111166703491964,1.0174306631088257,-2.5120425860034388
1708435027.0830288,-2.1419930458068848,-1.3336430352977295,-2.526715103779928,6.111118900566854,1.0174262523651123,-2.512029234563009
1708435027.0850453,-2.1419763565063477,-1.3336505454829712,-2.526715103779928,6.11113070228652,1.017417550086975,-2.512005392705099
1708435027.0870173,-2.141988515853882,-1.3336835366538544,-2.5266898314105433,6.111121642380514,1.0174351930618286,-2.512066427861349
1708435027.0890026,-2.1420297622680664,-1.3336923581412812,-2.5267062822925013,6.111156451493063,1.0174469947814941,-2.512021605168478
1708435027.0910013,-2.142042398452759,-1.3336223375848313,-2.526719395314352,6.111118781357565,1.0174587965011597,-2.511996332799093
1708435027.0929914,-2.1419849395751953,-1.3336505454829712,-2.526719633732931,6.111201512604513,1.017421841621399,-2.512033526097433
1708435027.095008,-2.1419930458068848,-1.3336386245540162,-2.52674371400942,6.111180293350973,1.0174052715301514,-2.5120425860034388
1708435027.0970495,-2.142042398452759,-1.3336549562266846,-2.526715103779928,6.111171233444967,1.0174294710159302,-2.5120142141925257
1708435027.099035,-2.141988515853882,-1.3336623770049592,-2.5267601648913782,6.11115192154006,1.0174381732940674,-2.512075487767355
1708435027.1010349,-2.1420140266418457,-1.3336579662612458,-2.526748005543844,6.111135232239523,1.017433762550354,-2.512040917073385
1708435027.1030147,-2.1419849395751953,-1.3336623770049592,-2.526752535496847,6.111189353256979,1.0174795389175415,-2.512054506932394
1708435027.1050217,-2.142009735107422,-1.333626703625061,-2.526686731969015,6.111181843071737,1.0174306631088257,-2.512029234563009
1708435027.1070237,-2.1420633792877197,-1.3336668771556397,-2.526703182850973,6.111114251404562,1.0174052715301514,-2.512066427861349
1708435027.1091328,-2.1419930458068848,-1.333604560499527,-2.526712242756979,6.111156451493063,1.017400860786438,-2.5120425860034388
1708435027.1110241,-2.142042398452759,-1.3336668771556397,-2.5267766157733362,6.111139762192526,1.0174294710159302,-2.511996332799093
1708435027.113044,-2.142054557800293,-1.3336208921721955,-2.5267227331744593,6.111109840660848,1.0174795389175415,-2.512041155491964
1708435027.1150222,-2.142037868499756,-1.3336208921721955,-2.526731793080465,6.11113070228652,1.0174140930175781,-2.512021605168478
1708435027.117028,-2.142005205154419,-1.333713100557663,-2.526686731969015,6.111123430519857,1.0174096822738647,-2.512073818837301
1708435027.1190221,-2.141988515853882,-1.333613471393921,-2.526710573826925,6.11109338977889,1.0174306631088257,-2.512054506932394
1708435027.121038,-2.141967535018921,-1.3336756986430665,-2.526694361363546,6.111126172333517,1.0174131393432617,-2.512066427861349
1708435027.1230764,-2.1420340538024902,-1.333659366970398,-2.526727263127462,6.11117576339797,1.0174425840377808,-2.512078348790304
1708435027.125132,-2.1420059204101562,-1.3337325316718598,-2.526736084614889,6.111222493439474,1.0174381732940674,-2.512045447026388
1708435027.1270306,-2.1419763565063477,-1.3336519461921235,-2.526686731969015,6.111226904183187,1.0174052715301514,-2.512054506932394
1708435027.1290407,-2.1419718265533447,-1.3336549562266846,-2.526715103779928,6.111109840660848,1.0174052715301514,-2.512012783681051
1708435027.1310346,-2.142059087753296,-1.3336416345885773,-2.526707712803976,6.111109840660848,1.017433762550354,-2.512061897908346
1708435027.1330438,-2.1419930458068848,-1.333604560499527,-2.526694361363546,6.111160981446066,1.0174514055252075,-2.51205283800234
1708435027.1350284,-2.1420633792877197,-1.3336923581412812,-2.526698891316549,6.111126172333517,1.0173965692520142,-2.512070957814352
1708435027.1370049,-2.1420183181762695,-1.333690957432129,-2.526748005543844,6.111139762192526,1.017433762550354,-2.512038056050436
1708435027.139024,-2.1420633792877197,-1.3336790365031739,-2.526710573826925,6.111102330475607,1.0174707174301147,-2.512033526097433
1708435027.1410198,-2.1420140266418457,-1.3336386394551774,-2.526710573826925,6.111097919731893,1.0174633264541626,-2.512038056050436
1708435027.143052,-2.1420254707336426,-1.3336253029159089,-2.52674371400942,6.111135232239523,1.0174469947814941,-2.5120306650744837
1708435027.145023,-2.1419930458068848,-1.3336702150157471,-2.5267391840564173,6.111139762192526,1.0174185037612915,-2.512054506932394
1708435027.1470158,-2.141979932785034,-1.333696724181511,-2.526710573826925,6.111127841263571,1.0174306631088257,-2.512017313634054
1708435027.1490502,-2.1419930458068848,-1.3336790067008515,-2.526752535496847,6.111144292145529,1.0174351930618286,-2.5120306650744837
1708435027.1510234,-2.142016649246216,-1.3336713028005143,-2.526707712803976,6.111127841263571,1.0174185037612915,-2.5120633284198206
1708435027.1530635,-2.141988515853882,-1.3336460900357743,-2.5267391840564173,6.111148702889242,1.0174587965011597,-2.512070957814352
1708435027.1550138,-2.142009735107422,-1.3336712282947083,-2.5267601648913782,6.111132252007284,1.0174425840377808,-2.5120871702777308
1708435027.1570292,-2.142087697982788,-1.3337116998485108,-2.526769224797384,6.111168253212728,1.0174140930175781,-2.5120752493487757
1708435027.1590304,-2.1420183181762695,-1.3336505603841324,-2.526752535496847,6.111169802933492,1.0174381732940674,-2.51199180284609
1708435027.1610267,-2.1419930458068848,-1.3336637777141114,-2.5267184416400355,6.111127841263571,1.0174131393432617,-2.512054506932394
1708435027.1630425,-2.1420226097106934,-1.3336579662612458,-2.526719633732931,6.111157643585958,1.0174096822738647,-2.512054506932394
1708435027.1650312,-2.1419973373413086,-1.3336579662612458,-2.526686731969015,6.11113070228652,1.0174306631088257,-2.5120425860034388
1708435027.167056,-2.1419718265533447,-1.333632842903473,-2.526736084614889,6.111147510796346,1.0173887014389038,-2.512019936238424
1708435027.1690474,-2.142016649246216,-1.33369234324012,-2.526715103779928,6.111139762192526,1.0174381732940674,-2.512038056050436
1708435027.171008,-2.142012357711792,-1.3336505603841324,-2.526727263127462,6.111148702889242,1.0174096822738647,-2.512029234563009
1708435027.1730385,-2.1420059204101562,-1.3336967092803498,-2.526740614567892,6.1111113903816126,1.0174381732940674,-2.512009922658102
1708435027.1750562,-2.1420254707336426,-1.3336056482842942,-2.526715103779928,6.111106979637899,1.0174096822738647,-2.512038056050436
1708435027.177081,-2.1420016288757324,-1.3336712580970307,-2.526723925267355,6.111081826477804,1.0173842906951904,-2.5119932333575647
1708435027.179028,-2.1420340538024902,-1.3336953085711976,-2.526731793080465,6.111148702889242,1.0174262523651123,-2.512038056050436
1708435027.181017,-2.1420140266418457,-1.333646060233452,-2.526703182850973,6.111120331078329,1.0174262523651123,-2.512066427861349
1708435027.1830218,-2.1420016288757324,-1.3336013120463868,-2.526727263127462,6.111136662750997,1.017433762550354,-2.5120752493487757
1708435027.1850293,-2.1420209407806396,-1.3336637926152726,-2.526727263127462,6.111127841263571,1.017421841621399,-2.512017313634054
1708435027.1870348,-2.1419973373413086,-1.3336297583631058,-2.526710573826925,6.111172902375021,1.0174140930175781,-2.512033526097433
1708435027.1890743,-2.1420226097106934,-1.3336579364589234,-2.526719395314352,6.111095416336813,1.017421841621399,-2.512061897908346
1708435027.191031,-2.141988515853882,-1.3336505454829712,-2.526724163685934,6.111136662750997,1.017433762550354,-2.5121007601367396
1708435027.1930466,-2.142042398452759,-1.333646075134613,-2.52669865289797,6.111139762192526,1.0174052715301514,-2.512078348790304
1708435027.195021,-2.1420509815216064,-1.3336341989091416,-2.5267613569842737,6.111181843071737,1.017421841621399,-2.512012783681051
1708435027.1970525,-2.1420226097106934,-1.3336386394551774,-2.526682202016012,6.111095416336813,1.0174262523651123,-2.5120096842395228
1708435027.1990614,-2.1420748233795166,-1.3336386245540162,-2.526731793080465,6.11109088638381,1.0174140930175781,-2.512021605168478
1708435027.2010026,-2.1420059204101562,-1.3336702150157471,-2.5267391840564173,6.11109088638381,1.017404317855835,-2.5120468775378626
1708435027.2030373,-2.1420340538024902,-1.3336311441710968,-2.5266898314105433,6.111165511399069,1.0174514055252075,-2.5120096842395228
1708435027.2050521,-2.1420466899871826,-1.3337042194655915,-2.5267391840564173,6.111129271775045,1.0174140930175781,-2.512033526097433
1708435027.2070618,-2.1420340538024902,-1.3336756241372605,-2.5267017523394983,6.11118625381545,1.0174140930175781,-2.5120306650744837
1708435027.209042,-2.1420209407806396,-1.3336757284453888,-2.5267558733569544,6.111148702889242,1.0174052715301514,-2.5120471159564417
1708435027.2110357,-2.142009735107422,-1.3336430501988907,-2.526727263127462,6.111087548523702,1.0173975229263306,-2.5120022932635706
1708435027.2130258,-2.142037868499756,-1.333666892056801,-2.5267391840564173,6.111106979637899,1.0174140930175781,-2.5120261351214808
1708435027.215026,-2.142038345336914,-1.3336637777141114,-2.5267227331744593,6.111169802933492,1.017417550086975,-2.5120752493487757
1708435027.2170625,-2.141967535018921,-1.3336923581412812,-2.5267227331744593,6.111095416336813,1.0174587965011597,-2.512012545262472
1708435027.2190785,-2.1420183181762695,-1.3336223524859925,-2.526731793080465,6.111106979637899,1.017417550086975,-2.5120425860034388
1708435027.2210417,-2.142009735107422,-1.333626703625061,-2.5267062822925013,6.111095416336813,1.0173975229263306,-2.5120351950274866
1708435027.2230563,-2.142038345336914,-1.3336090010455628,-2.526764694844381,6.111099827080526,1.017381191253662,-2.5120306650744837
1708435027.2250478,-2.1419930458068848,-1.3336712729981919,-2.526748005543844,6.111144292145529,1.0174262523651123,-2.5120187441455286
1708435027.2270353,-2.1419763565063477,-1.3336342436126252,-2.526748005543844,6.111144172936239,1.017433762550354,-2.5120678583728235
1708435027.2290604,-2.1420552730560303,-1.333604560499527,-2.526724163685934,6.111108767777242,1.0173975229263306,-2.5120096842395228
1708435027.2310271,-2.1419930458068848,-1.3336386394551774,-2.526731793080465,6.111126172333517,1.0174140930175781,-2.511993471776144
1708435027.233055,-2.141988515853882,-1.3336637777141114,-2.526677910481588,6.1111113903816126,1.0174795389175415,-2.512021605168478
1708435027.2350323,-2.1420183181762695,-1.3336549562266846,-2.526682440434591,6.111074197083273,1.0174052715301514,-2.5120187441455286
1708435027.2370472,-2.142038345336914,-1.3336668771556397,-2.526715103779928,6.111078607826986,1.017400860786438,-2.5120306650744837
1708435027.2390637,-2.1420297622680664,-1.3336342585137864,-2.526682202016012,6.111162054329672,1.0174306631088257,-2.512017075215475
1708435027.2410116,-2.142038345336914,-1.3336311888745804,-2.526715103779928,6.111129271775045,1.0174425840377808,-2.512017075215475
1708435027.243039,-2.142031192779541,-1.3336623919061203,-2.526710573826925,6.111099827080526,1.0174545049667358,-2.5120394865619105
1708435027.2450054,-2.1420140266418457,-1.3336311143687745,-2.526781145726339,6.111086356430807,1.0174052715301514,-2.5120261351214808
1708435027.247022,-2.1420254707336426,-1.3336505901864548,-2.526707712803976,6.111136662750997,1.0174633264541626,-2.5119977633105677
1708435027.2490313,-2.1419973373413086,-1.333659366970398,-2.526694361363546,6.111178862839498,1.0174425840377808,-2.512005392705099
1708435027.2510035,-2.1420016288757324,-1.333708645110466,-2.52669865289797,6.111124861031332,1.0173975229263306,-2.5119479338275355
1708435027.2530167,-2.1419806480407715,-1.3337086302093049,-2.5266898314105433,6.111177313118734,1.0174500942230225,-2.5120306650744837
1708435027.255004,-2.1420140266418457,-1.3336713028005143,-2.526710573826925,6.111147391587057,1.0174262523651123,-2.5120261351214808
1708435027.2570121,-2.1420183181762695,-1.3336430800012131,-2.5266853014575403,6.111177432328024,1.0174306631088257,-2.512038056050436
1708435027.2590475,-2.1420016288757324,-1.3336505454829712,-2.526710573826925,6.111123311310568,1.0174381732940674,-2.511993471776144
1708435027.260999,-2.142009735107422,-1.3336746406606217,-2.5267062822925013,6.1111159203346155,1.0174500942230225,-2.5120425860034388
1708435027.2630615,-2.1420016288757324,-1.3336846095374604,-2.526736084614889,6.111120331078329,1.0174096822738647,-2.5120323340045374
1708435027.2650063,-2.1420297622680664,-1.3336134862950821,-2.5267558733569544,6.111136662750997,1.017421841621399,-2.5120022932635706
1708435027.267053,-2.1419517993927,-1.333701254134514,-2.526707712803976,6.111123311310568,1.017445683479309,-2.5120306650744837
1708435027.2690554,-2.142042398452759,-1.3336252880147477,-2.526731793080465,6.111135232239523,1.0174052715301514,-2.5119479338275355
1708435027.2710261,-2.1420466899871826,-1.3336967688849946,-2.526727263127462,6.111106979637899,1.0174140930175781,-2.5120425860034388
1708435027.273068,-2.1420340538024902,-1.333626703625061,-2.526752535496847,6.111106979637899,1.0174381732940674,-2.5120068232165735
1708435027.275007,-2.1419763565063477,-1.3336430352977295,-2.526748005543844,6.111108767777242,1.0173975229263306,-2.511982504521505
1708435027.2770379,-2.141993522644043,-1.3337087047151108,-2.526694361363546,6.111153113632955,1.0174052715301514,-2.5119598547564905
1708435027.279027,-2.142038345336914,-1.3336923134377976,-2.5267062822925013,6.111095416336813,1.0174140930175781,-2.5119524637805384
1708435027.2810144,-2.1420016288757324,-1.3336311143687745,-2.526727263127462,6.11106954792098,1.017421841621399,-2.5119858423816126
1708435027.2830243,-2.1420340538024902,-1.3336460453322907,-2.52675706544985,6.1111159203346155,1.0174469947814941,-2.511935297642843
1708435027.2850056,-2.142009735107422,-1.3336593818715592,-2.5267227331744593,6.111144292145529,1.0174381732940674,-2.5120206514941614
1708435027.2870412,-2.142009735107422,-1.3336756539395829,-2.526719633732931,6.11118625381545,1.0174262523651123,-2.511935536061422
1708435027.2890084,-2.1420552730560303,-1.3336430501988907,-2.526727263127462,6.1111113903816126,1.0174381732940674,-2.5119615236865442
1708435027.2910283,-2.1420059204101562,-1.3336144548705597,-2.526710573826925,6.1111113903816126,1.0174424648284912,-2.511987034474508
1708435027.2930257,-2.142026901245117,-1.3336297136596222,-2.5266898314105433,6.1111159203346155,1.0174262523651123,-2.511987034474508
1708435027.2950127,-2.142009735107422,-1.333647446041443,-2.526694361363546,6.111074197083273,1.0173646211624146,-2.511911694203512
1708435027.297014,-2.1420183181762695,-1.3336133819869538,-2.52674371400942,6.1111159203346155,1.0174140930175781,-2.511941734944479
1708435027.2990143,-2.142005205154419,-1.3336474311402817,-2.526736084614889,6.111139762192526,1.0174140930175781,-2.5119434038745325
1708435027.3009987,-2.141997814178467,-1.3336101186326523,-2.526710573826925,6.111139762192526,1.0174185037612915,-2.5119133631335657
1708435027.3029995,-2.1419849395751953,-1.3336909276298066,-2.5267184416400355,6.111198293953695,1.0174306631088257,-2.511892620717184
1708435027.3050117,-2.1419718265533447,-1.3337100011161347,-2.5267120043383997,6.1111042378242395,1.0174262523651123,-2.511937204991476
1708435027.3070357,-2.141953468322754,-1.3336668771556397,-2.52669865289797,6.111123311310568,1.0174185037612915,-2.5118845144854944
1708435027.3090167,-2.1419973373413086,-1.3336637777141114,-2.526694361363546,6.111129390984335,1.0173975229263306,-2.511920754109518
1708435027.3109965,-2.1419806480407715,-1.3336056482842942,-2.526719633732931,6.111120331078329,1.0174262523651123,-2.5119505564319056
1708435027.3130412,-2.141984224319458,-1.3336549562266846,-2.526715103779928,6.111057746201315,1.0174469947814941,-2.5119178930865687
1708435027.3150291,-2.1420183181762695,-1.3337087047151108,-2.526719633732931,6.1111159203346155,1.0174306631088257,-2.511925284062521
1708435027.3170736,-2.1420340538024902,-1.3336879473975678,-2.5267227331744593,6.111113297730245,1.0174096822738647,-2.511920992528097
1708435027.3190043,-2.1420059204101562,-1.3336953681758423,-2.5266733805285853,6.111108767777242,1.0174306631088257,-2.5119627157794397
1708435027.3210003,-2.1419763565063477,-1.3336430501988907,-2.526715103779928,6.111106979637899,1.0174140930175781,-2.511908833180563
1708435027.3230247,-2.1420059204101562,-1.3336297285607834,-2.526682202016012,6.111144292145529,1.0174096822738647,-2.511920754109518
1708435027.325042,-2.1420466899871826,-1.3336505454829712,-2.52669865289797,6.111106979637899,1.017421841621399,-2.5119505564319056
1708435027.3270285,-2.1419692039489746,-1.3336342138103028,-2.526694361363546,6.111106979637899,1.017417550086975,-2.5119314829455774
1708435027.3290753,-2.1420183181762695,-1.333671287899353,-2.526731793080465,6.111123311310568,1.0174185037612915,-2.5119505564319056
1708435027.3310826,-2.1420059204101562,-1.3336879324964066,-2.5266855398761194,6.1111042378242395,1.0174229145050049,-2.5119133631335657
1708435027.3330755,-2.1419973373413086,-1.3336879026940842,-2.5266733805285853,6.111113297730245,1.0174140930175781,-2.5119298140155237
1708435027.3350282,-2.1420702934265137,-1.3336835366538544,-2.526727263127462,6.111141192704,1.0174140930175781,-2.5119224230395716
1708435027.337037,-2.1419930458068848,-1.3336386245540162,-2.526686731969015,6.111111509590902,1.0174140930175781,-2.511908833180563
1708435027.3390493,-2.1419806480407715,-1.3336057525924225,-2.52674371400942,6.111136662750997,1.0174425840377808,-2.5118799845324915
1708435027.341032,-2.1419930458068848,-1.3336549562266846,-2.526748243962423,6.111108767777242,1.0174469947814941,-2.5119224230395716
1708435027.34303,-2.1420552730560303,-1.3336178821376343,-2.526748005543844,6.111053216248312,1.0174306631088257,-2.5119178930865687
1708435027.3450491,-2.1420209407806396,-1.3336356294206162,-2.5267017523394983,6.11109088638381,1.0174096822738647,-2.5119059721576136
1708435027.347052,-2.1419763565063477,-1.3336474758437653,-2.52674371400942,6.111144292145529,1.0174545049667358,-2.511908833180563
1708435027.3490362,-2.1419973373413086,-1.3336756986430665,-2.5267391840564173,6.111083137779989,1.017463207244873,-2.5118969122516077
1708435027.3510168,-2.1420183181762695,-1.3336430203965683,-2.526752535496847,6.1111042378242395,1.0174052715301514,-2.511958185826437
1708435027.3530424,-2.1419930458068848,-1.3336386245540162,-2.526691261922018,6.111202585488119,1.017401933670044,-2.5119059721576136
1708435027.3550117,-2.1420226097106934,-1.3336746257594605,-2.526715103779928,6.111129271775045,1.0174633264541626,-2.5118935743915003
1708435027.3570166,-2.1420183181762695,-1.3336549264243622,-2.5266898314105433,6.111086356430807,1.0174140930175781,-2.5119059721576136
1708435027.3590283,-2.1419734954833984,-1.3336090755513688,-2.526723925267355,6.111165392189779,1.017433762550354,-2.5119434038745325
1708435027.3610163,-2.1420183181762695,-1.3336178821376343,-2.526719633732931,6.111124861031332,1.0174306631088257,-2.5119059721576136
1708435027.3630183,-2.141960620880127,-1.3335968416980286,-2.526731793080465,6.111074197083273,1.017401933670044,-2.5118969122516077
1708435027.3650126,-2.1420140266418457,-1.3336668771556397,-2.526703182850973,6.111123430519857,1.017421841621399,-2.5118799845324915
1708435027.3670278,-2.1419930458068848,-1.3336623919061203,-2.5267391840564173,6.111145722657003,1.0174262523651123,-2.5118592421161097
1708435027.369042,-2.1420719623565674,-1.333634228711464,-2.5267062822925013,6.111106979637899,1.0174306631088257,-2.5119133631335657
1708435027.3710017,-2.142026901245117,-1.3336835366538544,-2.526727263127462,6.111148702889242,1.0173931121826172,-2.5119269529925745
1708435027.3730364,-2.1420297622680664,-1.333671287899353,-2.526677910481588,6.111111509590902,1.0173602104187012,-2.5119059721576136
1708435027.3750758,-2.1419849395751953,-1.3336505454829712,-2.526748005543844,6.111106979637899,1.0174140930175781,-2.5119014422046106
1708435027.3770592,-2.1420552730560303,-1.3336253476193924,-2.526677910481588,6.111123430519857,1.0174306631088257,-2.5119133631335657
1708435027.3790362,-2.1420552730560303,-1.3336593520692368,-2.5267391840564173,6.111099827080526,1.0174306631088257,-2.5119059721576136
1708435027.381011,-2.1419849395751953,-1.3336623770049592,-2.526736084614889,6.111124861031332,1.0174096822738647,-2.511909071599142
1708435027.383034,-2.142037868499756,-1.333674581055977,-2.5267062822925013,6.111066806107321,1.0173931121826172,-2.5119178930865687
1708435027.3850272,-2.1419973373413086,-1.3336460155299683,-2.526731793080465,6.111144172936239,1.0173975229263306,-2.5118799845324915
1708435027.3871522,-2.1419763565063477,-1.3336637628129502,-2.5267062822925013,6.111132252007284,1.0174425840377808,-2.511932675038473
1708435027.3890188,-2.142038345336914,-1.3336311441710968,-2.526743475590841,6.111178862839498,1.0173887014389038,-2.5118888060199183
1708435027.390997,-2.1420676708221436,-1.3336474758437653,-2.526764694844381,6.111127841263571,1.0174140930175781,-2.5118635336505335
1708435027.3930283,-2.1420183181762695,-1.3336549562266846,-2.526707712803976,6.111174332886495,1.0174394845962524,-2.5118981043445032
1708435027.3949997,-2.1419849395751953,-1.3336790216020127,-2.526752535496847,6.11108015754775,1.0174140930175781,-2.5119550863849085
1708435027.3970537,-2.1419973373413086,-1.3336998385242005,-2.526703182850973,6.111165392189779,1.0174052715301514,-2.5119434038745325
1708435027.3990648,-2.1419930458068848,-1.3336430203965683,-2.526710573826925,6.11109088638381,1.0173767805099487,-2.5118771235095423
1708435027.4010284,-2.1419973373413086,-1.3336505156806489,-2.526710573826925,6.111153113632955,1.0174096822738647,-2.511892620717184
1708435027.4030356,-2.142009735107422,-1.3336712729981919,-2.52675706544985,6.111148702889242,1.017401933670044,-2.511941734944479
1708435027.4050589,-2.142026901245117,-1.3336178672364731,-2.526682202016012,6.111124861031332,1.017401933670044,-2.5118845144854944
1708435027.4070354,-2.1420140266418457,-1.333659366970398,-2.526665989552633,6.111123430519857,1.0174096822738647,-2.5119178930865687
1708435027.4090466,-2.1419849395751953,-1.3336386394551774,-2.526727263127462,6.1111159203346155,1.017381191253662,-2.5119107405291956
1708435027.4110174,-2.1420297622680664,-1.3336549413255234,-2.526715103779928,6.111139762192526,1.0174185037612915,-2.5119105021106165
1708435027.4130049,-2.1419849395751953,-1.3336222779801865,-2.5266898314105433,6.11106954792098,1.017417550086975,-2.5118890444384974
1708435027.4150143,-2.142005205154419,-1.3337116253427048,-2.526748005543844,6.1111159203346155,1.0174306631088257,-2.5119269529925745
1708435027.4170346,-2.1419849395751953,-1.3336133819869538,-2.5266898314105433,6.111087548523702,1.0174185037612915,-2.5118888060199183
1708435027.419038,-2.1420183181762695,-1.3336712431958695,-2.526710573826925,6.111177313118734,1.0174185037612915,-2.5119195620166224
1708435027.4210308,-2.141989231109619,-1.3336593818715592,-2.526731793080465,6.111157643585958,1.0174262523651123,-2.5118799845324915
1708435027.4230657,-2.1419763565063477,-1.333659366970398,-2.5267227331744593,6.111123430519857,1.0174262523651123,-2.5118890444384974
1708435027.4250581,-2.1420226097106934,-1.33365053058181,-2.526691261922018,6.111099827080526,1.0174140930175781,-2.5119059721576136
1708435027.4270809,-2.1420226097106934,-1.3336637926152726,-2.526710573826925,6.111177313118734,1.0174262523651123,-2.5119598547564905
1708435027.4290423,-2.1420183181762695,-1.3336460304311295,-2.526682202016012,6.111120331078329,1.0173975229263306,-2.511897150670187
1708435027.431018,-2.141960620880127,-1.3336637777141114,-2.52675706544985,6.111139762192526,1.0174140930175781,-2.5119596163379114
1708435027.433033,-2.1420226097106934,-1.3336519610932847,-2.526694361363546,6.111144172936239,1.017401933670044,-2.511897150670187
1708435027.435008,-2.1419718265533447,-1.333687962298729,-2.526736084614889,6.111139762192526,1.0174096822738647,-2.5119178930865687
1708435027.4370165,-2.1420552730560303,-1.3337013286403199,-2.526686731969015,6.111177313118734,1.0174229145050049,-2.5118935743915003
1708435027.4390216,-2.1420016288757324,-1.3336460453322907,-2.52669865289797,6.111135232239523,1.0174469947814941,-2.5118516127215784
1708435027.4409997,-2.1420340538024902,-1.3336713028005143,-2.526707712803976,6.11115192154006,1.0174052715301514,-2.5119224230395716
1708435027.4430168,-2.1420059204101562,-1.3336953681758423,-2.5267120043383997,6.111136662750997,1.017381191253662,-2.5118845144854944
1708435027.445016,-2.1419806480407715,-1.3336879473975678,-2.526682440434591,6.111148702889242,1.017455816268921,-2.5118845144854944
1708435027.4470503,-2.1420254707336426,-1.3336134415915986,-2.526694361363546,6.111127841263571,1.017372488975525,-2.5119224230395716
1708435027.4490137,-2.141988515853882,-1.3336089712432404,-2.526710573826925,6.111123311310568,1.0174140930175781,-2.5119550863849085
1708435027.451008,-2.1420059204101562,-1.3336637777141114,-2.52674371400942,6.111160981446066,1.0174052715301514,-2.5118771235095423
1708435027.4530432,-2.14201021194458,-1.3336267632297059,-2.52674371400942,6.111150252610006,1.0174469947814941,-2.5119059721576136
1708435027.4550107,-2.1420059204101562,-1.3336298179677506,-2.5267227331744593,6.111123311310568,1.0173975229263306,-2.5119059721576136
1708435027.4570205,-2.141956090927124,-1.3336637777141114,-2.526694122944967,6.111189353256979,1.0174185037612915,-2.5119343439685267
1708435027.4590216,-2.1419806480407715,-1.3336253029159089,-2.526703182850973,6.111163842469015,1.0174096822738647,-2.5119195620166224
1708435027.461036,-2.1420226097106934,-1.3336923730424424,-2.526677910481588,6.111156451493063,1.0174229145050049,-2.5119150320636194
1708435027.4630442,-2.1420140266418457,-1.3336222928813477,-2.526719633732931,6.111156451493063,1.0174514055252075,-2.5119150320636194
1708435027.4650307,-2.1420466899871826,-1.3336712729981919,-2.526703182850973,6.11113070228652,1.0174052715301514,-2.5119014422046106
1708435027.4670424,-2.1419849395751953,-1.3336998981288453,-2.5267227331744593,6.1111429808433435,1.0174096822738647,-2.5119269529925745
1708435027.4690487,-2.1419692039489746,-1.3336222928813477,-2.526715103779928,6.111187922745504,1.0174440145492554,-2.511897150670187
1708435027.4710135,-2.141988515853882,-1.3336923581412812,-2.526710573826925,6.111201512604513,1.0173395872116089,-2.5119343439685267
1708435027.4729993,-2.141984224319458,-1.333647446041443,-2.5267062822925013,6.111177432328024,1.017401933670044,-2.5118799845324915
1708435027.4750214,-2.1420140266418457,-1.3336056184819718,-2.526719633732931,6.111180293350973,1.017381191253662,-2.5119178930865687
1708435027.4770193,-2.1419849395751953,-1.3337043088725586,-2.526752535496847,6.11115192154006,1.0174185037612915,-2.5119434038745325
1708435027.4790063,-2.1419973373413086,-1.3336134415915986,-2.526723925267355,6.111156451493063,1.0173900127410889,-2.5119462648974817
1708435027.4809964,-2.1420209407806396,-1.3336756986430665,-2.52667481104006,6.111217844277181,1.0174185037612915,-2.5118981043445032
1708435027.483056,-2.1419973373413086,-1.333659366970398,-2.52675706544985,6.11123417594985,1.0174185037612915,-2.5119224230395716
1708435027.4850004,-2.142009735107422,-1.33362232268367,-2.52669865289797,6.111220705300131,1.017369031906128,-2.5119014422046106
1708435027.48703,-2.1419930458068848,-1.3336879324964066,-2.5267062822925013,6.111208903580465,1.0174229145050049,-2.5119059721576136
1708435027.489023,-2.1420340538024902,-1.3336800646832963,-2.526752535496847,6.11117576339797,1.0173975229263306,-2.5119476954089563
1708435027.4910274,-2.142009735107422,-1.3336460155299683,-2.52675706544985,6.111150252610006,1.0174140930175781,-2.5119059721576136
1708435027.493083,-2.1420466899871826,-1.3336430352977295,-2.526715103779928,6.11117576339797,1.0174185037612915,-2.5118799845324915
1708435027.4950027,-2.1420183181762695,-1.3336712729981919,-2.526665989552633,6.111178982048788,1.017385721206665,-2.5118680636035364
1708435027.4970734,-2.1420466899871826,-1.3336998683265229,-2.5266853014575403,6.111220705300131,1.0174394845962524,-2.5118890444384974
1708435027.49903,-2.142059564590454,-1.3336549711278458,-2.526727263127462,6.111199843674459,1.017381191253662,-2.511897150670187
1708435027.5010116,-2.1420183181762695,-1.333683506851532,-2.52669865289797,6.111178982048788,1.0174306631088257,-2.5118935743915003
1708435027.503009,-2.1420340538024902,-1.3336297136596222,-2.526748005543844,6.111138331681051,1.0174469947814941,-2.511925284062521
1708435027.5050435,-2.1420209407806396,-1.3337086302093049,-2.52669865289797,6.111150252610006,1.0174140930175781,-2.5119550863849085
1708435027.507005,-2.1420209407806396,-1.3336505603841324,-2.526707712803976,6.1111700413520715,1.0174140930175781,-2.5119269529925745
1708435027.5090127,-2.1420254707336426,-1.3336386543563385,-2.526694361363546,6.111192452698507,1.0174556970596313,-2.5119314829455774
1708435027.5110002,-2.142005205154419,-1.3336460155299683,-2.5266955534564417,6.11123679855422,1.0173767805099487,-2.5118845144854944
1708435027.5129976,-2.1420702934265137,-1.33362232268367,-2.52666145959963,6.111178982048788,1.0174140930175781,-2.5118845144854944
1708435027.5150352,-2.142009735107422,-1.3336297583631058,-2.526723925267355,6.11118637302474,1.017381191253662,-2.5118799845324915
1708435027.5170052,-2.1420183181762695,-1.333629773264267,-2.526723925267355,6.111181962281027,1.0174351930618286,-2.5118935743915003
1708435027.5190659,-2.1420183181762695,-1.333614469771721,-2.526724163685934,6.111214387207784,1.0174062252044678,-2.5118935743915003
1708435027.5210078,-2.1420140266418457,-1.3336801093867798,-2.526719633732931,6.111218917160787,1.0174425840377808,-2.5119178930865687
1708435027.5230253,-2.142016649246216,-1.3336133819869538,-2.526769224797384,6.111286389618673,1.0174394845962524,-2.5119059721576136
1708435027.5250828,-2.142087697982788,-1.3336702150157471,-2.526682202016012,6.111280309944906,1.0174185037612915,-2.5118725935565394
1708435027.5270529,-2.1420340538024902,-1.3336757135442276,-2.526677910481588,6.1113061783607385,1.0173975229263306,-2.511897150670187
1708435027.5289938,-2.142042398452759,-1.33365053058181,-2.526727263127462,6.111320960312643,1.0173856019973755,-2.5119224230395716
1708435027.5310051,-2.1420016288757324,-1.3336267185262223,-2.526710573826925,6.111270057946005,1.017401933670044,-2.5119269529925745
1708435027.532998,-2.1420466899871826,-1.3336372536471863,-2.526710573826925,6.111302840500631,1.0173975229263306,-2.5118799845324915
1708435027.5350437,-2.1420209407806396,-1.3336682331613083,-2.526740614567892,6.111335742264547,1.0173975229263306,-2.5119059721576136
1708435027.5370333,-2.1420748233795166,-1.333663747911789,-2.5267184416400355,6.111298429756918,1.0173975229263306,-2.5118799845324915
1708435027.5390747,-2.1420140266418457,-1.33362232268367,-2.526736084614889,6.111361014633932,1.0174140930175781,-2.511958185826437
1708435027.5410335,-2.142037868499756,-1.3336055141738434,-2.52674371400942,6.111298429756918,1.0174063444137573,-2.5119133631335657
1708435027.5430105,-2.1420209407806396,-1.3337042492679139,-2.526727263127462,6.111343133240499,1.017381191253662,-2.5119178930865687
1708435027.545036,-2.1420340538024902,-1.3336505603841324,-2.526719395314352,6.111355054169454,1.0174140930175781,-2.5118935743915003
1708435027.547016,-2.14206600189209,-1.3336800944856186,-2.526773754750387,6.111317622452535,1.0174185037612915,-2.5118890444384974
1708435027.5490704,-2.1420254707336426,-1.3336713028005143,-2.5267062822925013,6.111374604492941,1.0174107551574707,-2.5119059721576136
1708435027.551046,-2.142033576965332,-1.333666892056801,-2.526719633732931,6.111343133240499,1.017381191253662,-2.511941734944479
1708435027.553041,-2.142005205154419,-1.3336311143687745,-2.526703182850973,6.1113881943519495,1.017372488975525,-2.5119224230395716
1708435027.5550158,-2.142054557800293,-1.3336144399693985,-2.526748005543844,6.1114046452339075,1.017435073852539,-2.5118754545794886
1708435027.5570076,-2.142059087753296,-1.3336222630790253,-2.526719395314352,6.1114046452339075,1.017385721206665,-2.5119178930865687
1708435027.5590594,-2.142050266265869,-1.3336790365031739,-2.52666145959963,6.111376273422994,1.017369031906128,-2.5119178930865687
1708435027.5610101,-2.142016649246216,-1.3336593222669144,-2.526686731969015,6.111331212311544,1.0173887014389038,-2.5118888060199183
1708435027.5630202,-2.142033576965332,-1.3336090308478852,-2.526731793080465,6.111358272820272,1.0173900127410889,-2.5118935743915003
1708435027.5650413,-2.142042398452759,-1.333663747911789,-2.526719633732931,6.1113836643989465,1.0174063444137573,-2.511904541646139
1708435027.5670319,-2.1420702934265137,-1.3336355996182938,-2.526724163685934,6.111429917603292,1.0173929929733276,-2.5119059721576136
1708435027.5690022,-2.142054557800293,-1.3336342138103028,-2.526670281087057,6.111338603287496,1.0174306631088257,-2.511897150670187
1708435027.571034,-2.142033576965332,-1.3336209815791626,-2.526727263127462,6.111370193749227,1.017435073852539,-2.511909071599142
1708435027.5730343,-2.142016649246216,-1.3336682480624695,-2.526694361363546,6.111395585327902,1.0174185037612915,-2.5119178930865687
1708435027.5750134,-2.142061710357666,-1.3337012094310303,-2.526723925267355,6.111362683563986,1.017401933670044,-2.5118799845324915
1708435027.5770462,-2.1420905590057373,-1.3336505603841324,-2.526694361363546,6.1113295433814905,1.0174062252044678,-2.5119314829455774
1708435027.5790284,-2.14206600189209,-1.3337175262025376,-2.526724163685934,6.11141191700057,1.0174063444137573,-2.5118680636035364
1708435027.5810368,-2.142073154449463,-1.3336430352977295,-2.526715103779928,6.1113459942634485,1.017401933670044,-2.5119224230395716
1708435027.583064,-2.1420254707336426,-1.3336756390384217,-2.526695791875021,6.111395585327902,1.0174306631088257,-2.511892620717184
1708435027.585026,-2.1420860290527344,-1.3337012988379975,-2.5267062822925013,6.111350524216451,1.0173975229263306,-2.5119224230395716
1708435027.5870216,-2.1420748233795166,-1.333666892056801,-2.526698891316549,6.111359584122457,1.0174514055252075,-2.511888090764181
1708435027.5890288,-2.142054557800293,-1.3336223375848313,-2.526710573826925,6.1113836643989465,1.017369031906128,-2.5119298140155237
1708435027.5910254,-2.142008066177368,-1.3336012077382584,-2.5267227331744593,6.111409055977621,1.0174140930175781,-2.511892620717184
1708435027.593078,-2.1420207023620605,-1.3336967539838334,-2.5267229715930384,6.111362802773275,1.0174096822738647,-2.511892620717184
1708435027.595021,-2.1420459747314453,-1.3336385947516938,-2.526719395314352,6.111379134445944,1.0173975229263306,-2.511897150670187
1708435027.597016,-2.142012357711792,-1.333634228711464,-2.526752535496847,6.111299621849813,1.0173975229263306,-2.511897150670187
1708435027.5990415,-2.142012357711792,-1.3336505603841324,-2.526695791875021,6.111379134445944,1.0173557996749878,-2.511892620717184
1708435027.601035,-2.142073154449463,-1.333631084566452,-2.526707712803976,6.111397135048666,1.017435073852539,-2.5119269529925745
1708435027.6030772,-2.142061710357666,-1.3336593520692368,-2.526740614567892,6.111391055374899,1.0173900127410889,-2.511892620717184
1708435027.6050277,-2.1420037746429443,-1.3336879175952454,-2.526707712803976,6.111386644631185,1.0174140930175781,-2.5118890444384974
1708435027.6070213,-2.142054557800293,-1.3336668622544785,-2.52674371400942,6.11143313625411,1.0173975229263306,-2.5119507948504847
1708435027.6089954,-2.14206600189209,-1.333641604786255,-2.52669865289797,6.111399996071615,1.0174262523651123,-2.5119386355029505
1708435027.6109922,-2.1420817375183105,-1.3336593520692368,-2.526670281087057,6.111402976303854,1.0174185037612915,-2.5119133631335657
1708435027.613024,-2.142061710357666,-1.3336712729981919,-2.52669865289797,6.11145697811202,1.0174306631088257,-2.5119059721576136
1708435027.6150002,-2.1420249938964844,-1.3336430352977295,-2.5267227331744593,6.111358272820272,1.0174107551574707,-2.511909071599142
