Eg3-git/Classifiers/Data Collection/u2/u2cir5_ur3e_joint_states.csv
time,elbow_joint,shoulder_lift_joint,shoulder_pan_joint,wrist_1_joint,wrist_2_joint,wrist_3_joint
1708435051.6350853,-2.140740156173706,-1.3334005338004609,-2.527013365422384,6.108277308731832,1.018038034439087,-2.5268598238574427
1708435051.6370687,-2.140740394592285,-1.3333638471416016,-2.5270960966693323,6.108335482865133,1.0180962085723877,-2.5268219153033655
1708435051.6390667,-2.140749216079712,-1.3333876740983506,-2.5270677248584192,6.10835479477004,1.0180842876434326,-2.5267773310290735
1708435051.641098,-2.140712022781372,-1.3333800596049805,-2.5270586649524134,6.108263957291403,1.018088698387146,-2.5267892519580286
1708435051.6430757,-2.1406915187835693,-1.3334005188992997,-2.5270796457873743,6.10835479477004,1.0180633068084717,-2.5268054644214075
1708435051.6450593,-2.140712022781372,-1.333372489815094,-2.5270348230945032,6.108325111656942,1.0180467367172241,-2.5267799536334437
1708435051.6470778,-2.140720844268799,-1.3333724600127717,-2.5270467440234583,6.108268368035116,1.018100619316101,-2.5267728010760706
1708435051.6490788,-2.1407253742218018,-1.333408461218216,-2.5270677248584192,6.108326542168417,1.0180467367172241,-2.5268307367907923
1708435051.6510773,-2.140709400177002,-1.3334213656238099,-2.5270467440234583,6.108289229660787,1.0180842876434326,-2.5267728010760706
1708435051.6530883,-2.140749216079712,-1.3333638620427628,-2.5270512739764612,6.108265507012167,1.0180798768997192,-2.5268026033984583
1708435051.6551027,-2.1406848430633545,-1.3333638322404404,-2.5270841757403772,6.108326542168417,1.0180842876434326,-2.5267847220050257
1708435051.657108,-2.140723466873169,-1.3333843362382432,-2.5270260016070765,6.10831497886733,1.018100619316101,-2.5267935434924524
1708435051.6590881,-2.1407454013824463,-1.3333596003106614,-2.527026955281393,6.108277308731832,1.0180467367172241,-2.5268219153033655
1708435051.6610937,-2.140707492828369,-1.3334048998406907,-2.526984993611471,6.108286368637838,1.0180304050445557,-2.5267861525165003
1708435051.663079,-2.1407322883605957,-1.3333725047162552,-2.5270512739764612,6.108239996224203,1.0180842876434326,-2.5267773310290735
1708435051.6650863,-2.1406848430633545,-1.3333681535771866,-2.5270541349994105,6.108310448914327,1.0180423259735107,-2.5267906824695032
1708435051.667098,-2.140744686126709,-1.333371416931488,-2.5270631949054163,6.1083117602165125,1.0180230140686035,-2.5267861525165003
1708435051.6690977,-2.1406960487365723,-1.3333792251399537,-2.526989523564474,6.10826991775588,1.0180349349975586,-2.5267861525165003
1708435051.6710463,-2.1407277584075928,-1.3333430600217362,-2.526980702077047,6.1082594273384,1.0180273056030273,-2.52679950395693
1708435051.6730723,-2.1407253742218018,-1.3333757829717179,-2.52698523203005,6.108286368637838,1.0180764198303223,-2.5267697016345423
1708435051.6751018,-2.140723466873169,-1.333380089407303,-2.527013365422384,6.108253466873922,1.0180230140686035,-2.526776138936178
1708435051.6771047,-2.1407253742218018,-1.3334286671927948,-2.527043883000509,6.108241307526388,1.0180315971374512,-2.52676231065859
1708435051.6790535,-2.140704870223999,-1.333363876943924,-2.526989523564474,6.108281838684835,1.0180686712265015,-2.5267048517810267
1708435051.6810503,-2.140700578689575,-1.333380089407303,-2.5270348230945032,6.108267056732931,1.0179857015609741,-2.526780430470602
1708435051.6830726,-2.140700578689575,-1.3333559793284913,-2.527052942906515,6.108215915947714,1.0180273056030273,-2.5267091433154505
1708435051.68506,-2.1407277584075928,-1.3333386939815064,-2.527026955281393,6.108262526779928,1.0180436372756958,-2.5267048517810267
1708435051.6870615,-2.1407580375671387,-1.333396242266037,-2.527060333882467,6.108233916550436,1.0180273056030273,-2.5267136732684534
1708435051.6891007,-2.140697956085205,-1.333392010336258,-2.5270214716540735,6.108257996826925,1.0180273056030273,-2.5267463366137903
1708435051.6910992,-2.140744686126709,-1.3333800745061417,-2.527052942906515,6.108316290169515,1.018003225326538,-2.5267136732684534
1708435051.6931036,-2.1407277584075928,-1.333360255961754,-2.527052942906515,6.108194935112753,1.017991065979004,-2.5266764799701136
1708435051.695082,-2.1407322883605957,-1.3333919954350968,-2.5270403067218226,6.108250367432394,1.0180119276046753,-2.5266898314105433
1708435051.6970534,-2.1407535076141357,-1.3333516281894227,-2.527055803929464,6.108245837479391,1.0180120468139648,-2.5266926924334925
1708435051.6990678,-2.140720844268799,-1.333371416931488,-2.527043883000509,6.108236777573385,1.0180076360702515,-2.5267375151263636
1708435051.7010326,-2.140744686126709,-1.3334049147418519,-2.5270076433764856,6.10822485664443,1.0179625749588013,-2.5267017523394983
1708435051.7030847,-2.140702962875366,-1.3333725196174164,-2.527073685322897,6.108283507614889,1.0179669857025146,-2.5266836325274866
1708435051.7050745,-2.140777587890625,-1.33335596442733,-2.5270512739764612,6.108253466873922,1.017970323562622,-2.52666145959963
1708435051.7071211,-2.140718698501587,-1.333437294965126,-2.52702242532839,6.108274447708883,1.0179550647735596,-2.5266972223864954
1708435051.709075,-2.140744686126709,-1.333330200319626,-2.5270076433764856,6.108250367432394,1.0179799795150757,-2.5266733805285853
1708435051.7110453,-2.140704870223999,-1.3333431047252198,-2.527039353047506,6.1081827757652185,1.0179845094680786,-2.5266690889941614
1708435051.7131133,-2.140765905380249,-1.3333757382682343,-2.5270348230945032,6.108229386597433,1.0179142951965332,-2.5267017523394983
1708435051.7150655,-2.140749216079712,-1.3334170591882248,-2.5270360151873987,6.108205306320944,1.0179799795150757,-2.526710573826925
1708435051.7170763,-2.1407368183135986,-1.333404855137207,-2.52702242532839,6.108229386597433,1.0179431438446045,-2.526670519505636
1708435051.7190619,-2.140716314315796,-1.3334214252284546,-2.5270076433764856,6.108184802323141,1.0179100036621094,-2.52666145959963
1708435051.721034,-2.1407322883605957,-1.3333552193692704,-2.5270031134234827,6.10822485664443,1.0179519653320312,-2.52669865289797
1708435051.7230551,-2.1407368183135986,-1.333306373362877,-2.527052942906515,6.108245837479391,1.0178980827331543,-2.5266297499286097
1708435051.725026,-2.1407322883605957,-1.3334041398814698,-2.527043883000509,6.108254778176107,1.017877459526062,-2.5266252199756067
1708435051.7270706,-2.1407580375671387,-1.3333595854095002,-2.527043883000509,6.108196246414938,1.0178980827331543,-2.5266252199756067
1708435051.7290611,-2.140749216079712,-1.3334048998406907,-2.526994053517477,6.108247387200155,1.017906904220581,-2.526587788258688
1708435051.7310524,-2.1407909393310547,-1.3333595854095002,-2.527052942906515,6.108213054924764,1.017906904220581,-2.5266342798816126
1708435051.7330613,-2.140720844268799,-1.3333875846913834,-2.5269702116595667,6.108208405762472,1.0179400444030762,-2.5266416708575647
1708435051.735053,-2.140707492828369,-1.3334005338004609,-2.527026955281393,6.108278977661886,1.017906904220581,-2.52665883699526
1708435051.7370567,-2.1406679153442383,-1.3333473217538376,-2.526956860219137,6.108229386597433,1.017878770828247,-2.5266431013690394
1708435051.7390702,-2.1406960487365723,-1.3333278757384797,-2.5269747416125696,6.1082637188728235,1.0179026126861572,-2.526663128529684
1708435051.741044,-2.140744686126709,-1.3333638620427628,-2.5269957224475306,6.108208405762472,1.0179319381713867,-2.5265939871417444
1708435051.743064,-2.1407322883605957,-1.333371416931488,-2.526994053517477,6.108245837479391,1.0179026126861572,-2.5266550222979944
1708435051.7450695,-2.140700578689575,-1.3333843362382432,-2.5270360151873987,6.108208405762472,1.017883062362671,-2.5266178289996546
1708435051.7470639,-2.140716314315796,-1.3333516132882615,-2.5270031134234827,6.108287799149313,1.017878770828247,-2.5266013781176966
1708435051.7490814,-2.1406960487365723,-1.3333843362382432,-2.5269702116595667,6.108196365624227,1.017845869064331,-2.526574436818258
1708435051.7510278,-2.1407277584075928,-1.3333767813495179,-2.526977841054098,6.108283507614889,1.0178546905517578,-2.5265894571887415
1708435051.7530854,-2.140707492828369,-1.3333962571671982,-2.5270121733294886,6.108233916550436,1.01787531375885,-2.526633087788717
1708435051.7550437,-2.1407368183135986,-1.3333801341107865,-2.5269792715655726,6.108217465668478,1.0178709030151367,-2.52659517923464
1708435051.7570727,-2.1407277584075928,-1.333319218163826,-2.5269702116595667,6.108200776367941,1.0178380012512207,-2.5266030470477503
1708435051.7590811,-2.140704870223999,-1.3333757829717179,-2.5269702116595667,6.108267056732931,1.0178512334823608,-2.5265525023089808
1708435051.7610364,-2.140761613845825,-1.3333638620427628,-2.5269866625415247,6.108242976456442,1.0178349018096924,-2.5265560785876673
1708435051.76305,-2.1407368183135986,-1.3333725047162552,-2.5270076433764856,6.108180272370138,1.0178306102752686,-2.5265288988696497
1708435051.7650297,-2.140761613845825,-1.3333106499961396,-2.5269957224475306,6.108254778176107,1.0178052186965942,-2.526581589375631
1708435051.76705,-2.1407322883605957,-1.3333430898240586,-2.52696139017214,6.108271586685934,1.0178511142730713,-2.526536289845602
1708435051.7690625,-2.1407368183135986,-1.3333387535861512,-2.5270403067218226,6.108242976456442,1.0178349018096924,-2.5265498797046106
1708435051.7710416,-2.1406893730163574,-1.3333757531693955,-2.5269957224475306,6.108238446503439,1.0177857875823975,-2.526583258305685
1708435051.7730722,-2.140707492828369,-1.3333473217538376,-2.5270403067218226,6.1082626459892175,1.017815113067627,-2.526604239140646
1708435051.7750547,-2.140761613845825,-1.3333559793284913,-2.5269911924945276,6.108205306320944,1.017815113067627,-2.5265618006335657
1708435051.7770827,-2.140716314315796,-1.3334005338004609,-2.5269535223590296,6.108278977661886,1.0178065299987793,-2.526496235524313
1708435051.7790709,-2.1407411098480225,-1.3334134680083771,-2.5269957224475306,6.108256327896871,1.0178227424621582,-2.526574436818258
1708435051.7810657,-2.1407535076141357,-1.3333397519639512,-2.5269747416125696,6.108268248825826,1.017786979675293,-2.5265288988696497
1708435051.7830548,-2.1407792568206787,-1.3334134680083771,-2.5270496050464075,6.1081827757652185,1.017815113067627,-2.5265260378467005
1708435051.7850506,-2.1407570838928223,-1.3333843511394043,-2.5269551912890833,6.108271586685934,1.0177901983261108,-2.5265141169177454
1708435051.7870543,-2.140700578689575,-1.3333920252374192,-2.5269551912890833,6.108304250031271,1.0177946090698242,-2.5265260378467005
1708435051.7890599,-2.1407322883605957,-1.333388702278473,-2.5269792715655726,6.108217465668478,1.017798900604248,-2.5265751520739954
1708435051.791063,-2.1406960487365723,-1.3333516132882615,-2.5269461313830774,6.108191716461935,1.017827033996582,-2.5265215078936976
1708435051.7930498,-2.1407277584075928,-1.3333063584617157,-2.5269838015185755,6.108233916550436,1.0177782773971558,-2.5265334288226526
1708435051.7950447,-2.140707492828369,-1.3333843064359208,-2.5269597212420862,6.108221995621481,1.0178031921386719,-2.526512686406271
1708435051.7970824,-2.1407535076141357,-1.3333473813584824,-2.526943031941549,6.108213054924764,1.0178120136260986,-2.5264888445483606
1708435051.7990494,-2.140718698501587,-1.3333800447038193,-2.5269506613360804,6.10816382148818,1.0177913904190063,-2.526522938405172
1708435051.8010414,-2.1407790184020996,-1.3333398264697571,-2.5269671122180384,6.108213054924764,1.0177704095840454,-2.5265424887286585
1708435051.8030586,-2.140744686126709,-1.3333681386760254,-2.526952091847555,6.108221995621481,1.0178121328353882,-2.5264886061297815
1708435051.8050382,-2.140740156173706,-1.3334041398814698,-2.5269175211535853,6.108242976456442,1.0177582502365112,-2.5265334288226526
1708435051.8070698,-2.1407322883605957,-1.333352656369545,-2.5268951098071497,6.108271467476644,1.017767071723938,-2.52647835413088
1708435051.8090472,-2.140744686126709,-1.3333236140063782,-2.5268996397601526,6.108257996826925,1.0177420377731323,-2.5264931360827845
1708435051.8110592,-2.140744686126709,-1.3334049147418519,-2.526831928883688,6.108221995621481,1.0177582502365112,-2.5265021959887903
1708435051.8130758,-2.140770435333252,-1.3333149564317246,-2.526911799107687,6.108217465668478,1.0177582502365112,-2.5264931360827845
1708435051.8150415,-2.1407322883605957,-1.333381087785103,-2.5269041697131556,6.108233916550436,1.0177419185638428,-2.5264931360827845
1708435051.8170476,-2.1407668590545654,-1.3333397817662735,-2.5268877188311976,6.108229386597433,1.0177582502365112,-2.526506487523214
1708435051.819053,-2.140749216079712,-1.3333681386760254,-2.5268381277667444,6.108217465668478,1.0177253484725952,-2.52653938928713
1708435051.821089,-2.1407322883605957,-1.333360270862915,-2.5268831888781946,6.108180153160848,1.017734169960022,-2.5265348593341272
1708435051.8230426,-2.140770435333252,-1.33341337860141,-2.5268710295306605,6.1082637188728235,1.0177714824676514,-2.5265095869647425
1708435051.8250575,-2.1407253742218018,-1.3333311837962647,-2.5268619696246546,6.108159291535177,1.0177507400512695,-2.5264723936664026
1708435051.8270507,-2.140716314315796,-1.3333595556071778,-2.5268922487842005,6.108268248825826,1.0177419185638428,-2.5264976660357874
1708435051.8290362,-2.1407322883605957,-1.3333929789117356,-2.5268381277667444,6.108205306320944,1.0177223682403564,-2.5264692942248743
1708435051.8310807,-2.140761613845825,-1.3333800596049805,-2.52688438097109,6.108229386597433,1.0177792310714722,-2.5264468828784388
1708435051.8331003,-2.140749216079712,-1.3333516281894227,-2.5268500486956995,6.108213054924764,1.0177626609802246,-2.5264812151538294
1708435051.835062,-2.140723466873169,-1.3333516132882615,-2.5268755594836634,6.108221995621481,1.017755150794983,-2.5265184084521692
1708435051.8370523,-2.1406984329223633,-1.3333843362382432,-2.5268173853503626,6.108238446503439,1.0177714824676514,-2.5264769236194056
1708435051.8390687,-2.140707492828369,-1.3334243309548874,-2.5268457571612757,6.108263838082113,1.0177507400512695,-2.5264857451068323
1708435051.8410406,-2.140765905380249,-1.3334257316640397,-2.5268545786487024,6.108220326691427,1.017755150794983,-2.5264931360827845
1708435051.8430362,-2.1407368183135986,-1.3333559793284913,-2.5268710295306605,6.108241307526388,1.0177713632583618,-2.526452366505758
1708435051.8450422,-2.1407535076141357,-1.333360270862915,-2.5268545786487024,6.108257996826925,1.0177792310714722,-2.5264976660357874
1708435051.8470423,-2.140735626220703,-1.3333595556071778,-2.5268664995776575,6.108180272370138,1.0177223682403564,-2.5264678637133997
1708435051.8490605,-2.1407322883605957,-1.3333430600217362,-2.5268412272082728,6.108278977661886,1.017755150794983,-2.5264650026904505
1708435051.85104,-2.1407277584075928,-1.3333843362382432,-2.5268664995776575,6.108229386597433,1.0177385807037354,-2.5264976660357874
1708435051.853068,-2.1407535076141357,-1.3333397668651124,-2.5268755594836634,6.108151900559225,1.0177385807037354,-2.526506487523214
1708435051.855071,-2.140749216079712,-1.3333638620427628,-2.526911799107687,6.108268248825826,1.0176811218261719,-2.5265021959887903
1708435051.8570645,-2.140744686126709,-1.333413453107216,-2.5268800894366663,6.108250367432394,1.0177385807037354,-2.5264604727374476
1708435051.859059,-2.140707492828369,-1.3333191883615036,-2.5268455187426966,6.108238327294149,1.0177682638168335,-2.5265260378467005
1708435051.8610346,-2.140735626220703,-1.3333810579827805,-2.5268619696246546,6.1082098362739465,1.0177714824676514,-2.526431385670797
1708435051.863035,-2.1407365798950195,-1.3334373098662873,-2.5268800894366663,6.108242976456442,1.0177385807037354,-2.5264692942248743
1708435051.865084,-2.1407899856567383,-1.3334004890969773,-2.5268710295306605,6.108193743019857,1.0177428722381592,-2.5264650026904505
1708435051.8670444,-2.1407368183135986,-1.333319218163826,-2.5268681685077112,6.108280408173361,1.0177266597747803,-2.5264976660357874
1708435051.8690515,-2.140774726867676,-1.3333725047162552,-2.5268545786487024,6.108236777573385,1.0177595615386963,-2.5264902750598353
1708435051.871036,-2.140707492828369,-1.3333473813584824,-2.5269041697131556,6.108233916550436,1.0177385807037354,-2.5264604727374476
1708435051.873059,-2.140723466873169,-1.3334134680083771,-2.5268831888781946,6.108245837479391,1.0177385807037354,-2.526515785847799
1708435051.8750668,-2.1407277584075928,-1.3333595854095002,-2.5268664995776575,6.108221995621481,1.0177178382873535,-2.5264886061297815
1708435051.8770602,-2.140794515609741,-1.333368108873703,-2.5268591086017054,6.1082098362739465,1.0177464485168457,-2.5264766852008265
1708435051.8790503,-2.140723466873169,-1.333388702278473,-2.5268967787372034,6.108238446503439,1.0177385807037354,-2.5264723936664026
1708435051.8810549,-2.140716314315796,-1.3333235693028946,-2.5268619696246546,6.108196246414938,1.017734169960022,-2.5265021959887903
1708435051.8830419,-2.140718698501587,-1.3332909506610413,-2.5269163290606897,6.108205306320944,1.0177385807037354,-2.526456896458761
1708435051.885128,-2.140773057937622,-1.3334049147418519,-2.5268951098071497,6.108245837479391,1.0177223682403564,-2.5264387766467493
1708435051.8870435,-2.1407854557037354,-1.3333645325950165,-2.5268335978137415,6.108267056732931,1.0177428722381592,-2.5265141169177454
1708435051.8890455,-2.140718698501587,-1.3333559495261689,-2.5268500486956995,6.108274447708883,1.017706036567688,-2.5265467802630823
1708435051.891067,-2.1407480239868164,-1.3333483350327988,-2.526928249989645,6.108208405762472,1.017706036567688,-2.5264888445483606
1708435051.8930354,-2.140773057937622,-1.3333688241294404,-2.5268710295306605,6.108286368637838,1.0177428722381592,-2.5265021959887903
1708435051.8950505,-2.140735626220703,-1.3334134680083771,-2.5268664995776575,6.1082907793815515,1.0177223682403564,-2.5264692942248743
1708435051.8970416,-2.1407480239868164,-1.3333929789117356,-2.5268710295306605,6.108215915947714,1.0177266597747803,-2.526555840169088
1708435051.8990498,-2.140735626220703,-1.3333311688951035,-2.5269041697131556,6.108233916550436,1.0177428722381592,-2.5265050570117396
1708435051.901027,-2.140761613845825,-1.3333645325950165,-2.5268381277667444,6.108236777573385,1.0177515745162964,-2.5265095869647425
1708435051.9030647,-2.1407480239868164,-1.3333354604295273,-2.5268755594836634,6.108271586685934,1.0177266597747803,-2.5264559427844446
1708435051.9050531,-2.140777587890625,-1.333372489815094,-2.5268664995776575,6.108229505806722,1.0177385807037354,-2.526494805012838
1708435051.9070413,-2.1407434940338135,-1.3333638620427628,-2.5268335978137415,6.1082249758537195,1.0177104473114014,-2.5265141169177454
1708435051.9090266,-2.1407310962677,-1.3333962571671982,-2.52688438097109,6.108220326691427,1.0177428722381592,-2.5264692942248743
1708435051.9110236,-2.1407525539398193,-1.3333852750113984,-2.5268500486956995,6.108227836876669,1.0176854133605957,-2.5265095869647425
1708435051.9130335,-2.1407570838928223,-1.3333311390927811,-2.5268426577197474,6.108241307526388,1.0177428722381592,-2.5265303293811243
1708435051.9150307,-2.140794277191162,-1.3334048849395295,-2.5268831888781946,6.108249056130209,1.0177594423294067,-2.5265215078936976
1708435051.9170494,-2.140723466873169,-1.3333929640105744,-2.5268619696246546,6.108232247620382,1.0177638530731201,-2.5265021959887903
1708435051.9190643,-2.1407310962677,-1.3333559942296525,-2.5268755594836634,6.108278977661886,1.0177266597747803,-2.5265334288226526
1708435051.9210324,-2.140782117843628,-1.3333559793284913,-2.526890579854147,6.108295428543844,1.0177297592163086,-2.5265184084521692
1708435051.923091,-2.1408069133758545,-1.3333929491094132,-2.5268381277667444,6.108286368637838,1.0177594423294067,-2.5264769236194056
1708435051.9250333,-2.1407978534698486,-1.3333843511394043,-2.5268951098071497,6.108295428543844,1.0177061557769775,-2.5265875498401087
1708435051.9270573,-2.1407597064971924,-1.3333725047162552,-2.5268591086017054,6.108281838684835,1.017755150794983,-2.5265005270587366
1708435051.929043,-2.140831708908081,-1.3333116632751008,-2.5268996397601526,6.108286368637838,1.0177385807037354,-2.5265348593341272
1708435051.931054,-2.1408021450042725,-1.333360255961754,-2.5268591086017054,6.10822485664443,1.0177385807037354,-2.5265141169177454
1708435051.9330618,-2.1408135890960693,-1.333320216541626,-2.5269041697131556,6.108254778176107,1.0177028179168701,-2.5265215078936976
1708435051.935052,-2.1407854557037354,-1.3333235842040558,-2.5269041697131556,6.108319508820333,1.0177428722381592,-2.5265467802630823
1708435051.9370575,-2.140768527984619,-1.3333843362382432,-2.5268591086017054,6.108281838684835,1.01768159866333,-2.5265513102160853
1708435051.939033,-2.1408047676086426,-1.3333725494197388,-2.5269084612475794,6.108298289566793,1.0177104473114014,-2.5265379587756556
1708435051.941061,-2.1407809257507324,-1.3333602410605927,-2.5269537607776087,6.108277308731832,1.0177472829818726,-2.5265141169177454
1708435051.9430447,-2.1407480239868164,-1.333360270862915,-2.5269208590136927,6.108274447708883,1.0177353620529175,-2.5265379587756556
1708435051.9450257,-2.140833854675293,-1.3333030057004471,-2.5268831888781946,6.108249056130209,1.0177061557769775,-2.5264888445483606
1708435051.9470654,-2.1408092975616455,-1.3333473962596436,-2.5269208590136927,6.108350384026327,1.0177353620529175,-2.5265050570117396
1708435051.9490755,-2.1407570838928223,-1.3333929491094132,-2.5269084612475794,6.10835479477004,1.017706036567688,-2.5265215078936976
1708435051.9510403,-2.1407721042633057,-1.3333235842040558,-2.5268619696246546,6.1083130715186975,1.0177147388458252,-2.5265169779406946
1708435051.9530528,-2.1408135890960693,-1.3333483350327988,-2.5268381277667444,6.108301508217611,1.0176904201507568,-2.5265541712390345
1708435051.9550424,-2.1407675743103027,-1.333360255961754,-2.5268664995776575,6.108406054764547,1.017707347869873,-2.526496235524313
1708435051.9570477,-2.1407721042633057,-1.3333725047162552,-2.5268664995776575,6.1083655236061,1.017719030380249,-2.5265541712390345
1708435051.9590645,-2.1408047676086426,-1.3333224964192887,-2.5268574396716517,6.108377444535055,1.0177147388458252,-2.5265379587756556
1708435051.9610624,-2.1408162117004395,-1.3333559793284913,-2.5268381277667444,6.108415114670553,1.017685890197754,-2.526512686406271
1708435051.9630845,-2.1408207416534424,-1.3333559793284913,-2.5269132296191614,6.108396994858541,1.0177515745162964,-2.5265453497516077
1708435051.965074,-2.140779972076416,-1.3333645176938553,-2.5268831888781946,6.108408915787496,1.0177385807037354,-2.5265706221209925
1708435051.9670696,-2.140791416168213,-1.3333440583995362,-2.5268710295306605,6.108408915787496,1.0177104473114014,-2.5265379587756556
1708435051.9690492,-2.1408073902130127,-1.3332909357598801,-2.5268664995776575,6.108417975693502,1.0177147388458252,-2.526499096547262
1708435051.971048,-2.1408286094665527,-1.3334134084037323,-2.5268545786487024,6.108413445740499,1.017723560333252,-2.5265498797046106
1708435051.9730628,-2.140775680541992,-1.3333645176938553,-2.5268457571612757,6.108413445740499,1.017719030380249,-2.5265498797046106
1708435051.9750745,-2.1408047676086426,-1.3333354157260437,-2.5268619696246546,6.108429896622457,1.0177515745162964,-2.5265453497516077
1708435051.9770484,-2.1408162117004395,-1.3333269220641633,-2.5268786589251917,6.108396994858541,1.017689824104309,-2.526540819798605
1708435051.9790885,-2.1408047676086426,-1.3333030057004471,-2.5268381277667444,6.108413445740499,1.0177353620529175,-2.526590887700216
1708435051.981041,-2.1408331394195557,-1.333351657991745,-2.5268128553973597,6.108479010849752,1.0176653861999512,-2.526531759892599
1708435051.9830618,-2.14082407951355,-1.3333440733006974,-2.5268710295306605,6.108380305558004,1.0176985263824463,-2.5265453497516077
1708435051.9850595,-2.1408331394195557,-1.3333473217538376,-2.5268591086017054,6.108408915787496,1.0176947116851807,-2.52655274072756
1708435051.9870648,-2.140779972076416,-1.3333681535771866,-2.5268800894366663,6.108445870667257,1.0177028179168701,-2.5265525023089808
1708435051.9890761,-2.1408116817474365,-1.3333074313453217,-2.5268219153033655,6.108453738480367,1.017674207687378,-2.5266030470477503
1708435051.9910526,-2.1408047676086426,-1.3333473217538376,-2.5268426577197474,6.108470189362325,1.0177353620529175,-2.526590649281637
1708435051.9930642,-2.1408002376556396,-1.3333725643209,-2.5268591086017054,6.1084492085273645,1.0176904201507568,-2.5266123453723353
1708435051.9950547,-2.1407630443573,-1.33333973706279,-2.5269208590136927,6.108425366669454,1.0176904201507568,-2.5265849272357386
1708435051.9970613,-2.1408286094665527,-1.3333887320807953,-2.5268591086017054,6.108441459923544,1.0177147388458252,-2.5266149679767054
1708435051.9990697,-2.1408207416534424,-1.3332779270461579,-2.5269041697131556,6.1084866402442834,1.017723560333252,-2.526604239140646
1708435052.001058,-2.140852451324463,-1.3334091913751145,-2.5269086996661585,6.10843704917983,1.0176947116851807,-2.5265770594226282
1708435052.0030725,-2.1408116817474365,-1.3333311688951035,-2.5268500486956995,6.1084279892738245,1.0176947116851807,-2.5266314188586634
1708435052.005049,-2.14082407951355,-1.3333397817662735,-2.5268636385547083,6.108440267830648,1.0176860094070435,-2.5265970865832728
1708435052.0070856,-2.140856981277466,-1.3333725047162552,-2.5268381277667444,6.108481991081991,1.0176947116851807,-2.5266132990466517
1708435052.0090437,-2.140841007232666,-1.3333810728839417,-2.5268500486956995,6.108418929367819,1.0176578760147095,-2.5266104380237024
1708435052.0110438,-2.140819787979126,-1.3333602410605927,-2.5268755594836634,6.108542191773214,1.0176904201507568,-2.5265679995166224
1708435052.013068,-2.140895128250122,-1.333339811568596,-2.5269370714770716,6.108477580338278,1.0176948308944702,-2.5266178289996546
1708435052.0150645,-2.1408908367156982,-1.3333440882018586,-2.5268755594836634,6.108501660614767,1.017669677734375,-2.5266178289996546
1708435052.0170581,-2.1408073902130127,-1.33335596442733,-2.5268664995776575,6.1084927199180505,1.0176784992218018,-2.5265970865832728
1708435052.0190291,-2.140836477279663,-1.3333278608373185,-2.5268545786487024,6.108489739685812,1.0176665782928467,-2.5266764799701136
1708435052.0210257,-2.14083194732666,-1.3333516281894227,-2.5268664995776575,6.108546721726217,1.017687201499939,-2.5266385714160364
1708435052.023092,-2.14083194732666,-1.3333473366549988,-2.5268800894366663,6.1084550497825525,1.0176947116851807,-2.5266132990466517
1708435052.0250447,-2.140841007232666,-1.3333354008248826,-2.5268710295306605,6.108492600708761,1.0176622867584229,-2.5265970865832728
1708435052.0270762,-2.1408028602600098,-1.333372489815094,-2.5268335978137415,6.108462798386373,1.0176336765289307,-2.5265894571887415
1708435052.0290847,-2.140841007232666,-1.3333073568395157,-2.5268426577197474,6.108525502472677,1.017641544342041,-2.5265851656543177
1708435052.0310526,-2.1408073902130127,-1.3333074164441605,-2.5268877188311976,6.1085243103797815,1.0177078247070312,-2.526620690022604
1708435052.033099,-2.140845537185669,-1.3333681386760254,-2.5268500486956995,6.1085537550743005,1.0176633596420288,-2.5266132990466517
1708435052.035065,-2.14083194732666,-1.3333688241294404,-2.5268574396716517,6.108565556793966,1.017625093460083,-2.5266268889056605
1708435052.037061,-2.140856981277466,-1.3333688241294404,-2.5268619696246546,6.108474838524618,1.0176546573638916,-2.526599709187643
1708435052.03904,-2.1408498287200928,-1.3333559942296525,-2.5268996397601526,6.108499991684713,1.0176262855529785,-2.5265970865832728
1708435052.041029,-2.14083194732666,-1.3333559942296525,-2.5268619696246546,6.108562814980306,1.0176634788513184,-2.52665883699526
1708435052.0430574,-2.140864849090576,-1.333376796250679,-2.5268636385547083,6.108462798386373,1.0176721811294556,-2.5266342798816126
1708435052.045034,-2.1408612728118896,-1.3333602410605927,-2.5268710295306605,6.108520972519674,1.017646074295044,-2.526679579411642
1708435052.047072,-2.140899658203125,-1.3333767664483567,-2.5268591086017054,6.108520972519674,1.0176546573638916,-2.5266178289996546
1708435052.0490768,-2.140852451324463,-1.3333559793284913,-2.5268710295306605,6.108512031822958,1.0176665782928467,-2.5266132990466517
1708435052.051035,-2.140869379043579,-1.333343119626381,-2.5269041697131556,6.108540284424581,1.0176796913146973,-2.5266223589526575
1708435052.0530627,-2.1408658027648926,-1.333344043498375,-2.5268097559558313,6.108565676003256,1.0176503658294678,-2.526604239140646
1708435052.055088,-2.140878438949585,-1.333385319714882,-2.5268755594836634,6.108479249268331,1.017659068107605,-2.52659255663027
1708435052.0570664,-2.140878438949585,-1.333368108873703,-2.5268846193896692,6.108615147858419,1.0176708698272705,-2.5265894571887415
1708435052.0590634,-2.14081072807312,-1.3333431047252198,-2.5268800894366663,6.108519780426779,1.0176784992218018,-2.5266223589526575
1708435052.0610306,-2.14084792137146,-1.3333559942296525,-2.5268426577197474,6.108495700150289,1.017659068107605,-2.5266342798816126
1708435052.0630496,-2.140836477279663,-1.3333809834769745,-2.526835266743795,6.108470189362325,1.017659068107605,-2.526609007512228
1708435052.0650344,-2.140873908996582,-1.333327831034996,-2.526889149342672,6.108497130661764,1.0176916122436523,-2.5266297499286097
1708435052.0670583,-2.140841007232666,-1.3333725196174164,-2.5268710295306605,6.108542191773214,1.0176459550857544,-2.5266550222979944
1708435052.0690565,-2.1408274173736572,-1.33334735155616,-2.5268500486956995,6.108483540802755,1.0176174640655518,-2.5266132990466517
1708435052.0710363,-2.14083194732666,-1.333384321337082,-2.5268755594836634,6.108537661820211,1.0176708698272705,-2.5266266504870813
1708435052.0730712,-2.140815019607544,-1.3333440882018586,-2.5268922487842005,6.108565676003256,1.0176708698272705,-2.5266721884356897
1708435052.0750613,-2.14084792137146,-1.3333525967649003,-2.5268142859088343,6.108528721123495,1.0176467895507812,-2.5266178289996546
1708435052.0770497,-2.140873908996582,-1.3333639067462464,-2.5268800894366663,6.108542191773214,1.0176633596420288,-2.526649538670675
1708435052.0790455,-2.1408612728118896,-1.3333681535771866,-2.5268636385547083,6.108565676003256,1.0176708698272705,-2.5266132990466517
1708435052.0811272,-2.140845537185669,-1.3333929491094132,-2.5268755594836634,6.108528721123495,1.0176633596420288,-2.5266550222979944
1708435052.0830817,-2.140852451324463,-1.3333397966674347,-2.5268517176257532,6.108507501869955,1.0176796913146973,-2.5266178289996546
1708435052.0850375,-2.1408863067626953,-1.3333363992026825,-2.5268710295306605,6.108565556793966,1.017659068107605,-2.5266385714160364
1708435052.087112,-2.140841007232666,-1.3333516281894227,-2.5269175211535853,6.108512031822958,1.0176217555999756,-2.526609007512228
1708435052.0890594,-2.14084792137146,-1.333335430627205,-2.5268800894366663,6.108562814980306,1.0176633596420288,-2.5266178289996546
1708435052.0910633,-2.140869379043579,-1.3333559942296525,-2.526839796696798,6.108512031822958,1.0176546573638916,-2.5266342798816126
1708435052.0930653,-2.1408908367156982,-1.3333596301129838,-2.5268006960498255,6.108544814377584,1.0176424980163574,-2.5266504923449915
1708435052.0950444,-2.140873908996582,-1.3333525669625779,-2.5268664995776575,6.108535873680868,1.0176424980163574,-2.5266431013690394
1708435052.0971074,-2.1408603191375732,-1.3333972108415146,-2.5268471876727503,6.108521091728964,1.0176337957382202,-2.5266342798816126
1708435052.0990393,-2.140798330307007,-1.3333440583995362,-2.5268636385547083,6.108533131867208,1.017638087272644,-2.5266297499286097
1708435052.1010668,-2.140847682952881,-1.33335596442733,-2.5269129912005823,6.108504521637716,1.0176546573638916,-2.5266178289996546
1708435052.1030746,-2.140798330307007,-1.333384321337082,-2.5268877188311976,6.108537661820211,1.0176174640655518,-2.5266385714160364
1708435052.1050727,-2.14083194732666,-1.3333767813495179,-2.5268142859088343,6.108544814377584,1.0176665782928467,-2.5266223589526575
1708435052.1070662,-2.1408274173736572,-1.3333843362382432,-2.5268426577197474,6.108488189965048,1.0176708698272705,-2.5266178289996546
1708435052.1090627,-2.140852451324463,-1.3333516430905838,-2.5268846193896692,6.10852991321639,1.0176217555999756,-2.52659255663027
1708435052.1110654,-2.1408603191375732,-1.333372489815094,-2.5269013086902063,6.108537661820211,1.0176262855529785,-2.5266178289996546
1708435052.1130607,-2.1408727169036865,-1.3333638918450852,-2.5268381277667444,6.108549225121298,1.0176467895507812,-2.5266416708575647
1708435052.1150475,-2.1408274173736572,-1.333372489815094,-2.5268262068377894,6.108533131867208,1.0176708698272705,-2.5266342798816126
1708435052.1170592,-2.14083194732666,-1.3333725196174164,-2.5268831888781946,6.108462917595663,1.0176633596420288,-2.5266595522509974
1708435052.119047,-2.140819787979126,-1.3334257465652009,-2.5268786589251917,6.108479249268331,1.017613172531128,-2.526620690022604
1708435052.121066,-2.1408612728118896,-1.3333930236152192,-2.5268710295306605,6.108512031822958,1.0176305770874023,-2.526604239140646
1708435052.1231,-2.140864849090576,-1.3333516281894227,-2.5268786589251917,6.108513462334432,1.0176752805709839,-2.5266016165362757
1708435052.1250467,-2.140852451324463,-1.3333681386760254,-2.5268710295306605,6.108462798386373,1.0176752805709839,-2.5265851656543177
1708435052.1270397,-2.14083194732666,-1.3333602410605927,-2.5268967787372034,6.1085537550743005,1.017659068107605,-2.5266504923449915
1708435052.1290264,-2.140856981277466,-1.3333843511394043,-2.5268710295306605,6.108534443169393,1.017638087272644,-2.5265806357013147
1708435052.1310544,-2.140895128250122,-1.3334134084037323,-2.5268307367907923,6.10852991321639,1.0176633596420288,-2.5265970865832728
1708435052.1330757,-2.140873908996582,-1.3333767664483567,-2.5268800894366663,6.108528721123495,1.0176633596420288,-2.5266178289996546
1708435052.13511,-2.1408817768096924,-1.3333431047252198,-2.526856247578756,6.108512031822958,1.0176752805709839,-2.526609007512228
1708435052.1370854,-2.140819787979126,-1.3334048849395295,-2.5268636385547083,6.108533131867208,1.0176708698272705,-2.5266132990466517
1708435052.1391172,-2.140864849090576,-1.333421380524971,-2.5268471876727503,6.108522641449728,1.0176218748092651,-2.5266369024859827
1708435052.1410663,-2.1408863067626953,-1.3334134084037323,-2.526835266743795,6.108516442566671,1.0176633596420288,-2.526583496724264
1708435052.1430733,-2.140869379043579,-1.3333972108415146,-2.5268216768847864,6.108533131867208,1.0176677703857422,-2.526663128529684
1708435052.145039,-2.14083194732666,-1.333372489815094,-2.5268755594836634,6.108513581543722,1.0176503658294678,-2.5266087690936487
1708435052.147051,-2.140793800354004,-1.3333440583995362,-2.526856247578756,6.108488189965048,1.0176218748092651,-2.5266342798816126
1708435052.1490426,-2.14081072807312,-1.3333516281894227,-2.52682334581484,6.108499991684713,1.0176424980163574,-2.5266223589526575
1708435052.1510406,-2.140819787979126,-1.3333602410605927,-2.5268262068377894,6.108534443169393,1.0176503658294678,-2.526663128529684
1708435052.1530576,-2.140841007232666,-1.3333354604295273,-2.5268636385547083,6.108495700150289,1.0176752805709839,-2.526609007512228
1708435052.1550548,-2.140864849090576,-1.3333397966674347,-2.5268800894366663,6.10856722572402,1.0176633596420288,-2.526628080998556
1708435052.157104,-2.14083194732666,-1.3333886873773118,-2.5268755594836634,6.108499991684713,1.0176503658294678,-2.5266342798816126
1708435052.1590426,-2.14082407951355,-1.3333767664483567,-2.5268381277667444,6.108517992287435,1.0177034139633179,-2.526663128529684
1708435052.1610663,-2.140873908996582,-1.3333430600217362,-2.5268545786487024,6.108509051590719,1.0176708698272705,-2.5266178289996546
1708435052.1630912,-2.140815019607544,-1.3333681535771866,-2.5268545786487024,6.108507501869955,1.0176796913146973,-2.526637140904562
1708435052.1650498,-2.140895128250122,-1.333372489815094,-2.5268664995776575,6.10847173908309,1.0177003145217896,-2.526637140904562
1708435052.1670601,-2.1408817768096924,-1.3333516281894227,-2.5268664995776575,6.10845051982955,1.0176053047180176,-2.526682440434591
1708435052.169054,-2.140878438949585,-1.3333645176938553,-2.5268710295306605,6.108467209130087,1.0176546573638916,-2.526599709187643
1708435052.1710453,-2.14084792137146,-1.3333724004081269,-2.5268664995776575,6.108485209732809,1.017638087272644,-2.5266407171832483
1708435052.1730864,-2.140873908996582,-1.3333645176938553,-2.5268591086017054,6.10855113246993,1.0176349878311157,-2.526616160069601
1708435052.1750338,-2.140852451324463,-1.3333311688951035,-2.5268922487842005,6.108468520432272,1.0176633596420288,-2.526637140904562
1708435052.1770763,-2.140899658203125,-1.3333887171796341,-2.5268664995776575,6.108488189965048,1.0176293849945068,-2.526637140904562
1708435052.1790342,-2.140845537185669,-1.333303065305092,-2.5268710295306605,6.108485209732809,1.0176665782928467,-2.526675049458639
1708435052.1810377,-2.140878438949585,-1.3334091317704697,-2.5268545786487024,6.108494269638815,1.0176665782928467,-2.5266504923449915
1708435052.1830544,-2.140852451324463,-1.3333645474961777,-2.5268846193896692,6.108515131264486,1.017659068107605,-2.526637140904562
1708435052.1850288,-2.140843391418457,-1.3333559793284913,-2.5268800894366663,6.108494269638815,1.0176752805709839,-2.52666145959963
1708435052.1876109,-2.14081072807312,-1.3333681386760254,-2.5268426577197474,6.108431207924642,1.0176503658294678,-2.526686731969015
1708435052.1890519,-2.140869379043579,-1.3333397966674347,-2.5268710295306605,6.108497130661764,1.017699122428894,-2.526679579411642
1708435052.1910355,-2.140878200531006,-1.3333192479661484,-2.5268619696246546,6.108473050385275,1.0176546573638916,-2.526677910481588
1708435052.1930609,-2.1408612728118896,-1.3334048700383683,-2.5268591086017054,6.108517992287435,1.0176337957382202,-2.526694361363546
1708435052.195038,-2.140836477279663,-1.3333972108415146,-2.5268877188311976,6.108489739685812,1.0176796913146973,-2.5266690889941614
1708435052.1990516,-2.140819787979126,-1.3333430898240586,-2.5268545786487024,6.108513581543722,1.0176503658294678,-2.526780430470602
1708435052.201042,-2.14084792137146,-1.333372489815094,-2.5268877188311976,6.108447539597311,1.0176784992218018,-2.5267062822925013
1708435052.2030857,-2.140836477279663,-1.3333440583995362,-2.5268710295306605,6.108452069550314,1.0176546573638916,-2.526755396519796
1708435052.2050705,-2.140873908996582,-1.333372489815094,-2.526889149342672,6.108498680382528,1.017625093460083,-2.5267420450793665
1708435052.207083,-2.14083194732666,-1.3333397966674347,-2.5268877188311976,6.108429896622457,1.0176752805709839,-2.5267301241504114
1708435052.2090702,-2.14083194732666,-1.3333440583995362,-2.5268800894366663,6.108413445740499,1.0176665782928467,-2.5267017523394983
1708435052.21104,-2.140815019607544,-1.3333687794259568,-2.5268996397601526,6.108429896622457,1.017687201499939,-2.5267048517810267
1708435052.2130687,-2.140819787979126,-1.3333767664483567,-2.5268755594836634,6.1083881733711145,1.0176337957382202,-2.5267463366137903
1708435052.2150462,-2.140841007232666,-1.3333559793284913,-2.526890579854147,6.108396994858541,1.0176784992218018,-2.5267420450793665
1708435052.2170894,-2.140873908996582,-1.3333645176938553,-2.5268591086017054,6.108401524811544,1.017720341682434,-2.5266836325274866
1708435052.2190676,-2.14084792137146,-1.3333602410605927,-2.5268877188311976,6.108401524811544,1.0176904201507568,-2.5266884008990687
1708435052.2210612,-2.140882730484009,-1.3333440583995362,-2.5268877188311976,6.10841058471755,1.0176904201507568,-2.5267344156848353
1708435052.2230911,-2.140841007232666,-1.3333559793284913,-2.5268664995776575,6.1083730337913416,1.017699122428894,-2.5267420450793665
1708435052.2250674,-2.140843391418457,-1.3333767664483567,-2.5268755594836634,6.1083565829093835,1.0177034139633179,-2.5267375151263636
1708435052.2270677,-2.1408772468566895,-1.3333559793284913,-2.5268335978137415,6.108393895417013,1.017669677734375,-2.5267282168017786
1708435052.2290466,-2.140836477279663,-1.3333397966674347,-2.5268710295306605,6.108397114067831,1.0176665782928467,-2.526776138936178
1708435052.2310376,-2.140836477279663,-1.3333559793284913,-2.5268545786487024,6.108406054764547,1.0176416635513306,-2.526755158101217
1708435052.233093,-2.140841007232666,-1.3333767664483567,-2.5268664995776575,6.108381855278768,1.0176947116851807,-2.526766840611593
1708435052.2350943,-2.140864849090576,-1.3333559793284913,-2.5268710295306605,6.108391034394064,1.017657995223999,-2.526766840611593
1708435052.237076,-2.1408028602600098,-1.3334177148393174,-2.5268381277667444,6.108417975693502,1.0177034139633179,-2.526788059865133
1708435052.2390523,-2.140864849090576,-1.333404855137207,-2.5268681685077112,6.1083655236061,1.0176827907562256,-2.526757780705587
1708435052.241037,-2.140836477279663,-1.3333559793284913,-2.5268290678607386,6.1084375260169885,1.0176622867584229,-2.526802364979879
1708435052.2430768,-2.140843391418457,-1.333372489815094,-2.5268335978137415,6.1083655236061,1.017674207687378,-2.5267370382892054
1708435052.2451055,-2.140856981277466,-1.333372489815094,-2.5268877188311976,6.1083655236061,1.0176947116851807,-2.526804272328512
1708435052.2470825,-2.140819787979126,-1.3333397966674347,-2.5268455187426966,6.1083565829093835,1.01768159866333,-2.5267906824695032
1708435052.2490518,-2.140856981277466,-1.3333430898240586,-2.5268831888781946,6.108406054764547,1.0176904201507568,-2.526811424885885
1708435052.2510734,-2.1408073902130127,-1.3333525967649003,-2.5268786589251917,6.108311521797933,1.0176784992218018,-2.52682334581484
1708435052.2530825,-2.140841007232666,-1.3333397966674347,-2.5268636385547083,6.1083655236061,1.0176904201507568,-2.526774231587545
1708435052.2550669,-2.1408028602600098,-1.333314986234047,-2.5269086996661585,6.108352052956381,1.0177322626113892,-2.5267697016345423
1708435052.2571006,-2.140815019607544,-1.3333516281894227,-2.5268636385547083,6.108393895417013,1.017707347869873,-2.5267799536334437
1708435052.2590764,-2.1408908367156982,-1.3333602410605927,-2.5268636385547083,6.108381974488058,1.0176985263824463,-2.5268128553973597
1708435052.261041,-2.1408603191375732,-1.33334834993396,-2.5268381277667444,6.1083655236061,1.017685890197754,-2.5267682711230677
1708435052.2630582,-2.14082407951355,-1.3333515983871003,-2.5269253889666956,6.108393895417013,1.017685890197754,-2.526850763951437
1708435052.2650502,-2.140845537185669,-1.3333516281894227,-2.5268846193896692,6.108381974488058,1.017685890197754,-2.5268426577197474
1708435052.2670715,-2.1408286094665527,-1.3333559793284913,-2.5269086996661585,6.108419525414266,1.0177472829818726,-2.5268173853503626
1708435052.26905,-2.140841007232666,-1.333312304025032,-2.5268591086017054,6.108340251236715,1.0176904201507568,-2.5268054644214075
1708435052.2710412,-2.140864849090576,-1.3333724749139328,-2.5268967787372034,6.108391034394064,1.0176985263824463,-2.5268383661853235
1708435052.2730823,-2.140873908996582,-1.333372489815094,-2.5268922487842005,6.10830699184493,1.017730951309204,-2.5268219153033655
1708435052.2750869,-2.140836477279663,-1.3333192479661484,-2.5269208590136927,6.108377444535055,1.01768159866333,-2.5268307367907923
1708435052.2771108,-2.140819787979126,-1.3333559942296525,-2.5268800894366663,6.1083611128623865,1.0177278518676758,-2.5268054644214075
1708435052.2790565,-2.1408374309539795,-1.3333645176938553,-2.5268967787372034,6.108308660774984,1.017723560333252,-2.5268881956683558
1708435052.2810361,-2.140819787979126,-1.3333236289075394,-2.5268877188311976,6.1083655236061,1.0176985263824463,-2.5268338362323206
1708435052.2830424,-2.140836477279663,-1.3334133487990876,-2.5268591086017054,6.108372914582052,1.017707347869873,-2.5268247763263147
1708435052.2850304,-2.140845537185669,-1.3333397966674347,-2.5268664995776575,6.1083655236061,1.0176985263824463,-2.526850763951437
1708435052.2870762,-2.140852451324463,-1.333323599105217,-2.5268710295306605,6.108374583512106,1.0177515745162964,-2.526878897343771
1708435052.2890837,-2.140791416168213,-1.333360270862915,-2.5268636385547083,6.108349072724142,1.0176609754562378,-2.5268552939044397
1708435052.2910395,-2.1408817768096924,-1.3333972108415146,-2.5268545786487024,6.1083655236061,1.0177028179168701,-2.5268552939044397
1708435052.2930562,-2.140873908996582,-1.3333929491094132,-2.5268786589251917,6.108374583512106,1.017719030380249,-2.526858154927389
1708435052.2950408,-2.140841007232666,-1.3333559793284913,-2.5268996397601526,6.1083611128623865,1.0177353620529175,-2.526841704045431
1708435052.297072,-2.1408908367156982,-1.3333440583995362,-2.526923720036642,6.108336913376608,1.017730951309204,-2.526862684880392
1708435052.2990646,-2.14084792137146,-1.3333397966674347,-2.5268710295306605,6.1083655236061,1.0177266597747803,-2.5268083254443567
1708435052.3010783,-2.140787124633789,-1.3333886873773118,-2.5268426577197474,6.108372914582052,1.017694115638733,-2.526841704045431
1708435052.3030753,-2.140897512435913,-1.333384321337082,-2.5268710295306605,6.108335602074423,1.017689824104309,-2.526841704045431
1708435052.3050466,-2.1408658027648926,-1.3333681684783478,-2.526907269154684,6.108335602074423,1.0177353620529175,-2.526911799107687
1708435052.307086,-2.1408116817474365,-1.3333602410605927,-2.5268500486956995,6.108353602677145,1.0176942348480225,-2.5269044081317347
1708435052.3090534,-2.1408658027648926,-1.3333430749228974,-2.5268335978137415,6.108299600868978,1.0177397727966309,-2.526895348225729
1708435052.3110485,-2.1408612728118896,-1.3333516281894227,-2.5268996397601526,6.108324992447653,1.017747163772583,-2.5268293062793177
1708435052.3131123,-2.1408612728118896,-1.3333559793284913,-2.526928249989645,6.108336913376608,1.017706036567688,-2.526849333439962
1708435052.31505,-2.1408612728118896,-1.3333559793284913,-2.5268877188311976,6.108377444535055,1.0177104473114014,-2.5268083254443567
1708435052.3170946,-2.14082407951355,-1.3333929789117356,-2.5268951098071497,6.108379113465109,1.0177713632583618,-2.5268567244159144
1708435052.319057,-2.140836477279663,-1.3333645176938553,-2.5268755594836634,6.108370053559103,1.0177147388458252,-2.526841704045431
1708435052.3210375,-2.140845537185669,-1.3333064776710053,-2.5268664995776575,6.108358132630148,1.0177385807037354,-2.526907269154684
1708435052.3230715,-2.14084792137146,-1.333409146671631,-2.5268545786487024,6.1083446619804285,1.0177385807037354,-2.5268731752978724
1708435052.3250334,-2.140815019607544,-1.3333525669625779,-2.5268831888781946,6.10835479477004,1.0177594423294067,-2.526910368596212
1708435052.3270795,-2.14082407951355,-1.333372489815094,-2.5269041697131556,6.108358251839437,1.017706036567688,-2.5268283526050013
1708435052.3290472,-2.140852451324463,-1.3333559793284913,-2.5268877188311976,6.1083401320274255,1.0176730155944824,-2.526886526738302
1708435052.3310964,-2.140815019607544,-1.3333596003106614,-2.5268664995776575,6.108304130821981,1.0177385807037354,-2.526870075856344
1708435052.3331027,-2.140869379043579,-1.3333602410605927,-2.5268877188311976,6.108338343888082,1.0177757740020752,-2.5268431345569056
1708435052.3350918,-2.1408498287200928,-1.3333192777684708,-2.5268922487842005,6.108336913376608,1.0177428722381592,-2.526919190083639
1708435052.3370903,-2.140899658203125,-1.3333397817662735,-2.5268996397601526,6.108332383423605,1.0177966356277466,-2.5268612543689173
1708435052.3391001,-2.1408612728118896,-1.3333645176938553,-2.526907269154684,6.108391034394064,1.0177472829818726,-2.526865545903341
1708435052.3411086,-2.140856981277466,-1.3333516132882615,-2.5268710295306605,6.108392464905538,1.017734169960022,-2.526849333439962
1708435052.3430853,-2.1408700942993164,-1.3334005039981385,-2.5268335978137415,6.108324992447653,1.0177385807037354,-2.5269272963153284
1708435052.3450592,-2.140856981277466,-1.3333483201316376,-2.5268786589251917,6.108304011612692,1.0177298784255981,-2.526893917714254
1708435052.3471267,-2.140845537185669,-1.333372489815094,-2.5269370714770716,6.108299600868978,1.0177507400512695,-2.5268893877612513
1708435052.349073,-2.140845537185669,-1.3333810281804581,-2.5269208590136927,6.108324992447653,1.0177713632583618,-2.526910368596212
1708435052.351068,-2.14082407951355,-1.33334735155616,-2.5268786589251917,6.1082790968711755,1.0177626609802246,-2.5269272963153284
1708435052.3530917,-2.1408073902130127,-1.3333730560592194,-2.5268877188311976,6.10832046249465,1.0177507400512695,-2.526919190083639
1708435052.3550878,-2.1408612728118896,-1.3333397966674347,-2.5269041697131556,6.1083295224006555,1.017734169960022,-2.5268893877612513
1708435052.3570995,-2.140845537185669,-1.3333107245019455,-2.5268922487842005,6.1083176014717,1.0177298784255981,-2.5268638769732874
1708435052.359106,-2.1408116817474365,-1.3333516281894227,-2.5269084612475794,6.108358132630148,1.0177879333496094,-2.5268848578082483
1708435052.3610544,-2.1408498287200928,-1.3333602410605927,-2.5268877188311976,6.1083130715186975,1.0177136659622192,-2.526898447667257
1708435052.3630617,-2.1408746242523193,-1.3333559793284913,-2.5268664995776575,6.10829375961379,1.0177582502365112,-2.526910368596212
1708435052.3650749,-2.14083194732666,-1.333392934208252,-2.5268710295306605,6.1083295224006555,1.017755150794983,-2.5269137064563196
1708435052.3670738,-2.140841007232666,-1.333364487891533,-2.5268500486956995,6.108301508217611,1.0177582502365112,-2.5269013086902063
1708435052.3690882,-2.140836477279663,-1.3333602410605927,-2.5268755594836634,6.108358251839437,1.0177626609802246,-2.5269227663623255
1708435052.3710697,-2.1408498287200928,-1.333344043498375,-2.5268996397601526,6.108298170357504,1.0177669525146484,-2.526956383381979
1708435052.373107,-2.140787124633789,-1.3333560091308136,-2.5268831888781946,6.108275878220358,1.017755150794983,-2.5268893877612513
1708435052.3751054,-2.1408116817474365,-1.3333645474961777,-2.5268967787372034,6.108322012215414,1.0177825689315796,-2.5268684069262903
1708435052.3770702,-2.14083194732666,-1.333360270862915,-2.5268996397601526,6.108260977059164,1.0177464485168457,-2.526939932500021
1708435052.3790524,-2.1408286094665527,-1.3333725047162552,-2.5268619696246546,6.108310448914327,1.0177792310714722,-2.5269444624530237
1708435052.3810263,-2.1408331394195557,-1.3333887469819565,-2.526865307484762,6.10829375961379,1.0177419185638428,-2.526939932500021
1708435052.3830853,-2.1408047676086426,-1.3333483201316376,-2.5268831888781946,6.108262526779928,1.0177792310714722,-2.5269227663623255
1708435052.3850927,-2.140795946121216,-1.3333397966674347,-2.526928249989645,6.108249056130209,1.0177704095840454,-2.5269013086902063
1708435052.38707,-2.1408498287200928,-1.3333896410516282,-2.5268591086017054,6.1083072302635095,1.0177913904190063,-2.526910368596212
1708435052.389048,-2.1408116817474365,-1.333384321337082,-2.5269325415240687,6.108286368637838,1.0177913904190063,-2.5269227663623255
1708435052.3910537,-2.1408331394195557,-1.33333973706279,-2.5268664995776575,6.108253466873922,1.017786979675293,-2.5269182364093226
1708435052.3930912,-2.1408498287200928,-1.33334834993396,-2.5268951098071497,6.108244526177206,1.0177420377731323,-2.526898447667257
1708435052.3950515,-2.1408700942993164,-1.33334735155616,-2.5268996397601526,6.108244526177206,1.0177826881408691,-2.5268757979022425
1708435052.3970816,-2.1408028602600098,-1.3333596003106614,-2.5268457571612757,6.108349072724142,1.0177782773971558,-2.5269137064563196
1708435052.399073,-2.140845537185669,-1.3333559942296525,-2.526820246373312,6.108295428543844,1.0177704095840454,-2.5268731752978724
1708435052.4010563,-2.1408612728118896,-1.3333810281804581,-2.5268922487842005,6.108262526779928,1.0177748203277588,-2.5268848578082483
1708435052.403076,-2.1408002376556396,-1.3333681535771866,-2.5268786589251917,6.108278977661886,1.0178120136260986,-2.5269058386432093
1708435052.4050353,-2.140841007232666,-1.3333192777684708,-2.5268996397601526,6.108244526177206,1.0177582502365112,-2.526893917714254
1708435052.4070373,-2.1408543586730957,-1.3333515983871003,-2.5268710295306605,6.108253466873922,1.0177748203277588,-2.526898447667257
1708435052.4090586,-2.140841007232666,-1.333384321337082,-2.526928249989645,6.108316290169515,1.0177704095840454,-2.5269272963153284
1708435052.4110405,-2.1408002376556396,-1.3333312284997483,-2.5268500486956995,6.1082907793815515,1.017786979675293,-2.5269058386432093
1708435052.4130504,-2.1408331394195557,-1.3333345514586945,-2.5268951098071497,6.1082907793815515,1.017786979675293,-2.5268965403186243
1708435052.415039,-2.1408073902130127,-1.3333559793284913,-2.5268996397601526,6.1082907793815515,1.017798900604248,-2.5268684069262903
1708435052.4170659,-2.1408002376556396,-1.3333681237748642,-2.5269208590136927,6.108283388405599,1.0177661180496216,-2.5268848578082483
1708435052.4190643,-2.1408073902130127,-1.3333030355027695,-2.526890579854147,6.10826991775588,1.0177946090698242,-2.5268848578082483
1708435052.4210322,-2.1408419609069824,-1.3333920550397416,-2.5269373098956507,6.108278977661886,1.0178357362747192,-2.5268803278552454
1708435052.4230688,-2.14082407951355,-1.3333321523717423,-2.5268951098071497,6.108232247620382,1.0178523063659668,-2.526919190083639
1708435052.425027,-2.140791416168213,-1.3333397817662735,-2.526911799107687,6.108274447708883,1.017798900604248,-2.5268684069262903
1708435052.4270513,-2.1408073902130127,-1.3333852601102372,-2.5268574396716517,6.108249056130209,1.017848014831543,-2.5269272963153284
1708435052.4290571,-2.1408116817474365,-1.3333681684783478,-2.5268967787372034,6.1082907793815515,1.017798900604248,-2.5269272963153284
1708435052.4310355,-2.1408207416534424,-1.3333559793284913,-2.5268951098071497,6.108274447708883,1.017798900604248,-2.5269058386432093
1708435052.4330606,-2.1408331394195557,-1.3333681386760254,-2.5268877188311976,6.108283507614889,1.0178227424621582,-2.5269272963153284
1708435052.4351006,-2.1408374309539795,-1.3333886724761506,-2.526890579854147,6.1081827757652185,1.017815113067627,-2.526910368596212
1708435052.4370968,-2.1408207416534424,-1.333363876943924,-2.526890579854147,6.108299839287557,1.017798900604248,-2.5269318262683313
1708435052.4390845,-2.1408116817474365,-1.33334735155616,-2.5268741289721888,6.10826991775588,1.017827033996582,-2.5268848578082483
1708435052.4410362,-2.1408462524414062,-1.3333473366549988,-2.5268951098071497,6.10826991775588,1.017827033996582,-2.5269652048694056
1708435052.4430869,-2.1408498287200928,-1.333307461147644,-2.5268500486956995,6.108302700310507,1.0177783966064453,-2.5268638769732874
1708435052.445046,-2.140795946121216,-1.3333800596049805,-2.5268996397601526,6.108236777573385,1.0178401470184326,-2.526907269154684
1708435052.44707,-2.140856981277466,-1.3333354604295273,-2.5268455187426966,6.108244526177206,1.017798900604248,-2.5268848578082483
1708435052.4490693,-2.140856981277466,-1.3333681535771866,-2.526832167302267,6.108278977661886,1.0177901983261108,-2.5269058386432093
1708435052.451053,-2.1408207416534424,-1.333372489815094,-2.5269163290606897,6.108253466873922,1.0177946090698242,-2.5269091765033167
1708435052.4530952,-2.140795946121216,-1.3333440583995362,-2.526898209248678,6.108278977661886,1.017815113067627,-2.5269091765033167
1708435052.4550488,-2.1408286094665527,-1.3333311539939423,-2.5268951098071497,6.108262526779928,1.0178108215332031,-2.5269272963153284
1708435052.4570801,-2.1408116817474365,-1.333384321337082,-2.5268664995776575,6.10826991775588,1.017785906791687,-2.5269487539874476
1708435052.459046,-2.140791416168213,-1.333339811568596,-2.5268664995776575,6.108278977661886,1.017798900604248,-2.5269561449633997
1708435052.4610567,-2.1408677101135254,-1.3333440583995362,-2.5269163290606897,6.108213054924764,1.017848014831543,-2.5268803278552454
1708435052.4630542,-2.140845537185669,-1.3333724749139328,-2.5268786589251917,6.108245837479391,1.017815113067627,-2.5269058386432093
1708435052.4650393,-2.140819787979126,-1.3333681535771866,-2.5268664995776575,6.1082085249717615,1.0177946090698242,-2.526893917714254
1708435052.467095,-2.1408207416534424,-1.3333602410605927,-2.5268951098071497,6.108295428543844,1.017827033996582,-2.526886526738302
1708435052.4690506,-2.1408047676086426,-1.3333559793284913,-2.526902739201681,6.108253586083212,1.017802119255066,-2.5269058386432093
1708435052.4710374,-2.1408162117004395,-1.3333363992026825,-2.526869599019186,6.108245837479391,1.0178108215332031,-2.5269652048694056
1708435052.4730666,-2.1408498287200928,-1.3333150309375306,-2.526923720036642,6.108265387802877,1.0177977085113525,-2.526914660130636
1708435052.475048,-2.1408162117004395,-1.333307371740677,-2.526886049901144,6.108213054924764,1.0178108215332031,-2.5268684069262903
1708435052.4770584,-2.1407675743103027,-1.333368794327118,-2.5268457571612757,6.1082907793815515,1.017827033996582,-2.5268893877612513
1708435052.4790542,-2.1408162117004395,-1.33334735155616,-2.5269492308246058,6.108262526779928,1.0177903175354004,-2.526881996785299
1708435052.481046,-2.1408374309539795,-1.3333724749139328,-2.526928249989645,6.108208405762472,1.0178108215332031,-2.5268405119525355
1708435052.4830472,-2.1408331394195557,-1.333360255961754,-2.5268996397601526,6.108253586083212,1.017773985862732,-2.526902739201681
1708435052.4850533,-2.140784502029419,-1.3333645176938553,-2.5269041697131556,6.1082907793815515,1.0177903175354004,-2.5268357435809534
1708435052.48705,-2.1408498287200928,-1.3333311837962647,-2.526853148137228,6.108232247620382,1.017815113067627,-2.526881996785299
1708435052.489064,-2.1408419609069824,-1.333335430627205,-2.526893679295675,6.108250248223104,1.0178065299987793,-2.5268612543689173
1708435052.4910488,-2.1408090591430664,-1.3333559942296525,-2.526898209248678,6.108236777573385,1.0177741050720215,-2.526940647755758
1708435052.4930716,-2.1408135890960693,-1.3333150309375306,-2.5268786589251917,6.108236896782675,1.0178436040878296,-2.526853624974386
1708435052.495078,-2.1408207416534424,-1.333326907163002,-2.5268951098071497,6.108286368637838,1.0177826881408691,-2.526898447667257
1708435052.4970424,-2.1408543586730957,-1.333347426061966,-2.526902739201681,6.108249056130209,1.0177857875823975,-2.526877466832296
1708435052.499049,-2.14082407951355,-1.3333235842040558,-2.526935640965597,6.108302700310507,1.017798900604248,-2.526878897343771
1708435052.5010548,-2.140825033187866,-1.3333269220641633,-2.526935640965597,6.108254778176107,1.0178108215332031,-2.5268612543689173
1708435052.5030494,-2.1407887935638428,-1.3333278757384797,-2.526869837437765,6.1082626459892175,1.0178393125534058,-2.526877466832296
1708435052.5050397,-2.1408586502075195,-1.3333559793284913,-2.526911799107687,6.108265507012167,1.017827033996582,-2.526881996785299
1708435052.5070372,-2.1408073902130127,-1.3333972108415146,-2.526911799107687,6.108265387802877,1.0177946090698242,-2.526870075856344
1708435052.5090532,-2.140784502029419,-1.3333645027926941,-2.526902739201681,6.1083117602165125,1.0178065299987793,-2.526808563862936
1708435052.511056,-2.1408207416534424,-1.3333278757384797,-2.526923720036642,6.1082249758537195,1.0177857875823975,-2.526811424885885
1708435052.5130446,-2.140845537185669,-1.3333638918450852,-2.526919190083639,6.108304250031271,1.0178314447402954,-2.526902739201681
1708435052.5150795,-2.1408162117004395,-1.3333073568395157,-2.5269401709186,6.108265387802877,1.0178194046020508,-2.526870075856344
1708435052.517036,-2.1407721042633057,-1.3333559793284913,-2.5268529097186487,6.108256447106161,1.0178108215332031,-2.526878897343771
1708435052.5190353,-2.1408116817474365,-1.3333724749139328,-2.526911799107687,6.108223187714376,1.0178227424621582,-2.526853624974386
1708435052.521058,-2.1408331394195557,-1.3334049445441742,-2.526947561894552,6.108319508820333,1.017815113067627,-2.526858154927389
1708435052.523043,-2.1408331394195557,-1.333360270862915,-2.526928249989645,6.108319508820333,1.0178227424621582,-2.526878897343771
1708435052.5250428,-2.140829563140869,-1.333372489815094,-2.526886049901144,6.108257996826925,1.0177946090698242,-2.526907269154684
1708435052.5270596,-2.1408207416534424,-1.3333516281894227,-2.526919190083639,6.108178245812216,1.0177826881408691,-2.5268247763263147
1708435052.5290432,-2.1408543586730957,-1.3333473962596436,-2.526907269154684,6.108249056130209,1.0178393125534058,-2.5268998781787317
1708435052.5310383,-2.1408162117004395,-1.3333681386760254,-2.5269401709186,6.108253466873922,1.0178239345550537,-2.526853624974386
1708435052.533027,-2.1407933235168457,-1.3333354604295273,-2.526935640965597,6.108236777573385,1.0178108215332031,-2.526886526738302
1708435052.535094,-2.14082407951355,-1.3333516430905838,-2.526914660130636,6.1082626459892175,1.0178314447402954,-2.5268128553973597
1708435052.5370812,-2.1408658027648926,-1.3333809983781357,-2.5269654432879847,6.1083117602165125,1.0178349018096924,-2.526858154927389
1708435052.5390637,-2.1408286094665527,-1.333364487891533,-2.526902739201681,6.108342993050375,1.0178065299987793,-2.526837412511007
1708435052.5410442,-2.1407887935638428,-1.3333559942296525,-2.526907269154684,6.108265387802877,1.0177946090698242,-2.526853624974386
1708435052.5430253,-2.1408092975616455,-1.3333526265672226,-2.526935640965597,6.108268368035116,1.0178227424621582,-2.526846233998434
1708435052.5450706,-2.140795946121216,-1.3333397668651124,-2.526935640965597,6.10831497886733,1.0178065299987793,-2.5268011728869837
1708435052.5470376,-2.1408162117004395,-1.3333192479661484,-2.526911799107687,6.1083059189613245,1.017815113067627,-2.5268293062793177
1708435052.5490704,-2.1408331394195557,-1.33335596442733,-2.526919190083639,6.108289229660787,1.0178076028823853,-2.526874605809347
1708435052.5510478,-2.1408002376556396,-1.3333559793284913,-2.526907269154684,6.10829375961379,1.0178436040878296,-2.5268054644214075
1708435052.5530372,-2.1408286094665527,-1.3333681386760254,-2.5269325415240687,6.108342873841085,1.0178031921386719,-2.5268219153033655
1708435052.5550463,-2.1408073902130127,-1.3333569479039689,-2.526902739201681,6.1083176014717,1.0178357362747192,-2.5268128553973597
1708435052.5570507,-2.140841007232666,-1.3333073866418381,-2.5268951098071497,6.1083295224006555,1.0178436040878296,-2.5268641153918665
1708435052.5590842,-2.1408286094665527,-1.333363876943924,-2.526919190083639,6.108341443329611,1.0178227424621582,-2.5268879572497767
1708435052.561041,-2.1408498287200928,-1.3333638918450852,-2.526919190083639,6.10831497886733,1.0178313255310059,-2.526858154927389
1708435052.563059,-2.1408002376556396,-1.333375797872879,-2.5268786589251917,6.108367192536154,1.0177903175354004,-2.526846233998434
1708435052.565055,-2.140791416168213,-1.3334091913751145,-2.526914660130636,6.1083295224006555,1.017798900604248,-2.5267892519580286
1708435052.5670485,-2.14082407951355,-1.333331198697426,-2.526886049901144,6.108349191933431,1.017773985862732,-2.5268293062793177
1708435052.5690572,-2.1408658027648926,-1.3333559942296525,-2.526935640965597,6.108398306160726,1.0178108215332031,-2.526818815861837
1708435052.5710416,-2.1408002376556396,-1.3333354902318497,-2.5268741289721888,6.108384835511007,1.0178357362747192,-2.5268471876727503
1708435052.5730724,-2.140795946121216,-1.3334048402360459,-2.526907269154684,6.108393895417013,1.017827033996582,-2.5268099943744105
1708435052.575035,-2.140795946121216,-1.333404929643013,-2.5268951098071497,6.108384835511007,1.017798900604248,-2.5268426577197474
1708435052.5770514,-2.140795946121216,-1.333331213598587,-2.5268951098071497,6.108413445740499,1.0178108215332031,-2.5268264452563685
1708435052.5790603,-2.140795946121216,-1.3334048998406907,-2.526919190083639,6.108417975693502,1.0177903175354004,-2.5268099943744105
1708435052.5810862,-2.1408116817474365,-1.333323599105217,-2.526902739201681,6.108413445740499,1.0178065299987793,-2.5267773310290735
1708435052.583063,-2.1408331394195557,-1.3333354008248826,-2.5268831888781946,6.108413445740499,1.0178228616714478,-2.5267728010760706
1708435052.5850375,-2.140795946121216,-1.333339811568596,-2.526919190083639,6.1083881733711145,1.017815113067627,-2.5267935434924524
1708435052.587052,-2.1407933235168457,-1.3333516281894227,-2.5268996397601526,6.108397114067831,1.0178183317184448,-2.5268054644214075
1708435052.5890458,-2.1408116817474365,-1.3333311390927811,-2.5269208590136927,6.108474600106039,1.0177946090698242,-2.5268307367907923
1708435052.5910523,-2.1408116817474365,-1.333351657991745,-2.526923720036642,6.108420955925741,1.017798900604248,-2.5268264452563685
1708435052.593074,-2.140845537185669,-1.3333311390927811,-2.526911799107687,6.108413445740499,1.0178227424621582,-2.5267816225634974
1708435052.5950406,-2.1408658027648926,-1.3334090870669861,-2.526914660130636,6.108425366669454,1.0178357362747192,-2.5267654101001185
1708435052.5970643,-2.1408162117004395,-1.3333354157260437,-2.526886049901144,6.108425366669454,1.017798900604248,-2.5267980734454554
1708435052.5990415,-2.1408116817474365,-1.3333516728929062,-2.526869837437765,6.108425366669454,1.017815113067627,-2.5267489592181605
1708435052.6010537,-2.140795946121216,-1.3333278459361573,-2.526919190083639,6.108440267830648,1.0177826881408691,-2.526794974003927
1708435052.6030715,-2.1408612728118896,-1.3333311539939423,-2.526923720036642,6.108444678574362,1.0177903175354004,-2.5267534891711634
1708435052.6050603,-2.140856981277466,-1.3333354157260437,-2.526886049901144,6.108477580338278,1.0177958011627197,-2.5267816225634974
1708435052.6070359,-2.1407887935638428,-1.3333397817662735,-2.5268741289721888,6.108517992287435,1.0178393125534058,-2.526839558278219
1708435052.6090448,-2.1408658027648926,-1.3333516281894227,-2.5269699732409876,6.108513581543722,1.0178436040878296,-2.526794974003927
1708435052.611051,-2.1408286094665527,-1.3333810430816193,-2.526902739201681,6.108537661820211,1.017815113067627,-2.526794974003927
1708435052.6130843,-2.14082407951355,-1.3333602410605927,-2.526911799107687,6.108467209130087,1.0177901983261108,-2.5268145243274134
1708435052.6150897,-2.14082407951355,-1.3333107692054291,-2.526869837437765,6.108513462334432,1.0177661180496216,-2.526783053074972
1708435052.6170526,-2.1408162117004395,-1.3333559793284913,-2.526952091847555,6.108483540802755,1.017802119255066,-2.5267861525165003
1708435052.6190526,-2.1408658027648926,-1.3333681386760254,-2.526914660130636,6.1085537550743005,1.017802119255066,-2.5268307367907923
1708435052.6210535,-2.140845537185669,-1.333364562397339,-2.526869599019186,6.108537661820211,1.0178227424621582,-2.526818815861837
1708435052.6230743,-2.1408498287200928,-1.33333212256942,-2.5269163290606897,6.108528721123495,1.0177783966064453,-2.52676231065859
1708435052.6250463,-2.1408872604370117,-1.3333235544017334,-2.5268741289721888,6.108535873680868,1.0177946090698242,-2.526811424885885
1708435052.6270442,-2.1408612728118896,-1.3333638620427628,-2.526907269154684,6.108491170197286,1.0177944898605347,-2.5267415682422083
1708435052.6290658,-2.140836477279663,-1.3333354902318497,-2.526928249989645,6.108544814377584,1.0177946090698242,-2.526811424885885
1708435052.6310403,-2.1408700942993164,-1.3334134680083771,-2.5269370714770716,6.108542191773214,1.0178108215332031,-2.526806894932882
1708435052.6330893,-2.1408162117004395,-1.3333725047162552,-2.526928249989645,6.108568656235494,1.0178271532058716,-2.526710573826925
1708435052.6350873,-2.14084792137146,-1.3333224666169663,-2.5269325415240687,6.108552205353536,1.0178108215332031,-2.5267816225634974
1708435052.6370914,-2.140845537185669,-1.3334059131196518,-2.526926581059591,6.108589875489034,1.0178031921386719,-2.52682334581484
1708435052.6390784,-2.1408286094665527,-1.3333843362382432,-2.526869599019186,6.108589875489034,1.017815113067627,-2.526715103779928
1708435052.641076,-2.140836477279663,-1.3333363992026825,-2.526890579854147,6.108576285630026,1.0177695751190186,-2.5267861525165003
1708435052.6430721,-2.140878438949585,-1.3334005039981385,-2.5268951098071497,6.108531224518575,1.017785906791687,-2.526757780705587
1708435052.6450505,-2.140815019607544,-1.3333725196174164,-2.5269041697131556,6.108594405442037,1.017786979675293,-2.5267282168017786
1708435052.647038,-2.140852451324463,-1.333339811568596,-2.526886049901144,6.108609187393942,1.0177826881408691,-2.5267816225634974
1708435052.649057,-2.140864849090576,-1.3333681237748642,-2.526890579854147,6.108573186188497,1.0178120136260986,-2.5267935434924524
1708435052.6510463,-2.14082407951355,-1.333363876943924,-2.526911799107687,6.1085641262824915,1.0177826881408691,-2.526818815861837
1708435052.653072,-2.14084792137146,-1.3333767664483567,-2.5268951098071497,6.10854326465682,1.017798900604248,-2.52682334581484
1708435052.6550534,-2.1408274173736572,-1.3333645325950165,-2.5268574396716517,6.1085853455360315,1.0177913904190063,-2.5267980734454554
1708435052.6570525,-2.140869379043579,-1.333352581863739,-2.5269401709186,6.108604657440939,1.0178031921386719,-2.5267980734454554
1708435052.6590593,-2.14083194732666,-1.3333842766335984,-2.526853148137228,6.108610737114706,1.0178031921386719,-2.5267534891711634
1708435052.6610339,-2.1408073902130127,-1.3333844107440491,-2.5268786589251917,6.108642208367147,1.0178076028823853,-2.5267728010760706
1708435052.6630583,-2.140841007232666,-1.3333843362382432,-2.526890579854147,6.108589875489034,1.017786979675293,-2.5267816225634974
1708435052.6650357,-2.140852451324463,-1.3333853495172043,-2.526890579854147,6.108570444374838,1.017798900604248,-2.5267980734454554
1708435052.6670659,-2.140864849090576,-1.3333354008248826,-2.526902739201681,6.108630049019613,1.0177913904190063,-2.5267861525165003
1708435052.6690485,-2.1408817768096924,-1.3333516281894227,-2.5268786589251917,6.108580815583029,1.017786979675293,-2.5267401377307337
1708435052.6710477,-2.1408612728118896,-1.3333559942296525,-2.526928249989645,6.108604657440939,1.017783522605896,-2.5267906824695032
1708435052.6730962,-2.140819787979126,-1.333290846352913,-2.5268951098071497,6.108656751900472,1.0177826881408691,-2.5267906824695032
1708435052.675044,-2.1408772468566895,-1.333303065305092,-2.5268951098071497,6.108637797623434,1.0177704095840454,-2.526787821446554
1708435052.6770651,-2.140852451324463,-1.3333638620427628,-2.5268741289721888,6.108642327576437,1.017786979675293,-2.526755158101217
1708435052.6790555,-2.140843391418457,-1.333311678176262,-2.526928249989645,6.108612048416891,1.017798900604248,-2.5267980734454554
1708435052.681044,-2.140836477279663,-1.3333020818284531,-2.526869837437765,6.108670341759481,1.0177669525146484,-2.526818815861837
1708435052.6831071,-2.140856981277466,-1.3333843362382432,-2.526923720036642,6.108624326973715,1.0177748203277588,-2.5267980734454554
1708435052.6850517,-2.1408908367156982,-1.3334048700383683,-2.526881519948141,6.108607518463888,1.0178031921386719,-2.526774231587545
1708435052.687057,-2.140810489654541,-1.3333559942296525,-2.5268877188311976,6.108661162644186,1.0177748203277588,-2.5267906824695032
1708435052.6890476,-2.140873908996582,-1.3333311390927811,-2.526898209248678,6.108652341156759,1.0177826881408691,-2.526835028325216
1708435052.691052,-2.1409225463867188,-1.3333972108415146,-2.5268831888781946,6.108687031060018,1.0178076028823853,-2.5267861525165003
1708435052.6930728,-2.1408908367156982,-1.3333887171796341,-2.5269084612475794,6.108655440598287,1.0178031921386719,-2.5267861525165003
1708435052.6950483,-2.1408817768096924,-1.3333516132882615,-2.5269492308246058,6.108709203987875,1.0178076028823853,-2.526774231587545
1708435052.6970625,-2.1408772468566895,-1.333347426061966,-2.526911799107687,6.108643281250753,1.0177748203277588,-2.5267327467547815
1708435052.6990614,-2.14084792137146,-1.3333235544017334,-2.526928249989645,6.1087002632911584,1.0178031921386719,-2.526774231587545
1708435052.701045,-2.1408772468566895,-1.3333681535771866,-2.5268951098071497,6.108676421433248,1.0177290439605713,-2.5267935434924524
1708435052.7030754,-2.1408863067626953,-1.333372489815094,-2.526911799107687,6.108671891480245,1.017786979675293,-2.52676231065859
1708435052.7050683,-2.140864849090576,-1.3333886873773118,-2.5268664995776575,6.108709203987875,1.0177748203277588,-2.526783053074972
1708435052.7070694,-2.1408863067626953,-1.3333559793284913,-2.526923720036642,6.108695614128866,1.0177792310714722,-2.5267282168017786
1708435052.7090623,-2.1408514976501465,-1.3333602261594315,-2.526856247578756,6.108677613526144,1.0177748203277588,-2.5267534891711634
1708435052.7110531,-2.140843391418457,-1.3333515983871003,-2.5268951098071497,6.1087002632911584,1.0178000926971436,-2.5267816225634974
1708435052.7131054,-2.140864849090576,-1.3333150011352082,-2.526919190083639,6.108737814217367,1.017749547958374,-2.5268142859088343
1708435052.715056,-2.1408603191375732,-1.3333311390927811,-2.5268831888781946,6.108688342362203,1.0177582502365112,-2.5267935434924524
1708435052.717083,-2.1409225463867188,-1.3333886575749894,-2.526886049901144,6.108682262688436,1.0178076028823853,-2.526778761540548
1708435052.7190526,-2.14084792137146,-1.3333278608373185,-2.5268996397601526,6.1087214825446985,1.0178120136260986,-2.5268142859088343
1708435052.721075,-2.1408727169036865,-1.3333473217538376,-2.5268831888781946,6.108757126122274,1.0178000926971436,-2.526835266743795
1708435052.7230628,-2.140906572341919,-1.3333559793284913,-2.526886049901144,6.108692753105917,1.0177913904190063,-2.52676231065859
1708435052.7250574,-2.1408817768096924,-1.3333516430905838,-2.5268951098071497,6.1087214825446985,1.0177748203277588,-2.5267861525165003
1708435052.7271054,-2.1408684253692627,-1.33335596442733,-2.526832167302267,6.108676421433248,1.0177792310714722,-2.526818815861837
1708435052.7290466,-2.1408932209014893,-1.3333638471416016,-2.5269325415240687,6.1086628315742395,1.017786979675293,-2.5267534891711634
1708435052.7310455,-2.1408727169036865,-1.3333681386760254,-2.5269208590136927,6.1087002632911584,1.0177958011627197,-2.5267654101001185
1708435052.7330685,-2.1408841609954834,-1.3333397668651124,-2.5268786589251917,6.108667480736532,1.0177452564239502,-2.526827637349264
1708435052.7350996,-2.1408817768096924,-1.3333809834769745,-2.5268619696246546,6.108658420830526,1.017798900604248,-2.5267816225634974
1708435052.737115,-2.1408772468566895,-1.3333473813584824,-2.5268412272082728,6.1086838124092,1.0177958011627197,-2.5267697016345423
1708435052.7390945,-2.1408798694610596,-1.3333559793284913,-2.5268996397601526,6.108691203385153,1.0177704095840454,-2.5267816225634974
1708435052.7410684,-2.1408841609954834,-1.3333602410605927,-2.526898209248678,6.108629691391744,1.0177626609802246,-2.5267980734454554
1708435052.7430835,-2.140838861465454,-1.3332988333753129,-2.526931111012594,6.108688342362203,1.0177958011627197,-2.5267489592181605
1708435052.7450447,-2.140904664993286,-1.333326832657196,-2.5269163290606897,6.108740794449606,1.0177826881408691,-2.526766602193014
1708435052.7470884,-2.1408638954162598,-1.3333473813584824,-2.526902739201681,6.108708011894979,1.0177792310714722,-2.5267906824695032
1708435052.7490551,-2.1408841609954834,-1.3333235842040558,-2.5269163290606897,6.108775245934286,1.0177913904190063,-2.5267372767077845
1708435052.7510443,-2.1408772468566895,-1.333330215220787,-2.5269041697131556,6.1087002632911584,1.0177792310714722,-2.526778523121969
1708435052.7530792,-2.140913486480713,-1.3333473366549988,-2.526919190083639,6.1086792824561975,1.017737627029419,-2.5267165342914026
1708435052.755076,-2.1408886909484863,-1.3332944524339219,-2.526919190083639,6.108688342362203,1.0178031921386719,-2.5267375151263636
1708435052.7570684,-2.1408727169036865,-1.3333887171796341,-2.526919190083639,6.108716952591696,1.017786979675293,-2.5267136732684534
1708435052.7590396,-2.1408841609954834,-1.3333681386760254,-2.526919190083639,6.108716952591696,1.017786979675293,-2.5267508665667933
1708435052.7610703,-2.1408798694610596,-1.3333758276752015,-2.526886049901144,6.108641969948568,1.017786979675293,-2.5267301241504114
1708435052.763051,-2.140904664993286,-1.333396242266037,-2.526914660130636,6.108725893288412,1.0177582502365112,-2.5267091433154505
1708435052.7650425,-2.1408638954162598,-1.3334257316640397,-2.526910130177633,6.108725893288412,1.0177748203277588,-2.5266898314105433
1708435052.7670503,-2.140900135040283,-1.3333843660405655,-2.526923720036642,6.108688342362203,1.0177333354949951,-2.52666145959963
1708435052.7690423,-2.140900135040283,-1.3333073568395157,-2.526923720036642,6.108730304032125,1.0177913904190063,-2.52669865289797
1708435052.7710683,-2.1409213542938232,-1.333372489815094,-2.5269325415240687,6.108736264496603,1.0177826881408691,-2.5266297499286097
1708435052.7730632,-2.1409125328063965,-1.3333767664483567,-2.526919190083639,6.108691203385153,1.017798900604248,-2.5265594164477747
1708435052.7750428,-2.1408886909484863,-1.3333483350327988,-2.526923720036642,6.108745205193319,1.0177538394927979,-2.52656060854067
1708435052.7770662,-2.1408798694610596,-1.3333515983871003,-2.5268951098071497,6.1087002632911584,1.0177748203277588,-2.526569668446676
1708435052.7790327,-2.1408867835998535,-1.3333473962596436,-2.526935640965597,6.108752715378561,1.017783522605896,-2.526557270680563
1708435052.7810316,-2.1408913135528564,-1.3333440583995362,-2.526919190083639,6.108740794449606,1.0177704095840454,-2.526524607335226
1708435052.7830567,-2.1409542560577393,-1.3333725196174164,-2.526928249989645,6.108761656075277,1.017749547958374,-2.5264738241778772
1708435052.7850451,-2.1409409046173096,-1.3333725047162552,-2.526902739201681,6.108727204590597,1.0177704095840454,-2.5264650026904505
1708435052.787074,-2.1409170627593994,-1.333372489815094,-2.526886049901144,6.108710753708639,1.0177913904190063,-2.526416842137472
1708435052.7890513,-2.1408753395080566,-1.3333353859237214,-2.526911799107687,6.108703481941976,1.0177748203277588,-2.5263264814959925
1708435052.791066,-2.1409406661987305,-1.3333106499961396,-2.526907269154684,6.108703481941976,1.0177958011627197,-2.526377026234762
1708435052.7931163,-2.140958547592163,-1.3333225709250947,-2.5268951098071497,6.108712422638693,1.0177661180496216,-2.52630860010256
1708435052.7950463,-2.140911340713501,-1.3333681386760254,-2.526902739201681,6.108712422638693,1.0178238153457642,-2.5263097921954554
1708435052.797076,-2.1409497261047363,-1.3333559793284913,-2.526911799107687,6.108752715378561,1.017798900604248,-2.5262330214129847
1708435052.7990563,-2.1409409046173096,-1.3333919805339356,-2.5269163290606897,6.10877941825942,1.0178076028823853,-2.5261507670031946
1708435052.801042,-2.1409451961517334,-1.3333843660405655,-2.526869837437765,6.108769404679098,1.0177913904190063,-2.5261479059802454
1708435052.8030643,-2.1409318447113037,-1.3333681684783478,-2.526902739201681,6.1088138697441,1.0177748203277588,-2.526120726262228
1708435052.8050299,-2.140974760055542,-1.333335430627205,-2.526923720036642,6.108780967980184,1.0178076028823853,-2.5260031859027308
1708435052.807079,-2.14094877243042,-1.3333876144937058,-2.526956621800558,6.108809220581808,1.0178076028823853,-2.5259764830218714
1708435052.8090637,-2.1409451961517334,-1.3333344918540497,-2.526910130177633,6.108809220581808,1.0177748203277588,-2.5258548895465296
1708435052.811055,-2.14094877243042,-1.3333559793284913,-2.526902739201681,6.108833539276876,1.0177783966064453,-2.525856320058004
1708435052.8130913,-2.140915870666504,-1.333404855137207,-2.526907269154684,6.10877941825942,1.0177661180496216,-2.5258167425738733
1708435052.815057,-2.140981674194336,-1.3333516132882615,-2.526910130177633,6.108862149506368,1.0177826881408691,-2.525691095982687
1708435052.8170717,-2.140970230102539,-1.3333551746657868,-2.526943031941549,6.1088576195533655,1.017786979675293,-2.525627915059225
1708435052.8190455,-2.1410064697265625,-1.333400548701622,-2.526931111012594,6.108869540482321,1.017798900604248,-2.525538746510641
1708435052.8210566,-2.1409354209899902,-1.3334287267974396,-2.526938501988546,6.108869540482321,1.0177946090698242,-2.525421682988302
1708435052.823074,-2.140927314758301,-1.3333843362382432,-2.5269506613360804,6.108883964806356,1.0178227424621582,-2.5253170172320765
1708435052.8250499,-2.1409566402435303,-1.3333681386760254,-2.5270209948169153,6.108876812248983,1.017798900604248,-2.5252042452441614
1708435052.8270607,-2.140915870666504,-1.3333834272674103,-2.5270076433764856,6.108883964806356,1.0178511142730713,-2.5251546541797083
1708435052.8290622,-2.1409354209899902,-1.3333596003106614,-2.5269792715655726,6.10887502410964,1.017815113067627,-2.5250049273120325
1708435052.831074,-2.141026735305786,-1.3333800596049805,-2.527052942906515,6.108953225403585,1.0178478956222534,-2.5249291102038782
1708435052.833111,-2.140965700149536,-1.3333757829717179,-2.526989523564474,6.108915555268087,1.0178108215332031,-2.524820868168966
1708435052.8350751,-2.1410176753997803,-1.3333875995925446,-2.527069393788473,6.1089244959648035,1.0177903175354004,-2.524729077016012
1708435052.8370693,-2.1409964561462402,-1.3333509725383301,-2.527060333882467,6.1089138863380334,1.0178436040878296,-2.5245776812182825
1708435052.8391259,-2.1410133838653564,-1.333396242266037,-2.527043883000509,6.108956086426534,1.0178031921386719,-2.52446419397463
1708435052.8410542,-2.1409964561462402,-1.333323599105217,-2.5270260016070765,6.108987319260397,1.0178642272949219,-2.5243211428271692
1708435052.8430786,-2.1409752368927,-1.3333725047162552,-2.527039353047506,6.108979928284445,1.0178314447402954,-2.5241718927966517
1708435052.8450477,-2.141029119491577,-1.3334372353604813,-2.527069393788473,6.109024631768026,1.017815113067627,-2.523999277745382
1708435052.8470676,-2.1410043239593506,-1.3333473366549988,-2.526994053517477,6.109027850418844,1.0178349018096924,-2.523895327244894
1708435052.8490734,-2.1410176753997803,-1.3333387535861512,-2.526994053517477,6.10902630069808,1.017842411994934,-2.523717228566305
1708435052.8510594,-2.1410133838653564,-1.3333311390927811,-2.5270512739764612,6.109035241394796,1.0178710222244263,-2.523581568394796
1708435052.8530622,-2.1410157680511475,-1.3334049445441742,-2.527069393788473,6.10906075218276,1.0178546905517578,-2.5233925024615687
1708435052.8550382,-2.14103627204895,-1.3333800596049805,-2.527039353047506,6.1090725539024255,1.017842411994934,-2.523244921361105
1708435052.8570514,-2.1410202980041504,-1.3333301854184647,-2.527057472859518,6.109075772553243,1.0179200172424316,-2.523093048726217
1708435052.8590412,-2.141029119491577,-1.333400548701622,-2.527052942906515,6.109059083252706,1.0178546905517578,-2.5229011217700403
1708435052.8610342,-2.1410088539123535,-1.3333430153182526,-2.5270360151873987,6.1090667126472376,1.0179188251495361,-2.5227001349078577
1708435052.863034,-2.1410655975341797,-1.3334170293859025,-2.527026955281393,6.109115588455953,1.0179142951965332,-2.5225406328784388
1708435052.8650434,-2.1410610675811768,-1.3333596152118226,-2.526989523564474,6.109177100449362,1.0179357528686523,-2.522332016621725
1708435052.8670902,-2.1410744190216064,-1.3334286224893113,-2.526984993611471,6.109133708267965,1.0179681777954102,-2.5221360365497034
1708435052.8690498,-2.1410768032073975,-1.3333757680705567,-2.527085844670431,6.109180438309469,1.0179188251495361,-2.521926228200094
1708435052.8710287,-2.1410274505615234,-1.333408461218216,-2.527072254811422,6.10916684845046,1.0179519653320312,-2.521775786076681
1708435052.873045,-2.1410892009735107,-1.3334170591882248,-2.527085844670431,6.109169828682699,1.0179312229156494,-2.521500889454977
1708435052.875072,-2.1410679817199707,-1.3333999675563355,-2.5270360151873987,6.10925184467391,1.0179345607757568,-2.5212817827807825
1708435052.8770869,-2.141108512878418,-1.3333919805339356,-2.527072254811422,6.109260785370626,1.0179431438446045,-2.5210283438311976
1708435052.8790681,-2.14103627204895,-1.3333919805339356,-2.5270348230945032,6.109287965088644,1.0179431438446045,-2.5207915941821497
1708435052.8810472,-2.14108943939209,-1.3333552789739151,-2.5270348230945032,6.109321105271139,1.0179519653320312,-2.5205350557910364
1708435052.883067,-2.1411173343658447,-1.3334072989276429,-2.527026955281393,6.10928629615859,1.017956256866455,-2.520303551350729
1708435052.8850691,-2.1411173343658447,-1.3334085059216996,-2.526989523564474,6.109342801361837,1.0179593563079834,-2.5200138727771204
1708435052.887071,-2.1411290168762207,-1.3333630424788971,-2.527017895375387,6.109342801361837,1.0179712772369385,-2.519696299229757
1708435052.8890333,-2.1411333084106445,-1.3334362667850037,-2.527052942906515,6.109322058945455,1.0179550647735596,-2.519481960927145
1708435052.891046,-2.141115665435791,-1.3334127527526398,-2.527026955281393,6.10933397987441,1.0179388523101807,-2.5191808382617396
1708435052.8930912,-2.14115834236145,-1.3333672297051926,-2.527052942906515,6.109407532006063,1.0179625749588013,-2.518834416066305
1708435052.8950527,-2.1411020755767822,-1.3334481430104752,-2.527076784764425,6.109369981079855,1.017991065979004,-2.5185349623309534
1708435052.8970697,-2.141122579574585,-1.3334041398814698,-2.5270677248584192,6.109476077347555,1.0179953575134277,-2.5182047525988978
1708435052.8990455,-2.1411564350128174,-1.33341999471698,-2.5270631949054163,6.109462487488546,1.017974853515625,-2.5179017225848597
1708435052.9010398,-2.1411359310150146,-1.3334568750909348,-2.5270348230945032,6.109458195954122,1.0179625749588013,-2.5176005999194544
1708435052.9030855,-2.141131639480591,-1.3334243607572098,-2.527072254811422,6.109495627671041,1.018003225326538,-2.5172813574420374
1708435052.9050407,-2.1411845684051514,-1.3334689450315018,-2.5270090738879603,6.1094446060951135,1.0180360078811646,-2.516980234776632
1708435052.9070888,-2.1411430835723877,-1.3334808957627793,-2.5270512739764612,6.109489667206564,1.0180273056030273,-2.516697708760397
1708435052.9090548,-2.141127109527588,-1.3333834421685715,-2.5270376841174524,6.109579074173727,1.0179822444915771,-2.516338888798849
1708435052.911047,-2.141188144683838,-1.333488554959633,-2.5270586649524134,6.109558212548055,1.0179779529571533,-2.5159946123706263
1708435052.9130998,-2.1412289142608643,-1.3334637445262452,-2.5270512739764612,6.109586822777548,1.0179780721664429,-2.5156200567828577
1708435052.915054,-2.1412038803100586,-1.333443285231926,-2.5270751158343714,6.109573352127828,1.0180273056030273,-2.5152316729175013
1708435052.9170666,-2.1412041187286377,-1.333439664249756,-2.527076784764425,6.1096123335655115,1.018068552017212,-2.514965359364645
1708435052.919044,-2.141162395477295,-1.3334799271873017,-2.527093235646383,6.109640586167135,1.0180764198303223,-2.5145915190326136
1708435052.921087,-2.1412065029144287,-1.3334637445262452,-2.5270214716540735,6.109661567002096,1.0180273056030273,-2.5142813364612024
1708435052.923042,-2.1412696838378906,-1.3334875863841553,-2.5270512739764612,6.109643566399374,1.0180467367172241,-2.513813082371847
1708435052.9250605,-2.141244888305664,-1.3335041564754029,-2.5270586649524134,6.1097168801124475,1.0180467367172241,-2.5134697596179407
1708435052.9270666,-2.1412065029144287,-1.333508388405182,-2.5271080175982874,6.109704959183492,1.0180511474609375,-2.5130577723132532
1708435052.9290597,-2.141249418258667,-1.3335041564754029,-2.5271006266223353,6.1097242710884,1.0180187225341797,-2.512721125279562
1708435052.9310372,-2.141233444213867,-1.333564506178238,-2.5271080175982874,6.109739529877462,1.0180110931396484,-2.5123286882983606
1708435052.933046,-2.141193151473999,-1.3335395467332383,-2.5270870367633265,6.109789955406942,1.0180885791778564,-2.511906687413351
1708435052.93505,-2.141256093978882,-1.333502860074379,-2.5271320978747767,6.109746920853414,1.0180305242538452,-2.511514488850729
1708435052.9370825,-2.141268491744995,-1.3335222911885758,-2.5270615259753626,6.109801757126608,1.0180633068084717,-2.511111084614889
1708435052.939091,-2.1412551403045654,-1.3335517805865784,-2.5270586649524134,6.109809624939718,1.018112301826477,-2.510688606892721
1708435052.9410384,-2.1412675380706787,-1.3335147064975281,-2.5270631949054163,6.109839546471395,1.018071174621582,-2.5102830568896692
1708435052.9430583,-2.1412994861602783,-1.3335309338620682,-2.5270496050464075,6.109890329628744,1.018071174621582,-2.509845797215597
1708435052.9450402,-2.1412949562072754,-1.3335190874389191,-2.5270631949054163,6.109881269722738,1.0181201696395874,-2.509474579487936
1708435052.947042,-2.1413207054138184,-1.333567963247635,-2.5270376841174524,6.1098588583763025,1.018099308013916,-2.5090611616717737
1708435052.9490683,-2.1412904262542725,-1.3335806888392945,-2.5270960966693323,6.109903561859884,1.0181114673614502,-2.508623186741964
1708435052.9510405,-2.141310930252075,-1.333530918960907,-2.5271080175982874,6.1098917601402185,1.018099308013916,-2.5081706682788294
1708435052.9530687,-2.141315221786499,-1.3335550886443635,-2.5270498434649866,6.109920012741842,1.0181277990341187,-2.5077839533435267
1708435052.955037,-2.141326665878296,-1.3335920435241242,-2.5270331541644495,6.109953152924337,1.018127679824829,-2.507345739995138
1708435052.9570715,-2.141319751739502,-1.3335878413966675,-2.5271006266223353,6.109980094223776,1.0181158781051636,-2.5068770090686243
1708435052.9590545,-2.141324281692505,-1.3335920733264466,-2.5270586649524134,6.109980094223776,1.0181190967559814,-2.50647741953005
1708435052.961052,-2.141364812850952,-1.3335345697453995,-2.5270989576922815,6.11005328872756,1.0181396007537842,-2.5060117880450647
1708435052.9630766,-2.141343593597412,-1.3335877519897004,-2.5270944277392786,6.109999167710104,1.0181353092193604,-2.505542818699972
1708435052.9650712,-2.141383409500122,-1.3336050820401688,-2.5270751158343714,6.110044109612264,1.0181102752685547,-2.505131546651022
1708435052.9670725,-2.1413514614105225,-1.3336125624230881,-2.5270944277392786,6.110068309098043,1.018130898475647,-2.5047073999988
1708435052.9690456,-2.1413514614105225,-1.3335878115943451,-2.5271320978747767,6.110071289330282,1.0181430578231812,-2.5041800181018274
1708435052.9710686,-2.1413967609405518,-1.3335953515819092,-2.5270989576922815,6.110062229424276,1.0181474685668945,-2.5037687460528772
1708435052.9730926,-2.1413629055023193,-1.3335583818009873,-2.5271111170398157,6.110132324486532,1.0182130336761475,-2.5033448378192347
1708435052.9750664,-2.1413912773132324,-1.3335464757731934,-2.52710205713381,6.110144245415487,1.0181877613067627,-2.502845827733175
1708435052.9770684,-2.1413538455963135,-1.3336125028184433,-2.5270660559283655,6.110166775971212,1.01816725730896,-2.5024142901050013
1708435052.97905,-2.141374349594116,-1.333608241086342,-2.5271156469928187,6.110133635788717,1.0181834697723389,-2.50193697610964
1708435052.9810393,-2.1414241790771484,-1.333592028622963,-2.527172629033224,6.110220896988668,1.0181758403778076,-2.5014434496508997
1708435052.9830837,-2.141378879547119,-1.333587796693184,-2.527130667363302,6.11019395568923,1.0182205438613892,-2.5010080973254603
1708435052.985028,-2.1413822174072266,-1.3336360317519684,-2.527160708104269,6.110218989640035,1.0181834697723389,-2.500507179890768
1708435052.9870336,-2.1413912773132324,-1.3336361360600968,-2.527139727269308,6.110256540566244,1.0181715488433838,-2.500037972127096
1708435052.9890633,-2.141432046890259,-1.3335749071887513,-2.527118508015768,6.11025499084548,1.018211841583252,-2.4995408693896692
1708435052.9910371,-2.1414647102355957,-1.333627389078476,-2.527172629033224,6.110266911774435,1.01816725730896,-2.4990881125079554
1708435052.9930599,-2.141427516937256,-1.3336244237473984,-2.527156178151266,6.1102263806159876,1.0182043313980103,-2.4986406008349817
1708435052.9950542,-2.141427516937256,-1.3335868877223511,-2.527151648198263,6.110311972885885,1.0181834697723389,-2.498155180607931
1708435052.9970572,-2.141390323638916,-1.3336526167443772,-2.5271170775042933,6.110294091492452,1.0182162523269653,-2.497702662144796
1708435052.999055,-2.1414601802825928,-1.3336072725108643,-2.527154509221212,6.110352146416464,1.0181628465652466,-2.4972203413592737
1708435053.001043,-2.141446828842163,-1.3336311292699357,-2.527138058339254,6.110376107483663,1.0182075500488281,-2.4967811743365687
1708435053.0031083,-2.141418695449829,-1.3335584265044709,-2.527130667363302,6.1103460667426965,1.0181913375854492,-2.4963939825641077
1708435053.0050642,-2.141475200653076,-1.3336274337819596,-2.527151648198263,6.110418069153585,1.0182075500488281,-2.495892588292257
1708435053.0070674,-2.141484022140503,-1.3336274188807984,-2.527180020009176,6.11039565780715,1.018232822418213,-2.4954312483416956
1708435053.0090494,-2.141510486602783,-1.3335910898498078,-2.5271876494037073,6.1103625176246545,1.018211841583252,-2.4950273672686976
1708435053.0110478,-2.1414830684661865,-1.3335945171168824,-2.527151648198263,6.1103625176246545,1.0182732343673706,-2.494542423878805
1708435053.0130627,-2.141453981399536,-1.333581568007805,-2.527154509221212,6.110379206925192,1.0182154178619385,-2.4941094557391565
1708435053.01505,-2.1414990425109863,-1.33360310018573,-2.5271921793567103,6.110370266228475,1.018198847770691,-2.4936404863940638
1708435053.0171003,-2.1414990425109863,-1.3336060357144852,-2.527175490056173,6.1103776572044275,1.0182031393051147,-2.4932480494128626
1708435053.0190537,-2.1415035724639893,-1.3336030852845688,-2.527180020009176,6.110413777619161,1.018227219581604,-2.4927781263934534
1708435053.0210452,-2.141515016555786,-1.3336231422475358,-2.52717096010317,6.110401379853048,1.0182437896728516,-2.4923508802997034
1708435053.0230813,-2.1414990425109863,-1.333553524022438,-2.5271664301501673,6.110441672592916,1.0182437896728516,-2.491889540349142
1708435053.0250485,-2.1415317058563232,-1.3336473119309922,-2.527154509221212,6.1104986546333215,1.0182687044143677,-2.491411272679464
1708435053.0270722,-2.141571521759033,-1.3336145889810105,-2.527142588292257,6.11043261268691,1.0182762145996094,-2.4909964243518274
1708435053.029076,-2.1415016651153564,-1.3336274337819596,-2.527175490056173,6.110473263054647,1.0182186365127563,-2.490530316029684
1708435053.031069,-2.1415441036224365,-1.3336189550212403,-2.5271876494037073,6.110571729927816,1.0182229280471802,-2.49011475244631
1708435053.0330784,-2.1415014266967773,-1.3336635541966935,-2.5271499792682093,6.110527264862814,1.018227219581604,-2.4896977583514612
1708435053.0350525,-2.1415183544158936,-1.333635465507843,-2.5271664301501673,6.1105228541191,1.0182925462722778,-2.4892893473254603
1708435053.0371027,-2.1415059566497803,-1.3336146187833329,-2.5272088686572474,6.110504853516378,1.0182719230651855,-2.4888609091388147
1708435053.0390813,-2.1415581703186035,-1.3336439591697236,-2.527154509221212,6.110591161042013,1.0182600021362305,-2.4884515444384974
1708435053.0410798,-2.141530752182007,-1.333659217958786,-2.5272088686572474,6.110579359322347,1.0182719230651855,-2.487969938908712
1708435053.0430949,-2.1415555477142334,-1.3336796772531052,-2.527175490056173,6.110615479737081,1.0182644128799438,-2.4874756971942347
1708435053.0450609,-2.1415882110595703,-1.3336268824389954,-2.5271785894977015,6.110556947975912,1.018273115158081,-2.4871061483966272
1708435053.0470674,-2.1415669918060303,-1.333626852636673,-2.5271831194507044,6.110589730530538,1.0182394981384277,-2.4866719881640833
1708435053.0490832,-2.1415512561798096,-1.3336834025434037,-2.5271876494037073,6.110615479737081,1.0182850360870361,-2.486267868672506
1708435053.0510466,-2.141570568084717,-1.3336796921542664,-2.5271831194507044,6.11065565326766,1.0182514190673828,-2.485875193272726
1708435053.0530748,-2.1415445804595947,-1.3336060655168076,-2.5272446314441126,6.110606419831075,1.018248200416565,-2.4854429403888147
1708435053.055047,-2.1415491104125977,-1.333708108668663,-2.527175490056173,6.110634672432699,1.018235206604004,-2.4850223700152796
1708435053.0570645,-2.1415750980377197,-1.3336634945920487,-2.5271998087512415,6.110646593361654,1.0182394981384277,-2.4846420923816126
1708435053.0590684,-2.141615629196167,-1.3336344969323655,-2.5271785894977015,6.110652434616842,1.0182220935821533,-2.4842453638659876
1708435053.0610776,-2.1415491104125977,-1.3336797219565888,-2.5271921793567103,6.11070333698348,1.0182394981384277,-2.4838817755328577
1708435053.0630655,-2.1415855884552,-1.3336549264243622,-2.5271831194507044,6.110642182617941,1.018263339996338,-2.483459774647848
1708435053.0650892,-2.141540288925171,-1.3337081682733078,-2.5272071997271937,6.110677945404806,1.0182838439941406,-2.483100477849142
1708435053.067103,-2.141594409942627,-1.3337005388787766,-2.5271831194507044,6.110656964569845,1.0182676315307617,-2.4827893416034144
1708435053.069087,-2.1416237354278564,-1.3336060655168076,-2.52717096010317,6.110652434616842,1.0183169841766357,-2.4824300448047083
1708435053.071062,-2.1416192054748535,-1.3336258989623566,-2.5271619001971644,6.110703217774191,1.0182676315307617,-2.482032124196188
1708435053.0730987,-2.14162015914917,-1.333659217958786,-2.5272446314441126,6.110627400666036,1.0182925462722778,-2.4816177527057093
1708435053.0750554,-2.141655445098877,-1.333690957432129,-2.5271831194507044,6.110643493920126,1.0182925462722778,-2.4812899271594446
1708435053.077072,-2.1415979862213135,-1.3337080937675019,-2.5271499792682093,6.110677945404806,1.0182470083236694,-2.4809187094317835
1708435053.079077,-2.1416022777557373,-1.33367112398658,-2.5271664301501673,6.110692965775289,1.0182881355285645,-2.4806271235095423
1708435053.0810757,-2.1416022777557373,-1.3336496663144608,-2.5272207895862024,6.110688555031576,1.0182514190673828,-2.480191771184103
1708435053.0831132,-2.1416218280792236,-1.3336463284543534,-2.5271695295916956,6.1107228873069666,1.0182437896728516,-2.4798806349383753
1708435053.0850525,-2.1416103839874268,-1.3336635541966935,-2.527180020009176,6.110664355545797,1.0182545185089111,-2.47947866121401
1708435053.0870721,-2.1416306495666504,-1.3336747598699112,-2.5271831194507044,6.110709416657247,1.0182838439941406,-2.4791796843158167
1708435053.0890434,-2.1415934562683105,-1.3336790365031739,-2.5271619001971644,6.11067949512557,1.0182750225067139,-2.478813711796896
1708435053.0910513,-2.1416306495666504,-1.3336833876422425,-2.5272071997271937,6.110775339394369,1.0182719230651855,-2.4784205595599573
1708435053.0930464,-2.141605854034424,-1.3336506944945832,-2.5271998087512415,6.11075125911788,1.0182470083236694,-2.4780927340136927
1708435053.095039,-2.1416633129119873,-1.3336139631322403,-2.5271619001971644,6.110691416054525,1.0182676315307617,-2.4777899424182337
1708435053.0970483,-2.1416590213775635,-1.3336952191642304,-2.5271335283862513,6.11067961433486,1.018235206604004,-2.4774039427386683
1708435053.0990522,-2.1416633129119873,-1.3336866957000275,-2.527154509221212,6.110700475960531,1.018247127532959,-2.477075163518087
1708435053.101046,-2.1416633129119873,-1.3336790365031739,-2.5271831194507044,6.1107332585151575,1.0182881355285645,-2.4767962137805384
1708435053.1030834,-2.1416714191436768,-1.3336463284543534,-2.527159039174215,6.110758888512411,1.018263339996338,-2.4764226118670862
1708435053.1050491,-2.1416919231414795,-1.3336463284543534,-2.5272207895862024,6.110806572228231,1.018288254737854,-2.476074520741598
1708435053.1070821,-2.1416261196136475,-1.3336668771556397,-2.5271998087512415,6.110745417862692,1.0182557106018066,-2.475717369710104
1708435053.1090837,-2.1416499614715576,-1.3336711388877411,-2.5271907488452356,6.110799181252279,1.01823091506958,-2.4754050413714808
1708435053.1110718,-2.1416375637054443,-1.3336378049901505,-2.5271664301501673,6.110778200417318,1.018296480178833,-2.4750478903399866
1708435053.1130884,-2.1416172981262207,-1.3336704683354874,-2.5271740595446985,6.110806572228231,1.0182719230651855,-2.4747117201434534
1708435053.1150827,-2.1416633129119873,-1.3336704832366486,-2.5271907488452356,6.1108364937599084,1.0182795524597168,-2.474407736455099
1708435053.1170805,-2.1416714191436768,-1.3336952489665528,-2.5271740595446985,6.110802042275228,1.018235206604004,-2.4740384260760706
1708435053.1190517,-2.1416261196136475,-1.3336711388877411,-2.527175490056173,6.110797512322225,1.018235206604004,-2.47374397913088
1708435053.1210487,-2.1416757106781006,-1.333653987651207,-2.5272043387042444,6.110773789673605,1.018247127532959,-2.473405901585714
1708435053.1230617,-2.1416375637054443,-1.3337201339057465,-2.5271664301501673,6.110698807030477,1.0183093547821045,-2.473130528126852
1708435053.1250484,-2.1416499614715576,-1.333732010131218,-2.5272162596331995,6.110749947815695,1.0182514190673828,-2.472727362309591
