Eg3-git/Classifiers/Data Collection/u2/u2cir3_ur3e_joint_states.csv
time,elbow_joint,shoulder_lift_joint,shoulder_pan_joint,wrist_1_joint,wrist_2_joint,wrist_3_joint
1708434997.5529814,-2.1419053077697754,-1.3338539463332673,-2.5274797121631067,6.111585485726156,1.018763542175293,-2.2255309263812464
1708434997.5549867,-2.141909599304199,-1.3338671934655686,-2.527454678212301,6.111533510475912,1.0188010931015015,-2.2254770437823694
1708434997.5569715,-2.1418850421905518,-1.3338628125241776,-2.52747089067568,6.111570346146383,1.0188179016113281,-2.2255175749408167
1708434997.558981,-2.1419310569763184,-1.333818258052208,-2.52751595178713,6.111610758095541,1.0187803506851196,-2.2255333105670374
1708434997.5609725,-2.141849994659424,-1.3338791292956849,-2.5275517145739954,6.111577737122335,1.0188044309616089,-2.2255423704730433
1708434997.5629752,-2.1418895721435547,-1.3338583272746583,-2.5274909178363245,6.111549603730001,1.0187997817993164,-2.2255590597735804
1708434997.5649886,-2.1419177055358887,-1.3337930899909516,-2.5275190512286585,6.1116078970725916,1.018870234489441,-2.2254813353167933
1708434997.5669672,-2.141909599304199,-1.3338835400393982,-2.5275636355029505,6.11162422874526,1.018795371055603,-2.2255175749408167
1708434997.569011,-2.1419219970703125,-1.3338539463332673,-2.527522150670187,6.1115912077720544,1.0187876224517822,-2.225562397633688
1708434997.570973,-2.1418445110321045,-1.3337930899909516,-2.5275352636920374,6.111606347351827,1.0188419818878174,-2.225574318562643
1708434997.5730138,-2.1419010162353516,-1.333871529703476,-2.5275309721576136,6.111615288048544,1.0188298225402832,-2.225541416798727
1708434997.5750015,-2.141909599304199,-1.3338791292956849,-2.527468983327047,6.111612188607015,1.0188465118408203,-2.2255290190326136
1708434997.5769835,-2.141873598098755,-1.3338548702052613,-2.527538601552145,6.111577737122335,1.0188133716583252,-2.225508515034811
1708434997.5790129,-2.141935110092163,-1.3338628125241776,-2.527505938206808,6.111603367119589,1.018811821937561,-2.2255333105670374
1708434997.5809767,-2.1418850421905518,-1.3338253659060975,-2.5275591055499476,6.111598956375875,1.0187921524047852,-2.225553337727682
1708434997.582994,-2.141873598098755,-1.3338583272746583,-2.5275428930865687,6.111619818001547,1.0187712907791138,-2.2255504767047327
1708434997.5849903,-2.1418535709381104,-1.333871529703476,-2.5275309721576136,6.111548054009237,1.018796682357788,-2.2255247274981897
1708434997.5869615,-2.1419310569763184,-1.3338954609683533,-2.5275800863849085,6.111577737122335,1.0188251733779907,-2.225541416798727
1708434997.589006,-2.1419010162353516,-1.3338583272746583,-2.5275471846209925,6.11156593540267,1.018778681755066,-2.22559100786318
1708434997.5909865,-2.1418938636779785,-1.3338583272746583,-2.5275471846209925,6.111615288048544,1.0188285112380981,-2.2255786100970667
1708434997.592985,-2.141935110092163,-1.3338298511556168,-2.527538601552145,6.111598956375875,1.0188298225402832,-2.2255237738238733
1708434997.5950034,-2.141878128051758,-1.3338093620589753,-2.5275309721576136,6.111582267075338,1.0188207626342773,-2.225574318562643
1708434997.5969641,-2.141902446746826,-1.333834246998169,-2.5274863878833216,6.111598956375875,1.01884925365448,-2.225510899220602
1708434997.5989833,-2.141918420791626,-1.3338672083667298,-2.5275636355029505,6.111570346146383,1.0188567638397217,-2.22561484972109
1708434997.6010149,-2.141869068145752,-1.3338583272746583,-2.5275233427630823,6.111594426422872,1.0188404321670532,-2.2255776564227503
1708434997.6030369,-2.141866683959961,-1.333828480248787,-2.5275028387652796,6.111673819809713,1.0188448429107666,-2.225532356892721
1708434997.6049848,-2.1418938636779785,-1.333834246998169,-2.5275352636920374,6.111603367119589,1.0188655853271484,-2.2255733648883265
1708434997.6070018,-2.141869068145752,-1.3338592809489747,-2.5275352636920374,6.111577737122335,1.0188285112380981,-2.225549046193258
1708434997.6089776,-2.141873598098755,-1.3338253659060975,-2.5275505224811,6.111586797028341,1.0188477039337158,-2.2255776564227503
1708434997.6109784,-2.14192271232605,-1.333846167927124,-2.5275266806231897,6.111561405449667,1.018890142440796,-2.225560967122213
1708434997.6130052,-2.1418893337249756,-1.3338583272746583,-2.52748948732485,6.111574756890096,1.0188404321670532,-2.2256224791156214
1708434997.6149807,-2.1418981552124023,-1.3338138622096558,-2.527505938206808,6.111561286240377,1.018861174583435,-2.2255733648883265
1708434997.6170406,-2.141866683959961,-1.3338746291450043,-2.5275636355029505,6.111610758095541,1.0188404321670532,-2.225593392048971
1708434997.6190178,-2.141918420791626,-1.333846167927124,-2.5275517145739954,6.111615407257833,1.01888108253479,-2.225581947957174
1708434997.6209543,-2.141862392425537,-1.3338746440461655,-2.5275190512286585,6.111536013870992,1.0188730955123901,-2.2256014982806605
1708434997.622993,-2.1418824195861816,-1.3338253659060975,-2.5275517145739954,6.111556875496664,1.0189228057861328,-2.225626770650045
1708434997.624973,-2.1418535709381104,-1.3338505637696763,-2.5275102297412317,6.11156593540267,1.0188990831375122,-2.225631062184469
1708434997.6270247,-2.1418867111206055,-1.3338583272746583,-2.5275517145739954,6.111594426422872,1.0188730955123901,-2.225553337727682
1708434997.6290033,-2.141873598098755,-1.3338672083667298,-2.5275309721576136,6.11164818981246,1.018843173980713,-2.225581947957174
1708434997.6309783,-2.141878128051758,-1.3338094067624588,-2.5275428930865687,6.111570346146383,1.0188567638397217,-2.225549046193258
1708434997.6330023,-2.141918420791626,-1.3338583272746583,-2.527576748524801,6.1116182682807825,1.0189229249954224,-2.2255476156817835
1708434997.6349556,-2.1418824195861816,-1.3338505637696763,-2.5275591055499476,6.1115866778190515,1.0188477039337158,-2.2255356947528284
1708434997.63699,-2.141862392425537,-1.3338835400393982,-2.5275309721576136,6.111516821175375,1.0189049243927002,-2.2255776564227503
1708434997.6389658,-2.1418535709381104,-1.3338628125241776,-2.5275471846209925,6.111573326378622,1.0188857316970825,-2.225523296986715
1708434997.6409602,-2.141862392425537,-1.333793045287468,-2.5275428930865687,6.111577737122335,1.0188885927200317,-2.225544277821676
1708434997.6429706,-2.1418964862823486,-1.3338253659060975,-2.52748948732485,6.111568796425619,1.0188974142074585,-2.2255309263812464
1708434997.6449907,-2.1418709754943848,-1.3338671934655686,-2.527517859135763,6.111582267075338,1.0189049243927002,-2.225593392048971
1708434997.6469948,-2.141909599304199,-1.333841697578766,-2.5275560061084192,6.111585485726156,1.0189049243927002,-2.225593392048971
1708434997.6490242,-2.14192271232605,-1.3338505637696763,-2.5275309721576136,6.111615288048544,1.0189212560653687,-2.2256067434894007
1708434997.6509748,-2.141878128051758,-1.3338583272746583,-2.5275636355029505,6.111586797028341,1.0188974142074585,-2.225581947957174
1708434997.6530266,-2.1419053077697754,-1.3338429492763062,-2.527517859135763,6.111615407257833,1.0188223123550415,-2.225560967122213
1708434997.6549766,-2.1419053077697754,-1.3338790994933625,-2.5275679270373743,6.111573326378622,1.0189138650894165,-2.225593392048971
1708434997.6569989,-2.141911506652832,-1.3338166189244767,-2.527538601552145,6.111577737122335,1.0188885927200317,-2.2255733648883265
1708434997.6590009,-2.141914129257202,-1.3338628125241776,-2.5275190512286585,6.111581074982443,1.0188640356063843,-2.2256177107440394
1708434997.6609633,-2.141873598098755,-1.333850548868515,-2.5275922457324427,6.111627208977499,1.0188930034637451,-2.2256105581866663
1708434997.662974,-2.1418938636779785,-1.333818258052208,-2.527501646672384,6.111540543823995,1.0188840627670288,-2.225626770650045
1708434997.6650047,-2.1418981552124023,-1.333834246998169,-2.5275679270373743,6.111573326378622,1.0188930034637451,-2.2255972067462366
1708434997.6669855,-2.1418867111206055,-1.3338253808072587,-2.527501408253805,6.111573207169332,1.0189093351364136,-2.225626770650045
1708434997.66898,-2.1419520378112793,-1.3338298064521332,-2.527501408253805,6.111610758095541,1.0188930034637451,-2.2255685965167444
1708434997.670963,-2.141909599304199,-1.3338702482036133,-2.5275264422046106,6.111590015679159,1.0188640356063843,-2.2256224791156214
1708434997.6730292,-2.141849994659424,-1.3337961745313187,-2.527522150670187,6.1116078970725916,1.0189093351364136,-2.2255924383746546
1708434997.6750212,-2.141873598098755,-1.333793045287468,-2.527477566395895,6.11155246475295,1.0188930034637451,-2.2256224791156214
1708434997.676989,-2.1419310569763184,-1.333853931432106,-2.527505938206808,6.111606347351827,1.018859624862671,-2.2255757490741175
1708434997.6790469,-2.1418709754943848,-1.333793045287468,-2.5275548140155237,6.111627208977499,1.0189212560653687,-2.2255776564227503
1708434997.681059,-2.141875982284546,-1.333842934375145,-2.5275428930865687,6.111577737122335,1.0188721418380737,-2.2256057898150843
1708434997.6830308,-2.1419265270233154,-1.3338627976230164,-2.527505938206808,6.111597406655111,1.0189094543457031,-2.2255385557757776
1708434997.6849766,-2.141866683959961,-1.333793045287468,-2.5275352636920374,6.111540543823995,1.0189049243927002,-2.2256463209735315
1708434997.686998,-2.1418910026550293,-1.333853931432106,-2.5275636355029505,6.111585485726156,1.0188930034637451,-2.2255776564227503
1708434997.6890278,-2.141873598098755,-1.3337808859399338,-2.5275636355029505,6.11156581619338,1.0188721418380737,-2.2256224791156214
1708434997.69098,-2.141849994659424,-1.3338182431510468,-2.5275428930865687,6.111594426422872,1.0188721418380737,-2.2255924383746546
1708434997.6930177,-2.1419389247894287,-1.3338628125241776,-2.5275266806231897,6.111628639488973,1.0188974142074585,-2.225589100514547
1708434997.6950104,-2.141914129257202,-1.3338583272746583,-2.527505938206808,6.111603367119589,1.0189049243927002,-2.225626770650045
1708434997.697006,-2.14192271232605,-1.3338298362544556,-2.5275428930865687,6.111581074982443,1.0188884735107422,-2.2256014982806605
1708434997.699016,-2.1418938636779785,-1.3338878464749833,-2.5275102297412317,6.111639129906454,1.0188840627670288,-2.2256296316729944
1708434997.7009552,-2.1419308185577393,-1.3339072477868577,-2.5275352636920374,6.111556875496664,1.0189424753189087,-2.2256134192096155
1708434997.7030218,-2.1418938636779785,-1.3337808859399338,-2.5275309721576136,6.111610758095541,1.01888108253479,-2.2256014982806605
1708434997.705002,-2.1418824195861816,-1.3338253659060975,-2.5275147596942347,6.111598956375875,1.0189138650894165,-2.2256134192096155
1708434997.70701,-2.141836643218994,-1.3338921827128907,-2.5275591055499476,6.111646878510275,1.0189138650894165,-2.2256091276751917
1708434997.7089772,-2.141836643218994,-1.3338672083667298,-2.5275548140155237,6.111594426422872,1.0189093351364136,-2.2255685965167444
1708434997.7109563,-2.141873598098755,-1.3338253659060975,-2.5275264422046106,6.111590015679159,1.0188721418380737,-2.225654904042379
1708434997.712983,-2.141878128051758,-1.3338548702052613,-2.5275679270373743,6.111597406655111,1.0189093351364136,-2.2256134192096155
1708434997.7149692,-2.141939640045166,-1.3338671934655686,-2.527522150670187,6.111672270088949,1.0188632011413574,-2.2256057898150843
1708434997.7169771,-2.141869306564331,-1.3338583272746583,-2.5275266806231897,6.111625659256735,1.0188885927200317,-2.2255800406085413
1708434997.7190192,-2.1418893337249756,-1.333797575240471,-2.5275102297412317,6.111663329392233,1.0188766717910767,-2.2256134192096155
1708434997.720975,-2.141878128051758,-1.333871529703476,-2.527501408253805,6.111597406655111,1.0189049243927002,-2.225611988698141
1708434997.7230039,-2.1419053077697754,-1.3338583272746583,-2.5275309721576136,6.111601936608114,1.0189049243927002,-2.2256091276751917
1708434997.724985,-2.141906976699829,-1.3338451248458405,-2.5275591055499476,6.111590015679159,1.0189005136489868,-2.2256177107440394
1708434997.7269974,-2.1418983936309814,-1.333820955162384,-2.5275636355029505,6.111685740738668,1.0188677310943604,-2.2255800406085413
1708434997.7289863,-2.141939640045166,-1.333841697578766,-2.5275679270373743,6.111594426422872,1.0189123153686523,-2.2256224791156214
1708434997.7309642,-2.141849994659424,-1.333818258052208,-2.5275517145739954,6.1116347191627405,1.0189212560653687,-2.225621048604147
1708434997.7329822,-2.1418938636779785,-1.3338298511556168,-2.5275352636920374,6.111601936608114,1.0188974142074585,-2.2255972067462366
1708434997.7349687,-2.141935110092163,-1.3338505637696763,-2.527517859135763,6.111651289253988,1.0189049243927002,-2.2256134192096155
1708434997.73702,-2.141880512237549,-1.3338050109199067,-2.5275102297412317,6.111599075585165,1.0188677310943604,-2.225600067769186
1708434997.739012,-2.141862392425537,-1.333846167927124,-2.5275591055499476,6.111601936608114,1.0189168453216553,-2.2256463209735315
1708434997.7409964,-2.141862392425537,-1.3338791292956849,-2.5275352636920374,6.1115243313606165,1.0188766717910767,-2.225642983113424
1708434997.742993,-2.141906976699829,-1.3338909608176728,-2.5275846163379114,6.111651289253988,1.0188766717910767,-2.2256582419024866
1708434997.7449872,-2.1418938636779785,-1.3338583272746583,-2.5275428930865687,6.1115689156349084,1.0189257860183716,-2.2256792227374476
1708434997.7470174,-2.1418535709381104,-1.3338998568109055,-2.527522150670187,6.111601936608114,1.0188959836959839,-2.2256534735309046
1708434997.7490041,-2.141878128051758,-1.333846167927124,-2.5275352636920374,6.111655819206991,1.0188974142074585,-2.2256625334369105
1708434997.7509978,-2.1418850421905518,-1.3338093620589753,-2.5275471846209925,6.111625659256735,1.0189168453216553,-2.2256091276751917
1708434997.753004,-2.141845464706421,-1.3338592809489747,-2.5275548140155237,6.1116124270255945,1.0189049243927002,-2.2256415526019495
1708434997.7550004,-2.1418800354003906,-1.333826945429184,-2.527571503316061,6.111576306610861,1.0189094543457031,-2.225600067769186
1708434997.7570078,-2.141819715499878,-1.3338746440461655,-2.5275428930865687,6.111651408463278,1.0189335346221924,-2.2256134192096155
1708434997.7589746,-2.141866683959961,-1.333850548868515,-2.5275397936450403,6.1116301892097376,1.0189093351364136,-2.2256162802325647
1708434997.7609668,-2.1418938636779785,-1.3338548702052613,-2.527505938206808,6.111646878510275,1.0188795328140259,-2.2256134192096155
1708434997.7630148,-2.141873598098755,-1.333818258052208,-2.5275517145739954,6.111592876702108,1.0189123153686523,-2.2256415526019495
1708434997.7649593,-2.141939640045166,-1.3338627976230164,-2.527529780064718,6.111597406655111,1.0189168453216553,-2.225632969533102
1708434997.7669873,-2.1419308185577393,-1.333813877110817,-2.5275264422046106,6.111604797631063,1.0188884735107422,-2.2256134192096155
1708434997.7689714,-2.1418850421905518,-1.3338628274253388,-2.5275471846209925,6.111643540650167,1.0189213752746582,-2.2256506125079554
1708434997.7709684,-2.1418938636779785,-1.3338253659060975,-2.527522150670187,6.111637937813558,1.0189380645751953,-2.2255848089801233
1708434997.7729914,-2.141857862472534,-1.333853931432106,-2.5275264422046106,6.111683833390035,1.0188840627670288,-2.225665871297018
1708434997.7749875,-2.141918420791626,-1.3338628125241776,-2.5275548140155237,6.111683833390035,1.0189213752746582,-2.2256296316729944
1708434997.7770605,-2.141914129257202,-1.333846167927124,-2.5275428930865687,6.111621129303732,1.0188958644866943,-2.225682560597555
1708434997.7790022,-2.1418981552124023,-1.3338253808072587,-2.5275517145739954,6.111609327584066,1.0189290046691895,-2.2256253401385706
1708434997.780974,-2.141918420791626,-1.333801956181862,-2.5275757948504847,6.111646878510275,1.0189470052719116,-2.2256043593036097
1708434997.7830153,-2.141849994659424,-1.333804966216423,-2.527505938206808,6.111609208374777,1.0189335346221924,-2.2256534735309046
1708434997.7849545,-2.1418983936309814,-1.3338702482036133,-2.527517859135763,6.1116182682807825,1.0189005136489868,-2.2256415526019495
1708434997.7869835,-2.1419308185577393,-1.3338998568109055,-2.5275505224811,6.1116454479988,1.0189168453216553,-2.22562820116152
1708434997.7889957,-2.141862392425537,-1.3338672083667298,-2.5275471846209925,6.11160038688735,1.0189787149429321,-2.2256162802325647
1708434997.790965,-2.1418867111206055,-1.333846167927124,-2.527572218571798,6.111634599953451,1.0189743041992188,-2.225621048604147
1708434997.792989,-2.141906976699829,-1.3338583272746583,-2.5275428930865687,6.111651408463278,1.0189363956451416,-2.225640122090475
1708434997.7949674,-2.1418867111206055,-1.333804966216423,-2.5275548140155237,6.111652600556173,1.018957257270813,-2.225654904042379
1708434997.7970026,-2.14192271232605,-1.3338865649751206,-2.5275266806231897,6.1116182682807825,1.0189335346221924,-2.22562820116152
1708434997.7990093,-2.1418938636779785,-1.3338672083667298,-2.5275102297412317,6.111609208374777,1.0189409255981445,-2.2256534735309046
1708434997.8009636,-2.1419007778167725,-1.3338627976230164,-2.5275505224811,6.111670362740316,1.018961787223816,-2.225682560597555
1708434997.8030326,-2.141862392425537,-1.3338253659060975,-2.5276129881488245,6.111616718560018,1.018886923789978,-2.225611988698141
1708434997.8049743,-2.141873598098755,-1.333920420413353,-2.5275636355029505,6.111712562828817,1.0189707279205322,-2.2256749312030237
1708434997.807011,-2.1418540477752686,-1.3338714849999924,-2.527571503316061,6.111711013108053,1.0189257860183716,-2.2256582419024866
1708434997.8089912,-2.1418535709381104,-1.333834246998169,-2.5275591055499476,6.111727463990011,1.0189003944396973,-2.2256582419024866
1708434997.810995,-2.1418850421905518,-1.3338138622096558,-2.5275712648974817,6.111739623337545,1.018924593925476,-2.2256315390216272
1708434997.8129861,-2.1418895721435547,-1.333853931432106,-2.527517859135763,6.111772405892172,1.018961787223816,-2.225677792225973
1708434997.8149939,-2.141906976699829,-1.333818258052208,-2.5275636355029505,6.111742484360494,1.0189077854156494,-2.2256692091571253
1708434997.8169987,-2.1419265270233154,-1.3338583272746583,-2.5275352636920374,6.1117498753364465,1.0189365148544312,-2.225677792225973
1708434997.8190005,-2.141944169998169,-1.3338671934655686,-2.5275636355029505,6.111704814224996,1.018945336341858,-2.225644890462057
1708434997.8209863,-2.141849994659424,-1.333834246998169,-2.5275967756854456,6.1117544052894495,1.0189154148101807,-2.225698773060934
1708434997.8230057,-2.1419098377227783,-1.333846167927124,-2.52751332918276,6.111766207009115,1.0189499855041504,-2.225644890462057
1708434997.8249896,-2.141914129257202,-1.3338548702052613,-2.5275922457324427,6.111761796265402,1.0189318656921387,-2.22562820116152
1708434997.8270314,-2.1418981552124023,-1.3338298511556168,-2.527534071599142,6.111731993943014,1.0189833641052246,-2.225701634083883
1708434997.8290222,-2.141845464706421,-1.3338298362544556,-2.527522150670187,6.11175428608016,1.0189365148544312,-2.22565728822817
1708434997.8310006,-2.141878128051758,-1.3338758808425446,-2.5275548140155237,6.1117498753364465,1.0189110040664673,-2.2256162802325647
1708434997.8330417,-2.141906976699829,-1.3338548702052613,-2.5275471846209925,6.111729013710775,1.0189318656921387,-2.225673500691549
1708434997.835026,-2.141911506652832,-1.333863766198494,-2.5275266806231897,6.1117663262184045,1.0189365148544312,-2.225665871297018
1708434997.8369823,-2.1418824195861816,-1.3338548553041,-2.5275712648974817,6.111729013710775,1.0189365148544312,-2.225665871297018
1708434997.8389862,-2.1418542861938477,-1.333838553433754,-2.5275548140155237,6.111773955612936,1.018924593925476,-2.225682560597555
1708434997.8409822,-2.1418585777282715,-1.3338984561017533,-2.5275591055499476,6.111770736962118,1.0189698934555054,-2.225689713154928
1708434997.8429875,-2.1418752670288086,-1.3338416826776047,-2.5275636355029505,6.111742484360494,1.0189481973648071,-2.225698773060934
1708434997.8450246,-2.1418755054473877,-1.3338093620589753,-2.527538601552145,6.111724602967062,1.0189528465270996,-2.22565728822817
1708434997.8470027,-2.1418542861938477,-1.333838553433754,-2.5275548140155237,6.111729013710775,1.0189698934555054,-2.2256644407855433
1708434997.8489723,-2.141857862472534,-1.3338429492763062,-2.527562681828634,6.111783015518942,1.0189318656921387,-2.225665871297018
1708434997.8509653,-2.141862392425537,-1.3338583272746583,-2.5275591055499476,6.111740815430441,1.018965244293213,-2.225661579762594
1708434997.8530242,-2.1418938636779785,-1.3338592809489747,-2.527538601552145,6.111757266312399,1.01896071434021,-2.225661579762594
1708434997.8550029,-2.141849994659424,-1.3338777881911774,-2.52751332918276,6.1117379544074915,1.0189528465270996,-2.2256315390216272
1708434997.857026,-2.1418910026550293,-1.3338416826776047,-2.5275548140155237,6.111733543663778,1.0189318656921387,-2.2256491819964808
1708434997.858985,-2.1418955326080322,-1.3338658523610611,-2.5275591055499476,6.111787426262655,1.0189154148101807,-2.225714985524313
1708434997.860981,-2.1418585777282715,-1.3338253659060975,-2.5275636355029505,6.111758816033163,1.0189481973648071,-2.22569448152651
1708434997.8630328,-2.141866683959961,-1.3338253659060975,-2.5275266806231897,6.111799108773031,1.018945336341858,-2.2256692091571253
1708434997.8649755,-2.1418416500091553,-1.3338495355895539,-2.5275757948504847,6.111784088402548,1.0189862251281738,-2.2256315390216272
1708434997.8670416,-2.141866683959961,-1.333846167927124,-2.527583424245016,6.111757266312399,1.0189788341522217,-2.225714985524313
1708434997.8690124,-2.141866683959961,-1.333846167927124,-2.527566973363058,6.111736523896017,1.0189979076385498,-2.22569448152651
1708434997.8709724,-2.141935110092163,-1.3338253659060975,-2.5275517145739954,6.111773955612936,1.0189743041992188,-2.225677792225973
1708434997.872967,-2.141836643218994,-1.333820955162384,-2.5275591055499476,6.111779796868124,1.0189481973648071,-2.225665871297018
1708434997.8750072,-2.1418895721435547,-1.3338628125241776,-2.5275636355029505,6.111773955612936,1.0189815759658813,-2.225685421620504
1708434997.876993,-2.1418938636779785,-1.333853931432106,-2.527545992528097,6.1117379544074915,1.0189698934555054,-2.225661579762594
1708434997.8790154,-2.141862392425537,-1.333818258052208,-2.5275548140155237,6.111783015518942,1.0189608335494995,-2.225701634083883
1708434997.8809843,-2.1418910026550293,-1.3338671785644074,-2.527562681828634,6.111773955612936,1.018965244293213,-2.22565728822817
1708434997.8829923,-2.141866683959961,-1.3338253659060975,-2.5275428930865687,6.111761796265402,1.0189907550811768,-2.22565728822817
1708434997.8849766,-2.1418631076812744,-1.333820955162384,-2.52751332918276,6.111773955612936,1.0189698934555054,-2.225635830556051
1708434997.8870118,-2.1418910026550293,-1.3338416826776047,-2.5275636355029505,6.111745345383444,1.0189608335494995,-2.2256811300860804
1708434997.888977,-2.1418542861938477,-1.333853931432106,-2.527522150670187,6.111778485565939,1.0189481973648071,-2.22569448152651
1708434997.891006,-2.141918420791626,-1.3338878464749833,-2.5275428930865687,6.111815559654989,1.0189273357391357,-2.225673500691549
1708434997.8929996,-2.141866683959961,-1.333804966216423,-2.527545992528097,6.111778485565939,1.0189363956451416,-2.225635830556051
1708434997.8949745,-2.1418938636779785,-1.3338138622096558,-2.5275712648974817,6.111724483757772,1.0189951658248901,-2.2256601492511194
1708434997.897006,-2.1418542861938477,-1.3338671934655686,-2.5275922457324427,6.111742365151205,1.018993616104126,-2.225665871297018
1708434997.898996,-2.1418328285217285,-1.333838553433754,-2.527566973363058,6.111782896309652,1.018957257270813,-2.225665871297018
1708434997.900976,-2.141866683959961,-1.3338714849999924,-2.5276206175433558,6.111758935242452,1.0189481973648071,-2.225689713154928
1708434997.9029813,-2.141849994659424,-1.333829866056778,-2.5275428930865687,6.111742484360494,1.018965244293213,-2.2256529966937464
1708434997.9049826,-2.141906976699829,-1.3338672083667298,-2.527595345173971,6.11171709278182,1.018957257270813,-2.2256272474872034
1708434997.9069715,-2.141841173171997,-1.3338921082070847,-2.5275548140155237,6.111757266312399,1.0189318656921387,-2.225710693989889
1708434997.9089985,-2.141862392425537,-1.3338628125241776,-2.5275712648974817,6.111733543663778,1.018957257270813,-2.225661579762594
1708434997.9109695,-2.1418824195861816,-1.3338628125241776,-2.527538601552145,6.111752855568685,1.018965244293213,-2.2256692091571253
1708434997.912967,-2.1418824195861816,-1.3338791292956849,-2.5275548140155237,6.111773955612936,1.018965244293213,-2.2256911436664026
1708434997.9149714,-2.1418542861938477,-1.333846167927124,-2.527545992528097,6.111745464592733,1.0189743041992188,-2.225673500691549
1708434997.9169617,-2.141824245452881,-1.3338328760913392,-2.527566973363058,6.111735093384542,1.0189608335494995,-2.2256644407855433
1708434997.9190226,-2.141841173171997,-1.3338628125241776,-2.5275505224811,6.1117498753364465,1.0189862251281738,-2.225698773060934
1708434997.9209824,-2.1418824195861816,-1.3338209998658677,-2.5275800863849085,6.111720073014059,1.0189365148544312,-2.225689713154928
1708434997.9229746,-2.141845464706421,-1.3338583272746583,-2.527538601552145,6.1117498753364465,1.0189951658248901,-2.225644890462057
1708434997.9249864,-2.141857862472534,-1.333846167927124,-2.527545992528097,6.111745464592733,1.0189528465270996,-2.225652519856588
1708434997.9269729,-2.1418867111206055,-1.3338253659060975,-2.527566973363058,6.111733543663778,1.0189743041992188,-2.22565728822817
1708434997.9290044,-2.1419308185577393,-1.3338495355895539,-2.527571503316061,6.11175428608016,1.0189436674118042,-2.2256315390216272
1708434997.9309764,-2.141906976699829,-1.3338253808072587,-2.527538601552145,6.1117215035255334,1.0189528465270996,-2.225713555012838
1708434997.9329596,-2.1419053077697754,-1.333858312373497,-2.5275428930865687,6.111740815430441,1.018957257270813,-2.225689713154928
1708434997.9350169,-2.1418709754943848,-1.3338672083667298,-2.527562681828634,6.1116676209266565,1.0189409255981445,-2.225698773060934
1708434997.9370005,-2.1418709754943848,-1.3338328760913392,-2.527534071599142,6.1117379544074915,1.0189200639724731,-2.225652519856588
1708434997.9390044,-2.1418867111206055,-1.3338093620589753,-2.5275548140155237,6.1117498753364465,1.018965244293213,-2.2256491819964808
1708434997.9409761,-2.1418938636779785,-1.3338062477162858,-2.527534071599142,6.111709344177999,1.018957257270813,-2.225698773060934
1708434997.9429638,-2.141845464706421,-1.3337842536023636,-2.5275254885302942,6.1117663262184045,1.0189788341522217,-2.225652519856588
1708434997.9450223,-2.141873598098755,-1.3338372868350525,-2.527579132710592,6.111751425057211,1.0189481973648071,-2.225701634083883
1708434997.9469998,-2.1418416500091553,-1.3338759255460282,-2.527587954198019,6.111709344177999,1.0189274549484253,-2.225682560597555
1708434997.9489734,-2.141911506652832,-1.3337975454381485,-2.5275591055499476,6.1117215035255334,1.0189743041992188,-2.225673500691549
1708434997.9509814,-2.1418416500091553,-1.3338628125241776,-2.527566973363058,6.111713874131002,1.018977165222168,-2.225673500691549
1708434997.953001,-2.141849994659424,-1.333850548868515,-2.527562681828634,6.1117334244544885,1.018961787223816,-2.225661579762594
1708434997.9550223,-2.1418416500091553,-1.333800570373871,-2.5275591055499476,6.11170374134139,1.0189318656921387,-2.225652519856588
1708434997.9569778,-2.1418709754943848,-1.3338627976230164,-2.527558151875631,6.1117379544074915,1.0189154148101807,-2.225644890462057
1708434997.9589806,-2.1418330669403076,-1.3338372868350525,-2.5276206175433558,6.111770617752828,1.0189608335494995,-2.225640122090475
1708434997.9609768,-2.141909599304199,-1.3338628125241776,-2.5275266806231897,6.111675011902609,1.0189788341522217,-2.225640122090475
1708434997.962976,-2.141862392425537,-1.333846167927124,-2.527566973363058,6.111733543663778,1.0189274549484253,-2.2256582419024866
1708434997.9650135,-2.141849994659424,-1.3338495653918763,-2.5275548140155237,6.111709344177999,1.0189862251281738,-2.225677792225973
1708434997.96699,-2.1418824195861816,-1.3338746440461655,-2.527522150670187,6.1116840718086145,1.0189862251281738,-2.2256534735309046
1708434997.9691777,-2.1418824195861816,-1.3338821989348908,-2.527522150670187,6.111700403481283,1.0189409255981445,-2.225661579762594
1708434997.971015,-2.141866683959961,-1.3338094067624588,-2.5275548140155237,6.111747014313497,1.0189481973648071,-2.2257192770587366
1708434997.9729977,-2.141906976699829,-1.333846167927124,-2.5275757948504847,6.111726033478536,1.0189698934555054,-2.2256811300860804
1708434997.9750118,-2.1419053077697754,-1.333829866056778,-2.5275591055499476,6.1116840718086145,1.0189698934555054,-2.2256644407855433
1708434997.9770172,-2.141849994659424,-1.333853931432106,-2.527571503316061,6.111784088402548,1.0189787149429321,-2.225640122090475
1708434997.9789927,-2.141918420791626,-1.3338209998658677,-2.5275757948504847,6.111700403481283,1.0189743041992188,-2.225652519856588
1708434997.9810174,-2.141873598098755,-1.3338628423265,-2.5275548140155237,6.111739504128256,1.0189436674118042,-2.2256491819964808
1708434997.9830127,-2.1419007778167725,-1.3338253808072587,-2.527550284062521,6.111692893296041,1.0189273357391357,-2.225595776234762
1708434997.9850044,-2.1418824195861816,-1.3338416677764435,-2.5275967756854456,6.111742365151205,1.0189200639724731,-2.2256534735309046
1708434997.9870064,-2.141902446746826,-1.3338583272746583,-2.5275471846209925,6.111758816033163,1.0189481973648071,-2.2256415526019495
1708434997.9889686,-2.141911506652832,-1.3338628125241776,-2.5275548140155237,6.111767875939169,1.0189528465270996,-2.225694004689352
1708434997.9909832,-2.1418778896331787,-1.3338139069131394,-2.5275712648974817,6.111693012505331,1.0189743041992188,-2.225635830556051
1708434997.9929738,-2.1418824195861816,-1.3338702631047745,-2.527522150670187,6.111718284874716,1.0189743041992188,-2.22562820116152
1708434997.994995,-2.141849994659424,-1.3338298809579392,-2.5275548140155237,6.111681091576376,1.0189409255981445,-2.2256534735309046
1708434997.996973,-2.141846179962158,-1.333805040722229,-2.5275471846209925,6.111746895104208,1.018924593925476,-2.225682560597555
1708434997.9990058,-2.141878128051758,-1.3338253808072587,-2.5275428930865687,6.111697542458334,1.0189744234085083,-2.2256491819964808
1708434998.0009694,-2.1418800354003906,-1.333820955162384,-2.527538601552145,6.111718284874716,1.018957257270813,-2.225665871297018
1708434998.0029926,-2.14192271232605,-1.3338583272746583,-2.5275147596942347,6.111685621529379,1.018961787223816,-2.225611988698141
1708434998.0050664,-2.1418824195861816,-1.3338253659060975,-2.5275428930865687,6.111697542458334,1.018903374671936,-2.225623909627096
1708434998.0070002,-2.141878128051758,-1.333871529703476,-2.5275428930865687,6.111688482552328,1.0189698934555054,-2.225619618092672
1708434998.0090237,-2.141841173171997,-1.3338821691325684,-2.527517859135763,6.111704814224996,1.018945336341858,-2.225628677998678
1708434998.011012,-2.1418983936309814,-1.333837316637375,-2.5275309721576136,6.111713874131002,1.0189528465270996,-2.22562820116152
1708434998.0129988,-2.1418957710266113,-1.333853931432106,-2.5275264422046106,6.111709344177999,1.018945336341858,-2.2256582419024866
1708434998.0150118,-2.141873598098755,-1.333846167927124,-2.527494017277853,6.111688482552328,1.0189663171768188,-2.2256792227374476
1708434998.0170074,-2.141849994659424,-1.333841712479927,-2.5275679270373743,6.111742365151205,1.0189499855041504,-2.2256372610675257
1708434998.0190074,-2.1418867111206055,-1.3338583272746583,-2.5275266806231897,6.111668813019552,1.0189317464828491,-2.225623909627096
1708434998.0209754,-2.141836643218994,-1.3338505786708375,-2.5275352636920374,6.111709344177999,1.018961787223816,-2.2256706396686
1708434998.022979,-2.1418371200561523,-1.3338583272746583,-2.5275636355029505,6.1117604849632166,1.0188958644866943,-2.2256625334369105
1708434998.024981,-2.141841173171997,-1.3337961745313187,-2.527505938206808,6.111718284874716,1.0189335346221924,-2.2256043593036097
1708434998.026987,-2.14192271232605,-1.3338329207948227,-2.527505938206808,6.111710893898763,1.0189212560653687,-2.2256091276751917
1708434998.029025,-2.141914129257202,-1.3338627976230164,-2.5275548140155237,6.111701953202047,1.0188841819763184,-2.225632969533102
1708434998.0309746,-2.1418540477752686,-1.3338627976230164,-2.5275352636920374,6.111701953202047,1.0188506841659546,-2.2256506125079554
1708434998.0330408,-2.141878128051758,-1.3338548553041,-2.527538601552145,6.1116689322288416,1.0188958644866943,-2.225600067769186
1708434998.0350022,-2.141909599304199,-1.3338461828282853,-2.5275843779193323,6.111681091576376,1.0189005136489868,-2.2256253401385706
1708434998.0370188,-2.1418981552124023,-1.333867148762085,-2.5275548140155237,6.111699092179098,1.0188958644866943,-2.225595776234762
1708434998.0390217,-2.1418910026550293,-1.3338628125241776,-2.5275800863849085,6.11171983459548,1.0189093351364136,-2.2256296316729944
1708434998.0409708,-2.141862392425537,-1.3338416826776047,-2.5275967756854456,6.111628997116842,1.0189290046691895,-2.2256506125079554
1708434998.0429945,-2.141849994659424,-1.333837316637375,-2.5275147596942347,6.111651408463278,1.0189049243927002,-2.2255972067462366
1708434998.0449662,-2.1418330669403076,-1.333879144196846,-2.527534071599142,6.111642348557272,1.0189348459243774,-2.2256177107440394
1708434998.0470035,-2.1418955326080322,-1.333818258052208,-2.5275471846209925,6.111599075585165,1.0188766717910767,-2.2256253401385706
1708434998.0490053,-2.1418709754943848,-1.3338298511556168,-2.5275548140155237,6.11157916763381,1.0188721418380737,-2.2256344000445765
1708434998.0509818,-2.1418867111206055,-1.333846167927124,-2.5275591055499476,6.111549484520712,1.0189093351364136,-2.2256177107440394
1708434998.05301,-2.1418938636779785,-1.3338627976230164,-2.527534071599142,6.11156593540267,1.0188885927200317,-2.2255881468402308
1708434998.0550044,-2.141873598098755,-1.3338373315385361,-2.5275636355029505,6.111590015679159,1.0189005136489868,-2.2255972067462366
1708434998.05702,-2.141878128051758,-1.3338583272746583,-2.5275028387652796,6.111577737122335,1.0188766717910767,-2.225589100514547
1708434998.0590146,-2.141878128051758,-1.333928422336914,-2.5275679270373743,6.11156581619338,1.018946886062622,-2.2256134192096155
1708434998.0609734,-2.1419098377227783,-1.3338791292956849,-2.5275428930865687,6.111615288048544,1.018902063369751,-2.2255972067462366
1708434998.0629826,-2.1418585777282715,-1.3338051003268738,-2.5275517145739954,6.111544954567709,1.0189049243927002,-2.2256386915790003
1708434998.0649781,-2.141873598098755,-1.3338165444186707,-2.527501646672384,6.111549484520712,1.0188766717910767,-2.2256224791156214
1708434998.066982,-2.141873598098755,-1.3338658821633835,-2.5275636355029505,6.1116078970725916,1.0188387632369995,-2.2256105581866663
1708434998.06898,-2.141845464706421,-1.3338628125241776,-2.5275428930865687,6.111615288048544,1.018897533416748,-2.225626770650045
1708434998.0709803,-2.141914129257202,-1.333829866056778,-2.527473274861471,6.111500251084127,1.01888108253479,-2.2256091276751917
1708434998.0730033,-2.1418285369873047,-1.3338672083667298,-2.5275309721576136,6.1115468619163416,1.0188857316970825,-2.2255805174456995
1708434998.074972,-2.1418938636779785,-1.3338998717120667,-2.5275233427630823,6.111615407257833,1.018859624862671,-2.225556198750631
1708434998.0770063,-2.1418938636779785,-1.3338253659060975,-2.5275636355029505,6.111540543823995,1.0188857316970825,-2.225544277821676
1708434998.0789757,-2.1418981552124023,-1.3337930601886292,-2.5275471846209925,6.111619818001547,1.0188766717910767,-2.2255800406085413
1708434998.080985,-2.1418910026550293,-1.333845169549324,-2.5275190512286585,6.1115866778190515,1.018877625465393,-2.2256067434894007
1708434998.083005,-2.141866683959961,-1.3338583272746583,-2.5275967756854456,6.111574756890096,1.0188857316970825,-2.225560967122213
1708434998.084972,-2.1418824195861816,-1.3338385683349152,-2.5275309721576136,6.111603486328878,1.0188312530517578,-2.225581947957174
1708434998.0869973,-2.1418752670288086,-1.3338385087302704,-2.5275102297412317,6.111568796425619,1.0188686847686768,-2.225593392048971
1708434998.0890105,-2.1418416500091553,-1.3338628125241776,-2.5275147596942347,6.111549365311422,1.0188567638397217,-2.225586239491598
1708434998.0909748,-2.141849994659424,-1.3338342320970078,-2.5275548140155237,6.111594426422872,1.018861174583435,-2.2256067434894007
1708434998.0930083,-2.1418542861938477,-1.333846167927124,-2.5275190512286585,6.111628639488973,1.0188857316970825,-2.225581947957174
1708434998.0950105,-2.1418285369873047,-1.333820955162384,-2.5275591055499476,6.111582267075338,1.0188477039337158,-2.2255776564227503
1708434998.0970387,-2.141845464706421,-1.3338298511556168,-2.5275190512286585,6.1115912077720544,1.0188567638397217,-2.225598160420553
1708434998.0989826,-2.141857862472534,-1.333890975718834,-2.5275233427630823,6.111603367119589,1.018890142440796,-2.225553337727682
1708434998.100957,-2.1418709754943848,-1.3338253808072587,-2.5276053587542933,6.111567365914144,1.018861174583435,-2.225528065358297
1708434998.1029878,-2.141849994659424,-1.3338093620589753,-2.5275352636920374,6.11156593540267,1.0188448429107666,-2.225544277821676
1708434998.1050003,-2.141849994659424,-1.3338997972062607,-2.5275428930865687,6.111610758095541,1.018807291984558,-2.2255776564227503
1708434998.1070044,-2.141845464706421,-1.333850548868515,-2.5275190512286585,6.111577737122335,1.0188404321670532,-2.225544277821676
1708434998.1089728,-2.1418824195861816,-1.3338627976230164,-2.5275190512286585,6.111577737122335,1.0188329219818115,-2.225544277821676
1708434998.1109967,-2.141878128051758,-1.3338461828282853,-2.5275309721576136,6.111606347351827,1.0188404321670532,-2.2255643049823206
1708434998.1130114,-2.1419053077697754,-1.333854840402939,-2.5275636355029505,6.111591088562765,1.0188404321670532,-2.225565258656637
1708434998.1149673,-2.141906976699829,-1.3338298362544556,-2.5275560061084192,6.1115866778190515,1.0188448429107666,-2.225549046193258
1708434998.1169963,-2.1418709754943848,-1.3338505786708375,-2.5275102297412317,6.1116078970725916,1.0188448429107666,-2.225541416798727
1708434998.119023,-2.141862392425537,-1.333809347157814,-2.5275471846209925,6.111573326378622,1.0188374519348145,-2.2255247274981897
1708434998.1209743,-2.141918420791626,-1.3339040142348786,-2.5275889078723353,6.111586797028341,1.018795371055603,-2.225515667592184
1708434998.1230128,-2.141849994659424,-1.3338253808072587,-2.5275309721576136,6.11157916763381,1.0188028812408447,-2.2255199591266077
1708434998.1249673,-2.1418824195861816,-1.3338628125241776,-2.527468983327047,6.11162422874526,1.018877625465393,-2.22561484972109
1708434998.1270049,-2.1418981552124023,-1.3338505786708375,-2.527538601552145,6.1115866778190515,1.0188539028167725,-2.225553337727682
1708434998.1289773,-2.1418330669403076,-1.3338094663671036,-2.5275560061084192,6.111598956375875,1.0188539028167725,-2.2255199591266077
1708434998.1309636,-2.1418285369873047,-1.3338461828282853,-2.527576748524801,6.111585485726156,1.0188329219818115,-2.225537125264303
1708434998.132986,-2.1418983936309814,-1.3338791143945237,-2.5275190512286585,6.111589896469869,1.0188044309616089,-2.225565258656637
1708434998.134974,-2.1418542861938477,-1.3338835400393982,-2.5275591055499476,6.111556875496664,1.0188285112380981,-2.225569550191061
1708434998.1369867,-2.1418416500091553,-1.3338495951941987,-2.5275517145739954,6.111561286240377,1.018861174583435,-2.225544277821676
1708434998.1389854,-2.141849994659424,-1.3338298511556168,-2.527477804814474,6.111615407257833,1.0188117027282715,-2.2255290190326136
1708434998.140956,-2.141866683959961,-1.3338254255107422,-2.527505938206808,6.111556875496664,1.0188583135604858,-2.225541416798727
1708434998.1429698,-2.1418540477752686,-1.3338921082070847,-2.5275147596942347,6.111582267075338,1.0188285112380981,-2.2254918257342737
1708434998.144952,-2.141873598098755,-1.3338329207948227,-2.5275724569903772,6.1115912077720544,1.01884925365448,-2.2255333105670374
1708434998.146985,-2.1418910026550293,-1.3338165891221543,-2.5274983088122767,6.111512291222372,1.0188162326812744,-2.225560967122213
1708434998.1490111,-2.1418585777282715,-1.3338209700635453,-2.5275190512286585,6.111582267075338,1.0188448429107666,-2.2255290190326136
1708434998.1509588,-2.1418540477752686,-1.3338416826776047,-2.5275309721576136,6.111603367119589,1.0188239812850952,-2.225541416798727
1708434998.1530054,-2.141841173171997,-1.3338495206883927,-2.5275517145739954,6.111582267075338,1.0188448429107666,-2.225560967122213
1708434998.1549814,-2.1418867111206055,-1.3338671636632462,-2.527522150670187,6.111586797028341,1.0188329219818115,-2.225541416798727
1708434998.1569722,-2.1418910026550293,-1.3338672083667298,-2.5275679270373743,6.111558425217428,1.0188207626342773,-2.2255786100970667
1708434998.1589956,-2.141902446746826,-1.3338539165309449,-2.527576748524801,6.1115866778190515,1.0188329219818115,-2.225586716328756
1708434998.1609678,-2.1418709754943848,-1.3338253659060975,-2.527534071599142,6.11162422874526,1.01884925365448,-2.225549046193258
1708434998.1629858,-2.1418910026550293,-1.3338746589473267,-2.5275309721576136,6.1115866778190515,1.0188207626342773,-2.2255619207965296
1708434998.164975,-2.141849994659424,-1.3338983964971085,-2.5275352636920374,6.111561286240377,1.0188298225402832,-2.225553337727682
1708434998.166987,-2.141849994659424,-1.3338094067624588,-2.5274863878833216,6.111570346146383,1.01884925365448,-2.2255619207965296
1708434998.1693318,-2.1418371200561523,-1.333829866056778,-2.5275266806231897,6.111590015679159,1.018865704536438,-2.225586239491598
1708434998.1709707,-2.1418709754943848,-1.333841697578766,-2.5275309721576136,6.111582267075338,1.0188088417053223,-2.225569550191061
1708434998.173011,-2.141914129257202,-1.3338429194739838,-2.5275190512286585,6.111598956375875,1.0187876224517822,-2.225520435963766
1708434998.17497,-2.1418955326080322,-1.3338671934655686,-2.5275266806231897,6.111553895264425,1.0188117027282715,-2.225569550191061
1708434998.1769998,-2.141906976699829,-1.3338416677764435,-2.5275190512286585,6.111610758095541,1.018795371055603,-2.2255457083331507
1708434998.1790202,-2.141862392425537,-1.333822564487793,-2.5275560061084192,6.111577737122335,1.018807291984558,-2.2255457083331507
1708434998.1810143,-2.1418709754943848,-1.3338702780059357,-2.527522150670187,6.111652600556173,1.01884925365448,-2.2255247274981897
1708434998.1830146,-2.141862392425537,-1.3338209998658677,-2.5275309721576136,6.111590015679159,1.0188162326812744,-2.22551137605776
1708434998.1850057,-2.1418938636779785,-1.3338182729533692,-2.527538601552145,6.111594426422872,1.0188162326812744,-2.2255199591266077
1708434998.1869912,-2.1418709754943848,-1.3338385683349152,-2.5275147596942347,6.111574756890096,1.0188329219818115,-2.225549046193258
1708434998.188992,-2.1418910026550293,-1.3338582974723359,-2.5275679270373743,6.111561286240377,1.0188117027282715,-2.225560967122213
1708434998.190993,-2.141911506652832,-1.3338582527688523,-2.5275266806231897,6.111615288048544,1.0188162326812744,-2.225569550191061
1708434998.1930141,-2.141841173171997,-1.3338461828282853,-2.5275352636920374,6.111594426422872,1.0188374519348145,-2.22551137605776
1708434998.194991,-2.1418285369873047,-1.3338583421758194,-2.5275309721576136,6.111582267075338,1.0188448429107666,-2.225537125264303
1708434998.1969807,-2.141902446746826,-1.3338253510049363,-2.5275517145739954,6.111606347351827,1.0188329219818115,-2.225549046193258
1708434998.1989806,-2.1418585777282715,-1.3338094365647812,-2.527505938206808,6.111590015679159,1.0187876224517822,-2.225569550191061
1708434998.2009592,-2.141817092895508,-1.3338495355895539,-2.5275190512286585,6.111582267075338,1.0188117027282715,-2.2255290190326136
1708434998.2030282,-2.141849994659424,-1.333797649746277,-2.527505938206808,6.111574756890096,1.0188539028167725,-2.225569550191061
1708434998.2049801,-2.1418867111206055,-1.3338627976230164,-2.527538601552145,6.111603367119589,1.0188374519348145,-2.225541416798727
1708434998.2070255,-2.1418371200561523,-1.3338314902833481,-2.5275190512286585,6.111577737122335,1.0188207626342773,-2.2255519072162073
1708434998.2089775,-2.1418328285217285,-1.3338461828282853,-2.5274696985827845,6.111610758095541,1.0188285112380981,-2.225541416798727
1708434998.210973,-2.1418709754943848,-1.3338505041650315,-2.5275517145739954,6.111573207169332,1.0188207626342773,-2.225515667592184
1708434998.2130136,-2.141862392425537,-1.333858312373497,-2.527489725743429,6.111622679024496,1.0188419818878174,-2.2255447546588343
1708434998.2149808,-2.1418752670288086,-1.3338539463332673,-2.5275190512286585,6.1115866778190515,1.0188329219818115,-2.2255247274981897
1708434998.2170174,-2.1418585777282715,-1.3338416528752823,-2.527572218571798,6.111598956375875,1.0188374519348145,-2.225569550191061
1708434998.2189791,-2.141906976699829,-1.33380942166362,-2.5275190512286585,6.111590015679159,1.0188419818878174,-2.2255457083331507
1708434998.220969,-2.1418585777282715,-1.333841697578766,-2.5275517145739954,6.111577737122335,1.0188701152801514,-2.225586239491598
1708434998.2230198,-2.1418542861938477,-1.3338269305280228,-2.527572218571798,6.111573207169332,1.018807291984558,-2.225541416798727
1708434998.2249985,-2.1418585777282715,-1.3338298809579392,-2.5275102297412317,6.111582267075338,1.0188746452331543,-2.225595299397604
1708434998.2269995,-2.141866683959961,-1.3338183027556916,-2.5275102297412317,6.111590015679159,1.018811821937561,-2.2255619207965296
1708434998.2289732,-2.141906976699829,-1.3338671785644074,-2.5275102297412317,6.111573207169332,1.0188448429107666,-2.2255199591266077
1708434998.2310014,-2.141824245452881,-1.3338583272746583,-2.5275397936450403,6.111570346146383,1.0188028812408447,-2.225515667592184
1708434998.2329986,-2.1418867111206055,-1.333837316637375,-2.527522150670187,6.1116018173988245,1.0188044309616089,-2.2255247274981897
1708434998.23498,-2.1418867111206055,-1.3338416826776047,-2.527505938206808,6.111591088562765,1.0188207626342773,-2.2255247274981897
1708434998.237024,-2.1418755054473877,-1.3338865500739594,-2.5275517145739954,6.111582267075338,1.018811821937561,-2.225537125264303
1708434998.238981,-2.141918420791626,-1.333953322177269,-2.5275102297412317,6.111594426422872,1.0188117027282715,-2.2255290190326136
1708434998.2409673,-2.1418709754943848,-1.3338582974723359,-2.527517859135763,6.111585485726156,1.01884925365448,-2.225553337727682
1708434998.242968,-2.1418709754943848,-1.3338019710830231,-2.5275309721576136,6.111581074982443,1.0188329219818115,-2.2255786100970667
1708434998.2449923,-2.1418328285217285,-1.333846167927124,-2.5275266806231897,6.111573326378622,1.0188448429107666,-2.225520435963766
1708434998.24698,-2.1418416500091553,-1.3338505637696763,-2.527572218571798,6.111615407257833,1.0188207626342773,-2.225574318562643
1708434998.2489927,-2.141849994659424,-1.3338539016297837,-2.5275233427630823,6.111606347351827,1.0188583135604858,-2.2255290190326136
1708434998.2509687,-2.1418983936309814,-1.3338865500739594,-2.5274983088122767,6.111631738930502,1.0188285112380981,-2.2255619207965296
1708434998.2530017,-2.141846179962158,-1.333841697578766,-2.5275517145739954,6.111606347351827,1.018807291984558,-2.225508515034811
1708434998.254971,-2.1418983936309814,-1.3338298511556168,-2.5275278727160853,6.111615407257833,1.0188329219818115,-2.225478474293844
1708434998.2569818,-2.1418542861938477,-1.3338298958591004,-2.5275028387652796,6.111585485726156,1.0187909603118896,-2.225549046193258
1708434998.258977,-2.141902446746826,-1.3338209998658677,-2.527517859135763,6.111643540650167,1.0188820362091064,-2.2255738417254847
1708434998.260958,-2.141849994659424,-1.3338790994933625,-2.527473274861471,6.111606347351827,1.0188162326812744,-2.225549046193258
1708434998.2630148,-2.141866683959961,-1.333862767820694,-2.5275352636920374,6.111540424614706,1.0188285112380981,-2.225541416798727
1708434998.2649975,-2.1418800354003906,-1.333858312373497,-2.5275548140155237,6.111613857537069,1.0188207626342773,-2.2255051771747034
1708434998.2670105,-2.141902446746826,-1.3338759255460282,-2.5275102297412317,6.1116182682807825,1.01884925365448,-2.225528065358297
1708434998.2689836,-2.141862392425537,-1.333841697578766,-2.5275471846209925,6.111573326378622,1.0188207626342773,-2.225541416798727
1708434998.2709708,-2.141906976699829,-1.3338702780059357,-2.5275028387652796,6.111636149674215,1.0188329219818115,-2.2256158033954065
1708434998.2729943,-2.1418256759643555,-1.3339129847339173,-2.5275309721576136,6.111639129906454,1.0188583135604858,-2.2255290190326136
1708434998.2749968,-2.141846179962158,-1.3338328909925004,-2.527505938206808,6.111528861313619,1.01884925365448,-2.2255829016314905
1708434998.277018,-2.1418983936309814,-1.3338539463332673,-2.5275309721576136,6.11155246475295,1.0188448429107666,-2.225569550191061
1708434998.2790246,-2.1418867111206055,-1.333859310751297,-2.5275147596942347,6.111582267075338,1.018877625465393,-2.225574318562643
1708434998.2810247,-2.1418540477752686,-1.333841697578766,-2.527456585560934,6.111594426422872,1.0187757015228271,-2.225553337727682
1708434998.2830298,-2.1418755054473877,-1.3338253808072587,-2.527473274861471,6.111590015679159,1.0188374519348145,-2.225581947957174
1708434998.2849982,-2.1418981552124023,-1.333850548868515,-2.5275266806231897,6.111601936608114,1.0188374519348145,-2.2255576292621058
1708434998.2869759,-2.1418983936309814,-1.3338714849999924,-2.5275028387652796,6.1115866778190515,1.0188448429107666,-2.225528065358297
1708434998.2889876,-2.1418631076812744,-1.333797575240471,-2.5275428930865687,6.11161087730483,1.0188539028167725,-2.2255499998675745
1708434998.2909765,-2.141909599304199,-1.3338548702052613,-2.5275397936450403,6.111594426422872,1.0188117027282715,-2.225569550191061
1708434998.292982,-2.1418752670288086,-1.3338461530259629,-2.5275190512286585,6.111631738930502,1.0188448429107666,-2.225549046193258
1708434998.2949932,-2.1418938636779785,-1.333841697578766,-2.5275560061084192,6.111582267075338,1.0187909603118896,-2.2255576292621058
1708434998.2969954,-2.1418540477752686,-1.333829866056778,-2.5275235811816614,6.111561286240377,1.0187864303588867,-2.2255576292621058
1708434998.2990093,-2.1418585777282715,-1.333841697578766,-2.5275190512286585,6.111585485726156,1.0188419818878174,-2.2255447546588343
1708434998.3010423,-2.141906976699829,-1.3338746291450043,-2.5275591055499476,6.111585485726156,1.0188567638397217,-2.225520435963766
1708434998.3030138,-2.141862392425537,-1.3339084696820755,-2.5275147596942347,6.111606347351827,1.0188117027282715,-2.225532833729879
1708434998.3049767,-2.141866683959961,-1.3338049811175843,-2.5275278727160853,6.111651408463278,1.01884925365448,-2.225541416798727
1708434998.307032,-2.1418585777282715,-1.333841697578766,-2.5275071302997034,6.111631738930502,1.0188539028167725,-2.2255247274981897
1708434998.3090374,-2.1418800354003906,-1.3338671934655686,-2.527489725743429,6.111622679024496,1.0188117027282715,-2.2255547682391565
1708434998.3109758,-2.1418709754943848,-1.3338093620589753,-2.5275679270373743,6.111615407257833,1.0188583135604858,-2.2255738417254847
1708434998.312984,-2.1418709754943848,-1.333826945429184,-2.527544085179464,6.111636149674215,1.0188539028167725,-2.2255247274981897
1708434998.3149915,-2.1418752670288086,-1.3338878017714997,-2.5275147596942347,6.111639129906454,1.0188207626342773,-2.2255871931659144
1708434998.3170056,-2.141906976699829,-1.3338298511556168,-2.527505938206808,6.111643659859457,1.0188285112380981,-2.225565258656637
1708434998.3189926,-2.1418800354003906,-1.3338461977294465,-2.5275309721576136,6.111627208977499,1.018778681755066,-2.225553337727682
1708434998.3209643,-2.1418585777282715,-1.3338210594705124,-2.5275190512286585,6.1116182682807825,1.018870234489441,-2.2255247274981897
1708434998.3230145,-2.141911506652832,-1.3338165891221543,-2.527505938206808,6.111559736519613,1.0188207626342773,-2.225532833729879
1708434998.3249958,-2.1418981552124023,-1.3339117181352158,-2.5275309721576136,6.111585485726156,1.0188117027282715,-2.225581947957174
1708434998.3269794,-2.141849994659424,-1.3338628125241776,-2.5275190512286585,6.111655819206991,1.0188207626342773,-2.225537125264303
1708434998.328989,-2.1418540477752686,-1.333867223267891,-2.5275266806231897,6.111561405449667,1.0188207626342773,-2.2255576292621058
1708434998.3309972,-2.141866683959961,-1.333813877110817,-2.5275636355029505,6.111590015679159,1.0188251733779907,-2.225602451954977
1708434998.3329763,-2.1418709754943848,-1.3338451993516465,-2.527572218571798,6.111603367119589,1.0187876224517822,-2.225537125264303
1708434998.3349679,-2.1418910026550293,-1.3338342320970078,-2.5275190512286585,6.111634599953451,1.0188207626342773,-2.225532833729879
1708434998.3369627,-2.1418867111206055,-1.333793045287468,-2.5275147596942347,6.111631738930502,1.0188539028167725,-2.2255576292621058
1708434998.338977,-2.1418778896331787,-1.333837316637375,-2.5274909178363245,6.111573326378622,1.0188162326812744,-2.2255666891681116
1708434998.340965,-2.1418938636779785,-1.3338672530702134,-2.5275190512286585,6.111589896469869,1.0188133716583252,-2.2255829016314905
1708434998.3429637,-2.1418867111206055,-1.3338878017714997,-2.5275071302997034,6.1116301892097376,1.0188329219818115,-2.2255619207965296
1708434998.345004,-2.141849994659424,-1.3338791292956849,-2.5274696985827845,6.111646878510275,1.0188251733779907,-2.2255175749408167
1708434998.3469746,-2.1418585777282715,-1.3338791143945237,-2.5275233427630823,6.111646997719564,1.01884925365448,-2.2255576292621058
1708434998.3489969,-2.1418867111206055,-1.3338583272746583,-2.5275309721576136,6.111561286240377,1.0188207626342773,-2.225553337727682
1708434998.3509667,-2.141857862472534,-1.3338671934655686,-2.5275517145739954,6.111673700600424,1.0188088417053223,-2.225565258656637
1708434998.3529775,-2.1418304443359375,-1.333841712479927,-2.5275278727160853,6.111594426422872,1.0188207626342773,-2.225532833729879
1708434998.3549676,-2.141845464706421,-1.3338139069131394,-2.527572218571798,6.111619937210836,1.0188162326812744,-2.2255290190326136
1708434998.3570228,-2.1418631076812744,-1.3338495951941987,-2.5275071302997034,6.111556875496664,1.0188329219818115,-2.225532833729879
1708434998.3589702,-2.1418752670288086,-1.333829866056778,-2.5275028387652796,6.111570346146383,1.0188746452331543,-2.2255738417254847
1708434998.360995,-2.1418709754943848,-1.333841697578766,-2.5274909178363245,6.111581074982443,1.0188448429107666,-2.225513283406393
1708434998.363003,-2.1418824195861816,-1.3338253510049363,-2.5275233427630823,6.111582267075338,1.0188117027282715,-2.2255995909320276
1708434998.364984,-2.1418256759643555,-1.3338254255107422,-2.5275352636920374,6.111586797028341,1.018807291984558,-2.2254956404315394
1708434998.3669894,-2.141849994659424,-1.3338746291450043,-2.5275264422046106,6.111564266472616,1.0188117027282715,-2.2255447546588343
1708434998.3689868,-2.141902446746826,-1.333850548868515,-2.5275278727160853,6.111582267075338,1.0188162326812744,-2.2254956404315394
1708434998.3709786,-2.1418542861938477,-1.333846167927124,-2.5275309721576136,6.11161087730483,1.0188775062561035,-2.2256110350238245
1708434998.372976,-2.141857862472534,-1.3338416677764435,-2.5275071302997034,6.1116301892097376,1.0188329219818115,-2.2255457083331507
1708434998.3749669,-2.141862392425537,-1.3338253808072587,-2.5275352636920374,6.111676680832662,1.0188239812850952,-2.225623432789938
1708434998.3770177,-2.1418867111206055,-1.3338592064431687,-2.5274863878833216,6.111573207169332,1.0188329219818115,-2.225553337727682
1708434998.3790202,-2.1418256759643555,-1.3338225942901154,-2.527572218571798,6.111582267075338,1.0188162326812744,-2.225565258656637
1708434998.381009,-2.141918420791626,-1.3338746142438431,-2.5274651686297815,6.111615407257833,1.0188329219818115,-2.2255457083331507
1708434998.3829873,-2.141808271408081,-1.3338758063367386,-2.5275028387652796,6.111573207169332,1.0188539028167725,-2.2255738417254847
1708434998.3850095,-2.141873598098755,-1.333867223267891,-2.5275190512286585,6.111619818001547,1.0188162326812744,-2.2255709807025355
1708434998.3870373,-2.141915798187256,-1.3338495802930375,-2.5275071302997034,6.111581074982443,1.0188162326812744,-2.2255776564227503
1708434998.3890233,-2.1418371200561523,-1.3338583272746583,-2.5274909178363245,6.111590015679159,1.01884925365448,-2.225581947957174
1708434998.3910213,-2.141845464706421,-1.333854840402939,-2.527572218571798,6.111559736519613,1.0187908411026,-2.2255376021014612
1708434998.3930097,-2.141866683959961,-1.3338583570769806,-2.5275278727160853,6.111642348557272,1.0188374519348145,-2.22551137605776
1708434998.3949955,-2.141850471496582,-1.3338019859841843,-2.5275278727160853,6.111597406655111,1.0188463926315308,-2.2255619207965296
1708434998.39697,-2.1418709754943848,-1.3338093918612977,-2.5275114218341272,6.111581074982443,1.0188162326812744,-2.2255738417254847
1708434998.3990083,-2.141846179962158,-1.3338416677764435,-2.5275071302997034,6.111601936608114,1.018778681755066,-2.225569550191061
1708434998.4009838,-2.1418867111206055,-1.3338583272746583,-2.5275114218341272,6.111615288048544,1.0188297033309937,-2.2255738417254847
1708434998.4029984,-2.141902446746826,-1.3338094067624588,-2.5275190512286585,6.111582267075338,1.0188044309616089,-2.225532833729879
1708434998.404964,-2.1418709754943848,-1.333858312373497,-2.5274909178363245,6.111597406655111,1.0188071727752686,-2.225513283406393
1708434998.4069774,-2.141906976699829,-1.3338758212378998,-2.5275028387652796,6.111622679024496,1.0188539028167725,-2.225520435963766
1708434998.4090161,-2.1418752670288086,-1.3338253808072587,-2.5275190512286585,6.111667740135946,1.0188207626342773,-2.225541416798727
1708434998.4109633,-2.1418416500091553,-1.333829791550972,-2.5274997393237513,6.1116347191627405,1.0187876224517822,-2.225553337727682
1708434998.4130237,-2.1418824195861816,-1.3338495802930375,-2.5275028387652796,6.111622679024496,1.0188298225402832,-2.2254965941058558
1708434998.4149756,-2.141873598098755,-1.3339117181352158,-2.5274820963488978,6.111573207169332,1.0188044309616089,-2.2255576292621058
1708434998.416976,-2.1418824195861816,-1.3338461530259629,-2.5275147596942347,6.111637937813558,1.0187921524047852,-2.2255175749408167
1708434998.418994,-2.141849994659424,-1.3337930601886292,-2.5275233427630823,6.111567723542013,1.0187921524047852,-2.225537125264303
1708434998.4209554,-2.1418371200561523,-1.3338461530259629,-2.527494017277853,6.111581074982443,1.0187785625457764,-2.2255619207965296
1708434998.4229808,-2.1418416500091553,-1.3338583272746583,-2.5275352636920374,6.111573207169332,1.0187877416610718,-2.225504223500387
1708434998.4249597,-2.1418910026550293,-1.3338495653918763,-2.5274739901172083,6.111643540650167,1.0188044309616089,-2.2255376021014612
1708434998.4269624,-2.1418752670288086,-1.333846167927124,-2.5275679270373743,6.111627208977499,1.0188374519348145,-2.2255218664752405
1708434998.4290223,-2.1418240070343018,-1.3338253808072587,-2.5275028387652796,6.111592876702108,1.0188133716583252,-2.225537125264303
1708434998.4309738,-2.1418709754943848,-1.3338746291450043,-2.5275517145739954,6.111598956375875,1.0188374519348145,-2.225537125264303
1708434998.4330463,-2.141902446746826,-1.3338094365647812,-2.5275071302997034,6.11161087730483,1.0188044309616089,-2.2255290190326136
1708434998.434998,-2.141918420791626,-1.3338183027556916,-2.5274863878833216,6.1116078970725916,1.0188465118408203,-2.2255290190326136
1708434998.4369597,-2.141862392425537,-1.3338791143945237,-2.5275102297412317,6.111601936608114,1.0187921524047852,-2.2255499998675745
1708434998.4390082,-2.141911506652832,-1.3338548553041,-2.5275233427630823,6.111531603127279,1.0187921524047852,-2.2255576292621058
1708434998.440981,-2.1418631076812744,-1.3338583421758194,-2.5275190512286585,6.111588465958395,1.0188207626342773,-2.225553337727682
1708434998.4430146,-2.1418285369873047,-1.333841697578766,-2.5275278727160853,6.111590015679159,1.0188509225845337,-2.2255290190326136
1708434998.4449997,-2.1418416500091553,-1.3337799322656174,-2.5275114218341272,6.11157654502944,1.0187997817993164,-2.2255333105670374
1708434998.446967,-2.1418938636779785,-1.3338416826776047,-2.5275071302997034,6.111615407257833,1.0187921524047852,-2.225541416798727
1708434998.4490001,-2.1418752670288086,-1.333829866056778,-2.527532164250509,6.111613857537069,1.0188554525375366,-2.2255247274981897
1708434998.450976,-2.1418416500091553,-1.333838553433754,-2.527478281651632,6.111598956375875,1.0188088417053223,-2.225513283406393
1708434998.4530165,-2.1418285369873047,-1.3338658672622223,-2.527540985737936,6.111603486328878,1.0188010931015015,-2.2255094687091272
1708434998.4549847,-2.1418328285217285,-1.3338746291450043,-2.5274909178363245,6.11155246475295,1.0188088417053223,-2.2255576292621058
1708434998.4569955,-2.1418800354003906,-1.3338094514659424,-2.5274820963488978,6.11161087730483,1.0187921524047852,-2.2255008856402796
1708434998.4589868,-2.1418867111206055,-1.3337809902480622,-2.527544085179464,6.111599075585165,1.0188162326812744,-2.2254889647113245
1708434998.4609687,-2.1418371200561523,-1.3338548553041,-2.5274952093707483,6.111643540650167,1.0188628435134888,-2.2255499998675745
1708434998.4629948,-2.1418752670288086,-1.3338583272746583,-2.527482811604635,6.1115553257759,1.0188179016113281,-2.2254918257342737
1708434998.4649637,-2.141817092895508,-1.3338672083667298,-2.5274983088122767,6.111627208977499,1.018796682357788,-2.2255218664752405
1708434998.467004,-2.141914129257202,-1.3338461828282853,-2.5274696985827845,6.111643540650167,1.018796682357788,-2.2255333105670374
1708434998.4689896,-2.1418542861938477,-1.3338373315385361,-2.5274952093707483,6.111613857537069,1.018784761428833,-2.2254965941058558
1708434998.4710464,-2.141845464706421,-1.3338548255017777,-2.52751595178713,6.111639129906454,1.018796682357788,-2.225475613270895
1708434998.4729931,-2.1418585777282715,-1.3338138175061722,-2.5275028387652796,6.111609208374777,1.0188162326812744,-2.225541893635885
1708434998.4749975,-2.1418330669403076,-1.33382102966819,-2.5275233427630823,6.111667740135946,1.0188207626342773,-2.2255376021014612
1708434998.4770024,-2.1418824195861816,-1.3338583570769806,-2.5275278727160853,6.111606347351827,1.0187877416610718,-2.2255247274981897
1708434998.4789896,-2.1418957710266113,-1.333850548868515,-2.5274909178363245,6.1116405604179285,1.018796682357788,-2.225508991871969
1708434998.480991,-2.1418824195861816,-1.3338094365647812,-2.527581040059225,6.111568796425619,1.0187757015228271,-2.2255499998675745
1708434998.483038,-2.1418330669403076,-1.333834246998169,-2.5275266806231897,6.111643421440878,1.018784761428833,-2.2255261580096644
1708434998.484986,-2.1418542861938477,-1.3339084845832367,-2.5275028387652796,6.111582267075338,1.0188010931015015,-2.2254636923419397
1708434998.48701,-2.141918420791626,-1.333829866056778,-2.5275352636920374,6.111585604935446,1.0187876224517822,-2.2255261580096644
1708434998.4890022,-2.1418285369873047,-1.3338094365647812,-2.5275190512286585,6.111643540650167,1.0188088417053223,-2.225513283406393
1708434998.4910078,-2.141878128051758,-1.333841697578766,-2.527499500905172,6.111609208374777,1.018796682357788,-2.225513283406393
1708434998.4929895,-2.1418542861938477,-1.3338583272746583,-2.5275071302997034,6.111577856331625,1.0187803506851196,-2.2255051771747034
1708434998.4949768,-2.1418542861938477,-1.333892123108246,-2.5275071302997034,6.111590015679159,1.0188179016113281,-2.2255547682391565
1708434998.497031,-2.1418330669403076,-1.3338583272746583,-2.5275114218341272,6.111598956375875,1.0188010931015015,-2.2254965941058558
1708434998.498995,-2.1418938636779785,-1.333849550490715,-2.5274654070483606,6.111590015679159,1.0188010931015015,-2.2255051771747034
1708434998.501007,-2.141866683959961,-1.3338583272746583,-2.52751595178713,6.111663210182943,1.0187803506851196,-2.2254889647113245
1708434998.5030234,-2.1418867111206055,-1.3338505190661927,-2.527548615132467,6.1116182682807825,1.0188251733779907,-2.2255051771747034
1708434998.50501,-2.1418542861938477,-1.3338714849999924,-2.5274952093707483,6.111625659256735,1.018796682357788,-2.2255008856402796
1708434998.507045,-2.141849994659424,-1.3338417720845719,-2.5274983088122767,6.111601936608114,1.018784761428833,-2.2255218664752405
1708434998.509021,-2.1418368816375732,-1.333834246998169,-2.5275471846209925,6.111603486328878,1.0188010931015015,-2.2255051771747034
1708434998.5110002,-2.1418416500091553,-1.3338373017362137,-2.5274696985827845,6.111663329392233,1.018789291381836,-2.2255175749408167
1708434998.513025,-2.141849994659424,-1.3338790994933625,-2.5274863878833216,6.111597406655111,1.018784761428833,-2.2254889647113245
1708434998.514996,-2.1418585777282715,-1.3338583272746583,-2.5275114218341272,6.111540543823995,1.0188010931015015,-2.225520435963766
1708434998.516982,-2.1418981552124023,-1.3338373017362137,-2.5275028387652796,6.11155246475295,1.0187726020812988,-2.2255376021014612
1708434998.5189977,-2.1418867111206055,-1.3338671934655686,-2.5274952093707483,6.111603367119589,1.01878023147583,-2.2254918257342737
1708434998.520973,-2.141866683959961,-1.333813877110817,-2.5275071302997034,6.111610758095541,1.0188387632369995,-2.2255261580096644
1708434998.5230043,-2.1418752670288086,-1.333850548868515,-2.5274909178363245,6.111610758095541,1.0188010931015015,-2.2255547682391565
1708434998.52501,-2.141906976699829,-1.333841697578766,-2.5275028387652796,6.111594426422872,1.018796682357788,-2.2255290190326136
1708434998.52699,-2.141918420791626,-1.333850548868515,-2.5275114218341272,6.111589896469869,1.018763542175293,-2.2255423704730433
1708434998.528987,-2.1418416500091553,-1.3338714849999924,-2.5275352636920374,6.111592876702108,1.018789291381836,-2.2255290190326136
1708434998.530972,-2.1418371200561523,-1.3338714849999924,-2.5274997393237513,6.111631738930502,1.018805742263794,-2.2255333105670374
1708434998.5330129,-2.1419265270233154,-1.333818258052208,-2.52751595178713,6.111573207169332,1.0187757015228271,-2.2254918257342737
1708434998.534988,-2.1418330669403076,-1.333818258052208,-2.5274997393237513,6.111606347351827,1.0188342332839966,-2.2255290190326136
1708434998.5369883,-2.1418631076812744,-1.3338834655335923,-2.5275397936450403,6.111588465958395,1.018751621246338,-2.225513283406393
1708434998.5389895,-2.141866683959961,-1.333850548868515,-2.5275190512286585,6.11164807060317,1.0188207626342773,-2.225508991871969
1708434998.5409758,-2.1418778896331787,-1.333846167927124,-2.5274820963488978,6.111634599953451,1.0187803506851196,-2.2255290190326136
1708434998.5430014,-2.141812801361084,-1.3338878017714997,-2.5275397936450403,6.1116301892097376,1.0187877416610718,-2.2255008856402796
1708434998.5449772,-2.1418213844299316,-1.3338583272746583,-2.527477804814474,6.111588465958395,1.018796682357788,-2.2255547682391565
1708434998.547005,-2.1418585777282715,-1.3338329207948227,-2.527494017277853,6.111585485726156,1.018784761428833,-2.225508991871969
1708434998.5489943,-2.1418938636779785,-1.3338921827128907,-2.5274820963488978,6.111610758095541,1.018768072128296,-2.2255457083331507
1708434998.5509727,-2.1418938636779785,-1.3338373017362137,-2.5274696985827845,6.111601936608114,1.0187382698059082,-2.225546662007467
1708434998.5529804,-2.141849994659424,-1.333841697578766,-2.5274863878833216,6.111610758095541,1.018822431564331,-2.225513283406393
1708434998.5549963,-2.1418824195861816,-1.3337930899909516,-2.5274532477008265,6.111594426422872,1.01875901222229,-2.225513283406393
1708434998.557032,-2.141845703125,-1.3338548553041,-2.527482811604635,6.111660229950704,1.0187921524047852,-2.2254636923419397
1708434998.5590196,-2.1418585777282715,-1.3338253808072587,-2.527499500905172,6.111598956375875,1.018768072128296,-2.225513283406393
1708434998.560986,-2.1418709754943848,-1.333834246998169,-2.5274696985827845,6.111651289253988,1.0188465118408203,-2.225541416798727
1708434998.5629888,-2.1418542861938477,-1.3338094067624588,-2.527478281651632,6.111657130509176,1.018805742263794,-2.2254932562457483
1708434998.5649757,-2.1418910026550293,-1.333850548868515,-2.5274489561664026,6.111585485726156,1.018763542175293,-2.2255590597735804
1708434998.5669975,-2.1418709754943848,-1.3338671934655686,-2.5275028387652796,6.111613857537069,1.018822431564331,-2.2255376021014612
1708434998.56898,-2.1418631076812744,-1.3338253808072587,-2.5274983088122767,6.111613857537069,1.0187382698059082,-2.2255290190326136
1708434998.5709572,-2.1418709754943848,-1.333813877110817,-2.5274909178363245,6.111588346749105,1.0187712907791138,-2.2255008856402796
1708434998.5730126,-2.1418540477752686,-1.3338671636632462,-2.5275190512286585,6.111639129906454,1.018763542175293,-2.22553521791567
1708434998.5749853,-2.1418709754943848,-1.3338627827218552,-2.5275397936450403,6.111672270088949,1.0187921524047852,-2.2255290190326136
1708434998.57701,-2.141906976699829,-1.333829866056778,-2.5275309721576136,6.111625659256735,1.0187920331954956,-2.2254965941058558
1708434998.5789936,-2.1418752670288086,-1.3338139069131394,-2.5274909178363245,6.111625659256735,1.0188010931015015,-2.225459400807516
1708434998.5809872,-2.141918420791626,-1.333846167927124,-2.5275560061084192,6.111639129906454,1.0187758207321167,-2.225459400807516
1708434998.5830295,-2.141849994659424,-1.3338373017362137,-2.5274997393237513,6.111531603127279,1.0188010931015015,-2.2254965941058558
1708434998.5850132,-2.141902446746826,-1.333846167927124,-2.527494017277853,6.11160038688735,1.0187803506851196,-2.225504223500387
1708434998.587023,-2.1418910026550293,-1.3338548553041,-2.5274997393237513,6.111572015076437,1.018789291381836,-2.2255051771747034
1708434998.5890174,-2.1418540477752686,-1.3338548553041,-2.5275233427630823,6.111613857537069,1.018796682357788,-2.2255547682391565
1708434998.591001,-2.1418540477752686,-1.3338583272746583,-2.527478281651632,6.111592876702108,1.018796682357788,-2.2254965941058558
1708434998.5930216,-2.14192271232605,-1.3338583272746583,-2.527510468159811,6.111609208374777,1.01875901222229,-2.2255333105670374
1708434998.5949948,-2.141845464706421,-1.3338373315385361,-2.5274909178363245,6.111592876702108,1.018784761428833,-2.2255376021014612
1708434998.5969985,-2.141849994659424,-1.333841697578766,-2.5275233427630823,6.111667740135946,1.0187921524047852,-2.225520435963766
1708434998.598995,-2.141817092895508,-1.3337646883777161,-2.5274952093707483,6.111597406655111,1.018796682357788,-2.2254846731769007
1708434998.6009912,-2.141849994659424,-1.333838553433754,-2.5275028387652796,6.111622679024496,1.0187712907791138,-2.2255376021014612
1708434998.6030364,-2.141862392425537,-1.333825410609581,-2.5274739901172083,6.1116137383277795,1.0187876224517822,-2.2255261580096644
1708434998.6049998,-2.1418778896331787,-1.3338954162648697,-2.5274696985827845,6.11157642582015,1.0187830924987793,-2.225513283406393
1708434998.607006,-2.1418542861938477,-1.3338583272746583,-2.5274909178363245,6.111646878510275,1.0188374519348145,-2.2255008856402796
1708434998.608995,-2.1418867111206055,-1.333822564487793,-2.5274696985827845,6.111634599953451,1.0188044309616089,-2.2254918257342737
1708434998.6109686,-2.1418981552124023,-1.3338050705245514,-2.5274370352374476,6.111639129906454,1.0188207626342773,-2.2255218664752405
1708434998.6130192,-2.1418328285217285,-1.3338791143945237,-2.5274696985827845,6.111625540047445,1.0188207626342773,-2.225513283406393
1708434998.6149795,-2.1418752670288086,-1.3338671934655686,-2.527548376713888,6.111613857537069,1.0188088417053223,-2.225513283406393
1708434998.617024,-2.1418709754943848,-1.333838553433754,-2.5275190512286585,6.111581074982443,1.0187876224517822,-2.2255008856402796
1708434998.619015,-2.1418752670288086,-1.333829866056778,-2.5275147596942347,6.111622798233785,1.0188179016113281,-2.2255175749408167
1708434998.6209745,-2.1418709754943848,-1.3338373017362137,-2.5275071302997034,6.111625659256735,1.0188251733779907,-2.2255175749408167
1708434998.6230052,-2.1418867111206055,-1.3338834953359147,-2.5274909178363245,6.111592876702108,1.0188298225402832,-2.2255008856402796
1708434998.624987,-2.141906976699829,-1.333846167927124,-2.5275233427630823,6.111651408463278,1.0188044309616089,-2.2255218664752405
1708434998.626993,-2.1418542861938477,-1.3338373315385361,-2.5275278727160853,6.111564266472616,1.0188251733779907,-2.2255008856402796
1708434998.628991,-2.1418585777282715,-1.3338583272746583,-2.5275028387652796,6.111594426422872,1.0188329219818115,-2.2255333105670374
1708434998.630976,-2.1418540477752686,-1.3338671934655686,-2.5275071302997034,6.111634599953451,1.0188207626342773,-2.2255008856402796
1708434998.6330163,-2.141849994659424,-1.3338583272746583,-2.5275114218341272,6.111643659859457,1.0188162326812744,-2.2254918257342737
1708434998.6349838,-2.14192271232605,-1.333829866056778,-2.5275233427630823,6.111581074982443,1.0188251733779907,-2.2254636923419397
1708434998.6370063,-2.141902446746826,-1.3338583272746583,-2.5274863878833216,6.111646878510275,1.0188418626785278,-2.225508991871969
1708434998.6389992,-2.141866683959961,-1.3338373017362137,-2.527532164250509,6.111642348557272,1.018801212310791,-2.225492302571432
1708434998.641002,-2.1418304443359375,-1.3338548255017777,-2.5275114218341272,6.111631738930502,1.0188283920288086,-2.2255547682391565
1708434998.6429753,-2.1418585777282715,-1.3338865500739594,-2.5275071302997034,6.111660349159994,1.0188207626342773,-2.225508991871969
1708434998.6449766,-2.14192271232605,-1.3338627827218552,-2.5274909178363245,6.1116301892097376,1.0188583135604858,-2.2255008856402796
1708434998.646999,-2.141866683959961,-1.3338166189244767,-2.5275233427630823,6.1116182682807825,1.0188448429107666,-2.2255333105670374
1708434998.649003,-2.1418585777282715,-1.333850548868515,-2.5274983088122767,6.1116182682807825,1.018870234489441,-2.2255376021014612
1708434998.6509776,-2.1418910026550293,-1.3339116734317322,-2.5275278727160853,6.111639129906454,1.0188117027282715,-2.225520435963766
1708434998.6529872,-2.1418867111206055,-1.333825410609581,-2.5275309721576136,6.1116347191627405,1.018865704536438,-2.2255218664752405
1708434998.6549766,-2.1418542861938477,-1.3337932092002411,-2.5275397936450403,6.1116301892097376,1.0188374519348145,-2.225541416798727
1708434998.6570063,-2.1418867111206055,-1.333841697578766,-2.5275560061084192,6.111663329392233,1.0188329219818115,-2.2255247274981897
1708434998.6589854,-2.1418867111206055,-1.3338714849999924,-2.527544085179464,6.111567485123434,1.018870234489441,-2.225520435963766
1708434998.6609921,-2.141906976699829,-1.3338671934655686,-2.5274909178363245,6.111639129906454,1.0188283920288086,-2.225467030202047
1708434998.6629918,-2.1418371200561523,-1.333841697578766,-2.5275474230395716,6.111646878510275,1.0188746452331543,-2.2255376021014612
1708434998.664966,-2.1418256759643555,-1.3338518005660553,-2.5275028387652796,6.111613857537069,1.0187909603118896,-2.2254965941058558
1708434998.6669972,-2.1418535709381104,-1.3338746291450043,-2.5274983088122767,6.11161087730483,1.0188404321670532,-2.2255290190326136
1708434998.6689863,-2.141849994659424,-1.3338746291450043,-2.5275560061084192,6.1116301892097376,1.0188162326812744,-2.2255051771747034
1708434998.670967,-2.141862392425537,-1.3338702482036133,-2.5274863878833216,6.111625659256735,1.0188028812408447,-2.225480381642477
1708434998.673,-2.141845464706421,-1.333849550490715,-2.5275147596942347,6.11161087730483,1.018870234489441,-2.225459400807516
1708434998.6749737,-2.1418213844299316,-1.3338166636279603,-2.5275233427630823,6.1116182682807825,1.0188946723937988,-2.2255261580096644
1708434998.6769726,-2.141849994659424,-1.3338909459165116,-2.5275233427630823,6.1116182682807825,1.0188448429107666,-2.2255247274981897
1708434998.6789794,-2.1418302059173584,-1.3338373315385361,-2.5275071302997034,6.111639129906454,1.018865704536438,-2.2255175749408167
1708434998.680996,-2.1418631076812744,-1.333829866056778,-2.5275233427630823,6.1116301892097376,1.0188195705413818,-2.2255376021014612
1708434998.6830463,-2.1418416500091553,-1.333850548868515,-2.52751595178713,6.1116301892097376,1.0188865661621094,-2.2255457083331507
1708434998.6850426,-2.141873598098755,-1.3338539463332673,-2.5274863878833216,6.1116301892097376,1.0188404321670532,-2.2255008856402796
1708434998.68702,-2.1418631076812744,-1.3338791143945237,-2.5274952093707483,6.111613857537069,1.0188567638397217,-2.2255218664752405
1708434998.689003,-2.1418824195861816,-1.3338865500739594,-2.5274909178363245,6.111622679024496,1.0188990831375122,-2.2255547682391565
1708434998.6909835,-2.1418955326080322,-1.3339072477868577,-2.5274620691882532,6.111634599953451,1.0188359022140503,-2.225520435963766
1708434998.6930237,-2.1418631076812744,-1.333841712479927,-2.5275428930865687,6.111625659256735,1.018902063369751,-2.225513283406393
1708434998.6949756,-2.1418824195861816,-1.333859236245491,-2.5275102297412317,6.1116723892982385,1.018890142440796,-2.2255709807025355
1708434998.6969888,-2.141846179962158,-1.333797575240471,-2.527544085179464,6.1116182682807825,1.0188522338867188,-2.2255457083331507
1708434998.6989954,-2.141906976699829,-1.333841697578766,-2.5275114218341272,6.111606347351827,1.0188730955123901,-2.2255662123309534
1708434998.7009745,-2.1418542861938477,-1.3338139069131394,-2.5275028387652796,6.111601936608114,1.0188820362091064,-2.2255376021014612
1708434998.7030027,-2.1418843269348145,-1.3338702482036133,-2.5275102297412317,6.111622679024496,1.018843173980713,-2.2255175749408167
1708434998.7049732,-2.1418368816375732,-1.333841697578766,-2.5274863878833216,6.111597406655111,1.0188686847686768,-2.225520435963766
1708434998.706979,-2.1418910026550293,-1.3338583272746583,-2.5275517145739954,6.1116301892097376,1.0188612937927246,-2.225537125264303
1708434998.7089846,-2.1418752670288086,-1.3338658672622223,-2.5275517145739954,6.111655819206991,1.0188312530517578,-2.2254965941058558
1708434998.7109814,-2.1418631076812744,-1.333842934375145,-2.5275190512286585,6.111559736519613,1.01888108253479,-2.2255261580096644
1708434998.713033,-2.1418957710266113,-1.333841712479927,-2.5275233427630823,6.111622679024496,1.0188730955123901,-2.2255576292621058
1708434998.7149856,-2.1418330669403076,-1.333834246998169,-2.5275190512286585,6.111601936608114,1.0188857316970825,-2.2255247274981897
1708434998.7170336,-2.1418709754943848,-1.3338548255017777,-2.5275114218341272,6.111637937813558,1.0188523530960083,-2.2254846731769007
1708434998.7190242,-2.1418585777282715,-1.333916113977768,-2.5275028387652796,6.111604797631063,1.0188766717910767,-2.2255261580096644
1708434998.7209604,-2.141855001449585,-1.333818258052208,-2.527536455784933,6.111621129303732,1.0188312530517578,-2.2255457083331507
1708434998.7229984,-2.141846179962158,-1.333846167927124,-2.5274863878833216,6.111670362740316,1.018902063369751,-2.2255457083331507
1708434998.7249956,-2.141839027404785,-1.3338373017362137,-2.527564827595846,6.111655819206991,1.0188686847686768,-2.2254965941058558
1708434998.7270124,-2.1418347358703613,-1.3338671636632462,-2.5275147596942347,6.111681210785665,1.018890142440796,-2.2255247274981897
1708434998.728994,-2.1418256759643555,-1.3339084845832367,-2.5275233427630823,6.111660349159994,1.018861174583435,-2.2255290190326136
1708434998.7309813,-2.141859292984009,-1.3338298958591004,-2.5275071302997034,6.111642348557272,1.0188820362091064,-2.2255499998675745
1708434998.7330058,-2.1418304443359375,-1.3338209998658677,-2.527477804814474,6.111582267075338,1.0188523530960083,-2.225530449544088
1708434998.7349813,-2.141817092895508,-1.3338583272746583,-2.5275114218341272,6.111631738930502,1.0188730955123901,-2.2255619207965296
1708434998.7370298,-2.1418256759643555,-1.333834246998169,-2.527494017277853,6.111652719765463,1.0188477039337158,-2.2255376021014612
1708434998.7390218,-2.141846179962158,-1.3338373017362137,-2.5275397936450403,6.111594426422872,1.0188329219818115,-2.2254965941058558
1708434998.741005,-2.1418004035949707,-1.333858312373497,-2.5275309721576136,6.111582267075338,1.0188404321670532,-2.2254932562457483
1708434998.743003,-2.141822338104248,-1.3338627827218552,-2.5275278727160853,6.111552345543661,1.0188567638397217,-2.2255547682391565
1708434998.7450047,-2.1418800354003906,-1.3338628125241776,-2.5275233427630823,6.111594426422872,1.0188404321670532,-2.225508991871969
1708434998.74702,-2.1418416500091553,-1.333879054789879,-2.5275266806231897,6.111598956375875,1.0188857316970825,-2.2254727522479456
1708434998.7490034,-2.1418585777282715,-1.333841697578766,-2.5274696985827845,6.111568796425619,1.018861174583435,-2.2255094687091272
1708434998.750972,-2.1418676376342773,-1.333916113977768,-2.5275278727160853,6.111585485726156,1.0188448429107666,-2.2255051771747034
1708434998.75298,-2.141792058944702,-1.333813877110817,-2.5275397936450403,6.111643540650167,1.0188374519348145,-2.2254231611834925
1708434998.7549908,-2.1418089866638184,-1.3338428747705002,-2.5274863878833216,6.111594426422872,1.018861174583435,-2.22546893755068
1708434998.756976,-2.141871929168701,-1.3338672083667298,-2.527482811604635,6.111590015679159,1.01884925365448,-2.2254603544818323
1708434998.7590163,-2.1418416500091553,-1.333846167927124,-2.5274739901172083,6.111631858139791,1.0188404321670532,-2.2254660765277308
1708434998.7610052,-2.1418676376342773,-1.3337975156358262,-2.527564827595846,6.111613857537069,1.0188448429107666,-2.225457493458883
1708434998.763003,-2.1418347358703613,-1.3338254255107422,-2.5275071302997034,6.111561286240377,1.0188162326812744,-2.225440804158346
1708434998.7650166,-2.1418256759643555,-1.3337976348451157,-2.5275071302997034,6.111556756287374,1.0188567638397217,-2.225473229085104
1708434998.7669926,-2.1418631076812744,-1.333841697578766,-2.5274820963488978,6.111622679024496,1.0188329219818115,-2.2254331747638147
1708434998.7689993,-2.1418347358703613,-1.3338790845922013,-2.527532164250509,6.111589896469869,1.01884925365448,-2.22540790239443
1708434998.7710032,-2.1418089866638184,-1.3337896776250382,-2.5275114218341272,6.111585485726156,1.01884925365448,-2.2254331747638147
1708434998.7730606,-2.1418800354003906,-1.3338062775186081,-2.527478281651632,6.111577737122335,1.0188539028167725,-2.2254212538348597
1708434998.77501,-2.1418585777282715,-1.3338473600200196,-2.5274909178363245,6.111500370293417,1.0188539028167725,-2.2253974119769495
1708434998.7770474,-2.141911506652832,-1.3338518005660553,-2.5274909178363245,6.111549484520712,1.0187757015228271,-2.2254298369037073
1708434998.778973,-2.1418542861938477,-1.3338225793889542,-2.527478281651632,6.111643540650167,1.0187830924987793,-2.225388828908102
1708434998.780982,-2.1418542861938477,-1.333850548868515,-2.527478281651632,6.111564266472616,1.0188207626342773,-2.225417439137594
1708434998.7830167,-2.1418004035949707,-1.333838553433754,-2.527487103139059,6.1116078970725916,1.0187711715698242,-2.22544509569277
1708434998.7850044,-2.141846179962158,-1.3338298362544556,-2.5274797121631067,6.111606347351827,1.0187803506851196,-2.2253764311419886
1708434998.787007,-2.1418631076812744,-1.3338474196246644,-2.527442757283346,6.111568677216329,1.018796682357788,-2.225417439137594
1708434998.7890065,-2.1418585777282715,-1.3338834953359147,-2.527450148259298,6.1116182682807825,1.0187921524047852,-2.2253764311419886
1708434998.7910118,-2.1418585777282715,-1.333826945429184,-2.527414385472433,6.1115912077720544,1.0187307596206665,-2.225373093281881
1708434998.7930305,-2.141817808151245,-1.333826945429184,-2.527400080357687,6.111598956375875,1.0187186002731323,-2.225344959889547
1708434998.7950025,-2.1418256759643555,-1.333850548868515,-2.527412239705221,6.111592876702108,1.0187487602233887,-2.225333038960592
1708434998.7969985,-2.141822338104248,-1.3338253808072587,-2.527379576359884,6.111606347351827,1.0187231302261353,-2.2253287474261683
1708434998.7989812,-2.1418585777282715,-1.333834246998169,-2.52736741701235,6.1116137383277795,1.018786072731018,-2.225344959889547
1708434998.8009791,-2.141817092895508,-1.333846167927124,-2.527334753667013,6.111536013870992,1.0187938213348389,-2.2253406683551233
1708434998.8030143,-2.1418585777282715,-1.333834246998169,-2.5273149649249476,6.111590015679159,1.0187443494796753,-2.2253292242633265
1708434998.8049815,-2.141822338104248,-1.333829866056778,-2.52733022371401,6.111639129906454,1.0187366008758545,-2.2252848784076136
1708434998.8069959,-2.1418800354003906,-1.3338253808072587,-2.527285639439718,6.111597406655111,1.0187320709228516,-2.225321594868795
1708434998.808983,-2.1418089866638184,-1.333892212515213,-2.527306143437521,6.111556875496664,1.0187623500823975,-2.225281540547506
1708434998.8110116,-2.1418676376342773,-1.333838553433754,-2.5272660891162317,6.111573207169332,1.0186961889266968,-2.22528583208193
1708434998.8129923,-2.141850471496582,-1.3338658225587388,-2.5273073355304163,6.111606347351827,1.0187169313430786,-2.2252891699420374
1708434998.8149958,-2.1418676376342773,-1.333838553433754,-2.5272954146014612,6.111610758095541,1.0186344385147095,-2.225236717854635
1708434998.817001,-2.141846179962158,-1.3338461381248017,-2.5273118654834192,6.111577737122335,1.0186601877212524,-2.225264851246969
1708434998.8190262,-2.1418044567108154,-1.3337975603393097,-2.5272703806506556,6.111582267075338,1.0186402797698975,-2.2252453009234827
1708434998.8210275,-2.1418752670288086,-1.3338671934655686,-2.5273073355304163,6.111581074982443,1.018623948097229,-2.2252491156207483
1708434998.823007,-2.1418955326080322,-1.3338342618993302,-2.5272792021380823,6.111540424614706,1.018612027168274,-2.225229088460104
1708434998.8249907,-2.1418371200561523,-1.3337808859399338,-2.5272584597217005,6.111528980522909,1.0186001062393188,-2.225241009389059
1708434998.826994,-2.141846179962158,-1.333829866056778,-2.5273237864123743,6.111606347351827,1.018566608428955,-2.2252710501300257
1708434998.829017,-2.1418631076812744,-1.333846167927124,-2.5272584597217005,6.111598956375875,1.0185638666152954,-2.225241009389059
1708434998.8309796,-2.1418416500091553,-1.333859236245491,-2.527328077946798,6.111606347351827,1.0185188055038452,-2.225168053303854
1708434998.8329854,-2.1418285369873047,-1.3338714849999924,-2.5272792021380823,6.111615288048544,1.0185233354568481,-2.2251766363727015
1708434998.834988,-2.1418910026550293,-1.3338253957084198,-2.5272629896747034,6.111643659859457,1.0185368061065674,-2.2252734343158167
1708434998.8369894,-2.1418867111206055,-1.3337646287730713,-2.527254883443014,6.111540424614706,1.0184721946716309,-2.225229088460104
1708434998.8389852,-2.1418371200561523,-1.333797575240471,-2.527246061955587,6.111631858139791,1.0184437036514282,-2.2252710501300257
1708434998.8410263,-2.1418330669403076,-1.3338747036508103,-2.5272637049304407,6.111606347351827,1.0184179544448853,-2.2252004782306116
1708434998.8429842,-2.1418328285217285,-1.3338627976230164,-2.527222220097677,6.111639129906454,1.0184437036514282,-2.2252214590655726
1708434998.8449848,-2.1418542861938477,-1.333842934375145,-2.527259174977438,6.111651408463278,1.0184240341186523,-2.2252090612994593
1708434998.8470168,-2.141906976699829,-1.333801956181862,-2.527254883443014,6.11160026767806,1.0184359550476074,-2.225217644368307
1708434998.8490129,-2.1418867111206055,-1.33387145519767,-2.52722675005068,6.111674892693319,1.0183908939361572,-2.225180451069967
1708434998.851041,-2.1418542861938477,-1.3338505041650315,-2.527177635823385,6.111685502320089,1.0184208154678345,-2.2252090612994593
1708434998.853017,-2.1418542861938477,-1.3338139069131394,-2.5272234121905726,6.111755955010214,1.018383502960205,-2.2252004782306116
1708434998.854986,-2.141914129257202,-1.333838553433754,-2.5272191206561487,6.111742484360494,1.018388032913208,-2.2252257505999964
1708434998.8570025,-2.1418895721435547,-1.3338636320880433,-2.527210299168722,6.111806499748983,1.0183262825012207,-2.225147072468893
1708434998.8593726,-2.1418964862823486,-1.333838553433754,-2.5271742979632776,6.111842620163717,1.0183067321777344,-2.2251933256732386
1708434998.8609896,-2.1419308185577393,-1.3338582974723359,-2.5271952787982386,6.111821639328756,1.0182859897613525,-2.2251604239093226
1708434998.863014,-2.1419506072998047,-1.3338225942901154,-2.5271998087512415,6.1118740914161584,1.018290400505066,-2.2251933256732386
1708434998.8649902,-2.1419389247894287,-1.3338138920119782,-2.5272071997271937,6.111899602204122,1.018301010131836,-2.2251723448382776
1708434998.8670197,-2.141995668411255,-1.333850548868515,-2.5271788279162806,6.111895072251119,1.0182795524597168,-2.2252257505999964
1708434998.869013,-2.141930103302002,-1.3338138622096558,-2.5271340052234095,6.1118975756462,1.01826012134552,-2.225173298512594
1708434998.8709793,-2.141953945159912,-1.333841712479927,-2.52717096010317,6.111945616989889,1.0182225704193115,-2.2252047697650355
1708434998.872986,-2.1419777870178223,-1.3338757914355774,-2.5271547476397913,6.111954676895895,1.0182225704193115,-2.225217644368307
1708434998.8749924,-2.1420185565948486,-1.3338429641774674,-2.527159039174215,6.111936557083883,1.0181912183761597,-2.2251723448382776
1708434998.8769722,-2.1420228481292725,-1.3338269603303452,-2.527212921773092,6.111993539124288,1.0181580781936646,-2.2251933256732386
1708434998.8789554,-2.1419804096221924,-1.3338094067624588,-2.527130905781881,6.111969697266378,1.0181552171707153,-2.2252419630633753
1708434998.8809576,-2.1420705318450928,-1.333834246998169,-2.527130667363302,6.11203812339858,1.0181217193603516,-2.2251723448382776
1708434998.8829753,-2.142050266265869,-1.3337808710387726,-2.5271382967578333,6.112024771958151,1.0181353092193604,-2.225185219441549
1708434998.885013,-2.142094373703003,-1.3338505637696763,-2.527139488850729,6.112036692887106,1.0181655883789062,-2.2252090612994593
1708434998.8870254,-2.1420986652374268,-1.333813877110817,-2.527090136204855,6.112142789154806,1.0181368589401245,-2.2252348105060022
1708434998.8889701,-2.1420722007751465,-1.3338329505971451,-2.527098004017965,6.112150656967916,1.0181277990341187,-2.2251561323748987
1708434998.8909853,-2.1421093940734863,-1.3338416826776047,-2.527053181325094,6.112177240639486,1.018120527267456,-2.2251527945147913
1708434998.8930407,-2.1421432495117188,-1.333911658530571,-2.5270662943469446,6.11221324184493,1.0181413888931274,-2.225189510975973
1708434998.8950005,-2.142134189605713,-1.333841697578766,-2.5270631949054163,6.1121864197547815,1.0180964469909668,-2.225173298512594
1708434998.8969624,-2.1421658992767334,-1.333825410609581,-2.5270913282977503,6.112268435745992,1.0180963277816772,-2.2252019087420862
1708434998.8989701,-2.1422109603881836,-1.3338539463332673,-2.5270305315600794,6.112325656204977,1.018022894859314,-2.22516900697817
1708434998.9009883,-2.142197608947754,-1.3338253957084198,-2.527100149785177,6.112328517227926,1.0180392265319824,-2.2251485029803675
1708434998.9030008,-2.142209053039551,-1.3338628721288224,-2.5271251837359827,6.112331139832296,1.0180466175079346,-2.2251203695880335
1708434998.9049785,-2.1421799659729004,-1.3338790994933625,-2.5270305315600794,6.112388121872701,1.0179941654205322,-2.2251980940448206
1708434998.9069815,-2.1422815322875977,-1.3338373315385361,-2.52706748643984,6.11241506317214,1.017974615097046,-2.2251647154437464
1708434998.9089816,-2.142317771911621,-1.3338583272746583,-2.5270567576037806,6.112528788834371,1.0179669857025146,-2.2251766363727015
1708434998.9110234,-2.1422929763793945,-1.33392387748275,-2.527026955281393,6.112569200783529,1.0179132223129272,-2.225103203450338
1708434998.913026,-2.142324924468994,-1.3338240397027512,-2.527039353047506,6.112607943802633,1.0179296731948853,-2.225177590047018
1708434998.914985,-2.1423656940460205,-1.333846167927124,-2.527018133793966,6.112664806633749,1.0179386138916016,-2.225157086049215
1708434998.9169693,-2.1424195766448975,-1.3338865798762818,-2.5270074049579065,6.112736689835348,1.0179024934768677,-2.225157086049215
1708434998.9190133,-2.1423840522766113,-1.3338298213532944,-2.526978079472677,6.112754332810201,1.0179024934768677,-2.2251251379596155
1708434998.9209936,-2.1424245834350586,-1.333850548868515,-2.526970450078146,6.112856137543478,1.0178663730621338,-2.2251623312579554
1708434998.9230118,-2.142462730407715,-1.3338006299785157,-2.526986900960104,6.1128588793571375,1.0179321765899658,-2.225133244191305
1708434998.9250188,-2.142441511154175,-1.3338539463332673,-2.5269625822650355,6.112923252373495,1.01787531375885,-2.225104633961813
1708434998.9269822,-2.142472267150879,-1.3338298362544556,-2.526975933705465,6.112938153534689,1.0178468227386475,-2.2251418272601526
1708434998.9290261,-2.142517566680908,-1.3338658672622223,-2.526971403752462,6.113023268967428,1.0178303718566895,-2.2251251379596155
1708434998.9309952,-2.1425299644470215,-1.3338865500739594,-2.526959482823507,6.113062369614401,1.0177854299545288,-2.22508412996401
1708434998.9330034,-2.1425423622131348,-1.3338702631047745,-2.5269508997546595,6.113122093468466,1.0177899599075317,-2.2251251379596155
1708434998.9350135,-2.142540454864502,-1.3338539463332673,-2.5269387404071253,6.113153445511617,1.0177748203277588,-2.225088898335592
1708434998.9370036,-2.142564296722412,-1.3338496100953598,-2.5269551912890833,6.1132579920585535,1.0177446603775024,-2.225093189870016
1708434998.9389937,-2.142601490020752,-1.3338373315385361,-2.5269222895251673,6.1133391735847376,1.0177748203277588,-2.2250564734088343
1708434998.940984,-2.1426217555999756,-1.3338539463332673,-2.526947323475973,6.113342034607687,1.0177385807037354,-2.225044552479879
1708434998.9430163,-2.1426331996917725,-1.3338834953359147,-2.526968542729513,6.113450991898336,1.0177717208862305,-2.224971119557516
1708434998.9449837,-2.142648220062256,-1.3338777881911774,-2.5269551912890833,6.113489615708151,1.0177340507507324,-2.2249682585345667
1708434998.9469981,-2.142648220062256,-1.3338865500739594,-2.526919190083639,6.1135363457496545,1.0177310705184937,-2.2249844709979456
1708434998.9489853,-2.142672061920166,-1.333845154648163,-2.526931111012594,6.1136138317878626,1.0176604986190796,-2.224973503743307
1708434998.9509928,-2.1427531242370605,-1.3338702482036133,-2.52690297762026,6.113694894104757,1.0177074670791626,-2.224900547658102
1708434998.9530196,-2.1426827907562256,-1.3339151006988068,-2.526870075856344,6.113716828614034,1.0176993608474731,-2.224806610737936
1708434998.954984,-2.1427693367004395,-1.3339239072850724,-2.5269115606891077,6.113752949028768,1.0177490711212158,-2.224807087575094
1708434998.957,-2.1427435874938965,-1.3338658225587388,-2.5269115606891077,6.113742339401998,1.0176411867141724,-2.224800411854879
1708434998.9590147,-2.14280104637146,-1.3338526797345658,-2.5268831888781946,6.113791811257162,1.0177083015441895,-2.224722687398092
1708434998.9609902,-2.142810821533203,-1.3339592528394242,-2.5268667379962366,6.1138964770133875,1.0176546573638916,-2.224768940602438
1708434998.963044,-2.142819404602051,-1.333922566180565,-2.526845995579855,6.113904225617208,1.0176591873168945,-2.2246392408954065
1708434998.964991,-2.1428513526916504,-1.333983377819397,-2.5268710295306605,6.113939511566915,1.0176048278808594,-2.2246678511248987
1708434998.9670117,-2.1428849697113037,-1.333921344285347,-2.5268471876727503,6.113995301514425,1.0176184177398682,-2.224586788808004
1708434998.9689953,-2.1429202556610107,-1.3339258444360276,-2.5268753210650843,6.114051806717672,1.0176184177398682,-2.2245424429522913
1708434998.970977,-2.14288330078125,-1.3339626503041764,-2.5268471876727503,6.114041316300192,1.017585277557373,-2.2244823614703577
1708434998.9729993,-2.1429567337036133,-1.3339329671910782,-2.526851479207174,6.114089238434591,1.0175689458847046,-2.224520508443014
1708434998.9750066,-2.1429643630981445,-1.3339050126126786,-2.526835266743795,6.114122378617086,1.0175868272781372,-2.2244718710528772
1708434998.977009,-2.1429803371429443,-1.333965854053833,-2.5268026033984583,6.114174592285909,1.0175628662109375,-2.2244485060321253
1708434998.9790113,-2.142991065979004,-1.3339910370162507,-2.526835266743795,6.11424337604598,1.017595887184143,-2.224396053944723
1708434998.9809809,-2.1429998874664307,-1.3340076220086594,-2.5268190542804163,6.114237057953634,1.0175461769104004,-2.224363152180807
1708434998.983015,-2.1430845260620117,-1.3340107065490265,-2.526773993168966,6.114249217301168,1.0175178050994873,-2.224320713673727
1708434998.9849768,-2.1430530548095703,-1.3339811277440567,-2.5267871061908167,6.1142804501350305,1.0174967050552368,-2.224247757588522
1708434998.9870386,-2.1430511474609375,-1.3339910221150895,-2.526782814656393,6.114337432175436,1.0175386667251587,-2.224187676106588
1708434998.9890144,-2.1430466175079346,-1.3340467673591156,-2.526762072240011,6.114337312966146,1.0175268650054932,-2.2241395155536097
1708434998.9909737,-2.1431491374969482,-1.3340093356421967,-2.526782814656393,6.114393937378683,1.0175191164016724,-2.2240837256061
1708434998.993004,-2.1431527137756348,-1.3339768213084717,-2.52675444284548,6.114392745285787,1.0175191164016724,-2.2240403334247034
1708434998.9949622,-2.143126964569092,-1.3339855533889313,-2.5267913977252405,6.1144450781639,1.0174908638000488,-2.22391921678652
1708434998.9970074,-2.1431596279144287,-1.3340049099973221,-2.526762072240011,6.114464270859518,1.0174908638000488,-2.223834816609518
1708434998.998988,-2.143118143081665,-1.3340018701604386,-2.5267632643329065,6.114479410439291,1.0174620151519775,-2.2237632910357874
1708434999.0009933,-2.143200159072876,-1.3340466928533097,-2.5268245379077356,6.114545333176412,1.017466425895691,-2.223720375691549
1708434999.0030005,-2.143202781677246,-1.3339393597892304,-2.526738230382101,6.114548194199362,1.0174545049667358,-2.2235830465899866
1708434999.0049903,-2.1431827545166016,-1.3340423119119187,-2.5267303625689905,6.114604818611898,1.0174050331115723,-2.2234085241900843
1708434999.0070245,-2.1431939601898193,-1.3340256971171875,-2.5267632643329065,6.11461232879714,1.0174354314804077,-2.2234113852130335
1708434999.0090566,-2.1432275772094727,-1.3339767319015046,-2.5267556349383753,6.114598738938131,1.0174262523651123,-2.223274532948629
1708434999.0110338,-2.143259286880493,-1.3339930486730118,-2.5267797152148646,6.114685880928793,1.0173733234405518,-2.223132912312643
1708434999.0130153,-2.143223285675049,-1.3339481812766572,-2.5267556349383753,6.114652740746298,1.0173778533935547,-2.222997013722555
1708434999.014982,-2.1432347297668457,-1.3339855533889313,-2.5267260710345667,6.114708173065939,1.0173287391662598,-2.222910229359762
1708434999.01702,-2.143225908279419,-1.333988608126976,-2.5267348925219935,6.114754426270284,1.017337679862976,-2.222769085560934
1708434999.0189958,-2.1432461738586426,-1.3340256822160264,-2.5267513434039515,6.114690291672506,1.0173659324645996,-2.222599808369772
1708434999.0209749,-2.143193244934082,-1.3340212267688294,-2.5268002192126673,6.114723074227133,1.0173540115356445,-2.222481075917379
1708434999.023006,-2.143230438232422,-1.3340300780585785,-2.5267632643329065,6.114673602371969,1.01736319065094,-2.222370449696676
1708434999.0249875,-2.143279790878296,-1.3339974743178864,-2.5267062822925013,6.114745247154989,1.017346739768982,-2.2221596876727503
1708434999.0269973,-2.143258571624756,-1.334030107860901,-2.526776377354757,6.114682543068685,1.0173676013946533,-2.222011391316549
1708434999.0290205,-2.143237352371216,-1.3340093803456803,-2.5267062822925013,6.1147111532981775,1.0173430442810059,-2.221863571797506
1708434999.0309637,-2.143249750137329,-1.3339614284089585,-2.526698891316549,6.1146737215812585,1.0172427892684937,-2.2217000166522425
1708434999.0330017,-2.143254280090332,-1.3339855682900925,-2.5267348925219935,6.114662039070883,1.0173676013946533,-2.2214906851397913
1708434999.0349689,-2.143245220184326,-1.3340181422284623,-2.526748005543844,6.114675390511312,1.0173087120056152,-2.2213595549212855
1708434999.0370445,-2.143270969390869,-1.3340093952468415,-2.5267282168017786,6.114699232369222,1.0173296928405762,-2.221130673085348
1708434999.0390298,-2.143308162689209,-1.333993063574173,-2.526723925267355,6.114719974785604,1.0172804594039917,-2.2209466139422815
1708434999.0409884,-2.1433169841766357,-1.33401374638591,-2.5266738573657435,6.114679801255026,1.0172654390335083,-2.220733944569723
1708434999.0430133,-2.143282413482666,-1.3340300780585785,-2.526719395314352,6.114712583809652,1.017317771911621,-2.2205660978900355
