Eg3-git/Classifiers/Data Collection/u2/u2cir2_ur3e_joint_states.csv
time,elbow_joint,shoulder_lift_joint,shoulder_pan_joint,wrist_1_joint,wrist_2_joint,wrist_3_joint
1708434969.9389467,-2.1414265632629395,-1.3334586185267945,-2.52682334581484,6.110041248589315,1.0175538063049316,-2.1088646093951624
1708434969.9409437,-2.1414289474487305,-1.3334713739207764,-2.526848379765646,6.110029208451071,1.0175117254257202,-2.1088646093951624
1708434969.94295,-2.141500949859619,-1.3334997457316895,-2.52687651315798,6.11004267910079,1.0175461769104004,-2.108884636555807
1708434969.9453804,-2.141505479812622,-1.3334508550218125,-2.526827637349264,6.110023367195883,1.0175704956054688,-2.1088889280902308
1708434969.94699,-2.141453981399536,-1.3334955436042328,-2.52682334581484,6.110003697663107,1.0175416469573975,-2.1088560263263147
1708434969.9489672,-2.141507863998413,-1.333434672360756,-2.5268147627459925,6.110003697663107,1.0175342559814453,-2.108835045491354
1708434969.9509397,-2.1414380073547363,-1.3334756654552002,-2.526773993168966,6.110029208451071,1.0175206661224365,-2.1088975111590784
1708434969.9529703,-2.141462802886963,-1.3334918481162568,-2.526794735585348,6.109982716828146,1.0175416469573975,-2.1088765303241175
1708434969.954957,-2.141475200653076,-1.3334875863841553,-2.5268071333514612,6.110041248589315,1.0175268650054932,-2.1088274160968226
1708434969.9569745,-2.1414706707000732,-1.3334832352450867,-2.526799027119772,6.110006916313925,1.0175493955612183,-2.1088560263263147
1708434969.9589448,-2.141475200653076,-1.3334713590196152,-2.526794735585348,6.110015857010641,1.0175461769104004,-2.1089184919940394
1708434969.9609349,-2.1414663791656494,-1.333487556581833,-2.52682334581484,6.110015857010641,1.017508864402771,-2.1088975111590784
1708434969.9629667,-2.141500949859619,-1.333515615468361,-2.526843849812643,6.109953391342916,1.017536997795105,-2.1089094320880335
1708434969.9649768,-2.141467332839966,-1.33347903311763,-2.52682334581484,6.1100665209587,1.0175012350082397,-2.1088646093951624
1708434969.966979,-2.1414618492126465,-1.33347141862426,-2.526773993168966,6.110074031143942,1.0175342559814453,-2.1088646093951624
1708434969.9689429,-2.1415035724639893,-1.3334756654552002,-2.5268245379077356,6.110035168915548,1.017529845237732,-2.1088646093951624
1708434969.9709487,-2.1414875984191895,-1.3334997457316895,-2.526790205632345,6.110048639565267,1.0175223350524902,-2.1088808218585413
1708434969.973015,-2.1414830684661865,-1.3334669929793854,-2.526799027119772,6.109969365387716,1.0175505876541138,-2.108851734791891
1708434969.974977,-2.141475200653076,-1.333455206160881,-2.526820246373312,6.110015857010641,1.0175056457519531,-2.1088603178607386
1708434969.9769423,-2.141500949859619,-1.3334832352450867,-2.52682334581484,6.110039698868551,1.0175179243087769,-2.1089018026935022
1708434969.9789798,-2.1414990425109863,-1.3335114282420655,-2.526839558278219,6.109997975617208,1.017510175704956,-2.1088560263263147
1708434969.9809544,-2.141523838043213,-1.3334594827941437,-2.526794735585348,6.109987246781149,1.0175179243087769,-2.1088483969317835
1708434969.982972,-2.1414875984191895,-1.3334670674851914,-2.526827637349264,6.110032188683309,1.0174938440322876,-2.1088560263263147
1708434969.9849763,-2.1414706707000732,-1.3334628206542511,-2.526827637349264,6.1099737761314294,1.0175145864486694,-2.1088808218585413
1708434969.986936,-2.141512393951416,-1.3334628653577347,-2.5268071333514612,6.110039698868551,1.0174891948699951,-2.1088808218585413
1708434969.9890041,-2.141523838043213,-1.333511398439743,-2.52682334581484,6.110030638962545,1.0174891948699951,-2.1088932196246546
1708434969.990948,-2.141475200653076,-1.33356028914962,-2.526815716420309,6.109978306084432,1.0174560546875,-2.1088808218585413
1708434969.9929984,-2.1414787769317627,-1.3335317981294175,-2.526799027119772,6.110039698868551,1.0174893140792847,-2.1088393370257776
1708434969.9949563,-2.141512393951416,-1.3335816276124497,-2.526773993168966,6.110060441284933,1.0175026655197144,-2.1089022795306605
1708434969.9969554,-2.1414785385131836,-1.3335566085628052,-2.526799027119772,6.110023367195883,1.017498254776001,-2.1089065710650843
1708434969.9989388,-2.1415274143218994,-1.3335190874389191,-2.5267654101001185,6.110048639565267,1.0174819231033325,-2.10887319246401
1708434970.0009987,-2.14151930809021,-1.3334714037230988,-2.526815954838888,6.109966623574056,1.0175118446350098,-2.1088603178607386
1708434970.0030065,-2.1414706707000732,-1.3334628653577347,-2.526782814656393,6.110089170723715,1.0174696445465088,-2.1088393370257776
1708434970.0049536,-2.1414663791656494,-1.3335083735040207,-2.526794735585348,6.110060560494222,1.017466425895691,-2.1089022795306605
1708434970.0069911,-2.1414742469787598,-1.3334466230920334,-2.5267751852618616,6.1099902270133875,1.0174620151519775,-2.108856980000631
1708434970.0089538,-2.1415441036224365,-1.33356028914962,-2.5268078486071985,6.110098111420431,1.0174485445022583,-2.1088407675372522
1708434970.0109606,-2.1414945125579834,-1.3335199666074296,-2.5268033186541956,6.110035288124838,1.0174652338027954,-2.1088646093951624
1708434970.0129647,-2.1415035724639893,-1.3334832352450867,-2.526766602193014,6.110044109612264,1.017429232597351,-2.1088646093951624
1708434970.014947,-2.1415319442749023,-1.3335126352361222,-2.526799027119772,6.110039698868551,1.0174200534820557,-2.1089184919940394
1708434970.016947,-2.141536235809326,-1.333504096870758,-2.526770893727438,6.110069501190939,1.0174708366394043,-2.108856980000631
1708434970.0189495,-2.141523838043213,-1.3334790629199524,-2.526782814656393,6.109962212830343,1.0174908638000488,-2.1088154951678675
1708434970.0209346,-2.14151930809021,-1.3335126352361222,-2.526790205632345,6.110051619797506,1.0174574851989746,-2.108910862599508
1708434970.0229642,-2.1414990425109863,-1.3334799271873017,-2.526790205632345,6.110048639565267,1.0174665451049805,-2.108803097401754
1708434970.0249429,-2.1414921283721924,-1.333495558505394,-2.5268076101886194,6.110072719841757,1.0174620151519775,-2.1088364760028284
1708434970.0269494,-2.1414706707000732,-1.3335041415742417,-2.526820246373312,6.1100560305412195,1.0174262523651123,-2.1088245550738733
1708434970.0289888,-2.1415016651153564,-1.3334748160890122,-2.526794735585348,6.109997856407919,1.0174590349197388,-2.1087868849383753
1708434970.0309408,-2.1414945125579834,-1.3335233640721817,-2.526770893727438,6.110051619797506,1.0174140930175781,-2.1088364760028284
1708434970.0329914,-2.141515016555786,-1.3334628355554123,-2.5268364588366907,6.110059368401327,1.0173962116241455,-2.1088202635394495
1708434970.0349352,-2.141469717025757,-1.3334875863841553,-2.526820246373312,6.110030638962545,1.0174545049667358,-2.1088245550738733
1708434970.036955,-2.14151930809021,-1.3335114133409043,-2.526750151311056,6.110051619797506,1.017429232597351,-2.1088202635394495
1708434970.0389717,-2.14151930809021,-1.3334756654552002,-2.526815716420309,6.110056149750509,1.0174425840377808,-2.1088202635394495
1708434970.0409658,-2.1415059566497803,-1.333491326575615,-2.5268002192126673,6.1100114462669275,1.0174129009246826,-2.108845059071676
1708434970.0429475,-2.1415228843688965,-1.3335361641696473,-2.526750151311056,6.110014307289877,1.0174095630645752,-2.1088154951678675
1708434970.0449514,-2.141536235809326,-1.3334832352450867,-2.5267913977252405,6.110026347428121,1.017466425895691,-2.10887319246401
1708434970.0470035,-2.1415016651153564,-1.3335317981294175,-2.526745859776632,6.110035288124838,1.017421841621399,-2.108856980000631
1708434970.0490575,-2.1415035724639893,-1.3334586036256333,-2.5268076101886194,6.110044228821554,1.0174262523651123,-2.1087988058673304
1708434970.0509682,-2.1414899826049805,-1.3334790480187912,-2.526754681264059,6.110098111420431,1.0174262523651123,-2.108882252370016
1708434970.0530124,-2.141523838043213,-1.3335083735040207,-2.526782814656393,6.110063659935751,1.017421841621399,-2.108845059071676
1708434970.0549479,-2.1415274143218994,-1.333547980790474,-2.526733938847677,6.110002505570211,1.0174307823181152,-2.1088407675372522
1708434970.0570056,-2.1415555477142334,-1.3335114282420655,-2.526745859776632,6.110014307289877,1.0174262523651123,-2.108816448842184
1708434970.0589683,-2.1414830684661865,-1.333536149268486,-2.5267794767962855,6.110039698868551,1.017421841621399,-2.1088078657733362
1708434970.0609694,-2.1415274143218994,-1.333547980790474,-2.526770893727438,6.110051619797506,1.017397403717041,-2.108856980000631
1708434970.0629675,-2.1415228843688965,-1.3335317981294175,-2.5267794767962855,6.110051619797506,1.0174425840377808,-2.108816448842184
1708434970.0649407,-2.14151930809021,-1.3334912967732926,-2.5268076101886194,6.110072839051046,1.017418622970581,-2.1088364760028284
1708434970.0669818,-2.1415274143218994,-1.3335199517062684,-2.5267959276782435,6.110051619797506,1.0173945426940918,-2.108833138142721
1708434970.0689979,-2.1414856910705566,-1.3335199666074296,-2.5267840067492884,6.110084759980001,1.017364263534546,-2.108849827443258
1708434970.070945,-2.1415486335754395,-1.3334912967732926,-2.526788298283712,6.1100560305412195,1.0173524618148804,-2.108816448842184
1708434970.0729733,-2.1414856910705566,-1.3334508550218125,-2.526705567036764,6.110044109612264,1.017385482788086,-2.108854118977682
1708434970.074952,-2.1415600776672363,-1.3335317981294175,-2.526747767125265,6.110051619797506,1.017364263534546,-2.108800236378805
1708434970.076963,-2.1415059566497803,-1.3335126650384446,-2.526771847401754,6.110080110817709,1.0173615217208862,-2.108791176472799
1708434970.0789552,-2.1415398120880127,-1.3334790033153077,-2.526736084614889,6.1100772497947595,1.017382264137268,-2.1088250319110315
1708434970.0809562,-2.1414945125579834,-1.333483265047409,-2.526747767125265,6.11001883724288,1.017401933670044,-2.108784023915426
1708434970.0829756,-2.1415600776672363,-1.3334756803563614,-2.526731554661886,6.109981286316671,1.0173494815826416,-2.1087806860553187
1708434970.0849493,-2.141515016555786,-1.3334961396506806,-2.5267229715930384,6.110075700073995,1.0173704624176025,-2.1088059584247034
1708434970.0869758,-2.1414785385131836,-1.3335276258042832,-2.526731554661886,6.110015857010641,1.017311692237854,-2.1087473074542444
1708434970.088977,-2.1415274143218994,-1.333536149268486,-2.526682440434591,6.1100817797477625,1.0173778533935547,-2.1087563673602503
1708434970.0909498,-2.141536235809326,-1.3335114282420655,-2.5267282168017786,6.110072839051046,1.0173659324645996,-2.1087520758258265
1708434970.0930088,-2.1415138244628906,-1.3335028451732178,-2.526675049458639,6.109993445664205,1.0173420906066895,-2.1087806860553187
1708434970.0949767,-2.141515016555786,-1.3335437786630173,-2.52673584619631,6.110048639565267,1.0173405408859253,-2.1087473074542444
1708434970.0969727,-2.1414990425109863,-1.3334875863841553,-2.5267162958728235,6.110069501190939,1.0173990726470947,-2.1087191740619105
1708434970.0989563,-2.1414945125579834,-1.3334670227817078,-2.5267000834094446,6.1100772497947595,1.0173912048339844,-2.1087520758258265
1708434970.1009846,-2.1415352821350098,-1.333515615468361,-2.526666227971212,6.110039698868551,1.0173687934875488,-2.1087730566607874
1708434970.1029623,-2.1415274143218994,-1.3334790629199524,-2.526675049458639,6.110105502396383,1.0174199342727661,-2.108722511922018
1708434970.104981,-2.1415228843688965,-1.3335233491710206,-2.526691261922018,6.11001883724288,1.017319679260254,-2.1087940374957483
1708434970.106941,-2.1415274143218994,-1.333536149268486,-2.5266998449908655,6.110023367195883,1.0173496007919312,-2.1087892691241663
1708434970.1089563,-2.1414902210235596,-1.333446667795517,-2.526740376149313,6.1100560305412195,1.0173615217208862,-2.1087806860553187
1708434970.1109638,-2.1415059566497803,-1.333524228339531,-2.526682440434591,6.110009896546163,1.0173991918563843,-2.108753029500143
1708434970.1129627,-2.141515016555786,-1.3334381443313141,-2.5267446676837366,6.1100560305412195,1.017337679862976,-2.1087730566607874
1708434970.1149375,-2.141510486602783,-1.3335233491710206,-2.5266836325274866,6.110044109612264,1.0173614025115967,-2.1087401548968714
1708434970.116949,-2.1415555477142334,-1.3335688573173066,-2.526691261922018,6.11005316951827,1.017358422279358,-2.10873252550234
1708434970.1189585,-2.1415016651153564,-1.333507166509964,-2.526691261922018,6.1100772497947595,1.0173296928405762,-2.1087401548968714
1708434970.1209764,-2.1415228843688965,-1.3335317981294175,-2.526670519505636,6.110047089844503,1.0172806978225708,-2.1087401548968714
1708434970.1230114,-2.1415274143218994,-1.333547980790474,-2.526679340993063,6.110093581467428,1.0173250436782837,-2.108760658894674
1708434970.1249921,-2.1415398120880127,-1.3335403960994263,-2.526723925267355,6.110083210259237,1.017346739768982,-2.1087239424334925
1708434970.126969,-2.1415398120880127,-1.3335318279317399,-2.5266619364367884,6.11001883724288,1.017370343208313,-2.108764950429098
1708434970.12896,-2.1415486335754395,-1.333527610903122,-2.526679340993063,6.109981167107382,1.0173840522766113,-2.108748737965719
1708434970.1309443,-2.1415317058563232,-1.3334832352450867,-2.526691261922018,6.109997975617208,1.017346739768982,-2.10873252550234
1708434970.1329584,-2.141510486602783,-1.3334346574595948,-2.5266781489001673,6.110068309098043,1.0173296928405762,-2.1087239424334925
1708434970.1349401,-2.1415228843688965,-1.333446667795517,-2.5266998449908655,6.110072839051046,1.0173912048339844,-2.108760658894674
1708434970.1369956,-2.1414902210235596,-1.3334508550218125,-2.526679340993063,6.110044109612264,1.0173420906066895,-2.1087282339679163
1708434970.1389508,-2.1415555477142334,-1.3334628653577347,-2.526707712803976,6.11010097244338,1.0173312425613403,-2.10873252550234
1708434970.140946,-2.141515016555786,-1.3334790480187912,-2.526675049458639,6.110051619797506,1.017346739768982,-2.1087001005755823
1708434970.1429589,-2.1415016651153564,-1.333547980790474,-2.526658598576681,6.110080110817709,1.017346739768982,-2.1087282339679163
1708434970.144952,-2.14151930809021,-1.3334997457316895,-2.5266998449908655,6.110072839051046,1.0173161029815674,-2.108682934437887
1708434970.1470096,-2.141536235809326,-1.333515615468361,-2.526723925267355,6.110009896546163,1.017346739768982,-2.108704392110006
1708434970.148963,-2.1415486335754395,-1.3335438084653397,-2.526670519505636,6.110059368401327,1.0173250436782837,-2.108744446431295
1708434970.1509821,-2.1415352821350098,-1.3334790480187912,-2.526658598576681,6.110048639565267,1.0172713994979858,-2.108704392110006
1708434970.15296,-2.1415398120880127,-1.3334961247495194,-2.526703182850973,6.1100772497947595,1.0173512697219849,-2.108748737965719
1708434970.154935,-2.1415059566497803,-1.3335403960994263,-2.526691261922018,6.110064971237936,1.0173250436782837,-2.1087239424334925
1708434970.1569288,-2.1415352821350098,-1.3335317981294175,-2.526642386113302,6.110084640770712,1.017317771911621,-2.1087120215045374
1708434970.1589417,-2.141530752182007,-1.333515615468361,-2.526691261922018,6.110014307289877,1.0173041820526123,-2.1087239424334925
1708434970.160945,-2.1414971351623535,-1.333543748860695,-2.526707712803976,6.110021698265829,1.017317771911621,-2.108748737965719
1708434970.1629398,-2.141530752182007,-1.333507166509964,-2.526666227971212,6.110051619797506,1.0172849893569946,-2.108753506337301
1708434970.1649451,-2.141576051712036,-1.3335041117719193,-2.526682440434591,6.110026228218832,1.017317771911621,-2.108736817036764
1708434970.1669462,-2.1415646076202393,-1.3335083735040207,-2.526703182850973,6.110023367195883,1.0173133611679077,-2.108736817036764
1708434970.1689527,-2.1414971351623535,-1.333434672360756,-2.526703182850973,6.110098111420431,1.0173511505126953,-2.10874587694277
1708434970.1709504,-2.1415555477142334,-1.3334997457316895,-2.526662890111105,6.110039698868551,1.017334222793579,-2.108682934437887
1708434970.1729488,-2.1415274143218994,-1.333515615468361,-2.526642147694723,6.110030638962545,1.0173341035842896,-2.1087783018695276
1708434970.1749294,-2.1415183544158936,-1.3334826839021225,-2.526637856160299,6.110032188683309,1.0173205137252808,-2.1087163130389612
1708434970.1769834,-2.141448497772217,-1.333523304467537,-2.5267325083362024,6.109997975617208,1.017337679862976,-2.108678642903463
1708434970.1789885,-2.1415467262268066,-1.3334832352450867,-2.5267120043383997,6.109989034920492,1.0172683000564575,-2.1087163130389612
1708434970.1809285,-2.1415441036224365,-1.3335317981294175,-2.526675049458639,6.110023367195883,1.0173431634902954,-2.10870868364443
1708434970.182993,-2.1415600776672363,-1.3334912967732926,-2.526670519505636,6.110020386963644,1.0173430442810059,-2.1087048689471644
1708434970.1849465,-2.1415600776672363,-1.333495558505394,-2.5266335646258753,6.110035288124838,1.0173296928405762,-2.10870868364443
1708434970.1869578,-2.1414875984191895,-1.333524228339531,-2.5266836325274866,6.110023367195883,1.017317771911621,-2.108736817036764
1708434970.1889615,-2.1415228843688965,-1.333523378973343,-2.526715103779928,6.110030758171835,1.0173133611679077,-2.108691994343893
1708434970.190959,-2.1415441036224365,-1.3335233491710206,-2.5267162958728235,6.109997975617208,1.0173133611679077,-2.108687225972311
1708434970.1929424,-2.1415352821350098,-1.3334628355554123,-2.5266671816455286,6.110009896546163,1.0172637701034546,-2.108654801045553
1708434970.1949325,-2.1415059566497803,-1.333539531832077,-2.526675049458639,6.11006377914504,1.0173420906066895,-2.108687702809469
1708434970.1969593,-2.1415352821350098,-1.3334961247495194,-2.526662890111105,6.110059368401327,1.017317771911621,-2.108682934437887
1708434970.1989534,-2.1415274143218994,-1.3334508699229737,-2.5267162958728235,6.110023367195883,1.017317771911621,-2.1087339560138147
1708434970.200937,-2.1415555477142334,-1.33347903311763,-2.526658598576681,6.110084759980001,1.0173133611679077,-2.108682934437887
1708434970.203001,-2.1415228843688965,-1.3334714037230988,-2.526675049458639,6.110072719841757,1.0173029899597168,-2.108691994343893
1708434970.2049396,-2.1415441036224365,-1.333527610903122,-2.5267041365252894,6.110084640770712,1.017293930053711,-2.108675781880514
1708434970.2069502,-2.1415228843688965,-1.3335318130305787,-2.526649777089254,6.110051619797506,1.0172849893569946,-2.108687225972311
1708434970.2089548,-2.141510486602783,-1.3335523468307038,-2.5266781489001673,6.110050427704611,1.0173312425613403,-2.1087220350848597
1708434970.2109401,-2.141510486602783,-1.333467037682869,-2.5267325083362024,6.1100114462669275,1.0172607898712158,-2.1087172667132776
1708434970.212968,-2.1415016651153564,-1.333523378973343,-2.5266836325274866,6.110032188683309,1.0173403024673462,-2.1087501684771937
1708434970.2149434,-2.1415274143218994,-1.3334912967732926,-2.526662890111105,6.110014307289877,1.017317771911621,-2.108704392110006
1708434970.2169805,-2.141507863998413,-1.333495558505394,-2.5267446676837366,6.1100425598915,1.0172772407531738,-2.1087048689471644
1708434970.2189786,-2.1414971351623535,-1.333495558505394,-2.5267236868487757,6.11005316951827,1.0172817707061768,-2.1086977163897913
1708434970.2209544,-2.141576051712036,-1.3335114282420655,-2.5266879240619105,6.110026228218832,1.0173312425613403,-2.1086605230914515
1708434970.2229593,-2.1415512561798096,-1.3334912818721314,-2.526679340993063,6.1100337384040735,1.0172772407531738,-2.1086486021624964
1708434970.2249355,-2.1415557861328125,-1.33347903311763,-2.526679340993063,6.1100560305412195,1.017364740371704,-2.1086815039264124
1708434970.2269688,-2.1415183544158936,-1.3335438084653397,-2.526670519505636,6.1100772497947595,1.0172637701034546,-2.1086400190936487
1708434970.2289424,-2.1415274143218994,-1.3335071814111252,-2.5267520586596888,6.11004267910079,1.017293930053711,-2.1086648146258753
1708434970.2309337,-2.1414902210235596,-1.3335242432406922,-2.5267489592181605,6.1100772497947595,1.0172863006591797,-2.108608071004049
1708434970.2329538,-2.1415352821350098,-1.333455206160881,-2.526637856160299,6.110039698868551,1.0172743797302246,-2.108636204396383
1708434970.2349567,-2.1415274143218994,-1.3334832352450867,-2.526723925267355,6.110026228218832,1.0172984600067139,-2.108640495930807
1708434970.236946,-2.1414902210235596,-1.3335114282420655,-2.5266836325274866,6.110023367195883,1.0173075199127197,-2.108612362538473
1708434970.2389376,-2.141510486602783,-1.3334918481162568,-2.526691261922018,6.110027777939596,1.0172486305236816,-2.1086486021624964
1708434970.2409291,-2.1415016651153564,-1.333515615468361,-2.5266879240619105,6.110027777939596,1.0172984600067139,-2.108657185231344
1708434970.242938,-2.1415183544158936,-1.3335275214961548,-2.526703182850973,6.109993445664205,1.0172789096832275,-2.108603302632467
1708434970.244929,-2.1415441036224365,-1.3334913116744538,-2.526691261922018,6.1100114462669275,1.0172861814498901,-2.108612362538473
1708434970.246959,-2.1415059566497803,-1.333536149268486,-2.526658598576681,6.110093581467428,1.0172486305236816,-2.108628575001852
1708434970.2489588,-2.1414785385131836,-1.3335523468307038,-2.526675049458639,6.110027777939596,1.0172698497772217,-2.108608071004049
1708434970.2509613,-2.1415600776672363,-1.3335114282420655,-2.526649777089254,6.1100560305412195,1.0172607898712158,-2.108628575001852
1708434970.2529733,-2.1415274143218994,-1.3335114282420655,-2.526662890111105,6.110048639565267,1.0172276496887207,-2.108624283467428
1708434970.2549763,-2.1415185928344727,-1.3335404259017487,-2.5266955534564417,6.110011327057638,1.0172607898712158,-2.1086376349078577
1708434970.256954,-2.1415600776672363,-1.3334912967732926,-2.526658360158102,6.110021817475118,1.0172984600067139,-2.1086447874652308
1708434970.258942,-2.1415183544158936,-1.33347840726886,-2.526723925267355,6.109969365387716,1.0172817707061768,-2.108694378529684
1708434970.2609565,-2.141509532928467,-1.3335114282420655,-2.5266836325274866,6.11005316951827,1.0173075199127197,-2.108640495930807
1708434970.2629488,-2.1415352821350098,-1.3334790480187912,-2.5266671816455286,6.110032307892599,1.0172441005706787,-2.108608071004049
1708434970.264927,-2.1415317058563232,-1.3335083735040207,-2.5266998449908655,6.109985816269674,1.0172698497772217,-2.108624283467428
1708434970.2669945,-2.1415398120880127,-1.333515615468361,-2.5266299883471888,6.110068189888754,1.0172861814498901,-2.1086538473712366
1708434970.2689736,-2.1415441036224365,-1.333556057219841,-2.5266955534564417,6.110032188683309,1.0172576904296875,-2.108579937611715
1708434970.2709532,-2.1415016651153564,-1.3335003864816208,-2.5266836325274866,6.109999167710104,1.0172531604766846,-2.108608071004049
1708434970.2729626,-2.1415352821350098,-1.3334997606328507,-2.5266836325274866,6.110020386963644,1.017241358757019,-2.108612362538473
1708434970.2749338,-2.1415140628814697,-1.3334790480187912,-2.526662890111105,6.110002505570211,1.0172908306121826,-2.1086447874652308
1708434970.2769742,-2.1414945125579834,-1.3335327965072175,-2.526646677647726,6.110048639565267,1.0172698497772217,-2.108608071004049
1708434970.2789764,-2.1415317058563232,-1.3334747862866898,-2.526646677647726,6.109999167710104,1.0172654390335083,-2.108595673237936
1708434970.2809536,-2.1414945125579834,-1.3334756654552002,-2.526658598576681,6.110020506172933,1.0172743797302246,-2.1086376349078577
1708434970.2829745,-2.1415016651153564,-1.333504096870758,-2.5266998449908655,6.109971272736349,1.0172908306121826,-2.1085999647723597
1708434970.2849436,-2.1415274143218994,-1.333536149268486,-2.5266998449908655,6.110015857010641,1.0172654390335083,-2.108608071004049
1708434970.2869694,-2.1415555477142334,-1.3335114282420655,-2.526658598576681,6.109987365990438,1.0173075199127197,-2.1086209456073206
1708434970.288959,-2.1414971351623535,-1.3334997457316895,-2.5266879240619105,6.110045659333029,1.0172531604766846,-2.1086209456073206
1708434970.2909505,-2.1414787769317627,-1.3334756654552002,-2.5266836325274866,6.109973895340719,1.017295241355896,-2.108624283467428
1708434970.2929525,-2.1415352821350098,-1.3335404259017487,-2.5266509691821497,6.110032188683309,1.0172154903411865,-2.1086319128619593
1708434970.294941,-2.1415421962738037,-1.3334747862866898,-2.5266998449908655,6.110027777939596,1.0172576904296875,-2.108612362538473
1708434970.2969637,-2.1415183544158936,-1.333507166509964,-2.5267120043383997,6.1099902270133875,1.0172863006591797,-2.108612362538473
1708434970.2989595,-2.1414945125579834,-1.3335523468307038,-2.526691261922018,6.110014307289877,1.0172457695007324,-2.108595673237936
1708434970.3009562,-2.1414902210235596,-1.3335233491710206,-2.5266671816455286,6.110057580261984,1.0172667503356934,-2.1086037794696253
1708434970.3029883,-2.141530752182007,-1.3335317981294175,-2.5266955534564417,6.110036837845602,1.0172531604766846,-2.1086328665362757
1708434970.3049414,-2.1415352821350098,-1.3334790480187912,-2.526686731969015,6.110041248589315,1.0172576904296875,-2.1085999647723597
1708434970.306983,-2.1415317058563232,-1.3335242134383698,-2.526646439229147,6.109971272736349,1.0172607898712158,-2.1085761229144495
1708434970.3089674,-2.1415512561798096,-1.3334875863841553,-2.526658598576681,6.110036837845602,1.0172245502471924,-2.108579937611715
1708434970.3109598,-2.1415398120880127,-1.3335083735040207,-2.5266900698291224,6.110024916916647,1.0172953605651855,-2.108567539845602
1708434970.3129761,-2.1415352821350098,-1.3335233491710206,-2.526679340993063,6.109987246781149,1.0172923803329468,-2.108616654072897
1708434970.314939,-2.1415467262268066,-1.3335199666074296,-2.526658598576681,6.110020386963644,1.0172412395477295,-2.1085708777057093
1708434970.3169706,-2.1415274143218994,-1.333536149268486,-2.526646677647726,6.110003697663107,1.017278790473938,-2.108624283467428
1708434970.3189774,-2.1415317058563232,-1.3335275661996384,-2.5266836325274866,6.110017049103536,1.0172412395477295,-2.1086085478412073
1708434970.3209643,-2.141576051712036,-1.3335114282420655,-2.5266671816455286,6.109996187477865,1.017199158668518,-2.108582321797506
1708434970.3229892,-2.1415228843688965,-1.3334997457316895,-2.526649777089254,6.110024916916647,1.017241358757019,-2.108612362538473
1708434970.3249753,-2.1415317058563232,-1.333507166509964,-2.526642147694723,6.109987365990438,1.0172667503356934,-2.108608071004049
1708434970.3269844,-2.1415398120880127,-1.3334832352450867,-2.5266509691821497,6.109975683480062,1.0172743797302246,-2.1086629072772425
1708434970.3289375,-2.1414742469787598,-1.333495558505394,-2.5266671816455286,6.1099634049232385,1.0172531604766846,-2.1086090246783655
1708434970.3309565,-2.1414902210235596,-1.333527610903122,-2.5267162958728235,6.110024916916647,1.0172817707061768,-2.108612362538473
1708434970.3329434,-2.1415398120880127,-1.3335438084653397,-2.526662890111105,6.109991776734152,1.0172576904296875,-2.108595673237936
1708434970.3349237,-2.1415352821350098,-1.3335114282420655,-2.526662890111105,6.110029208451071,1.0172486305236816,-2.1086085478412073
1708434970.336957,-2.1415352821350098,-1.333564506178238,-2.5266388098346155,6.110015857010641,1.0172576904296875,-2.1086538473712366
1708434970.3389606,-2.1415228843688965,-1.3334747862866898,-2.5266509691821497,6.11000810840682,1.0172576904296875,-2.108595673237936
1708434970.3409507,-2.1415274143218994,-1.3335233491710206,-2.5266998449908655,6.1099891541297815,1.0172576904296875,-2.1086042563067835
1708434970.3429496,-2.141568899154663,-1.3334875863841553,-2.5266714731799524,6.109999167710104,1.0172743797302246,-2.1086376349078577
1708434970.3449633,-2.141510486602783,-1.3334870350411911,-2.5266714731799524,6.110041248589315,1.0172621011734009,-2.1086300055133265
1708434970.346981,-2.141510486602783,-1.3334705096534272,-2.5266552607165735,6.1099679348762415,1.0172743797302246,-2.1086209456073206
1708434970.3489568,-2.1415398120880127,-1.3335114282420655,-2.526658598576681,6.1100125191505334,1.0172425508499146,-2.1086085478412073
1708434970.3509371,-2.1415059566497803,-1.3335438084653397,-2.5266836325274866,6.110020386963644,1.0173447132110596,-2.108616654072897
1708434970.352956,-2.141510486602783,-1.3335114282420655,-2.526662890111105,6.109958994179525,1.0172576904296875,-2.1086257139789026
1708434970.35496,-2.1414856910705566,-1.3334747862866898,-2.5266836325274866,6.109966742783346,1.0172861814498901,-2.108575169240133
1708434970.3570192,-2.1415467262268066,-1.3335404259017487,-2.5267162958728235,6.109999167710104,1.0172502994537354,-2.108612362538473
1708434970.3589969,-2.1414902210235596,-1.333547980790474,-2.5266998449908655,6.109935152321615,1.0172457695007324,-2.1086037794696253
1708434970.3609407,-2.1415352821350098,-1.3334832352450867,-2.5267086664782923,6.109991776734152,1.0172367095947266,-2.108595673237936
1708434970.362967,-2.1415398120880127,-1.333524228339531,-2.5266836325274866,6.109987365990438,1.0173029899597168,-2.108640495930807
1708434970.3649788,-2.141576051712036,-1.3334912967732926,-2.5266345183001917,6.109976875572958,1.0172487497329712,-2.108612362538473
1708434970.3669639,-2.1415398120880127,-1.3335114282420655,-2.5266671816455286,6.109980094223776,1.0172576904296875,-2.108616654072897
1708434970.3689852,-2.1415274143218994,-1.333504096870758,-2.526654068623678,6.10993372181014,1.0172576904296875,-2.1086376349078577
1708434970.3709452,-2.1414856910705566,-1.3335233491710206,-2.526662890111105,6.109958994179525,1.0172743797302246,-2.108558479939596
1708434970.372956,-2.141530752182007,-1.3335352700999756,-2.5266509691821497,6.109930622368612,1.0172698497772217,-2.1086447874652308
1708434970.3749838,-2.1415555477142334,-1.333547980790474,-2.5266345183001917,6.109958994179525,1.0172621011734009,-2.1086376349078577
1708434970.3769388,-2.1414856910705566,-1.3334870350411911,-2.526642147694723,6.109971272736349,1.0172576904296875,-2.1085928122149866
1708434970.3789775,-2.1415183544158936,-1.333495558505394,-2.5267205874072474,6.109975683480062,1.0172412395477295,-2.108640495930807
1708434970.380967,-2.1415228843688965,-1.333515615468361,-2.5266998449908655,6.109999048500814,1.0172412395477295,-2.1086042563067835
1708434970.3829508,-2.1415486335754395,-1.3334912967732926,-2.526646677647726,6.110005128174581,1.017241358757019,-2.108588520680563
1708434970.3849466,-2.1415398120880127,-1.3334747862866898,-2.5266998449908655,6.1099469540412805,1.0172698497772217,-2.108603302632467
1708434970.38695,-2.1415228843688965,-1.3334508550218125,-2.526675049458639,6.110003697663107,1.0172187089920044,-2.108579937611715
1708434970.388965,-2.1415398120880127,-1.3334594827941437,-2.526637856160299,6.109930622368612,1.0172441005706787,-2.1086042563067835
1708434970.3909657,-2.1415274143218994,-1.3334918481162568,-2.526662890111105,6.110033857613363,1.0172576904296875,-2.108616654072897
1708434970.3929384,-2.1415016651153564,-1.333527610903122,-2.526691261922018,6.109948503762045,1.0172200202941895,-2.1086209456073206
1708434970.3949447,-2.1415274143218994,-1.3335317981294175,-2.5266924540149134,6.109921800881185,1.0172879695892334,-2.1086257139789026
1708434970.396949,-2.1415352821350098,-1.3334997457316895,-2.5266879240619105,6.109951603203573,1.0172576904296875,-2.108616654072897
1708434970.3989775,-2.1415352821350098,-1.3334912967732926,-2.526646677647726,6.109984624176779,1.0172698497772217,-2.1085928122149866
1708434970.400981,-2.141530752182007,-1.3335114282420655,-2.526658360158102,6.1099634049232385,1.0172698497772217,-2.1085665861712855
1708434970.4029422,-2.1415228843688965,-1.3335114282420655,-2.5266509691821497,6.109948503762045,1.0172441005706787,-2.108649555836813
1708434970.4049728,-2.1415016651153564,-1.3335404259017487,-2.526654068623678,6.109960424691,1.0172621011734009,-2.1086037794696253
1708434970.4069555,-2.141536235809326,-1.333527610903122,-2.526646677647726,6.109981286316671,1.0172743797302246,-2.108612362538473
1708434970.4089468,-2.1415531635284424,-1.333504096870758,-2.5267205874072474,6.109926211624899,1.0172531604766846,-2.108636204396383
1708434970.4109633,-2.14151930809021,-1.333491863017418,-2.526662890111105,6.109948503762045,1.0171947479248047,-2.108616654072897
1708434970.4129567,-2.1415398120880127,-1.3334912967732926,-2.5266998449908655,6.109939682274618,1.0173403024673462,-2.108616654072897
1708434970.414986,-2.1415512561798096,-1.333458588724472,-2.526691261922018,6.109930622368612,1.0172908306121826,-2.108616654072897
1708434970.4169614,-2.1414856910705566,-1.333527610903122,-2.526679340993063,6.109969484597006,1.0172863006591797,-2.108616654072897
1708434970.418941,-2.1415398120880127,-1.333495558505394,-2.5266955534564417,6.109932172089376,1.0172531604766846,-2.1086447874652308
1708434970.4209707,-2.1414742469787598,-1.333547980790474,-2.526707712803976,6.110002624779501,1.0172817707061768,-2.108579937611715
1708434970.4229696,-2.1414618492126465,-1.3335190874389191,-2.5266290346728724,6.109944093018331,1.0172531604766846,-2.108616654072897
1708434970.4249506,-2.1415531635284424,-1.3334714037230988,-2.526646677647726,6.109927761345663,1.0173447132110596,-2.108616654072897
1708434970.426921,-2.141510486602783,-1.3335199666074296,-2.526658598576681,6.1099902270133875,1.0172698497772217,-2.108608071004049
1708434970.4289424,-2.141510486602783,-1.3335190874389191,-2.526658598576681,6.109882700234213,1.0172984600067139,-2.1086328665362757
1708434970.4309356,-2.1415274143218994,-1.3334628653577347,-2.526649777089254,6.109915482788839,1.017251968383789,-2.108584229146139
1708434970.432937,-2.1415059566497803,-1.3335083288005372,-2.526679340993063,6.109910952835836,1.0173029899597168,-2.1086538473712366
1708434970.4349442,-2.1415627002716064,-1.3334912967732926,-2.526679340993063,6.109933364182272,1.0172654390335083,-2.108619991933004
1708434970.436951,-2.1414787769317627,-1.3335233491710206,-2.526679340993063,6.109924423485555,1.0173075199127197,-2.108595673237936
1708434970.4389775,-2.141530752182007,-1.333515615468361,-2.5267325083362024,6.109920012741842,1.017290711402893,-2.1085999647723597
1708434970.4409628,-2.1415183544158936,-1.3335317981294175,-2.526642386113302,6.109941231995382,1.0172698497772217,-2.108619991933004
1708434970.4429774,-2.1415398120880127,-1.3334747862866898,-2.5266595522509974,6.1098917601402185,1.0172698497772217,-2.1086042563067835
1708434970.444946,-2.1415441036224365,-1.333564506178238,-2.5266509691821497,6.109872329026022,1.0172743797302246,-2.1086037794696253
1708434970.4469585,-2.1415646076202393,-1.333539531832077,-2.5266552607165735,6.109842526703634,1.0172908306121826,-2.1086376349078577
1708434970.4489856,-2.1415183544158936,-1.333507166509964,-2.5266836325274866,6.109887230187216,1.017295241355896,-2.108612362538473
1708434970.4509597,-2.1415352821350098,-1.333483250146248,-2.526691261922018,6.109908091812887,1.0173075199127197,-2.108628575001852
1708434970.4532826,-2.1414971351623535,-1.3335318130305787,-2.5266509691821497,6.109821784287252,1.0172441005706787,-2.1086419264422815
1708434970.4549515,-2.1415274143218994,-1.3335275811007996,-2.5267367998706263,6.1099125025566,1.0173075199127197,-2.108582321797506
1708434970.4569602,-2.1415183544158936,-1.333507166509964,-2.526649777089254,6.109908091812887,1.0172908306121826,-2.108612362538473
1708434970.458932,-2.141576051712036,-1.3335114282420655,-2.5266509691821497,6.109855997353353,1.0173357725143433,-2.1086538473712366
1708434970.4609423,-2.1415555477142334,-1.3334997457316895,-2.526719395314352,6.1098753092582605,1.0172607898712158,-2.1086328665362757
1708434970.4629464,-2.1414990425109863,-1.333536149268486,-2.5267043749438685,6.109900581627645,1.0172772407531738,-2.108649555836813
1708434970.4649482,-2.141465187072754,-1.3334997457316895,-2.526662890111105,6.109905111580648,1.0172576904296875,-2.1086257139789026
1708434970.4669323,-2.1415317058563232,-1.3335040670684357,-2.526703182850973,6.109921443253317,1.017311930656433,-2.108595673237936
1708434970.4689476,-2.1415486335754395,-1.333547980790474,-2.526670519505636,6.109908091812887,1.0172698497772217,-2.108628575001852
1708434970.4709704,-2.1415486335754395,-1.3335317981294175,-2.526670519505636,6.109863388329305,1.0172817707061768,-2.108649555836813
1708434970.4729664,-2.141509532928467,-1.333536149268486,-2.526662890111105,6.109839546471395,1.0172817707061768,-2.108616654072897
1708434970.474952,-2.141469717025757,-1.333458588724472,-2.526719395314352,6.109887230187216,1.0172772407531738,-2.108612362538473
1708434970.4769728,-2.1415669918060303,-1.333504096870758,-2.5266299883471888,6.10988866069869,1.0173313617706299,-2.1086209456073206
1708434970.4789524,-2.1415016651153564,-1.3335233491710206,-2.5266879240619105,6.109844076424398,1.0172984600067139,-2.108608071004049
1708434970.480951,-2.1414971351623535,-1.3335114282420655,-2.5266714731799524,6.109924423485555,1.0172654390335083,-2.108612362538473
1708434970.483,-2.1415059566497803,-1.3335114282420655,-2.526691261922018,6.1098917601402185,1.0173267126083374,-2.1086328665362757
1708434970.4849465,-2.1415352821350098,-1.333547980790474,-2.5266509691821497,6.109960424691,1.0173075199127197,-2.108595673237936
1708434970.4869375,-2.1414990425109863,-1.3334790480187912,-2.5266552607165735,6.109937894135275,1.017293930053711,-2.108616654072897
1708434970.488978,-2.1415228843688965,-1.333507166509964,-2.5267282168017786,6.109863388329305,1.0172518491744995,-2.108628575001852
1708434970.4909427,-2.1414945125579834,-1.3335028898767014,-2.5266955534564417,6.1098917601402185,1.0173312425613403,-2.108608071004049
1708434970.492956,-2.1415228843688965,-1.333515615468361,-2.526642147694723,6.10985146740035,1.0173120498657227,-2.1086447874652308
1708434970.4949226,-2.1415531635284424,-1.3334875863841553,-2.5266552607165735,6.109917032509603,1.017317771911621,-2.1086705366717737
1708434970.4969425,-2.1415059566497803,-1.3335317981294175,-2.526658598576681,6.1098307249839685,1.0172772407531738,-2.108640495930807
1708434970.4989703,-2.141576051712036,-1.3334424060634156,-2.526658598576681,6.109884249954977,1.0172849893569946,-2.1086037794696253
1708434970.5009253,-2.1415274143218994,-1.3335083735040207,-2.5266509691821497,6.109884249954977,1.0172683000564575,-2.108657185231344
1708434970.502988,-2.1415317058563232,-1.333527610903122,-2.5267534891711634,6.109860408097067,1.0173312425613403,-2.108608071004049
1708434970.5049503,-2.1415183544158936,-1.333504096870758,-2.526646677647726,6.109881269722738,1.0172441005706787,-2.108649555836813
1708434970.5069804,-2.1415352821350098,-1.3334912967732926,-2.5266714731799524,6.109844076424398,1.0173267126083374,-2.108579937611715
1708434970.5089457,-2.1414926052093506,-1.3334705096534272,-2.5266879240619105,6.109872329026022,1.0172817707061768,-2.1086447874652308
1708434970.5109563,-2.1415183544158936,-1.3335028898767014,-2.5266879240619105,6.109847056656637,1.0172908306121826,-2.108584229146139
1708434970.5130005,-2.1414856910705566,-1.3334790480187912,-2.526662890111105,6.109893190651693,1.0172654390335083,-2.1086447874652308
1708434970.5149415,-2.1415035724639893,-1.3334870350411911,-2.5267162958728235,6.109844076424398,1.0172772407531738,-2.108616654072897
1708434970.516973,-2.1414811611175537,-1.333540455704071,-2.5266955534564417,6.109872329026022,1.0172984600067139,-2.108628575001852
1708434970.51898,-2.1414742469787598,-1.3335317981294175,-2.526703182850973,6.109810936241903,1.0173029899597168,-2.108619991933004
1708434970.5209258,-2.1415228843688965,-1.333515615468361,-2.526723925267355,6.109879839211263,1.0172817707061768,-2.10865289369692
1708434970.522967,-2.141523838043213,-1.333504096870758,-2.5267162958728235,6.109855997353353,1.0172908306121826,-2.108628575001852
1708434970.52497,-2.1414663791656494,-1.3334747713855286,-2.5266955534564417,6.109905111580648,1.0172817707061768,-2.1086037794696253
1708434970.5269449,-2.1414787769317627,-1.3334912967732926,-2.5266671816455286,6.1098917601402185,1.0172487497329712,-2.108657185231344
1708434970.5289736,-2.141510486602783,-1.3335233193686982,-2.526675049458639,6.1098142741020105,1.0172772407531738,-2.108649555836813
1708434970.530951,-2.1414990425109863,-1.333504096870758,-2.526679340993063,6.109893190651693,1.0173312425613403,-2.1086037794696253
1708434970.5329745,-2.1415016651153564,-1.3334997457316895,-2.5267120043383997,6.109896170883932,1.0172863006591797,-2.1086042563067835
1708434970.5349543,-2.141510486602783,-1.333527610903122,-2.5266552607165735,6.109879720001974,1.017334222793579,-2.108628575001852
1708434970.5369558,-2.1414971351623535,-1.333507166509964,-2.526670519505636,6.109839546471395,1.0172518491744995,-2.108595673237936
1708434970.5389771,-2.1415398120880127,-1.3334997457316895,-2.5266955534564417,6.109905111580648,1.017293930053711,-2.1086276213275355
1708434970.540932,-2.1415443420410156,-1.3335317981294175,-2.5266998449908655,6.10986481884078,1.0172984600067139,-2.1085708777057093
1708434970.542937,-2.1415035724639893,-1.333467037682869,-2.526654068623678,6.109879839211263,1.0173476934432983,-2.1085990110980433
1708434970.5449445,-2.1415274143218994,-1.33347903311763,-2.526658598576681,6.109832155495443,1.0172849893569946,-2.108619991933004
1708434970.546965,-2.141510486602783,-1.333409698014595,-2.5267041365252894,6.109872329026022,1.017317771911621,-2.108636204396383
1708434970.54901,-2.1414787769317627,-1.333455206160881,-2.5266836325274866,6.109885680466451,1.0173521041870117,-2.108619991933004
1708434970.5509744,-2.1414661407470703,-1.3335126501372834,-2.526642147694723,6.1098976013954065,1.017268180847168,-2.108657185231344
1708434970.5529716,-2.1414856910705566,-1.3335361641696473,-2.526679340993063,6.109855878144064,1.017317771911621,-2.108661953602926
1708434970.5549371,-2.141515016555786,-1.333495558505394,-2.5266998449908655,6.109884249954977,1.0172683000564575,-2.108608071004049
1708434970.5569503,-2.1415035724639893,-1.3334997457316895,-2.526670519505636,6.109839546471395,1.017334222793579,-2.108640495930807
1708434970.5589705,-2.1415317058563232,-1.33348702014003,-2.526691261922018,6.109830605774679,1.0173267126083374,-2.108608071004049
1708434970.5609355,-2.141510486602783,-1.3334832352450867,-2.526662890111105,6.109890210419454,1.017317771911621,-2.1086319128619593
1708434970.5630164,-2.1415228843688965,-1.3335522574237366,-2.526675049458639,6.109884249954977,1.017317771911621,-2.108657185231344
1708434970.5649407,-2.1415443420410156,-1.333536149268486,-2.526642147694723,6.1098365662391565,1.017334222793579,-2.108661953602926
1708434970.566978,-2.1415317058563232,-1.3335233491710206,-2.5266671816455286,6.109863388329305,1.017317771911621,-2.108702007924215
1708434970.568976,-2.1414830684661865,-1.333507166509964,-2.526642147694723,6.109884130745687,1.0173132419586182,-2.108584229146139
1708434970.5709593,-2.1415035724639893,-1.3335114282420655,-2.526675049458639,6.109810936241903,1.0172984600067139,-2.1086157003985804
1708434970.572955,-2.1415441036224365,-1.3334790480187912,-2.5266509691821497,6.109872329026022,1.0173206329345703,-2.108616654072897
1708434970.5749414,-2.141523838043213,-1.3335687828115006,-2.5267162958728235,6.109881269722738,1.017317771911621,-2.108628575001852
1708434970.5769994,-2.141515016555786,-1.3334955436042328,-2.526658598576681,6.109860408097067,1.0173087120056152,-2.108669106160299
1708434970.5789464,-2.1414899826049805,-1.3335438084653397,-2.5266671816455286,6.109839546471395,1.0173132419586182,-2.108582321797506
1708434970.580926,-2.1414289474487305,-1.3334997457316895,-2.526679340993063,6.10986481884078,1.0173312425613403,-2.1085990110980433
1708434970.582943,-2.1415059566497803,-1.3334912967732926,-2.526637856160299,6.109876739769735,1.0173676013946533,-2.108612362538473
1708434970.5849247,-2.14151930809021,-1.3334747862866898,-2.526654068623678,6.109867918282308,1.017346739768982,-2.108657185231344
1708434970.5869484,-2.14151930809021,-1.3335233491710206,-2.5266955534564417,6.109872329026022,1.0173267126083374,-2.1085665861712855
1708434970.5889468,-2.141510486602783,-1.3334585142186661,-2.526658598576681,6.109869348793783,1.0173132419586182,-2.108640495930807
1708434970.590931,-2.141510486602783,-1.3335083735040207,-2.526662890111105,6.109855997353353,1.0172759294509888,-2.1086486021624964
1708434970.5929456,-2.141515016555786,-1.3334714037230988,-2.5267120043383997,6.109900581627645,1.017346739768982,-2.1085990110980433
1708434970.5949333,-2.1415228843688965,-1.3335156303695221,-2.526658598576681,6.109879839211263,1.017317771911621,-2.1086228529559534
1708434970.5969687,-2.14151930809021,-1.3334747862866898,-2.5266671816455286,6.109893190651693,1.0173430442810059,-2.1086328665362757
1708434970.5989394,-2.1415016651153564,-1.333504096870758,-2.526646677647726,6.109881269722738,1.0172849893569946,-2.1086157003985804
1708434970.6009402,-2.1415328979492188,-1.3335114133409043,-2.526658598576681,6.109852897911825,1.0173512697219849,-2.1085990110980433
1708434970.602962,-2.1415228843688965,-1.333470569258072,-2.526675049458639,6.109893190651693,1.0172849893569946,-2.1085990110980433
1708434970.6049488,-2.141510486602783,-1.3335603189519425,-2.5266998449908655,6.1099140522773645,1.017346739768982,-2.108640495930807
1708434970.6069474,-2.1414830684661865,-1.333527536397316,-2.5266955534564417,6.10986481884078,1.017317771911621,-2.108628575001852
1708434970.6089668,-2.1414742469787598,-1.3334961098483582,-2.5266836325274866,6.109801995545187,1.0173341035842896,-2.10866624513735
1708434970.6109278,-2.141545057296753,-1.333467037682869,-2.5266955534564417,6.109839546471395,1.0173512697219849,-2.1086328665362757
1708434970.6129596,-2.14151930809021,-1.3334508550218125,-2.526654068623678,6.1098976013954065,1.0173250436782837,-2.108669106160299
1708434970.6149406,-2.141523838043213,-1.3335318279317399,-2.526658598576681,6.109873878746786,1.017337679862976,-2.1085947195636194
1708434970.616985,-2.14151930809021,-1.333536149268486,-2.526723925267355,6.109885680466451,1.0172996520996094,-2.108661953602926
1708434970.6189437,-2.141469717025757,-1.3335114282420655,-2.526662890111105,6.109885680466451,1.0173630714416504,-2.1085990110980433
1708434970.6209295,-2.141475200653076,-1.333527610903122,-2.5267043749438685,6.109823214798727,1.017374873161316,-2.1086319128619593
1708434970.622969,-2.1414945125579834,-1.3335041117719193,-2.5266998449908655,6.109863269120016,1.0173206329345703,-2.1086209456073206
1708434970.6249712,-2.141507863998413,-1.3335199517062684,-2.526707474385397,6.109855997353353,1.0173375606536865,-2.1086066404925745
1708434970.6269429,-2.1415486335754395,-1.333576501612999,-2.526719395314352,6.109885680466451,1.017337679862976,-2.108619991933004
1708434970.628928,-2.1414875984191895,-1.3335114282420655,-2.526703182850973,6.109860408097067,1.017370343208313,-2.1086319128619593
1708434970.630945,-2.1415317058563232,-1.3335233491710206,-2.526675049458639,6.109810936241903,1.0173296928405762,-2.1086319128619593
1708434970.6329553,-2.141475200653076,-1.333495558505394,-2.526703182850973,6.109857547074117,1.0173795223236084,-2.1086109320269983
1708434970.6349273,-2.14151930809021,-1.3334790480187912,-2.526662890111105,6.109843957215109,1.0173540115356445,-2.108640495930807
1708434970.6369553,-2.141475200653076,-1.3334747862866898,-2.526670519505636,6.10992597320632,1.0173630714416504,-2.108706299458639
1708434970.6389496,-2.141453981399536,-1.3334912967732926,-2.5267162958728235,6.1098365662391565,1.0172996520996094,-2.1086576620685022
1708434970.6409457,-2.1414875984191895,-1.3335071516088028,-2.526642147694723,6.109867918282308,1.017391324043274,-2.108694378529684
1708434970.6429572,-2.1414787769317627,-1.3334747713855286,-2.5266998449908655,6.109839546471395,1.017346739768982,-2.108661953602926
1708434970.644927,-2.141536235809326,-1.333536149268486,-2.526707712803976,6.10988866069869,1.017374873161316,-2.10865289369692
1708434970.6469624,-2.1415228843688965,-1.333527610903122,-2.5266955534564417,6.10985146740035,1.0173540115356445,-2.108702007924215
1708434970.6489785,-2.14151930809021,-1.3335317981294175,-2.526703182850973,6.109857547074117,1.017417073249817,-2.1086562315570276
1708434970.6510022,-2.141510486602783,-1.3334997457316895,-2.5267282168017786,6.109860408097067,1.0173041820526123,-2.1086157003985804
1708434970.6529732,-2.141510486602783,-1.3334997457316895,-2.5267120043383997,6.109867918282308,1.0173659324645996,-2.1086648146258753
1708434970.6549423,-2.1414787769317627,-1.333504096870758,-2.526710812245504,6.109876739769735,1.0173540115356445,-2.1086319128619593
1708434970.6569567,-2.1414787769317627,-1.3334424656680604,-2.526658598576681,6.109872329026022,1.0173958539962769,-2.1086815039264124
1708434970.6589804,-2.1414899826049805,-1.333515615468361,-2.526675049458639,6.109839546471395,1.0173585414886475,-2.10865289369692
1708434970.660928,-2.141507863998413,-1.3334628653577347,-2.526707712803976,6.109819876938619,1.0173540115356445,-2.1086276213275355
1708434970.6629567,-2.141510486602783,-1.3335404259017487,-2.526740376149313,6.109867918282308,1.0173568725585938,-2.1086977163897913
1708434970.6649232,-2.141528367996216,-1.3335318279317399,-2.5267065207110804,6.109876858979025,1.0173778533935547,-2.108669106160299
1708434970.6669555,-2.1414921283721924,-1.3334912669709702,-2.526727263127462,6.109896170883932,1.017374873161316,-2.1086400190936487
1708434970.668962,-2.1414990425109863,-1.3335199666074296,-2.5266335646258753,6.109857547074117,1.0173659324645996,-2.1086648146258753
1708434970.670934,-2.1414902210235596,-1.333434672360756,-2.5266955534564417,6.10986493805007,1.017382264137268,-2.1086648146258753
1708434970.6729524,-2.141515016555786,-1.3335126501372834,-2.5267162958728235,6.109881269722738,1.0173990726470947,-2.1086767355548304
1708434970.6749232,-2.1414811611175537,-1.3335028898767014,-2.52668267885317,6.109835135727682,1.0173778533935547,-2.1086681524859827
1708434970.6769474,-2.1414945125579834,-1.3334747862866898,-2.526637856160299,6.109855997353353,1.0173990726470947,-2.1087425390826624
1708434970.6789684,-2.141507863998413,-1.3334912669709702,-2.526707712803976,6.109907972603597,1.0173912048339844,-2.1087048689471644
1708434970.6809456,-2.1414945125579834,-1.3334670823863526,-2.526731554661886,6.10986481884078,1.0173989534378052,-2.108712975178854
1708434970.6829588,-2.1414990425109863,-1.3334790480187912,-2.526710812245504,6.109921443253317,1.0173778533935547,-2.1086843649493616
1708434970.6849265,-2.1414830684661865,-1.3334912669709702,-2.5267325083362024,6.109870898514547,1.017382264137268,-2.108757797871725
1708434970.6869407,-2.1414449214935303,-1.3334799271873017,-2.5266955534564417,6.109830605774679,1.0173900127410889,-2.10873252550234
1708434970.6889794,-2.1414787769317627,-1.3334747862866898,-2.5266955534564417,6.109847056656637,1.0173687934875488,-2.108760658894674
1708434970.690971,-2.141449451446533,-1.3334875863841553,-2.526654068623678,6.109873878746786,1.0174095630645752,-2.108748737965719
1708434970.6929314,-2.1414787769317627,-1.3335041117719193,-2.526691261922018,6.10982762554244,1.0173687934875488,-2.1087730566607874
1708434970.6949475,-2.1414990425109863,-1.3335233193686982,-2.526686731969015,6.109847056656637,1.017397403717041,-2.1087940374957483
1708434970.6969395,-2.1415035724639893,-1.3335041117719193,-2.526682440434591,6.109876739769735,1.0173945426940918,-2.1087563673602503
1708434970.6989436,-2.141515016555786,-1.3335071516088028,-2.5267162958728235,6.109873878746786,1.0173856019973755,-2.1086939016925257
1708434970.7009192,-2.1414618492126465,-1.3334875863841553,-2.5267282168017786,6.109872329026022,1.0174140930175781,-2.1087687651263636
1708434970.7029538,-2.141528367996216,-1.333495558505394,-2.5267186800586146,6.1099456427390955,1.0173990726470947,-2.1087730566607874
1708434970.7049315,-2.1415035724639893,-1.3334912669709702,-2.526666227971212,6.1098753092582605,1.0174095630645752,-2.108760658894674
1708434970.7069495,-2.1414830684661865,-1.3334832203439255,-2.526723925267355,6.109858977585592,1.017418622970581,-2.1087968985186976
1708434970.7089689,-2.1415059566497803,-1.3335317832282563,-2.526731554661886,6.109844076424398,1.017397403717041,-2.1087520758258265
1708434970.710955,-2.14151930809021,-1.333446667795517,-2.526703182850973,6.109860408097067,1.0174262523651123,-2.108755413685934
1708434970.712924,-2.1414945125579834,-1.3334875863841553,-2.526662890111105,6.109879839211263,1.017397403717041,-2.108760658894674
1708434970.7149355,-2.1414406299591064,-1.3335041117719193,-2.526686731969015,6.109863388329305,1.0174095630645752,-2.1087401548968714
1708434970.7169333,-2.14151930809021,-1.3334961247495194,-2.526703182850973,6.109884249954977,1.0174500942230225,-2.108744446431295
1708434970.7189445,-2.1414830684661865,-1.3335041415742417,-2.526715103779928,6.109884249954977,1.0174050331115723,-2.108776394520895
1708434970.7210062,-2.141507863998413,-1.333515615468361,-2.5267470518695276,6.109879839211263,1.0174381732940674,-2.1087730566607874
1708434970.72297,-2.1414663791656494,-1.3335608702949067,-2.526698891316549,6.109917032509603,1.0174381732940674,-2.1087687651263636
1708434970.7249691,-2.141496419906616,-1.3334997457316895,-2.526723925267355,6.1098753092582605,1.0174620151519775,-2.1087520758258265
1708434970.7269611,-2.14151930809021,-1.3334832352450867,-2.526670519505636,6.109903681069174,1.017421841621399,-2.108814541493551
1708434970.7289786,-2.1415274143218994,-1.333491863017418,-2.526719395314352,6.109937894135275,1.0174140930175781,-2.108760182057516
1708434970.730931,-2.141453981399536,-1.333515615468361,-2.526727263127462,6.1099125025566,1.017417311668396,-2.1087477842914026
1708434970.7329392,-2.1415274143218994,-1.3335645508817215,-2.526723925267355,6.109900581627645,1.017429232597351,-2.108760182057516
1708434970.7349584,-2.141507863998413,-1.333515615468361,-2.526691261922018,6.1099125025566,1.017429232597351,-2.1088088194476526
1708434970.736933,-2.141528367996216,-1.3335199666074296,-2.526686731969015,6.109908091812887,1.0174129009246826,-2.108767334614889
1708434970.7389503,-2.1415274143218994,-1.3335644763759156,-2.526703182850973,6.109849917679586,1.0174455642700195,-2.1087926069842737
1708434970.74094,-2.1414990425109863,-1.3334381443313141,-2.526698891316549,6.109882700234213,1.0174005031585693,-2.1088207403766077
1708434970.74295,-2.1414990425109863,-1.3335275960019608,-2.526723925267355,6.109903681069174,1.0174545049667358,-2.108760182057516
1708434970.7449312,-2.1414875984191895,-1.3335233193686982,-2.526731554661886,6.10997091510848,1.0174709558486938,-2.108842198048727
1708434970.7469528,-2.1414945125579834,-1.3335028898767014,-2.5266814867602747,6.109915482788839,1.017445683479309,-2.1088059584247034
1708434970.7490034,-2.141536235809326,-1.3335114282420655,-2.526752297078268,6.1099575636680505,1.0174709558486938,-2.108784023915426
1708434970.7509828,-2.1415035724639893,-1.3334789884141465,-2.526694361363546,6.109936702042379,1.017466425895691,-2.108776394520895
1708434970.7529564,-2.1414742469787598,-1.3335114282420655,-2.526710812245504,6.109969484597006,1.0174455642700195,-2.1088078657733362
1708434970.755029,-2.1414742469787598,-1.3335071516088028,-2.5267391840564173,6.109896170883932,1.0174832344055176,-2.1088207403766077
1708434970.7569416,-2.1414945125579834,-1.3335395467332383,-2.526752297078268,6.1098917601402185,1.0174620151519775,-2.1088298002826136
1708434970.758998,-2.1415059566497803,-1.3335114282420655,-2.526788298283712,6.1099740145500085,1.0174620151519775,-2.108784023915426
1708434970.760961,-2.141540765762329,-1.3335028898767014,-2.526752297078268,6.109960543900289,1.0174410343170166,-2.1088250319110315
1708434970.7629755,-2.141528367996216,-1.3335480105927964,-2.526743475590841,6.109960424691,1.0174620151519775,-2.108870331441061
1708434970.7649577,-2.1414787769317627,-1.333491863017418,-2.526731554661886,6.109993564873495,1.0174953937530518,-2.108795468007223
1708434970.766958,-2.141510486602783,-1.3335318279317399,-2.5267065207110804,6.109958994179525,1.0174908638000488,-2.108828846608297
1708434970.7689385,-2.1414875984191895,-1.3335560721210022,-2.526752297078268,6.109989034920492,1.017486333847046,-2.108885113392965
1708434970.7709384,-2.1414787769317627,-1.3335242879441758,-2.526759926472799,6.109942662506857,1.0174819231033325,-2.108910862599508
1708434970.7729328,-2.1414573192596436,-1.3335233491710206,-2.5267229715930384,6.110024916916647,1.0174908638000488,-2.1088483969317835
1708434970.7749908,-2.1414945125579834,-1.333495558505394,-2.5266945997821253,6.110029208451071,1.0175026655197144,-2.1088154951678675
1708434970.77696,-2.1414425373077393,-1.333504096870758,-2.526764456425802,6.110005128174581,1.0174484252929688,-2.108845059071676
1708434970.7789636,-2.1415035724639893,-1.3335114133409043,-2.5266900698291224,6.109994637757101,1.0174741744995117,-2.108849827443258
1708434970.780935,-2.1414830684661865,-1.333511398439743,-2.526743475590841,6.110006916313925,1.0175118446350098,-2.108845059071676
1708434970.782955,-2.1414618492126465,-1.3334390234998246,-2.5267348925219935,6.109999167710104,1.017498254776001,-2.1088483969317835
1708434970.7849932,-2.1414811611175537,-1.333495558505394,-2.5267556349383753,6.110035288124838,1.0174938440322876,-2.1088407675372522
1708434970.786933,-2.1414875984191895,-1.3335318279317399,-2.5267794767962855,6.110057699471273,1.0175145864486694,-2.1088364760028284
1708434970.7889671,-2.141536235809326,-1.3335028749755402,-2.5267794767962855,6.110015857010641,1.0174938440322876,-2.1088364760028284
1708434970.7909424,-2.1415317058563232,-1.3335318279317399,-2.5268121401416224,6.1100937006767175,1.0175433158874512,-2.1088603178607386
1708434970.79295,-2.1414990425109863,-1.3335146766952057,-2.5267751852618616,6.110032188683309,1.017498254776001,-2.1088274160968226
1708434970.7949686,-2.1414875984191895,-1.3335233491710206,-2.5268407503711146,6.110023367195883,1.0174921751022339,-2.108856980000631
1708434970.796956,-2.141515016555786,-1.3335395467332383,-2.526790205632345,6.110015857010641,1.0175191164016724,-2.108889881764547
1708434970.7989678,-2.1414990425109863,-1.3335438084653397,-2.526815954838888,6.1100114462669275,1.017531394958496,-2.1088646093951624
1708434970.8009343,-2.1414990425109863,-1.333523378973343,-2.526839558278219,6.1100114462669275,1.017510175704956,-2.108894173298971
1708434970.8029416,-2.14151930809021,-1.333495558505394,-2.5267816225634974,6.1099692461784265,1.017493724822998,-2.1088526884662073
1708434970.8049762,-2.1414990425109863,-1.3334912669709702,-2.526827637349264,6.110041248589315,1.0175056457519531,-2.1088808218585413
1708434970.8069606,-2.141449451446533,-1.33354805529628,-2.526839558278219,6.1100425598915,1.0175145864486694,-2.1088364760028284
1708434970.8089428,-2.1414945125579834,-1.3334260743907471,-2.526843849812643,6.110027777939596,1.0175268650054932,-2.1088646093951624
1708434970.8109405,-2.1414945125579834,-1.3335242879441758,-2.5268471876727503,6.110060560494222,1.0175145864486694,-2.1088808218585413
1708434970.8129375,-2.1414990425109863,-1.3335028749755402,-2.5267983118640345,6.110027777939596,1.0174908638000488,-2.1088689009295862
1708434970.8149984,-2.141515016555786,-1.3334955436042328,-2.526872221623556,6.110048639565267,1.0174728631973267,-2.1088364760028284
1708434970.8169253,-2.1414787769317627,-1.3335276258042832,-2.526790205632345,6.1100772497947595,1.017510175704956,-2.1088603178607386
1708434970.8189523,-2.14151930809021,-1.3334997457316895,-2.52682334581484,6.110060560494222,1.0175223350524902,-2.1088808218585413
1708434970.8209612,-2.141523838043213,-1.333495558505394,-2.526785914097921,6.1100560305412195,1.0175179243087769,-2.1088889280902308
1708434970.822933,-2.1415317058563232,-1.333504081969597,-2.5268071333514612,6.110044109612264,1.0175505876541138,-2.10887319246401
1708434970.8249764,-2.141510486602783,-1.3335318279317399,-2.526839558278219,6.110064971237936,1.0175596475601196,-2.1088526884662073
1708434970.8269312,-2.141510486602783,-1.3335798245719452,-2.5268190542804163,6.110071289330282,1.0175342559814453,-2.1088646093951624
1708434970.828938,-2.1414787769317627,-1.3334869605353852,-2.5268266836749476,6.110039698868551,1.017529845237732,-2.1088722387896937
1708434970.8309371,-2.1414706707000732,-1.3335114282420655,-2.5268071333514612,6.110021817475118,1.0175416469573975,-2.1088722387896937
1708434970.8329384,-2.1414921283721924,-1.333543823366501,-2.526856009160177,6.11001883724288,1.0175505876541138,-2.10887319246401
1708434970.8349822,-2.1414742469787598,-1.3335352850011368,-2.526843849812643,6.110108482628622,1.0175371170043945,-2.1088483969317835
1708434970.836959,-2.141514778137207,-1.3334912669709702,-2.526839558278219,6.11006377914504,1.0175505876541138,-2.1088722387896937
1708434970.8389568,-2.141510486602783,-1.3335156005671998,-2.5268309752093714,6.110089170723715,1.0175538063049316,-2.108885113392965
1708434970.840982,-2.1414945125579834,-1.3335114133409043,-2.526811424885885,6.110064971237936,1.0175416469573975,-2.1088512579547327
1708434970.8429673,-2.141510486602783,-1.3335318279317399,-2.526827637349264,6.110066759377279,1.0175416469573975,-2.108889881764547
1708434970.8449285,-2.1414875984191895,-1.3334912967732926,-2.5268309752093714,6.110035288124838,1.0175673961639404,-2.1088560263263147
1708434970.8469772,-2.141519546508789,-1.3334985089353104,-2.526872221623556,6.110054838448324,1.0175673961639404,-2.1088393370257776
1708434970.8489573,-2.1414830684661865,-1.333543823366501,-2.5268028418170374,6.110083210259237,1.0175342559814453,-2.1089051405536097
1708434970.8510537,-2.141510486602783,-1.333519072537758,-2.526790205632345,6.11006377914504,1.0175461769104004,-2.1089142004596155
1708434970.8529541,-2.1414830684661865,-1.3335480254939576,-2.526855770741598,6.110078680306234,1.0175461769104004,-2.1088689009295862
1708434970.8549457,-2.1415441036224365,-1.3335352551988144,-2.526799027119772,6.110108482628622,1.0175162553787231,-2.1088808218585413
1708434970.8569615,-2.1415271759033203,-1.3335893911174317,-2.526856009160177,6.110080110817709,1.0174967050552368,-2.1089628378497522
1708434970.8589494,-2.1415317058563232,-1.3335156601718445,-2.5268071333514612,6.110120403557577,1.0175795555114746,-2.1088808218585413
1708434970.8609335,-2.1414830684661865,-1.3335723143867035,-2.5268309752093714,6.110111462860861,1.0175461769104004,-2.1088932196246546
1708434970.8629296,-2.1414945125579834,-1.3335352850011368,-2.526815716420309,6.110084759980001,1.0175162553787231,-2.1088483969317835
1708434970.8649447,-2.1414945125579834,-1.3334955287030716,-2.5268190542804163,6.110111462860861,1.0175718069076538,-2.1088441053973597
1708434970.8669822,-2.1414902210235596,-1.3335071516088028,-2.526835266743795,6.110083210259237,1.0175840854644775,-2.1088975111590784
1708434970.8689535,-2.1415441036224365,-1.3335361790708085,-2.526790205632345,6.110057818680563,1.0175492763519287,-2.108842674885885
1708434970.8709383,-2.1415035724639893,-1.33347903311763,-2.526835266743795,6.110120403557577,1.0175342559814453,-2.1088560263263147
1708434970.8729365,-2.1414830684661865,-1.333530918960907,-2.526860300694601,6.110071289330282,1.0175583362579346,-2.1088808218585413
1708434970.8749344,-2.1414875984191895,-1.3334997457316895,-2.5268102327929896,6.1101605770881555,1.0175960063934326,-2.1089142004596155
1708434970.8769972,-2.1414361000061035,-1.33356365681205,-2.526835266743795,6.110050427704611,1.0175206661224365,-2.1088932196246546
1708434970.8789582,-2.1414530277252197,-1.3335480254939576,-2.5268471876727503,6.110108482628622,1.0175628662109375,-2.1089022795306605
1708434970.8809416,-2.141507863998413,-1.3334456992200394,-2.526839558278219,6.11008762100295,1.0175750255584717,-2.108885113392965
1708434970.8829288,-2.1415441036224365,-1.333486945634224,-2.52682334581484,6.110111462860861,1.0175673961639404,-2.1088889280902308
1708434970.8849273,-2.1414663791656494,-1.3335114282420655,-2.5268309752093714,6.110108482628622,1.0175583362579346,-2.1088603178607386
1708434970.886932,-2.1414945125579834,-1.333458588724472,-2.52682334581484,6.110132324486532,1.0175505876541138,-2.108835045491354
1708434970.8889327,-2.1414787769317627,-1.333495558505394,-2.5267770926104944,6.110102522164144,1.0175673961639404,-2.1088808218585413
1708434970.8909404,-2.1414787769317627,-1.3335764569095154,-2.526790205632345,6.110115873604574,1.017529845237732,-2.10880691209902
1708434970.8929353,-2.1415014266967773,-1.3335275960019608,-2.52682334581484,6.110198128014364,1.0175538063049316,-2.1088603178607386
1708434970.8949342,-2.141515016555786,-1.3335233491710206,-2.52682334581484,6.110107052117147,1.0175505876541138,-2.1088975111590784
1708434970.8969388,-2.1414573192596436,-1.3335679930499573,-2.5268190542804163,6.110108482628622,1.0175505876541138,-2.10886794725527
1708434970.8989506,-2.1415016651153564,-1.3335352700999756,-2.52682334581484,6.110129344254293,1.017525315284729,-2.1088512579547327
1708434970.9009397,-2.14151930809021,-1.333510474567749,-2.526872221623556,6.110118853836813,1.0175461769104004,-2.1088603178607386
1708434970.9029462,-2.1414787769317627,-1.3335560721210022,-2.526839558278219,6.110078680306234,1.017513394355774,-2.1088512579547327
1708434970.9049606,-2.141515016555786,-1.3335028898767014,-2.5268071333514612,6.110144245415487,1.0175673961639404,-2.1088603178607386
1708434970.906953,-2.1414742469787598,-1.3334942323020478,-2.5268190542804163,6.110108482628622,1.0175461769104004,-2.1088932196246546
1708434970.9089339,-2.1414990425109863,-1.3335474294475098,-2.526867691670553,6.11012481430129,1.0175840854644775,-2.1089022795306605
1708434970.9109612,-2.14151930809021,-1.3335395020297547,-2.526790205632345,6.110102522164144,1.0175914764404297,-2.1088603178607386
1708434970.9129517,-2.141512393951416,-1.3335200113109131,-2.526815954838888,6.110045897751608,1.0175628662109375,-2.1089051405536097
1708434970.9149327,-2.1414945125579834,-1.3335266721299668,-2.526835266743795,6.110132324486532,1.0175505876541138,-2.1088979879962366
1708434970.9169576,-2.1414945125579834,-1.333495558505394,-2.526832167302267,6.110090601235189,1.0175371170043945,-2.1088512579547327
1708434970.918961,-2.1415486335754395,-1.333498553638794,-2.526839558278219,6.110115873604574,1.0175505876541138,-2.1088603178607386
1708434970.9209437,-2.14151930809021,-1.333539531832077,-2.526855770741598,6.1101486561592,1.0175583362579346,-2.1088603178607386
1708434970.9229734,-2.141510486602783,-1.3335388910821457,-2.526839558278219,6.1101486561592,1.017525315284729,-2.1088393370257776
1708434970.924932,-2.141515016555786,-1.3335593801787873,-2.526785914097921,6.110041487007894,1.017508864402771,-2.1088932196246546
1708434970.9269557,-2.1414787769317627,-1.3335722398808976,-2.5267489592181605,6.110095131188192,1.0175342559814453,-2.108861271535055
1708434970.9289434,-2.141515016555786,-1.3335147064975281,-2.526831928883688,6.110115873604574,1.0175505876541138,-2.1088722387896937
1708434970.9309454,-2.1414742469787598,-1.3335431528142472,-2.5268071333514612,6.1100995419319055,1.0175342559814453,-2.1088722387896937
1708434970.9329596,-2.141479730606079,-1.333530918960907,-2.526785914097921,6.110095131188192,1.0175807476043701,-2.1088603178607386
1708434970.934942,-2.141507863998413,-1.3335431826165696,-2.5268190542804163,6.110095131188192,1.0175673961639404,-2.1088975111590784
1708434970.9369547,-2.1415035724639893,-1.3335431677154084,-2.52682334581484,6.110107052117147,1.0175251960754395,-2.1089022795306605
1708434970.9389591,-2.141510486602783,-1.3335636121085663,-2.526799027119772,6.110111462860861,1.0175342559814453,-2.1088560263263147
1708434970.940931,-2.141479730606079,-1.3336361211589356,-2.526790205632345,6.110127794533529,1.0175178050994873,-2.1088483969317835
1708434970.9429638,-2.141528367996216,-1.33364391446624,-2.52682334581484,6.110115873604574,1.0175628662109375,-2.108856980000631
1708434970.944933,-2.141449451446533,-1.3336060655168076,-2.526839558278219,6.110114443093099,1.0175461769104004,-2.1088646093951624
1708434970.9469495,-2.1414990425109863,-1.3336549711278458,-2.5268190542804163,6.110123383789816,1.0175461769104004,-2.1088274160968226
1708434970.948962,-2.1414921283721924,-1.3336430352977295,-2.526799027119772,6.110111462860861,1.017498254776001,-2.1089022795306605
1708434970.9509788,-2.141507863998413,-1.3336549711278458,-2.526835266743795,6.110083210259237,1.0175386667251587,-2.1088321844684046
1708434970.9529488,-2.1414921283721924,-1.3336301457932969,-2.526855770741598,6.110092031746664,1.0174847841262817,-2.1088483969317835
1708434970.9549408,-2.1415035724639893,-1.3336790216020127,-2.52682334581484,6.11008762100295,1.0175552368164062,-2.108856980000631
1708434970.9569576,-2.141515016555786,-1.3336747747710724,-2.5268572012530726,6.110047089844503,1.0175223350524902,-2.108861271535055
1708434970.958943,-2.141523838043213,-1.3337190461209794,-2.526827637349264,6.110024797707357,1.0175596475601196,-2.1088317076312464
1708434970.9609268,-2.1414830684661865,-1.3336704683354874,-2.526782814656393,6.110026228218832,1.0175223350524902,-2.10887319246401
1708434970.9629478,-2.1415228843688965,-1.3337190610221406,-2.526815716420309,6.110084759980001,1.0174893140792847,-2.1089065710650843
1708434970.964928,-2.1414990425109863,-1.3336781573346634,-2.526782814656393,6.110064971237936,1.0175179243087769,-2.1088979879962366
1708434970.9669476,-2.1415317058563232,-1.333702878361084,-2.526832167302267,6.110000955849447,1.017513394355774,-2.10887319246401
1708434970.9689333,-2.1415317058563232,-1.3337071400931855,-2.5268364588366907,6.110038149147787,1.0175628662109375,-2.1088526884662073
1708434970.97097,-2.141510486602783,-1.333653987651207,-2.526785914097921,6.110056149750509,1.0175342559814453,-2.108803097401754
1708434970.9729674,-2.1415274143218994,-1.3336790216020127,-2.526811424885885,6.110059368401327,1.017547845840454,-2.1088808218585413
1708434970.9749482,-2.141510486602783,-1.3336790365031739,-2.526827637349264,6.110009896546163,1.0175342559814453,-2.1088808218585413
1708434970.97695,-2.1415317058563232,-1.3336781573346634,-2.526811424885885,6.110047089844503,1.0175387859344482,-2.10881215730776
1708434970.9789362,-2.1414971351623535,-1.3336582493833085,-2.526794497166769,6.110072839051046,1.0174891948699951,-2.108803097401754
1708434970.9809375,-2.1415317058563232,-1.333653987651207,-2.526790205632345,6.109989034920492,1.0175145864486694,-2.1087988058673304
1708434970.9829762,-2.1415317058563232,-1.3337071549943467,-2.526811424885885,6.110089170723715,1.0175236463546753,-2.1088407675372522
1708434970.984974,-2.1414742469787598,-1.3336747300675889,-2.526820246373312,6.110060560494222,1.0174819231033325,-2.108856980000631
1708434970.9869893,-2.1414618492126465,-1.3336909425309678,-2.5268028418170374,6.110047089844503,1.0175145864486694,-2.108845059071676
1708434970.9889622,-2.1414990425109863,-1.3336790663054963,-2.5268147627459925,6.110089170723715,1.0174847841262817,-2.108861271535055
1708434970.9909585,-2.1414945125579834,-1.333666892056801,-2.526843849812643,6.110080110817709,1.0175342559814453,-2.108833138142721
1708434970.9929817,-2.14151930809021,-1.3336463582566758,-2.5268364588366907,6.110129344254293,1.017493724822998,-2.1088245550738733
1708434970.9949524,-2.141512393951416,-1.3337038320354004,-2.5268071333514612,6.110030638962545,1.017547845840454,-2.108800236378805
1708434970.9969864,-2.1414921283721924,-1.3336919409087677,-2.526782814656393,6.11004267910079,1.0175056457519531,-2.1087926069842737
1708434970.9989522,-2.1414380073547363,-1.3336918962052842,-2.526820246373312,6.11006377914504,1.0175145864486694,-2.1088255087481897
1708434971.0009706,-2.141479730606079,-1.3336720776608963,-2.5268076101886194,6.110068309098043,1.017540454864502,-2.108842198048727
1708434971.0029657,-2.141500949859619,-1.3336463284543534,-2.5267751852618616,6.110060560494222,1.0174819231033325,-2.1087926069842737
1708434971.004968,-2.1414921283721924,-1.3336711388877411,-2.526827637349264,6.11000536659316,1.017531394958496,-2.1087430159198206
1708434971.0069683,-2.1414618492126465,-1.3336790365031739,-2.526820246373312,6.110023367195883,1.0174819231033325,-2.1087968985186976
1708434971.0089672,-2.14145827293396,-1.3336506944945832,-2.526799027119772,6.110006916313925,1.0174773931503296,-2.1087773481952112
1708434971.0109556,-2.1414830684661865,-1.333650679593422,-2.526738230382101,6.109971272736349,1.0175118446350098,-2.1087806860553187
1708434971.0129755,-2.14145827293396,-1.333638773565628,-2.526762072240011,6.110011327057638,1.017531394958496,-2.1087430159198206
1708434971.0149403,-2.141484022140503,-1.3336463284543534,-2.5267751852618616,6.109958994179525,1.017486333847046,-2.1088059584247034
1708434971.0169573,-2.1414663791656494,-1.3337071400931855,-2.526811424885885,6.110095011978903,1.017486333847046,-2.1086910406695765
1708434971.0189404,-2.1414921283721924,-1.3336952191642304,-2.526794497166769,6.109966623574056,1.0174819231033325,-2.1087940374957483
1708434971.020962,-2.1414787769317627,-1.3336592030576249,-2.526811424885885,6.110026109009542,1.0174696445465088,-2.10873252550234
1708434971.0229526,-2.141519546508789,-1.3336704981378098,-2.5267871061908167,6.109999167710104,1.0174741744995117,-2.108760658894674
1708434971.0249395,-2.1414833068847656,-1.3336747747710724,-2.5267913977252405,6.1099891541297815,1.0174574851989746,-2.10873252550234
1708434971.026971,-2.1415317058563232,-1.3336344522288819,-2.5267751852618616,6.109987365990438,1.0174438953399658,-2.108748737965719
1708434971.028974,-2.1414902210235596,-1.3335974526456376,-2.526799027119772,6.110025989800253,1.0174500942230225,-2.108757797871725
1708434971.0309472,-2.1415317058563232,-1.3336216521314164,-2.526815716420309,6.1099188206489465,1.0174529552459717,-2.1087730566607874
1708434971.0329902,-2.1414706707000732,-1.3336516183665772,-2.5268245379077356,6.109926211624899,1.0174620151519775,-2.108736817036764
1708434971.0349472,-2.1414663791656494,-1.33366251111541,-2.5268245379077356,6.109984624176779,1.0174921751022339,-2.108687225972311
1708434971.036957,-2.1414830684661865,-1.3336919260076066,-2.526790205632345,6.109996187477865,1.0174336433410645,-2.1087163130389612
1708434971.0389507,-2.1414706707000732,-1.3336668771556397,-2.5267871061908167,6.110047089844503,1.017445683479309,-2.10873252550234
1708434971.0409396,-2.1414945125579834,-1.333647297029831,-2.5268033186541956,6.109996187477865,1.0174574851989746,-2.10876971880068
1708434971.042979,-2.1414875984191895,-1.3336430501988907,-2.526757780705587,6.109960424691,1.0174500942230225,-2.108748737965719
1708434971.0449386,-2.1414706707000732,-1.3336182993701478,-2.5267871061908167,6.109927761345663,1.017429232597351,-2.1087234655963343
1708434971.0469584,-2.1415059566497803,-1.3336430352977295,-2.5267913977252405,6.109981286316671,1.017433762550354,-2.108720604573385
1708434971.0490165,-2.1415274143218994,-1.3336430352977295,-2.526820246373312,6.109939682274618,1.017429232597351,-2.1087072531329554
1708434971.0510135,-2.141516923904419,-1.3336225760034104,-2.526738230382101,6.109944093018331,1.0174425840377808,-2.10873252550234
1708434971.0530322,-2.1414990425109863,-1.3336840283921738,-2.526811424885885,6.109948503762045,1.0174050331115723,-2.108736817036764
1708434971.0549498,-2.141500949859619,-1.3336473119309922,-2.5267751852618616,6.109903681069174,1.017417311668396,-2.108724896107809
1708434971.056944,-2.141475200653076,-1.3336439591697236,-2.5267751852618616,6.109998094826498,1.0174425840377808,-2.1087234655963343
1708434971.058973,-2.141449451446533,-1.333643065100052,-2.5267751852618616,6.109927761345663,1.017429232597351,-2.108757797871725
1708434971.0609329,-2.1414921283721924,-1.333626852636673,-2.526766602193014,6.109894621163168,1.0174665451049805,-2.108682934437887
1708434971.0629785,-2.141453981399536,-1.333667830829956,-2.526738230382101,6.1099456427390955,1.0174425840377808,-2.10870868364443
1708434971.0649655,-2.141462802886963,-1.3336797070554276,-2.5267913977252405,6.109924423485555,1.0174471139907837,-2.108704392110006
1708434971.0669653,-2.141451358795166,-1.3335931462100525,-2.526766602193014,6.109900700836935,1.0174590349197388,-2.10870868364443
1708434971.0689719,-2.1414921283721924,-1.3336072725108643,-2.5268078486071985,6.109900581627645,1.0174095630645752,-2.108678642903463
1708434971.070942,-2.141484022140503,-1.333638758664467,-2.5267751852618616,6.109915482788839,1.0174262523651123,-2.108654801045553
1708434971.0729446,-2.1414449214935303,-1.3336396527341385,-2.5267632643329065,6.109937894135275,1.017439842224121,-2.10874587694277
1708434971.0749378,-2.141449451446533,-1.333655835395195,-2.5267751852618616,6.10985146740035,1.0174095630645752,-2.1086633841144007
1708434971.0769472,-2.141453742980957,-1.3336225760034104,-2.5268033186541956,6.1099140522773645,1.0174307823181152,-2.1087220350848597
1708434971.0789623,-2.1415274143218994,-1.3335944724133988,-2.5267751852618616,6.109900581627645,1.0174140930175781,-2.108659092579977
1708434971.0809474,-2.1414990425109863,-1.3336189550212403,-2.5267470518695276,6.109799015312948,1.0173689126968384,-2.1086962858783167
1708434971.082958,-2.1414875984191895,-1.3336796772531052,-2.526733938847677,6.109918463021078,1.0174262523651123,-2.108659092579977
1708434971.0849392,-2.14145827293396,-1.3336634945920487,-2.5267959276782435,6.109847056656637,1.017427682876587,-2.1086977163897913
1708434971.086942,-2.141507863998413,-1.333635465507843,-2.52675444284548,6.109855997353353,1.0174140930175781,-2.1086767355548304
1708434971.0889437,-2.141523838043213,-1.333647297029831,-2.5267632643329065,6.10982762554244,1.0174140930175781,-2.1086400190936487
1708434971.0909293,-2.1414663791656494,-1.3336030852845688,-2.5267720858203333,6.109841096192159,1.0174109935760498,-2.1086319128619593
1708434971.0929704,-2.1414334774017334,-1.3336396378329773,-2.5267601648913782,6.109855997353353,1.0174109935760498,-2.108624283467428
1708434971.0949361,-2.141515016555786,-1.3336060655168076,-2.5267391840564173,6.109860408097067,1.017380952835083,-2.108636204396383
1708434971.0969634,-2.141462802886963,-1.3336678904346009,-2.5267062822925013,6.109843957215109,1.0174063444137573,-2.108628575001852
1708434971.0989697,-2.141515016555786,-1.3336601567319413,-2.526703182850973,6.109832155495443,1.0173778533935547,-2.108640495930807
1708434971.1009395,-2.1414830684661865,-1.333618940120079,-2.526710812245504,6.10986481884078,1.017382264137268,-2.108590904866354
1708434971.1029856,-2.1414618492126465,-1.3335869026235123,-2.526686970387594,6.109839546471395,1.0173615217208862,-2.108645264302389
1708434971.1049502,-2.1414875984191895,-1.3336072725108643,-2.526637856160299,6.109902131348409,1.0173568725585938,-2.108628575001852
1708434971.1069572,-2.1414527893066406,-1.3336273294738312,-2.526691261922018,6.109876739769735,1.0173286199569702,-2.1086328665362757
1708434971.1089602,-2.1414334774017334,-1.3335798245719452,-2.526691261922018,6.109844076424398,1.0173945426940918,-2.108584229146139
1708434971.1109402,-2.1414966583251953,-1.3335791540196915,-2.526658598576681,6.109881269722738,1.0173990726470947,-2.1086705366717737
1708434971.1129453,-2.1414921283721924,-1.333584190612175,-2.526662890111105,6.109863507538595,1.0173494815826416,-2.1086257139789026
1708434971.1149416,-2.1415035724639893,-1.3335636121085663,-2.5266552607165735,6.109844076424398,1.0173496007919312,-2.108649555836813
1708434971.116952,-2.1414663791656494,-1.3335028898767014,-2.526675049458639,6.109885680466451,1.0173287391662598,-2.1085999647723597
1708434971.1189394,-2.141496419906616,-1.3335071516088028,-2.5266180674182337,6.109818684845724,1.0173659324645996,-2.108621422444479
1708434971.1209323,-2.1414573192596436,-1.3334747415832062,-2.5267041365252894,6.109832155495443,1.0173659324645996,-2.1086042563067835
1708434971.122973,-2.1414380073547363,-1.3334799271873017,-2.5266552607165735,6.109857547074117,1.0173540115356445,-2.108624283467428
1708434971.124943,-2.141496419906616,-1.333458588724472,-2.5266299883471888,6.109872329026022,1.0173070430755615,-2.108595673237936
1708434971.1269717,-2.141479730606079,-1.333495558505394,-2.526630226765768,6.1099140522773645,1.017391324043274,-2.108595673237936
1708434971.128991,-2.1415317058563232,-1.3334832352450867,-2.5267120043383997,6.109832155495443,1.017386794090271,-2.1086042563067835
1708434971.130928,-2.141496419906616,-1.333483265047409,-2.526679340993063,6.109799015312948,1.0173540115356445,-2.108579460774557
1708434971.1329756,-2.141516923904419,-1.3334832203439255,-2.526679340993063,6.109844076424398,1.0173912048339844,-2.108616654072897
1708434971.1349437,-2.1414334774017334,-1.3335200262120743,-2.526675049458639,6.109909522324362,1.017358422279358,-2.108633343373434
1708434971.1369717,-2.1414449214935303,-1.333467037682869,-2.526662890111105,6.1098976013954065,1.0173420906066895,-2.108588520680563
1708434971.1389894,-2.1414921283721924,-1.3334832352450867,-2.526662890111105,6.109857547074117,1.0173250436782837,-2.108595673237936
1708434971.1409497,-2.1415531635284424,-1.3334832352450867,-2.526703182850973,6.1098142741020105,1.0173250436782837,-2.1086042563067835
1708434971.1429636,-2.1414945125579834,-1.3334138852408906,-2.5266757647143763,6.10980652549819,1.017317771911621,-2.108645264302389
1708434971.1449363,-2.1414990425109863,-1.333504096870758,-2.526670519505636,6.109893190651693,1.0173250436782837,-2.1086328665362757
1708434971.1469617,-2.1414787769317627,-1.3334389936975022,-2.526646677647726,6.109835135727682,1.0173250436782837,-2.108612362538473
1708434971.14899,-2.1414830684661865,-1.3334842038205643,-2.5266714731799524,6.109847056656637,1.0173511505126953,-2.108588520680563
1708434971.1509817,-2.141500949859619,-1.3335126352361222,-2.526662890111105,6.109881269722738,1.0173512697219849,-2.108624283467428
1708434971.1529913,-2.1414663791656494,-1.333434672360756,-2.5266345183001917,6.109873878746786,1.0173676013946533,-2.108608071004049
1708434971.154948,-2.141515016555786,-1.3335083735040207,-2.526691261922018,6.109872329026022,1.0173585414886475,-2.108558479939596
1708434971.1569417,-2.1414875984191895,-1.333495558505394,-2.526679340993063,6.10986481884078,1.0173496007919312,-2.10858661333193
1708434971.1589458,-2.1414830684661865,-1.3334875714829941,-2.526663843785421,6.109879839211263,1.0173420906066895,-2.108612362538473
1708434971.160937,-2.141475200653076,-1.3335083735040207,-2.5267117659198206,6.109863388329305,1.0173250436782837,-2.108595673237936
1708434971.1629512,-2.1414380073547363,-1.3334832352450867,-2.5267162958728235,6.109855997353353,1.0173087120056152,-2.1085990110980433
1708434971.1649685,-2.1414706707000732,-1.3335114282420655,-2.526642147694723,6.109872329026022,1.0173132419586182,-2.108616654072897
1708434971.1669588,-2.1414902210235596,-1.3334756654552002,-2.5266879240619105,6.109876739769735,1.017317771911621,-2.1086209456073206
1708434971.1689374,-2.14151930809021,-1.333504096870758,-2.526662890111105,6.10988877990798,1.017293930053711,-2.108621422444479
1708434971.1709435,-2.14151930809021,-1.3334594827941437,-2.5266509691821497,6.109848487168112,1.0172607898712158,-2.108628575001852
1708434971.172962,-2.14151930809021,-1.3334424060634156,-2.5267120043383997,6.109852897911825,1.0172637701034546,-2.108608071004049
1708434971.17493,-2.141510486602783,-1.3334594827941437,-2.526662890111105,6.109858977585592,1.0173312425613403,-2.108584229146139
1708434971.176957,-2.1414706707000732,-1.3334637743285676,-2.5266998449908655,6.109905111580648,1.017317771911621,-2.108575169240133
1708434971.178981,-2.1414875984191895,-1.333504096870758,-2.526679340993063,6.109876739769735,1.0173431634902954,-2.108579460774557
1708434971.180928,-2.1414921283721924,-1.3334918481162568,-2.526662890111105,6.109855997353353,1.0173313617706299,-2.1085599104510706
1708434971.1829562,-2.141453981399536,-1.333491863017418,-2.526621405278341,6.109876739769735,1.0172474384307861,-2.108621422444479
1708434971.1849613,-2.1415035724639893,-1.3334714037230988,-2.526646677647726,6.109872329026022,1.0172984600067139,-2.108579460774557
1708434971.1869428,-2.141508102416992,-1.3335003864816208,-2.5266924540149134,6.109832155495443,1.0172637701034546,-2.108588520680563
1708434971.1889431,-2.141523838043213,-1.3334997457316895,-2.526642147694723,6.10988866069869,1.0173267126083374,-2.1085999647723597
1708434971.190928,-2.141523838043213,-1.3334875863841553,-2.526691261922018,6.109855997353353,1.0172804594039917,-2.108590904866354
1708434971.192983,-2.1414787769317627,-1.3334961247495194,-2.5266836325274866,6.109884249954977,1.0172758102416992,-2.108612362538473
1708434971.1949253,-2.1414921283721924,-1.3334637445262452,-2.526679340993063,6.109928953438558,1.01736319065094,-2.1085999647723597
1708434971.196962,-2.141523838043213,-1.333504096870758,-2.5266760031329554,6.109905111580648,1.017317771911621,-2.108612362538473
1708434971.19894,-2.1414990425109863,-1.333504096870758,-2.526679340993063,6.109863388329305,1.0173312425613403,-2.108640495930807
1708434971.2009542,-2.141475200653076,-1.3334747862866898,-2.526646439229147,6.109905111580648,1.017317771911621,-2.108595673237936
1708434971.2029536,-2.1414945125579834,-1.3334390234998246,-2.5266671816455286,6.109928953438558,1.017358422279358,-2.108588520680563
1708434971.2049387,-2.1414875984191895,-1.333504096870758,-2.526642386113302,6.109921443253317,1.0173512697219849,-2.108603302632467
1708434971.2069988,-2.1414875984191895,-1.3334756356528779,-2.5267043749438685,6.1098917601402185,1.0172805786132812,-2.108645264302389
1708434971.208968,-2.141500949859619,-1.3335317981294175,-2.5266509691821497,6.109920012741842,1.0173267126083374,-2.108612362538473
1708434971.210942,-2.141496419906616,-1.333536149268486,-2.526707712803976,6.109884249954977,1.0173296928405762,-2.108649555836813
1708434971.2129743,-2.1414787769317627,-1.3334756654552002,-2.526658598576681,6.109933364182272,1.0173430442810059,-2.108608071004049
1708434971.214945,-2.1415274143218994,-1.333543823366501,-2.526662890111105,6.1098753092582605,1.0172849893569946,-2.108603302632467
1708434971.2169468,-2.1414830684661865,-1.3334790480187912,-2.5266509691821497,6.109921443253317,1.0172863006591797,-2.108595673237936
1708434971.2189658,-2.14151930809021,-1.3335083735040207,-2.5266509691821497,6.109867918282308,1.0173430442810059,-2.1086462179767054
1708434971.2210138,-2.1414787769317627,-1.333504096870758,-2.526662890111105,6.109961974411764,1.0173087120056152,-2.108608071004049
1708434971.2229526,-2.141510486602783,-1.3334714037230988,-2.526662890111105,6.109903681069174,1.0173341035842896,-2.108612362538473
1708434971.2249758,-2.1415059566497803,-1.3334637445262452,-2.5266998449908655,6.109896170883932,1.0173600912094116,-2.1085990110980433
1708434971.226997,-2.141519546508789,-1.333524228339531,-2.526691261922018,6.109903681069174,1.017293930053711,-2.108612362538473
1708434971.2289686,-2.1415486335754395,-1.3334714037230988,-2.526675049458639,6.109937894135275,1.017293930053711,-2.108645264302389
1708434971.230927,-2.141515016555786,-1.3334832352450867,-2.526637856160299,6.10988866069869,1.0173250436782837,-2.108619991933004
1708434971.2329378,-2.1414899826049805,-1.3334628653577347,-2.5266345183001917,6.109903561859884,1.0172849893569946,-2.108595673237936
1708434971.234961,-2.1414291858673096,-1.3335083586028595,-2.5267532507525843,6.109950053482809,1.0173341035842896,-2.108612362538473
1708434971.236955,-2.1414990425109863,-1.3334680211595078,-2.5266552607165735,6.109953152924337,1.0172849893569946,-2.108661953602926
1708434971.2389457,-2.1415228843688965,-1.3334799271873017,-2.5266671816455286,6.109910952835836,1.0173267126083374,-2.108595673237936
1708434971.2409306,-2.141469717025757,-1.333504096870758,-2.5267041365252894,6.109939682274618,1.0173087120056152,-2.10865289369692
1708434971.242967,-2.141515016555786,-1.3335242581418534,-2.5267000834094446,6.109951603203573,1.0172849893569946,-2.1086576620685022
1708434971.2449608,-2.1414663791656494,-1.3334714037230988,-2.526698891316549,6.109993564873495,1.0173341035842896,-2.108645264302389
1708434971.2469435,-2.1414875984191895,-1.3334875863841553,-2.526662890111105,6.1098976013954065,1.0173132419586182,-2.108628575001852
1708434971.2489219,-2.141507863998413,-1.3334799271873017,-2.5266879240619105,6.110005128174581,1.0172474384307861,-2.10865289369692
1708434971.2509713,-2.1414830684661865,-1.3334842038205643,-2.5266671816455286,6.1100337384040735,1.017317771911621,-2.108628575001852
1708434971.2537243,-2.1414742469787598,-1.3334997457316895,-2.5266714731799524,6.11000810840682,1.0173511505126953,-2.108640495930807
1708434971.2549543,-2.1414990425109863,-1.333504096870758,-2.5267043749438685,6.110006916313925,1.0173296928405762,-2.108649555836813
1708434971.2569509,-2.1415317058563232,-1.3334918481162568,-2.526686731969015,6.110081660538473,1.017317771911621,-2.1086319128619593
1708434971.2589993,-2.141536235809326,-1.3334997457316895,-2.526707712803976,6.109987365990438,1.017317771911621,-2.1086109320269983
1708434971.260936,-2.1415035724639893,-1.3334912967732926,-2.5266879240619105,6.110023367195883,1.0173476934432983,-2.1086576620685022
1708434971.2629678,-2.1415035724639893,-1.3334799271873017,-2.526675049458639,6.110015857010641,1.0173430442810059,-2.1085990110980433
1708434971.2649488,-2.1414742469787598,-1.333536149268486,-2.52661377588381,6.110015857010641,1.0172683000564575,-2.1086576620685022
1708434971.2669644,-2.1414742469787598,-1.3334756654552002,-2.526662890111105,6.110006916313925,1.0172683000564575,-2.108603302632467
1708434971.268982,-2.1414785385131836,-1.3335285049727936,-2.5266879240619105,6.110020386963644,1.017259120941162,-2.108624283467428
1708434971.27094,-2.1415035724639893,-1.3334790480187912,-2.5267043749438685,6.110006916313925,1.0172637701034546,-2.1086400190936487
1708434971.2729633,-2.1414902210235596,-1.3334628653577347,-2.526679340993063,6.110057699471273,1.0173600912094116,-2.10858661333193
1708434971.2749457,-2.1414945125579834,-1.3334875863841553,-2.526679340993063,6.1100114462669275,1.0173476934432983,-2.108640495930807
1708434971.2769625,-2.1414787769317627,-1.333504096870758,-2.526646439229147,6.110036837845602,1.0172759294509888,-2.108603302632467
1708434971.278954,-2.141515016555786,-1.333507166509964,-2.526637856160299,6.110044109612264,1.0173420906066895,-2.108678166066305
1708434971.2809322,-2.1414830684661865,-1.3335126352361222,-2.526646677647726,6.110060560494222,1.0172849893569946,-2.1085947195636194
1708434971.2829456,-2.1414875984191895,-1.3335028749755402,-2.5266671816455286,6.109982716828146,1.0173341035842896,-2.1086705366717737
1708434971.2849658,-2.141536235809326,-1.333527610903122,-2.526675049458639,6.109999167710104,1.0173511505126953,-2.108608071004049
1708434971.286959,-2.141469717025757,-1.333524228339531,-2.526675049458639,6.1100560305412195,1.0173312425613403,-2.108661953602926
1708434971.2889419,-2.1414742469787598,-1.333467037682869,-2.5266619364367884,6.1100114462669275,1.0173250436782837,-2.108640495930807
1708434971.290956,-2.141510486602783,-1.333507166509964,-2.526679340993063,6.109991776734152,1.0173132419586182,-2.1086767355548304
1708434971.2929711,-2.1415486335754395,-1.333515615468361,-2.526621405278341,6.109996187477865,1.0173431634902954,-2.108661953602926
1708434971.294924,-2.1415228843688965,-1.333508388405182,-2.5266552607165735,6.11002145984725,1.0173676013946533,-2.108608071004049
1708434971.2969668,-2.1414875984191895,-1.3334875863841553,-2.5266879240619105,6.110002505570211,1.0173206329345703,-2.1086319128619593
1708434971.2989533,-2.1415016651153564,-1.333495558505394,-2.526679340993063,6.109978306084432,1.0173296928405762,-2.108595673237936
1708434971.3009534,-2.1414618492126465,-1.3334594827941437,-2.526723925267355,6.110032188683309,1.0173087120056152,-2.108694378529684
1708434971.3029673,-2.1414990425109863,-1.3334875863841553,-2.526686970387594,6.109982716828146,1.0173296928405762,-2.1086605230914515
1708434971.3049333,-2.141510486602783,-1.333507166509964,-2.5266509691821497,6.110064971237936,1.0172713994979858,-2.108640495930807
1708434971.3069746,-2.1414787769317627,-1.3335199815085907,-2.5267162958728235,6.109996187477865,1.017317771911621,-2.108640495930807
1708434971.3089485,-2.1415274143218994,-1.3334424060634156,-2.5266671816455286,6.110015857010641,1.017293930053711,-2.108673874531881
1708434971.3109674,-2.14151930809021,-1.3335083735040207,-2.526646677647726,6.1100783226783655,1.0173267126083374,-2.108616654072897
1708434971.312998,-2.1414618492126465,-1.3334875863841553,-2.526662890111105,6.110027777939596,1.0173512697219849,-2.1086319128619593
1708434971.3149514,-2.1414990425109863,-1.3335003864816208,-2.526654068623678,6.110036837845602,1.017293930053711,-2.108640495930807
1708434971.3169916,-2.1414902210235596,-1.3335566085628052,-2.5266671816455286,6.110029208451071,1.0172849893569946,-2.108661953602926
1708434971.3189616,-2.1415531635284424,-1.3334790480187912,-2.5266552607165735,6.110035288124838,1.0173430442810059,-2.108636204396383
1708434971.3209345,-2.1414856910705566,-1.3334961247495194,-2.526675049458639,6.109978306084432,1.017346739768982,-2.1086066404925745
1708434971.3229399,-2.141510486602783,-1.3335199666074296,-2.526686970387594,6.110041248589315,1.0173810720443726,-2.108619991933004
1708434971.3249297,-2.1415035724639893,-1.3334747862866898,-2.526662890111105,6.110014307289877,1.0173250436782837,-2.1086319128619593
1708434971.326966,-2.141510486602783,-1.333515615468361,-2.526675049458639,6.109971272736349,1.0173430442810059,-2.108624283467428
1708434971.328937,-2.1415317058563232,-1.3334912967732926,-2.5266998449908655,6.109920251160421,1.0172849893569946,-2.1086576620685022
1708434971.3309307,-2.1414830684661865,-1.3334832352450867,-2.5266836325274866,6.109996187477865,1.017317771911621,-2.1086443106280726
1708434971.3329298,-2.141510486602783,-1.3334756654552002,-2.526682440434591,6.1100501892860315,1.0173296928405762,-2.108619991933004
1708434971.3349924,-2.141540765762329,-1.3334961247495194,-2.5267162958728235,6.110027777939596,1.0173133611679077,-2.108612362538473
1708434971.3369882,-2.141540765762329,-1.3334628653577347,-2.526679340993063,6.110023367195883,1.0173630714416504,-2.1086648146258753
1708434971.3389573,-2.1414787769317627,-1.333507166509964,-2.526666227971212,6.110061991005697,1.0172805786132812,-2.108608071004049
1708434971.340954,-2.1414787769317627,-1.3335126352361222,-2.526703182850973,6.110020386963644,1.0173341035842896,-2.108615223561422
1708434971.3429523,-2.141515016555786,-1.333504096870758,-2.5266509691821497,6.110041248589315,1.0173296928405762,-2.108582321797506
1708434971.3449366,-2.1414990425109863,-1.3334832352450867,-2.5266998449908655,6.110064971237936,1.0173250436782837,-2.108603302632467
1708434971.34695,-2.1414971351623535,-1.333434672360756,-2.526675049458639,6.110020386963644,1.0173132419586182,-2.108661953602926
1708434971.34895,-2.1414875984191895,-1.3334961247495194,-2.526679340993063,6.109973895340719,1.017317771911621,-2.108694378529684
1708434971.350959,-2.1415228843688965,-1.333467037682869,-2.526658598576681,6.110036837845602,1.0173312425613403,-2.108640495930807
1708434971.3529809,-2.1415531635284424,-1.333515615468361,-2.5266671816455286,6.110015857010641,1.0173341035842896,-2.108603302632467
1708434971.3549764,-2.141510486602783,-1.3335126352361222,-2.5266180674182337,6.11000810840682,1.0173250436782837,-2.108636204396383
1708434971.3569632,-2.1414787769317627,-1.3334747862866898,-2.526675049458639,6.110081660538473,1.0173267126083374,-2.1086319128619593
1708434971.358958,-2.1414706707000732,-1.3334790480187912,-2.526662890111105,6.110015857010641,1.0172637701034546,-2.108678166066305
1708434971.3609276,-2.1414945125579834,-1.333446667795517,-2.5266671816455286,6.109980094223776,1.0173341035842896,-2.108595673237936
1708434971.3629293,-2.1415035724639893,-1.3335071516088028,-2.526679340993063,6.109987365990438,1.0172771215438843,-2.108661953602926
1708434971.3649411,-2.1415059566497803,-1.3334799271873017,-2.5266552607165735,6.1100125191505334,1.017293930053711,-2.108624283467428
1708434971.3669312,-2.1414990425109863,-1.3335126352361222,-2.526662890111105,6.109958994179525,1.0172849893569946,-2.1086319128619593
1708434971.3689332,-2.1415319442749023,-1.3334832352450867,-2.5266955534564417,6.110045659333029,1.0173602104187012,-2.1086319128619593
1708434971.3709254,-2.141510486602783,-1.3334997457316895,-2.5266509691821497,6.110017049103536,1.017317771911621,-2.1085904280291956
1708434971.3729253,-2.1414706707000732,-1.3334747862866898,-2.526642386113302,6.110015857010641,1.0173132419586182,-2.1086395422564905
1708434971.3749232,-2.1414945125579834,-1.3335523468307038,-2.5266998449908655,6.110029208451071,1.0173341035842896,-2.108661953602926
1708434971.3769197,-2.1415352821350098,-1.3334912669709702,-2.5266671816455286,6.109950053482809,1.0173312425613403,-2.10865289369692
1708434971.3789375,-2.1414787769317627,-1.3334832352450867,-2.5266955534564417,6.109971272736349,1.0172759294509888,-2.10869008699526
1708434971.3809254,-2.141510486602783,-1.3334961247495194,-2.5266509691821497,6.1100125191505334,1.017317771911621,-2.1086815039264124
1708434971.3829243,-2.141510486602783,-1.3334997457316895,-2.526658598576681,6.110029208451071,1.0173267126083374,-2.1086109320269983
1708434971.3849204,-2.1414787769317627,-1.333536149268486,-2.526696745549337,6.109975683480062,1.0173430442810059,-2.1086271444903772
1708434971.3869364,-2.1415035724639893,-1.333467037682869,-2.5266671816455286,6.110003697663107,1.0172849893569946,-2.1086576620685022
1708434971.388923,-2.1415441036224365,-1.3334594827941437,-2.526679340993063,6.109999167710104,1.0172817707061768,-2.10865289369692
1708434971.3909252,-2.1414945125579834,-1.3334713888219376,-2.5266509691821497,6.110015857010641,1.0173087120056152,-2.1086109320269983
1708434971.3929107,-2.141469717025757,-1.3334790480187912,-2.5266836325274866,6.110020386963644,1.0173313617706299,-2.1086319128619593
1708434971.3949294,-2.141510486602783,-1.3334918481162568,-2.526670519505636,6.109996187477865,1.0173087120056152,-2.108608071004049
1708434971.3969223,-2.1414990425109863,-1.3335047376206894,-2.5266955534564417,6.109978306084432,1.0173133611679077,-2.108657185231344
1708434971.398961,-2.1414830684661865,-1.3335083735040207,-2.5266955534564417,6.109971272736349,1.0173133611679077,-2.108661953602926
1708434971.400928,-2.141523838043213,-1.3334756654552002,-2.526637856160299,6.11000810840682,1.0173133611679077,-2.108624283467428
1708434971.402956,-2.1415228843688965,-1.333515615468361,-2.526679340993063,6.11000810840682,1.017317771911621,-2.108615223561422
1708434971.4049327,-2.141523838043213,-1.333524228339531,-2.526724878941671,6.11000810840682,1.017334222793579,-2.108636204396383
1708434971.4069211,-2.1414618492126465,-1.3335114282420655,-2.526679340993063,6.1099469540412805,1.0173087120056152,-2.108624283467428
1708434971.4089725,-2.1414787769317627,-1.3335114282420655,-2.5266998449908655,6.109993564873495,1.017317771911621,-2.108575169240133
1708434971.410933,-2.1414742469787598,-1.333446667795517,-2.5266345183001917,6.109971272736349,1.0172849893569946,-2.108645264302389
1708434971.412933,-2.1415576934814453,-1.3334756654552002,-2.5266714731799524,6.109950053482809,1.0172849893569946,-2.1086228529559534
1708434971.4149356,-2.1414875984191895,-1.3334628653577347,-2.5266671816455286,6.109980094223776,1.0173357725143433,-2.108619991933004
1708434971.4169528,-2.1414787769317627,-1.333527610903122,-2.5266836325274866,6.109917270928182,1.0172759294509888,-2.1085990110980433
1708434971.4189727,-2.141515016555786,-1.3335318279317399,-2.526662890111105,6.1100125191505334,1.0172849893569946,-2.108628575001852
1708434971.420958,-2.1414787769317627,-1.3334875863841553,-2.526675049458639,6.109991776734152,1.017317771911621,-2.108628575001852
1708434971.4229403,-2.1414921283721924,-1.3334790480187912,-2.5266879240619105,6.110029208451071,1.0172518491744995,-2.108584229146139
1708434971.4249632,-2.1414449214935303,-1.3334705096534272,-2.526686731969015,6.1099634049232385,1.017334222793579,-2.108649555836813
1708434971.4269512,-2.1414785385131836,-1.3334424060634156,-2.526662890111105,6.109993564873495,1.0173296928405762,-2.108633343373434
1708434971.4289794,-2.1414990425109863,-1.3335608702949067,-2.5266879240619105,6.1099514839942834,1.0172759294509888,-2.1086271444903772
1708434971.4309394,-2.1414990425109863,-1.3334997457316895,-2.526662890111105,6.1099634049232385,1.0173133611679077,-2.10858661333193
