Eg3-git/Classifiers/Data Collection/u2/u2star5_ur3e_joint_states.csv
time,elbow_joint,shoulder_lift_joint,shoulder_pan_joint,wrist_1_joint,wrist_2_joint,wrist_3_joint
1708434896.6328921,-2.1418347358703613,-1.3337114465287705,-2.526994530354635,6.111147630005636,1.0178874731063843,-2.1975463072406214
1708434896.6348808,-2.1418585777282715,-1.333690957432129,-2.526994530354635,6.111168134003439,1.0179154872894287,-2.1975629965411585
1708434896.63689,-2.1418631076812744,-1.3336747598699112,-2.527018133793966,6.111163842469015,1.017924189567566,-2.1976168791400355
1708434896.6389036,-2.1418676376342773,-1.3337482076934357,-2.5270031134234827,6.111135351448812,1.017883062362671,-2.1975796858416956
1708434896.640886,-2.1418256759643555,-1.3336619150689621,-2.5269694964038294,6.111118066101827,1.017883062362671,-2.1975629965411585
1708434896.642908,-2.141850709915161,-1.3336539578488846,-2.5269792715655726,6.111155140190878,1.0178874731063843,-2.1976125876056116
1708434896.6449137,-2.1418256759643555,-1.3337071549943467,-2.526990000401632,6.11117576339797,1.0179078578948975,-2.1976001898394983
1708434896.646899,-2.141871929168701,-1.333720089202263,-2.5269954840289515,6.111159550934591,1.0178545713424683,-2.1975629965411585
1708434896.6489234,-2.1418709754943848,-1.3337190759233017,-2.526970688496725,6.111225831299581,1.017896056175232,-2.1975796858416956
1708434896.650894,-2.141846179962158,-1.3336952340653916,-2.5270729700671595,6.111135232239523,1.0178176164627075,-2.1976216475116175
1708434896.6528852,-2.141871929168701,-1.3336668771556397,-2.52704364458193,6.111163842469015,1.0178468227386475,-2.1976125876056116
1708434896.6548963,-2.1418371200561523,-1.333702878361084,-2.5269911924945276,6.1112215397651575,1.0178622007369995,-2.197575394307272
1708434896.6568987,-2.141850709915161,-1.3336790365031739,-2.5270031134234827,6.111172544747152,1.0178664922714233,-2.1976001898394983
1708434896.6588974,-2.1418416500091553,-1.3336411130479355,-2.5270524660693567,6.111130225449362,1.0179036855697632,-2.1976001898394983
1708434896.6608813,-2.141904592514038,-1.333732010131218,-2.526986900960104,6.111200916558065,1.0178874731063843,-2.197604481373922
1708434896.662922,-2.1418256759643555,-1.3337233525565644,-2.526978317891256,6.111119138985433,1.0178664922714233,-2.197575394307272
1708434896.6649039,-2.1418044567108154,-1.333732010131218,-2.5270031134234827,6.111187922745504,1.0178546905517578,-2.1976001898394983
1708434896.6668844,-2.1418540477752686,-1.3337395650199433,-2.5270443598376673,6.111160623818197,1.0178338289260864,-2.1975539366351526
1708434896.668899,-2.141900062561035,-1.3337233525565644,-2.5270031134234827,6.111171352654257,1.0178664922714233,-2.1976168791400355
1708434896.670888,-2.1418910026550293,-1.3337190759233017,-2.526994530354635,6.111168134003439,1.0178381204605103,-2.1975420157061976
1708434896.6728814,-2.141862392425537,-1.3337267202189942,-2.5270031134234827,6.11115192154006,1.0178219079971313,-2.1976078192340296
1708434896.674898,-2.1418328285217285,-1.3336824041656037,-2.5270031134234827,6.111187922745504,1.0178874731063843,-2.197575394307272
1708434896.6768916,-2.141846179962158,-1.3337514859488984,-2.5270074049579065,6.111206042557516,1.0178664922714233,-2.1975672880755823
1708434896.678906,-2.1418371200561523,-1.3336986017278214,-2.526970688496725,6.111156332283773,1.0178663730621338,-2.197609249745504
1708434896.680906,-2.141911506652832,-1.333633453851082,-2.526986900960104,6.111197340279379,1.0178546905517578,-2.1975553671466272
1708434896.6828876,-2.1418416500091553,-1.333702878361084,-2.5269737879382532,6.111168134003439,1.017894983291626,-2.1975463072406214
1708434896.6848826,-2.1418755054473877,-1.3337276440909882,-2.527018133793966,6.111159550934591,1.0178751945495605,-2.1975391546832483
1708434896.6868844,-2.1418755054473877,-1.333666892056801,-2.5270074049579065,6.111148345261373,1.0178751945495605,-2.197604481373922
1708434896.6889193,-2.1418256759643555,-1.333702878361084,-2.526986900960104,6.1111148474510095,1.0178502798080444,-2.197609249745504
1708434896.690882,-2.141866683959961,-1.3336943250945588,-2.5270031134234827,6.111138927727499,1.0178709030151367,-2.1975887457477015
1708434896.69289,-2.141845464706421,-1.3337190610221406,-2.5270355383502405,6.111184346466818,1.017878770828247,-2.1975463072406214
1708434896.6948981,-2.141866683959961,-1.3337634068778534,-2.526957337056295,6.111131059914388,1.017875075340271,-2.1976125876056116
1708434896.6968923,-2.1418957710266113,-1.3337190759233017,-2.5270119349109095,6.1112215397651575,1.0178751945495605,-2.197604481373922
1708434896.6989183,-2.1418910026550293,-1.3336909425309678,-2.5269954840289515,6.111126768379965,1.0178751945495605,-2.1975868383990687
1708434896.7008796,-2.1418755054473877,-1.3337071549943467,-2.5269737879382532,6.111156332283773,1.0178502798080444,-2.1975839773761194
1708434896.7028904,-2.141862392425537,-1.333702878361084,-2.5270116964923304,6.111200916558065,1.0179122686386108,-2.1975629965411585
1708434896.704935,-2.141817092895508,-1.3337157678655167,-2.526986900960104,6.1111440537269495,1.0178546905517578,-2.1975706259356897
1708434896.706912,-2.1418957710266113,-1.3337114316276093,-2.5270355383502405,6.111150848656454,1.0178546905517578,-2.1975796858416956
1708434896.7088976,-2.1418800354003906,-1.3337352734855195,-2.5269575754748743,6.111187922745504,1.0178874731063843,-2.1975954214679163
1708434896.710904,-2.1418957710266113,-1.3337071549943467,-2.526986900960104,6.111220347672262,1.017883062362671,-2.1975629965411585
1708434896.712882,-2.1418542861938477,-1.3336496663144608,-2.526986900960104,6.111195552140035,1.0178961753845215,-2.197575394307272
1708434896.714899,-2.1418540477752686,-1.3337233525565644,-2.5269749800311487,6.111130225449362,1.017863392829895,-2.1975796858416956
1708434896.716881,-2.1418755054473877,-1.3336747598699112,-2.5269582907306116,6.111134516983785,1.017878770828247,-2.1975796858416956
1708434896.7188778,-2.1418585777282715,-1.3336130690625687,-2.5270119349109095,6.111200916558065,1.0179036855697632,-2.197575394307272
1708434896.7208934,-2.141866683959961,-1.3336996001056214,-2.5269737879382532,6.111159550934591,1.0178338289260864,-2.1975796858416956
1708434896.7228808,-2.1418888568878174,-1.3336704832366486,-2.5269532839404505,6.111184346466818,1.0178709030151367,-2.1975954214679163
1708434896.7248967,-2.1418585777282715,-1.3337190759233017,-2.527039353047506,6.111122357636251,1.0178546905517578,-2.197575394307272
1708434896.7268884,-2.141902446746826,-1.333720089202263,-2.5270116964923304,6.111217248230734,1.017850399017334,-2.1975210348712366
1708434896.7289224,-2.1418755054473877,-1.333679051404335,-2.5270567576037806,6.111180054932394,1.0178589820861816,-2.1975911299334925
1708434896.7308993,-2.1418540477752686,-1.3336420369199296,-2.5270031134234827,6.111180054932394,1.0178874731063843,-2.1975954214679163
1708434896.7329075,-2.141906976699829,-1.3337190461209794,-2.5270031134234827,6.11121283748702,1.017896056175232,-2.1975463072406214
1708434896.7348886,-2.1418585777282715,-1.3337309819510956,-2.526994530354635,6.111208545952596,1.017878770828247,-2.1975372473346155
1708434896.7369149,-2.1418910026550293,-1.3336943250945588,-2.5270116964923304,6.111216056137838,1.017879605293274,-2.1975839773761194
1708434896.738926,-2.1418240070343018,-1.3337190759233017,-2.5270031134234827,6.111187922745504,1.0178719758987427,-2.1975463072406214
1708434896.7409036,-2.1418910026550293,-1.3336216521314164,-2.5269911924945276,6.111196625023641,1.0178176164627075,-2.197580639516012
1708434896.742888,-2.141850709915161,-1.3337309968522568,-2.526978317891256,6.11121283748702,1.017894983291626,-2.1976001898394983
1708434896.7448864,-2.1418957710266113,-1.3337071400931855,-2.526957337056295,6.111159550934591,1.0178709030151367,-2.1975706259356897
1708434896.7469003,-2.141866683959961,-1.3336704832366486,-2.5270074049579065,6.111134516983785,1.017891764640808,-2.1975930372821253
1708434896.7489111,-2.1418824195861816,-1.3336738807014008,-2.5269954840289515,6.111147630005636,1.0178874731063843,-2.1976454893695276
1708434896.750887,-2.141849994659424,-1.3336790365031739,-2.527015988026754,6.11118363121108,1.0178589820861816,-2.1975796858416956
1708434896.7528968,-2.1418755054473877,-1.3337395650199433,-2.526986900960104,6.111171352654257,1.017896056175232,-2.1976001898394983
1708434896.7548854,-2.1418983936309814,-1.3336704534343262,-2.5269737879382532,6.111236321717062,1.0178709030151367,-2.1975582281695765
1708434896.7569053,-2.1418778896331787,-1.3336619895747681,-2.5269954840289515,6.111159550934591,1.0178589820861816,-2.1975911299334925
1708434896.7589142,-2.1418867111206055,-1.3337028634599228,-2.5270074049579065,6.111171352654257,1.0178751945495605,-2.197576347981588
1708434896.760888,-2.141927480697632,-1.3336781424335022,-2.5269792715655726,6.111200916558065,1.0178455114364624,-2.1975629965411585
1708434896.7629015,-2.1418416500091553,-1.3336781126311799,-2.526970688496725,6.111150848656454,1.0178751945495605,-2.1975887457477015
1708434896.764892,-2.1418824195861816,-1.3336943697980423,-2.5270567576037806,6.111163842469015,1.0179154872894287,-2.197576347981588
1708434896.7669005,-2.1418709754943848,-1.333702878361084,-2.5269954840289515,6.111167061119833,1.0178875923156738,-2.197571579610006
1708434896.7689068,-2.1418778896331787,-1.3337395650199433,-2.5270612875567835,6.111113774567404,1.0178500413894653,-2.1975796858416956
1708434896.7708933,-2.1418497562408447,-1.3336986166289826,-2.52694541612734,6.111147630005636,1.017883062362671,-2.1975372473346155
1708434896.7728908,-2.1418755054473877,-1.3337352734855195,-2.526990000401632,6.111196625023641,1.0178338289260864,-2.197566334401266
1708434896.7748907,-2.1418709754943848,-1.3337233823588868,-2.5269575754748743,6.111196625023641,1.0178709030151367,-2.1975629965411585
1708434896.776888,-2.1418755054473877,-1.3336620193770905,-2.526937786732809,6.111229169159689,1.0179197788238525,-2.1976168791400355
1708434896.7789226,-2.1418755054473877,-1.3337029081634064,-2.526970688496725,6.111200916558065,1.0178412199020386,-2.197543446217672
1708434896.7808998,-2.141918420791626,-1.3337071549943467,-2.526953999196188,6.111143338471212,1.0178500413894653,-2.1975839773761194
1708434896.7829218,-2.1418755054473877,-1.333715782766678,-2.5270116964923304,6.111220347672262,1.0178544521331787,-2.1975582281695765
1708434896.7848885,-2.141845464706421,-1.3337190759233017,-2.5270074049579065,6.111159550934591,1.017901062965393,-2.1975300947772425
1708434896.7868927,-2.1418867111206055,-1.3336952340653916,-2.5270031134234827,6.111147630005636,1.017850399017334,-2.1975954214679163
1708434896.7889159,-2.1418540477752686,-1.3336952191642304,-2.5270398298846644,6.111200916558065,1.0178709030151367,-2.1975582281695765
1708434896.7908995,-2.14192271232605,-1.3336909723332901,-2.5270031134234827,6.11117576339797,1.0178837776184082,-2.1975839773761194
1708434896.7929063,-2.141918420791626,-1.3336662215045472,-2.526970688496725,6.111204135208883,1.0178709030151367,-2.1975796858416956
1708434896.7949176,-2.141906976699829,-1.3336539578488846,-2.5270000139819544,6.111155140190878,1.0178306102752686,-2.197575394307272
1708434896.7968981,-2.1418867111206055,-1.3337028932622452,-2.5270116964923304,6.111101734429159,1.017879605293274,-2.1976216475116175
1708434896.798923,-2.1418328285217285,-1.333698646431305,-2.5269749800311487,6.111134636193075,1.0179122686386108,-2.1975672880755823
1708434896.8008924,-2.1418540477752686,-1.3336866658977051,-2.5269792715655726,6.111187922745504,1.017884373664856,-2.1975463072406214
1708434896.8029046,-2.1418371200561523,-1.3336824041656037,-2.526986900960104,6.111171352654257,1.0178632736206055,-2.197604481373922
1708434896.8049011,-2.141911506652832,-1.33368672550235,-2.5270357767688196,6.1112215397651575,1.0178468227386475,-2.1975463072406214
1708434896.806899,-2.141845464706421,-1.33367474496875,-2.526970688496725,6.111200916558065,1.0178349018096924,-2.1975796858416956
1708434896.8091385,-2.1418540477752686,-1.3337310266545792,-2.5269628206836146,6.111135351448812,1.01787531375885,-2.1975181738482874
1708434896.810875,-2.1418285369873047,-1.3336909425309678,-2.5269911924945276,6.111216056137838,1.017842411994934,-2.1976001898394983
1708434896.8129032,-2.1418755054473877,-1.333711401825287,-2.5269747416125696,6.111130225449362,1.017867922782898,-2.1975629965411585
1708434896.8148797,-2.141906976699829,-1.3336824041656037,-2.5269792715655726,6.1111923334892175,1.01787531375885,-2.1975539366351526
1708434896.816902,-2.141914129257202,-1.3336215031198044,-2.5269582907306116,6.111110436707296,1.0178048610687256,-2.1975672880755823
1708434896.8189056,-2.1418957710266113,-1.3336909425309678,-2.5269582907306116,6.111172544747152,1.0178889036178589,-2.1975839773761194
1708434896.8208795,-2.1418983936309814,-1.3337677431157609,-2.5270116964923304,6.111143338471212,1.0178214311599731,-2.1975954214679163
1708434896.8229208,-2.141857862472534,-1.3336747896722336,-2.5269585291491907,6.11117576339797,1.0178438425064087,-2.1976216475116175
1708434896.8248987,-2.1418585777282715,-1.3337233376554032,-2.526953999196188,6.111130344658651,1.017863392829895,-2.1975539366351526
1708434896.8269289,-2.1418938636779785,-1.3337557178786774,-2.526971403752462,6.111187922745504,1.0178511142730713,-2.1976001898394983
1708434896.828936,-2.141918420791626,-1.3336704832366486,-2.5269792715655726,6.111187922745504,1.0178349018096924,-2.1975839773761194
1708434896.8309042,-2.1418755054473877,-1.3336985868266602,-2.52698785463442,6.111171352654257,1.0178306102752686,-2.1975954214679163
1708434896.8329298,-2.1418416500091553,-1.333682433967926,-2.5270162264453333,6.111224758415975,1.017863392829895,-2.1976035276996058
1708434896.834898,-2.1418824195861816,-1.3336747747710724,-2.526994530354635,6.111184346466818,1.0178258419036865,-2.197575394307272
1708434896.8369148,-2.1418824195861816,-1.333658219580986,-2.5269671122180384,6.111159550934591,1.0178378820419312,-2.1975930372821253
1708434896.838912,-2.141902446746826,-1.3336661917022248,-2.5269749800311487,6.111196625023641,1.0178635120391846,-2.197575394307272
1708434896.8408866,-2.14192271232605,-1.3337719601443787,-2.526971403752462,6.111176836281576,1.0178091526031494,-2.1976078192340296
1708434896.8429132,-2.1418824195861816,-1.3337438267520447,-2.5269792715655726,6.111208545952596,1.0178018808364868,-2.1976035276996058
1708434896.844899,-2.141939640045166,-1.3337190759233017,-2.5269792715655726,6.111200916558065,1.0178306102752686,-2.1976078192340296
1708434896.8469024,-2.141906976699829,-1.3336377453855057,-2.5269582907306116,6.11115192154006,1.0178152322769165,-2.197575394307272
1708434896.8488896,-2.1419026851654053,-1.3336866807988663,-2.5269628206836146,6.111126768379965,1.0178512334823608,-2.1975491682635706
1708434896.850878,-2.141849994659424,-1.333690957432129,-2.526975695286886,6.111236321717062,1.0178170204162598,-2.1975796858416956
1708434896.852918,-2.141862392425537,-1.333702878361084,-2.5269671122180384,6.111106145172872,1.0178136825561523,-2.197575394307272
1708434896.8549333,-2.141857862472534,-1.3337438565543671,-2.5269835630999964,6.111150848656454,1.017830491065979,-2.1975796858416956
1708434896.8568962,-2.141918420791626,-1.3336704534343262,-2.5269299189196985,6.111156332283773,1.0178227424621582,-2.1976125876056116
1708434896.858925,-2.141916036605835,-1.3336824041656037,-2.5269954840289515,6.1112215397651575,1.0178183317184448,-2.1975911299334925
1708434896.8608916,-2.1418983936309814,-1.3337806028178711,-2.527008597050802,6.111159550934591,1.0178394317626953,-2.1975300947772425
1708434896.8628983,-2.1418755054473877,-1.3336463284543534,-2.527008597050802,6.111195552140035,1.0178394317626953,-2.1975820700274866
1708434896.8648877,-2.1418824195861816,-1.3337114316276093,-2.526975695286886,6.111229049950399,1.0178483724594116,-2.1975868383990687
1708434896.8669198,-2.141849994659424,-1.3337395650199433,-2.526992384587423,6.111168134003439,1.0178018808364868,-2.1975868383990687
1708434896.868899,-2.1418800354003906,-1.3336824041656037,-2.5269792715655726,6.111200916558065,1.0178108215332031,-2.1975796858416956
1708434896.870899,-2.1418800354003906,-1.3337352734855195,-2.5270043055163782,6.111167061119833,1.017798900604248,-2.1975553671466272
1708434896.8729353,-2.14192271232605,-1.3337190610221406,-2.5269387404071253,6.11120759227828,1.0178468227386475,-2.1975930372821253
1708434896.8748817,-2.141902446746826,-1.333682433967926,-2.526959482823507,6.111155140190878,1.0177899599075317,-2.1976125876056116
1708434896.8769546,-2.1418983936309814,-1.3337071549943467,-2.526963774357931,6.111163842469015,1.0178152322769165,-2.1976545492755335
1708434896.8789303,-2.141878128051758,-1.3336952340653916,-2.5269582907306116,6.111168134003439,1.0177944898605347,-2.197576347981588
1708434896.880922,-2.141866683959961,-1.333702878361084,-2.5269137064563196,6.111195552140035,1.0177737474441528,-2.197599236165182
1708434896.882918,-2.1418585777282715,-1.333649219279625,-2.527015988026754,6.111159550934591,1.0178483724594116,-2.1975706259356897
1708434896.8848846,-2.1418983936309814,-1.3336909425309678,-2.526975695286886,6.111171471863546,1.0178316831588745,-2.1975911299334925
1708434896.8869436,-2.1418910026550293,-1.3337105971625824,-2.5269508997546595,6.1111793396766565,1.0177944898605347,-2.197627369557516
1708434896.888923,-2.1418709754943848,-1.3336900782636185,-2.526943031941549,6.111205327301779,1.0177658796310425,-2.1975706259356897
1708434896.8908918,-2.1418285369873047,-1.333690957432129,-2.5269671122180384,6.111138927727499,1.0177702903747559,-2.1976168791400355
1708434896.8929167,-2.14192271232605,-1.3337276440909882,-2.5269225279437464,6.1111923334892175,1.0178242921829224,-2.1975706259356897
1708434896.8948956,-2.141902446746826,-1.3336909723332901,-2.526947323475973,6.11117576339797,1.0178078413009644,-2.1975887457477015
1708434896.8969393,-2.1418867111206055,-1.333666206603386,-2.5269508997546595,6.111131059914388,1.0177626609802246,-2.1976288000689905
1708434896.8989341,-2.141845464706421,-1.3337105822614213,-2.5269551912890833,6.111171352654257,1.0178197622299194,-2.197571579610006
1708434896.9008768,-2.141902446746826,-1.3336867106011887,-2.5269671122180384,6.111118066101827,1.017791509628296,-2.1975796858416956
1708434896.9029136,-2.141878128051758,-1.3337105524590989,-2.5269060770617884,6.111225950508871,1.0177581310272217,-2.197571579610006
1708434896.9048848,-2.1418867111206055,-1.3337481629899521,-2.5268974939929407,6.111098634987631,1.017791509628296,-2.1976078192340296
1708434896.9069166,-2.141845464706421,-1.3337276589921494,-2.5269387404071253,6.11118363121108,1.017783761024475,-2.1976125876056116
1708434896.9088793,-2.141906976699829,-1.3337233078530808,-2.526959482823507,6.11118363121108,1.0177552700042725,-2.1976216475116175
1708434896.9108944,-2.141862392425537,-1.3337233525565644,-2.5269387404071253,6.111126768379965,1.017786979675293,-2.197571579610006
1708434896.9128914,-2.1418540477752686,-1.3336909872344513,-2.5269387404071253,6.111139762192526,1.0177702903747559,-2.1975796858416956
1708434896.914911,-2.1418867111206055,-1.333679051404335,-2.5269387404071253,6.111147630005636,1.0177507400512695,-2.1975539366351526
1708434896.9169252,-2.1418709754943848,-1.3337028932622452,-2.5269060770617884,6.111200916558065,1.0177507400512695,-2.1975839773761194
1708434896.918889,-2.1418709754943848,-1.3337190610221406,-2.5269179979907435,6.111205327301779,1.017791509628296,-2.1975553671466272
1708434896.9208775,-2.141845464706421,-1.3336824041656037,-2.5269551912890833,6.111180054932394,1.0177793502807617,-2.1975629965411585
1708434896.922919,-2.1418709754943848,-1.3336369109204789,-2.526951853428976,6.111171352654257,1.017786979675293,-2.1975629965411585
1708434896.9248967,-2.141914129257202,-1.3337515008500596,-2.5270097891436976,6.111150848656454,1.0177463293075562,-2.197575394307272
1708434896.9269347,-2.1418938636779785,-1.3337438118508835,-2.526971403752462,6.111217129021444,1.017767071723938,-2.1975463072406214
1708434896.9289129,-2.1418867111206055,-1.3337319505265732,-2.526943031941549,6.111147630005636,1.0176923274993896,-2.1975372473346155
1708434896.9308925,-2.1418585777282715,-1.333686650996544,-2.5269551912890833,6.111181127816,1.0177626609802246,-2.1975887457477015
1708434896.9329033,-2.1418938636779785,-1.3337438714555283,-2.5269137064563196,6.111130225449362,1.0177793502807617,-2.1975954214679163
1708434896.934902,-2.1418755054473877,-1.3336539727500458,-2.526910368596212,6.111188876419821,1.0177748203277588,-2.1975329558001917
1708434896.936907,-2.141918420791626,-1.3337309968522568,-2.527017418538229,6.111201035767355,1.017771601676941,-2.1975510756122034
1708434896.938906,-2.141857862472534,-1.3337071549943467,-2.526919190083639,6.111216056137838,1.0177372694015503,-2.1975706259356897
1708434896.9408832,-2.1418709754943848,-1.3336866807988663,-2.526923481618063,6.111217248230734,1.0177927017211914,-2.1975629965411585
1708434896.9429154,-2.141906976699829,-1.333690957432129,-2.5269222895251673,6.111205327301779,1.0177552700042725,-2.1976078192340296
1708434896.9448867,-2.1418867111206055,-1.333661900167801,-2.526910368596212,6.111138927727499,1.0177463293075562,-2.1975820700274866
1708434896.9469416,-2.1418850421905518,-1.3337029081634064,-2.526914898549215,6.111205327301779,1.0177463293075562,-2.1975463072406214
1708434896.9489148,-2.1418540477752686,-1.3337071549943467,-2.5269387404071253,6.11118363121108,1.017788290977478,-2.1975911299334925
1708434896.950907,-2.141927480697632,-1.3337438714555283,-2.52692681947817,6.111205327301779,1.0177581310272217,-2.1975887457477015
1708434896.9529345,-2.141849994659424,-1.333702878361084,-2.526975695286886,6.111208545952596,1.017767071723938,-2.1975553671466272
1708434896.9548926,-2.1418867111206055,-1.333657668238022,-2.526919190083639,6.111217129021444,1.0177626609802246,-2.1975839773761194
1708434896.9569056,-2.1418983936309814,-1.3337157380631943,-2.526968304310934,6.111184346466818,1.0177340507507324,-2.197576347981588
1708434896.9589055,-2.1418213844299316,-1.3337267947248002,-2.5269137064563196,6.111196625023641,1.0177417993545532,-2.1976125876056116
1708434896.9608884,-2.1418824195861816,-1.333723397260048,-2.526931111012594,6.111196625023641,1.0177626609802246,-2.1976497809039515
1708434896.9629095,-2.141849994659424,-1.3336790365031739,-2.526914660130636,6.11117576339797,1.0177805423736572,-2.1975629965411585
1708434896.9649003,-2.141845464706421,-1.3336909723332901,-2.5269508997546595,6.111205327301779,1.017771601676941,-2.197575394307272
1708434896.9669542,-2.1418709754943848,-1.333682433967926,-2.526931111012594,6.111188757210531,1.0177340507507324,-2.1976125876056116
1708434896.96891,-2.1419098377227783,-1.333702878361084,-2.5269060770617884,6.111196625023641,1.0177640914916992,-2.1975672880755823
1708434896.9708848,-2.1418867111206055,-1.3336824190667649,-2.5269060770617884,6.111147630005636,1.0177581310272217,-2.1975930372821253
1708434896.9729223,-2.141845464706421,-1.3336952489665528,-2.526931111012594,6.111147630005636,1.0177463293075562,-2.1975553671466272
1708434896.9748912,-2.141866683959961,-1.3337028634599228,-2.5269060770617884,6.111078369408407,1.017767071723938,-2.1975911299334925
1708434896.976908,-2.1418755054473877,-1.333707184796669,-2.526975695286886,6.111156332283773,1.017717719078064,-2.1975954214679163
1708434896.9789314,-2.1418709754943848,-1.3337352585843583,-2.526923481618063,6.111139762192526,1.0177626609802246,-2.1975420157061976
1708434896.9809568,-2.141866683959961,-1.333625928764679,-2.526910368596212,6.1111793396766565,1.0177429914474487,-2.1975796858416956
1708434896.9829578,-2.1418709754943848,-1.3336781573346634,-2.526963774357931,6.111163842469015,1.017783761024475,-2.1975911299334925
1708434896.9848983,-2.141914129257202,-1.3336952489665528,-2.526959482823507,6.11118363121108,1.0177507400512695,-2.1975629965411585
1708434896.986942,-2.141857862472534,-1.3336867106011887,-2.526959482823507,6.11117576339797,1.017783761024475,-2.1975954214679163
1708434896.9890018,-2.1419265270233154,-1.3337029081634064,-2.526984516774313,6.111135351448812,1.0177626609802246,-2.1976168791400355
1708434896.9909582,-2.1418800354003906,-1.333702878361084,-2.526931111012594,6.111217248230734,1.0177463293075562,-2.1975463072406214
1708434896.9929636,-2.141878128051758,-1.333714799290039,-2.5269222895251673,6.111168134003439,1.0177760124206543,-2.1975510756122034
1708434896.994911,-2.141902446746826,-1.3336790365031739,-2.5268974939929407,6.111184346466818,1.0177552700042725,-2.1975911299334925
1708434896.9969378,-2.1418709754943848,-1.3337113869241257,-2.526968304310934,6.111156332283773,1.0177626609802246,-2.1975839773761194
1708434896.9989347,-2.1418895721435547,-1.333702878361084,-2.5269017855273646,6.111172544747152,1.0178004503250122,-2.1976168791400355
1708434897.0009236,-2.141902446746826,-1.3336866957000275,-2.5269725958453577,6.111172544747152,1.0177340507507324,-2.1975420157061976
1708434897.0029433,-2.1418938636779785,-1.3336549562266846,-2.526992384587423,6.111188757210531,1.017722249031067,-2.1976125876056116
1708434897.004907,-2.1418824195861816,-1.333711416726448,-2.526975695286886,6.111130225449362,1.017722249031067,-2.197559658681051
1708434897.0069475,-2.1419026851654053,-1.3337028932622452,-2.526914660130636,6.111127841263571,1.0177385807037354,-2.1975796858416956
1708434897.0089295,-2.141857862472534,-1.3336704534343262,-2.52692681947817,6.111163842469015,1.017783761024475,-2.1975629965411585
1708434897.010891,-2.141873598098755,-1.3337558072856446,-2.526963774357931,6.111122357636251,1.0177463293075562,-2.1976378599749964
1708434897.0129158,-2.1418938636779785,-1.3337190610221406,-2.5269060770617884,6.111131059914388,1.017717719078064,-2.1975672880755823
1708434897.0148897,-2.1418709754943848,-1.3336746853641053,-2.5269060770617884,6.111155140190878,1.0177251100540161,-2.1975672880755823
1708434897.0169215,-2.1418778896331787,-1.3336747896722336,-2.526914660130636,6.1111923334892175,1.0177640914916992,-2.1976125876056116
1708434897.0189266,-2.141845464706421,-1.3336301457932969,-2.526943031941549,6.111176836281576,1.0177251100540161,-2.1975839773761194
1708434897.0209103,-2.1418910026550293,-1.3336866957000275,-2.526947323475973,6.111163842469015,1.017771601676941,-2.197571579610006
1708434897.0229156,-2.1418850421905518,-1.3337158125690003,-2.52692681947817,6.111147630005636,1.0177552700042725,-2.1975911299334925
1708434897.0248947,-2.141902446746826,-1.3337233525565644,-2.5269179979907435,6.111155140190878,1.0177793502807617,-2.1976001898394983
1708434897.026942,-2.1419053077697754,-1.3336704981378098,-2.526975695286886,6.111131059914388,1.0177507400512695,-2.1975253264056605
1708434897.02889,-2.141902446746826,-1.3336985868266602,-2.526935640965597,6.111131059914388,1.0177417993545532,-2.197609249745504
1708434897.0308769,-2.141914129257202,-1.3336705279401322,-2.526935640965597,6.111163842469015,1.0177385807037354,-2.1975954214679163
1708434897.0329006,-2.1418938636779785,-1.3336824190667649,-2.526951853428976,6.111147630005636,1.0177133083343506,-2.1976001898394983
1708434897.0349278,-2.1419308185577393,-1.3337438714555283,-2.526984516774313,6.111131059914388,1.0177463293075562,-2.1975582281695765
1708434897.0369258,-2.1418755054473877,-1.3337191504291077,-2.526914660130636,6.111176836281576,1.0177087783813477,-2.1975954214679163
1708434897.0388992,-2.1419310569763184,-1.3337276440909882,-2.5269225279437464,6.11115192154006,1.0177507400512695,-2.1975868383990687
1708434897.0409136,-2.1418709754943848,-1.333719090824463,-2.526959482823507,6.111181247025289,1.0177087783813477,-2.1975911299334925
1708434897.0429358,-2.1418824195861816,-1.3337233078530808,-2.52692681947817,6.11115192154006,1.0177340507507324,-2.1975796858416956
1708434897.0449193,-2.1418778896331787,-1.3336866957000275,-2.526951853428976,6.111106145172872,1.017771601676941,-2.197604481373922
1708434897.0469122,-2.1418867111206055,-1.3337114465287705,-2.526951853428976,6.111147630005636,1.0177507400512695,-2.1976125876056116
1708434897.04889,-2.1419219970703125,-1.3337028932622452,-2.526910368596212,6.111118066101827,1.017771601676941,-2.1975796858416956
1708434897.0508814,-2.1418867111206055,-1.3336866957000275,-2.526971403752462,6.111160623818197,1.0177385807037354,-2.1975911299334925
1708434897.052893,-2.141845464706421,-1.3336909425309678,-2.526919190083639,6.111156332283773,1.0177385807037354,-2.1976125876056116
1708434897.0548878,-2.141906976699829,-1.3337233078530808,-2.526935640965597,6.11115192154006,1.0177552700042725,-2.1975954214679163
1708434897.0569258,-2.141906976699829,-1.333714799290039,-2.526943031941549,6.111131059914388,1.0176894664764404,-2.1975629965411585
1708434897.058885,-2.1418752670288086,-1.3337114614299317,-2.526947323475973,6.1111440537269495,1.0177463293075562,-2.1975343863116663
1708434897.060881,-2.141902446746826,-1.3337148290923615,-2.526951853428976,6.111123549729147,1.017771601676941,-2.1975954214679163
1708434897.0628912,-2.1418867111206055,-1.3337148141912003,-2.526931111012594,6.111168134003439,1.017771601676941,-2.1976288000689905
1708434897.0649266,-2.141862392425537,-1.3337558221868058,-2.52692681947817,6.111164915352621,1.017783761024475,-2.197575394307272
1708434897.0668736,-2.141866683959961,-1.3337191057256241,-2.526919190083639,6.111139762192526,1.0177385807037354,-2.1975343863116663
1708434897.0689094,-2.141849994659424,-1.333637849693634,-2.526963774357931,6.111131059914388,1.017783761024475,-2.1975796858416956
1708434897.0709186,-2.141862392425537,-1.3336704981378098,-2.526931111012594,6.1111148474510095,1.0177340507507324,-2.1975553671466272
1708434897.0729282,-2.141857862472534,-1.3337038171342392,-2.526914660130636,6.11108278015212,1.017788290977478,-2.197571579610006
1708434897.0749056,-2.1418893337249756,-1.3336867106011887,-2.5269344488727015,6.111131059914388,1.017722249031067,-2.197564427052633
1708434897.0769086,-2.1418938636779785,-1.3337028932622452,-2.526943031941549,6.1111440537269495,1.0177042484283447,-2.1975553671466272
1708434897.0788968,-2.141873598098755,-1.3336866957000275,-2.526914660130636,6.111127841263571,1.0177491903305054,-2.1975224653827112
1708434897.0809166,-2.141902446746826,-1.3336823743632813,-2.5269060770617884,6.111132132797994,1.0177340507507324,-2.197568718587057
1708434897.082903,-2.1419310569763184,-1.3336781573346634,-2.5269137064563196,6.111095654755392,1.017771601676941,-2.197559658681051
1708434897.084872,-2.141927480697632,-1.3336876344731827,-2.526947323475973,6.111126768379965,1.017701268196106,-2.1975510756122034
1708434897.0869162,-2.1418938636779785,-1.3337514412454148,-2.526923481618063,6.111167061119833,1.0177340507507324,-2.1975224653827112
1708434897.0889149,-2.1418778896331787,-1.3337071400931855,-2.5268972555743616,6.111123549729147,1.0177760124206543,-2.1975887457477015
1708434897.0909266,-2.1418867111206055,-1.3337114614299317,-2.526931111012594,6.1111029265220544,1.017729640007019,-2.1975181738482874
1708434897.0929072,-2.1418867111206055,-1.3336823743632813,-2.5269017855273646,6.111148345261373,1.0177340507507324,-2.1975343863116663
1708434897.0948706,-2.1418752670288086,-1.3336705279401322,-2.526947323475973,6.111201393395223,1.017771601676941,-2.1975978056537073
1708434897.0968955,-2.1418800354003906,-1.3337113869241257,-2.526968304310934,6.111136662750997,1.0177372694015503,-2.1975224653827112
1708434897.0989177,-2.1418983936309814,-1.3337190610221406,-2.5269551912890833,6.111126768379965,1.0177251100540161,-2.1975272337542933
1708434897.1008763,-2.141862392425537,-1.3336781573346634,-2.5269060770617884,6.111135351448812,1.017717719078064,-2.197531525288717
1708434897.1029398,-2.1418983936309814,-1.3337404888919373,-2.526910368596212,6.111127841263571,1.017729640007019,-2.1975272337542933
1708434897.104901,-2.1418893337249756,-1.3337276440909882,-2.5269225279437464,6.111111628800192,1.017771601676941,-2.197481934224264
1708434897.1069312,-2.1418371200561523,-1.3337556582740326,-2.526947323475973,6.111127841263571,1.0177927017211914,-2.1975072065936487
1708434897.1088958,-2.1418910026550293,-1.3336661768010636,-2.52692681947817,6.11108015754775,1.0177596807479858,-2.1975114981280726
1708434897.1109257,-2.1418867111206055,-1.3337200295976182,-2.526951853428976,6.11112009265975,1.0177626609802246,-2.1975272337542933
1708434897.1129117,-2.141849994659424,-1.3338124018958588,-2.526943031941549,6.111136424332418,1.0177552700042725,-2.197477165852682
1708434897.1148872,-2.1418938636779785,-1.3336696189692994,-2.5269933382617396,6.111139762192526,1.017729640007019,-2.197502915059225
1708434897.116879,-2.141911506652832,-1.3337190610221406,-2.52692681947817,6.111136424332418,1.0177748203277588,-2.1975272337542933
1708434897.1189141,-2.1418540477752686,-1.3337352287820359,-2.526947323475973,6.111087667732992,1.0177385807037354,-2.1974952856646937
1708434897.1208823,-2.141902446746826,-1.3336866957000275,-2.526959482823507,6.111066686898031,1.0177507400512695,-2.197481934224264
1708434897.1228912,-2.1418542861938477,-1.3336704981378098,-2.526947323475973,6.111022460251608,1.0177760124206543,-2.1974952856646937
1708434897.1248775,-2.141939640045166,-1.3336540025523682,-2.526947323475973,6.111108767777242,1.017771601676941,-2.1974790732013147
1708434897.1268847,-2.1418585777282715,-1.3336866957000275,-2.526931111012594,6.111104953079977,1.0177013874053955,-2.1974952856646937
1708434897.1289039,-2.1418213844299316,-1.333714799290039,-2.52692681947817,6.111023533135214,1.0177251100540161,-2.1974671522723597
1708434897.130883,-2.1418709754943848,-1.3336986166289826,-2.526935640965597,6.1110068438346765,1.017771601676941,-2.1974876562701624
1708434897.1329215,-2.141878128051758,-1.3337029081634064,-2.5269179979907435,6.111065017967977,1.017729640007019,-2.1975253264056605
1708434897.134883,-2.141849994659424,-1.3336866807988663,-2.5269387404071253,6.111041176110067,1.0177552700042725,-2.1974504629718226
1708434897.1369045,-2.1418709754943848,-1.333698646431305,-2.526935640965597,6.111029016762533,1.0177417993545532,-2.1974876562701624
1708434897.1388876,-2.1418910026550293,-1.3337191057256241,-2.5269387404071253,6.110999810486593,1.0177463293075562,-2.197447125111715
1708434897.1408873,-2.1418328285217285,-1.3337233376554032,-2.526914660130636,6.1110256789024255,1.017771601676941,-2.1974685827838343
1708434897.1428747,-2.1418540477752686,-1.3337352585843583,-2.526919190083639,6.111004102021017,1.0177748203277588,-2.197439495717184
1708434897.144881,-2.1418542861938477,-1.3337232929519196,-2.526971403752462,6.1109845516975305,1.0177626609802246,-2.197423283253805
1708434897.1469133,-2.1419098377227783,-1.3336866957000275,-2.526881996785299,6.110959756165304,1.0177385807037354,-2.197390381489889
1708434897.1489186,-2.141927480697632,-1.3337157678655167,-2.526935640965597,6.1109434244926355,1.017783761024475,-2.197427574788229
1708434897.1508648,-2.1418540477752686,-1.3336866957000275,-2.52692681947817,6.11100064495162,1.017722249031067,-2.197432343159811
1708434897.1528904,-2.1418330669403076,-1.333711416726448,-2.5269060770617884,6.111030089646139,1.017767071723938,-2.1973870436297815
1708434897.1548872,-2.1418824195861816,-1.3337275695851822,-2.526980225239889,6.1109845516975305,1.0177552700042725,-2.19741136232485
1708434897.1568754,-2.1418540477752686,-1.3336986017278214,-2.5269060770617884,6.110991823464193,1.0177581310272217,-2.197390381489889
1708434897.1589303,-2.1419026851654053,-1.3337148141912003,-2.5269060770617884,6.110993253975668,1.017783761024475,-2.197371308003561
1708434897.1609058,-2.141845464706421,-1.333702878361084,-2.526968304310934,6.110968339234152,1.017771601676941,-2.1974085013019007
1708434897.1628795,-2.141845464706421,-1.3337191206267853,-2.526947323475973,6.110915052681722,1.017729640007019,-2.197362248097555
1708434897.1649597,-2.1418778896331787,-1.333653987651207,-2.526935640965597,6.110964047699728,1.0177417993545532,-2.1974085013019007
1708434897.1668966,-2.1418867111206055,-1.3336952340653916,-2.526980225239889,6.1109845516975305,1.0177340507507324,-2.1973632017718714
1708434897.1689234,-2.1418957710266113,-1.3337071400931855,-2.5268898645984095,6.111004817276754,1.0177552700042725,-2.197367493306295
1708434897.1708891,-2.1418585777282715,-1.3336790216020127,-2.526931111012594,6.111009108811178,1.0177340507507324,-2.19735557237734
1708434897.1728764,-2.1418709754943848,-1.3337514412454148,-2.526947323475973,6.110968220024862,1.0177793502807617,-2.1973350683795374
1708434897.1749008,-2.1418585777282715,-1.333702878361084,-2.526931111012594,6.1109845516975305,1.0177385807037354,-2.1973798910724085
1708434897.176875,-2.1418867111206055,-1.3337071400931855,-2.5269561449633997,6.110952126770773,1.0178004503250122,-2.1973632017718714
1708434897.1789093,-2.1418256759643555,-1.333633453851082,-2.526975695286886,6.110927927284994,1.017767071723938,-2.1973393599139612
1708434897.1808827,-2.141845464706421,-1.3336909723332901,-2.526919190083639,6.110948550492086,1.0177552700042725,-2.19735557237734
1708434897.1829307,-2.1418328285217285,-1.3336619299701233,-2.526947323475973,6.111001956253805,1.0177626609802246,-2.1973303000079554
1708434897.1849115,-2.1418585777282715,-1.3336995852044602,-2.526971403752462,6.110993134766378,1.017771601676941,-2.197306458150045
1708434897.186872,-2.1418347358703613,-1.3336421263268967,-2.526947323475973,6.110944139748373,1.0176968574523926,-2.197289768849508
1708434897.1889231,-2.1418709754943848,-1.3336582344821473,-2.526951853428976,6.110948550492086,1.0177385807037354,-2.1973393599139612
1708434897.190883,-2.1418631076812744,-1.3336824190667649,-2.5269551912890833,6.110948550492086,1.0177761316299438,-2.197294060383932
1708434897.1928775,-2.1418044567108154,-1.3336620193770905,-2.526939932500021,6.11095284202651,1.0177552700042725,-2.197294060383932
1708434897.194885,-2.1418213844299316,-1.333690957432129,-2.526963774357931,6.110981333046713,1.0177385807037354,-2.197282139454977
1708434897.196874,-2.141902446746826,-1.3336900782636185,-2.5269508997546595,6.110927927284994,1.0177417993545532,-2.197303120289938
1708434897.1989558,-2.141857862472534,-1.3336986166289826,-2.526939932500021,6.110969412117758,1.017788290977478,-2.1973164717303675
1708434897.2009232,-2.1418957710266113,-1.3337071400931855,-2.526919190083639,6.110932218819418,1.017783761024475,-2.197277847920553
1708434897.202919,-2.141849994659424,-1.3337190610221406,-2.526943031941549,6.1109574911888025,1.0178049802780151,-2.1973121801959437
1708434897.204899,-2.1418497562408447,-1.3337071400931855,-2.5269299189196985,6.110850202828207,1.0177626609802246,-2.197303120289938
1708434897.2069397,-2.1418755054473877,-1.333702878361084,-2.526923481618063,6.110933410912313,1.0177507400512695,-2.197244469319479
1708434897.2089186,-2.1418755054473877,-1.33369433999572,-2.526980225239889,6.1109081385429285,1.0177057981491089,-2.1972911993609827
1708434897.2109532,-2.1418585777282715,-1.3336952489665528,-2.5269551912890833,6.110880124359884,1.017767071723938,-2.1972926298724573
1708434897.212977,-2.1418676376342773,-1.3336619150689621,-2.526914898549215,6.1109081385429285,1.0177748203277588,-2.197286907826559
1708434897.2149024,-2.1418843269348145,-1.3336704981378098,-2.526910368596212,6.11089192607955,1.017767071723938,-2.197271172200338
1708434897.2169185,-2.141906976699829,-1.333690957432129,-2.5269225279437464,6.110945331841268,1.0177552700042725,-2.197274986897604
1708434897.218887,-2.141866683959961,-1.3337157529643555,-2.526963774357931,6.110904919892111,1.0177340507507324,-2.1972954908954065
1708434897.2208862,-2.1418211460113525,-1.3336952489665528,-2.5269387404071253,6.110965955048361,1.0177463293075562,-2.1972554365741175
1708434897.222888,-2.1418328285217285,-1.333653987651207,-2.526931111012594,6.110937702446737,1.017788290977478,-2.1972644964801233
1708434897.224888,-2.1418676376342773,-1.3337105524590989,-2.526931111012594,6.110839593201437,1.0177552700042725,-2.1972339789019983
1708434897.2268834,-2.141846179962158,-1.3336909425309678,-2.526996676121847,6.110872614174642,1.0177251100540161,-2.1972387472735804
1708434897.2288938,-2.1418416500091553,-1.3336952191642304,-2.526971403752462,6.110871302872457,1.0177385807037354,-2.19725209871401
1708434897.2308974,-2.1418392658233643,-1.3337071400931855,-2.526947323475973,6.110892879753866,1.0177581310272217,-2.1972644964801233
1708434897.2328708,-2.1418302059173584,-1.333711416726448,-2.526919190083639,6.110847580223837,1.0177385807037354,-2.197231117879049
1708434897.2348738,-2.1418631076812744,-1.333653987651207,-2.526914660130636,6.110881435662069,1.0177507400512695,-2.1972597281085413
1708434897.2369146,-2.1418585777282715,-1.333650679593422,-2.5268734137164515,6.110901582032003,1.0177385807037354,-2.1971891562091272
1708434897.238884,-2.141846179962158,-1.3336790365031739,-2.526935402547018,6.110824572830953,1.0177385807037354,-2.197231117879049
1708434897.2408686,-2.141850709915161,-1.3336576980403443,-2.526947323475973,6.110844242363729,1.017729640007019,-2.197280232106344
1708434897.2429113,-2.1418302059173584,-1.3337071400931855,-2.526963774357931,6.110885727196493,1.0177385807037354,-2.197235409413473
1708434897.2448852,-2.1418631076812744,-1.3336996299079438,-2.526951853428976,6.110872852593221,1.0177463293075562,-2.1972058455096644
1708434897.2468684,-2.1418089866638184,-1.3336986166289826,-2.526919190083639,6.1108529446418665,1.017722249031067,-2.197243038808004
1708434897.2488768,-2.141866683959961,-1.3336747747710724,-2.526914660130636,6.110877859383383,1.0177507400512695,-2.19725209871401
1708434897.2508934,-2.1418416500091553,-1.3336834025434037,-2.526910368596212,6.110819446831503,1.0177463293075562,-2.197219196950094
1708434897.252936,-2.1418585777282715,-1.3336986166289826,-2.526943031941549,6.110820519715109,1.0177748203277588,-2.197210137044088
1708434897.2548938,-2.1418755054473877,-1.3337029081634064,-2.5269137064563196,6.1108038304145715,1.017771601676941,-2.1972268263446253
1708434897.2568827,-2.1418135166168213,-1.3336661768010636,-2.5269551912890833,6.110861527710714,1.017729640007019,-2.197219196950094
1708434897.258892,-2.1418631076812744,-1.3336995554021378,-2.526984516774313,6.110820519715109,1.0177552700042725,-2.197235409413473
1708434897.2608967,-2.141843557357788,-1.3336790365031739,-2.526943031941549,6.110922920494833,1.017788290977478,-2.197244469319479
1708434897.2629175,-2.141850709915161,-1.333723397260048,-2.526963774357931,6.110914695053854,1.0177552700042725,-2.197268788014547
1708434897.2648757,-2.1418676376342773,-1.3336539727500458,-2.526907269154684,6.1108648655708215,1.017767071723938,-2.197202507649557
1708434897.2669084,-2.141843557357788,-1.3336420071176072,-2.526947323475973,6.1108248112495325,1.017792820930481,-2.1972282568561
1708434897.268882,-2.141850709915161,-1.3337191057256241,-2.5269179979907435,6.110890018730917,1.017767071723938,-2.19725209871401
1708434897.2708821,-2.1418371200561523,-1.3336952042630692,-2.526935640965597,6.11085723617629,1.0177507400512695,-2.19721490541567
1708434897.2729328,-2.141871929168701,-1.3336335581592103,-2.5269277731524866,6.11091028431014,1.0177552700042725,-2.1972339789019983
1708434897.274877,-2.141850709915161,-1.3336996001056214,-2.526919190083639,6.110800730973043,1.0177507400512695,-2.197235409413473
1708434897.2769008,-2.1418135166168213,-1.3336704683354874,-2.5269017855273646,6.110787737160482,1.0177642107009888,-2.197193447743551
1708434897.2789094,-2.1418302059173584,-1.3336539429477234,-2.5269387404071253,6.110779630928793,1.0177417993545532,-2.197256390248434
1708434897.2809043,-2.141897678375244,-1.3337191206267853,-2.52690297762026,6.110829102783956,1.0177507400512695,-2.197235409413473
1708434897.282903,-2.141822338104248,-1.3336996001056214,-2.52690297762026,6.110845315247335,1.0177552700042725,-2.1971891562091272
1708434897.2848883,-2.1418392658233643,-1.3336662364057084,-2.526919190083639,6.1108378050620935,1.0177596807479858,-2.197210137044088
1708434897.2868884,-2.141846179962158,-1.3336497259191056,-2.526935640965597,6.11083351352767,1.017767071723938,-2.1971686522113245
1708434897.2889118,-2.1418416500091553,-1.333637685780861,-2.526935640965597,6.1108248112495325,1.0177626609802246,-2.1972387472735804
1708434897.290916,-2.1418676376342773,-1.3337071996978302,-2.526996676121847,6.110849725991049,1.017717719078064,-2.1972597281085413
1708434897.2929144,-2.1418631076812744,-1.3336790365031739,-2.526935640965597,6.110832440644064,1.017722249031067,-2.197210137044088
1708434897.2948978,-2.1418416500091553,-1.33366251111541,-2.526898447667257,6.110848653107443,1.017783761024475,-2.197202507649557
1708434897.2969065,-2.141850709915161,-1.333690957432129,-2.5269017855273646,6.110792028694906,1.0177536010742188,-2.1972325483905237
1708434897.2989137,-2.141846179962158,-1.333690957432129,-2.526914660130636,6.110808241158285,1.0177385807037354,-2.1972282568561
1708434897.3008916,-2.1418256759643555,-1.3336462837508698,-2.52690297762026,6.110805022507467,1.017767071723938,-2.19721490541567
1708434897.3029528,-2.1418392658233643,-1.333653987651207,-2.5269060770617884,6.1108659384544275,1.017788290977478,-2.19728929201235
1708434897.3048933,-2.141826868057251,-1.3336463284543534,-2.5269017855273646,6.1108367321784876,1.0177793502807617,-2.197235409413473
1708434897.3068993,-2.1418302059173584,-1.3336876642755051,-2.526963774357931,6.110816943436422,1.0177626609802246,-2.197231117879049
1708434897.3089104,-2.1418392658233643,-1.3337319505265732,-2.526951853428976,6.1108367321784876,1.0177429914474487,-2.197219196950094
1708434897.3108866,-2.1418302059173584,-1.3336876642755051,-2.5269225279437464,6.110849725991049,1.0177417993545532,-2.197247330342428
1708434897.3129332,-2.1417808532714844,-1.333690957432129,-2.526935640965597,6.110890018730917,1.0177552700042725,-2.197273079548971
1708434897.314912,-2.141871929168701,-1.333649681215622,-2.527000967656271,6.110882270127096,1.0177552700042725,-2.197240177785055
1708434897.3169265,-2.141843557357788,-1.3336215329221268,-2.526931111012594,6.110861527710714,1.0177507400512695,-2.197193447743551
1708434897.3189285,-2.1418135166168213,-1.333653987651207,-2.526907269154684,6.11085735538558,1.0177251100540161,-2.197202507649557
1708434897.3208945,-2.1418347358703613,-1.3336996150067826,-2.526951853428976,6.110911714821615,1.0177340507507324,-2.197247330342428
1708434897.322929,-2.1418676376342773,-1.333642066722252,-2.5268994013415735,6.110787617951193,1.017767071723938,-2.197197739277975
1708434897.3249056,-2.1418638229370117,-1.3336833876422425,-2.526910368596212,6.110845315247335,1.0177507400512695,-2.197256390248434
1708434897.3269064,-2.141817808151245,-1.3336704981378098,-2.526951853428976,6.1108248112495325,1.0177626609802246,-2.1972058455096644
1708434897.3289182,-2.1418302059173584,-1.3336463582566758,-2.526951853428976,6.1108248112495325,1.0177552700042725,-2.197280232106344
1708434897.3308916,-2.141852378845215,-1.3336704981378098,-2.526939932500021,6.110849725991049,1.0177793502807617,-2.19721490541567
1708434897.332905,-2.141796588897705,-1.333690957432129,-2.526923481618063,6.110845315247335,1.017722249031067,-2.197240177785055
1708434897.3348932,-2.141826868057251,-1.3337038469365616,-2.526931111012594,6.11089442947463,1.0177340507507324,-2.197197739277975
1708434897.3369195,-2.141859531402588,-1.333621622329094,-2.5269561449633997,6.110898721009054,1.017771601676941,-2.197240177785055
1708434897.338913,-2.1418099403381348,-1.3336952191642304,-2.526910368596212,6.110870349198141,1.017767071723938,-2.19721490541567
1708434897.3409135,-2.141846179962158,-1.33367474496875,-2.5268898645984095,6.1108659384544275,1.0177417993545532,-2.1972325483905237
1708434897.3429117,-2.141843557357788,-1.3337190610221406,-2.526939932500021,6.1108529446418665,1.0177642107009888,-2.197186295186178
1708434897.3449283,-2.1418638229370117,-1.3336996150067826,-2.526943031941549,6.1108367321784876,1.0177748203277588,-2.1972067991839808
1708434897.3469276,-2.141793966293335,-1.3336582493833085,-2.5269604364978235,6.110845315247335,1.0177552700042725,-2.1972158590899866
1708434897.348923,-2.141859531402588,-1.333670513038971,-2.526935402547018,6.110787617951193,1.0177385807037354,-2.197202507649557
1708434897.3509097,-2.141822338104248,-1.3336747747710724,-2.526914898549215,6.1108378050620935,1.0177385807037354,-2.197219196950094
1708434897.3529174,-2.1418135166168213,-1.3336258840611954,-2.526968304310934,6.1108248112495325,1.0177626609802246,-2.197243038808004
1708434897.354901,-2.141843557357788,-1.3336506944945832,-2.526914898549215,6.110845315247335,1.017729640007019,-2.1972268263446253
1708434897.356893,-2.1418099403381348,-1.3336833876422425,-2.526951615010397,6.110848653107443,1.0177340507507324,-2.197186295186178
1708434897.3589134,-2.141822338104248,-1.3336866957000275,-2.526907269154684,6.110829102783956,1.017717719078064,-2.197231117879049
1708434897.3609102,-2.141805410385132,-1.3337157678655167,-2.5268941561328333,6.110832440644064,1.017729640007019,-2.1972268263446253
1708434897.3628933,-2.1418392658233643,-1.333711416726448,-2.5269725958453577,6.110869157105245,1.0177507400512695,-2.19725209871401
1708434897.3649225,-2.141817808151245,-1.3336549562266846,-2.526914898549215,6.11082552650527,1.0178049802780151,-2.1972597281085413
1708434897.3669417,-2.141817808151245,-1.3336866957000275,-2.526935402547018,6.1108659384544275,1.0177463293075562,-2.197186295186178
1708434897.3688948,-2.1418676376342773,-1.3336668771556397,-2.5269604364978235,6.110820519715109,1.0177385807037354,-2.197247330342428
1708434897.370888,-2.141850709915161,-1.3336747747710724,-2.526931111012594,6.1108367321784876,1.0177507400512695,-2.1972268263446253
1708434897.3729255,-2.1417737007141113,-1.3337038469365616,-2.526910368596212,6.1108378050620935,1.0177491903305054,-2.19721490541567
1708434897.3749294,-2.1418638229370117,-1.333662526016571,-2.526907269154684,6.110812532692709,1.017701268196106,-2.19725209871401
1708434897.3769262,-2.141805410385132,-1.3336506944945832,-2.526951853428976,6.110854017525472,1.0177475214004517,-2.19725209871401
1708434897.378898,-2.1418302059173584,-1.3337200295976182,-2.5269463698016565,6.110841023712911,1.0177429914474487,-2.197223488484518
1708434897.3808942,-2.141843557357788,-1.3336662364057084,-2.526939932500021,6.1108248112495325,1.017771601676941,-2.197210137044088
1708434897.3829107,-2.141855001449585,-1.3336549562266846,-2.526939932500021,6.110808241158285,1.0177059173583984,-2.197235409413473
1708434897.3849177,-2.1418302059173584,-1.333702878361084,-2.5269725958453577,6.110858428269186,1.0177340507507324,-2.197231117879049
1708434897.3869188,-2.141850709915161,-1.3336301457932969,-2.526914660130636,6.1108648655708215,1.017722249031067,-2.197219196950094
1708434897.3888881,-2.141796588897705,-1.3336668622544785,-2.526935640965597,6.1108659384544275,1.017729640007019,-2.197197739277975
1708434897.3908827,-2.141782522201538,-1.3336919260076066,-2.52690297762026,6.110869157105245,1.017771601676941,-2.197235409413473
1708434897.392906,-2.141855001449585,-1.333711416726448,-2.526910368596212,6.110845315247335,1.0177552700042725,-2.197256390248434
1708434897.394883,-2.1418347358703613,-1.333653987651207,-2.526870075856344,6.110816943436422,1.0177596807479858,-2.197202507649557
1708434897.3969257,-2.1418347358703613,-1.3337395203164597,-2.52690297762026,6.110784518509664,1.0177266597747803,-2.197182003651754
1708434897.398899,-2.141792058944702,-1.333662526016571,-2.5269280115710657,6.110808241158285,1.0177251100540161,-2.197240177785055
1708434897.4008741,-2.141871929168701,-1.3336995852044602,-2.526907269154684,6.110829102783956,1.0177552700042725,-2.19721490541567
1708434897.402915,-2.1418302059173584,-1.3336952191642304,-2.526907269154684,6.110845315247335,1.0177295207977295,-2.197231117879049
1708434897.4048927,-2.141822338104248,-1.3336952191642304,-2.526898447667257,6.110808241158285,1.017767071723938,-2.197247330342428
1708434897.406932,-2.141805410385132,-1.3336747747710724,-2.526931111012594,6.110820519715109,1.0177102088928223,-2.1972597281085413
1708434897.408939,-2.141822338104248,-1.3336866957000275,-2.526898447667257,6.1108529446418665,1.017722249031067,-2.1971891562091272
1708434897.4109318,-2.141798496246338,-1.333662526016571,-2.5268951098071497,6.1108367321784876,1.0177385807037354,-2.1971729437457483
1708434897.4129577,-2.1417694091796875,-1.3336986166289826,-2.526939932500021,6.1108378050620935,1.017751932144165,-2.197268788014547
1708434897.4149024,-2.1418347358703613,-1.3337362271598359,-2.526910368596212,6.110849725991049,1.0177013874053955,-2.1972387472735804
1708434897.4169176,-2.1417737007141113,-1.3336747747710724,-2.5268874804126185,6.1108648655708215,1.0177191495895386,-2.197231117879049
1708434897.418924,-2.1418638229370117,-1.3336995852044602,-2.526890579854147,6.110852825432577,1.0177507400512695,-2.1972268263446253
1708434897.4208784,-2.141855001449585,-1.3336747598699112,-2.526914660130636,6.1108367321784876,1.0177340507507324,-2.19728929201235
1708434897.4228938,-2.1417763233184814,-1.333702878361084,-2.5269280115710657,6.110845315247335,1.0177191495895386,-2.1972220579730433
1708434897.424877,-2.141805410385132,-1.3337190610221406,-2.526919190083639,6.110795247345724,1.0176984071731567,-2.1972463766681116
1708434897.4269094,-2.141805410385132,-1.3337038469365616,-2.526890818272726,6.110820400505819,1.017747402191162,-2.197322193776266
1708434897.4288933,-2.141801118850708,-1.3337071400931855,-2.5269277731524866,6.110811698227682,1.0177028179168701,-2.1972668806659144
1708434897.4308994,-2.1418392658233643,-1.3336378049901505,-2.526878897343771,6.110821234970846,1.0176894664764404,-2.1972554365741175
1708434897.4328866,-2.141831159591675,-1.3336919260076066,-2.526919190083639,6.110873448639669,1.0177147388458252,-2.1972668806659144
1708434897.434886,-2.141822338104248,-1.3337071400931855,-2.5269115606891077,6.1108529446418665,1.0176982879638672,-2.1972668806659144
1708434897.4368913,-2.141843557357788,-1.3336711388877411,-2.52686578432192,6.110832440644064,1.0177401304244995,-2.1972339789019983
1708434897.4389172,-2.141805410385132,-1.333711416726448,-2.526919190083639,6.110866057663717,1.017723798751831,-2.1972668806659144
1708434897.4408867,-2.141805410385132,-1.3336995852044602,-2.526890818272726,6.11082802990035,1.0177266597747803,-2.197193447743551
1708434897.4428957,-2.141793966293335,-1.3337319505265732,-2.52685791650881,6.110829102783956,1.0176769495010376,-2.197274986897604
1708434897.4448774,-2.141850709915161,-1.3336668771556397,-2.5268831888781946,6.110829102783956,1.017747402191162,-2.1972792784320276
1708434897.4468927,-2.1418347358703613,-1.3336919260076066,-2.5268994013415735,6.110820519715109,1.0177028179168701,-2.1972463766681116
1708434897.4489985,-2.141846179962158,-1.3336582493833085,-2.526890818272726,6.110914695053854,1.017756462097168,-2.197271172200338
1708434897.450905,-2.1418089866638184,-1.333659217958786,-2.5268502871142786,6.11083351352767,1.0176894664764404,-2.1972578207599085
1708434897.4529324,-2.141817808151245,-1.333653987651207,-2.52690297762026,6.110860454827108,1.0177028179168701,-2.1972911993609827
1708434897.4549541,-2.141785144805908,-1.333642066722252,-2.526878897343771,6.11089442947463,1.0177103281021118,-2.1972954908954065
1708434897.4569137,-2.141822338104248,-1.3336995852044602,-2.52685791650881,6.110873448639669,1.0176939964294434,-2.197274986897604
1708434897.4589238,-2.141822338104248,-1.3336711388877411,-2.5268572012530726,6.110816228180685,1.0177147388458252,-2.197271172200338
1708434897.460897,-2.141850709915161,-1.3336833876422425,-2.526870075856344,6.110872852593221,1.0177282094955444,-2.197274986897604
1708434897.4629185,-2.141850709915161,-1.33369433999572,-2.526907269154684,6.110808241158285,1.017723798751831,-2.1973002592669886
1708434897.4649043,-2.141831159591675,-1.3336952191642304,-2.5268994013415735,6.1108518717582605,1.0177028179168701,-2.1973121801959437
1708434897.4669533,-2.141859531402588,-1.3336995852044602,-2.5269115606891077,6.110803234368124,1.0176939964294434,-2.197282139454977
1708434897.4689348,-2.141798496246338,-1.3336619597724457,-2.52690297762026,6.11085723617629,1.0176948308944702,-2.197286907826559
1708434897.4708817,-2.1418416500091553,-1.3336995852044602,-2.526907269154684,6.110877859383383,1.0177074670791626,-2.197343651448385
1708434897.472948,-2.1418302059173584,-1.3336919260076066,-2.526890818272726,6.11085735538558,1.017711877822876,-2.1973393599139612
1708434897.4748852,-2.141805410385132,-1.3336711388877411,-2.5268994013415735,6.1108648655708215,1.017723798751831,-2.197343651448385
1708434897.4771948,-2.141796588897705,-1.3336625409177323,-2.5269246737109583,6.110873448639669,1.0176904201507568,-2.197306458150045
1708434897.478914,-2.141801118850708,-1.3336506944945832,-2.526928965245382,6.11082802990035,1.0176621675491333,-2.197343651448385
1708434897.4809356,-2.141801118850708,-1.333690957432129,-2.5269115606891077,6.110890018730917,1.0176984071731567,-2.1973755995379847
1708434897.4829276,-2.1418347358703613,-1.333702878361084,-2.5269203821765345,6.110848653107443,1.0176784992218018,-2.19735557237734
1708434897.4849284,-2.141789674758911,-1.3337200295976182,-2.526940886174337,6.110848653107443,1.017648696899414,-2.1974170843707483
1708434897.4869277,-2.1418099403381348,-1.3336790365031739,-2.5269158522235315,6.110844242363729,1.017711877822876,-2.1973093191729944
1708434897.4889317,-2.1418304443359375,-1.3336790365031739,-2.5268951098071497,6.110877024918356,1.0176992416381836,-2.1973722616778772
1708434897.490979,-2.1418256759643555,-1.3336711388877411,-2.5269246737109583,6.110877024918356,1.017636775970459,-2.1973512808429163
1708434897.4929538,-2.141822338104248,-1.333662526016571,-2.526841704045431,6.110779034882345,1.0176948308944702,-2.1973870436297815
1708434897.4949222,-2.1418135166168213,-1.3337038469365616,-2.526890818272726,6.110839950829305,1.0176621675491333,-2.1973913351642054
1708434897.496953,-2.1418089866638184,-1.3336711388877411,-2.526870075856344,6.110902058869161,1.0176665782928467,-2.1974085013019007
1708434897.4989333,-2.141818046569824,-1.3337071400931855,-2.5268667379962366,6.11082802990035,1.0176948308944702,-2.197333637868063
1708434897.500891,-2.1417808532714844,-1.3336301755956192,-2.526886526738302,6.110868561058798,1.0176992416381836,-2.1973827520953577
1708434897.5029316,-2.1418044567108154,-1.3336876642755051,-2.5268223921405237,6.110881435662069,1.0176904201507568,-2.197407070790426
1708434897.5049453,-2.141822338104248,-1.3336790365031739,-2.5268340746508997,6.1108367321784876,1.0176993608474731,-2.1973827520953577
1708434897.506955,-2.141850471496582,-1.3336463284543534,-2.526923481618063,6.110877024918356,1.01767098903656,-2.1974085013019007
1708434897.508938,-2.141803026199341,-1.3336747747710724,-2.526853624974386,6.110884415894308,1.0176948308944702,-2.1973913351642054
1708434897.5109622,-2.1418676376342773,-1.3336747747710724,-2.5269160906421106,6.110848653107443,1.017641305923462,-2.197366539631979
1708434897.5129397,-2.141859292984009,-1.3337071400931855,-2.5268622080432337,6.110925423889913,1.01767098903656,-2.1973755995379847
1708434897.5149195,-2.141855001449585,-1.3336909425309678,-2.526853624974386,6.110844242363729,1.0176784992218018,-2.197369400654928
1708434897.516951,-2.1417853832244873,-1.3336582493833085,-2.52685791650881,6.110856282501974,1.0176740884780884,-2.197395149861471
1708434897.5189877,-2.1418392658233643,-1.3336952191642304,-2.5269082228290003,6.110864150315084,1.017675518989563,-2.1973798910724085
1708434897.52094,-2.141805410385132,-1.3337157529643555,-2.5268951098071497,6.1109211323554895,1.0177037715911865,-2.1973913351642054
1708434897.5229385,-2.141789674758911,-1.3336705279401322,-2.5268874804126185,6.110941993981161,1.0176904201507568,-2.1974247137652796
1708434897.524877,-2.1418135166168213,-1.3336919260076066,-2.5269203821765345,6.110909211426534,1.01765775680542,-2.197371308003561
1708434897.526887,-2.141796588897705,-1.3336463284543534,-2.526825491582052,6.110843169480123,1.0177037715911865,-2.197418991719381
1708434897.5289135,-2.141801118850708,-1.3337157678655167,-2.5269203821765345,6.110888707428732,1.0176458358764648,-2.19741136232485
1708434897.5308843,-2.141796588897705,-1.3336704981378098,-2.526878897343771,6.110879766732015,1.0176458358764648,-2.197357956563131
1708434897.5328755,-2.1418135166168213,-1.333653987651207,-2.5268951098071497,6.110924708634176,1.0176740884780884,-2.197357956563131
1708434897.5348904,-2.1418135166168213,-1.3336790365031739,-2.526878897343771,6.110978829651632,1.0176740884780884,-2.197395149861471
1708434897.5368762,-2.141805410385132,-1.3336866957000275,-2.5269036928759974,6.110870826035299,1.0176904201507568,-2.1974156538592737
1708434897.538884,-2.1418089866638184,-1.3336790365031739,-2.5269036928759974,6.1109890816505334,1.0176621675491333,-2.197427574788229
1708434897.5408819,-2.141796588897705,-1.333690957432129,-2.5268951098071497,6.110932099610128,1.0176172256469727,-2.197407070790426
1708434897.5428843,-2.141792058944702,-1.3336540174535294,-2.526919190083639,6.111008393555441,1.0176904201507568,-2.1974037329303187
1708434897.5448952,-2.1418392658233643,-1.333666906957962,-2.5269203821765345,6.110920417099752,1.0176621675491333,-2.197418991719381
1708434897.5468879,-2.1417763233184814,-1.333662526016571,-2.526886526738302,6.111030804901876,1.0176784992218018,-2.1974528471576136
1708434897.548896,-2.1418099403381348,-1.3336952191642304,-2.526907984410421,6.1109845516975305,1.01765775680542,-2.197444264088766
1708434897.5508995,-2.141805410385132,-1.3337038469365616,-2.526878897343771,6.111026274948873,1.0176665782928467,-2.197399441395895
1708434897.5528939,-2.1418392658233643,-1.333653987651207,-2.5268917719470423,6.111021387368002,1.01765775680542,-2.19741136232485
1708434897.5548832,-2.1418638229370117,-1.333662526016571,-2.526841704045431,6.111012804299154,1.0176458358764648,-2.1974638144122522
1708434897.5568807,-2.141801118850708,-1.3336876642755051,-2.5268753210650843,6.1109962342079065,1.0176458358764648,-2.197472874318258
1708434897.5589187,-2.141822338104248,-1.3336396527341385,-2.526863400136129,6.110939132958212,1.0176992416381836,-2.197451416646139
1708434897.560872,-2.141796588897705,-1.3336668771556397,-2.5268994013415735,6.111058103829183,1.0177037715911865,-2.197481934224264
1708434897.5628889,-2.1417763233184814,-1.3336833876422425,-2.52685791650881,6.1109845516975305,1.0176531076431274,-2.1974309126483362
1708434897.5648723,-2.141818046569824,-1.3336463582566758,-2.5268831888781946,6.1109845516975305,1.0177037715911865,-2.1974595228778284
1708434897.566889,-2.141801118850708,-1.3336747747710724,-2.526820961629049,6.111008393555441,1.0177037715911865,-2.1974924246417444
1708434897.568895,-2.141850709915161,-1.3336952191642304,-2.5268951098071497,6.111030089646139,1.0176665782928467,-2.1974552313434046
1708434897.5709112,-2.141796588897705,-1.3336995852044602,-2.5268831888781946,6.111021387368002,1.0176740884780884,-2.1974924246417444
1708434897.572874,-2.1418683528900146,-1.3336634945920487,-2.52690297762026,6.110980379372396,1.017669439315796,-2.197447125111715
1708434897.5748968,-2.1417877674102783,-1.3336705279401322,-2.5268505255328577,6.111016976624288,1.0176784992218018,-2.1974714438067835
1708434897.5768745,-2.1418304443359375,-1.3336747747710724,-2.5268710295306605,6.110959756165304,1.0176873207092285,-2.1974461714373987
1708434897.5788982,-2.1418135166168213,-1.3337200295976182,-2.5268831888781946,6.110952126770773,1.0176531076431274,-2.1974743048297327
1708434897.5808816,-2.1418676376342773,-1.3336506944945832,-2.526907269154684,6.111049520760336,1.0176829099655151,-2.1975086371051233
1708434897.5828779,-2.1418392658233643,-1.3336704981378098,-2.526829783116476,6.1110418913658044,1.017675518989563,-2.1975043455706995
1708434897.5849226,-2.141822338104248,-1.3337038469365616,-2.5268917719470423,6.111004817276754,1.0176829099655151,-2.1974995771991175
1708434897.5868886,-2.141801118850708,-1.333653987651207,-2.526879612599508,6.110922682076254,1.0176784992218018,-2.1975043455706995
1708434897.5889606,-2.141801118850708,-1.333711416726448,-2.5268951098071497,6.1109845516975305,1.0176458358764648,-2.1975114981280726
1708434897.5908892,-2.1418347358703613,-1.3336668771556397,-2.5268548170672815,6.1109845516975305,1.0176740884780884,-2.1974967161761683
1708434897.5928845,-2.1418347358703613,-1.333711416726448,-2.5268548170672815,6.110980379372396,1.0176873207092285,-2.19745380083193
1708434897.5948899,-2.141801118850708,-1.3336705279401322,-2.5269158522235315,6.111012804299154,1.0177037715911865,-2.1975043455706995
1708434897.5969124,-2.1418099403381348,-1.3336876642755051,-2.5268917719470423,6.111021387368002,1.0176665782928467,-2.197486225758688
1708434897.598971,-2.141805648803711,-1.333696187739708,-2.5268831888781946,6.110959636956014,1.017641305923462,-2.197486225758688
1708434897.6008842,-2.141855001449585,-1.3336506944945832,-2.5268428961383265,6.1109845516975305,1.0176948308944702,-2.1975043455706995
1708434897.6029303,-2.141796827316284,-1.3336301755956192,-2.5268667379962366,6.110967266350546,1.0176904201507568,-2.1975114981280726
1708434897.6048942,-2.141843557357788,-1.3336876642755051,-2.526890818272726,6.111009108811178,1.017687439918518,-2.1975610891925257
1708434897.6068847,-2.141855001449585,-1.3336582493833085,-2.5268667379962366,6.110980379372396,1.0176621675491333,-2.197449032460348
1708434897.608918,-2.141805648803711,-1.3336952191642304,-2.5268994013415735,6.111009108811178,1.0176784992218018,-2.197470013295309
1708434897.610901,-2.141818046569824,-1.333711416726448,-2.526841704045431,6.1109845516975305,1.0176621675491333,-2.197540585194723
1708434897.6129067,-2.141850471496582,-1.3336952191642304,-2.526841704045431,6.110964047699728,1.0176829099655151,-2.197547737752096
1708434897.6148925,-2.1418347358703613,-1.3337080639651795,-2.526853624974386,6.111016976624288,1.0176918506622314,-2.1974995771991175
1708434897.6168957,-2.141796588897705,-1.3337157529643555,-2.526878897343771,6.1110408184821985,1.0176873207092285,-2.1975372473346155
1708434897.6189556,-2.141839027404785,-1.333662526016571,-2.5269036928759974,6.111004817276754,1.0176993608474731,-2.197544876729147
1708434897.6208878,-2.141785144805908,-1.3336463582566758,-2.5268710295306605,6.110991823464193,1.01767098903656,-2.197515312825338
1708434897.6228914,-2.141801118850708,-1.3336506944945832,-2.526878897343771,6.111012804299154,1.0176948308944702,-2.197502915059225
1708434897.6249118,-2.141843557357788,-1.3336549562266846,-2.5268874804126185,6.1109845516975305,1.0176546573638916,-2.1974790732013147
1708434897.6268957,-2.141818046569824,-1.3336790365031739,-2.5269246737109583,6.110975968628683,1.0176904201507568,-2.197556797658102
1708434897.628899,-2.1417808532714844,-1.3336876642755051,-2.526878897343771,6.1109845516975305,1.0176502466201782,-2.19749099413027
1708434897.6308935,-2.1418347358703613,-1.3336506944945832,-2.526940886174337,6.110947835236349,1.0176546573638916,-2.197486225758688
1708434897.6328933,-2.141822338104248,-1.3337200295976182,-2.526912514363424,6.111012804299154,1.0176621675491333,-2.1975072065936487
1708434897.634895,-2.1418089866638184,-1.3336582791856308,-2.526878897343771,6.110972630768575,1.017641305923462,-2.1974952856646937
1708434897.6368961,-2.1418347358703613,-1.3336866957000275,-2.526907984410421,6.110991823464193,1.01767098903656,-2.197535816823141
1708434897.6389234,-2.1418302059173584,-1.3336506944945832,-2.526874605809347,6.110964047699728,1.0176546573638916,-2.197523895894186
1708434897.6408842,-2.141789674758911,-1.3337319505265732,-2.5268548170672815,6.110991823464193,1.0176458358764648,-2.197544876729147
1708434897.6428921,-2.141843557357788,-1.3336876642755051,-2.5268667379962366,6.110952126770773,1.01767098903656,-2.197540585194723
1708434897.6448812,-2.141871929168701,-1.3336344969323655,-2.526862446461813,6.110980379372396,1.0176948308944702,-2.1975114981280726
1708434897.6468983,-2.141796588897705,-1.333662526016571,-2.5269203821765345,6.111016976624288,1.0176740884780884,-2.1974995771991175
1708434897.6489396,-2.1418347358703613,-1.3337233376554032,-2.5268951098071497,6.111013400345602,1.0176665782928467,-2.197523895894186
1708434897.6508787,-2.141801118850708,-1.3337113869241257,-2.5268951098071497,6.110991823464193,1.0177083015441895,-2.197502915059225
1708434897.6529064,-2.141801118850708,-1.3336463284543534,-2.526874605809347,6.1109845516975305,1.0176502466201782,-2.1974952856646937
1708434897.6548915,-2.141850709915161,-1.3336952191642304,-2.5268874804126185,6.111008393555441,1.0176829099655151,-2.1975162664996546
1708434897.656882,-2.1418676376342773,-1.3336796772531052,-2.5268951098071497,6.111021387368002,1.0176829099655151,-2.1975072065936487
1708434897.6588793,-2.141822338104248,-1.3336301457932969,-2.526919190083639,6.110980379372396,1.0176665782928467,-2.197552506123678
1708434897.6608808,-2.141817808151245,-1.3336662364057084,-2.5269280115710657,6.111004698067465,1.0176458358764648,-2.197523895894186
1708434897.6628788,-2.1418256759643555,-1.3336833876422425,-2.526841704045431,6.1109962342079065,1.0177162885665894,-2.197523895894186
1708434897.6648998,-2.1417877674102783,-1.333653987651207,-2.5269115606891077,6.1109715578849695,1.01765775680542,-2.197523895894186
1708434897.6668854,-2.141793966293335,-1.3336669516614457,-2.526878897343771,6.110980379372396,1.0176829099655151,-2.197486225758688
1708434897.6689174,-2.1418347358703613,-1.333638773565628,-2.5269036928759974,6.1109845516975305,1.01765775680542,-2.1975820700274866
1708434897.670888,-2.141859531402588,-1.33366251111541,-2.5268951098071497,6.110975968628683,1.0176829099655151,-2.197547737752096
1708434897.6729195,-2.1418304443359375,-1.3336582493833085,-2.5268710295306605,6.111004102021017,1.0176458358764648,-2.1975610891925257
1708434897.6749003,-2.141822338104248,-1.333634467130043,-2.5268994013415735,6.111008393555441,1.0176665782928467,-2.197515312825338
1708434897.676925,-2.1418371200561523,-1.3336060655168076,-2.52685791650881,6.110999810486593,1.0176784992218018,-2.1975272337542933
1708434897.6789165,-2.141805410385132,-1.3336258840611954,-2.5268874804126185,6.1109845516975305,1.0176904201507568,-2.197489563618795
1708434897.6808937,-2.141846179962158,-1.3336995852044602,-2.5269158522235315,6.1110256789024255,1.017636775970459,-2.197481934224264
1708434897.6829302,-2.1418135166168213,-1.3336582493833085,-2.526870314274923,6.111016976624288,1.0176904201507568,-2.197515312825338
1708434897.6849017,-2.141805648803711,-1.333690957432129,-2.526809279118673,6.1110256789024255,1.0176665782928467,-2.197535816823141
1708434897.6868842,-2.141843557357788,-1.3337028336576005,-2.526923481618063,6.1109962342079065,1.0176904201507568,-2.197552506123678
1708434897.6888983,-2.1418347358703613,-1.3336833727410813,-2.5268831888781946,6.110965120583334,1.017723798751831,-2.197498146687643
1708434897.6908875,-2.141817808151245,-1.3336097461036225,-2.5268994013415735,6.110955345421591,1.0176993608474731,-2.1975114981280726
1708434897.6929047,-2.141817808151245,-1.3336711388877411,-2.5268505255328577,6.111016976624288,1.0177282094955444,-2.197531525288717
1708434897.694889,-2.1418347358703613,-1.3336377900889893,-2.5268505255328577,6.1109845516975305,1.0176948308944702,-2.197597328816549
1708434897.6969008,-2.1418585777282715,-1.3336582791856308,-2.5268667379962366,6.1109564183051965,1.017723798751831,-2.197547737752096
1708434897.6989436,-2.1418135166168213,-1.3336961430362244,-2.526846233998434,6.110964166909017,1.017711877822876,-2.197493855153219
1708434897.7009041,-2.141846179962158,-1.3336506944945832,-2.5269528071032923,6.1109715578849695,1.0176740884780884,-2.197531525288717
1708434897.7029173,-2.141796588897705,-1.3337319505265732,-2.5269320646869105,6.110952126770773,1.0176531076431274,-2.197502915059225
1708434897.7048876,-2.141855001449585,-1.3337167364409943,-2.526890818272726,6.111030089646139,1.0176857709884644,-2.197559658681051
1708434897.7068882,-2.1418304443359375,-1.3336344969323655,-2.5269277731524866,6.110955345421591,1.0176904201507568,-2.197502915059225
1708434897.7089105,-2.1418347358703613,-1.3337404143861313,-2.52686578432192,6.110959636956014,1.017669439315796,-2.197568718587057
1708434897.7109108,-2.1418302059173584,-1.3336833876422425,-2.526886526738302,6.111004817276754,1.0177074670791626,-2.1975224653827112
1708434897.7129147,-2.1418392658233643,-1.3336344969323655,-2.526862446461813,6.1109856245811365,1.0176904201507568,-2.1975939909564417
1708434897.7148807,-2.141839027404785,-1.3336753857186814,-2.5268667379962366,6.111017811089315,1.0176857709884644,-2.197472874318258
1708434897.7168944,-2.141822338104248,-1.3336463284543534,-2.526874605809347,6.110981333046713,1.0177074670791626,-2.1975610891925257
1708434897.7188985,-2.141801118850708,-1.3337275993875046,-2.526837174092428,6.111021387368002,1.0177147388458252,-2.1975224653827112
1708434897.7208881,-2.141796588897705,-1.3336747300675889,-2.5268831888781946,6.111012804299154,1.0176857709884644,-2.1975019613849085
1708434897.72291,-2.1418347358703613,-1.3336301755956192,-2.5268951098071497,6.110952007561483,1.0176576375961304,-2.197547737752096
1708434897.7248788,-2.1418347358703613,-1.3336662364057084,-2.526919190083639,6.110967266350546,1.0176992416381836,-2.197531525288717
1708434897.726924,-2.141871929168701,-1.3336711388877411,-2.5269115606891077,6.111008393555441,1.017723798751831,-2.197531525288717
1708434897.7289062,-2.141880750656128,-1.333662526016571,-2.52690297762026,6.11102460601882,1.0176857709884644,-2.197515312825338
1708434897.7308817,-2.141805410385132,-1.3336754155210038,-2.5269115606891077,6.111013519554891,1.0176948308944702,-2.197544876729147
1708434897.7329097,-2.141792058944702,-1.3336866957000275,-2.5269320646869105,6.1109715578849695,1.0176894664764404,-2.197531525288717
1708434897.7348847,-2.141850709915161,-1.3336258840611954,-2.5269115606891077,6.111012804299154,1.017723798751831,-2.1975062529193323
1708434897.7369075,-2.1418347358703613,-1.3336833876422425,-2.5268994013415735,6.111029016762533,1.017669439315796,-2.197564427052633
1708434897.7388937,-2.141839027404785,-1.3336139184287568,-2.526890818272726,6.110964047699728,1.017723798751831,-2.197543446217672
1708434897.740879,-2.141859531402588,-1.3337243062308808,-2.526874605809347,6.1109845516975305,1.0177147388458252,-2.197576347981588
1708434897.7428894,-2.141826868057251,-1.3336378049901505,-2.526878897343771,6.1109975455100916,1.0177028179168701,-2.1975463072406214
1708434897.744875,-2.141817808151245,-1.333662526016571,-2.526878897343771,6.111016976624288,1.0177074670791626,-2.1975672880755823
1708434897.7468793,-2.141796588897705,-1.3336378645947953,-2.526878897343771,6.111021387368002,1.017723798751831,-2.197597328816549
1708434897.7489228,-2.1418304443359375,-1.3336583238891144,-2.526862446461813,6.111030089646139,1.017735481262207,-2.197571579610006
1708434897.7508945,-2.141789674758911,-1.3336919260076066,-2.526878897343771,6.110964047699728,1.0177310705184937,-2.197575394307272
1708434897.7529263,-2.141843557357788,-1.3337243062308808,-2.5268753210650843,6.110988843231954,1.01765775680542,-2.1975539366351526
1708434897.7548788,-2.1418213844299316,-1.333613933329918,-2.526923481618063,6.110993134766378,1.017723798751831,-2.197566334401266
1708434897.7569027,-2.141822338104248,-1.3336876344731827,-2.526886526738302,6.111000406533041,1.0177191495895386,-2.1975868383990687
1708434897.7588887,-2.141805648803711,-1.333708034162857,-2.526878897343771,6.111006247788229,1.0176857709884644,-2.197636429463522
1708434897.7609074,-2.141850709915161,-1.3336463433555146,-2.5269115606891077,6.111009108811178,1.0176904201507568,-2.1976197401629847
1708434897.762911,-2.1418347358703613,-1.3336387437633057,-2.5268831888781946,6.111001956253805,1.017735481262207,-2.197611157094137
1708434897.7648847,-2.1417877674102783,-1.3336833876422425,-2.526878897343771,6.110972630768575,1.0176857709884644,-2.197660271321432
1708434897.766922,-2.141855001449585,-1.3337157678655167,-2.526878897343771,6.111012804299154,1.0176904201507568,-2.1976755301104944
1708434897.7689207,-2.141859531402588,-1.3337285083583375,-2.526939932500021,6.111029970436849,1.0177028179168701,-2.1976917425738733
1708434897.770902,-2.141801118850708,-1.3336344969323655,-2.5269277731524866,6.110993134766378,1.0176904201507568,-2.1977041403399866
1708434897.7729225,-2.141852378845215,-1.3336876791766663,-2.52690297762026,6.110976922302999,1.0176904201507568,-2.197723690663473
1708434897.7749224,-2.141785144805908,-1.3336833876422425,-2.526910368596212,6.110919225006857,1.0176769495010376,-2.197735611592428
1708434897.7769198,-2.141826868057251,-1.333654986029007,-2.526907269154684,6.1109856245811365,1.0177028179168701,-2.197813336049215
1708434897.7789173,-2.1418347358703613,-1.3336506944945832,-2.52690297762026,6.110993134766378,1.017681360244751,-2.1977508703814905
1708434897.7808845,-2.141805648803711,-1.333638773565628,-2.5268831888781946,6.110948550492086,1.0176948308944702,-2.1978066603290003
1708434897.7829115,-2.141855001449585,-1.333659217958786,-2.526874605809347,6.11099003532485,1.0176984071731567,-2.197852913533346
1708434897.7848866,-2.141796827316284,-1.3336344969323655,-2.52686578432192,6.110957133560934,1.0176531076431274,-2.1979263464557093
1708434897.7869375,-2.141785144805908,-1.3336952191642304,-2.526874605809347,6.110965120583334,1.0176769495010376,-2.1978781859027308
1708434897.7889006,-2.141822338104248,-1.333638773565628,-2.5268994013415735,6.110969769745626,1.0177191495895386,-2.1979573408709925
1708434897.7908945,-2.141822338104248,-1.333622546201088,-2.5268831888781946,6.110936629563131,1.017669439315796,-2.198001209889547
1708434897.7929149,-2.141843557357788,-1.3336711090854187,-2.526907269154684,6.110957133560934,1.017669439315796,-2.1979878584491175
1708434897.7948742,-2.141880750656128,-1.333650679593422,-2.526862446461813,6.110932457237997,1.0177401304244995,-2.1980579535113733
1708434897.7968993,-2.141805410385132,-1.3336876642755051,-2.526907269154684,6.110945570259847,1.017711877822876,-2.198002640401022
1708434897.7989323,-2.141826868057251,-1.3336952936700364,-2.526874605809347,6.110872614174642,1.0177282094955444,-2.198118034993307
1708434897.8009124,-2.141826868057251,-1.3336549562266846,-2.5269158522235315,6.110811698227682,1.0177074670791626,-2.198099915181295
1708434897.8029106,-2.141798496246338,-1.3336301159909745,-2.5268994013415735,6.110882866173544,1.0176829099655151,-2.198181454335348
1708434897.804939,-2.1418099403381348,-1.3336711388877411,-2.52685791650881,6.110812532692709,1.017669439315796,-2.198189083729879
1708434897.806934,-2.1418118476867676,-1.3336668771556397,-2.5269158522235315,6.110803949623861,1.0176984071731567,-2.1982200781451624
1708434897.8089044,-2.141765832901001,-1.33366251111541,-2.526919190083639,6.110830414086141,1.0177191495895386,-2.198223892842428
1708434897.8108807,-2.1417534351348877,-1.3336540323546906,-2.5269277731524866,6.110788571625509,1.0177490711212158,-2.198341671620504
1708434897.8129075,-2.141737461090088,-1.3336876046708603,-2.5269158522235315,6.11079632022933,1.0177356004714966,-2.1983826796161097
1708434897.814882,-2.1417462825775146,-1.333695263867714,-2.5269277731524866,6.110811102181234,1.0177191495895386,-2.1984379927264612
1708434897.8169136,-2.1417553424835205,-1.333662526016571,-2.5269561449633997,6.1107332585151575,1.0177282094955444,-2.1984337011920374
1708434897.8188925,-2.1417462825775146,-1.3337285828641434,-2.526886526738302,6.110782730370321,1.0177028179168701,-2.1984861532794397
1708434897.8208833,-2.141730546951294,-1.3336668771556397,-2.5269115606891077,6.110684501915731,1.0176740884780884,-2.1984790007220667
1708434897.8229063,-2.1417126655578613,-1.3336960834315796,-2.52692681947817,6.11066900470809,1.0176857709884644,-2.198585335408346
1708434897.824882,-2.1417076587677,-1.3336498153260727,-2.526907269154684,6.110636460572042,1.0177685022354126,-2.1986215750323694
1708434897.8269274,-2.141686201095581,-1.3337037724307557,-2.526919190083639,6.1105888960655115,1.0177147388458252,-2.198700730000631
1708434897.8289032,-2.1417324542999268,-1.3336463284543534,-2.5269561449633997,6.110613810807028,1.017722249031067,-2.198810402547018
1708434897.8309002,-2.1416916847229004,-1.333686740403511,-2.526935402547018,6.1106018898780725,1.017701268196106,-2.1988375822650355
1708434897.8329003,-2.1416590213775635,-1.333659217958786,-2.526907269154684,6.110565888672628,1.017771601676941,-2.1989334265338343
1708434897.834886,-2.1416146755218506,-1.3336833727410813,-2.526919190083639,6.1104692099388025,1.0177507400512695,-2.1989648977862757
1708434897.8369,-2.141603469848633,-1.3336463582566758,-2.526951853428976,6.110466706543722,1.0177310705184937,-2.1991198698626917
1708434897.8389127,-2.141566038131714,-1.333662526016571,-2.5269222895251673,6.1104140160377405,1.0177310705184937,-2.1991799513446253
1708434897.8408983,-2.141526460647583,-1.3336678457311173,-2.5269835630999964,6.110365855484762,1.0177385807037354,-2.1992667357074183
1708434897.84294,-2.1414742469787598,-1.3336711388877411,-2.5269551912890833,6.110423433571615,1.017788290977478,-2.199306313191549
1708434897.8449056,-2.1414663791656494,-1.333735243683197,-2.5269835630999964,6.110334384232321,1.017791509628296,-2.199435059224264
1708434897.8469331,-2.1414310932159424,-1.3336619597724457,-2.5269880930529993,6.110277640610494,1.017798900604248,-2.1994932333575647
1708434897.8489165,-2.1413991451263428,-1.3336619597724457,-2.5269911924945276,6.110247480660238,1.01786470413208,-2.199589554463522
1708434897.8508892,-2.1413629055023193,-1.3336619299701233,-2.5270031134234827,6.1102179167564294,1.0178227424621582,-2.199718777333395
1708434897.852907,-2.1413559913635254,-1.3336711835912247,-2.5270686785327356,6.1101910946662805,1.0178589820861816,-2.199843231831686
1708434897.8549147,-2.1412994861602783,-1.3336790067008515,-2.526990000401632,6.110171305924215,1.017883062362671,-2.199935261403219
1708434897.8569283,-2.141251802444458,-1.3337113869241257,-2.5270894209491175,6.1100008366401575,1.0179367065429688,-2.2000516096698206
1708434897.858921,-2.1411995887756348,-1.3337352287820359,-2.527116362248556,6.1099984524543665,1.0179983377456665,-2.2001660505877894
1708434897.8608906,-2.141131639480591,-1.3336866957000275,-2.5270870367633265,6.109926211624899,1.0179522037506104,-2.200324837361471
1708434897.862916,-2.1410634517669678,-1.3336747300675889,-2.5270827452289026,6.109865772515096,1.0179880857467651,-2.2004531065570276
1708434897.8648994,-2.1410272121429443,-1.3337028932622452,-2.5271557013141077,6.109879720001974,1.0179986953735352,-2.200543228779928
1708434897.8669276,-2.1409435272216797,-1.3337319654277344,-2.527151409779684,6.109779703408041,1.018003225326538,-2.200671974812643
1708434897.8688993,-2.1408822536468506,-1.3337309819510956,-2.5271883646594446,6.109696018486776,1.0180633068084717,-2.2008488813983362
1708434897.8708982,-2.140798330307007,-1.3337063056281586,-2.5271831194507044,6.109644043236532,1.0180678367614746,-2.2009857336627405
1708434897.872914,-2.1407437324523926,-1.333714799290039,-2.52716571489443,6.109589564591207,1.0180754661560059,-2.2011340300189417
1708434897.8748887,-2.1406960487365723,-1.33371056736026,-2.5272472540484827,6.109488594322958,1.0181159973144531,-2.201233212147848
1708434897.8768954,-2.1406078338623047,-1.333725781445839,-2.527288023625509,6.109376060753622,1.0181487798690796,-2.201374355946676
1708434897.8788996,-2.140552043914795,-1.3336986166289826,-2.527288023625509,6.109353649407186,1.0181474685668945,-2.201554600392477
1708434897.880887,-2.140500783920288,-1.3337713342956086,-2.527360741292135,6.109211313515463,1.018195629119873,-2.201702896748678
1708434897.882907,-2.1403629779815674,-1.3337343496135254,-2.527318064366476,6.1091219065483,1.0181912183761597,-2.2018020788775843
1708434897.8848937,-2.1402475833892822,-1.3337788593820115,-2.527350966130392,6.109005915909567,1.018281102180481,-2.201921288167135
1708434897.886944,-2.140183687210083,-1.3338027161410828,-2.5274439493762415,6.108918773918905,1.0183262825012207,-2.2021129767047327
1708434897.888894,-2.1400954723358154,-1.3338191670230408,-2.5274882952319544,6.1087697623069666,1.0183231830596924,-2.202282730733053
1708434897.8909018,-2.140038251876831,-1.3337779653123398,-2.527487103139059,6.1086957333381555,1.0184030532836914,-2.202486817036764
1708434897.8929248,-2.1398932933807373,-1.3337979924729844,-2.52751595178713,6.108567464142599,1.0183955430984497,-2.2026308218585413
1708434897.894913,-2.139817953109741,-1.3338149797967453,-2.5275266806231897,6.108383166580953,1.018494725227356,-2.202787224446432
1708434897.8969083,-2.1396236419677734,-1.333846167927124,-2.5275505224811,6.108278977661886,1.0185502767562866,-2.2029674688922327
1708434897.8989167,-2.139545202255249,-1.3338583421758194,-2.5276106039630335,6.108140456467428,1.0185891389846802,-2.2031729857074183
1708434897.900876,-2.1394259929656982,-1.3338290613940735,-2.5277000109301966,6.107973086624899,1.0186418294906616,-2.203344170247213
1708434897.902911,-2.139281988143921,-1.3339062494090577,-2.527768913899557,6.107785212784567,1.018705129623413,-2.2035239378558558
1708434897.9048977,-2.139068126678467,-1.3339139384082337,-2.52782112756838,6.107604610710897,1.0187770128250122,-2.203749481831686
1708434897.906929,-2.1389904022216797,-1.333965854053833,-2.5278318564044397,6.107384907990255,1.018870234489441,-2.203932587300436
1708434897.9089048,-2.1388022899627686,-1.3339454245618363,-2.5278878847705286,6.107237446099081,1.0189543962478638,-2.204146210347311
1708434897.910902,-2.1386911869049072,-1.3340300631574173,-2.527914826069967,6.107102501183309,1.0190356969833374,-2.2043212095843714
1708434897.912931,-2.1385486125946045,-1.3340018552592774,-2.5279999415027063,6.106925117760458,1.0191364288330078,-2.2045005003558558
1708434897.914906,-2.138348340988159,-1.3340463650277634,-2.52806002298464,6.106697904854574,1.0191949605941772,-2.2047656218158167
1708434897.9169238,-2.1381893157958984,-1.334036798482277,-2.5280633608447474,6.106499182968893,1.0192761421203613,-2.205003086720602
1708434897.9188912,-2.1379473209381104,-1.3340940338424225,-2.528180185948507,6.1062142727668665,1.019396424293518,-2.205190960560934
1708434897.920897,-2.1377527713775635,-1.3341382604888459,-2.5282321611987513,6.105953562050619,1.0195016860961914,-2.205397907887594
1708434897.922904,-2.137540817260742,-1.3341043901494523,-2.528311793004171,6.1057108519370935,1.0196034908294678,-2.2056592146502894
1708434897.9249198,-2.137343168258667,-1.3342014861157914,-2.528379503880636,6.105484950333395,1.0197166204452515,-2.2059248129474085
1708434897.9269314,-2.1370906829833984,-1.3342545938542862,-2.5284677187549036,6.10516523101882,1.0198246240615845,-2.206144158040182
1708434897.9289014,-2.136833667755127,-1.3342332553914567,-2.5285397211657923,6.104878175049581,1.0199583768844604,-2.206399742756979
1708434897.930872,-2.1366162300109863,-1.3342367869666596,-2.528590981160299,6.104566561966696,1.020081877708435,-2.206632439290182
1708434897.9329085,-2.136352777481079,-1.3342445206693192,-2.5287120977984827,6.104246604233541,1.0202016830444336,-2.2068637053119105
1708434897.9348786,-2.136039972305298,-1.3343212467483063,-2.5287962595569056,6.103940951615133,1.0203295946121216,-2.2071874777423304
1708434897.9368887,-2.1358144283294678,-1.334336594944336,-2.5288823286639612,6.103560673981466,1.0205022096633911,-2.207466427479879
1708434897.938944,-2.135514497756958,-1.334401087169983,-2.5290001074420374,6.103178012162008,1.020671010017395,-2.2076976935016077
1708434897.9409003,-2.135213851928711,-1.3344011318734665,-2.5291648546801966,6.102855312615194,1.0207788944244385,-2.2079294363604944
1708434897.942909,-2.134889841079712,-1.3344083440354844,-2.5292609373675745,6.102465498238363,1.0209680795669556,-2.2081802527057093
1708434897.9448924,-2.1346170902252197,-1.3344570708325882,-2.529316012059347,6.102118479996481,1.0210884809494019,-2.2084530035602015
1708434897.9469378,-2.1342613697052,-1.33451663077388,-2.529501740132467,6.101744878083029,1.0212692022323608,-2.20878774324526
1708434897.9489274,-2.13392972946167,-1.3344756227782746,-2.5295878092395228,6.1013457653816126,1.0214776992797852,-2.2090957800494593
1708434897.9509418,-2.1335628032684326,-1.3345807206681748,-2.5297167936908167,6.1008938429649255,1.0216295719146729,-2.209404770527975
1708434897.9529188,-2.133150339126587,-1.3345757287791749,-2.5298648516284388,6.100333797722616,1.0218099355697632,-2.209712807332174
1708434897.954918,-2.132780075073242,-1.3346842241338273,-2.529992167149679,6.099909174233236,1.0220351219177246,-2.2100327650653284
1708434897.9568799,-2.1323533058166504,-1.334667832856514,-2.5301037470446985,6.0994384167488,1.0222232341766357,-2.2103193441974085
1708434897.958908,-2.1319222450256348,-1.3347319525531312,-2.5302966276751917,6.0990075943763635,1.022448182106018,-2.2106526533709925
1708434897.9608905,-2.1315488815307617,-1.3347875040820618,-2.530456844960348,6.098508941918173,1.0226529836654663,-2.2109411398517054
1708434897.9629004,-2.131113290786743,-1.3347864908031006,-2.5305967966662806,6.097948658257284,1.0228245258331299,-2.2112892309771937
1708434897.9648805,-2.130701780319214,-1.3348551851562043,-2.530736271535055,6.097398745804586,1.0230540037155151,-2.2116339842425745
1708434897.966886,-2.1301774978637695,-1.3348628145507355,-2.530921761189596,6.096853005677023,1.0232946872711182,-2.2119138876544397
1708434897.9688993,-2.1297314167022705,-1.3349345487407227,-2.531064573918478,6.0963148949439905,1.0235350131988525,-2.212290112172262
1708434897.970897,-2.1292824745178223,-1.3350071024945755,-2.5312565008746546,6.0956647274787805,1.0237380266189575,-2.2126596609698694
1708434897.972921,-2.12870454788208,-1.3350539964488526,-2.5314484278308313,6.0949898836906335,1.0240116119384766,-2.2129748503314417
1708434897.9748797,-2.128202438354492,-1.3351383817246933,-2.5316689650165003,6.094444978028097,1.0242313146591187,-2.213344399129049
1708434897.9769194,-2.1276626586914062,-1.33518639326606,-2.531889025365011,6.093770968704977,1.0244759321212769,-2.2137001196490687
1708434897.9788945,-2.1271655559539795,-1.3352017414620896,-2.53204852739443,6.093109118729391,1.0247479677200317,-2.2141011396991175
1708434897.9808848,-2.1266064643859863,-1.3352692884257813,-2.5322895685779017,6.092423188477316,1.0250427722930908,-2.2144654432879847
1708434897.9829018,-2.126004457473755,-1.3353698712638398,-2.53251296678652,6.091642486840048,1.0253114700317383,-2.214858357106344
1708434897.9849114,-2.125420331954956,-1.3354093891433259,-2.532663408909933,6.09098373630599,1.0256003141403198,-2.2152183691607874
1708434897.9869344,-2.124725580215454,-1.335501493220665,-2.532982889805929,6.090156423836508,1.0259004831314087,-2.2156394163714808
1708434897.9888942,-2.1240968704223633,-1.3355610382607956,-2.533201281224386,6.089392292290487,1.0262130498886108,-2.2160361448871058
1708434897.990892,-2.1234958171844482,-1.3356323105147858,-2.5333929697619837,6.088621604233541,1.0265002250671387,-2.216440502797262
1708434897.9929664,-2.122821807861328,-1.3357329827598114,-2.5336483160602015,6.087846147805013,1.0268176794052124,-2.2168453375445765
1708434897.9949486,-2.1222338676452637,-1.335804433827736,-2.5339296499835413,6.086946475296774,1.0271179676055908,-2.217285458241598
1708434897.9969234,-2.121516466140747,-1.3358481538346787,-2.5341160933123987,6.086122619896688,1.027475357055664,-2.2177026907550257
1708434897.9989073,-2.1207728385925293,-1.335927577023842,-2.534372154866354,6.0852850554283044,1.0277644395828247,-2.2181022802936
1708434898.000912,-2.1201350688934326,-1.3359626096538086,-2.534645144139425,6.084480869560995,1.0281052589416504,-2.2184608618365687
1708434898.0029044,-2.119419574737549,-1.3361026358655472,-2.5349133650409144,6.083573210030355,1.0284544229507446,-2.2189157644854944
1708434898.004903,-2.1187753677368164,-1.3362595748952408,-2.53517729440798,6.082749712258138,1.0287787914276123,-2.2193358580218714
1708434898.006896,-2.1179709434509277,-1.3363144409707566,-2.5354860464679163,6.0817733881767175,1.0291684865951538,-2.2197845617877405
1708434898.0089033,-2.1171960830688477,-1.336381973033287,-2.535680119191305,6.080774414330282,1.0294561386108398,-2.220208470021383
1708434898.0109165,-2.116443634033203,-1.3364736896804352,-2.5360050837146204,6.0797661421592615,1.0298950672149658,-2.2206409613238733
1708434898.0129228,-2.115626811981201,-1.3365409237197419,-2.5362277666675013,6.078789102822103,1.0302470922470093,-2.2211177984820765
1708434898.0149095,-2.114874839782715,-1.3366564077189942,-2.5365286509143274,6.0778692839439294,1.0306230783462524,-2.2215245405780237
1708434898.01691,-2.114072799682617,-1.336768851881363,-2.5367804209338587,6.076903927117147,1.0309712886810303,-2.2219532171832483
1708434898.0188951,-2.113225221633911,-1.3368887466243287,-2.5370565096484583,6.075914251595297,1.0313526391983032,-2.22239333788027
1708434898.0209036,-2.1123876571655273,-1.3369885098985215,-2.537372652684347,6.07491563537673,1.0317254066467285,-2.222914997731344
1708434898.0229123,-2.1114916801452637,-1.3371404570392151,-2.5376487413989466,6.073850977211752,1.0321589708328247,-2.22337514558901
1708434898.0248911,-2.1106603145599365,-1.3372633320144196,-2.5379279295550745,6.072741734772482,1.0325665473937988,-2.223889176045553
1708434898.026917,-2.109719753265381,-1.3373473298600693,-2.538281027470724,6.071544039040365,1.0330133438110352,-2.224360767995016
1708434898.028912,-2.1088008880615234,-1.3374861788800736,-2.53857666650881,6.070469367295065,1.0334378480911255,-2.2247846762286585
1708434898.0308921,-2.1078484058380127,-1.3376014095595856,-2.538872305546896,6.069293606072225,1.0338507890701294,-2.2253053824054163
1708434898.0328774,-2.1069085597991943,-1.337737352853157,-2.5391765276538294,6.068109261780538,1.0342919826507568,-2.225757424031393
1708434898.0348756,-2.106025218963623,-1.3379104149392624,-2.5395165125476282,6.066891062050619,1.03473699092865,-2.2262123266803187
1708434898.0368757,-2.1050004959106445,-1.3379563403180619,-2.5398364702807825,6.065780746727743,1.0351454019546509,-2.2267988363849085
1708434898.0389109,-2.1040890216827393,-1.3381408762982865,-2.54016882578005,6.064619409828939,1.035648226737976,-2.227278534566061
1708434898.0408819,-2.1030325889587402,-1.3382357072881241,-2.540541950856344,6.063417541771688,1.0360549688339233,-2.227785889302389
1708434898.0428832,-2.1020607948303223,-1.3383422654918213,-2.540855948125021,6.062137710839071,1.0365406274795532,-2.2283695379840296
1708434898.0448809,-2.1009373664855957,-1.3385271740010758,-2.5411601702319544,6.060829865723409,1.036971926689148,-2.228880230580465
1708434898.0468767,-2.0999181270599365,-1.3386433136514206,-2.5415201822863978,6.059574830323019,1.0374412536621094,-2.229396645222799
1708434898.048905,-2.0987863540649414,-1.3388562959483643,-2.5418723265277308,6.058273899346151,1.0379024744033813,-2.2299626509295862
1708434898.0508761,-2.0977320671081543,-1.338967115884163,-2.542216126118795,6.056982624321737,1.0383998155593872,-2.2304847876178187
1708434898.0528884,-2.0966744422912598,-1.3390888732722779,-2.5425642172442835,6.05574797370986,1.0388821363449097,-2.2310169378863733
1708434898.0549052,-2.0955607891082764,-1.3391965639642258,-2.5429118315326136,6.0543709872062585,1.039341926574707,-2.2315529028521937
1708434898.0569148,-2.094430685043335,-1.3393891763738175,-2.543255392705099,6.052950370102682,1.039852499961853,-2.2321093718158167
1708434898.0589576,-2.093233346939087,-1.3395813268474122,-2.5436599890338343,6.051474201470175,1.0402830839157104,-2.232699219380514
1708434898.060888,-2.092123508453369,-1.3396553707173844,-2.5440481344806116,6.050049888878622,1.0407999753952026,-2.2332995573626917
1708434898.0628803,-2.0908703804016113,-1.3398519319346924,-2.544436756764547,6.048494684487142,1.0413587093353271,-2.233884636555807
1708434898.0648966,-2.089722156524658,-1.339969591503479,-2.544799868260519,6.0470478413398645,1.0418999195098877,-2.2344592253314417
1708434898.0669136,-2.0885045528411865,-1.3401946735433121,-2.5451956431018274,6.045588719635763,1.0424137115478516,-2.2350638548480433
1708434898.0689251,-2.087268829345703,-1.340369464164116,-2.545595947896139,6.044138657837667,1.0429128408432007,-2.235668961201803
1708434898.0709143,-2.0860414505004883,-1.3405541342547913,-2.5459886232959192,6.042671429901876,1.0434211492538452,-2.236215893422262
1708434898.0728743,-2.084764242172241,-1.3407172125628968,-2.5463929812060755,6.041123616486349,1.0439680814743042,-2.236873451863424
1708434898.074882,-2.0834619998931885,-1.3408837926438828,-2.5467804113971155,6.03956018665389,1.0444955825805664,-2.237490479146139
1708434898.076907,-2.0822362899780273,-1.341091276412346,-2.5471959749804896,6.037932026177206,1.0450663566589355,-2.238122288380758
1708434898.07891,-2.0807950496673584,-1.3413269531777878,-2.547652784978048,6.036384451180258,1.0456029176712036,-2.238734547291891
1708434898.0808847,-2.079451084136963,-1.341514305477478,-2.5480600039111536,6.034789430886068,1.0461680889129639,-2.2393997351275843
1708434898.0828774,-2.0782182216644287,-1.3417329651168366,-2.5484913031207483,6.033193099289694,1.0467331409454346,-2.2400715986834925
1708434898.0848815,-2.076852321624756,-1.3418792647174378,-2.5489116350757044,6.031658994942465,1.0472255945205688,-2.2406843344317835
1708434898.0868998,-2.0755107402801514,-1.342155472641327,-2.5493598620044153,6.030051576882162,1.0477374792099,-2.241324249898092
1708434898.0889065,-2.074157953262329,-1.3423676949790497,-2.5497551600085657,6.028387176781454,1.048254370689392,-2.2420132795916956
1708434898.0909352,-2.0728061199188232,-1.3425662827542801,-2.5501471201526087,6.026728617935934,1.048801064491272,-2.242775265370504
1708434898.0928872,-2.071342945098877,-1.3427568537047883,-2.5506234804736536,6.024954902916708,1.0492806434631348,-2.2433951536761683
1708434898.094905,-2.069965362548828,-1.3429848563722153,-2.5510271231280726,6.023250210076132,1.049797773361206,-2.244070831929342
1708434898.0968852,-2.068519353866577,-1.3432076883367081,-2.551495615636007,6.021499025612631,1.0503956079483032,-2.2447970549212855
1708434898.0989141,-2.06705904006958,-1.3434786063483735,-2.5519800821887415,6.01977704742507,1.051043152809143,-2.2454856077777308
1708434898.100889,-2.0655505657196045,-1.3437318813851853,-2.552362028752462,6.0179916498954675,1.0515872240066528,-2.246161762868063
1708434898.102892,-2.0640664100646973,-1.343913198714592,-2.552850310002462,6.016227113991537,1.052209734916687,-2.2467849890338343
1708434898.1049092,-2.062593698501587,-1.3441394132426758,-2.5533140341388147,6.014486896782675,1.0527944564819336,-2.247518841420309
1708434898.106948,-2.061126232147217,-1.3443675202182312,-2.553725783024923,6.0128283379371545,1.0533955097198486,-2.248178784047262
1708434898.1089907,-2.0597083568573,-1.3446200650981446,-2.554152790700094,6.011070477753439,1.0539519786834717,-2.2488930861102503
1708434898.110911,-2.058244228363037,-1.3448870939067383,-2.5545969645129603,6.009344923287191,1.0545574426651,-2.249575916920797
1708434898.1129181,-2.056762933731079,-1.3451133978417893,-2.5550411383258265,6.007558929711141,1.0551494359970093,-2.2502434889422815
1708434898.114915,-2.0552070140838623,-1.3453568381122132,-2.5554402510272425,6.005713689118185,1.0557221174240112,-2.25098687807192
1708434898.1169217,-2.0537445545196533,-1.3455178451589127,-2.5559333006488245,6.003893720894613,1.056370496749878,-2.2516520659076136
1708434898.118936,-2.0521411895751953,-1.3459088218263169,-2.55638558069338,6.002000677376547,1.0569816827774048,-2.252373997365133
1708434898.1209238,-2.0506205558776855,-1.3461293292096634,-2.556894842778341,6.000200855522909,1.0576189756393433,-2.253148380910055
1708434898.122915,-2.0491156578063965,-1.3463807267001648,-2.557256523762838,5.99835370758132,1.058170199394226,-2.2538273970233362
