Eg3-git/Classifiers/Data Collection/u2/u2star4_ur3e_joint_states.csv
time,elbow_joint,shoulder_lift_joint,shoulder_pan_joint,wrist_1_joint,wrist_2_joint,wrist_3_joint
1708434879.7329452,-2.141995906829834,-1.3335307848504563,-2.526376549397604,6.110885727196493,1.0166594982147217,-2.022961441670553
1708434879.734925,-2.141916513442993,-1.33354406178508,-2.5263975302325647,6.110861646920004,1.016663908958435,-2.0229738394366663
1708434879.7369056,-2.141916513442993,-1.3334937405637284,-2.5263312498675745,6.110824692040243,1.0166970491409302,-2.02295428911318
1708434879.738908,-2.1419618129730225,-1.3335756671479722,-2.5263312498675745,6.110854136734762,1.0166761875152588,-2.0229409376727503
1708434879.7409008,-2.141975164413452,-1.3335563105395813,-2.5263386408435267,6.1108248112495325,1.016663908958435,-2.0229786078082483
1708434879.7429254,-2.1419663429260254,-1.3335189533284684,-2.5263522307025355,6.110820519715109,1.0166521072387695,-2.0229361693011683
1708434879.7448976,-2.1419663429260254,-1.333534137611725,-2.5263221899615687,6.110836612969198,1.0166852474212646,-2.022970501576559
1708434879.7469306,-2.141986608505249,-1.3335352700999756,-2.5263267199145716,6.11085723617629,1.0167016983032227,-2.02295428911318
1708434879.7489393,-2.1419451236724854,-1.3335563105395813,-2.5263431707965296,6.11083351352767,1.0166807174682617,-2.022933308278219
1708434879.750894,-2.141953945159912,-1.333563746219017,-2.526376549397604,6.110844242363729,1.0166385173797607,-2.022994343434469
1708434879.7529244,-2.141953945159912,-1.333526389007904,-2.5263522307025355,6.110848653107443,1.0166566371917725,-2.0229199568377894
1708434879.754899,-2.142000198364258,-1.3335056614926835,-2.5263403097735804,6.110885727196493,1.0166476964950562,-2.022985283528463
1708434879.7569146,-2.141979932785034,-1.3335519146970292,-2.526367489491598,6.110778915673055,1.0166071653366089,-2.0229695479022425
1708434879.7589252,-2.141958475112915,-1.3335430336049576,-2.5263357798205774,6.110842215805807,1.0166116952896118,-2.0229199568377894
1708434879.7609043,-2.141982316970825,-1.333526389007904,-2.5263553301440638,6.110820400505819,1.0166325569152832,-2.022937599812643
1708434879.7629302,-2.141937017440796,-1.3335440766862412,-2.5263312498675745,6.110881435662069,1.0166325569152832,-2.0229695479022425
1708434879.7649124,-2.1419754028320312,-1.3335726422122498,-2.5263403097735804,6.110820400505819,1.0166161060333252,-2.022949520741598
1708434879.7669206,-2.141982316970825,-1.3335726422122498,-2.5263431707965296,6.110877859383383,1.0166912078857422,-2.0229209105121058
1708434879.768911,-2.1419777870178223,-1.3335144829801102,-2.5263267199145716,6.110845315247335,1.0166206359863281,-2.022949520741598
1708434879.7708945,-2.141928195953369,-1.3335396659425278,-2.5263221899615687,6.11079632022933,1.0165950059890747,-2.022961441670553
1708434879.7729483,-2.1419708728790283,-1.3335396659425278,-2.5263312498675745,6.110877859383383,1.0166206359863281,-2.022933308278219
1708434879.774897,-2.141941547393799,-1.3335352551988144,-2.5263477007495325,6.110787617951193,1.016608476638794,-2.022945229207174
1708434879.7769527,-2.1419777870178223,-1.3335563105395813,-2.5263176600085657,6.110844242363729,1.0166206359863281,-2.022933308278219
1708434879.7789164,-2.141975164413452,-1.3335726422122498,-2.5263689200030726,6.110877859383383,1.0165950059890747,-2.022970501576559
1708434879.7809095,-2.1419448852539062,-1.333587886100151,-2.5263312498675745,6.11082802990035,1.0166325569152832,-2.02297813097109
1708434879.7829323,-2.141953945159912,-1.3335100573352356,-2.5263267199145716,6.110820400505819,1.0166343450546265,-2.022982899342672
1708434879.7849152,-2.142002582550049,-1.333526389007904,-2.5263477007495325,6.110805022507467,1.0165921449661255,-2.0229361693011683
1708434879.7869,-2.141921043395996,-1.3335189533284684,-2.5263386408435267,6.110845315247335,1.016634225845337,-2.023011032735006
1708434879.7889156,-2.141937017440796,-1.3335352700999756,-2.5263147989856165,6.1108648655708215,1.0166206359863281,-2.022949520741598
1708434879.7908943,-2.141949415206909,-1.333514468078949,-2.5263312498675745,6.110841023712911,1.016625165939331,-2.022987190877096
1708434879.7929199,-2.141953945159912,-1.3335277450135727,-2.5263643900500696,6.110803115158834,1.0166206359863281,-2.022912327443258
1708434879.7948902,-2.1419777870178223,-1.3335726422122498,-2.5263567606555384,6.110820400505819,1.0166206359863281,-2.022942368184225
1708434879.7969263,-2.1419575214385986,-1.3335845631412049,-2.5263028780566614,6.110799538880148,1.0166128873825073,-2.022933308278219
1708434879.7989,-2.1419732570648193,-1.333588958983757,-2.5263267199145716,6.110849725991049,1.0165921449661255,-2.022949520741598
1708434879.800884,-2.1419618129730225,-1.3335352700999756,-2.5263312498675745,6.1108367321784876,1.0165679454803467,-2.022929016743795
1708434879.8029327,-2.141975164413452,-1.33354406178508,-2.5263221899615687,6.1107919094856165,1.0165680646896362,-2.022899929677145
1708434879.8048978,-2.1419405937194824,-1.3335430336049576,-2.5263176600085657,6.1108248112495325,1.016629695892334,-2.02295428911318
1708434879.8069522,-2.141982316970825,-1.333547444348671,-2.5263357798205774,6.1108529446418665,1.0166010856628418,-2.022895638142721
1708434879.8089206,-2.1419575214385986,-1.3334893447211762,-2.5263477007495325,6.110829102783956,1.0165798664093018,-2.022883717213766
1708434879.8108888,-2.1419575214385986,-1.3335070473006745,-2.5263522307025355,6.1108367321784876,1.0165798664093018,-2.022895638142721
1708434879.8129551,-2.141953945159912,-1.3335474294475098,-2.5263147989856165,6.110808241158285,1.0166010856628418,-2.022987190877096
1708434879.814959,-2.141928195953369,-1.3335726422122498,-2.5263312498675745,6.110799538880148,1.0165679454803467,-2.022953812276022
1708434879.8169534,-2.14189076423645,-1.333526389007904,-2.5263221899615687,6.110816108971395,1.0166175365447998,-2.022916618977682
1708434879.8189445,-2.142014980316162,-1.3335563105395813,-2.5263312498675745,6.110845315247335,1.016608476638794,-2.022996250783102
1708434879.8209007,-2.1419618129730225,-1.3335430336049576,-2.5263102690326136,6.1108648655708215,1.0166130065917969,-2.0228970686541956
1708434879.8229363,-2.141984701156616,-1.3335233491710206,-2.5263312498675745,6.110808121948995,1.0166128873825073,-2.022916618977682
1708434879.8249407,-2.1419618129730225,-1.3335769784501572,-2.5263074080096644,6.110799538880148,1.016603946685791,-2.0229252020465296
1708434879.8269536,-2.141989231109619,-1.3335725975087662,-2.5263357798205774,6.110839950829305,1.0165921449661255,-2.0229209105121058
1708434879.8290417,-2.1419529914855957,-1.3335101020387192,-2.5263567606555384,6.1108648655708215,1.016634225845337,-2.0229132811175745
1708434879.8309457,-2.1419076919555664,-1.3334981364062806,-2.5262983481036585,6.110901701241293,1.0166206359863281,-2.022904698048727
1708434879.8329325,-2.141989231109619,-1.333559350376465,-2.5263312498675745,6.11083351352767,1.016608476638794,-2.0228689352618616
1708434879.8348975,-2.1419618129730225,-1.3335845184377213,-2.5263147989856165,6.1108237383659265,1.0166010856628418,-2.0229013601886194
1708434879.8369458,-2.141993761062622,-1.3335474294475098,-2.5262730757342737,6.110800730973043,1.0165632963180542,-2.0229294935809534
1708434879.8389482,-2.141953945159912,-1.333501176243164,-2.5263357798205774,6.110894310265341,1.0165376663208008,-2.0229013601886194
1708434879.8408978,-2.1419572830200195,-1.3335563105395813,-2.5263357798205774,6.110829102783956,1.016650676727295,-2.0228970686541956
1708434879.8429425,-2.1419689655303955,-1.3335888993791123,-2.5263238588916224,6.110845315247335,1.016634225845337,-2.0229342619525355
1708434879.844925,-2.141984701156616,-1.3335101020387192,-2.5263357798205774,6.110805022507467,1.016592025756836,-2.022892777119772
1708434879.846926,-2.1419732570648193,-1.333534137611725,-2.5263386408435267,6.110827910691061,1.0165843963623047,-2.0229104200946253
1708434879.8489206,-2.141998052597046,-1.3335430485061188,-2.5263147989856165,6.11085723617629,1.0165753364562988,-2.0228689352618616
1708434879.8508892,-2.1419689655303955,-1.3335845184377213,-2.5262983481036585,6.110816943436422,1.0165843963623047,-2.0228732267962855
1708434879.852948,-2.141998052597046,-1.3335175526193161,-2.5263267199145716,6.110854136734762,1.0165798664093018,-2.0228851477252405
1708434879.854901,-2.1420061588287354,-1.3335474294475098,-2.5263689200030726,6.11085723617629,1.0165965557098389,-2.0228446165667933
1708434879.8569353,-2.1419732570648193,-1.3335189533284684,-2.5263477007495325,6.1108378050620935,1.0165965557098389,-2.0228894392596644
1708434879.8589807,-2.142002582550049,-1.3335100573352356,-2.5263147989856165,6.110778915673055,1.016587495803833,-2.0228851477252405
1708434879.8609548,-2.141989231109619,-1.3335932952216645,-2.5262654463397425,6.110861527710714,1.0165889263153076,-2.0228894392596644
1708434879.8629413,-2.141982316970825,-1.3335056465915223,-2.5262983481036585,6.110845315247335,1.0165753364562988,-2.0228355566607874
1708434879.8649163,-2.1419529914855957,-1.3335474294475098,-2.5263477007495325,6.11083351352767,1.0165512561798096,-2.0228474775897425
1708434879.8669348,-2.1419970989227295,-1.3334981364062806,-2.5262864271747034,6.110829102783956,1.0165934562683105,-2.0228851477252405
1708434879.8689468,-2.141984701156616,-1.33354406178508,-2.5263102690326136,6.110800611763754,1.0165303945541382,-2.0228355566607874
1708434879.8709233,-2.141982316970825,-1.3336055439761658,-2.5263193289386194,6.110845434456625,1.0165921449661255,-2.022853199635641
1708434879.8729568,-2.141937017440796,-1.3335725975087662,-2.5263238588916224,6.1108038304145715,1.016631007194519,-2.022865120564596
1708434879.8749316,-2.142014980316162,-1.3335396659425278,-2.5263567606555384,6.110854136734762,1.0165965557098389,-2.022886578236715
1708434879.8769379,-2.142002582550049,-1.3335307997516175,-2.5263193289386194,6.110837924271383,1.0165843963623047,-2.0228732267962855
1708434879.8789258,-2.141993761062622,-1.3335888993791123,-2.5262983481036585,6.110800730973043,1.0165965557098389,-2.0228284041034144
1708434879.8809168,-2.141982316970825,-1.3335682165673752,-2.5262864271747034,6.1108038304145715,1.0165603160858154,-2.022832695637838
1708434879.8829503,-2.141998052597046,-1.3335220229676743,-2.5263193289386194,6.11083351352767,1.0165603160858154,-2.022816006337301
1708434879.8849313,-2.1420016288757324,-1.3335307997516175,-2.5263074080096644,6.11085723617629,1.0165603160858154,-2.0228574911700647
1708434879.8869398,-2.1419529914855957,-1.3335144829801102,-2.5262742678271692,6.110845315247335,1.0165724754333496,-2.02286941209902
1708434879.8889186,-2.142010450363159,-1.3335845184377213,-2.5263522307025355,6.110861527710714,1.0166343450546265,-2.022860829030172
1708434879.8909237,-2.1420228481292725,-1.3335189533284684,-2.5262983481036585,6.110841023712911,1.0166012048721313,-2.0228284041034144
1708434879.8929336,-2.1419618129730225,-1.3335352700999756,-2.5262909571277063,6.110809314041891,1.0165634155273438,-2.0228245894061487
1708434879.8949049,-2.1419801712036133,-1.333526389007904,-2.5263074080096644,6.110809314041891,1.0165934562683105,-2.022841278706686
1708434879.8969274,-2.1419689655303955,-1.3335725975087662,-2.52635366121401,6.11085723617629,1.0165692567825317,-2.022853199635641
1708434879.8989267,-2.1420016288757324,-1.333617464905121,-2.5263522307025355,6.110845315247335,1.016577124595642,-2.02286941209902
1708434879.9009054,-2.1419663429260254,-1.3335430485061188,-2.5262697378741663,6.11079632022933,1.0165393352508545,-2.02286941209902
1708434879.9029183,-2.141993761062622,-1.3335922968438645,-2.5263238588916224,6.1107756970222376,1.0165512561798096,-2.022816006337301
1708434879.904929,-2.141989231109619,-1.333539680843689,-2.5263238588916224,6.110848653107443,1.0166056156158447,-2.022881809865133
1708434879.9069278,-2.1419777870178223,-1.3335474294475098,-2.526304546986715,6.1108529446418665,1.016518473625183,-2.02286941209902
1708434879.9089124,-2.1419405937194824,-1.3335562956384202,-2.526283327733175,6.110805022507467,1.0166056156158447,-2.022881809865133
1708434879.9109237,-2.1420061588287354,-1.3334981811097641,-2.5262983481036585,6.11083351352767,1.0165815353393555,-2.022860829030172
1708434879.9129417,-2.141949415206909,-1.3335725975087662,-2.5262864271747034,6.110842096596517,1.0165438652038574,-2.022836987172262
1708434879.9149103,-2.1419689655303955,-1.3335483384183426,-2.5262954870807093,6.1108378050620935,1.0165815353393555,-2.022865120564596
1708434879.9169235,-2.142010450363159,-1.3334938001683732,-2.5263193289386194,6.110879051476278,1.016543984413147,-2.022836987172262
1708434879.9189506,-2.1419451236724854,-1.3335277301124115,-2.5262697378741663,6.110854017525472,1.0165603160858154,-2.0228822867022913
1708434879.9209182,-2.1419777870178223,-1.3335220229676743,-2.5263238588916224,6.110800730973043,1.0165603160858154,-2.022848908101217
1708434879.9229722,-2.1419575214385986,-1.3335726422122498,-2.5263119379626673,6.110787737160482,1.0165815353393555,-2.022832695637838
1708434879.924919,-2.1419599056243896,-1.3335800629905243,-2.526278797780172,6.110837924271383,1.0165692567825317,-2.0228732267962855
1708434879.9269185,-2.141998052597046,-1.3335386377624054,-2.5263493696795862,6.110771405487814,1.0164940357208252,-2.022860829030172
1708434879.9290175,-2.142014980316162,-1.333502636556961,-2.5262742678271692,6.110829102783956,1.0165573358535767,-2.022848908101217
1708434879.9309635,-2.1419732570648193,-1.333551899795868,-2.526320997868673,6.11079632022933,1.0165648460388184,-2.022804562245504
1708434879.9329095,-2.141989231109619,-1.3335430485061188,-2.5263329187976282,6.1108248112495325,1.016527533531189,-2.022806946431295
1708434879.9349267,-2.1419689655303955,-1.3334910583547135,-2.526266876851217,6.110837924271383,1.0165784358978271,-2.022862259541647
1708434879.9369073,-2.1419689655303955,-1.3335386526635666,-2.526287857686178,6.110820519715109,1.0165647268295288,-2.022874180470602
1708434879.9389422,-2.141998052597046,-1.3335430336049576,-2.526300017033712,6.110800611763754,1.0165364742279053,-2.022860829030172
1708434879.9409397,-2.1419405937194824,-1.3335519146970292,-2.526309076939718,6.110858428269186,1.0164985656738281,-2.022853199635641
1708434879.9429085,-2.141998291015625,-1.3335233491710206,-2.526300017033712,6.110800730973043,1.0165528059005737,-2.022808853779928
1708434879.9449039,-2.141993761062622,-1.3335352700999756,-2.526287857686178,6.110800730973043,1.0165029764175415,-2.0228284041034144
1708434879.9469175,-2.1420228481292725,-1.333551899795868,-2.5262637774096888,6.11079632022933,1.016532063484192,-2.022874180470602
1708434879.9489367,-2.1420273780822754,-1.3335725975087662,-2.526266876851217,6.110812532692709,1.0165408849716187,-2.022860829030172
1708434879.9509091,-2.1419732570648193,-1.3335070473006745,-2.526284996663229,6.1108378050620935,1.0165528059005737,-2.022816006337301
1708434879.9529004,-2.1419451236724854,-1.3334893447211762,-2.5262683073626917,6.110820519715109,1.016532063484192,-2.022775475178854
1708434879.9549034,-2.1419644355773926,-1.3335922968438645,-2.526238266621725,6.110805022507467,1.0165408849716187,-2.022874180470602
1708434879.9569054,-2.1420140266418457,-1.3335264188102265,-2.5262518564807337,6.110769140511312,1.0165245532989502,-2.022816006337301
1708434879.9589274,-2.1419599056243896,-1.3335430485061188,-2.526238266621725,6.1107919094856165,1.016532063484192,-2.0228446165667933
1708434879.9613,-2.141984701156616,-1.3335474294475098,-2.5262683073626917,6.11080168464736,1.0165529251098633,-2.022832695637838
1708434879.9629076,-2.1419689655303955,-1.3335352700999756,-2.526275936757223,6.110845315247335,1.0165292024612427,-2.0228331724749964
1708434879.9649158,-2.141989231109619,-1.3335174930146714,-2.52622634569277,6.110776889115133,1.0165292024612427,-2.022820297871725
1708434879.9669094,-2.142014980316162,-1.3335277301124115,-2.5262308756457728,6.110825645714559,1.016491174697876,-2.022865120564596
1708434879.9689255,-2.141993761062622,-1.3335386526635666,-2.5262308756457728,6.110834228783407,1.0165245532989502,-2.0228574911700647
1708434879.9709268,-2.1419529914855957,-1.3335682314685364,-2.5262518564807337,6.110845315247335,1.0165364742279053,-2.022836987172262
1708434879.972899,-2.1419777870178223,-1.3335922968438645,-2.5262489954577845,6.1108378050620935,1.016491174697876,-2.0227845350848597
1708434879.9749048,-2.1419928073883057,-1.333563746219017,-2.5261932055102747,6.110800730973043,1.0165200233459473,-2.022804562245504
1708434879.976901,-2.1420061588287354,-1.3335562956384202,-2.5261617342578333,6.11080168464736,1.0165292024612427,-2.022869888936178
1708434879.9789221,-2.1419618129730225,-1.3335307997516175,-2.5262532869922083,6.110805022507467,1.0165245532989502,-2.022792164479391
1708434879.9809222,-2.1419732570648193,-1.333489404325821,-2.5262444655047815,6.110842096596517,1.016486644744873,-2.022836987172262
1708434879.9828978,-2.142043352127075,-1.3335320514491578,-2.5262158552752894,6.110837924271383,1.0165002346038818,-2.022820297871725
1708434879.9849162,-2.141984701156616,-1.3335923117450257,-2.5261855761157435,6.110806095391073,1.016533613204956,-2.022832695637838
1708434879.986928,-2.1419804096221924,-1.333551899795868,-2.5262489954577845,6.110788810044088,1.0164793729782104,-2.022808853779928
1708434879.98891,-2.1419928073883057,-1.3335563105395813,-2.526229206715719,6.110829937248983,1.0165245532989502,-2.0228284041034144
1708434879.990918,-2.1420140266418457,-1.333575652246811,-2.5261946360217493,6.110813724785604,1.0164839029312134,-2.022815529500143
1708434879.9929008,-2.1420228481292725,-1.3335233491710206,-2.5261901060687464,6.110760676651754,1.016495704650879,-2.022813145314352
1708434879.994908,-2.1419689655303955,-1.3335100573352356,-2.5262158552752894,6.1108248112495325,1.0165075063705444,-2.0228245894061487
1708434879.9969423,-2.1420016288757324,-1.3335189682296296,-2.5262203852282923,6.110805022507467,1.0165047645568848,-2.0228174368487757
1708434879.99896,-2.1419970989227295,-1.3335307997516175,-2.5261736551867884,6.110842215805807,1.0165046453475952,-2.0228284041034144
1708434880.0009,-2.1420273780822754,-1.333513156776764,-2.5261946360217493,6.110793101578512,1.0164719820022583,-2.022799793873922
1708434880.002917,-2.1419804096221924,-1.3335563105395813,-2.5262399355517786,6.110805022507467,1.0164642333984375,-2.022787396107809
1708434880.0049212,-2.141989231109619,-1.3335352700999756,-2.5262325445758265,6.110793101578512,1.0164763927459717,-2.0228284041034144
1708434880.0069146,-2.1419689655303955,-1.3335277450135727,-2.5262370745288294,6.1108049032981775,1.0164507627487183,-2.022836987172262
1708434880.0089417,-2.1420388221740723,-1.333502636556961,-2.5262158552752894,6.110785472183981,1.0164597034454346,-2.022820297871725
1708434880.0109117,-2.1419804096221924,-1.3335396510413666,-2.5262370745288294,6.110825645714559,1.0164523124694824,-2.022841278706686
1708434880.012936,-2.1420140266418457,-1.3335144829801102,-2.5262532869922083,6.110793101578512,1.0164973735809326,-2.022813145314352
1708434880.014929,-2.1419689655303955,-1.3335233491710206,-2.5262113253222864,6.110793101578512,1.0164356231689453,-2.0228288809405726
1708434880.0169008,-2.141989231109619,-1.3335474294475098,-2.5262158552752894,6.110794174462118,1.0164927244186401,-2.022808853779928
1708434880.0189157,-2.1419804096221924,-1.3335189682296296,-2.526224915181295,6.110793101578512,1.0164597034454346,-2.022820297871725
1708434880.0208926,-2.1419804096221924,-1.3335682165673752,-2.5262370745288294,6.1107486365135095,1.0164732933044434,-2.022832695637838
1708434880.0228941,-2.1419732570648193,-1.333514468078949,-2.5261917749988,6.110813605576315,1.0164732933044434,-2.022816006337301
1708434880.0248978,-2.1420273780822754,-1.3335519146970292,-2.5261781851397913,6.11082552650527,1.0164719820022583,-2.022804562245504
1708434880.0269,-2.1419732570648193,-1.3335682165673752,-2.526203695927755,6.1107486365135095,1.0164310932159424,-2.022792164479391
1708434880.0289683,-2.1419928073883057,-1.3335264039090653,-2.5261901060687464,6.110810386925497,1.0164899826049805,-2.022799793873922
1708434880.0309935,-2.141984701156616,-1.3334981513074418,-2.5262158552752894,6.110805022507467,1.0164310932159424,-2.022820297871725
1708434880.0329623,-2.1420016288757324,-1.3335219782641907,-2.5262158552752894,6.110810386925497,1.0164809226989746,-2.022836987172262
1708434880.034965,-2.1420273780822754,-1.3335725975087662,-2.5262416044818323,6.110760557442465,1.0164763927459717,-2.0227964560138147
1708434880.0368984,-2.142036199569702,-1.3335430336049576,-2.526208225880758,6.110838520317831,1.0164686441421509,-2.0228288809405726
1708434880.038923,-2.1419663429260254,-1.33354406178508,-2.5261781851397913,6.110781180649557,1.0164686441421509,-2.022804562245504
1708434880.0409353,-2.1420185565948486,-1.3335352700999756,-2.526203695927755,6.110822307854452,1.0164763927459717,-2.022853199635641
1708434880.0428972,-2.1419970989227295,-1.3335341823152085,-2.5261693636523646,6.110818016320028,1.0164401531219482,-2.0227955023394983
1708434880.0448973,-2.1419732570648193,-1.3335189682296296,-2.5262067953692835,6.110780107765951,1.0164310932159424,-2.0227912108050745
1708434880.0468967,-2.1420319080352783,-1.3335396659425278,-2.5262325445758265,6.110782253533163,1.0164445638656616,-2.0228446165667933
1708434880.048913,-2.1419777870178223,-1.3335264039090653,-2.526224915181295,6.110786545067587,1.0164777040481567,-2.022804562245504
1708434880.0509195,-2.1419970989227295,-1.333526389007904,-2.5262113253222864,6.110752928047933,1.0164642333984375,-2.022792164479391
1708434880.0529046,-2.1420140266418457,-1.333580033188202,-2.5262113253222864,6.110785472183981,1.016414761543274,-2.022813145314352
1708434880.0549192,-2.142031669616699,-1.3335519146970292,-2.526208225880758,6.110769259720602,1.0164568424224854,-2.0228288809405726
1708434880.0569363,-2.141993761062622,-1.3335430336049576,-2.5262325445758265,6.110806095391073,1.0164523124694824,-2.02286941209902
1708434880.0589416,-2.141984701156616,-1.333514468078949,-2.5261827150927942,6.110745417862692,1.0164310932159424,-2.022836987172262
1708434880.060914,-2.141989231109619,-1.3335682314685364,-2.5261827150927942,6.110728847771444,1.0163997411727905,-2.022815529500143
1708434880.0629334,-2.141993761062622,-1.3335026514581223,-2.5262370745288294,6.110728847771444,1.0164191722869873,-2.022808853779928
1708434880.0649462,-2.1419644355773926,-1.3335352700999756,-2.526175324116842,6.110741841584005,1.0164568424224854,-2.0228503386126917
1708434880.0669196,-2.141984701156616,-1.3335923117450257,-2.5262113253222864,6.110782372742452,1.0164356231689453,-2.022816006337301
1708434880.0689359,-2.1419777870178223,-1.333559350376465,-2.5261290709124964,6.110741960793295,1.0164568424224854,-2.022804562245504
1708434880.0709162,-2.1420061588287354,-1.3335189682296296,-2.5261991659747522,6.110712635308065,1.016416072845459,-2.0228331724749964
1708434880.072917,-2.1420230865478516,-1.3335519444993515,-2.5262354055987757,6.1107181189353845,1.0164536237716675,-2.022813145314352
1708434880.0749378,-2.1420061588287354,-1.333554969435074,-2.5262113253222864,6.110774743347921,1.0164523124694824,-2.0228455702411097
1708434880.0769062,-2.1420016288757324,-1.3335682314685364,-2.5261946360217493,6.110688793450155,1.0164945125579834,-2.0227964560138147
1708434880.0789108,-2.1419970989227295,-1.3336099994233628,-2.526203695927755,6.11070071437911,1.0164237022399902,-2.0228546301471155
1708434880.0809171,-2.1420016288757324,-1.3335189533284684,-2.5261781851397913,6.110750663071432,1.016420602798462,-2.0228455702411097
1708434880.082925,-2.1419732570648193,-1.3335637313178559,-2.5262203852282923,6.110664713173666,1.016416072845459,-2.0228245894061487
1708434880.084915,-2.1419970989227295,-1.333526389007904,-2.5261991659747522,6.110673415451803,1.0164356231689453,-2.022808853779928
1708434880.0869055,-2.142014980316162,-1.3335725975087662,-2.5261617342578333,6.110697495728292,1.0164070129394531,-2.0227964560138147
1708434880.0889168,-2.141989231109619,-1.333510087137558,-2.5262158552752894,6.110697495728292,1.0164282321929932,-2.022841278706686
1708434880.0909402,-2.142037868499756,-1.3335800480893631,-2.5261662642108362,6.110652792244711,1.0164536237716675,-2.022820297871725
1708434880.092967,-2.141989231109619,-1.333514468078949,-2.526212517415182,6.110714781075277,1.0164536237716675,-2.0228455702411097
1708434880.0949247,-2.141984701156616,-1.3334777516177674,-2.5262654463397425,6.110641228943624,1.016395092010498,-2.022813145314352
1708434880.0969396,-2.141993761062622,-1.3334733557752152,-2.5262280146228235,6.110656010895529,1.016411542892456,-2.0228546301471155
1708434880.0989597,-2.1419804096221924,-1.3335682165673752,-2.5262203852282923,6.110652792244711,1.0164024829864502,-2.022792164479391
1708434880.1009295,-2.1419758796691895,-1.333551899795868,-2.5261409918414515,6.1107061980064294,1.0164401531219482,-2.0228331724749964
1708434880.102921,-2.1419689655303955,-1.3335430485061188,-2.526187245045797,6.110685336380758,1.016395092010498,-2.0228288809405726
1708434880.1049106,-2.1419644355773926,-1.3335307848504563,-2.526229206715719,6.110676634102621,1.016432762145996,-2.022820297871725
1708434880.1069672,-2.142043352127075,-1.3335145276835938,-2.5262203852282923,6.110673415451803,1.016437292098999,-2.022813145314352
1708434880.1089156,-2.1420228481292725,-1.3335606169751664,-2.526187245045797,6.110661494522848,1.0164237022399902,-2.022775475178854
1708434880.1108875,-2.1419732570648193,-1.333530769949295,-2.526154343281881,6.110677706986227,1.0164282321929932,-2.0228288809405726
1708434880.1129136,-2.141989231109619,-1.3335975867560883,-2.526203695927755,6.110689627915182,1.016395092010498,-2.022895161305563
1708434880.1149092,-2.141989231109619,-1.3335563105395813,-2.5261617342578333,6.110645520478048,1.016395092010498,-2.022836987172262
1708434880.1169019,-2.1419529914855957,-1.3335519146970292,-2.526203695927755,6.110722529679098,1.016432762145996,-2.0228174368487757
1708434880.118908,-2.14200496673584,-1.3335430336049576,-2.526187245045797,6.110661494522848,1.0164191722869873,-2.0228574911700647
1708434880.1209395,-2.1419777870178223,-1.3335057210973282,-2.526187245045797,6.110677706986227,1.016437292098999,-2.0228245894061487
1708434880.1229143,-2.1420388221740723,-1.3334821921638031,-2.5261917749988,6.110673415451803,1.0164613723754883,-2.0228455702411097
1708434880.124947,-2.1420388221740723,-1.3335233193686982,-2.526187245045797,6.110661494522848,1.016395092010498,-2.0228245894061487
1708434880.1269,-2.1420319080352783,-1.3335756969502945,-2.526170794163839,6.110657202988424,1.016404151916504,-2.0228503386126917
1708434880.128939,-2.1419804096221924,-1.3335440170815964,-2.5262113253222864,6.110661494522848,1.016449213027954,-2.0228217283831995
1708434880.1310437,-2.142002582550049,-1.3335341823152085,-2.526175324116842,6.110714781075277,1.0164070129394531,-2.0228331724749964
1708434880.1330013,-2.1419758796691895,-1.3335189831307908,-2.5261736551867884,6.110677706986227,1.016416072845459,-2.022780243550436
1708434880.13495,-2.1419529914855957,-1.3335114282420655,-2.5262370745288294,6.110620367317953,1.0163906812667847,-2.022841278706686
1708434880.1369092,-2.1420228481292725,-1.3335189682296296,-2.526203695927755,6.11063979843215,1.0164581537246704,-2.022816006337301
1708434880.1388984,-2.1419689655303955,-1.3335220229676743,-2.5262399355517786,6.110645520478048,1.016449213027954,-2.022813145314352
1708434880.1409585,-2.1420388221740723,-1.3335649383119126,-2.5262280146228235,6.110710608750143,1.016404151916504,-2.0228245894061487
1708434880.142924,-2.1420140266418457,-1.3335681718638916,-2.5262563864337366,6.110652911454,1.0164282321929932,-2.0228245894061487
1708434880.144947,-2.1420185565948486,-1.3335307848504563,-2.5261917749988,6.110673415451803,1.016395092010498,-2.0228174368487757
1708434880.146926,-2.1420342922210693,-1.3335681718638916,-2.526203695927755,6.110641228943624,1.016416072845459,-2.0228331724749964
1708434880.1489692,-2.141989231109619,-1.3335726422122498,-2.5261901060687464,6.110702621727743,1.0164070129394531,-2.0227683226214808
1708434880.1509469,-2.1419689655303955,-1.3335320514491578,-2.5261290709124964,6.110648500710287,1.016432762145996,-2.0227888266192835
1708434880.1529436,-2.1420342922210693,-1.333554969435074,-2.5261662642108362,6.110645520478048,1.0164238214492798,-2.0227683226214808
1708434880.1549258,-2.1419804096221924,-1.3335922968438645,-2.526170794163839,6.110654222756185,1.016449213027954,-2.0228245894061487
1708434880.1569326,-2.1420016288757324,-1.3335386675647278,-2.5262203852282923,6.110686409264364,1.0164024829864502,-2.0228007475482386
1708434880.1589715,-2.14200496673584,-1.3335681718638916,-2.5261662642108362,6.11060510852889,1.0164401531219482,-2.0228174368487757
1708434880.1609302,-2.1419529914855957,-1.3335264039090653,-2.526170794163839,6.110657202988424,1.016432762145996,-2.0227964560138147
1708434880.1629658,-2.1419732570648193,-1.3335220378688355,-2.5261991659747522,6.110633241921224,1.0164568424224854,-2.0227811972247522
1708434880.1649702,-2.1420061588287354,-1.3335430336049576,-2.5262158552752894,6.110649812012472,1.016404151916504,-2.0228050390826624
1708434880.166961,-2.1420228481292725,-1.333563746219017,-2.5262325445758265,6.110689627915182,1.0164445638656616,-2.0228379408465784
1708434880.1689205,-2.1420140266418457,-1.3335352700999756,-2.5261827150927942,6.110673415451803,1.016432762145996,-2.0227845350848597
1708434880.1709282,-2.1419689655303955,-1.3335888546756287,-2.526203695927755,6.110596525460043,1.016449213027954,-2.022780243550436
1708434880.1729443,-2.1419880390167236,-1.3335682165673752,-2.5261736551867884,6.110654222756185,1.016437292098999,-2.02283746400942
1708434880.1749299,-2.1420094966888428,-1.33354406178508,-2.5261991659747522,6.110654222756185,1.016437292098999,-2.0228093306170862
1708434880.1769328,-2.141989231109619,-1.3335519146970292,-2.5261991659747522,6.110641228943624,1.0163787603378296,-2.022775475178854
1708434880.1789603,-2.1419484615325928,-1.3335220676711579,-2.5261781851397913,6.1106289503868005,1.0163906812667847,-2.022813145314352
1708434880.1809437,-2.1419732570648193,-1.3335233491710206,-2.5261736551867884,6.110654222756185,1.0164282321929932,-2.0228217283831995
1708434880.1829472,-2.1420228481292725,-1.333568201666214,-2.5261991659747522,6.110608446388998,1.016432762145996,-2.0227964560138147
1708434880.184923,-2.141993761062622,-1.3335026812604447,-2.526208225880758,6.1106300232704065,1.0164659023284912,-2.0227931181537073
1708434880.1869771,-2.1419804096221924,-1.3335233938745041,-2.5262113253222864,6.110633241921224,1.0164659023284912,-2.0227931181537073
1708434880.1889412,-2.1420094966888428,-1.33354406178508,-2.5261901060687464,6.110670196800985,1.0164401531219482,-2.0227602163897913
1708434880.190928,-2.141989231109619,-1.3335070323995133,-2.5261827150927942,6.110669123917379,1.0164070129394531,-2.0228174368487757
1708434880.1929545,-2.141989231109619,-1.3335264486125489,-2.5261617342578333,6.110670196800985,1.016449213027954,-2.0227964560138147
1708434880.1949115,-2.1419804096221924,-1.3334938001683732,-2.5262280146228235,6.110593306809225,1.016449213027954,-2.022780243550436
1708434880.1969302,-2.1420300006866455,-1.333580033188202,-2.5262203852282923,6.11060510852889,1.016432762145996,-2.0227635542498987
1708434880.1989737,-2.1419689655303955,-1.333563746219017,-2.5261662642108362,6.110625731735983,1.0164401531219482,-2.0227726141559046
1708434880.2009358,-2.1419804096221924,-1.3335101169398804,-2.5262203852282923,6.110661494522848,1.016411542892456,-2.0228093306170862
1708434880.2029285,-2.1419689655303955,-1.3335277450135727,-2.526187245045797,6.110637652664938,1.0164282321929932,-2.0227602163897913
1708434880.2049134,-2.1419804096221924,-1.3335307848504563,-2.526187245045797,6.110650646477499,1.0164568424224854,-2.0227440039264124
1708434880.2069564,-2.142010450363159,-1.3335932952216645,-2.526187245045797,6.110621320992269,1.016432762145996,-2.0227769056903284
1708434880.2089252,-2.141984701156616,-1.333526374106743,-2.5261946360217493,6.110690700798788,1.0164523124694824,-2.0227931181537073
1708434880.2109025,-2.1419732570648193,-1.333593414430954,-2.526187245045797,6.110654222756185,1.0163861513137817,-2.0227277914630335
1708434880.2129233,-2.1419644355773926,-1.3335430336049576,-2.5262325445758265,6.110625731735983,1.0164282321929932,-2.022790257130758
1708434880.2149029,-2.141984701156616,-1.333539680843689,-2.526187245045797,6.110612737923422,1.0164401531219482,-2.0227769056903284
1708434880.2169306,-2.1420061588287354,-1.3335352700999756,-2.5261827150927942,6.11063431480483,1.0164238214492798,-2.0227931181537073
1708434880.2189035,-2.1419777870178223,-1.3335681867650528,-2.5261455217944544,6.110646354943075,1.0163906812667847,-2.022768799458639
1708434880.2209063,-2.1419732570648193,-1.3335888993791123,-2.5261991659747522,6.110650646477499,1.0164523124694824,-2.0227039496051233
1708434880.222951,-2.1420016288757324,-1.3335352700999756,-2.5262489954577845,6.110593187599935,1.016416072845459,-2.022740666066305
1708434880.2248948,-2.1420140266418457,-1.3335365068963547,-2.5261827150927942,6.1106018898780725,1.016449213027954,-2.0227482954608362
1708434880.2269459,-2.1419484615325928,-1.333605484371521,-2.5262654463397425,6.1106008169944666,1.016416072845459,-2.02275258699526
1708434880.2289588,-2.142010450363159,-1.3335563105395813,-2.5261901060687464,6.110539901047506,1.016449213027954,-2.022773090993063
1708434880.2310133,-2.141989231109619,-1.3335233491710206,-2.5262203852282923,6.110585319786825,1.0164445638656616,-2.022686783467428
1708434880.2329795,-2.1419970989227295,-1.3335725975087662,-2.526203695927755,6.110589015274801,1.0164238214492798,-2.0227440039264124
1708434880.2349458,-2.1419618129730225,-1.3335681718638916,-2.5261693636523646,6.110642063408651,1.016432762145996,-2.0227282683001917
1708434880.236953,-2.1420273780822754,-1.3335563254407425,-2.5261901060687464,6.110643136292257,1.0164295434951782,-2.022740666066305
1708434880.2389433,-2.1419529914855957,-1.3335308146527787,-2.5261662642108362,6.110659348755636,1.016449213027954,-2.0227392355548304
1708434880.2409403,-2.141989231109619,-1.3335277301124115,-2.5262158552752894,6.110658514290609,1.0164659023284912,-2.022710625325338
1708434880.2429366,-2.142036199569702,-1.3334910434535523,-2.5261781851397913,6.110618102341451,1.016432762145996,-2.022723976765768
1708434880.2449245,-2.141989231109619,-1.3335606467774888,-2.5262067953692835,6.11061059215621,1.0164238214492798,-2.022740666066305
1708434880.2469654,-2.1419644355773926,-1.3335440766862412,-2.5262489954577845,6.110622513085165,1.0164446830749512,-2.0227282683001917
1708434880.2489607,-2.141993761062622,-1.3335593205741425,-2.5262325445758265,6.110585319786825,1.0164024829864502,-2.0227368513690394
1708434880.250923,-2.1419484615325928,-1.3335396361402054,-2.5262697378741663,6.11063443401412,1.0164568424224854,-2.022712532673971
1708434880.2529128,-2.1419599056243896,-1.333499701028206,-2.5261946360217493,6.110576736717977,1.0163997411727905,-2.022683922444479
1708434880.2548988,-2.1420016288757324,-1.3334910881570359,-2.5262158552752894,6.110606300621786,1.016449213027954,-2.0227301756488245
1708434880.2569165,-2.1419804096221924,-1.3335518848947068,-2.5262280146228235,6.110557186394491,1.0164070129394531,-2.0227325598346155
1708434880.2589138,-2.1419575214385986,-1.3335352551988144,-2.526203695927755,6.1105573056037805,1.0164445638656616,-2.0227001349078577
1708434880.2609034,-2.1419529914855957,-1.3335769337466736,-2.5261977354632776,6.110585319786825,1.0164445638656616,-2.022695843373434
1708434880.2629366,-2.1419777870178223,-1.3335189831307908,-2.5262325445758265,6.110626923828878,1.0164523124694824,-2.022716824208395
1708434880.264929,-2.142002582550049,-1.3335888993791123,-2.5261736551867884,6.110577809601583,1.0164613723754883,-2.022716824208395
1708434880.26693,-2.1419732570648193,-1.3335070323995133,-2.5262370745288294,6.110557186394491,1.0164401531219482,-2.0227254072772425
1708434880.2689323,-2.1419777870178223,-1.3335114282420655,-2.526203695927755,6.110589730530538,1.0164568424224854,-2.022712532673971
1708434880.2709315,-2.1419529914855957,-1.3335474294475098,-2.5262280146228235,6.110565888672628,1.0164777040481567,-2.0227044264422815
1708434880.272931,-2.141989231109619,-1.333473340874054,-2.5262370745288294,6.110529053002157,1.0163697004318237,-2.0227211157428187
1708434880.2749202,-2.142014980316162,-1.3335474145463486,-2.5262280146228235,6.110594022064962,1.0164613723754883,-2.0227044264422815
1708434880.2769537,-2.1419360637664795,-1.3335233640721817,-2.5262699762927454,6.110564696579733,1.0164356231689453,-2.0226762930499476
1708434880.2789342,-2.1419732570648193,-1.3335189533284684,-2.5261781851397913,6.110546338349142,1.0164401531219482,-2.022658650075094
1708434880.2809007,-2.1419689655303955,-1.333527759914734,-2.5262158552752894,6.110558020859518,1.016432762145996,-2.0226925055133265
1708434880.282945,-2.1419575214385986,-1.3335396659425278,-2.526203695927755,6.11053346374587,1.0163861513137817,-2.0227254072772425
1708434880.2849145,-2.142002582550049,-1.3335277450135727,-2.5261901060687464,6.110573518067159,1.0164237022399902,-2.0227368513690394
1708434880.2869318,-2.1420061588287354,-1.3335396659425278,-2.5261855761157435,6.110558020859518,1.0164703130722046,-2.0227044264422815
1708434880.2889063,-2.141989231109619,-1.3335320514491578,-2.5261901060687464,6.110537874489584,1.0164445638656616,-2.0227211157428187
1708434880.2909093,-2.1419732570648193,-1.3335233640721817,-2.5261946360217493,6.110540735512533,1.0163980722427368,-2.0226882139789026
1708434880.2929313,-2.1419689655303955,-1.3335189533284684,-2.5261736551867884,6.110546338349142,1.0164445638656616,-2.0226596037494105
1708434880.2949305,-2.142010450363159,-1.3335484129241486,-2.5262234846698206,6.110553729325094,1.016411542892456,-2.0226638952838343
1708434880.296936,-2.141986608505249,-1.3335114431432267,-2.5261781851397913,6.110524761467733,1.0163906812667847,-2.0226805845843714
1708434880.2989173,-2.1420228481292725,-1.3335189384273072,-2.5262489954577845,6.110529053002157,1.016449213027954,-2.022713009511129
1708434880.3008904,-2.1419849395751953,-1.3334937405637284,-2.5262158552752894,6.110562312393942,1.0164568424224854,-2.022623840962545
1708434880.3029256,-2.1419804096221924,-1.3335114878467103,-2.5261827150927942,6.1105702994163416,1.016411542892456,-2.022705380116598
1708434880.304921,-2.142036199569702,-1.333478794699051,-2.5261693636523646,6.11049650886611,1.016432762145996,-2.0226925055133265
1708434880.3069572,-2.1420364379882812,-1.3334743839553376,-2.5262370745288294,6.110582101136007,1.0164356231689453,-2.022701088582174
1708434880.308939,-2.141986846923828,-1.3335277450135727,-2.5261855761157435,6.1105995056922815,1.016437292098999,-2.022693459187643
1708434880.3109174,-2.1420061588287354,-1.333523378973343,-2.5261617342578333,6.110553729325094,1.0164536237716675,-2.022672478352682
1708434880.3129585,-2.1419575214385986,-1.3335144531777878,-2.526187245045797,6.110542046814718,1.0164204835891724,-2.0226476828204554
1708434880.3149445,-2.1419732570648193,-1.3335277450135727,-2.5261662642108362,6.110533344536581,1.0164070129394531,-2.022660557423727
1708434880.3169444,-2.141984701156616,-1.333532066350319,-2.5261901060687464,6.1105865118797205,1.016432762145996,-2.02271014848818
1708434880.3189166,-2.141989231109619,-1.3335277152112504,-2.5261736551867884,6.110557901650228,1.0164238214492798,-2.0225985685931605
1708434880.3209302,-2.141932725906372,-1.3335189682296296,-2.5262158552752894,6.110492932587423,1.016449213027954,-2.022648636494772
1708434880.3229535,-2.1419451236724854,-1.3335100573352356,-2.5262158552752894,6.110590922623434,1.0164536237716675,-2.02261192003359
1708434880.3248978,-2.1420071125030518,-1.3335320514491578,-2.5262416044818323,6.11053346374587,1.0164536237716675,-2.022640053425924
1708434880.32692,-2.1419777870178223,-1.3335189533284684,-2.5261736551867884,6.110525834351339,1.016432762145996,-2.022620503102438
1708434880.3289251,-2.141993761062622,-1.3334910434535523,-2.5261736551867884,6.1105995056922815,1.0164523124694824,-2.022590462361471
1708434880.3310158,-2.141989231109619,-1.3334981364062806,-2.5262280146228235,6.1105666039283655,1.0163816213607788,-2.022616211568014
1708434880.3330264,-2.141993761062622,-1.3335396659425278,-2.5261901060687464,6.110531198769369,1.016416072845459,-2.0226076284991663
1708434880.3349307,-2.141932725906372,-1.3335114282420655,-2.5261827150927942,6.110545027046957,1.016404151916504,-2.022660557423727
1708434880.3369324,-2.1419360637664795,-1.33354406178508,-2.5261662642108362,6.110553729325094,1.0164401531219482,-2.0226076284991663
1708434880.3389637,-2.1419575214385986,-1.3334954392961045,-2.5262370745288294,6.110534536629476,1.0164401531219482,-2.022558037434713
1708434880.3409216,-2.1420061588287354,-1.333486632709839,-2.5262067953692835,6.110506045609274,1.016432762145996,-2.022623840962545
1708434880.342958,-2.141998052597046,-1.333486647611,-2.5262325445758265,6.110488879471578,1.0164446830749512,-2.0226367155658167
1708434880.3449192,-2.141989231109619,-1.3335365515998383,-2.526187245045797,6.1104973433311365,1.0164204835891724,-2.022632424031393
1708434880.3469434,-2.141993761062622,-1.3335528683713456,-2.526187245045797,6.110559451370992,1.0164958238601685,-2.022583309804098
1708434880.3489451,-2.1419618129730225,-1.3334981364062806,-2.526187245045797,6.110492932587423,1.016404151916504,-2.0226858297931116
1708434880.350913,-2.1419777870178223,-1.3334910434535523,-2.5261827150927942,6.110488760262289,1.0164536237716675,-2.022628132496969
1708434880.352932,-2.141998052597046,-1.3335352551988144,-2.526154343281881,6.110525834351339,1.0163832902908325,-2.0225656668292444
1708434880.3549457,-2.141958475112915,-1.3335519146970292,-2.5261901060687464,6.110547530442037,1.016416072845459,-2.022632424031393
1708434880.3569648,-2.141923666000366,-1.3335277450135727,-2.526203695927755,6.110565888672628,1.0163878202438354,-2.022595230733053
1708434880.3589554,-2.1419618129730225,-1.3334954690984269,-2.5262444655047815,6.110530125885763,1.016404151916504,-2.022578541432516
1708434880.3609097,-2.141975164413452,-1.3335114282420655,-2.5261736551867884,6.110557901650228,1.0163878202438354,-2.022599522267477
1708434880.3629441,-2.141993761062622,-1.3335189533284684,-2.5261409918414515,6.110534417420187,1.0163922309875488,-2.0226410071002405
1708434880.3649213,-2.141982316970825,-1.3335518401912232,-2.526203695927755,6.110529053002157,1.016437292098999,-2.0226367155658167
1708434880.3669467,-2.141993761062622,-1.3334954392961045,-2.526154343281881,6.110489713936605,1.016399621963501,-2.022616211568014
1708434880.3689294,-2.142010450363159,-1.3335725677064438,-2.5262370745288294,6.110571014672079,1.0164250135421753,-2.022632424031393
1708434880.370906,-2.1419405937194824,-1.3335440319827576,-2.526170794163839,6.110522615700521,1.0163922309875488,-2.0226367155658167
1708434880.3729465,-2.1419575214385986,-1.3335189533284684,-2.5261693636523646,6.11050962188796,1.0163711309432983,-2.022620503102438
1708434880.3749506,-2.142002582550049,-1.3335026961616059,-2.5261781851397913,6.11050163486556,1.0164086818695068,-2.0226123968707483
1708434880.3769412,-2.1419663429260254,-1.3335352402976532,-2.5261409918414515,6.110492932587423,1.0163588523864746,-2.0226367155658167
1708434880.378922,-2.141986608505249,-1.3334954243949433,-2.5261781851397913,6.110493051796713,1.0164132118225098,-2.022632424031393
1708434880.38093,-2.1420228481292725,-1.3335233491710206,-2.5261946360217493,6.110537755280294,1.0163755416870117,-2.0225918928729456
1708434880.3829596,-2.141975164413452,-1.3334997606328507,-2.5262203852282923,6.1105388281639,1.0164012908935547,-2.0226247946368616
1708434880.3849273,-2.1419529914855957,-1.3335189384273072,-2.526187245045797,6.110587584763326,1.0163922309875488,-2.0225961844073694
1708434880.3869367,-2.141993761062622,-1.3335277301124115,-2.526158873234884,6.110513913422384,1.0163846015930176,-2.0226572195636194
1708434880.3889585,-2.1419405937194824,-1.3334744286588212,-2.5261917749988,6.110542046814718,1.0163800716400146,-2.0226452986346644
1708434880.390905,-2.141982316970825,-1.333556355243065,-2.526158873234884,6.110521542816915,1.0163469314575195,-2.022628132496969
1708434880.3929152,-2.141998052597046,-1.333532066350319,-2.526154343281881,6.110485422402181,1.0163710117340088,-2.0226247946368616
1708434880.3949056,-2.1419777870178223,-1.3334821921638031,-2.526158873234884,6.110542046814718,1.0163967609405518,-2.0226662794696253
1708434880.3969216,-2.1419689655303955,-1.3335320216468354,-2.5261946360217493,6.110513913422384,1.0163800716400146,-2.022587601338522
1708434880.398938,-2.141984701156616,-1.3335114133409043,-2.526187245045797,6.110525834351339,1.0163514614105225,-2.022587601338522
1708434880.400894,-2.142010450363159,-1.3335606467774888,-2.5261407534228724,6.110571014672079,1.0163633823394775,-2.0226081053363245
1708434880.4029546,-2.141993761062622,-1.333532066350319,-2.5262158552752894,6.1105865118797205,1.0163092613220215,-2.022628132496969
1708434880.4048846,-2.1420061588287354,-1.333486647611,-2.5262580553637903,6.110525834351339,1.016358733177185,-2.0226290861712855
1708434880.406927,-2.1420016288757324,-1.333502636556961,-2.526203695927755,6.110566723137655,1.016422152519226,-2.0226648489581507
1708434880.4089665,-2.1419618129730225,-1.3335130673697968,-2.5261617342578333,6.110506045609274,1.0163755416870117,-2.0225918928729456
1708434880.410909,-2.142014980316162,-1.3335440468839188,-2.5261781851397913,6.110518204956808,1.0163214206695557,-2.0225799719439905
1708434880.4129453,-2.141975164413452,-1.3335189831307908,-2.5261498133288782,6.1104973433311365,1.0163334608078003,-2.022587601338522
1708434880.4149275,-2.141949415206909,-1.3335440021804352,-2.526187245045797,6.110553729325094,1.0163846015930176,-2.0226452986346644
1708434880.4169312,-2.142019510269165,-1.3335233342698594,-2.526187245045797,6.110522615700521,1.0164014101028442,-2.022604767476217
1708434880.4189289,-2.141923666000366,-1.333458111887314,-2.526224915181295,6.1105388281639,1.0164132118225098,-2.0226290861712855
1708434880.4209254,-2.1419689655303955,-1.333536521797516,-2.526179854069845,6.110542046814718,1.0163891315460205,-2.022648636494772
1708434880.4229412,-2.141989231109619,-1.3335070473006745,-2.5261662642108362,6.110534417420187,1.0163922309875488,-2.0226944128619593
1708434880.42493,-2.1419689655303955,-1.3335233640721817,-2.526175324116842,6.110530125885763,1.0164177417755127,-2.0225961844073694
1708434880.426923,-2.1419777870178223,-1.3335188788226624,-2.5261452833758753,6.110599386482992,1.0163967609405518,-2.0226290861712855
1708434880.4289165,-2.1419529914855957,-1.3335483980229874,-2.526208225880758,6.11050163486556,1.0163800716400146,-2.0226290861712855
1708434880.4309597,-2.1419644355773926,-1.3335277450135727,-2.5261827150927942,6.110583174019613,1.016351580619812,-2.022588555012838
1708434880.4329815,-2.1419618129730225,-1.3335070622018357,-2.5262203852282923,6.110546338349142,1.0163633823394775,-2.0226123968707483
1708434880.4349778,-2.1419732570648193,-1.3335100275329133,-2.5261662642108362,6.110537874489584,1.0164014101028442,-2.0226290861712855
1708434880.4369519,-2.141998052597046,-1.333507017498352,-2.5261917749988,6.110608207970419,1.0164148807525635,-2.0226123968707483
1708434880.43894,-2.1419732570648193,-1.3334910583547135,-2.526187245045797,6.110537874489584,1.0163588523864746,-2.0225961844073694
1708434880.4409108,-2.142002582550049,-1.3335396659425278,-2.526179854069845,6.110530125885763,1.0164014101028442,-2.0226452986346644
1708434880.4428952,-2.1419663429260254,-1.333588958983757,-2.526170794163839,6.110505330353536,1.0163588523864746,-2.0226123968707483
1708434880.4449117,-2.1419732570648193,-1.3335277301124115,-2.5261991659747522,6.110488760262289,1.0163846015930176,-2.0225632826434534
1708434880.446893,-2.1419575214385986,-1.3335352551988144,-2.526187245045797,6.110530125885763,1.0163800716400146,-2.022578541432516
1708434880.448962,-2.141984701156616,-1.3335694533637543,-2.5261827150927942,6.110550749092855,1.0163891315460205,-2.022616688405172
1708434880.450921,-2.141982316970825,-1.3334997457316895,-2.5261991659747522,6.110525834351339,1.0163846015930176,-2.022616688405172
1708434880.452933,-2.1419777870178223,-1.333453730945923,-2.5261617342578333,6.110537755280294,1.0163891315460205,-2.0225961844073694
1708434880.4549026,-2.1420016288757324,-1.3335396510413666,-2.5261617342578333,6.110537755280294,1.0163469314575195,-2.022616688405172
1708434880.4569516,-2.141998052597046,-1.3335070473006745,-2.5261781851397913,6.110521542816915,1.0163846015930176,-2.0225918928729456
1708434880.4589534,-2.1419451236724854,-1.3335114282420655,-2.5261991659747522,6.110566723137655,1.0163755416870117,-2.0226123968707483
1708434880.4609203,-2.1419663429260254,-1.3335070473006745,-2.526229445134298,6.110542046814718,1.0163633823394775,-2.022599522267477
1708434880.4629323,-2.141989231109619,-1.3334744286588212,-2.526170794163839,6.110543119698324,1.0163633823394775,-2.022620503102438
1708434880.4649205,-2.1419708728790283,-1.3335189682296296,-2.5261662642108362,6.110558020859518,1.0163259506225586,-2.0226247946368616
1708434880.4669456,-2.141993761062622,-1.3334867072156449,-2.5261781851397913,6.110505330353536,1.0163514614105225,-2.022587601338522
1708434880.4689128,-2.1419618129730225,-1.3335189682296296,-2.526224915181295,6.110524761467733,1.016339659690857,-2.0225799719439905
1708434880.4709058,-2.141982316970825,-1.3335440170815964,-2.526187245045797,6.110542046814718,1.0163679122924805,-2.022632424031393
1708434880.4729424,-2.1419451236724854,-1.3335307997516175,-2.5261827150927942,6.110546338349142,1.0163679122924805,-2.0225799719439905
1708434880.4749186,-2.1420228481292725,-1.3335114282420655,-2.526187245045797,6.110537755280294,1.0163559913635254,-2.0226081053363245
1708434880.4769483,-2.1419663429260254,-1.3335157197764893,-2.5261736551867884,6.110595094948568,1.0163633823394775,-2.0225918928729456
1708434880.478939,-2.141982316970825,-1.3334788394025345,-2.5261901060687464,6.1105388281639,1.0163846015930176,-2.022620503102438
1708434880.4808993,-2.1419451236724854,-1.3334867072156449,-2.5261736551867884,6.110555040627279,1.016358733177185,-2.022587601338522
1708434880.482938,-2.142010450363159,-1.3334831309369584,-2.5262280146228235,6.1105137942130945,1.0163214206695557,-2.0225518385516565
1708434880.4849265,-2.1419405937194824,-1.333482251768448,-2.5262325445758265,6.1105388281639,1.0163891315460205,-2.0225961844073694
1708434880.4869494,-2.1419618129730225,-1.3335189682296296,-2.5262158552752894,6.110546338349142,1.0163891315460205,-2.0226123968707483
1708434880.4889266,-2.141989231109619,-1.3334656220725556,-2.5261781851397913,6.110545027046957,1.0163588523864746,-2.0225961844073694
1708434880.4909184,-2.1419689655303955,-1.3334656220725556,-2.5261810461627405,6.1105388281639,1.0164086818695068,-2.0226123968707483
1708434880.4929423,-2.1419529914855957,-1.3334492605975647,-2.526187245045797,6.110518204956808,1.0164132118225098,-2.0225918928729456
1708434880.4949036,-2.141984701156616,-1.3335277301124115,-2.526203695927755,6.1105702994163416,1.0163633823394775,-2.0225756804095667
1708434880.4969614,-2.1419575214385986,-1.3335483086160203,-2.526158873234884,6.110545027046957,1.016358733177185,-2.0226333777057093
1708434880.4989371,-2.141986608505249,-1.3334788394025345,-2.5261917749988,6.110488760262289,1.0163679122924805,-2.0225918928729456
1708434880.5009017,-2.141984701156616,-1.3334997457316895,-2.5261946360217493,6.1105865118797205,1.0163679122924805,-2.022616688405172
1708434880.5029273,-2.141986608505249,-1.3334700924209137,-2.526203695927755,6.11058663108901,1.0163724422454834,-2.0226452986346644
1708434880.5049052,-2.1419575214385986,-1.3334656220725556,-2.5261827150927942,6.110537874489584,1.0164012908935547,-2.0225799719439905
1708434880.50692,-2.1420228481292725,-1.3335518848947068,-2.5262158552752894,6.110471236496725,1.0163967609405518,-2.022616688405172
1708434880.5089183,-2.1419777870178223,-1.3335026514581223,-2.5261917749988,6.110529053002157,1.0163723230361938,-2.022616211568014
1708434880.510909,-2.141993522644043,-1.3335277301124115,-2.526187245045797,6.110512840538778,1.0163891315460205,-2.022616211568014
1708434880.5129244,-2.1419732570648193,-1.3335483831218262,-2.5262370745288294,6.110537755280294,1.0163424015045166,-2.022595230733053
1708434880.5149095,-2.141984701156616,-1.3335396510413666,-2.526196304951803,6.110590803414144,1.0163723230361938,-2.0226662794696253
1708434880.5169525,-2.142019510269165,-1.3335233491710206,-2.526179854069845,6.110639917641439,1.0163679122924805,-2.022623840962545
1708434880.5189154,-2.1419687271118164,-1.3334982109120865,-2.5262067953692835,6.110577809601583,1.0163846015930176,-2.022620503102438
1708434880.52091,-2.1419777870178223,-1.3334866774133225,-2.5261662642108362,6.110521542816915,1.0163604021072388,-2.022599522267477
1708434880.522932,-2.1419804096221924,-1.3335483384183426,-2.526175324116842,6.110537874489584,1.0163633823394775,-2.022632424031393
1708434880.5249083,-2.141998052597046,-1.3335233491710206,-2.526175324116842,6.110578882485189,1.0163469314575195,-2.0226004759417933
1708434880.526956,-2.142010450363159,-1.333470032816269,-2.526175324116842,6.110607015877523,1.0164012908935547,-2.0226123968707483
1708434880.5289104,-2.1419732570648193,-1.3335157346776505,-2.5261991659747522,6.1105419276054285,1.0163980722427368,-2.0226500670062464
1708434880.5309165,-2.141993761062622,-1.3334910881570359,-2.5261827150927942,6.110577809601583,1.0163967609405518,-2.022583309804098
1708434880.5330017,-2.1419777870178223,-1.3335114282420655,-2.5262580553637903,6.110562312393942,1.0163633823394775,-2.022632424031393
1708434880.5350795,-2.141989231109619,-1.3334997457316895,-2.5262370745288294,6.110545027046957,1.0163922309875488,-2.0226004759417933
1708434880.5369523,-2.1419777870178223,-1.3335114282420655,-2.526224915181295,6.1105702994163416,1.0163469314575195,-2.022623840962545
1708434880.539005,-2.1419644355773926,-1.3334788394025345,-2.526154343281881,6.110529053002157,1.0163846015930176,-2.022587601338522
1708434880.5409248,-2.1419708728790283,-1.3335233491710206,-2.5261781851397913,6.110578882485189,1.0164132118225098,-2.022648636494772
1708434880.542917,-2.141982316970825,-1.3335026812604447,-2.5262158552752894,6.110582101136007,1.0163846015930176,-2.022628132496969
1708434880.5449185,-2.1420273780822754,-1.3335606765798111,-2.5261946360217493,6.110589730530538,1.0163800716400146,-2.022616211568014
1708434880.5469227,-2.1419618129730225,-1.3335189682296296,-2.5261827150927942,6.11061059215621,1.0163846015930176,-2.022632424031393
1708434880.548911,-2.142010450363159,-1.3335440170815964,-2.5261901060687464,6.1105573056037805,1.0163710117340088,-2.0226038138019007
1708434880.550906,-2.141998052597046,-1.3335114282420655,-2.526170794163839,6.110552894860067,1.0163588523864746,-2.022632424031393
1708434880.5529468,-2.141993761062622,-1.3335440468839188,-2.5262203852282923,6.110606300621786,1.0163588523864746,-2.0225918928729456
1708434880.5549407,-2.141989231109619,-1.3335483384183426,-2.526200834904806,6.110557186394491,1.0163723230361938,-2.0226123968707483
1708434880.5569558,-2.1419777870178223,-1.333552823667862,-2.5261917749988,6.1105573056037805,1.0163633823394775,-2.022620503102438
1708434880.5589478,-2.142002582550049,-1.3334867072156449,-2.526163403187887,6.110582101136007,1.0163922309875488,-2.0226247946368616
1708434880.560923,-2.1419529914855957,-1.3335114282420655,-2.526146952305929,6.110594022064962,1.0163679122924805,-2.0226028601275843
1708434880.56295,-2.141953945159912,-1.3335277301124115,-2.5261917749988,6.110594022064962,1.0163633823394775,-2.022632424031393
1708434880.5648909,-2.142010450363159,-1.3334374886802216,-2.5261827150927942,6.110532033234396,1.0163891315460205,-2.022595230733053
1708434880.5669215,-2.142002582550049,-1.3334954541972657,-2.526170794163839,6.110545027046957,1.0163800716400146,-2.022616211568014
1708434880.5689092,-2.142002582550049,-1.3335070473006745,-2.526203695927755,6.110633241921224,1.0163424015045166,-2.0226123968707483
1708434880.5709,-2.141984701156616,-1.333470032816269,-2.526130501423971,6.110594022064962,1.0163800716400146,-2.022595230733053
1708434880.5729275,-2.1419575214385986,-1.3335189682296296,-2.526203695927755,6.110606300621786,1.016387701034546,-2.0226452986346644
1708434880.5748951,-2.1419777870178223,-1.3335320365479966,-2.526208225880758,6.11060510852889,1.0164132118225098,-2.022628132496969
1708434880.5769427,-2.141986846923828,-1.3335026812604447,-2.5261917749988,6.11060522773818,1.016404151916504,-2.0225961844073694
1708434880.578987,-2.141984701156616,-1.3334982109120865,-2.526203695927755,6.110618102341451,1.0163469314575195,-2.022616211568014
1708434880.580926,-2.141986608505249,-1.333559350376465,-2.5262280146228235,6.110641944199362,1.0163967609405518,-2.0226572195636194
1708434880.5829198,-2.141993761062622,-1.3335277301124115,-2.5261200110064905,6.1106018898780725,1.016335129737854,-2.0226452986346644
1708434880.5849335,-2.1419732570648193,-1.333489404325821,-2.526196304951803,6.110654222756185,1.0163755416870117,-2.0226076284991663
1708434880.586918,-2.141984701156616,-1.3335308146527787,-2.5262234846698206,6.110625731735983,1.0163878202438354,-2.022620503102438
1708434880.5889206,-2.142010450363159,-1.3335277301124115,-2.526170794163839,6.110697495728292,1.0163755416870117,-2.0226367155658167
1708434880.590921,-2.142002582550049,-1.3335649234107514,-2.526196304951803,6.110685336380758,1.0163891315460205,-2.02261192003359
1708434880.592991,-2.141989231109619,-1.3335396510413666,-2.5262203852282923,6.1107672331626794,1.0163679122924805,-2.0225542227374476
1708434880.594931,-2.1419360637664795,-1.333551899795868,-2.526158873234884,6.110676634102621,1.016410231590271,-2.022571388875143
1708434880.5969436,-2.1419122219085693,-1.3335233491710206,-2.526146952305929,6.110713827400961,1.0163800716400146,-2.022648636494772
1708434880.5989218,-2.142040729522705,-1.3335440170815964,-2.5262203852282923,6.1106440899665735,1.0164265632629395,-2.022632424031393
1708434880.600907,-2.141949415206909,-1.333557204609253,-2.526212755833761,6.110684501915731,1.0163633823394775,-2.022616211568014
1708434880.6029108,-2.141998052597046,-1.3335070473006745,-2.5261901060687464,6.110651719361105,1.0163967609405518,-2.022632424031393
1708434880.6049635,-2.141975164413452,-1.3335364770940323,-2.5261662642108362,6.110741841584005,1.0163846015930176,-2.0226290861712855
1708434880.606911,-2.141993761062622,-1.3334997457316895,-2.5261901060687464,6.110749828606405,1.0163633823394775,-2.022623840962545
1708434880.6089299,-2.1419708728790283,-1.3335277301124115,-2.5261827150927942,6.110741841584005,1.0163968801498413,-2.0226367155658167
1708434880.610905,-2.142014980316162,-1.3334744286588212,-2.526187245045797,6.110676514893331,1.0163514614105225,-2.022616211568014
1708434880.612942,-2.1419575214385986,-1.3335440468839188,-2.5261662642108362,6.110721337586202,1.0163800716400146,-2.022578541432516
1708434880.614914,-2.141989231109619,-1.3335233491710206,-2.5262067953692835,6.110722529679098,1.0163967609405518,-2.022599522267477
1708434880.6169562,-2.141984701156616,-1.3335042160800477,-2.526175324116842,6.110676634102621,1.0163846015930176,-2.022648636494772
1708434880.6189406,-2.142014980316162,-1.333552823667862,-2.5261917749988,6.110741841584005,1.0164085626602173,-2.022623840962545
1708434880.62091,-2.1419801712036133,-1.3335233491710206,-2.526187245045797,6.110734450608053,1.0164132118225098,-2.022599522267477
1708434880.6229062,-2.141953945159912,-1.3335189682296296,-2.5261917749988,6.110693204193868,1.0163878202438354,-2.0226367155658167
1708434880.624912,-2.141993761062622,-1.3334788245013733,-2.5262067953692835,6.110725629120626,1.0163800716400146,-2.022616211568014
1708434880.6268895,-2.142002582550049,-1.3335440170815964,-2.5261827150927942,6.1107462523277185,1.0163800716400146,-2.022632424031393
1708434880.6289425,-2.141953945159912,-1.3335145127824326,-2.5261946360217493,6.11063979843215,1.0163666009902954,-2.022672478352682
1708434880.6309226,-2.141982316970825,-1.3335307997516175,-2.526179854069845,6.110661494522848,1.0164177417755127,-2.022616211568014
1708434880.6329596,-2.141984701156616,-1.3334866774133225,-2.5261617342578333,6.110693084984579,1.016437292098999,-2.022648636494772
1708434880.6349392,-2.1419732570648193,-1.3334778112224122,-2.5261991659747522,6.110742914467611,1.0163832902908325,-2.0226452986346644
1708434880.636915,-2.1419575214385986,-1.3335482788136979,-2.5262234846698206,6.110722410469808,1.0164085626602173,-2.022632424031393
1708434880.6389356,-2.1419315338134766,-1.3335725677064438,-2.5261452833758753,6.110693084984579,1.0164132118225098,-2.022660557423727
1708434880.6409042,-2.141993761062622,-1.3335396510413666,-2.5261991659747522,6.110697495728292,1.0163922309875488,-2.022599522267477
1708434880.6429336,-2.1419970989227295,-1.3334910583547135,-2.5262535254107874,6.110672342568197,1.0164085626602173,-2.022648636494772
1708434880.6448987,-2.1419575214385986,-1.3335070473006745,-2.5261917749988,6.110667931824484,1.0163922309875488,-2.022632424031393
1708434880.6469283,-2.1419708728790283,-1.3335189682296296,-2.5262280146228235,6.110713708191671,1.0163800716400146,-2.0226410071002405
1708434880.6489468,-2.141982316970825,-1.3335145127824326,-2.526196304951803,6.1107462523277185,1.0163832902908325,-2.022648636494772
1708434880.6508925,-2.141986846923828,-1.3335101020387192,-2.526224915181295,6.110697376519003,1.0163710117340088,-2.022583309804098
1708434880.6529377,-2.1419754028320312,-1.3335440468839188,-2.526170794163839,6.1107051251228235,1.016404151916504,-2.0226410071002405
1708434880.6548994,-2.1419529914855957,-1.333551899795868,-2.526187245045797,6.110660302429952,1.0163666009902954,-2.022648636494772
1708434880.6569505,-2.141998052597046,-1.3334831309369584,-2.5262113253222864,6.110726702004232,1.0163755416870117,-2.0226810614215296
1708434880.6589212,-2.1419732570648193,-1.3335396510413666,-2.5261991659747522,6.110651719361105,1.0164132118225098,-2.0226529280291956
1708434880.6608863,-2.1419732570648193,-1.3335026514581223,-2.526217285786764,6.110697495728292,1.016404151916504,-2.022628132496969
1708434880.6629457,-2.142014980316162,-1.3334997457316895,-2.5261781851397913,6.110680806427755,1.0163878202438354,-2.0226357618915003
1708434880.6649346,-2.141993761062622,-1.333559350376465,-2.526203695927755,6.110721337586202,1.0163878202438354,-2.022644344960348
1708434880.666918,-2.142010450363159,-1.3335233491710206,-2.5261662642108362,6.110701906472006,1.0164250135421753,-2.022644344960348
1708434880.6689515,-2.141989231109619,-1.3335562658360978,-2.526203695927755,6.110770451813497,1.016404151916504,-2.022583309804098
1708434880.6709108,-2.142024040222168,-1.3335233491710206,-2.5261991659747522,6.110737669258871,1.0163710117340088,-2.022628132496969
1708434880.6728933,-2.141949415206909,-1.3335233491710206,-2.5262325445758265,6.110680925637045,1.0163997411727905,-2.0226367155658167
1708434880.674908,-2.141993761062622,-1.3335189682296296,-2.526187245045797,6.110770451813497,1.0163832902908325,-2.022616211568014
1708434880.6769452,-2.1419122219085693,-1.3335070473006745,-2.5261991659747522,6.110734450608053,1.0164282321929932,-2.022616211568014
1708434880.6789472,-2.1419689655303955,-1.3335085821202775,-2.526203695927755,6.110737550049581,1.016432762145996,-2.022632424031393
1708434880.6809223,-2.1419689655303955,-1.3334867072156449,-2.5262444655047815,6.110745417862692,1.016416072845459,-2.022651974354879
1708434880.6829007,-2.1420228481292725,-1.3335440468839188,-2.5261781851397913,6.110713708191671,1.0164417028427124,-2.0226038138019007
1708434880.6849258,-2.1419618129730225,-1.3335606467774888,-2.526203695927755,6.110664713173666,1.016411542892456,-2.0226529280291956
1708434880.686903,-2.141953945159912,-1.3335320365479966,-2.5262158552752894,6.110701906472006,1.016416072845459,-2.02261192003359
1708434880.6889553,-2.141993761062622,-1.3335440468839188,-2.5261500517474573,6.110709416657247,1.016411542892456,-2.0226367155658167
1708434880.6909733,-2.1419529914855957,-1.3335320365479966,-2.5262325445758265,6.110697495728292,1.016437292098999,-2.022599522267477
1708434880.6928976,-2.1419529914855957,-1.3335233491710206,-2.5261781851397913,6.11076174953536,1.016449213027954,-2.022640053425924
1708434880.6949823,-2.141993761062622,-1.3335888546756287,-2.5261827150927942,6.110709416657247,1.016411542892456,-2.022648636494772
1708434880.6969717,-2.1419451236724854,-1.3335440468839188,-2.5261781851397913,6.110709416657247,1.0164070129394531,-2.022644344960348
1708434880.698963,-2.142014980316162,-1.3335070473006745,-2.5261691252337855,6.110677706986227,1.0164282321929932,-2.022640053425924
1708434880.7009413,-2.1419599056243896,-1.333458111887314,-2.526208225880758,6.110693919449606,1.0164310932159424,-2.0226648489581507
1708434880.7029293,-2.1419644355773926,-1.3335396510413666,-2.5262370745288294,6.1107051251228235,1.0164282321929932,-2.0226195494281214
1708434880.7048943,-2.1420061588287354,-1.3335144829801102,-2.5261827150927942,6.11072455623702,1.0164238214492798,-2.022640053425924
1708434880.706914,-2.141982316970825,-1.3335245561650773,-2.5261662642108362,6.110741841584005,1.0164282321929932,-2.022632424031393
1708434880.7089798,-2.141989231109619,-1.3335440468839188,-2.526203695927755,6.110693084984579,1.0164401531219482,-2.022656265889303
1708434880.7109513,-2.141993761062622,-1.3335352700999756,-2.5262158552752894,6.110685336380758,1.0164445638656616,-2.022644344960348
1708434880.7129426,-2.1419618129730225,-1.3335518848947068,-2.5262144247638147,6.1106440899665735,1.0164238214492798,-2.022648636494772
1708434880.7149305,-2.1419732570648193,-1.3335026514581223,-2.5261901060687464,6.1107462523277185,1.016447901725769,-2.022656265889303
1708434880.7168963,-2.1420319080352783,-1.3335396510413666,-2.5262370745288294,6.110734450608053,1.0164686441421509,-2.022656265889303
1708434880.7189257,-2.141989231109619,-1.3335070473006745,-2.5261827150927942,6.110696422844686,1.0164854526519775,-2.0226314703570765
1708434880.7209396,-2.142002582550049,-1.3335483086160203,-2.5261827150927942,6.110745417862692,1.0164659023284912,-2.022648636494772
1708434880.722905,-2.141984701156616,-1.3334418696216126,-2.5261917749988,6.110737669258871,1.0164777040481567,-2.0226386229144495
1708434880.7249277,-2.1419777870178223,-1.3335352700999756,-2.5262203852282923,6.1106722233589075,1.0164356231689453,-2.0226433912860315
1708434880.7269247,-2.1419405937194824,-1.3334866774133225,-2.5262158552752894,6.110689627915182,1.016414761543274,-2.022672478352682
1708434880.7289188,-2.141984701156616,-1.3335114282420655,-2.5261736551867884,6.110717046051779,1.0164477825164795,-2.022668186818258
1708434880.7309089,-2.141986608505249,-1.3335070473006745,-2.5262067953692835,6.110758530884542,1.016414761543274,-2.022660557423727
1708434880.7329452,-2.1419644355773926,-1.3335026812604447,-2.5262370745288294,6.110693204193868,1.0164432525634766,-2.022651974354879
1708434880.7349093,-2.141989231109619,-1.3335320067456742,-2.5261855761157435,6.110684501915731,1.0164265632629395,-2.0227044264422815
1708434880.7369115,-2.141989231109619,-1.3335606765798111,-2.5262158552752894,6.110697495728292,1.0164854526519775,-2.022651974354879
1708434880.7389433,-2.1419689655303955,-1.3334954392961045,-2.5262158552752894,6.110701906472006,1.0164809226989746,-2.0227044264422815
1708434880.740903,-2.141984701156616,-1.3334374886802216,-2.5261977354632776,6.110779034882345,1.0164265632629395,-2.022683922444479
1708434880.742918,-2.141975164413452,-1.3335157346776505,-2.5262325445758265,6.110696422844686,1.0164686441421509,-2.0227254072772425
1708434880.744906,-2.1419732570648193,-1.3335101318410416,-2.5261827150927942,6.1106722233589075,1.0164642333984375,-2.0227254072772425
1708434880.7469063,-2.1420230865478516,-1.3334744584611435,-2.5262022654162806,6.110750663071432,1.0164854526519775,-2.022695843373434
1708434880.748971,-2.142036199569702,-1.3335144829801102,-2.5262325445758265,6.110734331398763,1.0164388418197632,-2.0227254072772425
1708434880.7509024,-2.1419575214385986,-1.3335396510413666,-2.5261991659747522,6.110635506897726,1.0164809226989746,-2.0227044264422815
1708434880.7529256,-2.1419618129730225,-1.3335114282420655,-2.5262022654162806,6.110688793450155,1.0164719820022583,-2.0227325598346155
1708434880.754897,-2.141984701156616,-1.3335189682296296,-2.5262532869922083,6.1106852171714685,1.0165091753005981,-2.022695843373434
1708434880.7569141,-2.142002582550049,-1.3335189682296296,-2.5261946360217493,6.1107051251228235,1.0164763927459717,-2.022716824208395
1708434880.75891,-2.141993761062622,-1.3335320067456742,-2.5262816588031214,6.110709416657247,1.0164642333984375,-2.0227211157428187
1708434880.760901,-2.1419405937194824,-1.3334910881570359,-2.5262234846698206,6.110750663071432,1.0164854526519775,-2.022662941609518
1708434880.7628927,-2.1419777870178223,-1.3335606765798111,-2.5262325445758265,6.110728847771444,1.0164928436279297,-2.0227211157428187
1708434880.7649207,-2.1419732570648193,-1.3335352700999756,-2.5262535254107874,6.110722410469808,1.016513705253601,-2.0227535406695765
1708434880.766918,-2.1419575214385986,-1.3335396510413666,-2.5262609163867396,6.110693084984579,1.0164432525634766,-2.022691075001852
1708434880.7689304,-2.1419708728790283,-1.333482251768448,-2.5262654463397425,6.110672342568197,1.0164175033569336,-2.022744957600729
1708434880.7709026,-2.1419804096221924,-1.3334875863841553,-2.5262022654162806,6.110738622933187,1.0164973735809326,-2.0227492491351526
1708434880.7729075,-2.1419663429260254,-1.3335026514581223,-2.5261946360217493,6.110709416657247,1.0165517330169678,-2.0227368513690394
1708434880.7748928,-2.141993761062622,-1.3335364770940323,-2.5261991659747522,6.110648381500997,1.016542673110962,-2.0227611700641077
1708434880.7769284,-2.1419689655303955,-1.3335189682296296,-2.5262022654162806,6.110693204193868,1.0164719820022583,-2.0227535406695765
1708434880.7789416,-2.141998052597046,-1.3335606467774888,-2.5262189547168177,6.110759365349569,1.0164839029312134,-2.0227611700641077
1708434880.7809029,-2.141993761062622,-1.3335114282420655,-2.5262325445758265,6.110709416657247,1.0165425539016724,-2.0227611700641077
1708434880.782899,-2.142014980316162,-1.3334866774133225,-2.5261946360217493,6.110717046051779,1.0165046453475952,-2.0227654615985315
1708434880.7849278,-2.1419529914855957,-1.3335606765798111,-2.5262489954577845,6.110667931824484,1.0165166854858398,-2.022686783467428
1708434880.7869117,-2.141986608505249,-1.3335233491710206,-2.5261901060687464,6.110680925637045,1.0164839029312134,-2.022756878529684
1708434880.7889955,-2.141993761062622,-1.3334788394025345,-2.5261810461627405,6.110688912659445,1.016495704650879,-2.0227282683001917
1708434880.7909062,-2.141993761062622,-1.3335430485061188,-2.5261991659747522,6.110667931824484,1.0164839029312134,-2.022712532673971
1708434880.7929032,-2.141998052597046,-1.3335189682296296,-2.5262444655047815,6.110651719361105,1.016512155532837,-2.0227282683001917
1708434880.7949066,-2.141982316970825,-1.333482251768448,-2.5262113253222864,6.110668051033773,1.0165047645568848,-2.0227282683001917
1708434880.7969265,-2.1419618129730225,-1.3334997457316895,-2.5262189547168177,6.110693204193868,1.0164763927459717,-2.0227821508990687
1708434880.7989287,-2.141923666000366,-1.3335189682296296,-2.5262728373156946,6.110713708191671,1.0164910554885864,-2.022736374531881
1708434880.800891,-2.1419644355773926,-1.3334867072156449,-2.5262444655047815,6.110652792244711,1.016533613204956,-2.0227254072772425
1708434880.8028898,-2.1419777870178223,-1.3335725975087662,-2.5262308756457728,6.110685336380758,1.0164793729782104,-2.022723976765768
1708434880.8049092,-2.141923666000366,-1.3334910583547135,-2.5261946360217493,6.110693204193868,1.016512155532837,-2.022674862538473
1708434880.8068986,-2.1419732570648193,-1.3335277301124115,-2.5262067953692835,6.1107061980064294,1.0165200233459473,-2.022723976765768
1708434880.808961,-2.141993761062622,-1.3335396510413666,-2.5262113253222864,6.1107181189353845,1.0165002346038818,-2.022708241139547
1708434880.8109624,-2.141982316970825,-1.3335320365479966,-2.5262518564807337,6.110680806427755,1.0164883136749268,-2.0227282683001917
1708434880.8129017,-2.141986608505249,-1.3335352700999756,-2.5262563864337366,6.110676634102621,1.016512155532837,-2.0227492491351526
1708434880.8149705,-2.1419732570648193,-1.3335483086160203,-2.5262022654162806,6.1107061980064294,1.0164837837219238,-2.022716824208395
1708434880.8169115,-2.1419618129730225,-1.3335085821202775,-2.5261855761157435,6.110651600151815,1.016503095626831,-2.0227492491351526
1708434880.8189404,-2.141998052597046,-1.3334910583547135,-2.5262308756457728,6.110735404282369,1.0165292024612427,-2.0227702299701136
1708434880.820913,-2.1419689655303955,-1.3335527640632172,-2.5262489954577845,6.1107051251228235,1.0165046453475952,-2.0227320829974573
1708434880.822909,-2.141998052597046,-1.3335070473006745,-2.5262067953692835,6.110710489540853,1.0165210962295532,-2.022723976765768
1708434880.8249466,-2.141993761062622,-1.3336011481336136,-2.5262067953692835,6.110722410469808,1.016486644744873,-2.0227492491351526
1708434880.826921,-2.142010450363159,-1.3335277301124115,-2.5262489954577845,6.1107061980064294,1.0165210962295532,-2.022741142903463
1708434880.8289437,-2.1419663429260254,-1.3335233491710206,-2.52622634569277,6.110680925637045,1.0165408849716187,-2.022712532673971
1708434880.830906,-2.1420228481292725,-1.3335026514581223,-2.526209894810812,6.110660302429952,1.0165245532989502,-2.0227282683001917
1708434880.8329563,-2.141993761062622,-1.3335474294475098,-2.5262308756457728,6.110632526665487,1.0164674520492554,-2.0227039496051233
1708434880.834965,-2.141998052597046,-1.3335070473006745,-2.5262022654162806,6.110693204193868,1.0164703130722046,-2.022712532673971
1708434880.8369193,-2.1419618129730225,-1.3334866774133225,-2.5262113253222864,6.1107061980064294,1.0165165662765503,-2.0227039496051233
1708434880.8389492,-2.1419529914855957,-1.3335277301124115,-2.5262609163867396,6.110648381500997,1.0165075063705444,-2.022744957600729
1708434880.8409016,-2.1419732570648193,-1.3335070473006745,-2.5261932055102747,6.110673415451803,1.0165799856185913,-2.022740666066305
1708434880.8429015,-2.141937017440796,-1.3335101020387192,-2.5262473265277308,6.110681879311361,1.0165210962295532,-2.022768799458639
1708434880.8449101,-2.141975164413452,-1.3334910583547135,-2.5262144247638147,6.110701906472006,1.016533613204956,-2.0227282683001917
1708434880.8469512,-2.1419405937194824,-1.3335157197764893,-2.5262518564807337,6.110710608750143,1.0164629220962524,-2.0227654615985315
1708434880.8489118,-2.141923666000366,-1.3334910583547135,-2.5262325445758265,6.110664593964376,1.016463041305542,-2.022712532673971
1708434880.8508892,-2.1419076919555664,-1.3335189682296296,-2.5262683073626917,6.110669123917379,1.0165292024612427,-2.0227492491351526
1708434880.8528957,-2.141993761062622,-1.3335352700999756,-2.52622634569277,6.110694038658895,1.0164583921432495,-2.022723976765768
1708434880.8549187,-2.1419732570648193,-1.3334910881570359,-2.5262354055987757,6.110693919449606,1.0165201425552368,-2.0227282683001917
1708434880.856952,-2.1419575214385986,-1.3334867072156449,-2.5262518564807337,6.110670196800985,1.0165210962295532,-2.022695843373434
1708434880.8589334,-2.141998052597046,-1.3335233491710206,-2.5262067953692835,6.110645639687338,1.0165292024612427,-2.0227039496051233
1708434880.8609235,-2.1419618129730225,-1.3335070473006745,-2.526284996663229,6.110673415451803,1.0165075063705444,-2.022716824208395
1708434880.862964,-2.141949415206909,-1.3335042160800477,-2.5262189547168177,6.1107061980064294,1.0165002346038818,-2.022756878529684
1708434880.8649127,-2.1419405937194824,-1.3335277301124115,-2.5262535254107874,6.110702502518453,1.0165165662765503,-2.022768799458639
1708434880.8669372,-2.1419618129730225,-1.3335352700999756,-2.5262654463397425,6.110624658852377,1.0164958238601685,-2.02275258699526
1708434880.8689291,-2.142036199569702,-1.3335070473006745,-2.526221815739767,6.110645520478048,1.016512155532837,-2.022764507924215
1708434880.87092,-2.1419708728790283,-1.3335233491710206,-2.5262234846698206,6.110694038658895,1.016512155532837,-2.0227654615985315
1708434880.8728964,-2.1419708728790283,-1.3335026812604447,-2.5262189547168177,6.110669123917379,1.0165292024612427,-2.022708241139547
1708434880.8749044,-2.141916513442993,-1.3335571450046082,-2.5261932055102747,6.110694038658895,1.0165156126022339,-2.022794548665182
1708434880.8769112,-2.142002582550049,-1.3335725975087662,-2.5262399355517786,6.110677706986227,1.016512155532837,-2.022744957600729
1708434880.878919,-2.1419777870178223,-1.3335114282420655,-2.5262773672686976,6.110641228943624,1.0165619850158691,-2.022719685231344
1708434880.8808987,-2.1419618129730225,-1.3335233491710206,-2.5262067953692835,6.110660302429952,1.016503095626831,-2.0227282683001917
1708434880.882913,-2.141932725906372,-1.3335233491710206,-2.5261693636523646,6.110620367317953,1.0165408849716187,-2.0227611700641077
1708434880.8849013,-2.141993761062622,-1.3334821921638031,-2.5262683073626917,6.110689627915182,1.0165201425552368,-2.0227468649493616
1708434880.8868957,-2.1419618129730225,-1.3335396510413666,-2.5262444655047815,6.110690700798788,1.0165245532989502,-2.0227320829974573
1708434880.8889186,-2.1420071125030518,-1.3335114282420655,-2.5262144247638147,6.110620367317953,1.0165245532989502,-2.02275258699526
1708434880.8909085,-2.141975164413452,-1.3335114282420655,-2.5262473265277308,6.110673415451803,1.0165619850158691,-2.0227273146258753
1708434880.8929327,-2.1419663429260254,-1.3335145127824326,-2.5262189547168177,6.110652911454,1.016486644744873,-2.02275258699526
1708434880.8949084,-2.1419451236724854,-1.3335365068963547,-2.5262354055987757,6.110677706986227,1.0165075063705444,-2.0227769056903284
1708434880.8968983,-2.141932487487793,-1.3335440468839188,-2.5262518564807337,6.110657202988424,1.016512155532837,-2.022806469594137
1708434880.89896,-2.141979932785034,-1.3335562658360978,-2.5262683073626917,6.110673415451803,1.016503095626831,-2.02275258699526
1708434880.900904,-2.141941547393799,-1.3335518550923844,-2.5262234846698206,6.1106369374092,1.0165075063705444,-2.022785488759176
1708434880.9029517,-2.1419575214385986,-1.3335026514581223,-2.5262518564807337,6.110645520478048,1.0165245532989502,-2.0228140989886683
1708434880.904913,-2.141975164413452,-1.3334910583547135,-2.526205364857809,6.110685336380758,1.0165528059005737,-2.022710625325338
1708434880.9069295,-2.141995906829834,-1.33346679926429,-2.5262189547168177,6.110657202988424,1.0165456533432007,-2.02275258699526
1708434880.9089146,-2.141953945159912,-1.3334712845138093,-2.5262308756457728,6.110693919449606,1.0165201425552368,-2.0227769056903284
1708434880.910918,-2.1419451236724854,-1.3335606467774888,-2.5262399355517786,6.110693919449606,1.016503095626831,-2.0227559248553675
1708434880.9129143,-2.141986608505249,-1.3335201752236863,-2.5262637774096888,6.1106369374092,1.0165455341339111,-2.0228174368487757
1708434880.9149148,-2.141991138458252,-1.3335440468839188,-2.5262683073626917,6.110633241921224,1.0164703130722046,-2.0227234999286097
1708434880.916896,-2.141991138458252,-1.3335277301124115,-2.5261901060687464,6.110681998520651,1.0165408849716187,-2.0227559248553675
1708434880.918931,-2.141925573348999,-1.3335769784501572,-2.5262683073626917,6.110677706986227,1.0164583921432495,-2.0227559248553675
1708434880.9209034,-2.1419405937194824,-1.3335026812604447,-2.526221815739767,6.110685336380758,1.0165075063705444,-2.0228050390826624
1708434880.92294,-2.141982316970825,-1.3335114282420655,-2.5262308756457728,6.1106289503868005,1.016495704650879,-2.0227468649493616
1708434880.9249067,-2.141949415206909,-1.3334788245013733,-2.526254717503683,6.110661494522848,1.0165075063705444,-2.022792164479391
1708434880.9269023,-2.141998052597046,-1.3335233491710206,-2.5262683073626917,6.1106369374092,1.0165201425552368,-2.0227964560138147
1708434880.9289134,-2.1419708728790283,-1.3334867072156449,-2.5262637774096888,6.110714781075277,1.016512155532837,-2.0227811972247522
1708434880.930899,-2.141986608505249,-1.3335201752236863,-2.5262637774096888,6.110641228943624,1.0165165662765503,-2.0227726141559046
1708434880.9329321,-2.1419708728790283,-1.3335114282420655,-2.5262144247638147,6.110689627915182,1.0164793729782104,-2.022775952016012
1708434880.9349356,-2.141932725906372,-1.3335440170815964,-2.526275936757223,6.110693919449606,1.0165201425552368,-2.022780243550436
1708434880.9369364,-2.141916513442993,-1.3335277301124115,-2.52622634569277,6.110652911454,1.0165292024612427,-2.0228288809405726
1708434880.9389505,-2.1419575214385986,-1.3335681718638916,-2.5262473265277308,6.110681998520651,1.016503095626831,-2.022813145314352
1708434880.9409122,-2.141986608505249,-1.3335483384183426,-2.5262609163867396,6.110652911454,1.0165256261825562,-2.022801701222555
1708434880.9429522,-2.1419777870178223,-1.3335320365479966,-2.5262563864337366,6.110676634102621,1.016532063484192,-2.0228217283831995
1708434880.944908,-2.1419663429260254,-1.3335026514581223,-2.52622634569277,6.110620367317953,1.0165245532989502,-2.0227845350848597
1708434880.9469037,-2.141986608505249,-1.3335277301124115,-2.526259247456686,6.110677706986227,1.0165364742279053,-2.0228174368487757
1708434880.9489868,-2.1419663429260254,-1.333523378973343,-2.5262895266162317,6.1106289503868005,1.016512155532837,-2.0228288809405726
1708434880.9509273,-2.1419708728790283,-1.3335233491710206,-2.526301447545187,6.110689747124471,1.0164839029312134,-2.0227964560138147
1708434880.95293,-2.141982316970825,-1.3335026812604447,-2.526259247456686,6.110677706986227,1.0164985656738281,-2.022783104573385
1708434880.9549048,-2.141995906829834,-1.3335114282420655,-2.526205364857809,6.110654222756185,1.0164958238601685,-2.022808853779928
1708434880.9569004,-2.141986608505249,-1.3335233491710206,-2.526205364857809,6.110689627915182,1.0165245532989502,-2.022813145314352
1708434880.9589424,-2.141975164413452,-1.3335440170815964,-2.5262473265277308,6.110657202988424,1.0165663957595825,-2.0228245894061487
1708434880.9609127,-2.141928195953369,-1.3335157346776505,-2.52622634569277,6.110693919449606,1.0165165662765503,-2.022841278706686
1708434880.9629562,-2.1419405937194824,-1.3335277301124115,-2.526284996663229,6.110661494522848,1.016491174697876,-2.0228217283831995
1708434880.9649022,-2.141986608505249,-1.3335440170815964,-2.5262728373156946,6.110665666847982,1.0165002346038818,-2.0228174368487757
1708434880.9669085,-2.141923666000366,-1.333470032816269,-2.5262563864337366,6.110624658852377,1.016491174697876,-2.0228245894061487
1708434880.968941,-2.141989231109619,-1.3335114282420655,-2.5262728373156946,6.110657202988424,1.016538143157959,-2.022848908101217
1708434880.970949,-2.1419663429260254,-1.3335440170815964,-2.52622634569277,6.110681998520651,1.0165200233459473,-2.0228245894061487
1708434880.9729204,-2.1419405937194824,-1.3335114282420655,-2.5262473265277308,6.110669123917379,1.0165029764175415,-2.022832695637838
1708434880.9749203,-2.1419405937194824,-1.3335277301124115,-2.5262444655047815,6.110661494522848,1.0165456533432007,-2.0228007475482386
1708434880.9769545,-2.1419663429260254,-1.3334788096002121,-2.52627140680422,6.110612737923422,1.0165337324142456,-2.022848908101217
1708434880.9789317,-2.1419618129730225,-1.3335233491710206,-2.5262354055987757,6.1107191918189905,1.016474723815918,-2.0228284041034144
1708434880.980902,-2.141986846923828,-1.333471344118454,-2.5262354055987757,6.110632526665487,1.016512155532837,-2.022832695637838
1708434880.982952,-2.142036199569702,-1.3335562658360978,-2.5262683073626917,6.110686409264364,1.0165075063705444,-2.022865120564596
1708434880.984911,-2.1419708728790283,-1.333470032816269,-2.5262728373156946,6.110661494522848,1.016538143157959,-2.022832695637838
1708434880.9869251,-2.141932725906372,-1.3334700924209137,-2.5262563864337366,6.110686409264364,1.0165619850158691,-2.022860829030172
1708434880.988944,-2.141982316970825,-1.3335026812604447,-2.5262518564807337,6.110681998520651,1.0165200233459473,-2.022881809865133
1708434880.9909258,-2.1419451236724854,-1.3334655624679108,-2.5262683073626917,6.110689627915182,1.016503095626831,-2.022832695637838
1708434880.9929101,-2.141949415206909,-1.3335474294475098,-2.5262518564807337,6.110645639687338,1.016533613204956,-2.022902790700094
1708434880.9949381,-2.1419575214385986,-1.3335518848947068,-2.5262637774096888,6.110652792244711,1.0165046453475952,-2.02286941209902
1708434880.9969602,-2.1419405937194824,-1.3335157197764893,-2.5262473265277308,6.110689627915182,1.016512155532837,-2.0228737036334437
1708434880.9989388,-2.1419708728790283,-1.333482251768448,-2.5262683073626917,6.110689627915182,1.0165075063705444,-2.0228245894061487
1708434881.0009053,-2.1419663429260254,-1.3335562658360978,-2.526259247456686,6.110657202988424,1.0165245532989502,-2.02286941209902
1708434881.002952,-2.1419732570648193,-1.3335408431342621,-2.526209894810812,6.110670077591696,1.0165410041809082,-2.022806946431295
1708434881.0048985,-2.1419575214385986,-1.3335070473006745,-2.526254717503683,6.110677706986227,1.0165200233459473,-2.02286941209902
1708434881.0068948,-2.141998052597046,-1.3335233491710206,-2.5261932055102747,6.110685336380758,1.0164910554885864,-2.022848908101217
1708434881.0089047,-2.1419663429260254,-1.3335320067456742,-2.5262637774096888,6.110689747124471,1.0165455341339111,-2.022816006337301
1708434881.0109148,-2.1419732570648193,-1.3334910881570359,-2.5262473265277308,6.1106570837791345,1.0165618658065796,-2.0228446165667933
1708434881.0129473,-2.1419618129730225,-1.3335145127824326,-2.5262637774096888,6.110713708191671,1.0165165662765503,-2.0228775183307093
1708434881.0148988,-2.1419575214385986,-1.3335606765798111,-2.5262189547168177,6.110693919449606,1.0165425539016724,-2.0228565374957483
1708434881.0169284,-2.141998291015625,-1.3335070473006745,-2.5262473265277308,6.110730993538656,1.0165245532989502,-2.022865120564596
1708434881.0189047,-2.141923666000366,-1.3335606765798111,-2.5262308756457728,6.110673415451803,1.0165201425552368,-2.0228732267962855
1708434881.020896,-2.1419405937194824,-1.3335352551988144,-2.5262773672686976,6.110648500710287,1.016486644744873,-2.02286941209902
1708434881.022928,-2.1419708728790283,-1.3335277301124115,-2.5262399355517786,6.110680925637045,1.0165292024612427,-2.02286941209902
1708434881.0248976,-2.1419708728790283,-1.3335277301124115,-2.5262308756457728,6.110680925637045,1.0164839029312134,-2.022865120564596
1708434881.0269563,-2.1419451236724854,-1.3334954690984269,-2.5262189547168177,6.110676634102621,1.0165210962295532,-2.0228446165667933
1708434881.0289536,-2.1419618129730225,-1.3335562658360978,-2.5262518564807337,6.110689627915182,1.0165165662765503,-2.0229013601886194
1708434881.0308974,-2.1419496536254883,-1.3335307997516175,-2.5262637774096888,6.110746133118429,1.0165292024612427,-2.0228403250323694
1708434881.03292,-2.141982316970825,-1.3334700924209137,-2.526242796574728,6.110697495728292,1.016512155532837,-2.0228446165667933
1708434881.0349998,-2.1419708728790283,-1.333551899795868,-2.5262683073626917,6.1106982109840295,1.0165075063705444,-2.022893730794088
1708434881.0369904,-2.1419732570648193,-1.3335440170815964,-2.5262144247638147,6.110689627915182,1.0164839029312134,-2.022860829030172
1708434881.0389974,-2.141984701156616,-1.3334655624679108,-2.5262399355517786,6.110680925637045,1.016538143157959,-2.022864643727438
1708434881.0409412,-2.141989231109619,-1.3335189682296296,-2.5262489954577845,6.110615002899923,1.0165075063705444,-2.022926632558004
1708434881.0429406,-2.141993761062622,-1.3335396212390442,-2.5262895266162317,6.110680925637045,1.0165002346038818,-2.0228732267962855
1708434881.0449245,-2.141989231109619,-1.3335430485061188,-2.526221815739767,6.110754239350118,1.016491174697876,-2.0228808561908167
1708434881.0469446,-2.1419732570648193,-1.3335026514581223,-2.5262983481036585,6.110685336380758,1.0165245532989502,-2.022855583821432
1708434881.0489345,-2.1420061588287354,-1.3335145127824326,-2.5261977354632776,6.1107462523277185,1.0165047645568848,-2.0228894392596644
1708434881.050896,-2.1419777870178223,-1.333502711062767,-2.5262518564807337,6.110722529679098,1.0164839029312134,-2.0229089895831507
1708434881.0529237,-2.1419618129730225,-1.3335233491710206,-2.5262654463397425,6.110738742142477,1.0165046453475952,-2.0229385534869593
1708434881.0549119,-2.1419777870178223,-1.3335145127824326,-2.5262189547168177,6.110734450608053,1.0164837837219238,-2.0228894392596644
1708434881.0569282,-2.1419618129730225,-1.3334893745234986,-2.5262399355517786,6.1107051251228235,1.016491174697876,-2.0229175726519983
1708434881.05895,-2.1419663429260254,-1.3334822219661255,-2.5262399355517786,6.110725629120626,1.016512155532837,-2.0229132811175745
1708434881.0608916,-2.1419777870178223,-1.3335233491710206,-2.526209894810812,6.1107051251228235,1.0165046453475952,-2.0228970686541956
1708434881.0629296,-2.1419644355773926,-1.3334612411311646,-2.5262683073626917,6.110737550049581,1.0165075063705444,-2.0229252020465296
1708434881.0649035,-2.141986608505249,-1.3335233491710206,-2.5262399355517786,6.110749828606405,1.0165210962295532,-2.022900406514303
1708434881.066934,-2.141989231109619,-1.3335562658360978,-2.5262399355517786,6.110728847771444,1.016512155532837,-2.022872273121969
1708434881.068914,-2.1419732570648193,-1.3335320365479966,-2.526209894810812,6.110651719361105,1.016491174697876,-2.0229132811175745
1708434881.070898,-2.141984701156616,-1.3335233491710206,-2.5262399355517786,6.11066352108077,1.0165075063705444,-2.0229385534869593
1708434881.0729744,-2.1420061588287354,-1.333482251768448,-2.5262728373156946,6.110758411675253,1.0164958238601685,-2.022933308278219
1708434881.0749717,-2.141993761062622,-1.3334982109120865,-2.5262399355517786,6.110717046051779,1.016474723815918,-2.0229461828814905
1708434881.0769076,-2.1419732570648193,-1.3335144978812714,-2.5262308756457728,6.110782372742452,1.016512155532837,-2.0229581038104456
1708434881.0789328,-2.142010450363159,-1.3335320216468354,-2.526259247456686,6.110798585205831,1.0164703130722046,-2.0228751341449183
1708434881.0809345,-2.142014980316162,-1.3335070473006745,-2.526242796574728,6.1107008335884,1.0165499448776245,-2.022953812276022
1708434881.0829449,-2.1419970989227295,-1.3335026812604447,-2.526259247456686,6.11072455623702,1.0165544748306274,-2.0229581038104456
1708434881.0849285,-2.1420364379882812,-1.3335189831307908,-2.5262637774096888,6.11076174953536,1.0165408849716187,-2.022949520741598
1708434881.0869443,-2.1419970989227295,-1.333548368220665,-2.526205364857809,6.1107367155845544,1.0165210962295532,-2.0229342619525355
1708434881.0889688,-2.1420140266418457,-1.3334745031646271,-2.5262473265277308,6.110782372742452,1.0165165662765503,-2.022949520741598
1708434881.090918,-2.141989231109619,-1.3335430485061188,-2.526259247456686,6.11071144321517,1.0165255069732666,-2.022912327443258
1708434881.0929277,-2.141982316970825,-1.3335070473006745,-2.5262637774096888,6.110760557442465,1.0164703130722046,-2.022900406514303
1708434881.0949275,-2.1420140266418457,-1.3335114282420655,-2.5262308756457728,6.110829937248983,1.0165047645568848,-2.022953812276022
1708434881.0969386,-2.141984701156616,-1.3335387271693726,-2.526259247456686,6.110816943436422,1.016495704650879,-2.0229209105121058
1708434881.0989702,-2.1420185565948486,-1.3335233491710206,-2.52622634569277,6.110882270127096,1.0165002346038818,-2.022929016743795
1708434881.1009445,-2.1420061588287354,-1.3335681867650528,-2.5262518564807337,6.110870349198141,1.016512155532837,-2.022965733204977
1708434881.1029274,-2.1419758796691895,-1.3335307997516175,-2.5262637774096888,6.110845315247335,1.0164583921432495,-2.0229209105121058
1708434881.10496,-2.1419732570648193,-1.3334744435599823,-2.5262983481036585,6.110873448639669,1.0164839029312134,-2.0229013601886194
1708434881.10692,-2.1420061588287354,-1.3335352700999756,-2.5262308756457728,6.110848653107443,1.0165210962295532,-2.022863213215963
1708434881.1089582,-2.1419804096221924,-1.3335114282420655,-2.5262518564807337,6.110820400505819,1.0165201425552368,-2.0229252020465296
1708434881.11093,-2.1420228481292725,-1.3335026663592835,-2.5262189547168177,6.1108367321784876,1.016512155532837,-2.022892777119772
1708434881.1129346,-2.1420016288757324,-1.3335308146527787,-2.526238266621725,6.110933410912313,1.016512155532837,-2.022970501576559
1708434881.1149096,-2.1419804096221924,-1.3335189682296296,-2.52621299425234,6.110884415894308,1.0165075063705444,-2.022912327443258
1708434881.1169553,-2.1420061588287354,-1.333498166208603,-2.5262234846698206,6.110839950829305,1.016503095626831,-2.0229089895831507
1708434881.1189466,-2.142036199569702,-1.3334867072156449,-2.526238266621725,6.110816108971395,1.0165002346038818,-2.0229700247394007
1708434881.120894,-2.141989231109619,-1.3335681867650528,-2.5262728373156946,6.110888707428732,1.0164415836334229,-2.022900406514303
1708434881.122929,-2.1420185565948486,-1.3335114282420655,-2.5262308756457728,6.110941993981161,1.0165165662765503,-2.022916618977682
1708434881.1248841,-2.142010450363159,-1.3335277301124115,-2.526259247456686,6.110900628357687,1.0165165662765503,-2.0229209105121058
1708434881.126912,-2.1419777870178223,-1.3335277450135727,-2.5262189547168177,6.110868441849508,1.0164629220962524,-2.022945229207174
1708434881.1289322,-2.141984701156616,-1.3335070473006745,-2.5262234846698206,6.110887634545126,1.0165544748306274,-2.022933308278219
1708434881.1308875,-2.1420140266418457,-1.3335233491710206,-2.5262563864337366,6.110896336823263,1.016491174697876,-2.022945229207174
1708434881.1329515,-2.1419804096221924,-1.3334821921638031,-2.5262189547168177,6.1108518717582605,1.0164958238601685,-2.022953812276022
1708434881.1349971,-2.1419758796691895,-1.333551899795868,-2.5261977354632776,6.1109540341194055,1.0164583921432495,-2.022953812276022
1708434881.1369658,-2.1420228481292725,-1.3335114282420655,-2.5262189547168177,6.1109081385429285,1.0164958238601685,-2.022949520741598
1708434881.138969,-2.1420772075653076,-1.3334866774133225,-2.5262473265277308,6.110937821656027,1.0165047645568848,-2.022929016743795
1708434881.1409113,-2.1420185565948486,-1.3335057658008118,-2.5262189547168177,6.110916840821066,1.0164583921432495,-2.022929016743795
1708434881.1429474,-2.1420185565948486,-1.3334910583547135,-2.526259247456686,6.110887515335836,1.0165165662765503,-2.0229700247394007
1708434881.1449118,-2.1420185565948486,-1.3334866774133225,-2.52622634569277,6.110900628357687,1.016533613204956,-2.022916618977682
1708434881.146928,-2.1420388221740723,-1.3335233640721817,-2.526221815739767,6.110940921097555,1.0165002346038818,-2.0229204336749476
1708434881.1489592,-2.14200496673584,-1.3335725975087662,-2.52622634569277,6.110896336823263,1.016512155532837,-2.022953812276022
1708434881.150918,-2.1419758796691895,-1.3335562956384202,-2.526275936757223,6.110912549286642,1.0164839029312134,-2.022945229207174
1708434881.152933,-2.1419928073883057,-1.3335888993791123,-2.526284996663229,6.110978114395895,1.0164839029312134,-2.022933308278219
1708434881.1549506,-2.1420016288757324,-1.3335189682296296,-2.526242796574728,6.110924708634176,1.0165166854858398,-2.022953812276022
1708434881.157304,-2.1419880390167236,-1.3335298013738175,-2.526284996663229,6.110929119377889,1.0165166854858398,-2.022945229207174
1708434881.1589317,-2.1419928073883057,-1.3335593354753037,-2.5262518564807337,6.110937702446737,1.0165292024612427,-2.022987190877096
1708434881.1608887,-2.1419928073883057,-1.3335966777852555,-2.526259247456686,6.110896217613973,1.0165047645568848,-2.022993866597311
1708434881.1629229,-2.1420140266418457,-1.333523378973343,-2.5262473265277308,6.110916960030355,1.0165075063705444,-2.022965733204977
1708434881.164935,-2.1420061588287354,-1.3335649830153962,-2.5263298193561,6.110899436264791,1.0165619850158691,-2.0229032675372522
1708434881.1669326,-2.1420559883117676,-1.3335144829801102,-2.526266876851217,6.110949742584982,1.0165619850158691,-2.0229209105121058
1708434881.1689668,-2.1420185565948486,-1.333511472945549,-2.5262697378741663,6.11088644245223,1.016495704650879,-2.0228870550738733
1708434881.1709044,-2.1419928073883057,-1.333551899795868,-2.526238266621725,6.110957133560934,1.016512155532837,-2.022916618977682
1708434881.1729202,-2.1420388221740723,-1.333502636556961,-2.526283327733175,6.110916840821066,1.016533613204956,-2.022900406514303
1708434881.1749165,-2.1420016288757324,-1.3335637313178559,-2.526309076939718,6.110929119377889,1.016470193862915,-2.022945229207174
1708434881.1769207,-2.1419970989227295,-1.3335352700999756,-2.526283327733175,6.11089192607955,1.0165292024612427,-2.0229700247394007
1708434881.1789389,-2.1419880390167236,-1.3335233491710206,-2.5263329187976282,6.110916125565328,1.0165408849716187,-2.022949520741598
1708434881.1809053,-2.1419880390167236,-1.3335352700999756,-2.5263312498675745,6.110948669701376,1.0164883136749268,-2.022965733204977
1708434881.182912,-2.1420185565948486,-1.3335396510413666,-2.5263119379626673,6.110907304077902,1.016512155532837,-2.0229738394366663
1708434881.184979,-2.1420254707336426,-1.3335189682296296,-2.5263329187976282,6.110957133560934,1.0165210962295532,-2.022965733204977
1708434881.186961,-2.1420514583587646,-1.3335440468839188,-2.5263267199145716,6.110916006356039,1.0164793729782104,-2.0229247252093714
1708434881.1889696,-2.1419970989227295,-1.3335189682296296,-2.5263267199145716,6.110874521523275,1.0164839029312134,-2.022929016743795
1708434881.1909077,-2.1420300006866455,-1.333552823667862,-2.5263147989856165,6.1109081385429285,1.0165047645568848,-2.022965733204977
1708434881.192968,-2.1419928073883057,-1.3335277301124115,-2.5263567606555384,6.110887634545126,1.016495704650879,-2.022961441670553
1708434881.1949155,-2.1420140266418457,-1.3335483384183426,-2.5263357798205774,6.110920417099752,1.0165002346038818,-2.023010555897848
1708434881.1969492,-2.1419687271118164,-1.3335233342698594,-2.5263643900500696,6.110949623375692,1.0165166854858398,-2.022929016743795
1708434881.1989887,-2.142043352127075,-1.3335101020387192,-2.5263028780566614,6.110933410912313,1.016495704650879,-2.0229209105121058
1708434881.2009358,-2.1420016288757324,-1.3335352850011368,-2.5262892881976526,6.110929119377889,1.0165002346038818,-2.0229204336749476
1708434881.202939,-2.1420300006866455,-1.3335320365479966,-2.5263357798205774,6.110908019333639,1.0165029764175415,-2.022987190877096
1708434881.2049448,-2.1419928073883057,-1.3335144829801102,-2.5263357798205774,6.110895144730367,1.0165166854858398,-2.0229409376727503
1708434881.2069938,-2.1420185565948486,-1.3335307997516175,-2.5263357798205774,6.110874521523275,1.0164958238601685,-2.0229204336749476
1708434881.2090352,-2.142042398452759,-1.333551899795868,-2.5263643900500696,6.110895144730367,1.016512155532837,-2.0230072180377405
1708434881.2109454,-2.1420254707336426,-1.333559350376465,-2.5263312498675745,6.110892879753866,1.0165047645568848,-2.0230072180377405
1708434881.2129538,-2.1420254707336426,-1.3335386526635666,-2.5263899008380335,6.11092363575057,1.0165408849716187,-2.022961441670553
1708434881.21492,-2.1420228481292725,-1.3335681867650528,-2.5263057390796106,6.110924708634176,1.0165245532989502,-2.022957150136129
1708434881.2169487,-2.1420228481292725,-1.3335474294475098,-2.5263267199145716,6.11095284202651,1.0165292024612427,-2.0229366461383265
1708434881.2189658,-2.1420514583587646,-1.333510087137558,-2.5263074080096644,6.110957133560934,1.0165455341339111,-2.022912327443258
1708434881.2209284,-2.1420469284057617,-1.3335264039090653,-2.5262654463397425,6.110916125565328,1.0165319442749023,-2.022945229207174
