Eg3-git/Classifiers/Data Collection/u2/u2star3_ur3e_joint_states.csv
time,elbow_joint,shoulder_lift_joint,shoulder_pan_joint,wrist_1_joint,wrist_2_joint,wrist_3_joint
1708434857.356912,-2.1420297622680664,-1.333224580889084,-2.525219742451803,6.109645116120138,1.0144729614257812,-2.3862991968738
1708434857.3589084,-2.142037868499756,-1.3332037788680573,-2.5251827875720423,6.109665620117941,1.0144472122192383,-2.386303726826803
1708434857.3608818,-2.1420342922210693,-1.3332203042558213,-2.525224272404806,6.10968958118514,1.0144925117492676,-2.3862834612475794
1708434857.362941,-2.14200496673584,-1.333216057424881,-2.52517539659609,6.109633195191183,1.014444351196289,-2.3862784544574183
1708434857.3649228,-2.1419804096221924,-1.3332451742938538,-2.5251784960376185,6.10963653305129,1.0144803524017334,-2.38629657426943
1708434857.36694,-2.1420094966888428,-1.3332322251847764,-2.525245253239767,6.109673249512472,1.0144473314285278,-2.3862696329699915
1708434857.36891,-2.1419970989227295,-1.333211750989296,-2.525179688130514,6.109627830773153,1.0144398212432861,-2.386301104222433
1708434857.370891,-2.1420016288757324,-1.3332854521325608,-2.525240723286764,6.109673249512472,1.0144847631454468,-2.386287275944845
1708434857.3729196,-2.1420254707336426,-1.3332322400859375,-2.525240723286764,6.109677660256185,1.0144472122192383,-2.386317316685812
1708434857.374889,-2.1420557498931885,-1.3332732182792206,-2.52523643175234,6.109657037049093,1.0144894123077393,-2.386303726826803
1708434857.3769283,-2.1420228481292725,-1.333294079904892,-2.525179688130514,6.109685170441427,1.0144095420837402,-2.3862949053393763
1708434857.3789,-2.1420059204101562,-1.333261401658394,-2.525187317525045,6.109636413842001,1.0144684314727783,-2.3862789312945765
1708434857.3809078,-2.1419970989227295,-1.33323226988826,-2.5251665751086634,6.109640824585714,1.0144684314727783,-2.386292282735006
1708434857.3829317,-2.1420016288757324,-1.333216057424881,-2.5251992384540003,6.10964189746932,1.0144307613372803,-2.386287275944845
1708434857.3849196,-2.1419970989227295,-1.3333136451295395,-2.52523643175234,6.109648334770956,1.0144517421722412,-2.386301104222433
1708434857.3869066,-2.1419804096221924,-1.3332407784513016,-2.525240723286764,6.109603988915243,1.0144308805465698,-2.3862877527820032
1708434857.388902,-2.142043113708496,-1.3332818460515519,-2.5251947085009974,6.109664666443624,1.0144517421722412,-2.3862670103656214
1708434857.390922,-2.1419758796691895,-1.333273173575737,-2.5252321402179163,6.109673249512472,1.0144938230514526,-2.3862789312945765
1708434857.3929424,-2.1420016288757324,-1.3332689267447968,-2.525203529988424,6.109673249512472,1.0144729614257812,-2.386308256779806
1708434857.3948936,-2.1420016288757324,-1.3332441461137314,-2.52523643175234,6.109664666443624,1.014460802078247,-2.386329476033346
1708434857.3969257,-2.1420254707336426,-1.333244190817215,-2.525224272404806,6.109645116120138,1.0144894123077393,-2.3862834612475794
1708434857.3989582,-2.14200496673584,-1.3332689118436356,-2.5251620451556605,6.109673249512472,1.0144352912902832,-2.3862412611590784
1708434857.400908,-2.1420094966888428,-1.33323988438163,-2.525207821522848,6.109676587372579,1.0144729614257812,-2.3862577120410364
1708434857.402942,-2.142063856124878,-1.3332203340581437,-2.525215450917379,6.1096852896507166,1.014423131942749,-2.386305634175436
1708434857.4049072,-2.1419880390167236,-1.3332603734782715,-2.52523643175234,6.109657037049093,1.0144562721252441,-2.3862624804126185
1708434857.4069324,-2.1419880390167236,-1.333281786446907,-2.525219742451803,6.109636413842001,1.0144140720367432,-2.3862624804126185
1708434857.408939,-2.1420140266418457,-1.333268867140152,-2.52523643175234,6.109673249512472,1.0144562721252441,-2.3862741629229944
1708434857.4109085,-2.1420469284057617,-1.3332812202027817,-2.525179688130514,6.109636413842001,1.0144472122192383,-2.386301104222433
1708434857.4129252,-2.141993761062622,-1.3332769137671967,-2.5251503626452845,6.109662520676412,1.014460802078247,-2.3862412611590784
1708434857.4149127,-2.1420061588287354,-1.3332279932549973,-2.525224272404806,6.109624492913046,1.0144352912902832,-2.386301104222433
1708434857.4169104,-2.141993761062622,-1.3332940352014084,-2.525207821522848,6.109668957978048,1.0144398212432861,-2.386308256779806
1708434857.4189055,-2.1420297622680664,-1.3332526993802567,-2.525167767201559,6.109673249512472,1.0144684314727783,-2.3862577120410364
1708434857.4208992,-2.1420254707336426,-1.3332167577794571,-2.525167767201559,6.109705793648519,1.0144894123077393,-2.386317555104391
1708434857.4229174,-2.1420469284057617,-1.333268941645958,-2.5251665751086634,6.109693872719564,1.0144399404525757,-2.3862531820880335
1708434857.4248943,-2.1420273780822754,-1.3332527440837403,-2.525212351475851,6.109649407654562,1.0144803524017334,-2.38629657426943
1708434857.426932,-2.1420016288757324,-1.3332484674504776,-2.525212351475851,6.109661328583517,1.0144639015197754,-2.386301104222433
1708434857.4289188,-2.1420300006866455,-1.3332280081561585,-2.5251503626452845,6.109698164253988,1.01446533203125,-2.3862715403186243
1708434857.4309325,-2.1420254707336426,-1.3332365316203614,-2.5251947085009974,6.109693872719564,1.0144729614257812,-2.3862877527820032
1708434857.4329119,-2.1420209407806396,-1.333244190817215,-2.5251784960376185,6.109661328583517,1.0144848823547363,-2.3862670103656214
1708434857.4349344,-2.1420342922210693,-1.333252729182579,-2.525203529988424,6.1097274897392175,1.0144773721694946,-2.3862624804126185
1708434857.4369261,-2.142063856124878,-1.3332854074290772,-2.52522856393923,6.109686243325033,1.0144848823547363,-2.3862741629229944
1708434857.4389403,-2.1419880390167236,-1.3332646650126954,-2.525191609059469,6.109592067986288,1.0144984722137451,-2.3862789312945765
1708434857.440891,-2.142037868499756,-1.3332768839648743,-2.5252047220813196,6.109652745514669,1.0144729614257812,-2.386287275944845
1708434857.442918,-2.142037868499756,-1.3332646650126954,-2.525191609059469,6.109612571984091,1.0144562721252441,-2.3862670103656214
1708434857.4448974,-2.1420300006866455,-1.3332246255925675,-2.525167767201559,6.109648334770956,1.0144562721252441,-2.3862412611590784
1708434857.4469163,-2.142063856124878,-1.333228961830475,-2.525191609059469,6.109686243325033,1.0144847631454468,-2.386301104222433
1708434857.4489377,-2.1420228481292725,-1.3332441461137314,-2.525163475667135,6.109640824585714,1.014444351196289,-2.3862505594836634
1708434857.4509263,-2.1420228481292725,-1.3332451295903702,-2.5252166430102747,6.109636413842001,1.014464020729065,-2.3862624804126185
1708434857.4529245,-2.1420602798461914,-1.3332279932549973,-2.525175158177511,6.109624492913046,1.0144758224487305,-2.3862789312945765
1708434857.4549363,-2.1419970989227295,-1.3332646650126954,-2.525195900593893,6.109595405846395,1.0144308805465698,-2.3862670103656214
1708434857.4569418,-2.1419928073883057,-1.3332118403962632,-2.525191609059469,6.109665620117941,1.0144517421722412,-2.3862696329699915
1708434857.4589262,-2.1420254707336426,-1.3332732331803818,-2.525179688130514,6.109649407654562,1.0144803524017334,-2.386287275944845
1708434857.4608924,-2.1420094966888428,-1.3333545935205002,-2.52522856393923,6.10968958118514,1.014482021331787,-2.3862834612475794
1708434857.46291,-2.1420300006866455,-1.333211825495102,-2.525224272404806,6.109661328583517,1.014448881149292,-2.3863263765918177
1708434857.4649034,-2.1419713497161865,-1.3332494658282776,-2.525195900593893,6.109673249512472,1.0144848823547363,-2.3862789312945765
1708434857.466936,-2.1420388221740723,-1.3332526993802567,-2.525142494832174,6.109624492913046,1.0144729614257812,-2.3862550894366663
1708434857.4689076,-2.1420512199401855,-1.333252729182579,-2.525187079106466,6.109660255699911,1.0144308805465698,-2.3862577120410364
1708434857.4708903,-2.1419758796691895,-1.3332769137671967,-2.525175158177511,6.109686243325033,1.0144909620285034,-2.3862877527820032
1708434857.47292,-2.1420254707336426,-1.3332203340581437,-2.5252001921283167,6.109668957978048,1.0144399404525757,-2.3863053957568567
1708434857.4748955,-2.142042398452759,-1.33323226988826,-2.52517539659609,6.109726655274191,1.0144352912902832,-2.3862414995776575
1708434857.4769647,-2.1420016288757324,-1.333272547726967,-2.525195900593893,6.109668957978048,1.0144472122192383,-2.38629657426943
1708434857.4789128,-2.1419804096221924,-1.3332279932549973,-2.5251992384540003,6.109645116120138,1.0144938230514526,-2.3862505594836634
1708434857.48092,-2.1420557498931885,-1.3332812053016205,-2.5251546541797083,6.109668957978048,1.014427661895752,-2.3862624804126185
1708434857.4829354,-2.1420140266418457,-1.333203749065735,-2.525163475667135,6.109673249512472,1.0144847631454468,-2.3862550894366663
1708434857.4849033,-2.142054796218872,-1.3332974177649994,-2.5251665751086634,6.109661328583517,1.0144352912902832,-2.3862577120410364
1708434857.4869237,-2.1419758796691895,-1.3332974177649994,-2.52517539659609,6.109628903656759,1.014460802078247,-2.386305634175436
1708434857.4889388,-2.142043113708496,-1.333281160598137,-2.5252166430102747,6.10966573932723,1.0144606828689575,-2.3862505594836634
1708434857.4909446,-2.1420388221740723,-1.3332854372313996,-2.525167767201559,6.109640824585714,1.0144562721252441,-2.386292282735006
1708434857.4929485,-2.1420140266418457,-1.3332398545793076,-2.525163475667135,6.109628903656759,1.0144684314727783,-2.3862624804126185
1708434857.494934,-2.1420388221740723,-1.3332603585771103,-2.525139395390646,6.109665620117941,1.0144472122192383,-2.3862877527820032
1708434857.4969325,-2.1420140266418457,-1.3332603734782715,-2.5251436869250696,6.109639632492819,1.014460802078247,-2.3862715403186243
1708434857.4989245,-2.1419713497161865,-1.3332442206195374,-2.52522856393923,6.109714376717367,1.0144848823547363,-2.3862834612475794
1708434857.5008938,-2.1419553756713867,-1.3332769137671967,-2.525175158177511,6.109624492913046,1.0144938230514526,-2.386291805897848
1708434857.502927,-2.1420228481292725,-1.3332897138646622,-2.525183979664938,6.109673249512472,1.0144517421722412,-2.3862577120410364
1708434857.504919,-2.1420514583587646,-1.3332811754992981,-2.5251808802234095,6.109636413842001,1.0144562721252441,-2.386301104222433
1708434857.5068967,-2.1420140266418457,-1.3332768839648743,-2.525130573903219,6.109632122307577,1.0144729614257812,-2.386292282735006
1708434857.5089054,-2.1419758796691895,-1.3332732331803818,-2.525151316319601,6.109624492913046,1.0144562721252441,-2.3862462679492396
1708434857.5108902,-2.1420300006866455,-1.333256022339203,-2.5251479784594935,6.10968958118514,1.0144847631454468,-2.3862715403186243
1708434857.5129025,-2.1420228481292725,-1.3332812053016205,-2.525151316319601,6.109677660256185,1.014460802078247,-2.3862715403186243
1708434857.514925,-2.1420228481292725,-1.3332037937692185,-2.5250869433032435,6.109693872719564,1.0144472122192383,-2.386301104222433
1708434857.5169213,-2.1420469284057617,-1.3332322549870987,-2.5251315275775355,6.109645116120138,1.0144399404525757,-2.3862624804126185
1708434857.5189178,-2.1420185565948486,-1.333281160598137,-2.52509576479067,6.109677541046896,1.014423131942749,-2.386291805897848
1708434857.520915,-2.1420016288757324,-1.3332655888846894,-2.525137249623434,6.109621274262228,1.014482021331787,-2.3862250486956995
1708434857.5229087,-2.1419804096221924,-1.3332570058158417,-2.525071684514181,6.109620201378622,1.0144202709197998,-2.386287275944845
1708434857.5249386,-2.1420300006866455,-1.333272562628128,-2.52505070367922,6.109640824585714,1.014448881149292,-2.38629657426943
1708434857.526953,-2.1419973373413086,-1.333239809875824,-2.525071684514181,6.109632122307577,1.0144562721252441,-2.3862386385547083
1708434857.5289447,-2.141993761062622,-1.3332603734782715,-2.5250805060016077,6.109673249512472,1.014444351196289,-2.386308256779806
1708434857.530916,-2.1420016288757324,-1.333272562628128,-2.525071684514181,6.109670030861654,1.01446533203125,-2.3862596193896692
1708434857.5329094,-2.1420388221740723,-1.3332973432591935,-2.525018278752462,6.109685170441427,1.0144399404525757,-2.3862462679492396
1708434857.5349047,-2.14200496673584,-1.3332854521325608,-2.5250638167010706,6.109652745514669,1.0144352912902832,-2.386291805897848
1708434857.536943,-2.142042398452759,-1.3331988167813797,-2.525109831486837,6.109620201378622,1.0144729614257812,-2.3862670103656214
1708434857.5389104,-2.1420254707336426,-1.3332236421159287,-2.525059525166647,6.109661328583517,1.014482021331787,-2.386292282735006
1708434857.5409617,-2.141989231109619,-1.333251730804779,-2.525059525166647,6.109619009285726,1.014448881149292,-2.3862834612475794
1708434857.5429492,-2.1420185565948486,-1.3332193952849885,-2.525034491215841,6.109668957978048,1.0144894123077393,-2.3862298170672815
1708434857.5448942,-2.1419880390167236,-1.3332124066403885,-2.525043312703268,6.109664666443624,1.0144321918487549,-2.3862715403186243
1708434857.5469546,-2.1420016288757324,-1.3332081002048035,-2.5250914732562464,6.1097015021140955,1.014418601989746,-2.3862670103656214
1708434857.548895,-2.1419880390167236,-1.3332203489593049,-2.525075976048605,6.109652745514669,1.014482021331787,-2.3862670103656214
1708434857.5509274,-2.1419758796691895,-1.333244190817215,-2.52505070367922,6.109670030861654,1.0144517421722412,-2.3862505594836634
1708434857.552918,-2.1419970989227295,-1.3332322102836152,-2.525046412144796,6.109664666443624,1.014444351196289,-2.3862670103656214
1708434857.554893,-2.1420094966888428,-1.3332151037505646,-2.525075976048605,6.109657037049093,1.014418601989746,-2.3862386385547083
1708434857.5569139,-2.1419970989227295,-1.3332974177649994,-2.5250476042376917,6.109681951790609,1.0144606828689575,-2.386313025151388
1708434857.5589068,-2.1420094966888428,-1.3332484525493165,-2.525100294743673,6.109664666443624,1.0144321918487549,-2.3862834612475794
1708434857.560917,-2.1420094966888428,-1.3332118105939408,-2.5250638167010706,6.109690534859457,1.0144321918487549,-2.386301104222433
1708434857.5629282,-2.1420254707336426,-1.333264635210373,-2.525055233632223,6.109660255699911,1.0144352912902832,-2.3862250486956995
1708434857.564895,-2.1420300006866455,-1.3332075041583558,-2.525092426930563,6.109657037049093,1.0144367218017578,-2.38629657426943
1708434857.5669367,-2.1420469284057617,-1.3332613420537491,-2.525071684514181,6.109672176628866,1.0144517421722412,-2.3862577120410364
1708434857.568936,-2.1420209407806396,-1.3332484376481553,-2.525043312703268,6.109639632492819,1.0144039392471313,-2.3862596193896692
1708434857.570883,-2.1420164108276367,-1.3332279485515137,-2.525055233632223,6.109652745514669,1.0144606828689575,-2.3862178961383265
1708434857.5729356,-2.1419599056243896,-1.3332279932549973,-2.525104586278097,6.109670030861654,1.014444351196289,-2.386275831853048
1708434857.574903,-2.1419804096221924,-1.3332731884768982,-2.52505070367922,6.109640824585714,1.014506220817566,-2.386275831853048
1708434857.5769215,-2.1420140266418457,-1.3332973432591935,-2.525038782750265,6.109677541046896,1.014411211013794,-2.3862715403186243
1708434857.5789294,-2.141989231109619,-1.3332407635501404,-2.525071684514181,6.109710085182943,1.0144606828689575,-2.3862505594836634
1708434857.5808804,-2.1419880390167236,-1.333272562628128,-2.525055233632223,6.109632122307577,1.0144398212432861,-2.3862505594836634
1708434857.5829284,-2.1419928073883057,-1.3332484525493165,-2.525034491215841,6.109620201378622,1.014423131942749,-2.3862550894366663
1708434857.5849245,-2.1419849395751953,-1.333244190817215,-2.525059525166647,6.109673249512472,1.014448881149292,-2.386247698460714
1708434857.586913,-2.1420061588287354,-1.3332973432591935,-2.525038782750265,6.109677541046896,1.0144579410552979,-2.386292282735006
1708434857.5889316,-2.1419713497161865,-1.3331909489682694,-2.525079075490133,6.1096441624458215,1.0144202709197998,-2.3862696329699915
1708434857.5908852,-2.142037868499756,-1.333285392527916,-2.525050942097799,6.109640824585714,1.0144039392471313,-2.3862577120410364
1708434857.5929039,-2.1419882774353027,-1.3332442057183762,-2.525083605443136,6.109685170441427,1.0144411325454712,-2.3862596193896692
1708434857.5948946,-2.142042398452759,-1.3332896840623398,-2.525075976048605,6.10968958118514,1.0144321918487549,-2.3862651030169886
1708434857.5969298,-2.142000436782837,-1.33323226988826,-2.525067392979757,6.109657037049093,1.0144039392471313,-2.3862834612475794
1708434857.598989,-2.1419713497161865,-1.333223671918251,-2.52505070367922,6.109697091370382,1.0143918991088867,-2.386275831853048
1708434857.6009207,-2.1420094966888428,-1.3332646650126954,-2.52509576479067,6.109633195191183,1.0144338607788086,-2.386284891759054
1708434857.6029425,-2.1420185565948486,-1.3332768839648743,-2.5251010099994105,6.109645116120138,1.0144623517990112,-2.386296812688009
1708434857.6049402,-2.1420209407806396,-1.3332725328258057,-2.525046412144796,6.1096569178398035,1.0144321918487549,-2.386301104222433
1708434857.60692,-2.1420209407806396,-1.3332689118436356,-2.525038782750265,6.10966573932723,1.0143920183181763,-2.3862550894366663
1708434857.6089385,-2.1420300006866455,-1.333264635210373,-2.525108877812521,6.109620201378622,1.0144083499908447,-2.3862670103656214
1708434857.6109102,-2.14200496673584,-1.3332484525493165,-2.525046412144796,6.109704959183492,1.0144503116607666,-2.386301104222433
1708434857.6129289,-2.1419758796691895,-1.3332408380559464,-2.525046412144796,6.109685170441427,1.0143874883651733,-2.3862596193896692
1708434857.6149049,-2.142075300216675,-1.3332279485515137,-2.525092426930563,6.109652745514669,1.0144038200378418,-2.3862550894366663
1708434857.616939,-2.1420514583587646,-1.333216057424881,-2.525104586278097,6.109706747322836,1.0144411325454712,-2.3863099257098597
1708434857.6189213,-2.1419601440429688,-1.333293081527092,-2.525059525166647,6.1097015021140955,1.0144083499908447,-2.3862624804126185
1708434857.6209025,-2.1419882774353027,-1.3332236421159287,-2.525038782750265,6.109648334770956,1.0143874883651733,-2.3862550894366663
1708434857.622911,-2.1419553756713867,-1.333244190817215,-2.5250638167010706,6.109657037049093,1.01438307762146,-2.3862412611590784
1708434857.624919,-2.1420140266418457,-1.3332639944604416,-2.525092426930563,6.109692799835958,1.0143874883651733,-2.3862550894366663
1708434857.6270003,-2.1420185565948486,-1.3332769137671967,-2.525022570286886,6.1097015021140955,1.0143874883651733,-2.3862341086017054
1708434857.628961,-2.1420469284057617,-1.3332279932549973,-2.525067392979757,6.109657037049093,1.0144174098968506,-2.3862550894366663
1708434857.6309323,-2.1420514583587646,-1.3332973283580323,-2.5250638167010706,6.10963653305129,1.0143793821334839,-2.3862834612475794
1708434857.6329396,-2.1420228481292725,-1.3332398247769852,-2.525100056325094,6.109652745514669,1.0143920183181763,-2.3862431685077112
1708434857.6349092,-2.1420469284057617,-1.3332613420537491,-2.5251131693469446,6.109655964165487,1.0144038200378418,-2.3862596193896692
1708434857.636918,-2.1420469284057617,-1.333256022339203,-2.525092426930563,6.109680878907003,1.0143495798110962,-2.3863099257098597
1708434857.63891,-2.1419928073883057,-1.333239809875824,-2.525055233632223,6.109644043236532,1.0143885612487793,-2.3862550894366663
1708434857.6409242,-2.1420469284057617,-1.3332731139710923,-2.525055233632223,6.1097015021140955,1.0143840312957764,-2.3862789312945765
1708434857.6429408,-2.1420254707336426,-1.3332279932549973,-2.525116268788473,6.109664666443624,1.0143884420394897,-2.3862624804126185
1708434857.6448944,-2.1420209407806396,-1.3332484525493165,-2.525038782750265,6.1096322415168665,1.0143557786941528,-2.3862550894366663
1708434857.646913,-2.1420300006866455,-1.3332603734782715,-2.525059525166647,6.109680878907003,1.0143920183181763,-2.3862760702716272
1708434857.6489015,-2.142042398452759,-1.3332279932549973,-2.525059525166647,6.109698164253988,1.0144010782241821,-2.3862596193896692
1708434857.65093,-2.1419837474823,-1.3332647246173401,-2.525071684514181,6.1097015021140955,1.0143721103668213,-2.386275831853048
1708434857.6529167,-2.142054796218872,-1.333211750989296,-2.525100056325094,6.109701382904806,1.0144128799438477,-2.3862715403186243
1708434857.6549218,-2.1419880390167236,-1.3332484823516388,-2.525075976048605,6.109655964165487,1.0143721103668213,-2.3862431685077112
1708434857.6569118,-2.1420726776123047,-1.333273173575737,-2.5250847975360315,6.109697091370382,1.0143749713897705,-2.386235777531759
1708434857.6589077,-2.1420016288757324,-1.333199532037117,-2.525067392979757,6.109660255699911,1.0143465995788574,-2.386264149342672
1708434857.6608968,-2.1419804096221924,-1.3332603734782715,-2.525100056325094,6.109692799835958,1.0143557786941528,-2.386210266743795
1708434857.662908,-2.142042398452759,-1.333252714281418,-2.525034491215841,6.109721171646871,1.0143438577651978,-2.386240307484762
1708434857.664892,-2.1419928073883057,-1.3332203489593049,-2.525043312703268,6.109709369927206,1.014336109161377,-2.3861940542804163
1708434857.6668892,-2.142054796218872,-1.333252714281418,-2.525039021168844,6.1097298739250085,1.0143393278121948,-2.386202875767843
1708434857.668914,-2.1420557498931885,-1.333244190817215,-2.52508789697756,6.1096569178398035,1.01435124874115,-2.3861876169787806
1708434857.67092,-2.1420228481292725,-1.333264635210373,-2.525055233632223,6.109679686814108,1.014331579208374,-2.3861711660968226
1708434857.67288,-2.14200496673584,-1.3332725328258057,-2.525059525166647,6.109705793648519,1.0143646001815796,-2.3861354033099573
1708434857.6748908,-2.142000436782837,-1.3332689118436356,-2.525083605443136,6.109728801041403,1.0143393278121948,-2.3861234823810022
1708434857.676889,-2.1420254707336426,-1.3332683008960267,-2.52505070367922,6.109749424248495,1.014336109161377,-2.386094633732931
1708434857.6789021,-2.1420254707336426,-1.3332407933524628,-2.525038782750265,6.109758126526632,1.014352798461914,-2.386144463215963
1708434857.680909,-2.142050266265869,-1.3332203489593049,-2.525100056325094,6.109817850380697,1.0143482685089111,-2.386085573826925
1708434857.6829233,-2.1420705318450928,-1.3332854223302384,-2.5250967184649866,6.1098495600517175,1.0143766403198242,-2.386132542287008
1708434857.684897,-2.142042398452759,-1.333256022339203,-2.5251055399524134,6.109828698426046,1.014327049255371,-2.386099163685934
1708434857.6869154,-2.142037868499756,-1.3332279485515137,-2.525100056325094,6.109873521118917,1.0144020318984985,-2.386085573826925
1708434857.688905,-2.1420254707336426,-1.3332768690637131,-2.525067392979757,6.109816777497091,1.014336109161377,-2.3861427942859095
1708434857.6908975,-2.1420300006866455,-1.3332398694804688,-2.525075976048605,6.109857308655538,1.0143601894378662,-2.3861189524279993
1708434857.6928878,-2.1420185565948486,-1.3332407933524628,-2.525071684514181,6.109945881157675,1.014369249343872,-2.386160675679342
1708434857.6948988,-2.1419758796691895,-1.3332896840623398,-2.525071684514181,6.109857189446249,1.014369249343872,-2.386116329823629
1708434857.696926,-2.1420795917510986,-1.3332235974124451,-2.525055233632223,6.109795081406393,1.0143495798110962,-2.386132542287008
1708434857.6989045,-2.14200496673584,-1.3332569760135193,-2.525055233632223,6.1099047539527795,1.014336109161377,-2.386094395314352
1708434857.7009118,-2.14200496673584,-1.3333207678845902,-2.52508789697756,6.1098646996314905,1.01435124874115,-2.386111561452047
1708434857.7028954,-2.142000436782837,-1.3332689118436356,-2.5250638167010706,6.109856116562643,1.0142866373062134,-2.3860982100116175
1708434857.7048845,-2.1420209407806396,-1.333256022339203,-2.525038782750265,6.109880912094869,1.014315128326416,-2.386082712803976
1708434857.706876,-2.1419804096221924,-1.3332603734782715,-2.525108877812521,6.109872329026022,1.014331579208374,-2.3861234823810022
1708434857.7088873,-2.1420209407806396,-1.333281160598137,-2.5250301996814173,6.109844195633688,1.014369249343872,-2.38611609140505
1708434857.7108831,-2.1420140266418457,-1.3332365465215226,-2.525071684514181,6.109872329026022,1.014331579208374,-2.3860891501056116
1708434857.7128744,-2.1420094966888428,-1.3332973432591935,-2.5250585714923304,6.1098365662391565,1.0143405199050903,-2.3861025015460413
1708434857.7149065,-2.14200496673584,-1.333216057424881,-2.525062863026754,6.109790789871969,1.0143349170684814,-2.3861518541919153
1708434857.716885,-2.142075300216675,-1.3332193803838273,-2.525071684514181,6.109856116562643,1.0143556594848633,-2.386085573826925
1708434857.7189429,-2.1420557498931885,-1.3332603585771103,-2.5250802675830286,6.109819996147909,1.0143438577651978,-2.386144463215963
1708434857.7208915,-2.1420300006866455,-1.333252714281418,-2.525104586278097,6.109832274704733,1.0143226385116577,-2.386082712803976
1708434857.7228978,-2.1420795917510986,-1.3333102327636261,-2.525075976048605,6.109926450043478,1.014331579208374,-2.386132542287008
1708434857.7249331,-2.1420094966888428,-1.333252714281418,-2.525038782750265,6.109897243767538,1.014336109161377,-2.386099163685934
1708434857.726953,-2.1420705318450928,-1.3333092641881485,-2.5250638167010706,6.109856116562643,1.014336109161377,-2.3861189524279993
1708434857.7288916,-2.142057180404663,-1.3332725328258057,-2.5250638167010706,6.109881031304159,1.0143349170684814,-2.386132542287008
1708434857.730881,-2.142066240310669,-1.3332768839648743,-2.525055233632223,6.109852778702535,1.0143827199935913,-2.3861144224749964
1708434857.7328684,-2.142054796218872,-1.3332526993802567,-2.525043312703268,6.109869110375204,1.0143241882324219,-2.386160675679342
1708434857.7349048,-2.142098903656006,-1.33323226988826,-2.52505070367922,6.109861600189962,1.014373779296875,-2.386165444050924
1708434857.7368786,-2.141996145248413,-1.3332725328258057,-2.52502686182131,6.109844195633688,1.0144144296646118,-2.386082712803976
1708434857.7388844,-2.141979217529297,-1.333252714281418,-2.5250540415393274,6.109819996147909,1.0143033266067505,-2.3861771265613
1708434857.7409627,-2.14200496673584,-1.333244190817215,-2.525055233632223,6.109852778702535,1.014357328414917,-2.386090103779928
1708434857.742901,-2.142059326171875,-1.3332603734782715,-2.525083605443136,6.109897124558248,1.0143271684646606,-2.386111561452047
1708434857.744951,-2.142045736312866,-1.3332038235715409,-2.525059525166647,6.109845268517294,1.0143197774887085,-2.386066261922018
1708434857.7469108,-2.142059326171875,-1.3332398247769852,-2.525104586278097,6.109852778702535,1.0143078565597534,-2.386137072240011
1708434857.7488947,-2.142066240310669,-1.333244190817215,-2.525075976048605,6.109808194428243,1.0143405199050903,-2.386128012334005
1708434857.7508857,-2.1420164108276367,-1.3332279932549973,-2.525108877812521,6.109880912094869,1.014315128326416,-2.386066261922018
1708434857.752933,-2.1420414447784424,-1.3332203489593049,-2.525062863026754,6.1098646996314905,1.0143241882324219,-2.386120621358053
1708434857.7548933,-2.1420705318450928,-1.3332768839648743,-2.525055233632223,6.109802710800924,1.0143450498580933,-2.386089865361349
1708434857.7568986,-2.142059326171875,-1.3332117658904572,-2.52508789697756,6.109839784889974,1.014336109161377,-2.386132780705587
1708434857.7589016,-2.142054796218872,-1.3332689118436356,-2.525083605443136,6.109832274704733,1.0143405199050903,-2.386094633732931
1708434857.7609258,-2.142054796218872,-1.333244190817215,-2.525055233632223,6.109873521118917,1.014327049255371,-2.3861027399646204
1708434857.7628994,-2.142054796218872,-1.3332725328258057,-2.525075976048605,6.109815704613485,1.0143285989761353,-2.386087242756979
1708434857.7649121,-2.1420819759368896,-1.3332887154868622,-2.525108877812521,6.109770285874166,1.0143061876296997,-2.386144463215963
1708434857.7669022,-2.1420955657958984,-1.333273173575737,-2.525043312703268,6.109885322838583,1.0143285989761353,-2.386116329823629
1708434857.7689197,-2.142037868499756,-1.3332569909146805,-2.5250683466540735,6.109868037491598,1.0143781900405884,-2.386137072240011
1708434857.7709274,-2.142000436782837,-1.3332484525493165,-2.52502686182131,6.109827863961019,1.0143197774887085,-2.386111561452047
1708434857.7729337,-2.142011880874634,-1.3332940352014084,-2.525071684514181,6.109845387726583,1.0143405199050903,-2.3861234823810022
1708434857.7749078,-2.142000436782837,-1.333273173575737,-2.525059525166647,6.109889733582296,1.014336109161377,-2.386090103779928
1708434857.7769191,-2.1420469284057617,-1.333252714281418,-2.5250518957721155,6.109799372940817,1.0143406391143799,-2.3861027399646204
1708434857.779079,-2.1420414447784424,-1.3332236421159287,-2.5251131693469446,6.109828698426046,1.0143450498580933,-2.386099163685934
1708434857.7809794,-2.142050266265869,-1.3332354885390778,-2.525067392979757,6.1098636267478845,1.0143405199050903,-2.386111561452047
1708434857.7829678,-2.1419880390167236,-1.3332441759160538,-2.525038782750265,6.109783160477438,1.014357328414917,-2.3861427942859095
1708434857.7849295,-2.1420164108276367,-1.3332569909146805,-2.525067392979757,6.109786379128256,1.0143285989761353,-2.386099163685934
1708434857.7868967,-2.142050266265869,-1.3332279932549973,-2.525075976048605,6.109901535301962,1.0143287181854248,-2.386099163685934
1708434857.7889185,-2.142045736312866,-1.3332854223302384,-2.525083605443136,6.109819996147909,1.0143241882324219,-2.386153523121969
1708434857.790907,-2.1420910358428955,-1.3332279932549973,-2.525108877812521,6.109881031304159,1.0143197774887085,-2.386085573826925
1708434857.792967,-2.142033338546753,-1.3332407933524628,-2.525055233632223,6.109873521118917,1.0142866373062134,-2.386061731969015
1708434857.7949092,-2.1420164108276367,-1.3332279336503525,-2.52505070367922,6.109877812653341,1.014336109161377,-2.386082712803976
1708434857.7968924,-2.142037868499756,-1.3332279932549973,-2.525043312703268,6.109877812653341,1.0143078565597534,-2.386111561452047
1708434857.798902,-2.142054796218872,-1.3332768839648743,-2.5250805060016077,6.109800565033712,1.0143285989761353,-2.3861354033099573
1708434857.800936,-2.142077684402466,-1.3332193803838273,-2.5250638167010706,6.109889733582296,1.0143122673034668,-2.386169974003927
1708434857.8029847,-2.142066240310669,-1.3332603734782715,-2.525038782750265,6.109808194428243,1.0143241882324219,-2.386132542287008
1708434857.8049068,-2.142075300216675,-1.33323226988826,-2.525075976048605,6.109873401909628,1.0143122673034668,-2.386111561452047
1708434857.8069208,-2.142037868499756,-1.3332365316203614,-2.525076214467184,6.109815704613485,1.0144020318984985,-2.386148993168966
1708434857.808901,-2.142061710357666,-1.33323226988826,-2.5250847975360315,6.109914648323812,1.0143241882324219,-2.3861354033099573
1708434857.8109117,-2.142066240310669,-1.333264635210373,-2.525038782750265,6.109815704613485,1.0143197774887085,-2.3861234823810022
1708434857.8129416,-2.142029047012329,-1.3332896840623398,-2.525059525166647,6.109808194428243,1.014336109161377,-2.386078182850973
1708434857.8148944,-2.142029047012329,-1.3332365316203614,-2.52508789697756,6.109870302468099,1.0143617391586304,-2.386137072240011
1708434857.8169148,-2.142045736312866,-1.333256022339203,-2.525092426930563,6.109795081406393,1.0142865180969238,-2.386099163685934
1708434857.8189182,-2.141996145248413,-1.3332398247769852,-2.525046412144796,6.10984097698287,1.0143078565597534,-2.386087242756979
1708434857.8208795,-2.1420369148254395,-1.3332203489593049,-2.525059525166647,6.109860408097067,1.0143495798110962,-2.386090103779928
1708434857.8229132,-2.1420414447784424,-1.3332689118436356,-2.525079313908712,6.1098365662391565,1.014336109161377,-2.386157814656393
1708434857.8249378,-2.142063856124878,-1.333264635210373,-2.525108877812521,6.109852778702535,1.0143331289291382,-2.3861308733569544
1708434857.8269308,-2.142050266265869,-1.3332484525493165,-2.525034491215841,6.109808194428243,1.0143077373504639,-2.386099163685934
1708434857.828914,-2.142029047012329,-1.3332038235715409,-2.525104586278097,6.109845268517294,1.0142865180969238,-2.386132542287008
1708434857.8308952,-2.1420209407806396,-1.3332074594548722,-2.525092426930563,6.109857189446249,1.0143332481384277,-2.386085573826925
1708434857.832902,-2.142094373703003,-1.333264635210373,-2.525067392979757,6.109852778702535,1.0143213272094727,-2.386099163685934
1708434857.8348904,-2.142059326171875,-1.3332854223302384,-2.525092426930563,6.1097885248954675,1.0142923593521118,-2.386128012334005
1708434857.8369458,-2.1420209407806396,-1.3332689118436356,-2.525067392979757,6.1098365662391565,1.0143001079559326,-2.3861025015460413
1708434857.8389044,-2.142066240310669,-1.3332118105939408,-2.525055233632223,6.109828698426046,1.0142743587493896,-2.386160675679342
1708434857.8408883,-2.14200758934021,-1.3332818013480683,-2.525100056325094,6.10980378368453,1.0143450498580933,-2.3861070314990442
1708434857.8429227,-2.1420819759368896,-1.333256022339203,-2.5251250902758997,6.109815704613485,1.0143241882324219,-2.386090103779928
1708434857.844896,-2.1420342922210693,-1.3332074594548722,-2.5251250902758997,6.1097919819648645,1.014336109161377,-2.386144463215963
1708434857.8469348,-2.142029047012329,-1.333256022339203,-2.525038782750265,6.109811413079061,1.0143285989761353,-2.386103693638937
1708434857.8489141,-2.1420865058898926,-1.3332355630448838,-2.525055233632223,6.109808194428243,1.0143078565597534,-2.386099163685934
1708434857.850909,-2.142050266265869,-1.33323226988826,-2.525079313908712,6.109841811447897,1.0142911672592163,-2.386165444050924
1708434857.8529205,-2.1420705318450928,-1.3332517755082627,-2.5250194708453577,6.10980378368453,1.0143078565597534,-2.386148993168966
1708434857.8549235,-2.142024517059326,-1.333272562628128,-2.525046412144796,6.109895098000326,1.0143167972564697,-2.386116329823629
1708434857.8569257,-2.1420865058898926,-1.333249421124794,-2.525031391774313,6.109767782479086,1.014319658279419,-2.386148993168966
1708434857.858914,-2.142054796218872,-1.3332365316203614,-2.5251010099994105,6.109828698426046,1.0142788887023926,-2.386094395314352
1708434857.8608935,-2.1420910358428955,-1.333281160598137,-2.525055233632223,6.109815704613485,1.0142652988433838,-2.386160675679342
1708434857.8629217,-2.142029047012329,-1.3332203489593049,-2.525031391774313,6.109812485962667,1.0142910480499268,-2.386085573826925
1708434857.864892,-2.142045736312866,-1.3332203489593049,-2.525075976048605,6.109828698426046,1.0143450498580933,-2.386116329823629
1708434857.8669374,-2.142045736312866,-1.3332896840623398,-2.525108877812521,6.109828698426046,1.0142505168914795,-2.386128012334005
1708434857.8689432,-2.142033338546753,-1.3332484525493165,-2.525038782750265,6.10980378368453,1.0142879486083984,-2.386132542287008
1708434857.8709471,-2.142066240310669,-1.333252729182579,-2.525100056325094,6.109808194428243,1.0143377780914307,-2.386144463215963
1708434857.8729084,-2.1420865058898926,-1.3332603734782715,-2.525100056325094,6.10980378368453,1.0142955780029297,-2.386099163685934
1708434857.8749173,-2.1420209407806396,-1.3332896840623398,-2.525083605443136,6.109824406891622,1.0143213272094727,-2.3861234823810022
1708434857.8769236,-2.1420819759368896,-1.3332603734782715,-2.525100056325094,6.109779703408041,1.0142879486083984,-2.386111561452047
1708434857.8789024,-2.142073154449463,-1.3332246106914063,-2.525071684514181,6.109816777497091,1.0142788887023926,-2.386081043873922
1708434857.8809144,-2.142090082168579,-1.3332365316203614,-2.525079313908712,6.1097590802009485,1.0143213272094727,-2.386144463215963
1708434857.8829372,-2.142057180404663,-1.3332484525493165,-2.52505070367922,6.109759199410238,1.0142879486083984,-2.3861354033099573
1708434857.8848925,-2.1420705318450928,-1.3332768839648743,-2.525104586278097,6.109751808434286,1.0143377780914307,-2.3861146608935755
1708434857.8869169,-2.142061710357666,-1.3332073998502274,-2.5251131693469446,6.109824406891622,1.0143331289291382,-2.386111561452047
1708434857.888908,-2.142054796218872,-1.3331995618394394,-2.525075976048605,6.109841811447897,1.0143001079559326,-2.386160675679342
1708434857.8908944,-2.142050266265869,-1.3332118105939408,-2.525046412144796,6.109800565033712,1.0142669677734375,-2.3861354033099573
1708434857.8929214,-2.142077684402466,-1.3332280230573197,-2.5250704924212855,6.109800565033712,1.0142624378204346,-2.386089865361349
1708434857.8948934,-2.142050266265869,-1.3332118105939408,-2.525100056325094,6.109809267311849,1.0143001079559326,-2.3860600630389612
1708434857.8969119,-2.1420369148254395,-1.3332896840623398,-2.525067392979757,6.109800565033712,1.0142865180969238,-2.3861683050738733
1708434857.8989,-2.142077684402466,-1.3332246106914063,-2.525104586278097,6.109858381539144,1.0143331289291382,-2.3861354033099573
1708434857.900927,-2.142050266265869,-1.3332603734782715,-2.525075976048605,6.109800565033712,1.0142534971237183,-2.386064592991964
1708434857.9029198,-2.142033338546753,-1.333244190817215,-2.525055233632223,6.1097720740135095,1.0142879486083984,-2.386064592991964
1708434857.9048924,-2.142037868499756,-1.3332279932549973,-2.5251176992999476,6.109796273499288,1.0143377780914307,-2.3861189524279993
1708434857.9069116,-2.142057180404663,-1.3332768839648743,-2.5250638167010706,6.109792816429891,1.0143377780914307,-2.3861354033099573
1708434857.908935,-2.142054796218872,-1.3332118105939408,-2.525075976048605,6.109743225365438,1.0143001079559326,-2.386128012334005
1708434857.9109058,-2.1421031951904297,-1.3332280230573197,-2.525059525166647,6.109769093781271,1.0143377780914307,-2.386132542287008
1708434857.9129515,-2.142073154449463,-1.3332844537547608,-2.5250518957721155,6.1098211882408044,1.0142383575439453,-2.386085573826925
1708434857.9149058,-2.1420910358428955,-1.3332973432591935,-2.525046412144796,6.109767782479086,1.01427161693573,-2.3861070314990442
1708434857.916935,-2.142033338546753,-1.3332768839648743,-2.52505070367922,6.109756219177999,1.0143213272094727,-2.386085573826925
1708434857.9189515,-2.1420819759368896,-1.3332365316203614,-2.5250847975360315,6.109796988755026,1.0142834186553955,-2.3861146608935755
1708434857.9208953,-2.1420865058898926,-1.3332484525493165,-2.525059525166647,6.109769093781271,1.0142834186553955,-2.386111561452047
1708434857.92293,-2.142054796218872,-1.3332451593926926,-2.525108877812521,6.109736311226644,1.0142879486083984,-2.3861027399646204
1708434857.9249206,-2.1420865058898926,-1.333264635210373,-2.525059525166647,6.109816777497091,1.0142788887023926,-2.3861189524279993
1708434857.9269369,-2.142090082168579,-1.3332081002048035,-2.525104586278097,6.109743225365438,1.0143135786056519,-2.3861025015460413
1708434857.928919,-2.1420705318450928,-1.333264635210373,-2.525071684514181,6.109772193222799,1.0142788887023926,-2.3860936800586146
1708434857.9308956,-2.142073154449463,-1.3332365316203614,-2.525043312703268,6.1098177311714075,1.0143122673034668,-2.3861518541919153
1708434857.9329057,-2.1420865058898926,-1.333281160598137,-2.5251296202289026,6.109792697220602,1.0143046379089355,-2.3861354033099573
1708434857.9349196,-2.142090082168579,-1.333179162149765,-2.525043312703268,6.109775292664327,1.0143377780914307,-2.386144224797384
1708434857.936906,-2.142066240310669,-1.333301604991295,-2.525092426930563,6.109751808434286,1.0143091678619385,-2.3861189524279993
1708434857.938913,-2.1420865058898926,-1.3332365316203614,-2.52508789697756,6.109785067826071,1.0143091678619385,-2.386081043873922
1708434857.940912,-2.142066240310669,-1.3332930517247696,-2.525071684514181,6.109764802246847,1.0143213272094727,-2.3861070314990442
1708434857.9429474,-2.1420414447784424,-1.333244190817215,-2.525062863026754,6.109783994942465,1.0142910480499268,-2.3861308733569544
1708434857.944887,-2.142090082168579,-1.3332656037858506,-2.5250638167010706,6.1098049757774255,1.0143332481384277,-2.3861146608935755
1708434857.9469223,-2.1420164108276367,-1.3332236421159287,-2.525104586278097,6.109764802246847,1.0142910480499268,-2.3861101309405726
1708434857.94889,-2.142029047012329,-1.3332236421159287,-2.525083605443136,6.109756219177999,1.0143167972564697,-2.386128012334005
1708434857.9508939,-2.1420819759368896,-1.3332407933524628,-2.525083605443136,6.109772193222799,1.0143046379089355,-2.386111561452047
1708434857.9529462,-2.142098903656006,-1.33323226988826,-2.52505070367922,6.109760510712423,1.0143241882324219,-2.3861518541919153
1708434857.954907,-2.142066240310669,-1.333256022339203,-2.5250847975360315,6.109776484757223,1.0142955780029297,-2.386090103779928
1708434857.9569037,-2.1420705318450928,-1.333273173575737,-2.525062863026754,6.1098049757774255,1.0142834186553955,-2.3861518541919153
1708434857.9589052,-2.1420865058898926,-1.3332603734782715,-2.5250967184649866,6.109772193222799,1.0143046379089355,-2.3861473242389124
1708434857.9608767,-2.1420819759368896,-1.3332484525493165,-2.5251176992999476,6.109757292061605,1.0143377780914307,-2.386111561452047
1708434857.9629078,-2.142090082168579,-1.3332118105939408,-2.525055233632223,6.109756219177999,1.014278769493103,-2.3861265818225306
1708434857.9648826,-2.142054796218872,-1.333244190817215,-2.525031391774313,6.109719025879659,1.0142834186553955,-2.386144463215963
1708434857.9669113,-2.142077684402466,-1.333281160598137,-2.52509576479067,6.109724509506979,1.0142879486083984,-2.3861399332629603
1708434857.968899,-2.142057180404663,-1.333244190817215,-2.5250726381884974,6.109736311226644,1.0142714977264404,-2.386116329823629
1708434857.9709084,-2.142057180404663,-1.33323226988826,-2.525055233632223,6.109793770104208,1.0143001079559326,-2.3861399332629603
1708434857.972917,-2.1420767307281494,-1.3333058816245575,-2.5250301996814173,6.109789478569784,1.0143046379089355,-2.3860936800586146
1708434857.974908,-2.142045736312866,-1.3332603734782715,-2.525059525166647,6.109809267311849,1.0143001079559326,-2.3861563841449183
1708434857.9769218,-2.142066240310669,-1.3332365316203614,-2.525104586278097,6.109764802246847,1.014309048652649,-2.386111561452047
1708434857.978911,-2.142061710357666,-1.3332355630448838,-2.5251010099994105,6.109752881317892,1.014278769493103,-2.3861683050738733
1708434857.9808877,-2.142024517059326,-1.3331995618394394,-2.525059525166647,6.109751808434286,1.0143135786056519,-2.3861308733569544
1708434857.982908,-2.1420164108276367,-1.33323226988826,-2.525059525166647,6.109780776291647,1.014278769493103,-2.386172596608297
1708434857.9848871,-2.142045736312866,-1.3332811307958146,-2.525075976048605,6.109763371735372,1.0143077373504639,-2.386156145726339
1708434857.9869268,-2.142090082168579,-1.3332896840623398,-2.525038782750265,6.109736311226644,1.0142955780029297,-2.386081043873922
1708434857.9889293,-2.142075300216675,-1.333252714281418,-2.525059525166647,6.1097779152686975,1.0143046379089355,-2.3861683050738733
1708434857.9908957,-2.142073154449463,-1.333252714281418,-2.525079313908712,6.109736311226644,1.0143258571624756,-2.3861234823810022
1708434857.9929743,-2.1421031951904297,-1.333252714281418,-2.525010649357931,6.109724509506979,1.0142834186553955,-2.3861308733569544
1708434857.994915,-2.1421079635620117,-1.3332398247769852,-2.525100056325094,6.1097320196922205,1.0143167972564697,-2.3861802260028284
1708434857.9969215,-2.142054796218872,-1.3332398247769852,-2.525059525166647,6.109760629921713,1.0142955780029297,-2.3861382643329065
1708434857.998917,-2.142059326171875,-1.3332603734782715,-2.525083605443136,6.109769093781271,1.0143046379089355,-2.3861265818225306
1708434858.0009022,-2.142077684402466,-1.333244190817215,-2.525083605443136,6.10976921299056,1.0143046379089355,-2.3861771265613
1708434858.0029616,-2.142077684402466,-1.3332038235715409,-2.525092426930563,6.1097038862998865,1.0142879486083984,-2.3861518541919153
1708434858.004929,-2.142061710357666,-1.3332768839648743,-2.5251010099994105,6.109782206803121,1.0143046379089355,-2.3861399332629603
1708434858.0069108,-2.142050266265869,-1.3332236421159287,-2.525059525166647,6.109764802246847,1.0142834186553955,-2.3861146608935755
1708434858.0089219,-2.142024517059326,-1.3332603734782715,-2.5251131693469446,6.109744298249044,1.0142430067062378,-2.3861518541919153
1708434858.0109143,-2.142011880874634,-1.333245189195015,-2.5250638167010706,6.1097158072288416,1.0143213272094727,-2.386156145726339
1708434858.0129488,-2.142073154449463,-1.3332725328258057,-2.52505070367922,6.109740721970358,1.014255166053772,-2.3861680666552942
1708434858.0148857,-2.1420819759368896,-1.333264635210373,-2.525059525166647,6.109773504524984,1.0143091678619385,-2.3861473242389124
1708434858.0169103,-2.1420819759368896,-1.3332236421159287,-2.5250681082354944,6.109769093781271,1.014278769493103,-2.3861354033099573
1708434858.0189352,-2.1421031951904297,-1.3332398247769852,-2.525062863026754,6.109838592797079,1.014233946800232,-2.3861308733569544
1708434858.020894,-2.1420414447784424,-1.333195300107338,-2.525055233632223,6.1097779152686975,1.0143167972564697,-2.3861308733569544
1708434858.0229013,-2.142085552215576,-1.333281160598137,-2.525018040333883,6.1097450135047815,1.0142834186553955,-2.3861802260028284
1708434858.0249007,-2.142057180404663,-1.3332688820413132,-2.525059525166647,6.109749424248495,1.0142955780029297,-2.386081043873922
1708434858.0269177,-2.1420326232910156,-1.333244190817215,-2.525055233632223,6.109752881317892,1.0142834186553955,-2.3861354033099573
1708434858.0289218,-2.142077684402466,-1.3332646501115342,-2.5250638167010706,6.109761583596029,1.0143122673034668,-2.3861354033099573
1708434858.0309124,-2.1420528888702393,-1.3332203489593049,-2.525001827870504,6.109736311226644,1.0143258571624756,-2.3860936800586146
1708434858.0329306,-2.1420528888702393,-1.3332074594548722,-2.525092426930563,6.109782206803121,1.0143214464187622,-2.3861518541919153
1708434858.0349114,-2.1420326232910156,-1.333244190817215,-2.5251176992999476,6.109736311226644,1.0142879486083984,-2.386160675679342
1708434858.0369017,-2.142057180404663,-1.333195300107338,-2.52508789697756,6.109752881317892,1.0142879486083984,-2.3861637751208704
1708434858.0389059,-2.1420819759368896,-1.333256022339203,-2.525038782750265,6.109724509506979,1.0143377780914307,-2.3861354033099573
1708434858.0409026,-2.142057180404663,-1.33323226988826,-2.52508789697756,6.109798180847921,1.0143287181854248,-2.386156145726339
1708434858.04293,-2.142033338546753,-1.3332689118436356,-2.525083605443136,6.109720098763265,1.0142955780029297,-2.386165444050924
1708434858.0448773,-2.1420865058898926,-1.333293081527092,-2.525092426930563,6.109715688019552,1.0143046379089355,-2.3861771265613
1708434858.046892,-2.1421031951904297,-1.3332398396781464,-2.525104586278097,6.109757292061605,1.0143213272094727,-2.3861845175372522
1708434858.048911,-2.142045736312866,-1.33323226988826,-2.5250301996814173,6.109712588578024,1.0142879486083984,-2.3861473242389124
1708434858.0508995,-2.1420414447784424,-1.333244190817215,-2.525062863026754,6.109780776291647,1.0142923593521118,-2.3861354033099573
1708434858.0529633,-2.1420414447784424,-1.33330491304908,-2.525092426930563,6.109733211785116,1.0143122673034668,-2.386144463215963
1708434858.0548723,-2.14206862449646,-1.3332603734782715,-2.5250585714923304,6.109733211785116,1.0142788887023926,-2.3861473242389124
1708434858.056911,-2.142077684402466,-1.3332118105939408,-2.525046412144796,6.109785067826071,1.0143213272094727,-2.3862009684192103
1708434858.0589101,-2.1420369148254395,-1.33323226988826,-2.525120798741476,6.109728801041403,1.0143167972564697,-2.3861354033099573
1708434858.060913,-2.1420202255249023,-1.3332365316203614,-2.525062863026754,6.109744298249044,1.0142788887023926,-2.3861220518695276
1708434858.0629373,-2.142024517059326,-1.3332896840623398,-2.5250476042376917,6.109765994339742,1.0142879486083984,-2.3861473242389124
1708434858.0648878,-2.142029047012329,-1.3332484525493165,-2.52505070367922,6.109729993134298,1.0142788887023926,-2.3861518541919153
1708434858.066921,-2.1420414447784424,-1.3332656037858506,-2.525059525166647,6.1097450135047815,1.0143167972564697,-2.386160675679342
1708434858.0688908,-2.142045736312866,-1.3332603734782715,-2.5250638167010706,6.109696256905355,1.0143258571624756,-2.3861308733569544
1708434858.0708952,-2.142073154449463,-1.333244190817215,-2.525018278752462,6.109752881317892,1.0142624378204346,-2.3861146608935755
1708434858.0728993,-2.142045736312866,-1.333244190817215,-2.525075976048605,6.109691965370931,1.0142910480499268,-2.3861592451678675
1708434858.0749032,-2.1420369148254395,-1.333293081527092,-2.525075976048605,6.1096709845359705,1.0143213272094727,-2.3861308733569544
1708434858.0768924,-2.142045736312866,-1.3333164763501664,-2.5250890890704554,6.109786498337545,1.0143495798110962,-2.3861399332629603
1708434858.0788968,-2.1420369148254395,-1.3332517457059403,-2.525076214467184,6.109773504524984,1.0142788887023926,-2.3861427942859095
1708434858.080902,-2.142064332962036,-1.3332896393588562,-2.525034491215841,6.109687554627218,1.0142879486083984,-2.3861518541919153
1708434858.0829234,-2.1420865058898926,-1.3332484674504776,-2.525055233632223,6.109724509506979,1.0143167972564697,-2.3861027399646204
1708434858.0849032,-2.142045736312866,-1.3332279932549973,-2.525043312703268,6.109749424248495,1.0143077373504639,-2.3861189524279993
1708434858.08692,-2.142073154449463,-1.3332689118436356,-2.525104586278097,6.1098143933113,1.0142879486083984,-2.386156145726339
1708434858.0889003,-2.142061710357666,-1.3332160723260422,-2.525108877812521,6.109736311226644,1.0143046379089355,-2.3861354033099573
1708434858.090897,-2.142061710357666,-1.3332236421159287,-2.525038782750265,6.109740721970358,1.0142834186553955,-2.3861354033099573
1708434858.092909,-2.142061710357666,-1.3332768839648743,-2.525059525166647,6.109793770104208,1.0142743587493896,-2.3861518541919153
1708434858.094906,-2.1421031951904297,-1.3332896840623398,-2.5250521341906946,6.109683143883505,1.0143423080444336,-2.3860765139209192
1708434858.0969348,-2.142045736312866,-1.333264635210373,-2.525034491215841,6.109770285874166,1.0142955780029297,-2.3861308733569544
1708434858.098907,-2.142045736312866,-1.3332569909146805,-2.52505070367922,6.10973750331954,1.0142923593521118,-2.3861473242389124
1708434858.100889,-2.142059326171875,-1.33323226988826,-2.525071684514181,6.109700667649069,1.0143046379089355,-2.3861683050738733
1708434858.1028912,-2.142024517059326,-1.3332074594548722,-2.525075976048605,6.109712588578024,1.0142910480499268,-2.3862083593951624
1708434858.1048803,-2.142050266265869,-1.3332355630448838,-2.52508789697756,6.109703767090597,1.0143285989761353,-2.3861101309405726
1708434858.106886,-2.1420414447784424,-1.333264635210373,-2.5250137487994593,6.109765994339742,1.0143241882324219,-2.3861637751208704
1708434858.1088972,-2.142029047012329,-1.3332118105939408,-2.52505070367922,6.109733092575826,1.0142879486083984,-2.3860722223864954
1708434858.1108823,-2.142057180404663,-1.3332246106914063,-2.525043312703268,6.109699594765463,1.0143213272094727,-2.3861518541919153
1708434858.112883,-2.142024517059326,-1.333244190817215,-2.525092426930563,6.109700667649069,1.0143241882324219,-2.3861098925219935
1708434858.114883,-2.142059803009033,-1.3332118105939408,-2.52508789697756,6.109700667649069,1.0143285989761353,-2.386172596608297
1708434858.116895,-2.1420865058898926,-1.3332484525493165,-2.525100056325094,6.1097168801124475,1.0142669677734375,-2.3861518541919153
1708434858.1189315,-2.142073154449463,-1.3332682710937043,-2.5250921885119837,6.109688389092245,1.0143258571624756,-2.3861427942859095
1708434858.120909,-2.142061710357666,-1.333264635210373,-2.525075976048605,6.10970817783431,1.0142788887023926,-2.3861354033099573
1708434858.1228874,-2.142073154449463,-1.3332569909146805,-2.5250476042376917,6.109663474350729,1.0142743587493896,-2.3861518541919153
1708434858.1249073,-2.142090082168579,-1.3331995916417618,-2.525059525166647,6.109765994339742,1.0142834186553955,-2.386144224797384
1708434858.1269653,-2.142066240310669,-1.333252714281418,-2.525062863026754,6.109749305039205,1.0143001079559326,-2.386160675679342
1708434858.1289084,-2.142054796218872,-1.333256022339203,-2.525071684514181,6.109724509506979,1.0142834186553955,-2.3860891501056116
1708434858.1308992,-2.142073154449463,-1.3332355630448838,-2.525038782750265,6.1097168801124475,1.0143376588821411,-2.3861354033099573
1708434858.132916,-2.142024517059326,-1.3332689118436356,-2.525059525166647,6.109724509506979,1.0142834186553955,-2.3861025015460413
1708434858.134896,-2.1421031951904297,-1.333195300107338,-2.525046412144796,6.109765994339742,1.0143122673034668,-2.3861518541919153
1708434858.1368785,-2.142029047012329,-1.3332038235715409,-2.525055233632223,6.109728801041403,1.0142955780029297,-2.3861563841449183
1708434858.1389349,-2.142054796218872,-1.333252714281418,-2.525055233632223,6.109757292061605,1.0143078565597534,-2.386189047490255
1708434858.140903,-2.142045736312866,-1.3332682710937043,-2.525071684514181,6.109720098763265,1.0143285989761353,-2.3861144224749964
1708434858.1429048,-2.14206862449646,-1.3332854223302384,-2.525046412144796,6.1097168801124475,1.0143495798110962,-2.3861234823810022
1708434858.144896,-2.142120122909546,-1.3332854223302384,-2.525083605443136,6.109709369927206,1.0143122673034668,-2.3861518541919153
1708434858.1469204,-2.142115592956543,-1.333252714281418,-2.525062863026754,6.1097168801124475,1.0142834186553955,-2.3861101309405726
1708434858.1489015,-2.142057180404663,-1.3332398247769852,-2.525059525166647,6.109688389092245,1.0143167972564697,-2.3861473242389124
1708434858.1509278,-2.142098903656006,-1.333220363860466,-2.525071684514181,6.10971366146163,1.0143001079559326,-2.3861799875842493
1708434858.152888,-2.1420819759368896,-1.3332203787616272,-2.5250585714923304,6.1097460863883875,1.0143001079559326,-2.3861385027514856
1708434858.1548924,-2.142066240310669,-1.333301604991295,-2.5250421206103724,6.109688389092245,1.0142834186553955,-2.3861680666552942
1708434858.1568837,-2.1420528888702393,-1.3332398247769852,-2.525067392979757,6.10964726188735,1.0142743587493896,-2.386156145726339
1708434858.1589272,-2.1420528888702393,-1.3332603734782715,-2.525022570286886,6.109644043236532,1.0142625570297241,-2.3861265818225306
1708434858.1608875,-2.1421031951904297,-1.3332203489593049,-2.5251415411578577,6.10968183258132,1.0143377780914307,-2.3861845175372522
1708434858.1629019,-2.142033338546753,-1.3332074594548722,-2.525043312703268,6.109645116120138,1.0143078565597534,-2.3861563841449183
1708434858.1648874,-2.142061710357666,-1.3332407933524628,-2.5250967184649866,6.1095971939857385,1.0142910480499268,-2.3861354033099573
1708434858.1669157,-2.1420369148254395,-1.3332074296525498,-2.52505070367922,6.1096101877983,1.0142788887023926,-2.3861680666552942
1708434858.168914,-2.142094373703003,-1.3332683008960267,-2.525108877812521,6.10958098152236,1.0143122673034668,-2.3861265818225306
1708434858.170912,-2.1420369148254395,-1.3332569909146805,-2.525100056325094,6.109527456551351,1.0143001079559326,-2.3861308733569544
1708434858.1729016,-2.142073154449463,-1.333256022339203,-2.525128428136007,6.109556782036581,1.0142384767532349,-2.3861547152148646
1708434858.174924,-2.142077684402466,-1.333252714281418,-2.525067392979757,6.109531867295065,1.0143167972564697,-2.3861592451678675
1708434858.1768997,-2.142111301422119,-1.333273173575737,-2.5250638167010706,6.109577762871542,1.0143122673034668,-2.3861354033099573
1708434858.1789093,-2.142073154449463,-1.3332811754992981,-2.525055233632223,6.109631049423971,1.014330267906189,-2.3861308733569544
1708434858.180895,-2.142024517059326,-1.3333016645959397,-2.525108877812521,6.109564649849691,1.0143033266067505,-2.3861220518695276
1708434858.1829128,-2.1420528888702393,-1.333281160598137,-2.525062863026754,6.10961805561141,1.0143167972564697,-2.386160675679342
1708434858.1849184,-2.142073154449463,-1.3332160723260422,-2.525055233632223,6.1095852730567834,1.0142910480499268,-2.3861680666552942
1708434858.1868942,-2.142061710357666,-1.3332569611123581,-2.525120798741476,6.10961805561141,1.0143450498580933,-2.3861220518695276
1708434858.1889367,-2.142073154449463,-1.33323226988826,-2.525062863026754,6.10961805561141,1.0143377780914307,-2.3861592451678675
1708434858.1908906,-2.142029047012329,-1.3332897138646622,-2.525046412144796,6.1095690605934045,1.0142879486083984,-2.3860936800586146
1708434858.192965,-2.142094373703003,-1.3331995618394394,-2.525075976048605,6.109539496689596,1.0143033266067505,-2.3861399332629603
1708434858.194879,-2.1420865058898926,-1.3332398247769852,-2.5250638167010706,6.1095690605934045,1.0142910480499268,-2.3861354033099573
1708434858.1969123,-2.1420865058898926,-1.333268941645958,-2.5251131693469446,6.109634387284078,1.0143450498580933,-2.3861473242389124
1708434858.1989317,-2.142111301422119,-1.3332811904004593,-2.525116507207052,6.1095852730567834,1.0143122673034668,-2.3861354033099573
1708434858.2008858,-2.142073154449463,-1.3332689118436356,-2.525059525166647,6.109552490502157,1.0143377780914307,-2.3861399332629603
1708434858.202917,-2.142045736312866,-1.3332075041583558,-2.52505070367922,6.109650480538168,1.0142743587493896,-2.3861308733569544
1708434858.2048843,-2.142059803009033,-1.3332118105939408,-2.52508789697756,6.109650599747457,1.0142955780029297,-2.3861354033099573
1708434858.2068808,-2.142077684402466,-1.3332355630448838,-2.525104586278097,6.1095852730567834,1.0143077373504639,-2.386112991963522
1708434858.2088976,-2.1420528888702393,-1.3333178025535126,-2.52509576479067,6.109589564591207,1.0143214464187622,-2.3861518541919153
1708434858.210887,-2.142077684402466,-1.3332896840623398,-2.5250847975360315,6.109560239105978,1.0142743587493896,-2.3861473242389124
1708434858.2128913,-2.142066240310669,-1.3332160723260422,-2.525120798741476,6.109593975334921,1.0143213272094727,-2.3861189524279993
1708434858.2148857,-2.142073154449463,-1.3332442057183762,-2.525043312703268,6.109552490502157,1.0143078565597534,-2.386090103779928
1708434858.216885,-2.142090082168579,-1.3332854223302384,-2.5250847975360315,6.109601485520162,1.0143541097640991,-2.3861399332629603
1708434858.218909,-2.1420414447784424,-1.3332365316203614,-2.5251131693469446,6.10958098152236,1.0143167972564697,-2.3861354033099573
1708434858.2208896,-2.14206862449646,-1.3332118105939408,-2.525071684514181,6.109564649849691,1.0143285989761353,-2.386156145726339
1708434858.2228932,-2.14206862449646,-1.333252714281418,-2.525092426930563,6.109531867295065,1.0142879486083984,-2.3861354033099573
1708434858.2248952,-2.142066240310669,-1.3332289320281525,-2.525075976048605,6.10961805561141,1.0142743587493896,-2.3861518541919153
1708434858.226919,-2.1420819759368896,-1.3331995916417618,-2.5250585714923304,6.109552490502157,1.0143285989761353,-2.3861027399646204
1708434858.2289312,-2.142066240310669,-1.3332407933524628,-2.5250301996814173,6.109561192780294,1.0143241882324219,-2.3861354033099573
1708434858.2308986,-2.142024517059326,-1.3332689118436356,-2.525043312703268,6.1095982668693445,1.0143213272094727,-2.3861473242389124
1708434858.2329412,-2.1420705318450928,-1.3332517457059403,-2.525067392979757,6.109515893250265,1.0143122673034668,-2.3861308733569544
1708434858.23491,-2.1420819759368896,-1.3332236421159287,-2.525075976048605,6.109618890076437,1.0143046379089355,-2.3861473242389124
1708434858.2369068,-2.142068862915039,-1.3332236123136063,-2.525079313908712,6.109610307007589,1.0143167972564697,-2.3861799875842493
1708434858.238958,-2.142098903656006,-1.3332818013480683,-2.5251250902758997,6.109589564591207,1.0143033266067505,-2.3861473242389124
1708434858.2409034,-2.1420705318450928,-1.3332398247769852,-2.5250638167010706,6.1095690605934045,1.0143287181854248,-2.3861845175372522
1708434858.242918,-2.14206862449646,-1.3332569909146805,-2.525075976048605,6.109573352127828,1.0143078565597534,-2.386172596608297
1708434858.2449734,-2.1421031951904297,-1.3332517755082627,-2.52508789697756,6.1095852730567834,1.0143258571624756,-2.386160675679342
1708434858.2469738,-2.142061710357666,-1.3332032275250931,-2.525062863026754,6.109573352127828,1.0143285989761353,-2.3861146608935755
1708434858.2489128,-2.142061710357666,-1.3332769137671967,-2.525067392979757,6.109564649849691,1.0143405199050903,-2.3860936800586146
1708434858.2509,-2.1420414447784424,-1.3332355630448838,-2.525083605443136,6.109589683800497,1.0143285989761353,-2.3861518541919153
1708434858.2529187,-2.1420111656188965,-1.333249331717827,-2.525104586278097,6.109561192780294,1.0143078565597534,-2.3861354033099573
1708434858.254922,-2.1420414447784424,-1.3332074892571946,-2.525083605443136,6.109540569573202,1.0143122673034668,-2.3861802260028284
1708434858.2569315,-2.142077684402466,-1.3332598221353074,-2.525059525166647,6.109605896263876,1.0143450498580933,-2.3861382643329065
1708434858.2589045,-2.142045736312866,-1.3332689118436356,-2.52508789697756,6.1095852730567834,1.014315128326416,-2.3861070314990442
1708434858.260883,-2.142077684402466,-1.333198921089508,-2.525071684514181,6.109605896263876,1.0143001079559326,-2.3861427942859095
1708434858.262906,-2.142103433609009,-1.3332236421159287,-2.5250476042376917,6.109589564591207,1.0143241882324219,-2.3861189524279993
1708434858.26489,-2.1421122550964355,-1.3332118403962632,-2.5251131693469446,6.109589564591207,1.0143167972564697,-2.3861234823810022
1708434858.2669065,-2.142075300216675,-1.333256022339203,-2.525108877812521,6.109573352127828,1.0143122673034668,-2.386081043873922
1708434858.2689004,-2.1420819759368896,-1.3332365465215226,-2.52508789697756,6.109634387284078,1.0143197774887085,-2.3861308733569544
1708434858.270903,-2.142011880874634,-1.3332279932549973,-2.525018278752462,6.109610307007589,1.0143285989761353,-2.3861056009875696
1708434858.2729125,-2.14206862449646,-1.3332731437734147,-2.525108877812521,6.109577762871542,1.014336109161377,-2.3861680666552942
1708434858.274875,-2.142061710357666,-1.333289698963501,-2.525055233632223,6.1095690605934045,1.0143377780914307,-2.3861220518695276
1708434858.2768931,-2.142066240310669,-1.3332365465215226,-2.525075976048605,6.109577762871542,1.0143377780914307,-2.3861473242389124
1708434858.2789137,-2.142050266265869,-1.333273173575737,-2.525100056325094,6.109576570778646,1.0143077373504639,-2.3861427942859095
1708434858.280951,-2.142037868499756,-1.33323226988826,-2.525108877812521,6.109561192780294,1.0143285989761353,-2.3861563841449183
1708434858.2830012,-2.142029047012329,-1.333252714281418,-2.525104586278097,6.1095852730567834,1.0143122673034668,-2.3861592451678675
1708434858.2849367,-2.1420819759368896,-1.3332080704024811,-2.525079313908712,6.10958098152236,1.0142788887023926,-2.3861518541919153
1708434858.286951,-2.1420414447784424,-1.3332731437734147,-2.5251577536212366,6.109540569573202,1.0143033266067505,-2.3861354033099573
1708434858.2889063,-2.1420414447784424,-1.3332398247769852,-2.525034491215841,6.109601485520162,1.0143078565597534,-2.3861070314990442
1708434858.2909005,-2.1420369148254395,-1.333252714281418,-2.52509576479067,6.1096311686332605,1.0142910480499268,-2.3861146608935755
1708434858.2929063,-2.142077684402466,-1.333207444553711,-2.525055233632223,6.1095690605934045,1.0143377780914307,-2.3860979715930384
1708434858.2949212,-2.142054796218872,-1.3332160872272034,-2.525050942097799,6.109573352127828,1.0143078565597534,-2.3861802260028284
1708434858.2969272,-2.142094373703003,-1.3332484525493165,-2.525104586278097,6.109560358315267,1.0143033266067505,-2.3861427942859095
1708434858.2989137,-2.1420819759368896,-1.3331909489682694,-2.5250638167010706,6.109552490502157,1.0142955780029297,-2.3861563841449183
1708434858.3008993,-2.142029047012329,-1.3332560819438477,-2.525059525166647,6.109540569573202,1.0143078565597534,-2.3861354033099573
1708434858.3029466,-2.1420414447784424,-1.333273173575737,-2.525132719670431,6.109593975334921,1.0143285989761353,-2.3861308733569544
1708434858.3048875,-2.142054796218872,-1.3332475137761612,-2.525092426930563,6.1095361588294885,1.0143377780914307,-2.3861473242389124
1708434858.3069167,-2.142061710357666,-1.3332896840623398,-2.5250802675830286,6.109573352127828,1.0143662691116333,-2.3861265818225306
1708434858.3089144,-2.1420528888702393,-1.3332569909146805,-2.5251131693469446,6.109573352127828,1.0143213272094727,-2.386094395314352
1708434858.3108976,-2.142077684402466,-1.33331352592025,-2.525111977254049,6.1095690605934045,1.014336109161377,-2.386132542287008
1708434858.3129127,-2.142029047012329,-1.3333057475141068,-2.525083605443136,6.109577762871542,1.0143122673034668,-2.3860767523394983
1708434858.3149202,-2.1420705318450928,-1.3332731288722535,-2.525079313908712,6.109602558403768,1.0143001079559326,-2.3861234823810022
1708434858.3169103,-2.1420705318450928,-1.3332603883794327,-2.52508789697756,6.109601485520162,1.014336109161377,-2.3861473242389124
1708434858.3189304,-2.1420202255249023,-1.3332768839648743,-2.525120798741476,6.1095690605934045,1.0143241882324219,-2.3861354033099573
1708434858.3209162,-2.142063856124878,-1.3332569909146805,-2.525092426930563,6.109610307007589,1.0143285989761353,-2.386144224797384
1708434858.3229175,-2.1420819759368896,-1.333240733747818,-2.525062863026754,6.1095971939857385,1.0143450498580933,-2.3861265818225306
1708434858.3249047,-2.142033338546753,-1.3332203489593049,-2.525055233632223,6.109565484314718,1.0142834186553955,-2.3861637751208704
1708434858.3269453,-2.142045736312866,-1.3332518351129075,-2.525055233632223,6.10958098152236,1.0143213272094727,-2.386144224797384
1708434858.328927,-2.1420819759368896,-1.3332365167192002,-2.5250802675830286,6.109605777054586,1.0142955780029297,-2.386144463215963
1708434858.3309116,-2.142042398452759,-1.3332246106914063,-2.52505070367922,6.109589564591207,1.0142955780029297,-2.3861234823810022
1708434858.332948,-2.142054796218872,-1.3333144348910828,-2.525108877812521,6.1095690605934045,1.0143122673034668,-2.3861025015460413
1708434858.3349106,-2.142054796218872,-1.3332322549870987,-2.52505070367922,6.109595048218527,1.0143241882324219,-2.3861070314990442
1708434858.3369236,-2.142042398452759,-1.3332646203092118,-2.525071684514181,6.109556782036581,1.0143332481384277,-2.3861265818225306
1708434858.3389037,-2.142033338546753,-1.333264635210373,-2.525108877812521,6.109626877098837,1.0142743587493896,-2.3861220518695276
1708434858.3408842,-2.1420819759368896,-1.3332689267447968,-2.5250914732562464,6.109605061798849,1.0143001079559326,-2.3861189524279993
1708434858.3429215,-2.142115592956543,-1.3332484674504776,-2.525075976048605,6.109544980316915,1.0143078565597534,-2.386160675679342
1708434858.3449068,-2.1420865058898926,-1.3332290214351197,-2.525071684514181,6.109589564591207,1.0143332481384277,-2.3861518541919153
1708434858.3469336,-2.142061710357666,-1.3332484376481553,-2.525055233632223,6.109561192780294,1.0143377780914307,-2.3861473242389124
1708434858.3489213,-2.142066240310669,-1.3332365316203614,-2.525075976048605,6.109577762871542,1.0142866373062134,-2.3861399332629603
1708434858.3509128,-2.142075300216675,-1.3332118403962632,-2.525046412144796,6.109605896263876,1.0143541097640991,-2.3861399332629603
1708434858.3529334,-2.142066240310669,-1.333277480011322,-2.525104347859518,6.109560239105978,1.0143287181854248,-2.3861680666552942
1708434858.3548973,-2.142077684402466,-1.3332897138646622,-2.525075976048605,6.109582054405966,1.0143450498580933,-2.3861146608935755
1708434858.3569076,-2.142106771469116,-1.3332279932549973,-2.525075976048605,6.109549271851339,1.0142866373062134,-2.3861070314990442
1708434858.3588939,-2.142066240310669,-1.3332854521325608,-2.525046412144796,6.1095852730567834,1.0143495798110962,-2.386144463215963
1708434858.3608868,-2.142045736312866,-1.3332203489593049,-2.5250638167010706,6.109605896263876,1.0143197774887085,-2.3861399332629603
1708434858.3629234,-2.142066240310669,-1.3332118105939408,-2.5251131693469446,6.109605896263876,1.0142955780029297,-2.3861354033099573
1708434858.364896,-2.1420841217041016,-1.3332688820413132,-2.525055233632223,6.109552490502157,1.0143241882324219,-2.3861427942859095
1708434858.3669384,-2.1420209407806396,-1.333256022339203,-2.525071684514181,6.109499680786886,1.0143450498580933,-2.3861382643329065
1708434858.3689067,-2.142033338546753,-1.333273173575737,-2.525075976048605,6.109593975334921,1.0143241882324219,-2.3861027399646204
1708434858.3708959,-2.142045736312866,-1.3332560670426865,-2.52505070367922,6.109573352127828,1.0143542289733887,-2.3861473242389124
1708434858.3728936,-2.142045736312866,-1.3332365167192002,-2.5250967184649866,6.1095852730567834,1.0143450498580933,-2.3861234823810022
1708434858.374885,-2.142011880874634,-1.3332768690637131,-2.525062863026754,6.109613764076986,1.0143542289733887,-2.3861025015460413
1708434858.3769057,-2.142029047012329,-1.3332407933524628,-2.525079313908712,6.109573352127828,1.0143167972564697,-2.3861265818225306
1708434858.3789198,-2.142033338546753,-1.3332731139710923,-2.525062863026754,6.10958098152236,1.0143241882324219,-2.3861308733569544
1708434858.380917,-2.1420164108276367,-1.3332854372313996,-2.525071684514181,6.109602558403768,1.014331579208374,-2.3861518541919153
1708434858.3829553,-2.142029047012329,-1.333260403280594,-2.525100056325094,6.109589564591207,1.0143405199050903,-2.386160675679342
1708434858.3848927,-2.142077684402466,-1.3333093088916321,-2.525059525166647,6.109593975334921,1.014336109161377,-2.386181894932882
1708434858.3869498,-2.1420865058898926,-1.333228961830475,-2.525104586278097,6.109556782036581,1.0143450498580933,-2.3860765139209192
1708434858.3889446,-2.1420254707336426,-1.3332203191569825,-2.525055233632223,6.109564649849691,1.0143078565597534,-2.3861025015460413
1708434858.3909037,-2.142011880874634,-1.3332203191569825,-2.5251250902758997,6.1095622656639,1.0143122673034668,-2.3861189524279993
1708434858.3929281,-2.142050266265869,-1.3332038831761857,-2.525083605443136,6.109582054405966,1.014336109161377,-2.3861473242389124
1708434858.394897,-2.1421079635620117,-1.333252714281418,-2.525075976048605,6.109610307007589,1.0142821073532104,-2.386160675679342
1708434858.3969116,-2.142033338546753,-1.333261327152588,-2.5250301996814173,6.109556782036581,1.0143122673034668,-2.386156145726339
1708434858.3989117,-2.142024517059326,-1.3332689267447968,-2.525079313908712,6.1095971939857385,1.0143001079559326,-2.386144463215963
1708434858.4009244,-2.142033338546753,-1.3332972985557099,-2.525116268788473,6.109531867295065,1.0142910480499268,-2.3861308733569544
1708434858.4029212,-2.1420414447784424,-1.3332118552974244,-2.5250631014453333,6.109634387284078,1.0142910480499268,-2.386128012334005
1708434858.4049122,-2.142042398452759,-1.3331995767406006,-2.52508789697756,6.109576570778646,1.0143287181854248,-2.3861308733569544
1708434858.4069126,-2.142033338546753,-1.333264635210373,-2.525071684514181,6.109614598542013,1.0143450498580933,-2.3860982100116175
1708434858.4088955,-2.14200496673584,-1.3332484674504776,-2.525120798741476,6.1096311686332605,1.0142743587493896,-2.3861027399646204
1708434858.4108937,-2.1420819759368896,-1.333248422746994,-2.5250914732562464,6.109621274262228,1.0143107175827026,-2.386153523121969
1708434858.412903,-2.142059326171875,-1.3332689565471192,-2.525083605443136,6.109535085945883,1.0143663883209229,-2.3861308733569544
1708434858.4148932,-2.1420819759368896,-1.3332689118436356,-2.525137011204855,6.1095971939857385,1.0143405199050903,-2.3861070314990442
1708434858.4169126,-2.142059326171875,-1.3332365167192002,-2.525055233632223,6.109552490502157,1.014369249343872,-2.3861771265613
1708434858.4189234,-2.142050266265869,-1.33321666837249,-2.525075976048605,6.10961805561141,1.0143107175827026,-2.386144463215963
1708434858.420878,-2.1420369148254395,-1.3332332384637375,-2.525046412144796,6.109626877098837,1.0143285989761353,-2.3861027399646204
1708434858.4229286,-2.142075300216675,-1.333285467033722,-2.5250213781939905,6.10958098152236,1.0143033266067505,-2.3861518541919153
1708434858.4248967,-2.142033338546753,-1.3332484376481553,-2.525055233632223,6.1095971939857385,1.0143827199935913,-2.386128012334005
1708434858.4269254,-2.142066240310669,-1.3332365316203614,-2.52505070367922,6.109536278038778,1.014331579208374,-2.3861079851733606
1708434858.4289353,-2.1420795917510986,-1.3332896393588562,-2.525104347859518,6.109576451569357,1.014357328414917,-2.3861399332629603
1708434858.4309235,-2.142066240310669,-1.3332118701985856,-2.5250921885119837,6.109646189003744,1.014310598373413,-2.386111561452047
1708434858.4329073,-2.142033338546753,-1.333207519059517,-2.525059525166647,6.1095971939857385,1.0143285989761353,-2.3861070314990442
1708434858.4348857,-2.142075300216675,-1.3332603436759491,-2.525079313908712,6.109600770264425,1.0143405199050903,-2.386144224797384
1708434858.4369135,-2.1420254707336426,-1.3332237017205735,-2.525083605443136,6.109589564591207,1.0143945217132568,-2.3861399332629603
1708434858.438936,-2.142054796218872,-1.3332203191569825,-2.525067392979757,6.109605777054586,1.014336109161377,-2.3861354033099573
1708434858.4409168,-2.1420209407806396,-1.3332160723260422,-2.5250805060016077,6.1096709845359705,1.0143033266067505,-2.3861070314990442
1708434858.4429207,-2.1420202255249023,-1.3332407933524628,-2.525050942097799,6.109593975334921,1.0142987966537476,-2.3861234823810022
1708434858.444898,-2.142029047012329,-1.3332442206195374,-2.525108877812521,6.109616982727804,1.0143781900405884,-2.3861220518695276
1708434858.4469013,-2.142050266265869,-1.3332289022258301,-2.525104586278097,6.109622466355123,1.0143945217132568,-2.3861189524279993
1708434858.4488966,-2.142050266265869,-1.3332080853036423,-2.525059525166647,6.109555947571554,1.0143241882324219,-2.386156145726339
1708434858.4509199,-2.142029047012329,-1.333244190817215,-2.5250588099109095,6.1095971939857385,1.0143033266067505,-2.386111561452047
1708434858.4529102,-2.142029047012329,-1.3332484376481553,-2.5250421206103724,6.109588491707601,1.014357328414917,-2.386090103779928
1708434858.4549255,-2.1420705318450928,-1.3332203489593049,-2.525116507207052,6.109678733139791,1.0143061876296997,-2.386090103779928
1708434858.456927,-2.1420910358428955,-1.3332646054080506,-2.525046412144796,6.109633195191183,1.0143736600875854,-2.3861146608935755
1708434858.4589283,-2.142042398452759,-1.333236501818039,-2.525092426930563,6.109584080963888,1.0143077373504639,-2.386156145726339
1708434858.460932,-2.142061710357666,-1.3332407784513016,-2.525120798741476,6.109613764076986,1.0143601894378662,-2.386156145726339
1708434858.462896,-2.142077684402466,-1.3332896095565339,-2.525071684514181,6.109588491707601,1.0143241882324219,-2.3861146608935755
1708434858.464899,-2.142077684402466,-1.3332569760135193,-2.525046412144796,6.1096463082130334,1.014357328414917,-2.3860891501056116
1708434858.4669206,-2.142050266265869,-1.3332280379584809,-2.525083605443136,6.109576570778646,1.0143077373504639,-2.386172596608297
1708434858.4688985,-2.14200758934021,-1.333277480011322,-2.525067392979757,6.109609353333273,1.014336109161377,-2.386144224797384
1708434858.4708881,-2.1420164108276367,-1.3332365167192002,-2.525067392979757,6.10961805561141,1.014369249343872,-2.386148993168966
1708434858.4729095,-2.142059326171875,-1.3332646501115342,-2.525067392979757,6.109576570778646,1.0143241882324219,-2.3861308733569544
1708434858.4748845,-2.1420705318450928,-1.3332811754992981,-2.52509576479067,6.109596359520712,1.0143810510635376,-2.3861354033099573
1708434858.4768867,-2.1420414447784424,-1.333257020717003,-2.5250967184649866,6.109609353333273,1.014331579208374,-2.3861518541919153
1708434858.4788833,-2.142061710357666,-1.333257020717003,-2.525100056325094,6.109678613930502,1.0143617391586304,-2.3861637751208704
1708434858.4808767,-2.142011880874634,-1.333261327152588,-2.525067392979757,6.109646189003744,1.014336109161377,-2.3861101309405726
1708434858.4829006,-2.142029047012329,-1.3332896393588562,-2.525034491215841,6.109658109932699,1.014369249343872,-2.3861399332629603
1708434858.4848733,-2.142066240310669,-1.3332774353078385,-2.525128428136007,6.109621274262228,1.014336109161377,-2.3861637751208704
1708434858.48689,-2.142050266265869,-1.3332038831761857,-2.525079313908712,6.109616982727804,1.014352798461914,-2.386148993168966
1708434858.4889107,-2.142057180404663,-1.3332811307958146,-2.525092426930563,6.109613764076986,1.014352798461914,-2.386160675679342
1708434858.4908893,-2.142037868499756,-1.3332688969424744,-2.525092426930563,6.109613764076986,1.014336109161377,-2.3861399332629603
1708434858.4929032,-2.1420528888702393,-1.3332689118436356,-2.525111977254049,6.109649407654562,1.0143482685089111,-2.3861771265613
1708434858.4949465,-2.142059326171875,-1.3332038533738633,-2.525100056325094,6.109621274262228,1.0143646001815796,-2.3861771265613
1708434858.4969118,-2.1420469284057617,-1.333260403280594,-2.525100056325094,6.109633195191183,1.0143406391143799,-2.386137072240011
1708434858.4989083,-2.142066240310669,-1.3332407933524628,-2.5251031557666224,6.109658109932699,1.0143810510635376,-2.386128012334005
1708434858.500911,-2.1420414447784424,-1.3332603883794327,-2.5250747839557093,6.109596359520712,1.0143557786941528,-2.386111561452047
1708434858.502918,-2.1421079635620117,-1.3332237166217347,-2.525062863026754,6.1096463082130334,1.0143929719924927,-2.3861070314990442
1708434858.5049446,-2.142066240310669,-1.3332493913224717,-2.525111977254049,6.109616982727804,1.014331579208374,-2.386099163685934
1708434858.5069125,-2.142029047012329,-1.333264635210373,-2.525083605443136,6.109645116120138,1.0143691301345825,-2.386085573826925
1708434858.508912,-2.1421031951904297,-1.3332203489593049,-2.5250542799579065,6.109592783242025,1.0143557786941528,-2.3861234823810022
1708434858.510891,-2.1420254707336426,-1.3332569760135193,-2.5250747839557093,6.109633195191183,1.0143438577651978,-2.3861070314990442
1708434858.512894,-2.142024517059326,-1.3332038682750245,-2.525067392979757,6.10964189746932,1.014331579208374,-2.386128012334005
1708434858.5148885,-2.1420819759368896,-1.3332451593926926,-2.5250914732562464,6.109612571984091,1.0143721103668213,-2.3861308733569544
1708434858.5169144,-2.142050266265869,-1.3332731437734147,-2.5251250902758997,6.109658109932699,1.0143601894378662,-2.386094395314352
1708434858.5189018,-2.142059326171875,-1.3332332384637375,-2.525062863026754,6.109616982727804,1.0143964290618896,-2.386156145726339
1708434858.5208962,-2.142059326171875,-1.3332603883794327,-2.525104586278097,6.109563576966085,1.0143393278121948,-2.386144463215963
1708434858.522898,-2.1420164108276367,-1.3332811307958146,-2.525120798741476,6.109583365708151,1.014367699623108,-2.3861518541919153
1708434858.5249138,-2.1420705318450928,-1.333235577946045,-2.525120798741476,6.109658109932699,1.0143884420394897,-2.3861025015460413
1708434858.5268888,-2.142024517059326,-1.3332731288722535,-2.52508789697756,6.109608280449667,1.0143885612487793,-2.386116329823629
1708434858.528918,-2.142024517059326,-1.3332322996905823,-2.52508789697756,6.109677541046896,1.0143793821334839,-2.386132542287008
1708434858.5308957,-2.142061710357666,-1.333187611108162,-2.5250914732562464,6.1096287844474695,1.0143929719924927,-2.386090103779928
1708434858.5329483,-2.142066240310669,-1.3332365316203614,-2.52509576479067,6.109660255699911,1.0143885612487793,-2.386087242756979
1708434858.5349314,-2.142075300216675,-1.3332688969424744,-2.525104347859518,6.109649407654562,1.0143884420394897,-2.3860917727099817
1708434858.5368881,-2.142045736312866,-1.333224595790245,-2.525111977254049,6.109674441605367,1.0143840312957764,-2.386054340993063
1708434858.5389304,-2.142059326171875,-1.3332407933524628,-2.52509576479067,6.109640824585714,1.0143766403198242,-2.3860560099231165
1708434858.540908,-2.1420705318450928,-1.3332399290851136,-2.525083605443136,6.109693753510275,1.0143629312515259,-2.3860395590411585
1708434858.5428941,-2.142077684402466,-1.3332811307958146,-2.525100056325094,6.109697091370382,1.0143793821334839,-2.3860324064837855
1708434858.5448952,-2.142029047012329,-1.333256946211197,-2.525111977254049,6.109668957978048,1.0144455432891846,-2.3859415690051478
1708434858.5469277,-2.142057180404663,-1.3331909340671082,-2.5250631014453333,6.109648453980245,1.0144174098968506,-2.3859580198871058
1708434858.548909,-2.1421031951904297,-1.3332203042558213,-2.52509576479067,6.109667885094442,1.0143920183181763,-2.3859007994281214
1708434858.550896,-2.1420164108276367,-1.3332812053016205,-2.525100056325094,6.109709369927206,1.0144157409667969,-2.385906998311178
1708434858.5528877,-2.1420164108276367,-1.3332560372403641,-2.525116507207052,6.109757292061605,1.0144367218017578,-2.385862175618307
1708434858.5549033,-2.1420705318450928,-1.3332280230573197,-2.525116507207052,6.109752881317892,1.014444351196289,-2.385815683995382
1708434858.5569289,-2.142029047012329,-1.333248422746994,-2.525128428136007,6.109773504524984,1.0144729614257812,-2.385840956364767
1708434858.5589244,-2.1420910358428955,-1.3332526993802567,-2.525128428136007,6.109817850380697,1.0144399404525757,-2.385787312184469
1708434858.5609093,-2.142033338546753,-1.3332365316203614,-2.52509576479067,6.109772193222799,1.0144354104995728,-2.385768000279562
1708434858.5629,-2.1420955657958984,-1.3332603734782715,-2.52508789697756,6.109800565033712,1.0144472122192383,-2.3857062498675745
1708434858.5649068,-2.142050266265869,-1.3333177429488678,-2.52509576479067,6.109812485962667,1.0144758224487305,-2.38569146791567
1708434858.5668898,-2.142054796218872,-1.3332613569549103,-2.525079313908712,6.109861480980673,1.0144803524017334,-2.3856473604785364
1708434858.568911,-2.1420865058898926,-1.3332854372313996,-2.525111977254049,6.1098787663276575,1.014464020729065,-2.385595146809713
1708434858.5709343,-2.1420202255249023,-1.3332895946553727,-2.525137011204855,6.109819996147909,1.0144847631454468,-2.385587755833761
1708434858.5728912,-2.142029047012329,-1.333240808253624,-2.5250914732562464,6.1098365662391565,1.0145044326782227,-2.3854947725879114
1708434858.5749316,-2.1420705318450928,-1.3332280230573197,-2.525078360234396,6.109719025879659,1.0145015716552734,-2.385491911564962
1708434858.5768943,-2.142073154449463,-1.3332407635501404,-2.5250375906573694,6.109763371735372,1.0144472122192383,-2.3853476683246058
1708434858.5789301,-2.142029047012329,-1.333268941645958,-2.525132719670431,6.109787452011862,1.0144925117492676,-2.385315720235006
1708434858.5809171,-2.1420528888702393,-1.3332612824491044,-2.5251358191119593,6.109824406891622,1.0144758224487305,-2.3852935473071497
1708434858.5829163,-2.142050266265869,-1.3332442057183762,-2.5251031557666224,6.109754788666525,1.014546513557434,-2.385270897542135
1708434858.5848851,-2.142054796218872,-1.3332560372403641,-2.52509576479067,6.109788405686178,1.0145134925842285,-2.3852396647082728
1708434858.5869086,-2.142059326171875,-1.333264635210373,-2.5251598993884485,6.1098495600517175,1.0145207643508911,-2.3851259390460413
1708434858.5889287,-2.142050266265869,-1.3332203489593049,-2.525078360234396,6.109787452011862,1.0145207643508911,-2.3851030508624476
1708434858.5908926,-2.1420910358428955,-1.3332560670426865,-2.5251153151141565,6.109845268517294,1.014561653137207,-2.3850048224078577
1708434858.5928953,-2.142061710357666,-1.3332646203092118,-2.5251436869250696,6.109816777497091,1.0145375728607178,-2.384942595158712
1708434858.5949116,-2.142054796218872,-1.3332484376481553,-2.5251885096179407,6.109783994942465,1.014528512954712,-2.3848660627948206
1708434858.5969164,-2.142029047012329,-1.3332441759160538,-2.525240723286764,6.109788405686178,1.0145857334136963,-2.384815041218893
1708434858.598903,-2.1420326232910156,-1.3332560521415253,-2.5252111593829554,6.1098211882408044,1.014578104019165,-2.384669367467062
1708434858.6009061,-2.14200758934021,-1.3332517755082627,-2.5252440611468714,6.109858262329855,1.0145481824874878,-2.3846002260791224
1708434858.602902,-2.1420414447784424,-1.3332280230573197,-2.5251904169665735,6.109877812653341,1.0145734548568726,-2.3844760099994105
1708434858.604919,-2.1420164108276367,-1.3332725328258057,-2.5252485910998743,6.109809267311849,1.0145103931427002,-2.3844504992114466
1708434858.6069064,-2.1420865058898926,-1.333296389584877,-2.5252679030047815,6.109792697220602,1.0145779848098755,-2.384352509175436
1708434858.6089406,-2.142061710357666,-1.3332560372403641,-2.525254789982931,6.109800565033712,1.0145734548568726,-2.384204689656393
1708434858.6108818,-2.142011880874634,-1.333285392527916,-2.525250498448507,6.109812485962667,1.0145690441131592,-2.3840673605548304
1708434858.612879,-2.142024517059326,-1.3332569313100358,-2.525275532399313,6.109808194428243,1.0145734548568726,-2.383962694798605
1708434858.6148908,-2.142054796218872,-1.333268867140152,-2.5252953211413782,6.109824287682333,1.0145885944366455,-2.3838518301593226
1708434858.6168845,-2.142037868499756,-1.333276928668358,-2.5252962748156946,6.109779703408041,1.0145554542541504,-2.3837690989123743
1708434858.6189098,-2.1420164108276367,-1.3332280230573197,-2.525287453328268,6.109816896706381,1.0145632028579712,-2.383583132420675
1708434858.620914,-2.1420094966888428,-1.333252714281418,-2.5252953211413782,6.1097744581993005,1.014624834060669,-2.3834415117846888
1708434858.6228886,-2.1420795917510986,-1.333244190817215,-2.525315825139181,6.109824406891622,1.0146503448486328,-2.3832817713366907
1708434858.6248925,-2.1419880390167236,-1.3332236421159287,-2.5252700487719935,6.109813558846273,1.014624834060669,-2.3831966559039515
1708434858.6268923,-2.142037868499756,-1.3332854819348832,-2.525299612675802,6.1098331091697595,1.0146081447601318,-2.383050505314962
1708434858.628937,-2.142050266265869,-1.3332973730615159,-2.525327984486715,6.109775292664327,1.0146605968475342,-2.38289457956423
1708434858.630881,-2.1420514583587646,-1.3332811307958146,-2.525344435368673,6.109796273499288,1.0146894454956055,-2.3827713171588343
1708434858.6328866,-2.1420140266418457,-1.3332398545793076,-2.5253475348102015,6.109812485962667,1.0147271156311035,-2.382585589085714
1708434858.6349092,-2.142037868499756,-1.3333092343858262,-2.525311533604757,6.10983298996047,1.0147209167480469,-2.3824546972857874
1708434858.6369088,-2.1420185565948486,-1.3332811158946534,-2.5253637472735804,6.109800565033712,1.0147581100463867,-2.382211510335104
1708434858.6389048,-2.1419575214385986,-1.333272547726967,-2.5253356138812464,6.109783994942465,1.0147571563720703,-2.382066313420431
1708434858.640908,-2.1419804096221924,-1.3332280230573197,-2.5253356138812464,6.109796154289999,1.0147690773010254,-2.381890360509054
1708434858.6428788,-2.1419529914855957,-1.3332640689662476,-2.5253716150866907,6.109776484757223,1.0147899389266968,-2.3817182222949427
1708434858.6449006,-2.1419663429260254,-1.333301604991295,-2.5253847281085413,6.109800565033712,1.0147899389266968,-2.3815186659442347
1708434858.6468952,-2.141928195953369,-1.3332725328258057,-2.5253594557391565,6.109760629921713,1.0148169994354248,-2.38128906885256
1708434858.648903,-2.141949415206909,-1.333251730804779,-2.525346342717306,6.109699475556173,1.0148214101791382,-2.381192986165182
1708434858.650895,-2.141975164413452,-1.3333207976869126,-2.525367323552267,6.109825479775228,1.0147960186004639,-2.380972687398092
1708434858.652894,-2.141941547393799,-1.3332768839648743,-2.525428358708517,6.109728801041403,1.0148124694824219,-2.3807221094714563
1708434858.6548843,-2.1418964862823486,-1.333285392527916,-2.5254033247577112,6.109761583596029,1.0148200988769531,-2.380498711262838
1708434858.6568933,-2.1419098377227783,-1.3332887154868622,-2.525423828755514,6.109663474350729,1.0148816108703613,-2.3802946249591272
1708434858.6589596,-2.1418256759643555,-1.3333164763501664,-2.525451962147848,6.109624612122335,1.0148680210113525,-2.380033318196432
1708434858.6609037,-2.1418256759643555,-1.3333048832467576,-2.5254433790790003,6.109595286637106,1.014941930770874,-2.3797815481769007
1708434858.6629143,-2.141826868057251,-1.3332844835570832,-2.5254557768451136,6.109646189003744,1.014953851699829,-2.3795483748065394
1708434858.6648939,-2.141798496246338,-1.333272562628128,-2.5254958311664026,6.109564769058981,1.0149821043014526,-2.3792880217181605
1708434858.6668985,-2.1417577266693115,-1.3333006364158173,-2.5255120436297815,6.109553444176473,1.0150275230407715,-2.379019323979513
1708434858.6689396,-2.1417596340179443,-1.3332922023585816,-2.5255122820483606,6.109565484314718,1.014963984489441,-2.378791634236471
1708434858.6709104,-2.1416943073272705,-1.333268256192543,-2.525470797215597,6.109501588135519,1.015038013458252,-2.378507200871603
1708434858.6729121,-2.1416409015655518,-1.3332886856845398,-2.525503460560934,6.109514701157369,1.0150833129882812,-2.3782525698291224
1708434858.674909,-2.1415677070617676,-1.3333080571940918,-2.5255022684680384,6.109417187958517,1.0150952339172363,-2.377967421208517
1708434858.6768842,-2.141519784927368,-1.3333329868367692,-2.525527540837423,6.109377491265096,1.0151054859161377,-2.377655092869894
1708434858.6789494,-2.1415421962738037,-1.3333122295192261,-2.5255797545062464,6.109365689545431,1.0151671171188354,-2.3773415724383753
1708434858.68089,-2.1414742469787598,-1.3332517755082627,-2.5256038347827356,6.109261381417074,1.0151536464691162,-2.3771079222308558
1708434858.6829405,-2.141388416290283,-1.333296389584877,-2.5256367365466517,6.109246241837301,1.0151867866516113,-2.376819674168722
1708434858.684929,-2.1414036750793457,-1.3333569181016465,-2.525627915059225,6.109119999199667,1.0151896476745605,-2.376512114201681
1708434858.6869082,-2.141317844390869,-1.3333159548095246,-2.525651756917135,6.109106766968527,1.0152394771575928,-2.3761325518237513
1708434858.6889284,-2.141247272491455,-1.333328740005829,-2.5256462732898157,6.10897313335494,1.0152513980865479,-2.375871483479635
1708434858.6909347,-2.141120672225952,-1.3333278757384797,-2.5257280508624476,6.108880865364828,1.0152573585510254,-2.375533644353048
1708434858.6929338,-2.1410627365112305,-1.3332836043885727,-2.5257228056537073,6.1087331650550745,1.0152904987335205,-2.3752546946154993
1708434858.6949065,-2.140943765640259,-1.3333602410605927,-2.525829617177145,6.108674275666036,1.01533842086792,-2.374911371861593
1708434858.696936,-2.140911340713501,-1.3333809983781357,-2.5258241335498255,6.108554947167196,1.0153263807296753,-2.374516312276022
1708434858.6989334,-2.14081072807312,-1.3334004890969773,-2.525884215031759,6.10842643955306,1.0153790712356567,-2.3742223421679896
1708434858.7009065,-2.1407310962677,-1.3333672893098374,-2.525900427495138,6.108335125237264,1.015440821647644,-2.3738578001605433
1708434858.702943,-2.1406190395355225,-1.3334808510592957,-2.5258591810809534,6.10826455333785,1.015419602394104,-2.3734915892230433
1708434858.7049325,-2.140507698059082,-1.3334320050529023,-2.5259159247027796,6.108150231629171,1.0154138803482056,-2.373181168233053
1708434858.706909,-2.140378952026367,-1.3334277433208008,-2.5259929339038294,6.1079773781593225,1.0154918432235718,-2.3728376070605677
1708434858.7089121,-2.140275716781616,-1.3334433150342484,-2.525975529347555,6.107866394310751,1.0155068635940552,-2.3725014368640345
1708434858.7109137,-2.140204906463623,-1.333443359737732,-2.5260325113879603,6.107694732933798,1.0155593156814575,-2.372166935597555
1708434858.7128909,-2.140069007873535,-1.3335241836360474,-2.526015106831686,6.107514369278707,1.0156569480895996,-2.3717888037311
1708434858.714899,-2.139899969100952,-1.3334748160890122,-2.526059691105978,6.1072860834892175,1.0156961679458618,-2.3714738527881067
1708434858.7169566,-2.139779806137085,-1.3335241836360474,-2.526128355656759,6.107118713646688,1.0157444477081299,-2.3711093107806605
1708434858.718922,-2.139636754989624,-1.3335156601718445,-2.5261195341693323,6.106924283295431,1.015821099281311,-2.370683256779806
1708434858.7208853,-2.1394646167755127,-1.333510474567749,-2.5261765162097376,6.106716501503744,1.0158510208129883,-2.3703272978412073
1708434858.7229562,-2.1393003463745117,-1.3335679483464737,-2.526224438344137,6.1065618870551965,1.0159155130386353,-2.369974915181295
1708434858.7248857,-2.139104127883911,-1.3336115342429657,-2.5262473265277308,6.106305467873373,1.0159728527069092,-2.3695817629443567
1708434858.72689,-2.138944387435913,-1.3335749071887513,-2.5263007322894495,6.106093752175131,1.016045093536377,-2.3692804018603724
1708434858.7289073,-2.138723134994507,-1.3336030554822464,-2.526316229497091,6.105842339783468,1.0160675048828125,-2.3688347975360315
1708434858.7309177,-2.1385412216186523,-1.3336189550212403,-2.52635628381838,6.105643379479208,1.0161774158477783,-2.368549648915426
1708434858.7329547,-2.1384003162384033,-1.3336753857186814,-2.5263827482806605,6.10534023025588,1.01625394821167,-2.3680952231036585
1708434858.7349336,-2.138106107711792,-1.33367112398658,-2.526513401662008,6.105017649918356,1.016318440437317,-2.3677542845355433
1708434858.7369149,-2.1378722190856934,-1.3336995554021378,-2.5265374819384974,6.104730355530538,1.01637864112854,-2.367418352757589
1708434858.7389429,-2.137665271759033,-1.3336790663054963,-2.5265145937549036,6.104414808541097,1.0163755416870117,-2.366962258015768
1708434858.7409008,-2.137392997741699,-1.3336943697980423,-2.5266366640674036,6.104059684067526,1.0164777040481567,-2.3665526548968714
1708434858.742927,-2.1371009349823,-1.3337505471757432,-2.52665621439089,6.103753196984091,1.0165425539016724,-2.3662195841418665
1708434858.7448957,-2.136866569519043,-1.3337950718453904,-2.5266955534564417,6.10341356971816,1.0165859460830688,-2.365826670323507
1708434858.7469482,-2.1365039348602295,-1.3338235032609482,-2.5267513434039515,6.103029954224386,1.016650676727295,-2.365389887486593
1708434858.7489111,-2.1362056732177734,-1.3338470172933121,-2.526856009160177,6.102623450547018,1.0167466402053833,-2.3650267759906214
1708434858.7509003,-2.135878324508667,-1.3338745099357148,-2.5269160906421106,6.102247941284933,1.0167932510375977,-2.364544693623678
1708434858.7529378,-2.1355113983154297,-1.3338333082250138,-2.526984516774313,6.101784813195028,1.0169063806533813,-2.3641613165484827
1708434858.7549076,-2.1351699829101562,-1.3338821691325684,-2.5270350615130823,6.101302611618795,1.0170114040374756,-2.363764826451437
1708434858.75693,-2.1348607540130615,-1.3338788759759446,-2.5271242300616663,6.1009206650550745,1.017111897468567,-2.363394562398092
1708434858.758936,-2.134436845779419,-1.3339514595321198,-2.5272303263293665,6.100413191109457,1.0171796083450317,-2.36298638979067
1708434858.76092,-2.1340136528015137,-1.3339374375394364,-2.5273011366473597,6.0999231217201135,1.0173133611679077,-2.3625527063952845
1708434858.7629282,-2.133662462234497,-1.3339942556670685,-2.527422014866964,6.09938524940566,1.0174126625061035,-2.3621371428119105
1708434858.764914,-2.1332106590270996,-1.3340018552592774,-2.5274763743029993,6.098810064583578,1.0175460577011108,-2.3617122809039515
1708434858.7669034,-2.132772445678711,-1.33405056715522,-2.5275800863849085,6.098252045899191,1.0176078081130981,-2.3612409273730677
1708434858.7689116,-2.132263660430908,-1.3340656620315094,-2.527701203023092,6.097573029785909,1.0177654027938843,-2.360920254384176
1708434858.770918,-2.13179612159729,-1.3340898615172883,-2.5277774969684046,6.097011911659994,1.0178288221359253,-2.360516373311178
1708434858.7729268,-2.131354331970215,-1.3341420006803055,-2.527832094823019,6.096393930702963,1.0179628133773804,-2.3601370493518274
1708434858.7749176,-2.130847930908203,-1.3341612082770844,-2.5280218760119837,6.0957268355186365,1.018033504486084,-2.359688107167379
1708434858.7769256,-2.1303281784057617,-1.3341649931720276,-2.528100315724508,6.095159160881796,1.0181622505187988,-2.3592589537249964
1708434858.778909,-2.1297433376312256,-1.3342129600099106,-2.528189007435934,6.09439896324233,1.0182573795318604,-2.3588808218585413
1708434858.7809162,-2.129201650619507,-1.334285171037056,-2.528311793004171,6.093669879227438,1.0183943510055542,-2.3585553804980677
1708434858.7830424,-2.128627061843872,-1.334260643725731,-2.5284419695483606,6.092908012657919,1.0185728073120117,-2.3581414858447474
1708434858.7849905,-2.128016471862793,-1.3343331229737778,-2.5285235087024134,6.0920530436332605,1.018699049949646,-2.357741181050436
1708434858.787026,-2.127380847930908,-1.3343723279288788,-2.5287042299853724,6.091248500138082,1.018876314163208,-2.3573525587665003
1708434858.7889137,-2.1267731189727783,-1.3344491136125107,-2.5288201014148157,6.09042381027297,1.0189787149429321,-2.3570054213153284
1708434858.790925,-2.126121997833252,-1.3344924312881012,-2.5289772192584437,6.089640009194174,1.0191394090652466,-2.3565965334521692
1708434858.7929208,-2.1254584789276123,-1.334504709844925,-2.529076162968771,6.088704931526937,1.019304633140564,-2.3562584559070032
1708434858.7949302,-2.1248269081115723,-1.3345441085151215,-2.5292158762561243,6.087763654976644,1.019486427307129,-2.3558128515826624
1708434858.7969058,-2.124065399169922,-1.334576503639557,-2.5294089953051966,6.086818206101217,1.0196170806884766,-2.355415646229879
1708434858.7989423,-2.1233136653900146,-1.334627927546837,-2.529590431843893,6.085829245835104,1.0198034048080444,-2.3550739924060267
1708434858.8008888,-2.122539758682251,-1.3346594137004395,-2.529761616383688,6.084860670357504,1.019974946975708,-2.3546841780291956
1708434858.8029494,-2.1217844486236572,-1.3347473007491608,-2.5298801104175013,6.083819854050436,1.0201716423034668,-2.354279104863302
1708434858.804889,-2.121018648147583,-1.3348118227771302,-2.5301016012774866,6.08276246765212,1.0203222036361694,-2.35390812555422
1708434858.806906,-2.1202008724212646,-1.3348020923188706,-2.5301995913134974,6.081651794701376,1.0204873085021973,-2.3535078207599085
1708434858.808885,-2.119410514831543,-1.334936038856842,-2.530384127293722,6.080565082817831,1.0206845998764038,-2.353128258381979
1708434858.8108861,-2.1184942722320557,-1.3349422675422211,-2.5305846373187464,6.079440939217367,1.0208884477615356,-2.3527637163745325
1708434858.8129513,-2.117648124694824,-1.3349745136550446,-2.5307777563678187,6.07837342002944,1.0210691690444946,-2.3523884455310267
1708434858.814898,-2.11678147315979,-1.3351027083447953,-2.5309165159808558,6.077260362892904,1.0213065147399902,-2.3520494143115442
1708434858.8169265,-2.115921974182129,-1.3350892525962372,-2.531137768422262,6.076082694321432,1.0214886665344238,-2.351668183003561
1708434858.8189285,-2.1149394512176514,-1.3351898056319733,-2.53127628961672,6.0748586533363245,1.021673321723938,-2.351337734852926
1708434858.820918,-2.114020824432373,-1.3352778118899842,-2.531484667454855,6.0736273405845544,1.0219106674194336,-2.350902859364645
1708434858.8229153,-2.113053321838379,-1.3353621375611802,-2.5316768328296106,6.072424995690145,1.0221346616744995,-2.3505592981921595
1708434858.824894,-2.1120872497558594,-1.3354366582683106,-2.5318639914142054,6.071118461876669,1.0223960876464844,-2.350178066884176
1708434858.8269162,-2.1110992431640625,-1.3354605001262208,-2.5321129004107874,6.069770204811849,1.0226380825042725,-2.3498435656176966
1708434858.8289037,-2.110114336013794,-1.3355198365500947,-2.532358233128683,6.068457352906027,1.0228455066680908,-2.349520985280172
1708434858.830896,-2.1090493202209473,-1.3356247407248993,-2.532541338597433,6.067117440491476,1.023057460784912,-2.349159304295675
1708434858.8329287,-2.107975959777832,-1.3356998723796387,-2.5327332655536097,6.065721976547994,1.0232858657836914,-2.348785702382223
1708434858.83489,-2.1068692207336426,-1.3358201098493119,-2.532928530369894,6.0642741797264,1.023559331893921,-2.3484793345080774
1708434858.836938,-2.1058096885681152,-1.3359318387559433,-2.533180300389425,6.062967049866476,1.0238285064697266,-2.348097864781515
1708434858.8389268,-2.104703426361084,-1.3360515248826523,-2.5334423224078577,6.061498153000631,1.0240780115127563,-2.3477824370013636
1708434858.8408926,-2.1035635471343994,-1.3361317229321976,-2.533616606389181,6.060051548271932,1.0243046283721924,-2.3474248091327112
1708434858.8429017,-2.10239315032959,-1.3362349283746262,-2.533894125615255,6.058529841690817,1.0245287418365479,-2.3471394220935267
1708434858.8449106,-2.1012156009674072,-1.3363466423800965,-2.534121815358297,6.056949126511373,1.0247526168823242,-2.3467534224139612
1708434858.8469496,-2.0999996662139893,-1.3364338737777253,-2.5343571344958704,6.055446970253744,1.025038242340088,-2.3464048544513147
1708434858.848907,-2.0987696647644043,-1.3365374219468613,-2.5346418062793177,6.053856360703268,1.0253193378448486,-2.3460593859301966
1708434858.8509352,-2.097580909729004,-1.3367021691850205,-2.5348568598376673,6.052236544876852,1.0256048440933228,-2.3457348982440394
