Eg3-git/Classifiers/Data Collection/u2/u2star1_ur3e_joint_states.csv
time,elbow_joint,shoulder_lift_joint,shoulder_pan_joint,wrist_1_joint,wrist_2_joint,wrist_3_joint
1708434753.2770622,-2.141848087310791,-1.33382701993499,-2.5274952093707483,6.1114834425743005,1.0187444686889648,-2.531911913548605
1708434753.2790396,-2.141852378845215,-1.3337909889272233,-2.527527634297506,6.111450660019674,1.0187768936157227,-2.531865660344259
1708434753.281058,-2.1418144702911377,-1.3337776225856324,-2.5274909178363245,6.111418473511495,1.01875638961792,-2.5318449179278772
1708434753.2830744,-2.141787052154541,-1.3337746423533936,-2.527499500905172,6.11148356178359,1.01875638961792,-2.5318566004382532
1708434753.285064,-2.141785144805908,-1.3338151586106797,-2.527466599141256,6.111458527832784,1.0187071561813354,-2.531902853642599
1708434753.28704,-2.1418392658233643,-1.3338151288083573,-2.5274785200702112,6.111467230110922,1.0187321901321411,-2.531895462666647
1708434753.289061,-2.141822338104248,-1.3337954145720978,-2.527499500905172,6.111446249275961,1.0187726020812988,-2.531837526951925
1708434753.291072,-2.1418099403381348,-1.3337821525386353,-2.527491633092062,6.111446249275961,1.0187804698944092,-2.531865660344259
1708434753.2930498,-2.1418356895446777,-1.3337865632823487,-2.5274909178363245,6.111418473511495,1.018740177154541,-2.5318790117846888
1708434753.2950637,-2.141789674758911,-1.3337865632823487,-2.5274620691882532,6.111405360489645,1.0187638998031616,-2.53184944788088
1708434753.2970598,-2.141787052154541,-1.3337702614120026,-2.527482811604635,6.111430275231161,1.018769383430481,-2.531837526951925
1708434753.2990456,-2.1418614387512207,-1.3338117462447663,-2.527482811604635,6.111462819367208,1.0187278985977173,-2.5318670908557337
1708434753.301102,-2.141831159591675,-1.3337688607028504,-2.527478281651632,6.111430275231161,1.0187811851501465,-2.531874720250265
1708434753.3030944,-2.1417737007141113,-1.3338195842555542,-2.5274415651904505,6.111454117089071,1.0187321901321411,-2.531841818486349
1708434753.3050458,-2.141782522201538,-1.3338359159282227,-2.527504030858175,6.1114715216453455,1.018753170967102,-2.531858269368307
1708434753.3070798,-2.1418144702911377,-1.3337776225856324,-2.5274739901172083,6.1114715216453455,1.0187726020812988,-2.531907383595602
1708434753.3090498,-2.141803026199341,-1.3338403415730973,-2.527482811604635,6.111463534622946,1.0187193155288696,-2.531832758580343
1708434753.311053,-2.141787052154541,-1.3337909591249009,-2.5274997393237513,6.111499774246969,1.0187530517578125,-2.53186279932131
1708434753.3130748,-2.1417782306671143,-1.3337984842113038,-2.52747089067568,6.1114704487617395,1.0187366008758545,-2.531832996998922
1708434753.3150752,-2.141822338104248,-1.3337657314589997,-2.5274997393237513,6.111446249275961,1.0187071561813354,-2.5318179766284388
1708434753.3170857,-2.1418683528900146,-1.3338284504464646,-2.527527634297506,6.111458527832784,1.018740177154541,-2.53186279932131
1708434753.3190532,-2.141803026199341,-1.3337776076844712,-2.527438227330343,6.1114715216453455,1.0187357664108276,-2.531850878392355
1708434753.3210847,-2.141798496246338,-1.3337689501098176,-2.527504030858175,6.111486661225118,1.018768072128296,-2.5318761507617396
1708434753.323056,-2.141782522201538,-1.3337658506682892,-2.5274909178363245,6.111441957741537,1.0188020467758179,-2.531825367604391
1708434753.3250651,-2.141805410385132,-1.3337494891932984,-2.527527634297506,6.111474740296163,1.0187519788742065,-2.531858269368307
1708434753.3270948,-2.1418144702911377,-1.333810643558838,-2.527466599141256,6.111479031830587,1.0187934637069702,-2.531834427510397
1708434753.3290572,-2.141852378845215,-1.3337821525386353,-2.527475182210104,6.111474740296163,1.0187606811523438,-2.531858269368307
1708434753.3310833,-2.1418144702911377,-1.3337776523879548,-2.5274997393237513,6.111507284432211,1.018769383430481,-2.53186279932131
1708434753.3330781,-2.141798496246338,-1.3337372106364747,-2.5274503866778772,6.111449825554647,1.0187443494796753,-2.531809155141012
1708434753.335093,-2.1417782306671143,-1.3337865632823487,-2.5274339357959192,6.111461627274313,1.0187574625015259,-2.531787697468893
1708434753.3371174,-2.1418144702911377,-1.333793969159462,-2.52747089067568,6.111446249275961,1.0187487602233887,-2.5318389574633997
1708434753.339073,-2.141765832901001,-1.3337909889272233,-2.527430836354391,6.111510741501608,1.0187125205993652,-2.531834427510397
1708434753.3410559,-2.141826868057251,-1.333810643558838,-2.5274503866778772,6.111523854523458,1.0187606811523438,-2.5319135824786585
1708434753.3430603,-2.1417782306671143,-1.3337599349072953,-2.5274632612811487,6.111523854523458,1.0187736749649048,-2.53182560602297
1708434753.3450415,-2.141848087310791,-1.333807350402214,-2.5274913946734827,6.111458527832784,1.0187320709228516,-2.531832996998922
1708434753.3470957,-2.1418356895446777,-1.3338284206441422,-2.527454678212301,6.1114375469978235,1.0187451839447021,-2.531829897557394
1708434753.3490496,-2.1418638229370117,-1.333782137637474,-2.52747089067568,6.111499774246969,1.0187487602233887,-2.531846348439352
1708434753.3510528,-2.1418392658233643,-1.3337538701346894,-2.527454678212301,6.111482369690695,1.0187574625015259,-2.531787697468893
1708434753.35307,-2.141801118850708,-1.3337984842113038,-2.52747089067568,6.111479031830587,1.0187650918960571,-2.5318670908557337
1708434753.355064,-2.141801118850708,-1.333807335501053,-2.5274913946734827,6.1114332554634,1.0187649726867676,-2.531837526951925
1708434753.357148,-2.1417806148529053,-1.3337746423533936,-2.527491633092062,6.111438977509298,1.0187660455703735,-2.531846348439352
1708434753.359105,-2.1418302059173584,-1.3337790679982682,-2.5274959246264856,6.1114715216453455,1.0187574625015259,-2.5318670908557337
1708434753.3610823,-2.141822338104248,-1.3337372106364747,-2.527504030858175,6.111479031830587,1.0187574625015259,-2.5317874590503138
1708434753.3630893,-2.1418347358703613,-1.3338162910989304,-2.5274794737445276,6.111463534622946,1.018720030784607,-2.53182560602297
1708434753.3650692,-2.1418135166168213,-1.3337865632823487,-2.5274785200702112,6.111450660019674,1.0187244415283203,-2.5318761507617396
1708434753.3670695,-2.141805410385132,-1.3337000918439408,-2.5274339357959192,6.111405360489645,1.0187487602233887,-2.531834427510397
1708434753.3690653,-2.141848087310791,-1.3337999147227784,-2.527458969746725,6.1114715216453455,1.0187321901321411,-2.5318926016436976
1708434753.3710723,-2.1418585777282715,-1.333741621380188,-2.527458969746725,6.111479031830587,1.0187606811523438,-2.5318389574633997
1708434753.3730779,-2.1418683528900146,-1.3337238442948838,-2.527438465748922,6.111454951554098,1.0187244415283203,-2.5318716208087366
1708434753.3750608,-2.141822338104248,-1.3337776076844712,-2.527438465748922,6.111467230110922,1.0187742710113525,-2.5318763891803187
1708434753.3770742,-2.141791820526123,-1.3337953847697754,-2.527475182210104,6.111486661225118,1.0187410116195679,-2.531829897557394
1708434753.3790612,-2.1418302059173584,-1.333770216708519,-2.5274556318866175,6.1114172814186,1.0187455415725708,-2.531858269368307
1708434753.3810534,-2.1418356895446777,-1.333774672155716,-2.5274232069598597,6.111490952759542,1.0187125205993652,-2.531858269368307
1708434753.3830695,-2.141826868057251,-1.3337865483811875,-2.5274067560779017,6.111458527832784,1.0187455415725708,-2.531858269368307
1708434753.385058,-2.141826868057251,-1.333770216708519,-2.5274274984942835,6.111446249275961,1.0187736749649048,-2.53186279932131
1708434753.387066,-2.141850709915161,-1.3337732416442414,-2.5274482409106653,6.111490952759542,1.0187082290649414,-2.5318434874164026
1708434753.3890567,-2.141846179962158,-1.3338029098561783,-2.5273905436145228,6.1114375469978235,1.0187166929244995,-2.531813685094015
1708434753.3910666,-2.141852617263794,-1.3337865632823487,-2.5273948351489466,6.111449825554647,1.0187455415725708,-2.531874720250265
1708434753.3930893,-2.141852617263794,-1.3338239949992676,-2.5273707548724573,6.111495363503256,1.0187453031539917,-2.531846348439352
1708434753.3950493,-2.141843557357788,-1.3337776225856324,-2.5273662249194544,6.111458527832784,1.0187287330627441,-2.5318716208087366
1708434753.3970554,-2.1418392658233643,-1.3338072758964081,-2.527383867894308,6.111548769264974,1.0186963081359863,-2.531841818486349
1708434753.399053,-2.1418392658233643,-1.3337746423533936,-2.5273717085467737,6.1114332554634,1.0187125205993652,-2.5318670908557337
1708434753.4010396,-2.1418302059173584,-1.3338196140578766,-2.527358595524923,6.111458527832784,1.0186920166015625,-2.531841818486349
1708434753.4030929,-2.141793966293335,-1.333793969159462,-2.5273924509631556,6.111495363503256,1.0186963081359863,-2.5318716208087366
1708434753.4050906,-2.1418676376342773,-1.3338284206441422,-2.5273268858539026,6.111474740296163,1.0186831951141357,-2.53186279932131
1708434753.4071555,-2.141826868057251,-1.3337865632823487,-2.5273717085467737,6.111486661225118,1.0187574625015259,-2.53184944788088
1708434753.4090488,-2.1418800354003906,-1.3337909889272233,-2.527313772832052,6.111462819367208,1.018720030784607,-2.531841818486349
1708434753.4110615,-2.141850709915161,-1.3338029098561783,-2.527313772832052,6.1114715216453455,1.018720030784607,-2.531813685094015
1708434753.4130578,-2.141813278198242,-1.333761290912964,-2.527322594319479,6.1115115759666345,1.018703579902649,-2.5318670908557337
1708434753.4150524,-2.141850709915161,-1.3337821078351517,-2.5273433367358606,6.111443269043722,1.0187287330627441,-2.531809155141012
1708434753.417065,-2.1418302059173584,-1.3338225495866318,-2.5273552576648157,6.111523854523458,1.0186920166015625,-2.531829897557394
1708434753.4190357,-2.1418585777282715,-1.3337746423533936,-2.527339045201437,6.1114715216453455,1.018733024597168,-2.531850878392355
1708434753.4210675,-2.141846179962158,-1.3338240397027512,-2.527350966130392,6.111479031830587,1.0187287330627441,-2.53182560602297
1708434753.4230766,-2.1418585777282715,-1.3338029098561783,-2.5273640791522425,6.1115325568015955,1.0187287330627441,-2.531821076069967
1708434753.4250844,-2.1418392658233643,-1.333835856323578,-2.527322594319479,6.111467230110922,1.0186920166015625,-2.531834427510397
1708434753.4271142,-2.1418099403381348,-1.3337821525386353,-2.527339045201437,6.111503946572103,1.0187320709228516,-2.531829897557394
1708434753.4290605,-2.141846179962158,-1.3337627214244385,-2.5273063818561,6.111421692162313,1.0187287330627441,-2.5318551699267786
1708434753.4310725,-2.1418709754943848,-1.3337909889272233,-2.527350966130392,6.111467230110922,1.0187081098556519,-2.531837526951925
1708434753.433073,-2.141850709915161,-1.3338117462447663,-2.527339045201437,6.111486661225118,1.018703818321228,-2.5318790117846888
1708434753.4350667,-2.1418631076812744,-1.3337984693101426,-2.5273640791522425,6.111441957741537,1.0186636447906494,-2.5317919890033167
1708434753.4370608,-2.1418631076812744,-1.3338475090316315,-2.527301851903097,6.111438977509298,1.0187050104141235,-2.531850878392355
1708434753.4390528,-2.141787528991699,-1.3338029098561783,-2.5273552576648157,6.111454117089071,1.018687129020691,-2.5318389574633997
1708434753.4410503,-2.141817808151245,-1.3337790828994294,-2.527334753667013,6.111502873688497,1.018720030784607,-2.53182560602297
1708434753.443064,-2.1418416500091553,-1.3337702465108414,-2.5273433367358606,6.111446249275961,1.0187005996704102,-2.531858269368307
1708434753.4450674,-2.1418585777282715,-1.3338403862765809,-2.527322594319479,6.111486661225118,1.0187287330627441,-2.53188664117922
1708434753.4471095,-2.141787528991699,-1.3337776523879548,-2.527339045201437,6.111462819367208,1.0187366008758545,-2.5317919890033167
1708434753.449074,-2.1418302059173584,-1.3338195246509095,-2.5272987524615687,6.111441957741537,1.0186920166015625,-2.531858269368307
1708434753.4510534,-2.1418721675872803,-1.333765761261322,-2.5273552576648157,6.111474740296163,1.0186963081359863,-2.5318670908557337
1708434753.4530716,-2.1418800354003906,-1.3338028651526947,-2.5273433367358606,6.111507284432211,1.018703579902649,-2.531813685094015
1708434753.455116,-2.1418256759643555,-1.333801881676056,-2.527334753667013,6.111462819367208,1.0187411308288574,-2.531825367604391
1708434753.4570973,-2.141846179962158,-1.3338029098561783,-2.527339045201437,6.111454117089071,1.0187082290649414,-2.5318670908557337
1708434753.4591248,-2.1418416500091553,-1.333798499112465,-2.527346674595968,6.111490952759542,1.0187005996704102,-2.531882111226217
1708434753.461056,-2.141850709915161,-1.3338447672179718,-2.52736741701235,6.111502873688497,1.0187244415283203,-2.531870190297262
1708434753.4630756,-2.141846179962158,-1.3338073056987305,-2.527322594319479,6.111449825554647,1.0187082290649414,-2.531804625188009
1708434753.4650524,-2.1418585777282715,-1.333793969159462,-2.5273717085467737,6.111446249275961,1.0187212228775024,-2.531861130391256
1708434753.4670668,-2.1418211460113525,-1.3337776523879548,-2.527339045201437,6.1114704487617395,1.0187005996704102,-2.531821076069967
1708434753.469066,-2.1418709754943848,-1.3337582808784028,-2.527313772832052,6.111454951554098,1.018721103668213,-2.531898562108175
1708434753.471052,-2.1418168544769287,-1.3338029098561783,-2.527379337941305,6.111467230110922,1.018687129020691,-2.531858269368307
1708434753.4730937,-2.141866683959961,-1.3337702465108414,-2.527339045201437,6.111458527832784,1.0187005996704102,-2.531890932713644
1708434753.475053,-2.1418416500091553,-1.3337895435145875,-2.527350966130392,6.111487734108724,1.018716812133789,-2.531837526951925
1708434753.4770737,-2.1418709754943848,-1.3337790828994294,-2.527363125477926,6.111466038018026,1.0186917781829834,-2.53182560602297
1708434753.4790611,-2.141845464706421,-1.3338403862765809,-2.527318302785055,6.1114834425743005,1.0187005996704102,-2.5318835417376917
1708434753.4810653,-2.1418845653533936,-1.333810643558838,-2.5273552576648157,6.111487734108724,1.018749475479126,-2.53188664117922
1708434753.4830709,-2.1418755054473877,-1.333828405742981,-2.527313772832052,6.111462819367208,1.0186920166015625,-2.531882111226217
1708434753.4850848,-2.1418755054473877,-1.333752529030182,-2.5273259321795862,6.111536848336019,1.0186840295791626,-2.531865660344259
1708434753.4870605,-2.141906976699829,-1.3338448417237778,-2.527322594319479,6.111499774246969,1.018716812133789,-2.531837288533346
1708434753.4890506,-2.141922950744629,-1.333840311770775,-2.527330462132589,6.111490952759542,1.0186916589736938,-2.531877581273214
1708434753.4910767,-2.1418371200561523,-1.3338117760470887,-2.527339045201437,6.111441957741537,1.018733024597168,-2.531853739415304
1708434753.4930863,-2.1418957710266113,-1.3337494742921372,-2.5273552576648157,6.111445414810934,1.018683910369873,-2.531882111226217
1708434753.4950633,-2.141845464706421,-1.333807335501053,-2.5273476282702845,6.1114715216453455,1.018683910369873,-2.531865660344259
1708434753.4970834,-2.141862154006958,-1.3337776076844712,-2.52736741701235,6.111479031830587,1.0186797380447388,-2.531853739415304
1708434753.4990785,-2.1418585777282715,-1.3338403862765809,-2.527334753667013,6.111454117089071,1.0187169313430786,-2.5318835417376917
1708434753.50107,-2.141845464706421,-1.3338029098561783,-2.527350966130392,6.1115115759666345,1.0187379121780396,-2.531816546116964
1708434753.5030844,-2.1418778896331787,-1.333773211841919,-2.5274043718921106,6.111499774246969,1.0187082290649414,-2.5318685213672083
1708434753.5050886,-2.141849994659424,-1.3337895435145875,-2.527342144642965,6.111473667412557,1.0186961889266968,-2.5318566004382532
1708434753.5071008,-2.141866683959961,-1.3337495189956208,-2.527400080357687,6.11149417141036,1.018749475479126,-2.5319200197802942
1708434753.509058,-2.1418755054473877,-1.333782137637474,-2.527375046406881,6.111479031830587,1.0186840295791626,-2.5318730513202112
1708434753.511082,-2.1419026851654053,-1.3337746572545548,-2.5273924509631556,6.111490952759542,1.0187125205993652,-2.5319109598742884
1708434753.51306,-2.1418824195861816,-1.3338151437095185,-2.527330462132589,6.111479031830587,1.0187199115753174,-2.5318730513202112
1708434753.5150638,-2.1418983936309814,-1.333782122736313,-2.5274208227740687,6.111467230110922,1.0186750888824463,-2.5319018999682825
1708434753.5170624,-2.1418709754943848,-1.3338151735118409,-2.5273378531085413,6.111479031830587,1.0187125205993652,-2.53188926378359
1708434753.5190444,-2.1418983936309814,-1.3338385832360764,-2.527322594319479,6.111482369690695,1.018703579902649,-2.5318639914142054
1708434753.5210521,-2.1419265270233154,-1.3337776225856324,-2.527379576359884,6.111458527832784,1.0187125205993652,-2.5319212118731897
1708434753.5230932,-2.141857862472534,-1.3338182282498856,-2.5273378531085413,6.111553060799398,1.0187453031539917,-2.5318973700152796
1708434753.5250633,-2.141922950744629,-1.333773211841919,-2.527334753667013,6.111507284432211,1.0186920166015625,-2.5318976084338587
1708434753.5271044,-2.1418709754943848,-1.333822564487793,-2.5273881594287317,6.111523854523458,1.018703579902649,-2.5318930784808558
1708434753.529064,-2.141909599304199,-1.333795429473259,-2.5273552576648157,6.111477839737692,1.0187244415283203,-2.53188401857485
1708434753.531082,-2.1418938636779785,-1.3337612462094803,-2.5273552576648157,6.1114985821540735,1.0187005996704102,-2.5319064299212855
1708434753.533059,-2.1418824195861816,-1.333874137406685,-2.527350966130392,6.111487734108724,1.0187081098556519,-2.53196365038027
1708434753.5350533,-2.1418778896331787,-1.3338072907975693,-2.5273762384997767,6.111479031830587,1.0187125205993652,-2.5319302717791956
1708434753.5370722,-2.1418533325195312,-1.3338716340116044,-2.527339045201437,6.111523854523458,1.0186794996261597,-2.53196365038027
1708434753.5390656,-2.141857862472534,-1.3337746423533936,-2.52736741701235,6.111458527832784,1.018733263015747,-2.5319467226611536
1708434753.5410783,-2.1418824195861816,-1.3337895435145875,-2.5273717085467737,6.111502873688497,1.0186917781829834,-2.531954590474264
1708434753.5430803,-2.1418709754943848,-1.3338563603213807,-2.527346674595968,6.11149417141036,1.0187125205993652,-2.531924072896139
1708434753.5450807,-2.1418497562408447,-1.3338029247573395,-2.527379576359884,6.111469256668844,1.0187288522720337,-2.53198749223818
1708434753.5470796,-2.141869068145752,-1.3337865632823487,-2.527363125477926,6.111510741501608,1.0186917781829834,-2.531987253819601
1708434753.5490913,-2.141836404800415,-1.3338028949550171,-2.527346674595968,6.111515152245321,1.0187169313430786,-2.5319681803332728
1708434753.5510826,-2.1419389247894287,-1.333736167555191,-2.527379576359884,6.11149417141036,1.0187244415283203,-2.5318973700152796
1708434753.5530999,-2.141935348510742,-1.3338072907975693,-2.527375046406881,6.111482369690695,1.0187499523162842,-2.531996552144186
1708434753.5550964,-2.141873598098755,-1.333851934676506,-2.5274043718921106,6.111482369690695,1.0186961889266968,-2.532003704701559
1708434753.5570796,-2.1418938636779785,-1.3338474941304703,-2.527346674595968,6.111572968750753,1.0187288522720337,-2.531990353261129
1708434753.5591176,-2.1418709754943848,-1.3337282699397583,-2.527395550404684,6.111486661225118,1.0187199115753174,-2.531966511403219
1708434753.561133,-2.1419098377227783,-1.3337776225856324,-2.5273049513446253,6.111477958946981,1.0186917781829834,-2.531954590474264
1708434753.5630872,-2.1419026851654053,-1.3337909889272233,-2.527416531239645,6.111510741501608,1.0187453031539917,-2.532008473073141
1708434753.565063,-2.141862154006958,-1.333793969159462,-2.527363125477926,6.111551987915792,1.0187288522720337,-2.531933132802145
1708434753.5670788,-2.141873598098755,-1.3338117462447663,-2.527400080357687,6.111489760666647,1.0187081098556519,-2.531954590474264
1708434753.5690556,-2.1418850421905518,-1.3338403415730973,-2.527350966130392,6.111489760666647,1.0187081098556519,-2.5319412390338343
1708434753.571101,-2.1418893337249756,-1.333740459089615,-2.527379337941305,6.11147032955245,1.0187081098556519,-2.531973902379171
1708434753.5730836,-2.1418867111206055,-1.333810643558838,-2.527363125477926,6.111571419029989,1.0187410116195679,-2.5319858233081263
1708434753.5750883,-2.1419310569763184,-1.3338117462447663,-2.5273335615741175,6.111518370896139,1.018716812133789,-2.531950060521261
1708434753.5770738,-2.1419389247894287,-1.3337405335954209,-2.527346674595968,6.111509668618002,1.0187125205993652,-2.532020870839254
1708434753.5790482,-2.141914129257202,-1.3338519793799897,-2.5273869673358362,6.111562716751852,1.0187287330627441,-2.5320027510272425
1708434753.581039,-2.1418983936309814,-1.333847553735115,-2.5273869673358362,6.111545431404867,1.0187411308288574,-2.531950060521261
1708434753.5830462,-2.1419389247894287,-1.333843008880951,-2.5273619333850306,6.111585724144735,1.0187288522720337,-2.531990353261129
1708434753.585106,-2.141939878463745,-1.3337865632823487,-2.527379576359884,6.111593234329977,1.0186872482299805,-2.531990353261129
1708434753.5870645,-2.141918420791626,-1.3337612462094803,-2.527375046406881,6.111609566002645,1.018720030784607,-2.5320518652545374
1708434753.5890381,-2.1418850421905518,-1.3338493567756196,-2.5273500124560755,6.111634480744161,1.0187244415283203,-2.5320356527911585
1708434753.591058,-2.1419177055358887,-1.3338404160789032,-2.527363125477926,6.111585724144735,1.0186917781829834,-2.5320356527911585
1708434753.593042,-2.141866683959961,-1.3337688756040116,-2.5273378531085413,6.111647593766012,1.0187081098556519,-2.531989399586813
1708434753.5950425,-2.1419310569763184,-1.3337494146874924,-2.527383867894308,6.111646759300985,1.0187366008758545,-2.532050434743063
1708434753.5970674,-2.1418938636779785,-1.3337865781835099,-2.5273826758014124,6.111642348557272,1.0187081098556519,-2.5320146719561976
1708434753.5990562,-2.1419098377227783,-1.3337910038283844,-2.5274284521686,6.1116182682807825,1.0187333822250366,-2.532001320515768
1708434753.60106,-2.141918420791626,-1.3338061732104798,-2.5273826758014124,6.111671674042501,1.018762230873108,-2.5320847670184534
1708434753.6030626,-2.1419389247894287,-1.333843008880951,-2.527412239705221,6.111642348557272,1.0186660289764404,-2.532050434743063
1708434753.6050644,-2.1418488025665283,-1.333737165932991,-2.527363125477926,6.111638891487875,1.0187169313430786,-2.5320711771594446
1708434753.6070883,-2.1418893337249756,-1.3338492524674912,-2.5273826758014124,6.111619460373678,1.0187244415283203,-2.532029692326681
1708434753.6090515,-2.141857862472534,-1.3338386130383988,-2.527375046406881,6.111606347351827,1.0187125205993652,-2.532025162373678
1708434753.611058,-2.1419053077697754,-1.3338447523168107,-2.527419630681173,6.1116511700446985,1.0186872482299805,-2.532109085713522
1708434753.613071,-2.1418533325195312,-1.3338163209012528,-2.5274034182177942,6.11156843879775,1.0186917781829834,-2.5320592562304896
1708434753.6150737,-2.1419098377227783,-1.3337776076844712,-2.5273378531085413,6.111699569016256,1.01873779296875,-2.532083336506979
1708434753.6170645,-2.141869068145752,-1.3338073951056977,-2.527419630681173,6.1116301892097376,1.0187050104141235,-2.5320549646960657
1708434753.6190553,-2.1418893337249756,-1.3337894839099427,-2.5273869673358362,6.1116875288780115,1.0187287330627441,-2.532057825719015
1708434753.6210468,-2.141857862472534,-1.3337776076844712,-2.5273707548724573,6.1116301892097376,1.0186920166015625,-2.532062355672018
1708434753.6230536,-2.1418964862823486,-1.3337909144214173,-2.5273664633380335,6.111646759300985,1.0187125205993652,-2.532017532979147
1708434753.62504,-2.1418778896331787,-1.333744929437973,-2.527407709752218,6.111692058831014,1.0187050104141235,-2.5320430437671106
1708434753.6270714,-2.1419177055358887,-1.333789513712265,-2.5273991266833704,6.111662971764364,1.0186917781829834,-2.5320876280414026
1708434753.6290493,-2.14192533493042,-1.333782122736313,-2.5273948351489466,6.111651050835409,1.018716812133789,-2.5320549646960657
1708434753.631062,-2.1418893337249756,-1.3338196140578766,-2.5273991266833704,6.111633765488424,1.018733024597168,-2.532029692326681
1708434753.6330855,-2.1419007778167725,-1.3337658506682892,-2.527395788823263,6.1116182682807825,1.0187366008758545,-2.5320592562304896
1708434753.635064,-2.1418850421905518,-1.3338314455798645,-2.527375046406881,6.111670243531027,1.018703818321228,-2.532050434743063
1708434753.6371076,-2.1419007778167725,-1.3337865632823487,-2.5274363199817103,6.111642348557272,1.0187366008758545,-2.5320549646960657
1708434753.6390657,-2.1419222354888916,-1.333797426228859,-2.5273619333850306,6.111634480744161,1.0187411308288574,-2.532062355672018
1708434753.6410887,-2.1419177055358887,-1.333810643558838,-2.527407709752218,6.111707317620077,1.01876962184906,-2.5320220629321497
1708434753.6430876,-2.1418850421905518,-1.3338029247573395,-2.5274110476123255,6.111588942795553,1.0187411308288574,-2.532066885625021
1708434753.645044,-2.1419177055358887,-1.333835945730545,-2.5274153391467493,6.111609566002645,1.0187666416168213,-2.532074276600973
1708434753.6470687,-2.1419098377227783,-1.3338195991567154,-2.527440611516134,6.111625778466024,1.0187411308288574,-2.5320757071124476
1708434753.6490662,-2.141880512237549,-1.3337984842113038,-2.5273991266833704,6.111634480744161,1.0187366008758545,-2.5320549646960657
1708434753.6510599,-2.141880512237549,-1.3337895286134263,-2.5273707548724573,6.111600982933798,1.0187288522720337,-2.532013003026144
1708434753.6530757,-2.1418964862823486,-1.3337910038283844,-2.5274110476123255,6.1116511700446985,1.0187487602233887,-2.532041613255636
1708434753.6550758,-2.1419131755828857,-1.3338106584599991,-2.5274067560779017,6.111638057022848,1.0187650918960571,-2.5320385138141077
1708434753.6570685,-2.1419053077697754,-1.333773211841919,-2.527418915425436,6.111606347351827,1.0187366008758545,-2.532041374837057
1708434753.6591017,-2.141873598098755,-1.3337865781835099,-2.5274437109576624,6.11159764507369,1.0187199115753174,-2.532057825719015
1708434753.6610699,-2.1419098377227783,-1.3337865781835099,-2.5274339357959192,6.11159764507369,1.0187320709228516,-2.5320711771594446
1708434753.6630607,-2.1418938636779785,-1.333782122736313,-2.5274840036975306,6.111602055817404,1.0187532901763916,-2.5320876280414026
1708434753.6650946,-2.141880512237549,-1.333806262617447,-2.527482811604635,6.111638891487875,1.0187320709228516,-2.532053295766012
1708434753.667065,-2.141934633255005,-1.3338195991567154,-2.5274739901172083,6.111646759300985,1.018703579902649,-2.532062355672018
1708434753.669073,-2.1419007778167725,-1.3338029396585007,-2.5274866263019007,6.111638891487875,1.01876962184906,-2.532100264226095
1708434753.671108,-2.1419222354888916,-1.333828480248787,-2.527527634297506,6.111613976746359,1.0187244415283203,-2.532025162373678
1708434753.67308,-2.1419434547424316,-1.333802880053856,-2.5274985472308558,6.111634480744161,1.0187244415283203,-2.532078806553976
1708434753.675103,-2.1419177055358887,-1.3337865632823487,-2.5275395552264612,6.111634480744161,1.0187532901763916,-2.5320711771594446
1708434753.6770737,-2.1419053077697754,-1.333822564487793,-2.527544085179464,6.11159764507369,1.0187288522720337,-2.532066885625021
1708434753.679088,-2.1419594287872314,-1.3337583106807251,-2.5275309721576136,6.1116171953971765,1.0187366008758545,-2.532053295766012
1708434753.6810713,-2.1419053077697754,-1.3338315796903153,-2.5275266806231897,6.111646759300985,1.0187578201293945,-2.532029692326681
1708434753.683116,-2.1418850421905518,-1.3337702018073578,-2.5275352636920374,6.111638891487875,1.018739938735962,-2.532062355672018
1708434753.6851013,-2.141860008239746,-1.3338505935719986,-2.527527634297506,6.111605155258932,1.0187443494796753,-2.532025162373678
1708434753.6870716,-2.1419007778167725,-1.3337702018073578,-2.527482811604635,6.111613976746359,1.0187366008758545,-2.532050434743063
1708434753.6890864,-2.141934633255005,-1.3337954592755814,-2.5275471846209925,6.111633765488424,1.0187904834747314,-2.5320592562304896
1708434753.6911204,-2.1418938636779785,-1.3338028949550171,-2.5275514761554163,6.111613976746359,1.0187904834747314,-2.532109085713522
1708434753.6930633,-2.141934633255005,-1.3338639003089447,-2.527510468159811,6.111613976746359,1.0187443494796753,-2.532104794179098
1708434753.6950672,-2.1419389247894287,-1.3338029247573395,-2.527506176625387,6.1116301892097376,1.0187199115753174,-2.53204590479006
1708434753.6970527,-2.1419053077697754,-1.333761216407158,-2.5275028387652796,6.11159764507369,1.0187244415283203,-2.532041613255636
1708434753.6991599,-2.141873598098755,-1.333761290912964,-2.5274909178363245,6.111646759300985,1.0187366008758545,-2.5320549646960657
1708434753.701061,-2.1419007778167725,-1.3338269752315064,-2.527560297642843,6.111577021866598,1.0187532901763916,-2.5320876280414026
1708434753.7030692,-2.141880512237549,-1.333867223267891,-2.5275633970843714,6.111662971764364,1.01876962184906,-2.532062355672018
1708434753.7050688,-2.1419265270233154,-1.3337984842113038,-2.527564827595846,6.111670243531027,1.0187650918960571,-2.5320830980883997
1708434753.7070699,-2.1418938636779785,-1.3337851774743577,-2.5274952093707483,6.111667382508077,1.0187770128250122,-2.53204590479006
1708434753.709046,-2.141934633255005,-1.3338475090316315,-2.527499500905172,6.111649977951803,1.0187487602233887,-2.5320876280414026
1708434753.711087,-2.1418778896331787,-1.333851934676506,-2.5274696985827845,6.111634480744161,1.0187199115753174,-2.532062355672018
1708434753.7130995,-2.141930103302002,-1.333847553735115,-2.5275071302997034,6.111641275673666,1.0187487602233887,-2.5320549646960657
1708434753.7150664,-2.1418893337249756,-1.3337164384177704,-2.5274909178363245,6.11167453506545,1.0187153816223145,-2.532066885625021
1708434753.7170856,-2.1419718265533447,-1.3338475090316315,-2.527477804814474,6.111658561020651,1.0187532901763916,-2.532074276600973
1708434753.7190802,-2.1419265270233154,-1.3337702465108414,-2.5274820963488978,6.111682164459982,1.018762230873108,-2.532025162373678
1708434753.7210512,-2.141875982284546,-1.3337895286134263,-2.5275028387652796,6.111658561020651,1.0187366008758545,-2.532029692326681
1708434753.7230809,-2.1419053077697754,-1.3337866228869935,-2.5275266806231897,6.111646759300985,1.0187153816223145,-2.53204590479006
1708434753.7250867,-2.141930103302002,-1.3337613207152863,-2.5275028387652796,6.111625778466024,1.0187199115753174,-2.5320711771594446
1708434753.727048,-2.1418964862823486,-1.333793969159462,-2.5275233427630823,6.111683237343588,1.0187411308288574,-2.532078806553976
1708434753.7291067,-2.1419389247894287,-1.3337865483811875,-2.5275147596942347,6.111654269486227,1.0187532901763916,-2.5320714155780237
1708434753.731067,-2.1419177055358887,-1.3337732267430802,-2.5275190512286585,6.111654269486227,1.01876962184906,-2.532025162373678
1708434753.7330906,-2.1419177055358887,-1.333822564487793,-2.5274952093707483,6.111612903862753,1.0187064409255981,-2.532013241444723
1708434753.7350686,-2.1419265270233154,-1.3337732267430802,-2.5275071302997034,6.111670243531027,1.0187606811523438,-2.53204590479006
1708434753.7370703,-2.1419053077697754,-1.3337776076844712,-2.5275147596942347,6.111682164459982,1.0187771320343018,-2.5320921579944056
1708434753.7390735,-2.1419389247894287,-1.3338315200856705,-2.5275352636920374,6.111698853760519,1.0187153816223145,-2.5320830980883997
1708434753.7411072,-2.141934633255005,-1.3338270050338288,-2.527532164250509,6.11167453506545,1.0187726020812988,-2.5320594946490687
1708434753.7430818,-2.1419053077697754,-1.3338430535844346,-2.5274534861194056,6.1116301892097376,1.0187065601348877,-2.5320220629321497
1708434753.7450762,-2.1419718265533447,-1.3337568205646058,-2.52751595178713,6.111625778466024,1.0187487602233887,-2.5320549646960657
1708434753.747062,-2.1418893337249756,-1.3337851774743577,-2.5275071302997034,6.111645686417379,1.0187726020812988,-2.5320549646960657
1708434753.7490718,-2.1419053077697754,-1.3338062179139634,-2.5274985472308558,6.111670243531027,1.0187199115753174,-2.5320592562304896
1708434753.7510548,-2.1418850421905518,-1.3338195991567154,-2.5275114218341272,6.1116214869316,1.018739938735962,-2.5320101420031946
1708434753.7530873,-2.1419053077697754,-1.3337790679982682,-2.5275071302997034,6.111649977951803,1.0187443494796753,-2.532029692326681
1708434753.755067,-2.1419098377227783,-1.3337895733169098,-2.5274985472308558,6.111670243531027,1.0187443494796753,-2.532017771397726
1708434753.7570577,-2.141934633255005,-1.3338151735118409,-2.5275233427630823,6.111642348557272,1.018739938735962,-2.532017771397726
1708434753.7590733,-2.1419053077697754,-1.333847553735115,-2.527482811604635,6.111651050835409,1.0187859535217285,-2.532066885625021
1708434753.7610576,-2.1418938636779785,-1.3337894988111039,-2.5274909178363245,6.111600982933798,1.0187320709228516,-2.531989399586813
1708434753.7630718,-2.1418850421905518,-1.333831475382187,-2.5274952093707483,6.111642348557272,1.0187517404556274,-2.5320311228381556
1708434753.7650545,-2.141930103302002,-1.3337909889272233,-2.5275114218341272,6.111622679024496,1.0187814235687256,-2.532033983861105
1708434753.767071,-2.1419265270233154,-1.3337703061154862,-2.5275190512286585,6.111642348557272,1.0187487602233887,-2.5320549646960657
1708434753.7690496,-2.1419222354888916,-1.3338269901326676,-2.527532164250509,6.111646759300985,1.0187562704086304,-2.5320385138141077
1708434753.7710843,-2.1418893337249756,-1.3337821078351517,-2.527505938206808,6.1116301892097376,1.0187487602233887,-2.532050434743063
1708434753.7730653,-2.1418850421905518,-1.333798499112465,-2.5274985472308558,6.111642348557272,1.0187443494796753,-2.5320311228381556
1708434753.7750473,-2.1419389247894287,-1.3337538552335282,-2.5275147596942347,6.111613976746359,1.0187562704086304,-2.532001320515768
1708434753.777068,-2.141908645629883,-1.3338315200856705,-2.527543846760885,6.111662971764364,1.0187366008758545,-2.532033983861105
1708434753.779051,-2.141930103302002,-1.3338029247573395,-2.5275190512286585,6.111654269486227,1.0187650918960571,-2.53198486963381
1708434753.7810597,-2.141934633255005,-1.3338195991567154,-2.5274739901172083,6.111638057022848,1.0187532901763916,-2.5319722334491175
1708434753.783083,-2.141930103302002,-1.3338270050338288,-2.5275233427630823,6.111634480744161,1.01876962184906,-2.531989399586813
1708434753.785043,-2.141873598098755,-1.333822564487793,-2.527532164250509,6.111613976746359,1.01876962184906,-2.5320401827441614
1708434753.7870553,-2.1418850421905518,-1.3337865781835099,-2.5275071302997034,6.111633765488424,1.0187320709228516,-2.532001320515768
1708434753.7890675,-2.1418850421905518,-1.333816335802414,-2.5274820963488978,6.111678945809164,1.0187606811523438,-2.5320072809802454
1708434753.7910645,-2.141860008239746,-1.3337865632823487,-2.5275233427630823,6.111670243531027,1.018784761428833,-2.531989399586813
1708434753.793064,-2.1419007778167725,-1.3338270050338288,-2.5275028387652796,6.111625778466024,1.0187606811523438,-2.5319982210742396
1708434753.795085,-2.1419434547424316,-1.333793969159462,-2.5274909178363245,6.111634480744161,1.018811583518982,-2.532005850468771
1708434753.7970562,-2.1418917179107666,-1.333815188413002,-2.5274696985827845,6.111605155258932,1.01876962184906,-2.5320354143725794
1708434753.7990682,-2.141930103302002,-1.3338385832360764,-2.5275102297412317,6.111584651261129,1.0187770128250122,-2.5320609251605433
1708434753.801103,-2.1418850421905518,-1.3338225346854706,-2.527482811604635,6.111638891487875,1.018786072731018,-2.531973902379171
1708434753.8031008,-2.1418893337249756,-1.33382402480159,-2.52751595178713,6.111606347351827,1.0187562704086304,-2.5320146719561976
1708434753.8050966,-2.1419479846954346,-1.3338386130383988,-2.5274785200702112,6.111605155258932,1.0187770128250122,-2.5320611635791224
1708434753.807071,-2.1419477462768555,-1.333782122736313,-2.527508322392599,6.111622559815206,1.0187726020812988,-2.5320237318622034
1708434753.8090508,-2.1419177055358887,-1.3338315200856705,-2.5274952093707483,6.111605155258932,1.018784761428833,-2.5319858233081263
1708434753.8110678,-2.1419053077697754,-1.3337865781835099,-2.5275233427630823,6.111651050835409,1.0187517404556274,-2.5320118109332483
1708434753.8130689,-2.1419265270233154,-1.3337657761624833,-2.5275028387652796,6.111638891487875,1.0187937021255493,-2.5320027510272425
1708434753.815054,-2.1418964862823486,-1.3338062477162858,-2.527489725743429,6.111646759300985,1.0187982320785522,-2.531982962285177
1708434753.8170688,-2.141869068145752,-1.3338182133487244,-2.5275071302997034,6.111659753113546,1.0187562704086304,-2.5319693724261683
1708434753.819073,-2.1418778896331787,-1.3338151288083573,-2.5275114218341272,6.111606347351827,1.018784761428833,-2.531982962285177
1708434753.8210444,-2.1419389247894287,-1.3337910187295456,-2.5275114218341272,6.1115901348884485,1.0187650918960571,-2.5319576899157923
1708434753.8230712,-2.1419131755828857,-1.333786593084671,-2.527499500905172,6.1115901348884485,1.0188145637512207,-2.5319529215442103
1708434753.8250873,-2.1419177055358887,-1.3337538701346894,-2.5274952093707483,6.111655461579122,1.0187726020812988,-2.531928602849142
1708434753.8270874,-2.1419053077697754,-1.3337984693101426,-2.5275071302997034,6.111658561020651,1.0187517404556274,-2.531950060521261
1708434753.829084,-2.1419177055358887,-1.3337939840606232,-2.5275071302997034,6.111634480744161,1.0187726020812988,-2.5319421927081507
1708434753.8310983,-2.1418938636779785,-1.333815113907196,-2.527482811604635,6.111651050835409,1.0188056230545044,-2.5319963137256067
1708434753.8330765,-2.141934633255005,-1.3337449443391343,-2.5275028387652796,6.111596572190084,1.0187606811523438,-2.5319421927081507
1708434753.8350713,-2.1419177055358887,-1.3338029396585007,-2.5274909178363245,6.111655461579122,1.0187517404556274,-2.531959120427267
1708434753.837056,-2.141935348510742,-1.3338151437095185,-2.5275352636920374,6.111634480744161,1.0187726020812988,-2.5319095293628138
1708434753.8390768,-2.1419265270233154,-1.3338314604810257,-2.5274739901172083,6.111606347351827,1.0187606811523438,-2.5319183508502405
1708434753.8410366,-2.1419265270233154,-1.3337074977210541,-2.5274739901172083,6.111544239311971,1.018786072731018,-2.531950060521261
1708434753.8430524,-2.141930103302002,-1.3337895435145875,-2.5274785200702112,6.111615168839254,1.018789291381836,-2.531933132802145
1708434753.8450437,-2.1419098377227783,-1.333782122736313,-2.5274909178363245,6.111631381302633,1.0188010931015015,-2.531987253819601
1708434753.8470757,-2.141914129257202,-1.3338682514480134,-2.5274785200702112,6.1115901348884485,1.0187153816223145,-2.531966511403219
1708434753.8490553,-2.1418850421905518,-1.3338225346854706,-2.527508322392599,6.111582267075338,1.0187562704086304,-2.531933132802145
1708434753.8510687,-2.1419763565063477,-1.3338196140578766,-2.527504030858175,6.111598837166586,1.0187937021255493,-2.531950060521261
1708434753.8530958,-2.1419222354888916,-1.3337909889272233,-2.527499500905172,6.111606347351827,1.018789291381836,-2.531954590474264
1708434753.855083,-2.1419053077697754,-1.333782122736313,-2.527482811604635,6.111585724144735,1.0188223123550415,-2.5319376627551478
1708434753.8570855,-2.141880512237549,-1.3337821972421189,-2.5274739901172083,6.111606347351827,1.018789291381836,-2.531933132802145
1708434753.859206,-2.1419177055358887,-1.333768756394722,-2.5274739901172083,6.1116301892097376,1.018789291381836,-2.531928602849142
1708434753.861071,-2.1419222354888916,-1.3337821525386353,-2.527454678212301,6.111622559815206,1.0187562704086304,-2.5319421927081507
1708434753.8630838,-2.1418488025665283,-1.3338181686452408,-2.527499500905172,6.111651050835409,1.0188100337982178,-2.5319047609912317
1708434753.8650405,-2.1418850421905518,-1.333764449959137,-2.5275114218341272,6.111598837166586,1.0187981128692627,-2.531954590474264
1708434753.867059,-2.1419053077697754,-1.3338519793799897,-2.5274909178363245,6.111613976746359,1.018784761428833,-2.531987253819601
1708434753.8690383,-2.1419053077697754,-1.3337658208659668,-2.5275395552264612,6.1115901348884485,1.018789291381836,-2.5319302717791956
1708434753.8710291,-2.141873598098755,-1.3338385832360764,-2.5274952093707483,6.111602055817404,1.0187606811523438,-2.531966511403219
1708434753.8730495,-2.1419222354888916,-1.3338285249522706,-2.5275114218341272,6.111577856331625,1.018784761428833,-2.5319376627551478
1708434753.87504,-2.1419434547424316,-1.333819643860199,-2.527487103139059,6.111634480744161,1.0187770128250122,-2.5319257418261927
1708434753.8770611,-2.1419053077697754,-1.3338018667748948,-2.5274952093707483,6.111622559815206,1.018784761428833,-2.531950060521261
1708434753.879046,-2.1418983936309814,-1.3338315200856705,-2.5274696985827845,6.111631381302633,1.018784761428833,-2.53196365038027
1708434753.8810482,-2.1419007778167725,-1.3337984842113038,-2.527536455784933,6.1116182682807825,1.018784761428833,-2.531966511403219
1708434753.8830676,-2.141930103302002,-1.3338716340116044,-2.527508322392599,6.111577856331625,1.0187636613845825,-2.5319376627551478
1708434753.885076,-2.1418893337249756,-1.3338429492763062,-2.52751595178713,6.1116182682807825,1.0188056230545044,-2.531933132802145
1708434753.8870735,-2.141873598098755,-1.3338151735118409,-2.527482811604635,6.111573564797201,1.0187937021255493,-2.531978432332174
1708434753.8890338,-2.1419460773468018,-1.3337851774743577,-2.527487103139059,6.11159764507369,1.018796682357788,-2.531971041356222
1708434753.8910394,-2.1419265270233154,-1.3337494742921372,-2.527466599141256,6.111651885300436,1.018796682357788,-2.531982962285177
1708434753.8930426,-2.1418778896331787,-1.3338240695050736,-2.527520243321554,6.111582267075338,1.0188207626342773,-2.5319421927081507
1708434753.8950367,-2.1418964862823486,-1.3338029098561783,-2.5274785200702112,6.111573564797201,1.018796682357788,-2.531961981450216
1708434753.8970416,-2.141864538192749,-1.3338163507035752,-2.527466599141256,6.111643183022299,1.0188297033309937,-2.532003704701559
1708434753.8990674,-2.1419007778167725,-1.3337821525386353,-2.5274785200702112,6.111635672837057,1.0188133716583252,-2.531954590474264
1708434753.901062,-2.141880512237549,-1.3338403415730973,-2.527520243321554,6.111573564797201,1.018796682357788,-2.531978432332174
1708434753.9030554,-2.1419177055358887,-1.3337865632823487,-2.5275114218341272,6.111659753113546,1.0187921524047852,-2.5319421927081507
1708434753.9050438,-2.1418938636779785,-1.3337746125510712,-2.5275114218341272,6.1116182682807825,1.0187921524047852,-2.531966511403219
1708434753.907054,-2.1418964862823486,-1.3338029098561783,-2.527482811604635,6.111647593766012,1.0188297033309937,-2.531999413167135
1708434753.909041,-2.1419177055358887,-1.333798499112465,-2.5274415651904505,6.111622559815206,1.0187803506851196,-2.531933132802145
1708434753.911046,-2.141873598098755,-1.333851934676506,-2.527482811604635,6.111659753113546,1.0188133716583252,-2.531999174748556
1708434753.9130828,-2.141880512237549,-1.3337732267430802,-2.5274785200702112,6.111622559815206,1.0188010931015015,-2.531987253819601
1708434753.9150531,-2.141880512237549,-1.333847553735115,-2.527487103139059,6.111655461579122,1.018796682357788,-2.5319529215442103
1708434753.917049,-2.1419177055358887,-1.3338196140578766,-2.527482811604635,6.11156045177535,1.0188251733779907,-2.5320163408862513
1708434753.91907,-2.1418850421905518,-1.3337820929339905,-2.527482811604635,6.111602055817404,1.0187803506851196,-2.5320163408862513
1708434753.9210925,-2.141869068145752,-1.3338269901326676,-2.5274909178363245,6.111585724144735,1.0188044309616089,-2.531999413167135
1708434753.9230618,-2.1419053077697754,-1.333859385257103,-2.527548376713888,6.111647593766012,1.0188207626342773,-2.5320237318622034
1708434753.9250321,-2.1419222354888916,-1.3337939393571396,-2.527482811604635,6.111613976746359,1.0188207626342773,-2.5320447126971644
1708434753.9270759,-2.1419053077697754,-1.333810643558838,-2.527532164250509,6.111651050835409,1.0188207626342773,-2.5320027510272425
1708434753.929041,-2.1419551372528076,-1.3338029396585007,-2.527499500905172,6.111582267075338,1.01888108253479,-2.5320101420031946
1708434753.9310536,-2.1418964862823486,-1.3338270050338288,-2.5274866263019007,6.111646759300985,1.018861174583435,-2.5320354143725794
1708434753.93306,-2.1418850421905518,-1.3338151735118409,-2.52747089067568,6.111651050835409,1.018890142440796,-2.5320192019092005
1708434753.935046,-2.1419053077697754,-1.3338029247573395,-2.5274866263019007,6.111638891487875,1.0188686847686768,-2.5320594946490687
1708434753.9370766,-2.1418850421905518,-1.3338062328151246,-2.527532164250509,6.111606347351827,1.018859624862671,-2.532029692326681
1708434753.9390414,-2.1419177055358887,-1.3338106286576767,-2.5274785200702112,6.111675965576925,1.0188149213790894,-2.532029453908102
1708434753.9410746,-2.141935348510742,-1.3338062030128022,-2.527482811604635,6.111643183022299,1.018890142440796,-2.5320220629321497
1708434753.9430606,-2.141934633255005,-1.3337895286134263,-2.527482811604635,6.11159764507369,1.0188974142074585,-2.53204590479006
1708434753.9450395,-2.1419177055358887,-1.3337852221778412,-2.527487103139059,6.111655461579122,1.0188974142074585,-2.532001320515768
1708434753.9470518,-2.1418917179107666,-1.33382402480159,-2.527504030858175,6.111655461579122,1.0189183950424194,-2.532066885625021
1708434753.9490426,-2.1419131755828857,-1.3337939095548172,-2.5274415651904505,6.111615049629965,1.0188974142074585,-2.5320385138141077
1708434753.9510489,-2.14186692237854,-1.3338359159282227,-2.527482811604635,6.111573564797201,1.01888108253479,-2.5320592562304896
1708434753.953049,-2.1419053077697754,-1.3338683408549805,-2.52751595178713,6.1116182682807825,1.0188857316970825,-2.5320594946490687
1708434753.9550557,-2.1419265270233154,-1.3338315349868317,-2.5275190512286585,6.111643183022299,1.0188677310943604,-2.5320714155780237
1708434753.9570951,-2.1418867111206055,-1.333835930829384,-2.5274997393237513,6.1116182682807825,1.018906593322754,-2.532029692326681
1708434753.9591537,-2.1419007778167725,-1.333761216407158,-2.5274952093707483,6.111634480744161,1.0188677310943604,-2.532050434743063
1708434753.9610963,-2.1419098377227783,-1.333782137637474,-2.5274785200702112,6.11159764507369,1.0189049243927002,-2.532057825719015
1708434753.9630477,-2.141873598098755,-1.333801881676056,-2.527478281651632,6.111642348557272,1.0188343524932861,-2.532041613255636
1708434753.9651046,-2.1419265270233154,-1.3338359159282227,-2.5275114218341272,6.111634480744161,1.0188974142074585,-2.532107655202047
1708434753.9670658,-2.141914129257202,-1.333810643558838,-2.5274909178363245,6.1116301892097376,1.0188766717910767,-2.532043997441427
1708434753.969038,-2.1418917179107666,-1.3338225495866318,-2.527482811604635,6.111585724144735,1.01888108253479,-2.532066885625021
1708434753.9710426,-2.1419265270233154,-1.3338062179139634,-2.527520243321554,6.111613976746359,1.0189003944396973,-2.5321155230151575
1708434753.973058,-2.1419389247894287,-1.3337688756040116,-2.5275233427630823,6.111577021866598,1.0189005136489868,-2.5320821444140833
1708434753.9750326,-2.141930103302002,-1.3337939840606232,-2.5275114218341272,6.111577856331625,1.01888108253479,-2.5320776144610804
1708434753.9770448,-2.141875982284546,-1.333801881676056,-2.5274534861194056,6.1115901348884485,1.0188857316970825,-2.532048765813009
1708434753.9790401,-2.1419265270233154,-1.33382701993499,-2.52751595178713,6.111631381302633,1.0189423561096191,-2.5321601072894495
1708434753.981032,-2.1419389247894287,-1.3338182282498856,-2.527482811604635,6.111642348557272,1.0189123153686523,-2.5321064631091517
1708434753.983049,-2.1419053077697754,-1.3338182133487244,-2.527499500905172,6.11162697055892,1.018859624862671,-2.5321064631091517
1708434753.9850605,-2.141880512237549,-1.3337984544089814,-2.5274577776538294,6.111625778466024,1.0188930034637451,-2.5321319738971155
1708434753.9870539,-2.1418893337249756,-1.3338593405536194,-2.5275233427630823,6.11159764507369,1.0188840627670288,-2.5321019331561487
1708434753.9890995,-2.1419007778167725,-1.333822564487793,-2.5274696985827845,6.111593353539266,1.0189049243927002,-2.5320685545550745
1708434753.9910665,-2.1418850421905518,-1.333801881676056,-2.5274785200702112,6.111638891487875,1.0189257860183716,-2.5321646372424524
1708434753.9930856,-2.1418442726135254,-1.3338682812503357,-2.527475182210104,6.111638891487875,1.0188959836959839,-2.5321365038501185
1708434753.9950392,-2.1418964862823486,-1.3338315051845093,-2.527482811604635,6.111606347351827,1.0188959836959839,-2.532116715108053
1708434753.9970417,-2.1419479846954346,-1.3338269901326676,-2.5275233427630823,6.111642348557272,1.0189379453659058,-2.5321884791003626
1708434753.999073,-2.1419098377227783,-1.3338151735118409,-2.5274491945849817,6.111581432610311,1.0188677310943604,-2.532142225896017
1708434754.0010633,-2.141880512237549,-1.333807350402214,-2.527499500905172,6.111667382508077,1.0188721418380737,-2.532121483479635
1708434754.003077,-2.141935348510742,-1.3337895435145875,-2.52747089067568,6.111573564797201,1.0189212560653687,-2.532116715108053
1708434754.0050564,-2.1419131755828857,-1.3337688458016892,-2.527532164250509,6.111622559815206,1.0189005136489868,-2.5321720282184046
1708434754.0070503,-2.1419265270233154,-1.333782137637474,-2.5275352636920374,6.111638891487875,1.0188959836959839,-2.5321720282184046
1708434754.0090482,-2.1419098377227783,-1.333843008880951,-2.5275071302997034,6.1116301892097376,1.0189542770385742,-2.5321903864489954
1708434754.0110435,-2.1419389247894287,-1.3338239949992676,-2.5274534861194056,6.11159764507369,1.0189049243927002,-2.53217059770693
1708434754.0130322,-2.1419177055358887,-1.333822564487793,-2.5274372736560267,6.111638891487875,1.0188885927200317,-2.532158676777975
1708434754.0150425,-2.1419177055358887,-1.3337974709323426,-2.5275395552264612,6.111651050835409,1.018891453742981,-2.532232109700338
1708434754.0170693,-2.1418850421905518,-1.3338505935719986,-2.527482811604635,6.11162697055892,1.018907904624939,-2.532248560582296
1708434754.0190594,-2.1418893337249756,-1.3338196140578766,-2.5274577776538294,6.1116301892097376,1.018875241279602,-2.532161537800924
1708434754.0210452,-2.1419053077697754,-1.3338716340116044,-2.5274909178363245,6.111643183022299,1.0189335346221924,-2.5321903864489954
1708434754.023078,-2.1418850421905518,-1.3338549149087449,-2.527508322392599,6.111642348557272,1.0189168453216553,-2.5321860949145716
1708434754.0250669,-2.1419222354888916,-1.3338715893081208,-2.5275028387652796,6.111593234329977,1.018907904624939,-2.5322068373309534
1708434754.0270774,-2.141934633255005,-1.3338151735118409,-2.5274866263019007,6.111646759300985,1.0188885927200317,-2.5322068373309534
1708434754.0290616,-2.1419177055358887,-1.333810643558838,-2.5274952093707483,6.111634480744161,1.0189335346221924,-2.5321829954730433
1708434754.0310416,-2.1419265270233154,-1.3338682812503357,-2.5275114218341272,6.111654269486227,1.018925666809082,-2.5321980158435267
1708434754.0330508,-2.1418983936309814,-1.3337895435145875,-2.5274458567248743,6.111585724144735,1.0189335346221924,-2.5322023073779505
1708434754.035037,-2.1419265270233154,-1.3338359159282227,-2.5274909178363245,6.111625778466024,1.0189049243927002,-2.5322232882129114
1708434754.0370731,-2.141925573348999,-1.3338093024543305,-2.527504030858175,6.11167453506545,1.0189123153686523,-2.5322023073779505
1708434754.0390377,-2.141857862472534,-1.3338151437095185,-2.527499500905172,6.1116182682807825,1.0189123153686523,-2.5322275797473353
1708434754.0410752,-2.1418850421905518,-1.3338475090316315,-2.52751595178713,6.111609566002645,1.0189335346221924,-2.5322113672839563
1708434754.0430422,-2.1419177055358887,-1.3338151586106797,-2.527499500905172,6.111612903862753,1.0189379453659058,-2.5322275797473353
1708434754.045035,-2.1419434547424316,-1.3338672679713746,-2.527504030858175,6.111609566002645,1.0189290046691895,-2.5322395006762903
1708434754.0470872,-2.1418964862823486,-1.333782137637474,-2.5274909178363245,6.111613976746359,1.0189048051834106,-2.5322514216052454
1708434754.0490465,-2.1419177055358887,-1.333813802605011,-2.5274785200702112,6.111683237343588,1.0189379453659058,-2.5322187582599085
1708434754.0511231,-2.1418964862823486,-1.333843008880951,-2.5275114218341272,6.111638057022848,1.0189290046691895,-2.5322261492358606
1708434754.0530596,-2.1419007778167725,-1.333810643558838,-2.5275071302997034,6.111588942795553,1.0189257860183716,-2.5321903864489954
1708434754.0550327,-2.1418850421905518,-1.333798499112465,-2.5274739901172083,6.111593353539266,1.0189379453659058,-2.5322068373309534
1708434754.0570774,-2.1419177055358887,-1.3338298213532944,-2.5274739901172083,6.111683237343588,1.0188751220703125,-2.5322306791888636
1708434754.0590546,-2.141934633255005,-1.333770216708519,-2.5274909178363245,6.1116171953971765,1.018907904624939,-2.5322232882129114
1708434754.0610526,-2.1418964862823486,-1.3338342171958466,-2.5275190512286585,6.111605274468221,1.018891453742981,-2.5322187582599085
1708434754.0630407,-2.1418533325195312,-1.3337688756040116,-2.5275233427630823,6.111682164459982,1.0189543962478638,-2.5321980158435267
1708434754.065047,-2.1418850421905518,-1.3338182282498856,-2.5274620691882532,6.111612784653463,1.0189213752746582,-2.5321860949145716
1708434754.0670412,-2.1418778896331787,-1.3337984842113038,-2.527532164250509,6.111621367722311,1.0189409255981445,-2.5322426001178187
1708434754.0690436,-2.141875982284546,-1.3338715893081208,-2.5274785200702112,6.111670243531027,1.0188959836959839,-2.532265011464254
1708434754.0710688,-2.1419007778167725,-1.3338018667748948,-2.5274339357959192,6.111646759300985,1.0189049243927002,-2.53227669397463
1708434754.0730393,-2.1419265270233154,-1.333851934676506,-2.5274909178363245,6.111707317620077,1.018891453742981,-2.5322113672839563
1708434754.0750673,-2.141908645629883,-1.3338506084731598,-2.5274739901172083,6.111654269486227,1.0189498662948608,-2.5322232882129114
1708434754.0770907,-2.1419007778167725,-1.333813802605011,-2.5274952093707483,6.1116171953971765,1.0189290046691895,-2.53221565881838
1708434754.0790575,-2.14190411567688,-1.333801881676056,-2.5275114218341272,6.111634480744161,1.0189379453659058,-2.532221857701437
1708434754.081648,-2.141930103302002,-1.3338182282498856,-2.5274696985827845,6.111654269486227,1.0189573764801025,-2.5321980158435267
1708434754.0830765,-2.141880512237549,-1.3338385832360764,-2.5274739901172083,6.111596691399374,1.0189290046691895,-2.5321934858905237
1708434754.0850594,-2.1419177055358887,-1.333793969159462,-2.527504030858175,6.111633765488424,1.0189542770385742,-2.5322142283069056
1708434754.0871046,-2.1418964862823486,-1.333773211841919,-2.5275114218341272,6.111633765488424,1.0189168453216553,-2.5322023073779505
1708434754.0890603,-2.141864776611328,-1.3338403415730973,-2.5275233427630823,6.111649977951803,1.0189290046691895,-2.5321949164019983
1708434754.0910444,-2.1418964862823486,-1.3337929558805008,-2.5274785200702112,6.111638057022848,1.0189335346221924,-2.5322306791888636
1708434754.0930429,-2.1418850421905518,-1.3337984842113038,-2.5274952093707483,6.111665951996603,1.0189542770385742,-2.5322352091418665
1708434754.095037,-2.1419177055358887,-1.3338682812503357,-2.5275028387652796,6.111654269486227,1.0189542770385742,-2.5321977774249476
1708434754.0970654,-2.1418850421905518,-1.3338593405536194,-2.527543846760885,6.111678945809164,1.0189168453216553,-2.5322068373309534
1708434754.0990767,-2.1419265270233154,-1.3338638556054612,-2.5275071302997034,6.111592161446371,1.0189212560653687,-2.5322113672839563
1708434754.1010797,-2.141873598098755,-1.333773211841919,-2.5275190512286585,6.111646759300985,1.0189588069915771,-2.5321903864489954
1708434754.1030667,-2.141925573348999,-1.3337568652680893,-2.5274952093707483,6.111682164459982,1.0189335346221924,-2.5321696440326136
1708434754.105044,-2.141934633255005,-1.3338151586106797,-2.527499500905172,6.111646759300985,1.0189379453659058,-2.5321903864489954
1708434754.1071107,-2.141914129257202,-1.333810643558838,-2.5274620691882532,6.111605155258932,1.0189290046691895,-2.5322068373309534
1708434754.1090548,-2.1419520378112793,-1.3337776225856324,-2.5274952093707483,6.111659753113546,1.0189335346221924,-2.5322113672839563
1708434754.111065,-2.1419053077697754,-1.3338385981372376,-2.5274952093707483,6.111670243531027,1.018924593925476,-2.5321524778949183
1708434754.1130939,-2.141914129257202,-1.3337865632823487,-2.527482811604635,6.111649977951803,1.0189409255981445,-2.5321829954730433
1708434754.1150467,-2.1419639587402344,-1.3338151586106797,-2.52751595178713,6.11167453506545,1.0189661979675293,-2.5322023073779505
1708434754.1170568,-2.1418850421905518,-1.333807335501053,-2.5274866263019007,6.111662971764364,1.0189498662948608,-2.5322440306292933
1708434754.1190395,-2.1418850421905518,-1.3338315051845093,-2.5274577776538294,6.111642348557272,1.0189168453216553,-2.5321949164019983
1708434754.1210554,-2.1419434547424316,-1.333822564487793,-2.527482811604635,6.111658561020651,1.0189212560653687,-2.5322068373309534
1708434754.123072,-2.1419053077697754,-1.333822564487793,-2.5275114218341272,6.111658561020651,1.0189212560653687,-2.5321741739856165
1708434754.1250513,-2.1418893337249756,-1.333859385257103,-2.527487103139059,6.111584770470419,1.0189005136489868,-2.5322113672839563
1708434754.1270804,-2.141946315765381,-1.3338029098561783,-2.527482811604635,6.111577021866598,1.0189661979675293,-2.532140556965963
1708434754.1290774,-2.1419548988342285,-1.3338385832360764,-2.5274785200702112,6.111633765488424,1.0189379453659058,-2.53221565881838
1708434754.1310577,-2.141914129257202,-1.333847553735115,-2.5274785200702112,6.111658561020651,1.018930196762085,-2.5321784655200403
1708434754.133084,-2.1419177055358887,-1.3337895435145875,-2.5275114218341272,6.111634480744161,1.0189005136489868,-2.532241169606344
1708434754.1350877,-2.1418850421905518,-1.3337776225856324,-2.5274952093707483,6.111629473954,1.0188959836959839,-2.532157007847921
1708434754.1370635,-2.1419222354888916,-1.3338505935719986,-2.5275114218341272,6.111649977951803,1.0188796520233154,-2.5322113672839563
1708434754.1390393,-2.1419975757598877,-1.333892361526825,-2.5274696985827845,6.111667382508077,1.0189379453659058,-2.53217059770693
1708434754.141056,-2.141857862472534,-1.3338315051845093,-2.5275278727160853,6.111667382508077,1.0189049243927002,-2.532208506261007
1708434754.1430798,-2.1419389247894287,-1.3338715893081208,-2.5274785200702112,6.111662971764364,1.0188930034637451,-2.532154146824972
1708434754.1450582,-2.1419007778167725,-1.3338359159282227,-2.527466599141256,6.111675965576925,1.0189049243927002,-2.5321784655200403
1708434754.1470525,-2.1419434547424316,-1.333793969159462,-2.527532164250509,6.111596691399374,1.0189093351364136,-2.532133165990011
1708434754.1490836,-2.1418893337249756,-1.3338682812503357,-2.5274952093707483,6.111658561020651,1.0188930034637451,-2.5321512858020228
1708434754.1510775,-2.141941547393799,-1.3338137877038498,-2.527504030858175,6.111638057022848,1.0189049243927002,-2.532166067753927
1708434754.1530735,-2.1418983936309814,-1.3338062179139634,-2.52751595178713,6.111634480744161,1.018876552581787,-2.532126013432638
1708434754.1550593,-2.1418938636779785,-1.3338029098561783,-2.527508322392599,6.111667382508077,1.0188885927200317,-2.53214675584902
1708434754.1570828,-2.1418893337249756,-1.3338062030128022,-2.527466599141256,6.111609566002645,1.0189049243927002,-2.532114092503683
1708434754.1591363,-2.1419053077697754,-1.3338269901326676,-2.527482811604635,6.111622559815206,1.0189392566680908,-2.532093111668722
1708434754.1610863,-2.1419265270233154,-1.3337929558805008,-2.5274620691882532,6.111593234329977,1.018930196762085,-2.5321274439441126
1708434754.1630783,-2.1418917179107666,-1.333851934676506,-2.527499500905172,6.1116214869316,1.0189093351364136,-2.5320940653430384
1708434754.1650403,-2.1418893337249756,-1.3338269901326676,-2.5274785200702112,6.111649977951803,1.018902063369751,-2.5321319738971155
1708434754.1670454,-2.1419389247894287,-1.3338475090316315,-2.527499500905172,6.111654269486227,1.01888108253479,-2.5320895353900355
1708434754.169048,-2.1419098377227783,-1.333810643558838,-2.52747089067568,6.111690747528829,1.0188766717910767,-2.532027784978048
1708434754.171049,-2.1419007778167725,-1.3338298213532944,-2.527466599141256,6.111658561020651,1.018906593322754,-2.5320895353900355
1708434754.1730406,-2.1419007778167725,-1.3337776225856324,-2.527482811604635,6.1116864559944055,1.0188567638397217,-2.5321109930621546
1708434754.1750524,-2.1419265270233154,-1.3338151586106797,-2.5275028387652796,6.111671674042501,1.0188766717910767,-2.5320866743670862
1708434754.1770587,-2.1419222354888916,-1.3338314604810257,-2.52751595178713,6.111682164459982,1.018902063369751,-2.532095734273092
1708434754.1790552,-2.1419477462768555,-1.3338475090316315,-2.527520243321554,6.111605155258932,1.0188478231430054,-2.53204590479006
1708434754.18105,-2.1419265270233154,-1.333813802605011,-2.527504030858175,6.1116214869316,1.01888108253479,-2.532074276600973
1708434754.183043,-2.1419053077697754,-1.333810643558838,-2.5275114218341272,6.111613857537069,1.0188775062561035,-2.5321155230151575
1708434754.1850584,-2.1419310569763184,-1.3337895435145875,-2.527454678212301,6.111638057022848,1.0188730955123901,-2.5320830980883997
1708434754.1870463,-2.1418893337249756,-1.3338151586106797,-2.5274458567248743,6.111629473954,1.0188730955123901,-2.532074276600973
1708434754.1890745,-2.1419098377227783,-1.3338298213532944,-2.5274913946734827,6.111665951996603,1.018861174583435,-2.532062355672018
1708434754.1910453,-2.1419389247894287,-1.3337688756040116,-2.527482811604635,6.111645686417379,1.0188359022140503,-2.532066885625021
1708434754.193064,-2.1419310569763184,-1.333782137637474,-2.527487103139059,6.111646759300985,1.018877625465393,-2.532104794179098
1708434754.1950314,-2.141934633255005,-1.3337776225856324,-2.527487103139059,6.111658561020651,1.0188567638397217,-2.53204590479006
1708434754.1970441,-2.1418893337249756,-1.333810643558838,-2.5274739901172083,6.111634480744161,1.0188448429107666,-2.532013241444723
1708434754.199059,-2.1419053077697754,-1.3338385832360764,-2.527466599141256,6.111638057022848,1.018807291984558,-2.5320385138141077
1708434754.20105,-2.1419479846954346,-1.3338195842555542,-2.527504030858175,6.111649977951803,1.0188117027282715,-2.532053295766012
1708434754.2030864,-2.1419460773468018,-1.333813802605011,-2.5274866263019007,6.111654269486227,1.0188539028167725,-2.5320964495288294
1708434754.2050729,-2.1419177055358887,-1.333793969159462,-2.5274785200702112,6.111633765488424,1.0188207626342773,-2.5320549646960657
1708434754.2070637,-2.1419222354888916,-1.3337974709323426,-2.527466599141256,6.11159764507369,1.0188374519348145,-2.532005850468771
1708434754.2090454,-2.141918420791626,-1.3337807965329667,-2.527482811604635,6.111629473954,1.0188043117523193,-2.5320802370654505
1708434754.21109,-2.1419131755828857,-1.3338062179139634,-2.527552668248312,6.111649977951803,1.0188010931015015,-2.532005850468771
1708434754.2130775,-2.1419265270233154,-1.3338182282498856,-2.5274208227740687,6.111646759300985,1.0187500715255737,-2.5319767634021204
1708434754.2150502,-2.1418893337249756,-1.3337688607028504,-2.527499500905172,6.111658561020651,1.0188010931015015,-2.5320072809802454
1708434754.217055,-2.1419310569763184,-1.3338151586106797,-2.5274909178363245,6.111609566002645,1.0188101530075073,-2.5319982210742396
1708434754.21904,-2.141914129257202,-1.333801881676056,-2.527499500905172,6.111593234329977,1.018768072128296,-2.5319812933551233
1708434754.2210662,-2.1419222354888916,-1.3338269901326676,-2.5274997393237513,6.111638057022848,1.018784761428833,-2.531994883214132
1708434754.2230546,-2.141934633255005,-1.3337776225856324,-2.527508322392599,6.1116182682807825,1.0187562704086304,-2.531987253819601
1708434754.225067,-2.1419389247894287,-1.3337852221778412,-2.527499500905172,6.111651050835409,1.0188101530075073,-2.531966511403219
1708434754.2270553,-2.1419007778167725,-1.3338315051845093,-2.527454678212301,6.111609446793356,1.018739938735962,-2.531971041356222
1708434754.229048,-2.1419053077697754,-1.333822564487793,-2.5274913946734827,6.1116301892097376,1.0187606811523438,-2.53196365038027
1708434754.231064,-2.1418938636779785,-1.333782137637474,-2.5274415651904505,6.111600982933798,1.018735408782959,-2.5319376627551478
1708434754.2330627,-2.1418964862823486,-1.333782137637474,-2.5274997393237513,6.111606347351827,1.018730878829956,-2.531950060521261
1708434754.2350621,-2.1419434547424316,-1.3337895435145875,-2.527475182210104,6.111585724144735,1.0187187194824219,-2.5320008436786097
1708434754.2370813,-2.141864776611328,-1.3337865632823487,-2.5274620691882532,6.111634480744161,1.018789291381836,-2.5318930784808558
1708434754.2390432,-2.1419265270233154,-1.3338195544532319,-2.52751595178713,6.1115901348884485,1.018784761428833,-2.5319138208972376
1708434754.2410629,-2.1418778896331787,-1.333810643558838,-2.5274577776538294,6.111572730332174,1.0187606811523438,-2.5319727102862757
1708434754.2430773,-2.1418778896331787,-1.333810643558838,-2.527458969746725,6.111659633904257,1.0187578201293945,-2.5319436232196253
1708434754.2450745,-2.1418893337249756,-1.333773211841919,-2.52747089067568,6.111584651261129,1.0188056230545044,-2.5319138208972376
1708434754.2470608,-2.1418850421905518,-1.3337852221778412,-2.5274339357959192,6.111646759300985,1.0187231302261353,-2.5318895022021692
1708434754.2490525,-2.1419131755828857,-1.3337984842113038,-2.5274794737445276,6.111647593766012,1.0187606811523438,-2.5319226423846644
1708434754.2510488,-2.141866683959961,-1.3337449443391343,-2.5274739901172083,6.111615168839254,1.018786072731018,-2.5319390932666224
1708434754.2530522,-2.141857862472534,-1.3338315051845093,-2.527487103139059,6.111615168839254,1.0187487602233887,-2.531907383595602
1708434754.2550604,-2.1419594287872314,-1.333854929809906,-2.527454678212301,6.111573564797201,1.0188010931015015,-2.5318895022021692
1708434754.2570832,-2.1419053077697754,-1.3337895435145875,-2.5274458567248743,6.1115691540534876,1.0187443494796753,-2.5318403879748743
1708434754.2591138,-2.1418938636779785,-1.3337821823409577,-2.5274739901172083,6.111606347351827,1.0187650918960571,-2.531865660344259
1708434754.2610793,-2.1418850421905518,-1.3337776225856324,-2.52747089067568,6.111570346146383,1.0187606811523438,-2.5318566004382532
1708434754.2630696,-2.141869068145752,-1.3338195842555542,-2.527454678212301,6.111529338150778,1.0187443494796753,-2.531853739415304
1708434754.2650542,-2.1418938636779785,-1.3338315051845093,-2.5274909178363245,6.111616122513571,1.0187606811523438,-2.5318730513202112
1708434754.2670562,-2.1419222354888916,-1.333810643558838,-2.527482811604635,6.111598837166586,1.018739938735962,-2.531865660344259
1708434754.2690442,-2.1418533325195312,-1.3337939244559784,-2.527475182210104,6.111586558609762,1.0187443494796753,-2.531874720250265
1708434754.2710416,-2.141914129257202,-1.3337984842113038,-2.527487103139059,6.111566054611959,1.0187532901763916,-2.531832996998922
1708434754.273053,-2.1419007778167725,-1.3337954145720978,-2.52747089067568,6.111570346146383,1.0187814235687256,-2.531858269368307
1708434754.2750769,-2.1419177055358887,-1.333810643558838,-2.527478281651632,6.111529338150778,1.0187320709228516,-2.531837526951925
1708434754.2770455,-2.1419053077697754,-1.333801881676056,-2.527482811604635,6.111558425217428,1.0187366008758545,-2.53188664117922
1708434754.2790625,-2.141869068145752,-1.333851919775345,-2.5274739901172083,6.111509787827291,1.0187487602233887,-2.531853739415304
1708434754.2810545,-2.141873598098755,-1.3338475090316315,-2.5274959246264856,6.111562716751852,1.0187443494796753,-2.531870190297262
1708434754.283079,-2.1418850421905518,-1.333838553433754,-2.527487103139059,6.111534583359518,1.0187276601791382,-2.531911913548605
1708434754.285049,-2.141935348510742,-1.333773211841919,-2.527487103139059,6.111578929215231,1.0187859535217285,-2.531850878392355
1708434754.2870529,-2.1418938636779785,-1.333875985150673,-2.52747089067568,6.111497747689047,1.0187276601791382,-2.531874720250265
1708434754.2890513,-2.1419098377227783,-1.3338315051845093,-2.527482811604635,6.111522662430563,1.0187742710113525,-2.531821076069967
1708434754.2910578,-2.1419053077697754,-1.3338151586106797,-2.527438465748922,6.111538994103231,1.0187366008758545,-2.531850878392355
1708434754.2930832,-2.1419053077697754,-1.3338269901326676,-2.5274339357959192,6.111473548203268,1.0187153816223145,-2.531837526951925
1708434754.2950392,-2.1419053077697754,-1.333801881676056,-2.5274913946734827,6.111489879875936,1.0187411308288574,-2.531841818486349
1708434754.2970583,-2.1418778896331787,-1.333844782119133,-2.527482811604635,6.1114704487617395,1.0187443494796753,-2.5318179766284388
1708434754.299047,-2.141914129257202,-1.3338269901326676,-2.5275028387652796,6.111446249275961,1.0187108516693115,-2.5318761507617396
1708434754.301136,-2.141902446746826,-1.3338182282498856,-2.5274620691882532,6.111418473511495,1.0187366008758545,-2.531858269368307
1708434754.3030782,-2.141906976699829,-1.3338225495866318,-2.527466599141256,6.111427056580343,1.0187443494796753,-2.53182560602297
1708434754.3050382,-2.141907215118408,-1.333793969159462,-2.527438465748922,6.11139856556014,1.0187532901763916,-2.531850878392355
1708434754.3070672,-2.141918420791626,-1.3337776374867936,-2.52747089067568,6.11139343956069,1.0187606811523438,-2.5318010489093226
1708434754.3090694,-2.141866683959961,-1.3338106286576767,-2.527438465748922,6.111454951554098,1.0187411308288574,-2.531853739415304
1708434754.311052,-2.1419265270233154,-1.3337895435145875,-2.527454678212301,6.111503946572103,1.0187814235687256,-2.5318225065814417
1708434754.3130708,-2.141902446746826,-1.333801881676056,-2.5274913946734827,6.111405360489645,1.0187443494796753,-2.531829897557394
1708434754.3150406,-2.1418938636779785,-1.3338519048741837,-2.527466599141256,6.111495363503256,1.0187562704086304,-2.5318790117846888
1708434754.3170657,-2.1419310569763184,-1.3338018667748948,-2.5274952093707483,6.1114834425743005,1.0187153816223145,-2.5318642298327845
1708434754.3190389,-2.1418867111206055,-1.333761290912964,-2.527482811604635,6.1114715216453455,1.0186783075332642,-2.5318389574633997
1708434754.3210292,-2.1418824195861816,-1.3338385832360764,-2.527454678212301,6.111421692162313,1.018739938735962,-2.5317803064929407
1708434754.3230686,-2.141862154006958,-1.3338315051845093,-2.527442757283346,6.111406433373251,1.0187578201293945,-2.5318055788623255
1708434754.325031,-2.141869068145752,-1.33377759278331,-2.527454678212301,6.111385690956869,1.0187650918960571,-2.5318270365344446
1708434754.3270545,-2.141918420791626,-1.3338029098561783,-2.527475182210104,6.11136947849349,1.0187562704086304,-2.5318270365344446
1708434754.3290315,-2.141906976699829,-1.333880530004837,-2.527482811604635,6.111438977509298,1.018710970878601,-2.5318225065814417
1708434754.331038,-2.1418893337249756,-1.3338062030128022,-2.52744704881777,6.1113942740257166,1.0187276601791382,-2.5318480173694056
1708434754.3330817,-2.1419310569763184,-1.3338269901326676,-2.527482811604635,6.111438977509298,1.0187366008758545,-2.5317683855639856
1708434754.3350458,-2.1418910026550293,-1.3338593405536194,-2.5274503866778772,6.1114022610481165,1.0187153816223145,-2.5318270365344446
1708434754.337084,-2.1418778896331787,-1.333854929809906,-2.527487103139059,6.1114022610481165,1.01876962184906,-2.5318315664874476
1708434754.3390536,-2.1419026851654053,-1.3338195842555542,-2.5274503866778772,6.111475813179769,1.0187232494354248,-2.5318101088153284
1708434754.3410432,-2.1418983936309814,-1.3337895435145875,-2.52747089067568,6.111422765045919,1.01876962184906,-2.5318434874164026
1708434754.3430858,-2.141902446746826,-1.333822564487793,-2.527487103139059,6.111471402436056,1.0187366008758545,-2.5318387190448206
1708434754.345039,-2.1418778896331787,-1.3337984842113038,-2.527482811604635,6.111434685974874,1.01876962184906,-2.5317803064929407
1708434754.3470573,-2.141866683959961,-1.333843008880951,-2.52747089067568,6.111454951554098,1.0187650918960571,-2.5318270365344446
1708434754.3490412,-2.1418867111206055,-1.3338062179139634,-2.527487103139059,6.1114022610481165,1.0187532901763916,-2.5318101088153284
1708434754.351073,-2.1418213844299316,-1.333810643558838,-2.5274296442614954,6.111454951554098,1.01876962184906,-2.5318315664874476
1708434754.3530734,-2.141911745071411,-1.3338151437095185,-2.52747089067568,6.111475813179769,1.0187562704086304,-2.5318523089038294
1708434754.3550735,-2.1418709754943848,-1.3337776225856324,-2.527466599141256,6.111418473511495,1.0187578201293945,-2.531818930302755
1708434754.3570652,-2.141866683959961,-1.3338151735118409,-2.52747089067568,6.111443269043722,1.01876962184906,-2.5317683855639856
1708434754.359107,-2.141906976699829,-1.333749459390976,-2.527475182210104,6.111438977509298,1.018710970878601,-2.53182560602297
1708434754.3610816,-2.1418497562408447,-1.3338269901326676,-2.527466599141256,6.111427056580343,1.0187532901763916,-2.5318010489093226
1708434754.363091,-2.1418328285217285,-1.333859385257103,-2.5274952093707483,6.111447679787435,1.0187443494796753,-2.5318055788623255
1708434754.365054,-2.1418585777282715,-1.3337731820395966,-2.5274913946734827,6.111480104714193,1.0187320709228516,-2.5318389574633997
1708434754.3670716,-2.141849994659424,-1.3337852221778412,-2.5274503866778772,6.1114022610481165,1.01876962184906,-2.5318480173694056
1708434754.3690534,-2.1418755054473877,-1.3338385832360764,-2.5274632612811487,6.111418473511495,1.0187487602233887,-2.531834427510397
1708434754.371093,-2.141845464706421,-1.3337820929339905,-2.5274913946734827,6.111422765045919,1.0187650918960571,-2.5318179766284388
1708434754.3730612,-2.1418910026550293,-1.3337865632823487,-2.52747089067568,6.111450660019674,1.0187276601791382,-2.5318146387683313
1708434754.3750527,-2.1419003009796143,-1.333835856323578,-2.527508322392599,6.111454951554098,1.0187562704086304,-2.5318146387683313
1708434754.377098,-2.1418983936309814,-1.3338182282498856,-2.5274503866778772,6.111446249275961,1.0187199115753174,-2.5317936579333704
1708434754.3791013,-2.141817808151245,-1.3338106286576767,-2.527475182210104,6.111447679787435,1.0187904834747314,-2.5318315664874476
1708434754.3810415,-2.1418824195861816,-1.3337775629809876,-2.527504030858175,6.11139343956069,1.0187606811523438,-2.5317726770984095
1708434754.3830786,-2.1418910026550293,-1.3338358712247391,-2.5274458567248743,6.111385690956869,1.0187487602233887,-2.5317891279803675
1708434754.385048,-2.1418957710266113,-1.3337939989617844,-2.527487103139059,6.1114715216453455,1.018774151802063,-2.5318225065814417
1708434754.3870847,-2.141866683959961,-1.3338239800981064,-2.527482811604635,6.111434685974874,1.018739938735962,-2.5318146387683313
1708434754.3890812,-2.1418497562408447,-1.333797500734665,-2.527475182210104,6.111431348114767,1.0187770128250122,-2.5317845980273646
1708434754.391085,-2.1418800354003906,-1.333773211841919,-2.527458969746725,6.111443269043722,1.0187443494796753,-2.531834427510397
1708434754.3930721,-2.141845464706421,-1.3338225346854706,-2.52747089067568,6.111427056580343,1.0187606811523438,-2.5318270365344446
1708434754.3950772,-2.1418824195861816,-1.3337865632823487,-2.527466599141256,6.1113823530967615,1.0187532901763916,-2.5318434874164026
1708434754.3970666,-2.141914129257202,-1.333770216708519,-2.5274339357959192,6.1114022610481165,1.018739938735962,-2.531842056904928
1708434754.399083,-2.141906976699829,-1.333802880053856,-2.5274913946734827,6.111422765045919,1.0187487602233887,-2.5318101088153284
1708434754.4010768,-2.1418497562408447,-1.3338314604810257,-2.5274959246264856,6.111427056580343,1.0187232494354248,-2.5318146387683313
1708434754.4030933,-2.1418709754943848,-1.3338269901326676,-2.52747089067568,6.111406433373251,1.0187770128250122,-2.5318551699267786
1708434754.4050806,-2.1418709754943848,-1.3338151586106797,-2.527454678212301,6.111443269043722,1.0187443494796753,-2.5318101088153284
1708434754.4070785,-2.1419026851654053,-1.333777667289116,-2.527466599141256,6.111410844116964,1.0187814235687256,-2.5318010489093226
1708434754.4090524,-2.141911745071411,-1.3337939542583008,-2.5274794737445276,6.111443269043722,1.0187606811523438,-2.5318146387683313
1708434754.4110603,-2.1418585777282715,-1.3337406081012269,-2.5274503866778772,6.111454951554098,1.0187153816223145,-2.531850878392355
1708434754.4130619,-2.1418709754943848,-1.333831475382187,-2.527475182210104,6.111422765045919,1.0187606811523438,-2.5318010489093226
1708434754.4150565,-2.1418709754943848,-1.333782122736313,-2.527478281651632,6.111434685974874,1.0187443494796753,-2.5318144003497522
1708434754.4170694,-2.1418540477752686,-1.3338342171958466,-2.5274503866778772,6.111427056580343,1.0187937021255493,-2.5318010489093226
1708434754.4190505,-2.1418240070343018,-1.3338062179139634,-2.527504030858175,6.111463534622946,1.0187606811523438,-2.5318225065814417
1708434754.4210436,-2.141918420791626,-1.3338062179139634,-2.5274503866778772,6.111438977509298,1.0187770128250122,-2.5318146387683313
1708434754.423054,-2.1418585777282715,-1.3337895286134263,-2.52747089067568,6.111406433373251,1.0187443494796753,-2.5318434874164026
1708434754.4250517,-2.1418910026550293,-1.3338475090316315,-2.527487103139059,6.111406433373251,1.0188010931015015,-2.531834427510397
1708434754.4270854,-2.1418867111206055,-1.3337939542583008,-2.527487103139059,6.111389863282003,1.0187726020812988,-2.5318315664874476
1708434754.4290664,-2.1418824195861816,-1.3338342768004914,-2.527482811604635,6.1113942740257166,1.0187187194824219,-2.5318599382983606
1708434754.4310496,-2.1418416500091553,-1.3338342171958466,-2.527475182210104,6.111402976303854,1.0187606811523438,-2.5318551699267786
1708434754.4330704,-2.1418983936309814,-1.3338269901326676,-2.527478281651632,6.111422765045919,1.018789291381836,-2.5318523089038294
1708434754.4350631,-2.141845464706421,-1.3338195842555542,-2.527482811604635,6.111419546395101,1.0187937021255493,-2.5317440668689173
1708434754.4370737,-2.1418755054473877,-1.3338195842555542,-2.527482811604635,6.111386763840475,1.018768072128296,-2.5318146387683313
1708434754.439042,-2.141922950744629,-1.3338106286576767,-2.52747089067568,6.1114563820655725,1.0187937021255493,-2.5318179766284388
1708434754.4410422,-2.1418282985687256,-1.3337732714465638,-2.527454678212301,6.111431348114767,1.0187636613845825,-2.5318434874164026
1708434754.4430654,-2.141866683959961,-1.3338151586106797,-2.527482811604635,6.111391055374899,1.0187726020812988,-2.5318599382983606
1708434754.445082,-2.1418938636779785,-1.3338403415730973,-2.527487103139059,6.111423837929525,1.018739938735962,-2.5318225065814417
1708434754.4470613,-2.1418755054473877,-1.333813802605011,-2.527487103139059,6.111389863282003,1.0187758207321167,-2.5318101088153284
1708434754.4490511,-2.1418938636779785,-1.333822564487793,-2.527458969746725,6.111444461136617,1.018768072128296,-2.5318315664874476
1708434754.4510605,-2.141862154006958,-1.3338385832360764,-2.527482811604635,6.111361729889669,1.0188010931015015,-2.5318804422961634
1708434754.453066,-2.1418540477752686,-1.3338315051845093,-2.5274720827685755,6.111419546395101,1.0187443494796753,-2.5318225065814417
1708434754.4550512,-2.1418893337249756,-1.3338402521661301,-2.527454678212301,6.111389863282003,1.0187770128250122,-2.5318055788623255
1708434754.457066,-2.1418328285217285,-1.3337702465108414,-2.52747089067568,6.111438977509298,1.0187562704086304,-2.5318389574633997
1708434754.4591112,-2.141911506652832,-1.3337984842113038,-2.527442757283346,6.111438977509298,1.0187726020812988,-2.5318010489093226
1708434754.4610868,-2.1418910026550293,-1.333802954559662,-2.527482811604635,6.111467230110922,1.0187517404556274,-2.5318849722491663
1708434754.463209,-2.141866683959961,-1.333813802605011,-2.527482811604635,6.111427056580343,1.0187981128692627,-2.5318434874164026
1708434754.4650705,-2.1418755054473877,-1.3337984842113038,-2.5274296442614954,6.111427056580343,1.0187636613845825,-2.5318146387683313
1708434754.467057,-2.1418240070343018,-1.333834246998169,-2.5274913946734827,6.111406433373251,1.0187517404556274,-2.5318506399737757
1708434754.4690492,-2.1418755054473877,-1.3338062179139634,-2.5274339357959192,6.111410844116964,1.0187937021255493,-2.5318225065814417
1708434754.471085,-2.1418983936309814,-1.333851934676506,-2.527487103139059,6.111443269043722,1.0188010931015015,-2.5318055788623255
1708434754.473087,-2.1418824195861816,-1.333813802605011,-2.5274339357959192,6.1113942740257166,1.0187264680862427,-2.5318480173694056
1708434754.4750428,-2.1418416500091553,-1.3337776076844712,-2.5274503866778772,6.111471402436056,1.018796682357788,-2.5318055788623255
1708434754.477071,-2.1418328285217285,-1.333773211841919,-2.527482811604635,6.111364948540487,1.0188056230545044,-2.5318179766284388
1708434754.479084,-2.1418910026550293,-1.333777667289116,-2.527454678212301,6.111475813179769,1.0187770128250122,-2.5318225065814417
1708434754.4810414,-2.1418824195861816,-1.3338151288083573,-2.527487103139059,6.111430275231161,1.0188177824020386,-2.5317967573748987
1708434754.4830623,-2.141939640045166,-1.3337687861970444,-2.5274458567248743,6.1113942740257166,1.0187937021255493,-2.5318878332721155
1708434754.4850457,-2.1418211460113525,-1.3337852221778412,-2.52747089067568,6.111438977509298,1.0187636613845825,-2.5318599382983606
1708434754.4870648,-2.1418893337249756,-1.3337569248727341,-2.527454678212301,6.111459243088522,1.0187803506851196,-2.531834427510397
1708434754.4890475,-2.1418910026550293,-1.3338151586106797,-2.527487103139059,6.111415135651388,1.018768072128296,-2.5318010489093226
1708434754.4910517,-2.141840934753418,-1.3338182133487244,-2.5274956862079065,6.111459243088522,1.018784761428833,-2.531895462666647
1708434754.4930604,-2.1418328285217285,-1.3338182282498856,-2.527466599141256,6.111421692162313,1.018784761428833,-2.5318596998797815
1708434754.4950752,-2.1418778896331787,-1.3337895733169098,-2.5274503866778772,6.11139856556014,1.0188010931015015,-2.5318270365344446
1708434754.497076,-2.1418540477752686,-1.33378221214328,-2.52747089067568,6.111410844116964,1.018784761428833,-2.531850878392355
1708434754.4990554,-2.1418585777282715,-1.333798499112465,-2.527438465748922,6.111422765045919,1.0188056230545044,-2.531846348439352
1708434754.5010526,-2.1418213844299316,-1.3337567907622834,-2.527426544819967,6.111430275231161,1.0188010931015015,-2.5318272749530237
1708434754.503094,-2.141840934753418,-1.3338106286576767,-2.5274785200702112,6.111505138664999,1.0188177824020386,-2.531834427510397
1708434754.5050793,-2.141902446746826,-1.3338385832360764,-2.527482811604635,6.111447679787435,1.018834114074707,-2.53186279932131
1708434754.507075,-2.1418585777282715,-1.333793969159462,-2.527475182210104,6.111418473511495,1.018784761428833,-2.5318179766284388
1708434754.5090482,-2.141906976699829,-1.3338072907975693,-2.527482811604635,6.111438977509298,1.0188342332839966,-2.5318389574633997
1708434754.5110428,-2.1418755054473877,-1.3337895435145875,-2.527482811604635,6.111487734108724,1.0187472105026245,-2.531850878392355
1708434754.5130796,-2.141918420791626,-1.333819569354393,-2.5274503866778772,6.111443269043722,1.018796682357788,-2.531858269368307
1708434754.515054,-2.1418983936309814,-1.3337657910636445,-2.5274913946734827,6.111434685974874,1.0187803506851196,-2.5318670908557337
1708434754.517094,-2.141866683959961,-1.333851934676506,-2.52747089067568,6.111459243088522,1.0188177824020386,-2.5318835417376917
1708434754.5190604,-2.141862392425537,-1.3338195991567154,-2.5274840036975306,6.1114715216453455,1.018784761428833,-2.5318670908557337
1708434754.5210538,-2.1418540477752686,-1.3337895435145875,-2.527466599141256,6.111487734108724,1.0187877416610718,-2.531846348439352
1708434754.5230744,-2.1418938636779785,-1.3338151735118409,-2.527475182210104,6.111430275231161,1.0188133716583252,-2.531895462666647
1708434754.525053,-2.1418867111206055,-1.3338385981372376,-2.527466599141256,6.11140655258254,1.0188133716583252,-2.5318790117846888
1708434754.5270617,-2.1418709754943848,-1.3338182133487244,-2.5274794737445276,6.111462819367208,1.0188448429107666,-2.531853739415304
1708434754.5290594,-2.1418755054473877,-1.3337568056634446,-2.527438465748922,6.111487734108724,1.0188297033309937,-2.531858269368307
1708434754.5310519,-2.1418910026550293,-1.333782137637474,-2.527487103139059,6.111467230110922,1.0188297033309937,-2.531858269368307
1708434754.5330548,-2.1418328285217285,-1.333843008880951,-2.527487103139059,6.111450660019674,1.018811821937561,-2.531804863606588
1708434754.5351062,-2.1418211460113525,-1.333810643558838,-2.527475182210104,6.111418473511495,1.0188448429107666,-2.531902853642599
1708434754.5370862,-2.1418168544769287,-1.3338106286576767,-2.527466599141256,6.111467945366659,1.018853783607483,-2.531895462666647
1708434754.5391023,-2.141866683959961,-1.3338018667748948,-2.527508322392599,6.111418473511495,1.0188404321670532,-2.531858269368307
1708434754.5410914,-2.1419026851654053,-1.3337746423533936,-2.5274632612811487,6.111450660019674,1.0187938213348389,-2.53184944788088
1708434754.5430896,-2.1418867111206055,-1.333793969159462,-2.527487103139059,6.111443269043722,1.018877625465393,-2.531890932713644
1708434754.5450702,-2.1418867111206055,-1.3337776225856324,-2.527458969746725,6.111474740296163,1.018861174583435,-2.531853739415304
1708434754.5470994,-2.1418328285217285,-1.3337775480798264,-2.5274913946734827,6.111487734108724,1.0188567638397217,-2.531870190297262
1708434754.5490794,-2.1418800354003906,-1.3337776225856324,-2.5274632612811487,6.111438977509298,1.0188640356063843,-2.531907383595602
1708434754.5511224,-2.1418540477752686,-1.3338673126748581,-2.527466599141256,6.11148892620162,1.0188360214233398,-2.53184944788088
1708434754.5531235,-2.1418752670288086,-1.3337865781835099,-2.5274339357959192,6.111454951554098,1.0188028812408447,-2.531870190297262
1708434754.5550895,-2.141849994659424,-1.3337732565454026,-2.52747089067568,6.111397850304403,1.0188329219818115,-2.531882111226217
1708434754.55709,-2.1418845653533936,-1.3338182133487244,-2.527454678212301,6.111475813179769,1.018870234489441,-2.531870190297262
1708434754.5590644,-2.141927480697632,-1.3337929558805008,-2.527466599141256,6.111446249275961,1.0188523530960083,-2.53184944788088
1708434754.561116,-2.1418001651763916,-1.3337852221778412,-2.5274458567248743,6.111431348114767,1.0188448429107666,-2.531874720250265
1708434754.5630977,-2.141862154006958,-1.3337895435145875,-2.5274632612811487,6.1114022610481165,1.0188313722610474,-2.53186279932131
1708434754.5650578,-2.1418371200561523,-1.333782122736313,-2.527508322392599,6.111503946572103,1.0188730955123901,-2.531902853642599
1708434754.5670578,-2.1418256759643555,-1.3337776225856324,-2.5274503866778772,6.111443269043722,1.0188448429107666,-2.531907383595602
1708434754.5690703,-2.1418631076812744,-1.3338314455798645,-2.527454678212301,6.1113812802131555,1.0188477039337158,-2.5318613688098353
1708434754.5710657,-2.1418755054473877,-1.3337568205646058,-2.5274620691882532,6.111459243088522,1.0189108848571777,-2.531902853642599
1708434754.573074,-2.141849994659424,-1.333822564487793,-2.527475182210104,6.111438977509298,1.0188686847686768,-2.5318976084338587
1708434754.5750663,-2.1418585777282715,-1.3338519793799897,-2.5274503866778772,6.111467230110922,1.0188404321670532,-2.5319154898272913
1708434754.577062,-2.1418256759643555,-1.3337865632823487,-2.5274913946734827,6.111462819367208,1.0188404321670532,-2.5318804422961634
1708434754.5790484,-2.1418087482452393,-1.333798499112465,-2.5274913946734827,6.1114375469978235,1.0188523530960083,-2.5319274107562464
1708434754.5810385,-2.1418540477752686,-1.3338315051845093,-2.527482811604635,6.111475813179769,1.0188477039337158,-2.5319021383868616
1708434754.5830848,-2.1418540477752686,-1.3338062030128022,-2.527504030858175,6.111443269043722,1.0188775062561035,-2.5318806807147425
1708434754.5850446,-2.1418845653533936,-1.3338315200856705,-2.5274503866778772,6.111450660019674,1.0188523530960083,-2.531898562108175
1708434754.5870764,-2.1418800354003906,-1.3337731671384354,-2.527499500905172,6.111462819367208,1.018861174583435,-2.53196365038027
1708434754.5891135,-2.1418585777282715,-1.3337895435145875,-2.527504030858175,6.111418473511495,1.0188404321670532,-2.5319679419146937
1708434754.5910652,-2.1418585777282715,-1.3337984842113038,-2.527487103139059,6.111450660019674,1.018890142440796,-2.5319302717791956
1708434754.593081,-2.1418585777282715,-1.3338106584599991,-2.527475182210104,6.1114022610481165,1.0188359022140503,-2.5319212118731897
1708434754.5950692,-2.1418371200561523,-1.3337865632823487,-2.52747089067568,6.1114022610481165,1.0189034938812256,-2.531959120427267
1708434754.5971043,-2.1418800354003906,-1.3338029098561783,-2.527499500905172,6.111409771233358,1.0188523530960083,-2.5319064299212855
1708434754.5990858,-2.1418256759643555,-1.3337643903544922,-2.5274794737445276,6.111418473511495,1.0188686847686768,-2.531916920338766
1708434754.601075,-2.1418888568878174,-1.3338151586106797,-2.5274503866778772,6.111459243088522,1.018877625465393,-2.5319095293628138
1708434754.6030753,-2.141864061355591,-1.333793969159462,-2.5274959246264856,6.111421692162313,1.0188945531845093,-2.5319438616382044
1708434754.6050637,-2.1418800354003906,-1.333802954559662,-2.527487103139059,6.111450660019674,1.0188640356063843,-2.531884256993429
1708434754.6070807,-2.1418721675872803,-1.333789588218071,-2.527426544819967,6.11143587806777,1.0188523530960083,-2.531950060521261
1708434754.6090546,-2.141850709915161,-1.333810643558838,-2.5274840036975306,6.111499774246969,1.0188522338867188,-2.5319212118731897
1708434754.611042,-2.141796588897705,-1.3338447672179718,-2.527515713368551,6.111394154816427,1.0188523530960083,-2.5319843927966517
1708434754.6130738,-2.1418800354003906,-1.333773211841919,-2.5274913946734827,6.111454951554098,1.0188686847686768,-2.5319679419146937
1708434754.615053,-2.1418347358703613,-1.3338018965772171,-2.527482811604635,6.111503946572103,1.0188945531845093,-2.5319421927081507
1708434754.6170623,-2.1418211460113525,-1.3338519793799897,-2.527482811604635,6.111454951554098,1.018902063369751,-2.5319183508502405
1708434754.6190457,-2.1418371200561523,-1.3338269156268616,-2.5274620691882532,6.111463534622946,1.0188857316970825,-2.5319843927966517
1708434754.62109,-2.1418211460113525,-1.333780751829483,-2.527466599141256,6.111376869469442,1.0188567638397217,-2.5319679419146937
1708434754.6230783,-2.1418302059173584,-1.3337821525386353,-2.527475182210104,6.111487734108724,1.018890142440796,-2.5318976084338587
1708434754.6250842,-2.141846179962158,-1.3338225495866318,-2.527482811604635,6.111443269043722,1.0188766717910767,-2.5318761507617396
1708434754.6270702,-2.141843557357788,-1.3338106584599991,-2.527499500905172,6.111459243088522,1.0188477039337158,-2.5318976084338587
1708434754.6290536,-2.1418676376342773,-1.3337865483811875,-2.5274794737445276,6.111438977509298,1.0188360214233398,-2.5319679419146937
1708434754.6310542,-2.141801118850708,-1.333793969159462,-2.5274997393237513,6.111450660019674,1.0188945531845093,-2.5319302717791956
1708434754.6330698,-2.141841411590576,-1.3338181984475632,-2.527442757283346,6.111430275231161,1.0188686847686768,-2.5319302717791956
1708434754.635073,-2.1418631076812744,-1.3337984842113038,-2.527478281651632,6.111443269043722,1.0188404321670532,-2.5319376627551478
1708434754.637064,-2.1418302059173584,-1.333810643558838,-2.5274785200702112,6.111487734108724,1.0188239812850952,-2.532008234654562
1708434754.639091,-2.1418585777282715,-1.3337732565454026,-2.527475182210104,6.111479031830587,1.0188477039337158,-2.5319212118731897
1708434754.6410663,-2.141817808151245,-1.3337746423533936,-2.527487103139059,6.111446249275961,1.018890142440796,-2.5319376627551478
1708434754.6430461,-2.1418392658233643,-1.333773137336113,-2.527482811604635,6.111458527832784,1.0188730955123901,-2.531888548527853
1708434754.6450362,-2.1418392658233643,-1.333807350402214,-2.5274913946734827,6.111443269043722,1.0188567638397217,-2.53196365038027
1708434754.6470752,-2.141859531402588,-1.333819643860199,-2.527487103139059,6.111479031830587,1.018859624862671,-2.5319257418261927
1708434754.6490583,-2.141846179962158,-1.333822564487793,-2.527487103139059,6.111492025643148,1.0188523530960083,-2.5319467226611536
1708434754.651048,-2.1418347358703613,-1.3338270050338288,-2.5274739901172083,6.111459243088522,1.0188268423080444,-2.5319376627551478
1708434754.6530879,-2.1418302059173584,-1.3338359606317063,-2.5274296442614954,6.111480104714193,1.0188640356063843,-2.531954590474264
1708434754.6550598,-2.1418843269348145,-1.3337909889272233,-2.5274632612811487,6.1114715216453455,1.018865704536438,-2.531971041356222
1708434754.6571002,-2.141927480697632,-1.333793969159462,-2.527515713368551,6.111479031830587,1.0189273357391357,-2.531925980244772
1708434754.6590984,-2.141831159591675,-1.333798499112465,-2.5274503866778772,6.111467230110922,1.0188686847686768,-2.531954590474264
1708434754.6610966,-2.141850709915161,-1.3337776225856324,-2.527524534855978,6.111427056580343,1.0188857316970825,-2.5319376627551478
1708434754.6630754,-2.141801118850708,-1.3338029247573395,-2.5274458567248743,6.111443269043722,1.01888108253479,-2.531933132802145
1708434754.6650589,-2.1418256759643555,-1.3337362122586747,-2.52744704881777,6.111447679787435,1.0188522338867188,-2.531954590474264
1708434754.6670747,-2.141846179962158,-1.3338151735118409,-2.5274696985827845,6.111479031830587,1.0188686847686768,-2.531912390385763
1708434754.6690629,-2.141850471496582,-1.3338151437095185,-2.527482811604635,6.111463534622946,1.0188522338867188,-2.5319510141955774
1708434754.6710455,-2.1418416500091553,-1.3338315200856705,-2.527466599141256,6.111475813179769,1.0188567638397217,-2.5319348017321985
1708434754.6731002,-2.141846179962158,-1.3337985289147873,-2.5274797121631067,6.111418473511495,1.0188640356063843,-2.53196365038027
1708434754.6750429,-2.1418392658233643,-1.3337657761624833,-2.52747089067568,6.111475813179769,1.018890142440796,-2.531900469456808
1708434754.6770613,-2.1418302059173584,-1.333850548868515,-2.5274503866778772,6.111503946572103,1.0188522338867188,-2.5319679419146937
1708434754.6790674,-2.1418676376342773,-1.3338151437095185,-2.527475182210104,6.111447679787435,1.0188686847686768,-2.531900469456808
1708434754.681044,-2.1418256759643555,-1.333819569354393,-2.5274503866778772,6.111496317177572,1.018890142440796,-2.531925980244772
1708434754.6830745,-2.141817808151245,-1.3338270050338288,-2.527508322392599,6.111410844116964,1.0188567638397217,-2.531954590474264
1708434754.6850584,-2.1418633460998535,-1.3338359606317063,-2.527454678212301,6.111454951554098,1.0188732147216797,-2.5319421927081507
1708434754.687069,-2.141859531402588,-1.333810643558838,-2.527466599141256,6.111419546395101,1.0188404321670532,-2.531966511403219
1708434754.68905,-2.1418676376342773,-1.3338385981372376,-2.5275002161609095,6.111447679787435,1.0188567638397217,-2.5319302717791956
1708434754.6910658,-2.141822338104248,-1.3338028949550171,-2.52747089067568,6.1114022610481165,1.0188329219818115,-2.531966511403219
1708434754.693091,-2.1418135166168213,-1.3337821674397965,-2.52747089067568,6.111414062767782,1.018861174583435,-2.5319257418261927
1708434754.6950738,-2.1418676376342773,-1.3338563305190583,-2.527487103139059,6.111434685974874,1.0188432931900024,-2.5319679419146937
1708434754.6970828,-2.141855001449585,-1.3337688010982056,-2.527458969746725,6.111410844116964,1.018861174583435,-2.531975571309225
1708434754.6990705,-2.141801118850708,-1.3337865632823487,-2.5274909178363245,6.111419546395101,1.0188404321670532,-2.5319963137256067
1708434754.7010381,-2.141801118850708,-1.333813802605011,-2.5274956862079065,6.111438977509298,1.0188359022140503,-2.531959120427267
1708434754.7030666,-2.141850709915161,-1.3338029098561783,-2.5274739901172083,6.1114022610481165,1.0188312530517578,-2.531991783772604
1708434754.7050805,-2.141822338104248,-1.3338359606317063,-2.527458969746725,6.111377942353048,1.0188640356063843,-2.531954590474264
1708434754.7070749,-2.141822338104248,-1.3337568652680893,-2.527487103139059,6.111406433373251,1.0188567638397217,-2.5319464842425745
1708434754.7090404,-2.141855001449585,-1.3338683259538193,-2.5274952093707483,6.111427056580343,1.0188404321670532,-2.53196365038027
1708434754.711087,-2.141850709915161,-1.333795429473259,-2.527508322392599,6.111414062767782,1.018861174583435,-2.5319212118731897
1708434754.71308,-2.1418416500091553,-1.3338475239327927,-2.527520243321554,6.111443269043722,1.0188567638397217,-2.5319555441485804
1708434754.7150924,-2.141805410385132,-1.3337569397738953,-2.5274503866778772,6.111443269043722,1.0188403129577637,-2.53195029893984
1708434754.7170455,-2.1418721675872803,-1.3338106286576767,-2.527520243321554,6.111373650818624,1.018890142440796,-2.531959120427267
1708434754.7190604,-2.141822338104248,-1.333798499112465,-2.5274952093707483,6.111443269043722,1.0188567638397217,-2.531904999409811
1708434754.7210479,-2.141801118850708,-1.3337568205646058,-2.527499500905172,6.111427056580343,1.018890142440796,-2.53196365038027
1708434754.7230604,-2.1418392658233643,-1.3338315200856705,-2.5274620691882532,6.111459243088522,1.0188655853271484,-2.531962219868795
1708434754.7250755,-2.1417782306671143,-1.3338549447110672,-2.527450148259298,6.11143587806777,1.01884925365448,-2.5319212118731897
1708434754.727074,-2.141855001449585,-1.3338270050338288,-2.527466599141256,6.1113942740257166,1.018890142440796,-2.5319302717791956
1708434754.729065,-2.1418638229370117,-1.3338314604810257,-2.527482811604635,6.111438977509298,1.0188285112380981,-2.5319257418261927
1708434754.7310805,-2.141817808151245,-1.3337865483811875,-2.527454678212301,6.111431348114767,1.0188746452331543,-2.5319212118731897
1708434754.7330892,-2.141843557357788,-1.33377759278331,-2.527508322392599,6.111443269043722,1.0188329219818115,-2.5319212118731897
1708434754.7350633,-2.1418676376342773,-1.3338062179139634,-2.527487103139059,6.111422765045919,1.018853783607483,-2.531975571309225
1708434754.7370956,-2.141796588897705,-1.3337776523879548,-2.527487103139059,6.111419546395101,1.0188207626342773,-2.5319212118731897
1708434754.7390673,-2.141850709915161,-1.3337984842113038,-2.527482811604635,6.111427056580343,1.0188374519348145,-2.5319963137256067
1708434754.741074,-2.141843557357788,-1.3338151288083573,-2.5274058024035853,6.111443269043722,1.018865704536438,-2.5319421927081507
1708434754.7430792,-2.141846179962158,-1.3338315200856705,-2.5274296442614954,6.111459243088522,1.0188493728637695,-2.531971041356222
1708434754.7450526,-2.141850709915161,-1.3338151735118409,-2.527458969746725,6.111443269043722,1.0188329219818115,-2.5319212118731897
1708434754.747047,-2.141785144805908,-1.3338029247573395,-2.5274620691882532,6.111344444542684,1.0188207626342773,-2.531959120427267
1708434754.749048,-2.141792058944702,-1.333773211841919,-2.5274675528155726,6.111434685974874,1.0188581943511963,-2.5319212118731897
1708434754.7510438,-2.1418347358703613,-1.3338028949550171,-2.527458969746725,6.111454951554098,1.0188162326812744,-2.531954590474264
1708434754.7530673,-2.1418135166168213,-1.3338151437095185,-2.5274458567248743,6.1114715216453455,1.0188044309616089,-2.531954590474264
1708434754.757046,-2.141796588897705,-1.3337731671384354,-2.527466599141256,6.1114834425743005,1.0187501907348633,-2.531975571309225
1708434754.759047,-2.1418087482452393,-1.3338429492763062,-2.527482811604635,6.111409771233358,1.0187803506851196,-2.531945768986837
1708434754.7611015,-2.141796588897705,-1.3337984842113038,-2.52747089067568,6.111418473511495,1.0188010931015015,-2.5319047609912317
1708434754.7630773,-2.1418392658233643,-1.3338592958501359,-2.527475182210104,6.1113942740257166,1.0187803506851196,-2.5320125261889856
1708434754.7650573,-2.1418304443359375,-1.3338298064521332,-2.527458969746725,6.111459243088522,1.0188010931015015,-2.531982723866598
1708434754.7670403,-2.141876459121704,-1.3337746423533936,-2.527482811604635,6.111410844116964,1.018784761428833,-2.5319421927081507
1708434754.7690609,-2.1418800354003906,-1.3338029396585007,-2.5274913946734827,6.111431348114767,1.018768072128296,-2.531954590474264
