Eg3-git/Classifiers/Data Collection/u2/u2star2_ur3e_joint_states.csv
time,elbow_joint,shoulder_lift_joint,shoulder_pan_joint,wrist_1_joint,wrist_2_joint,wrist_3_joint
1708434770.5590556,-2.141695261001587,-1.33323226988826,-2.5258050600634974,6.109313356667318,1.0158510208129883,-2.7974169890033167
1708434770.56102,-2.141662120819092,-1.3332160723260422,-2.5258289019214075,6.109301793366232,1.0158137083053589,-2.797424379979269
1708434770.563011,-2.1416828632354736,-1.3332203489593049,-2.5257914702044886,6.1093190787132166,1.015859842300415,-2.7974639574633997
1708434770.565015,-2.141712188720703,-1.3332484525493165,-2.5257914702044886,6.10925708988265,1.015815019607544,-2.797445837651388
1708434770.5670195,-2.1416831016540527,-1.3332887154868622,-2.5258079210864466,6.109270083695211,1.01579749584198,-2.797475878392355
1708434770.569046,-2.1416783332824707,-1.3332451593926926,-2.525827471409933,6.10928629615859,1.0158631801605225,-2.7974639574633997
1708434770.5710387,-2.1416499614715576,-1.3332775247148057,-2.5257538000689905,6.10928629615859,1.0158064365386963,-2.7974639574633997
1708434770.573004,-2.14169979095459,-1.3332603734782715,-2.5258198420154017,6.109290587693014,1.015838861465454,-2.797379795704977
1708434770.5750475,-2.141657829284668,-1.333183379178383,-2.525794331227438,6.10928629615859,1.0158344507217407,-2.7974005381213587
1708434770.5770092,-2.1416454315185547,-1.3332160723260422,-2.5257914702044886,6.1092941639717,1.0158510208129883,-2.797407929097311
1708434770.5790527,-2.1416828632354736,-1.33323226988826,-2.5258079210864466,6.109289872437277,1.015846610069275,-2.797471348439352
1708434770.5810025,-2.141608238220215,-1.3332038235715409,-2.5257750193225306,6.109289872437277,1.015891671180725,-2.797450367604391
1708434770.5830173,-2.1416544914245605,-1.3332038235715409,-2.5258033911334437,6.10925708988265,1.015861988067627,-2.7974467913257044
1708434770.584999,-2.1416544914245605,-1.3332203489593049,-2.5258198420154017,6.109327780991354,1.0158872604370117,-2.7974334398852747
1708434770.587005,-2.1416714191436768,-1.3332246106914063,-2.5257869402514856,6.109327780991354,1.0158706903457642,-2.797483030949728
1708434770.5890226,-2.1416759490966797,-1.3331876409104844,-2.5258331934558313,6.109290587693014,1.015895962715149,-2.7974260489093226
1708434770.5910082,-2.141662359237671,-1.3332768839648743,-2.5257824102984827,6.109310376435079,1.015882968902588,-2.797459427510397
1708434770.5930636,-2.1416802406311035,-1.333252714281418,-2.5258124510394495,6.109289872437277,1.0158828496932983,-2.7973960081683558
1708434770.595027,-2.14169979095459,-1.3332854223302384,-2.5258243719684046,6.1093060849006555,1.0158662796020508,-2.7974260489093226
1708434770.5970259,-2.141716718673706,-1.33323226988826,-2.5258033911334437,6.109348046570577,1.015882968902588,-2.797462288533346
1708434770.5990133,-2.1416714191436768,-1.3332332384637375,-2.5258033911334437,6.109274375229635,1.015882968902588,-2.7974332014666956
1708434770.6010058,-2.1416873931884766,-1.3332365316203614,-2.5257659594165247,6.109302866249838,1.0159111022949219,-2.797450367604391
1708434770.6030293,-2.1416873931884766,-1.333252714281418,-2.5257960001574915,6.109301793366232,1.0158742666244507,-2.797407929097311
1708434770.6050172,-2.1416919231414795,-1.33323226988826,-2.525790039693014,6.109298455506124,1.0158872604370117,-2.797450367604391
1708434770.6070092,-2.1416499614715576,-1.3331962686828156,-2.5257704893695276,6.1093071577842615,1.0159034729003906,-2.797466818486349
1708434770.609025,-2.1417131423950195,-1.3332203191569825,-2.525794331227438,6.1093071577842615,1.0158872604370117,-2.7974379698382776
1708434770.6110015,-2.1416757106781006,-1.3331919026425858,-2.5258622805224817,6.109282958298483,1.015894889831543,-2.797492329274313
1708434770.613013,-2.1416125297546387,-1.3332569909146805,-2.5257988611804407,6.109290587693014,1.0158785581588745,-2.79748779932131
1708434770.615021,-2.14164662361145,-1.3332081002048035,-2.525818411503927,6.10933934429244,1.0159242153167725,-2.7974639574633997
1708434770.6170418,-2.1416544914245605,-1.333228961830475,-2.5258365313159388,6.10926245430068,1.0159080028533936,-2.797428909932272
1708434770.6190386,-2.1416192054748535,-1.3332160723260422,-2.5257824102984827,6.1093071577842615,1.0159153938293457,-2.797471348439352
1708434770.621034,-2.1416757106781006,-1.333252714281418,-2.5257704893695276,6.109298455506124,1.0159153938293457,-2.7974141279803675
1708434770.6230352,-2.1416420936584473,-1.3332484525493165,-2.5257988611804407,6.109310376435079,1.0158785581588745,-2.7974141279803675
1708434770.6250613,-2.1416454315185547,-1.3332074594548722,-2.5257795492755335,6.1093190787132166,1.0158785581588745,-2.7974470297442835
1708434770.6270041,-2.1416759490966797,-1.3332731139710923,-2.5258455912219446,6.109290587693014,1.0158859491348267,-2.7974305788623255
1708434770.6290283,-2.141601324081421,-1.33323226988826,-2.52584416071047,6.10926245430068,1.015894889831543,-2.7974260489093226
1708434770.6310413,-2.1416590213775635,-1.3332656037858506,-2.525794331227438,6.109278666764059,1.0159285068511963,-2.7974260489093226
1708434770.6330214,-2.1416420936584473,-1.3331962686828156,-2.525827471409933,6.109290587693014,1.0158872604370117,-2.797455135975973
1708434770.6349914,-2.1416218280792236,-1.333264635210373,-2.5258410612689417,6.109228837281027,1.0159111022949219,-2.7974639574633997
1708434770.6370738,-2.1416678428649902,-1.3332407933524628,-2.525832001362936,6.109266745835104,1.0159034729003906,-2.7974470297442835
1708434770.6390448,-2.1416919231414795,-1.333252714281418,-2.5257704893695276,6.109270083695211,1.015882968902588,-2.797532383595602
1708434770.641036,-2.1416590213775635,-1.3331747514060517,-2.52577788034548,6.109314667969503,1.0159080028533936,-2.797454897557394
1708434770.6430385,-2.14164662361145,-1.3332451593926926,-2.5258198420154017,6.109246241837301,1.0159153938293457,-2.797478739415304
1708434770.6450524,-2.1416633129119873,-1.3332365316203614,-2.5258198420154017,6.109283077507772,1.0159317255020142,-2.797450367604391
1708434770.6470509,-2.1416919231414795,-1.3332775247148057,-2.5258243719684046,6.1093190787132166,1.0159111022949219,-2.7974379698382776
1708434770.6490166,-2.1416146755218506,-1.3331791025451203,-2.52577788034548,6.1093190787132166,1.015919804573059,-2.7973960081683558
1708434770.6510296,-2.1416261196136475,-1.333252714281418,-2.5257824102984827,6.109287488251486,1.0158991813659668,-2.7974286715136927
1708434770.6530335,-2.1415889263153076,-1.3332246106914063,-2.52577788034548,6.109266745835104,1.0158742666244507,-2.797459427510397
1708434770.6550124,-2.1416420936584473,-1.3331876409104844,-2.5258410612689417,6.109298455506124,1.015882968902588,-2.7974260489093226
1708434770.6570537,-2.141650915145874,-1.3331876409104844,-2.5257659594165247,6.109246241837301,1.0159153938293457,-2.797459427510397
1708434770.6590276,-2.1416420936584473,-1.3332081002048035,-2.5257988611804407,6.109261262207784,1.015906810760498,-2.797459427510397
1708434770.661001,-2.141611337661743,-1.333273173575737,-2.5258455912219446,6.109274375229635,1.015919804573059,-2.7974215189563196
1708434770.663024,-2.14164400100708,-1.3332038235715409,-2.5258739630328577,6.109342562943258,1.0159111022949219,-2.7974260489093226
1708434770.6650164,-2.1416280269622803,-1.3332613420537491,-2.52577788034548,6.109271156578817,1.015918493270874,-2.7974424997912806
1708434770.6670582,-2.1416306495666504,-1.3332081002048035,-2.5258153120623987,6.109290587693014,1.0158697366714478,-2.7974379698382776
1708434770.6690187,-2.1415979862213135,-1.3332689118436356,-2.52576452890505,6.109192836075582,1.0158991813659668,-2.797483030949728
1708434770.6710398,-2.1416237354278564,-1.3332203489593049,-2.52582294145693,6.109241950302877,1.0158991813659668,-2.7974424997912806
1708434770.673056,-2.1416261196136475,-1.3332038235715409,-2.5258033911334437,6.10926245430068,1.0159111022949219,-2.797428909932272
1708434770.6750107,-2.1415979862213135,-1.3332124513438721,-2.525848690663473,6.109266745835104,1.015882968902588,-2.797459427510397
1708434770.677034,-2.1416068077087402,-1.333252714281418,-2.5257824102984827,6.109294998436727,1.0159317255020142,-2.7974141279803675
1708434770.6790388,-2.141639471054077,-1.3332365316203614,-2.525789801274435,6.109241831093588,1.015877366065979,-2.7974334398852747
1708434770.6810327,-2.141611337661743,-1.33323226988826,-2.5257988611804407,6.109278666764059,1.015894889831543,-2.7974424997912806
1708434770.6830258,-2.1416237354278564,-1.3331919026425858,-2.525856081639425,6.109290587693014,1.0159034729003906,-2.7974095980273646
1708434770.685001,-2.1415977478027344,-1.33323226988826,-2.525860611592428,6.109320270806112,1.015894889831543,-2.797474209462301
1708434770.6870468,-2.141639471054077,-1.3332656186870118,-2.525827471409933,6.109258162766256,1.0159111022949219,-2.797424379979269
1708434770.6890497,-2.1416068077087402,-1.3332160723260422,-2.525789801274435,6.109274375229635,1.0159111022949219,-2.797450367604391
1708434770.6910007,-2.1415810585021973,-1.333264635210373,-2.525789801274435,6.109278666764059,1.0158621072769165,-2.7974095980273646
1708434770.6930544,-2.1416306495666504,-1.3332246106914063,-2.5258243719684046,6.109259235649862,1.0159404277801514,-2.797450367604391
1708434770.6950164,-2.141589879989624,-1.3332074594548722,-2.5258153120623987,6.109222161560812,1.0159153938293457,-2.7974332014666956
1708434770.697019,-2.1416068077087402,-1.3332160723260422,-2.525856081639425,6.10926245430068,1.015878677368164,-2.7974169890033167
1708434770.6990232,-2.1415979862213135,-1.3331995618394394,-2.525818411503927,6.109238374024191,1.015923023223877,-2.7974005381213587
1708434770.7010098,-2.1416280269622803,-1.3332365316203614,-2.52580172220339,6.109230744629659,1.015969157218933,-2.7974186579333704
1708434770.7030308,-2.1415979862213135,-1.3332246106914063,-2.525860611592428,6.109233963280477,1.015944242477417,-2.7974095980273646
1708434770.705017,-2.1416022777557373,-1.3332037937692185,-2.525872532521383,6.109231817513265,1.0159354209899902,-2.797471348439352
1708434770.7070708,-2.141611337661743,-1.333264635210373,-2.52584416071047,6.109247076302328,1.0158904790878296,-2.797445837651388
1708434770.709031,-2.1415741443634033,-1.3332569909146805,-2.5258153120623987,6.109218823700704,1.0158979892730713,-2.7974966208087366
1708434770.7110333,-2.141589879989624,-1.3332689118436356,-2.525865141545431,6.109223234444418,1.0159485340118408,-2.7974053064929407
1708434770.7130406,-2.1416103839874268,-1.3331791025451203,-2.525839630757467,6.109132993012228,1.015894889831543,-2.797441546116964
1708434770.7150369,-2.14159893989563,-1.333252714281418,-2.52586800256838,6.1091744778449915,1.0158904790878296,-2.7974804083453577
1708434770.7170596,-2.1415855884552,-1.33323226988826,-2.525813881550924,6.109175550728597,1.0159111022949219,-2.7974169890033167
1708434770.7190254,-2.1416022777557373,-1.3332365316203614,-2.525792662297384,6.109092819481649,1.0159112215042114,-2.797492329274313
1708434770.7210317,-2.1415657997131348,-1.3332569909146805,-2.52580172220339,6.109175550728597,1.0159111022949219,-2.797450367604391
1708434770.7230306,-2.141578435897827,-1.3332365316203614,-2.52582294145693,6.109122264176168,1.0159767866134644,-2.7974005381213587
1708434770.7250137,-2.141594409942627,-1.3332279932549973,-2.52580172220339,6.1091885445411584,1.015936017036438,-2.7974095980273646
1708434770.7270157,-2.141587734222412,-1.333252714281418,-2.525797192250387,6.10913513877944,1.015923023223877,-2.7974379698382776
1708434770.7290025,-2.14158296585083,-1.3331962537816544,-2.525872532521383,6.109139549523153,1.015944242477417,-2.7974334398852747
1708434770.731024,-2.141566038131714,-1.333293081527092,-2.52584416071047,6.109160053520956,1.015918493270874,-2.7974379698382776
1708434770.7330554,-2.141615629196167,-1.333244190817215,-2.5258305708514612,6.109110343247213,1.0158936977386475,-2.7974169890033167
1708434770.735012,-2.141620397567749,-1.3332203489593049,-2.5258470217334192,6.1091240523155115,1.0159022808074951,-2.7974215189563196
1708434770.7370446,-2.141566038131714,-1.333228961830475,-2.5258589426623743,6.109098064690389,1.0159111022949219,-2.7973960081683558
1708434770.739019,-2.141578435897827,-1.3332236421159287,-2.525856081639425,6.109143841057577,1.0159317255020142,-2.7974639574633997
1708434770.7410297,-2.1415750980377197,-1.3332407933524628,-2.525877062474386,6.109058367996969,1.0159273147583008,-2.7973840872394007
1708434770.7430365,-2.141589879989624,-1.333233193760254,-2.5258379618274134,6.10911105850295,1.0159142017364502,-2.7974305788623255
1708434770.7450135,-2.1415741443634033,-1.3332203489593049,-2.525856081639425,6.109147178917684,1.0159311294555664,-2.7974215189563196
1708434770.747024,-2.141594409942627,-1.3332365316203614,-2.5259128252612513,6.109136211663046,1.0159111022949219,-2.7974141279803675
1708434770.7490346,-2.141587495803833,-1.3332569909146805,-2.525813881550924,6.109037387162008,1.0158904790878296,-2.797475878392355
1708434770.7510192,-2.141611337661743,-1.333195300107338,-2.525851551686422,6.109058367996969,1.015882968902588,-2.7974053064929407
1708434770.7530181,-2.14158296585083,-1.333273173575737,-2.525851551686422,6.1091240523155115,1.015944242477417,-2.7974305788623255
1708434770.75502,-2.141578435897827,-1.333264635210373,-2.5258634726153772,6.109151351242819,1.015944242477417,-2.7973812262164515
1708434770.7570336,-2.1415796279907227,-1.3332118105939408,-2.525909725819723,6.1090993759925745,1.015956163406372,-2.7973724047290247
1708434770.7590334,-2.141587495803833,-1.3332451593926926,-2.5258215109454554,6.109095084458151,1.015956163406372,-2.7974470297442835
1708434770.7610335,-2.1415445804595947,-1.333264635210373,-2.5258336702929896,6.109091865807333,1.0159022808074951,-2.7973976770984095
1708434770.763039,-2.14158296585083,-1.3332332384637375,-2.52586800256838,6.109054672508993,1.0159430503845215,-2.7974022070514124
1708434770.765019,-2.14158296585083,-1.3332484525493165,-2.5258918444262903,6.109079944878378,1.0159485340118408,-2.7973814646350306
1708434770.7670283,-2.1415445804595947,-1.3331962686828156,-2.5258799234973353,6.109022128372946,1.0159399509429932,-2.7974467913257044
1708434770.7690153,-2.141517162322998,-1.3332484525493165,-2.5259128252612513,6.109106766968527,1.0159516334533691,-2.7973724047290247
1708434770.771016,-2.1415491104125977,-1.3332038235715409,-2.5258873144732874,6.109087455063619,1.0159354209899902,-2.7974050680743616
1708434770.7730377,-2.1415793895721436,-1.3332365316203614,-2.5259082953082483,6.1090993759925745,1.015923023223877,-2.7974095980273646
1708434770.7750375,-2.1415657997131348,-1.3332081151059647,-2.5258782545672815,6.109108197480001,1.015926718711853,-2.7974639574633997
1708434770.7770312,-2.1415491104125977,-1.3332484376481553,-2.5258663336383265,6.109054672508993,1.0159592628479004,-2.7974424997912806
1708434770.77903,-2.14152193069458,-1.3332689118436356,-2.5259206930743616,6.109030949860372,1.0159635543823242,-2.7973812262164515
1708434770.7810047,-2.1415669918060303,-1.3332160723260422,-2.5259116331683558,6.1089937565620325,1.015918493270874,-2.7974095980273646
1708434770.783026,-2.141530752182007,-1.3332646203092118,-2.5258873144732874,6.10903416851119,1.015944242477417,-2.797427479420797
1708434770.7850413,-2.1415627002716064,-1.3332365167192002,-2.5259490648852747,6.109096276551046,1.0159153938293457,-2.7974305788623255
1708434770.7870228,-2.1415750980377197,-1.3332603734782715,-2.5258856455432337,6.109030949860372,1.0159354209899902,-2.7974022070514124
1708434770.7890086,-2.141533136367798,-1.333183379178383,-2.5259116331683558,6.109030949860372,1.0159354209899902,-2.7974186579333704
1708434770.791018,-2.14153790473938,-1.3332398247769852,-2.525919024144308,6.109047162323751,1.015944242477417,-2.7973902861224573
1708434770.7930667,-2.1415669918060303,-1.3332203489593049,-2.52590257326235,6.109026539116659,1.0159399509429932,-2.7973976770984095
1708434770.7950218,-2.1415491104125977,-1.333212436442711,-2.525907103215353,6.109051453858175,1.0159142017364502,-2.7974141279803675
1708434770.797035,-2.14152193069458,-1.333256946211197,-2.525919024144308,6.109051453858175,1.0159111022949219,-2.7974186579333704
1708434770.7990165,-2.1415138244628906,-1.3332853478244324,-2.525914494191305,6.109019028931417,1.0159311294555664,-2.7973814646350306
1708434770.801018,-2.1415140628814697,-1.3331675094417115,-2.525923554097311,6.109032022743978,1.015997290611267,-2.7974320093738
1708434770.8030477,-2.141592025756836,-1.3332203489593049,-2.525940004979269,6.109059083252706,1.0159648656845093,-2.7973902861224573
1708434770.8050315,-2.14153790473938,-1.3332203340581437,-2.5259326140033167,6.109060156136312,1.0159516334533691,-2.7973948160754603
1708434770.8070493,-2.1415140628814697,-1.333252714281418,-2.525919024144308,6.109064566880026,1.0159311294555664,-2.7973948160754603
1708434770.809076,-2.1415467262268066,-1.3332118105939408,-2.525930945073263,6.1090067503745935,1.0159635543823242,-2.7973857561694544
1708434770.8110075,-2.1415839195251465,-1.3332818013480683,-2.525907103215353,6.109019863396444,1.0159516334533691,-2.7973857561694544
1708434770.813013,-2.1415352821350098,-1.3332118105939408,-2.525940004979269,6.108986246376791,1.015918493270874,-2.7973857561694544
1708434770.8150225,-2.1415557861328125,-1.3332203489593049,-2.52590257326235,6.109035241394796,1.0159679651260376,-2.79737097421755
1708434770.8170414,-2.1415398120880127,-1.3332038235715409,-2.525947395955221,6.109023320465841,1.015923023223877,-2.797403637562887
1708434770.8190346,-2.141526460647583,-1.3332246106914063,-2.525956455861227,6.109060275345602,1.0159311294555664,-2.7973976770984095
1708434770.820997,-2.1415555477142334,-1.333249421124794,-2.5259771982776087,6.108969914704122,1.015918493270874,-2.7973738352404993
1708434770.8230014,-2.141601085662842,-1.3332081002048035,-2.525956455861227,6.109036433487692,1.015944242477417,-2.797427479420797
1708434770.824999,-2.1415557861328125,-1.3332613420537491,-2.52592641512026,6.1090067503745935,1.0159354209899902,-2.7973902861224573
1708434770.8270102,-2.1415183544158936,-1.3331995618394394,-2.5259607473956507,6.109019028931417,1.0159754753112793,-2.797403637562887
1708434770.8289943,-2.1415839195251465,-1.3332167130759736,-2.525972906743185,6.10900245884017,1.0159399509429932,-2.7973738352404993
1708434770.8310213,-2.1415627002716064,-1.3332246255925675,-2.525923554097311,6.109011161118307,1.0158979892730713,-2.797417465840475
1708434770.8330686,-2.1415183544158936,-1.3332073998502274,-2.525919024144308,6.108974325447836,1.0159354209899902,-2.797387425099508
1708434770.835067,-2.141576051712036,-1.3332038086703797,-2.525923554097311,6.108961212425985,1.015923023223877,-2.797333065663473
1708434770.8370397,-2.1415398120880127,-1.3332775247148057,-2.525923554097311,6.109011161118307,1.0159311294555664,-2.797342125569479
1708434770.839058,-2.1415274143218994,-1.3331760478070755,-2.525935475026266,6.109036433487692,1.0159399509429932,-2.797354523335592
1708434770.8410058,-2.141576051712036,-1.3332124513438721,-2.525919024144308,6.10903953292922,1.0159516334533691,-2.797300163899557
1708434770.8430204,-2.1415183544158936,-1.3332355183414002,-2.525951925908224,6.108969914704122,1.0159142017364502,-2.797288242970602
1708434770.845,-2.1415352821350098,-1.3332074594548722,-2.52590257326235,6.1089385626609705,1.0159142017364502,-2.7973347345935267
1708434770.847017,-2.1415183544158936,-1.3332038086703797,-2.525923554097311,6.108966815262594,1.0159354209899902,-2.7973137537585657
1708434770.8490474,-2.1415441036224365,-1.333248422746994,-2.52590257326235,6.108975398331442,1.0159430503845215,-2.7973347345935267
1708434770.850997,-2.1415669918060303,-1.3332246106914063,-2.52596098581423,6.109015452652731,1.015960454940796,-2.7973347345935267
1708434770.8530536,-2.1415398120880127,-1.333216057424881,-2.52590257326235,6.109064566880026,1.0159311294555664,-2.797309223805563
1708434770.855019,-2.1415228843688965,-1.3331674945405503,-2.525923554097311,6.108962404518881,1.0159841775894165,-2.7973228136645716
1708434770.8570406,-2.1415531635284424,-1.3332494509271164,-2.525907103215353,6.108999240189352,1.0159399509429932,-2.7973554770099085
1708434770.8590465,-2.1415441036224365,-1.3332484525493165,-2.5259371439563196,6.108978736191549,1.0159354209899902,-2.79730469385256
1708434770.8610249,-2.1415228843688965,-1.3332494509271164,-2.525977436696188,6.108999240189352,1.0159311294555664,-2.79730469385256
1708434770.8630342,-2.1415352821350098,-1.3332203489593049,-2.525923554097311,6.108987319260397,1.0159354209899902,-2.7973347345935267
1708434770.8649957,-2.1415014266967773,-1.3332038235715409,-2.5259280840503138,6.1089796898658655,1.0159311294555664,-2.7973228136645716
1708434770.867037,-2.141469717025757,-1.333228976731636,-2.5259116331683558,6.108975398331442,1.015906810760498,-2.7972939650165003
1708434770.8690276,-2.1415352821350098,-1.3331791025451203,-2.5259280840503138,6.108975398331442,1.0159354209899902,-2.7972939650165003
1708434770.871004,-2.1414811611175537,-1.333199532037117,-2.525919024144308,6.1089666960533044,1.0159311294555664,-2.7972894350634974
1708434770.8730383,-2.1415140628814697,-1.3332160425237198,-2.52590257326235,6.1089504835899255,1.015960454940796,-2.7972431818591517
1708434770.8750086,-2.1414787769317627,-1.333227978353836,-2.52590257326235,6.108972179680624,1.015956163406372,-2.7972891966449183
1708434770.8769996,-2.141568899154663,-1.3331876409104844,-2.525947395955221,6.108991610794821,1.015956163406372,-2.7972260157214563
1708434770.8790133,-2.1415317058563232,-1.3332332384637375,-2.525919024144308,6.108963477402487,1.0159473419189453,-2.797265593205587
1708434770.8809938,-2.1415274143218994,-1.3332160723260422,-2.525951925908224,6.108947264939108,1.0159066915512085,-2.7972849051104944
1708434770.8830197,-2.1415352821350098,-1.3332484525493165,-2.525914494191305,6.108939635544576,1.015923023223877,-2.7972984949695032
1708434770.885025,-2.1415398120880127,-1.3332246106914063,-2.525940004979269,6.109000313072958,1.015972375869751,-2.797252957020895
1708434770.8870184,-2.1414742469787598,-1.3332407933524628,-2.5258947054492396,6.108954894333639,1.0159111022949219,-2.7972520033465784
1708434770.8890226,-2.1414856910705566,-1.333249421124794,-2.5258947054492396,6.108983027725973,1.015972375869751,-2.79727012315859
1708434770.890993,-2.1414902210235596,-1.3332080853036423,-2.525907103215353,6.108975398331442,1.0159099102020264,-2.7972939650165003
1708434770.892984,-2.1415486335754395,-1.3332365316203614,-2.525956455861227,6.108987319260397,1.0158947706222534,-2.797265593205587
1708434770.8950105,-2.1415059566497803,-1.3332818013480683,-2.5259206930743616,6.1089515564735315,1.0159798860549927,-2.7973437944995325
1708434770.8969958,-2.1414618492126465,-1.3332451593926926,-2.5259116331683558,6.108991610794821,1.0159473419189453,-2.79727012315859
1708434770.8989978,-2.1415274143218994,-1.333252729182579,-2.5258737246142786,6.108905780106344,1.0159311294555664,-2.797291103993551
1708434770.9009902,-2.1415398120880127,-1.333298311834671,-2.5259161631213587,6.108963477402487,1.0159354209899902,-2.797282044087545
1708434770.9030275,-2.1415059566497803,-1.3331962388804932,-2.5258737246142786,6.108926641732015,1.0159473419189453,-2.797303024922506
1708434770.905001,-2.1415274143218994,-1.333199532037117,-2.5259116331683558,6.1089515564735315,1.0159273147583008,-2.797248665486471
1708434770.9070065,-2.141515016555786,-1.333240808253624,-2.5258947054492396,6.109009015351095,1.015918493270874,-2.797286574040548
1708434770.9090044,-2.141540765762329,-1.3332484376481553,-2.5259326140033167,6.10896776893691,1.0159516334533691,-2.7972775141345423
1708434770.9109905,-2.1415555477142334,-1.3332451593926926,-2.52590257326235,6.108910071640768,1.0159111022949219,-2.797224823628561
1708434770.9130056,-2.1415531635284424,-1.3332209301045914,-2.525907103215353,6.1089385626609705,1.0159516334533691,-2.7973247210132044
1708434770.914992,-2.1414990425109863,-1.3332081002048035,-2.5259116331683558,6.10896776893691,1.015906810760498,-2.797208611165182
1708434770.9170096,-2.1415228843688965,-1.3332279932549973,-2.525907103215353,6.108947264939108,1.0159929990768433,-2.7972939650165003
1708434770.9190028,-2.1415531635284424,-1.3332484525493165,-2.525935475026266,6.108955848007955,1.0159767866134644,-2.7972610632525843
1708434770.9209864,-2.1414902210235596,-1.333281160598137,-2.5258873144732874,6.108926641732015,1.015923023223877,-2.797257725392477
1708434770.9230244,-2.1415059566497803,-1.3332407933524628,-2.5258947054492396,6.108948337822714,1.015918493270874,-2.7972038427936
1708434770.9249973,-2.1414856910705566,-1.3332279932549973,-2.5258947054492396,6.108923065453329,1.0159142017364502,-2.797257725392477
1708434770.9270103,-2.1415035724639893,-1.33321929097686,-2.5258992354022425,6.109024154930868,1.0158979892730713,-2.797279183064596
1708434770.9290116,-2.1415317058563232,-1.3332451742938538,-2.5259280840503138,6.1089796898658655,1.015944242477417,-2.797265593205587
1708434770.930998,-2.141515016555786,-1.3332038235715409,-2.5259252230273646,6.109024035721578,1.015923023223877,-2.797282044087545
1708434770.9330287,-2.1414830684661865,-1.3332570058158417,-2.5259161631213587,6.1090208170707605,1.0159354209899902,-2.797303024922506
1708434770.9350452,-2.14151930809021,-1.3332365316203614,-2.5258963743792933,6.10896776893691,1.015944242477417,-2.797257725392477
1708434770.9370117,-2.1414945125579834,-1.3332236421159287,-2.5259371439563196,6.108963477402487,1.0159399509429932,-2.797274653111593
1708434770.939011,-2.1414990425109863,-1.333208130007126,-2.5259082953082483,6.108931052475729,1.0158991813659668,-2.797307554875509
1708434770.9409971,-2.1414573192596436,-1.3332080853036423,-2.5258918444262903,6.108959185868063,1.0159592628479004,-2.797241274510519
1708434770.9430065,-2.14151930809021,-1.3332073998502274,-2.5258918444262903,6.108905780106344,1.015923023223877,-2.7972503344165247
1708434770.9450033,-2.141510486602783,-1.333257020717003,-2.52586800256838,6.108914363175192,1.0159316062927246,-2.79726225534548
1708434770.9470015,-2.1415274143218994,-1.3331846606782456,-2.5259371439563196,6.108959185868063,1.015944242477417,-2.797274653111593
1708434770.9489913,-2.1415228843688965,-1.3331876409104844,-2.5258992354022425,6.108983027725973,1.0159153938293457,-2.797300163899557
1708434770.9509954,-2.1415183544158936,-1.3332451593926926,-2.5259128252612513,6.1089666960533044,1.0159430503845215,-2.797245804463522
1708434770.9529977,-2.1415059566497803,-1.333256022339203,-2.525900904332296,6.108975398331442,1.015918493270874,-2.797283713017599
1708434770.9549918,-2.1415228843688965,-1.3332246106914063,-2.5258753935443323,6.108926641732015,1.015923023223877,-2.797224823628561
1708434770.9570014,-2.1415016651153564,-1.3332441461137314,-2.5258963743792933,6.1089926836784265,1.0159273147583008,-2.79726225534548
1708434770.9590206,-2.141510486602783,-1.3332124513438721,-2.5258827845202845,6.108914363175192,1.0158816576004028,-2.797274653111593
1708434770.9609988,-2.1415557861328125,-1.3332203340581437,-2.5258663336383265,6.108963477402487,1.0159273147583008,-2.797282044087545
1708434770.962998,-2.1415486335754395,-1.3332203340581437,-2.5258424917804163,6.10894404628829,1.0158978700637817,-2.7972038427936
1708434770.9649878,-2.1414945125579834,-1.3331918877414246,-2.525851551686422,6.1090078232581995,1.015893578529358,-2.797253195439474
1708434770.966999,-2.1415486335754395,-1.3331962537816544,-2.5258172194110315,6.108959185868063,1.015956163406372,-2.797279421483175
1708434770.968993,-2.1415183544158936,-1.3332689267447968,-2.5258753935443323,6.108995902329244,1.0158904790878296,-2.7972038427936
1708434770.9710102,-2.141536235809326,-1.3332365316203614,-2.5258305708514612,6.108930933266439,1.0159153938293457,-2.79727012315859
1708434770.9729965,-2.1414787769317627,-1.3332775843194504,-2.5258799234973353,6.1089796898658655,1.015918493270874,-2.797257725392477
1708434770.975016,-2.1415059566497803,-1.3332570058158417,-2.5258424917804163,6.109004604607382,1.015960454940796,-2.7972293535815638
1708434770.9770079,-2.1415486335754395,-1.3332167279771348,-2.525851551686422,6.108935344010153,1.015944242477417,-2.797283713017599
1708434770.9790635,-2.141515016555786,-1.3332167279771348,-2.525806252156393,6.108963477402487,1.015944242477417,-2.7972384134875696
1708434770.9810164,-2.1415228843688965,-1.3332451742938538,-2.52584416071047,6.1090078232581995,1.0159022808074951,-2.797303024922506
1708434770.983007,-2.1414945125579834,-1.3332484525493165,-2.525794331227438,6.108947264939108,1.0159111022949219,-2.797257725392477
1708434770.985045,-2.1415016651153564,-1.3332451742938538,-2.525810782109396,6.1089796898658655,1.015918493270874,-2.797245804463522
1708434770.987006,-2.1415274143218994,-1.3331833195737381,-2.525810782109396,6.108975398331442,1.015906810760498,-2.7972293535815638
1708434770.9890158,-2.1415228843688965,-1.3332203340581437,-2.525789801274435,6.108926641732015,1.0159111022949219,-2.7972756067859095
1708434770.99102,-2.1415531635284424,-1.3332646501115342,-2.525789801274435,6.10896776893691,1.015923023223877,-2.7972984949695032
1708434770.9929876,-2.1414990425109863,-1.3331962537816544,-2.525794331227438,6.1089796898658655,1.0159111022949219,-2.797244135533468
1708434770.9949832,-2.1415317058563232,-1.3332603436759491,-2.525827471409933,6.108996021538534,1.015918493270874,-2.797220293675558
1708434770.997011,-2.141509532928467,-1.3332167279771348,-2.5257988611804407,6.108959185868063,1.0158531665802002,-2.79722768465151
1708434770.998997,-2.1415059566497803,-1.3332117956927796,-2.525848690663473,6.108963477402487,1.015944242477417,-2.7972546259509485
1708434771.0010035,-2.1415228843688965,-1.3332237017205735,-2.525806252156393,6.109000193863668,1.0159485340118408,-2.797300163899557
1708434771.0030081,-2.1415228843688965,-1.3333016645959397,-2.525794331227438,6.108976590424337,1.0158785581588745,-2.797288242970602
1708434771.0050385,-2.1415531635284424,-1.3332451742938538,-2.525853220616476,6.108939635544576,1.015919804573059,-2.797236744557516
1708434771.006995,-2.1415274143218994,-1.3332441759160538,-2.52577788034548,6.108984100609579,1.015906810760498,-2.79726225534548
1708434771.0090122,-2.1415352821350098,-1.3332613718560715,-2.5257988611804407,6.108963477402487,1.0159111022949219,-2.7972384134875696
1708434771.0110557,-2.1415600776672363,-1.333187611108162,-2.5258455912219446,6.10896776893691,1.015923023223877,-2.797241274510519
1708434771.0130415,-2.1415016651153564,-1.3332246106914063,-2.5258153120623987,6.109016525536337,1.0158991813659668,-2.79722506204714
1708434771.0150115,-2.1415016651153564,-1.3332332533648987,-2.525818411503927,6.1089223501975916,1.0159111022949219,-2.79722506204714
1708434771.0170255,-2.1415600776672363,-1.3332160127213974,-2.5258365313159388,6.1089515564735315,1.0159273147583008,-2.797257725392477
1708434771.0190032,-2.1414856910705566,-1.333240808253624,-2.525827471409933,6.109016525536337,1.015894889831543,-2.797211472188131
1708434771.0210075,-2.141515016555786,-1.3332484525493165,-2.525860611592428,6.108926641732015,1.015894889831543,-2.79726225534548
1708434771.0230377,-2.1415398120880127,-1.3332322400859375,-2.52582294145693,6.108954894333639,1.015906810760498,-2.797279183064596
1708434771.024998,-2.1415600776672363,-1.3332038086703797,-2.5258243719684046,6.109019863396444,1.0158706903457642,-2.7972338835345667
1708434771.0270019,-2.1415274143218994,-1.333216057424881,-2.525848690663473,6.108995902329244,1.0159317255020142,-2.79726225534548
1708434771.029014,-2.1415228843688965,-1.3332160723260422,-2.5258124510394495,6.10902093628005,1.0158991813659668,-2.797208611165182
1708434771.0309951,-2.1414618492126465,-1.3332775843194504,-2.52577788034548,6.108996021538534,1.0158785581588745,-2.797171179448263
1708434771.0330286,-2.1414971351623535,-1.3332854521325608,-2.5258153120623987,6.109000313072958,1.0159153938293457,-2.797241274510519
1708434771.035043,-2.1414902210235596,-1.3332203340581437,-2.525789801274435,6.10896776893691,1.0158991813659668,-2.797257725392477
1708434771.0370283,-2.141515016555786,-1.333200530414917,-2.5258079210864466,6.108955848007955,1.015906810760498,-2.797232214604513
1708434771.0390089,-2.1414742469787598,-1.3332322549870987,-2.525874201451437,6.108963477402487,1.0159111022949219,-2.797236744557516
1708434771.0409932,-2.1415441036224365,-1.333200530414917,-2.5258410612689417,6.108947264939108,1.0158785581588745,-2.797257725392477
1708434771.0429964,-2.1415274143218994,-1.3332332086614151,-2.525864903126852,6.109037148743429,1.0159153938293457,-2.797257725392477
1708434771.0449994,-2.1415274143218994,-1.333261327152588,-2.5257704893695276,6.108959185868063,1.015894889831543,-2.797286574040548
1708434771.0470066,-2.141510486602783,-1.3332209301045914,-2.5257869402514856,6.109024154930868,1.0159317255020142,-2.797241274510519
1708434771.0490348,-2.1415228843688965,-1.3332613718560715,-2.5258079210864466,6.1089385626609705,1.015894889831543,-2.797274653111593
1708434771.0510564,-2.1415352821350098,-1.3332698506167908,-2.5258033911334437,6.108971106797018,1.015882968902588,-2.79726225534548
1708434771.0530298,-2.1415317058563232,-1.3332038235715409,-2.52580172220339,6.109024154930868,1.015894889831543,-2.7972665468799036
1708434771.0550473,-2.1415555477142334,-1.3332246106914063,-2.5257824102984827,6.108918058663168,1.015919804573059,-2.797257725392477
1708434771.0570147,-2.1415274143218994,-1.3332080853036423,-2.5257988611804407,6.1090078232581995,1.015882968902588,-2.797208611165182
1708434771.059055,-2.141519546508789,-1.3332603585771103,-2.5257824102984827,6.108942973404684,1.0158872604370117,-2.7972038427936
1708434771.0610216,-2.1414742469787598,-1.3332365167192002,-2.5258198420154017,6.109003531723776,1.015845775604248,-2.797195021306173
1708434771.0630112,-2.1414902210235596,-1.3331833195737381,-2.52584416071047,6.108971106797018,1.015906810760498,-2.797257725392477
1708434771.0650294,-2.1415274143218994,-1.3332080853036423,-2.525848690663473,6.108975398331442,1.0158706903457642,-2.79726225534548
1708434771.0670156,-2.1415352821350098,-1.3331918877414246,-2.5257750193225306,6.108987319260397,1.015894889831543,-2.79726225534548
1708434771.0690317,-2.1415016651153564,-1.3332725328258057,-2.5258124510394495,6.108996021538534,1.0159242153167725,-2.797257725392477
1708434771.0710018,-2.1415398120880127,-1.333245189195015,-2.5258153120623987,6.1089796898658655,1.0158991813659668,-2.797274653111593
1708434771.0730052,-2.1414945125579834,-1.3332732033780594,-2.5258243719684046,6.108999240189352,1.0159317255020142,-2.7972665468799036
1708434771.075042,-2.1415319442749023,-1.333187611108162,-2.525856081639425,6.108990537911215,1.015919804573059,-2.797241274510519
1708434771.0769956,-2.1415274143218994,-1.3332775843194504,-2.5257704893695276,6.108975398331442,1.0159034729003906,-2.797236744557516
1708434771.0790505,-2.141465187072754,-1.3332332533648987,-2.525810782109396,6.108966815262594,1.0159111022949219,-2.797257725392477
1708434771.081018,-2.1415398120880127,-1.3332160723260422,-2.525857750569479,6.108991610794821,1.015936017036438,-2.797257725392477
1708434771.0830305,-2.1415441036224365,-1.3332246106914063,-2.5258079210864466,6.108946192055502,1.0159153938293457,-2.797241274510519
1708434771.0850005,-2.1414945125579834,-1.333239809875824,-2.5257704893695276,6.109019028931417,1.0159242153167725,-2.797257725392477
1708434771.0870411,-2.1415014266967773,-1.333200530414917,-2.5257824102984827,6.109036433487692,1.015882968902588,-2.797252957020895
1708434771.0890455,-2.1415059566497803,-1.333212436442711,-2.5258033911334437,6.109019863396444,1.015907883644104,-2.797283713017599
1708434771.0910113,-2.141515016555786,-1.3332038682750245,-2.5258243719684046,6.108978736191549,1.0159285068511963,-2.797279183064596
1708434771.093004,-2.1415016651153564,-1.3332484078458329,-2.5258830229388636,6.108983027725973,1.015861988067627,-2.7972636858569544
1708434771.095001,-2.1415183544158936,-1.3331962537816544,-2.5258153120623987,6.108941781311788,1.0159242153167725,-2.797241274510519
1708434771.0969965,-2.1415486335754395,-1.3332494509271164,-2.525810782109396,6.108971106797018,1.0158785581588745,-2.7972756067859095
1708434771.0990157,-2.1415421962738037,-1.333199532037117,-2.525789801274435,6.109024154930868,1.0158706903457642,-2.7972293535815638
1708434771.101029,-2.1415600776672363,-1.3332037937692185,-2.5257824102984827,6.108978736191549,1.0158706903457642,-2.79726225534548
1708434771.1030288,-2.1415228843688965,-1.3332332533648987,-2.5257988611804407,6.109011161118307,1.015882968902588,-2.79726225534548
1708434771.1050627,-2.141530752182007,-1.3331918877414246,-2.525789801274435,6.108929860382833,1.0158663988113403,-2.797316614781515
1708434771.107007,-2.1415140628814697,-1.333187611108162,-2.5258153120623987,6.108994829445638,1.0158706903457642,-2.79726225534548
1708434771.1090388,-2.141469717025757,-1.3332451444915314,-2.5257988611804407,6.109030949860372,1.0158751010894775,-2.797178570424215
1708434771.1110082,-2.1415059566497803,-1.3332322549870987,-2.5258079210864466,6.108981835633077,1.015907883644104,-2.797192160283224
1708434771.1130388,-2.1415059566497803,-1.3331962388804932,-2.52582294145693,6.1089374897773645,1.015891671180725,-2.797224823628561
1708434771.1150188,-2.141530752182007,-1.3332167279771348,-2.5258153120623987,6.108999240189352,1.015894889831543,-2.797241274510519
1708434771.116995,-2.141515016555786,-1.3332854521325608,-2.525794331227438,6.1089656231696985,1.0158751010894775,-2.797245804463522
1708434771.1190865,-2.1415228843688965,-1.333228961830475,-2.525848690663473,6.109032022743978,1.0158872604370117,-2.797279183064596
1708434771.1210291,-2.1414856910705566,-1.3332005155137558,-2.525853220616476,6.109055745392599,1.015882968902588,-2.797241274510519
1708434771.1230261,-2.1415486335754395,-1.3331994873336335,-2.5258124510394495,6.108990537911215,1.0158292055130005,-2.797245804463522
1708434771.1250143,-2.1415016651153564,-1.3332160127213974,-2.5258410612689417,6.1090277312095544,1.0159034729003906,-2.79722506204714
1708434771.127033,-2.1414787769317627,-1.3332365316203614,-2.525827471409933,6.1090277312095544,1.015894889831543,-2.797274653111593
1708434771.1290183,-2.1415014266967773,-1.3332289171269913,-2.525832001362936,6.109064566880026,1.0159242153167725,-2.797236744557516
1708434771.131004,-2.1415441036224365,-1.3332656633904953,-2.5258198420154017,6.108974325447836,1.0158872604370117,-2.797236744557516
1708434771.1330278,-2.1415557861328125,-1.3332038235715409,-2.52584416071047,6.109023320465841,1.0158706903457642,-2.797232214604513
1708434771.135035,-2.1415398120880127,-1.3332570058158417,-2.525773350392477,6.109030949860372,1.0158991813659668,-2.7972548643695276
1708434771.1370335,-2.141530752182007,-1.333224580889084,-2.525789801274435,6.109019028931417,1.0158663988113403,-2.797257725392477
1708434771.1390269,-2.1415512561798096,-1.3331747663072129,-2.5257914702044886,6.109035241394796,1.0158793926239014,-2.797291103993551
1708434771.1410344,-2.1415512561798096,-1.3332124513438721,-2.5258033911334437,6.109014618187704,1.015919804573059,-2.7972174326526087
1708434771.1430275,-2.1415398120880127,-1.333264560704567,-2.5257914702044886,6.1090677855308435,1.0159153938293457,-2.797241274510519
1708434771.1450083,-2.1415669918060303,-1.3332124513438721,-2.5258455912219446,6.10906337478713,1.0158663988113403,-2.797253195439474
1708434771.1470509,-2.1415627002716064,-1.3332569909146805,-2.5258289019214075,6.109046089440145,1.0158706903457642,-2.797279421483175
1708434771.1490247,-2.1414926052093506,-1.333228961830475,-2.525794331227438,6.109123337059774,1.0158706903457642,-2.797257725392477
1708434771.1510289,-2.1414926052093506,-1.333199532037117,-2.525869671498434,6.109148132592001,1.0158785581588745,-2.7972293535815638
1708434771.1530478,-2.141526460647583,-1.3332451742938538,-2.525794331227438,6.109130847245016,1.0158785581588745,-2.797291103993551
1708434771.155014,-2.1415600776672363,-1.3332613718560715,-2.525756899510519,6.109154689102926,1.0158872604370117,-2.797274653111593
1708434771.1570745,-2.141530752182007,-1.3332289916327973,-2.5257869402514856,6.109154689102926,1.0159153938293457,-2.797213141118185
1708434771.1590183,-2.1415016651153564,-1.3332451742938538,-2.525839630757467,6.109141576081075,1.0158991813659668,-2.797257725392477
1708434771.161011,-2.1415441036224365,-1.3332613867572327,-2.5257824102984827,6.109183060913839,1.015894889831543,-2.797241274510519
1708434771.1630309,-2.1415183544158936,-1.333298386340477,-2.525857750569479,6.109206902771749,1.0158751010894775,-2.7972293535815638
1708434771.1650236,-2.1415441036224365,-1.333176003103592,-2.525874201451437,6.109150278359213,1.015882968902588,-2.79726225534548
1708434771.1670525,-2.1415228843688965,-1.3332407933524628,-2.5258153120623987,6.109183180123129,1.015894889831543,-2.797220293675558
1708434771.1690307,-2.1415512561798096,-1.3332365316203614,-2.5258033911334437,6.1092200157936,1.015845775604248,-2.797283713017599
1708434771.171005,-2.141509532928467,-1.3332484525493165,-2.525832001362936,6.109141576081075,1.0158872604370117,-2.797241274510519
1708434771.173027,-2.141526460647583,-1.3331918728402634,-2.5258033911334437,6.109231817513265,1.0158751010894775,-2.797245804463522
1708434771.1749966,-2.1415793895721436,-1.333195225601532,-2.525780741368429,6.109162556916036,1.015861988067627,-2.7972667852984827
1708434771.1770108,-2.1415352821350098,-1.333224595790245,-2.5257988611804407,6.1092145321662805,1.015894889831543,-2.79726225534548
1708434771.179021,-2.141571521759033,-1.3332290065339585,-2.52584416071047,6.109206902771749,1.015882968902588,-2.79726225534548
1708434771.1810336,-2.1415421962738037,-1.3332203191569825,-2.5258198420154017,6.109194981842794,1.0158872604370117,-2.79722506204714
1708434771.183024,-2.1415421962738037,-1.3332613718560715,-2.525865141545431,6.1092156050498865,1.0158991813659668,-2.797241274510519
1708434771.185024,-2.14152193069458,-1.3332332533648987,-2.5258153120623987,6.109199392586508,1.0158872604370117,-2.797236744557516
1708434771.187012,-2.141571521759033,-1.3332451742938538,-2.52584416071047,6.109158146172323,1.0159034729003906,-2.7972520033465784
1708434771.1890018,-2.141537666320801,-1.333228976731636,-2.5258153120623987,6.10919069030837,1.015907883644104,-2.797257725392477
1708434771.1910086,-2.1415274143218994,-1.3332656633904953,-2.5258033911334437,6.109153854637899,1.0159034729003906,-2.797232214604513
1708434771.1930225,-2.1415536403656006,-1.3331962537816544,-2.525869671498434,6.109206902771749,1.0159358978271484,-2.7972775141345423
1708434771.1950228,-2.1415884494781494,-1.3332613718560715,-2.525818411503927,6.109218823700704,1.0158706903457642,-2.797241274510519
1708434771.1970348,-2.141592025756836,-1.3332732182792206,-2.525835100804464,6.109202611237325,1.0158991813659668,-2.797283713017599
1708434771.1990058,-2.1415512561798096,-1.333216057424881,-2.52582294145693,6.109202611237325,1.0158991813659668,-2.79727012315859
1708434771.2010002,-2.1416008472442627,-1.3331918877414246,-2.5258365313159388,6.109263646393575,1.015845775604248,-2.797244135533468
1708434771.2030547,-2.1415581703186035,-1.3332081002048035,-2.525839630757467,6.109210240631857,1.0158872604370117,-2.797307554875509
1708434771.2050095,-2.141624927520752,-1.333216742878296,-2.5258410612689417,6.10920141914443,1.0158751010894775,-2.797307554875509
1708434771.2070425,-2.141601085662842,-1.3331995916417618,-2.525853220616476,6.109246241837301,1.015894889831543,-2.7972565332995813
1708434771.209006,-2.1415536403656006,-1.3332732182792206,-2.525794331227438,6.109274375229635,1.0159034729003906,-2.797303024922506
1708434771.2110069,-2.1416053771972656,-1.3332167279771348,-2.525785271321432,6.10932348945693,1.0158751010894775,-2.797257725392477
1708434771.2130094,-2.1416079998016357,-1.3332527440837403,-2.525785271321432,6.109283077507772,1.015891671180725,-2.7972775141345423
1708434771.2149928,-2.141566038131714,-1.3331952554038544,-2.5258198420154017,6.109274375229635,1.0158785581588745,-2.797274891530172
1708434771.2170255,-2.141570568084717,-1.3332603436759491,-2.525832001362936,6.109278666764059,1.0158706903457642,-2.797248665486471
1708434771.2190025,-2.1415512561798096,-1.3332160723260422,-2.525848690663473,6.109287488251486,1.0159317255020142,-2.7972891966449183
1708434771.2210114,-2.1415536403656006,-1.3332408231547852,-2.525810782109396,6.109330642014303,1.0159034729003906,-2.7972891966449183
1708434771.223012,-2.141615629196167,-1.3332117360881348,-2.525806252156393,6.109298455506124,1.0158872604370117,-2.797307554875509
1708434771.2250113,-2.1415491104125977,-1.3332570058158417,-2.5258410612689417,6.109343635826864,1.0158947706222534,-2.7972891966449183
1708434771.2270095,-2.14158296585083,-1.3331804287484665,-2.525853220616476,6.1093190787132166,1.0158706903457642,-2.7972984949695032
1708434771.229004,-2.141566038131714,-1.3332080853036423,-2.5258198420154017,6.1093177674110315,1.0158663988113403,-2.7973111311541956
1708434771.2310123,-2.141570568084717,-1.333155558710434,-2.525794331227438,6.10933934429244,1.015891671180725,-2.7972729841815394
1708434771.23304,-2.141587495803833,-1.333171696668007,-2.525818411503927,6.1093060849006555,1.0158785581588745,-2.7973063627826136
1708434771.2350757,-2.1416079998016357,-1.3332853478244324,-2.525818411503927,6.109313356667318,1.0159034729003906,-2.7973154226886194
1708434771.237028,-2.1415581703186035,-1.3332854372313996,-2.525860611592428,6.109310376435079,1.0158991813659668,-2.797244135533468
1708434771.2390387,-2.141578435897827,-1.3332332086614151,-2.525848690663473,6.109329569130697,1.0158872604370117,-2.7973347345935267
1708434771.2410362,-2.141526460647583,-1.333200530414917,-2.525810782109396,6.109329569130697,1.0158872604370117,-2.7972849051104944
1708434771.2430353,-2.141611337661743,-1.3332047176412125,-2.525827471409933,6.109350549965658,1.015891671180725,-2.7973137537585657
1708434771.2450218,-2.1416237354278564,-1.3332441610148926,-2.52584416071047,6.109403598099508,1.0158706903457642,-2.7973437944995325
1708434771.2470446,-2.1415855884552,-1.3332407933524628,-2.5258305708514612,6.109337556153097,1.015882968902588,-2.7973137537585657
1708434771.2490153,-2.141646146774292,-1.3332408231547852,-2.525818411503927,6.109366762429037,1.015882968902588,-2.797372643147604
1708434771.2510169,-2.1416280269622803,-1.333216057424881,-2.525865141545431,6.109362470894613,1.0159153938293457,-2.7973817030536097
1708434771.2530227,-2.141632556915283,-1.3332167130759736,-2.52580172220339,6.109354960709371,1.0158706903457642,-2.7973466555224817
1708434771.2550004,-2.1416146755218506,-1.3332117658904572,-2.525752369557516,6.109353768616476,1.0159196853637695,-2.797342125569479
1708434771.2570186,-2.1415979862213135,-1.3332517457059403,-2.525827471409933,6.109329569130697,1.015894889831543,-2.797363583241598
1708434771.2590358,-2.1415722370147705,-1.3331632179072876,-2.525827471409933,6.109325277596273,1.0158991813659668,-2.797359291707174
1708434771.2610097,-2.14164662361145,-1.333228961830475,-2.525832001362936,6.109353768616476,1.0158991813659668,-2.797325674687521
1708434771.2630315,-2.1416068077087402,-1.3332408231547852,-2.525835100804464,6.109325277596273,1.0159196853637695,-2.797366444264547
1708434771.2650297,-2.1416022777557373,-1.3332365167192002,-2.525851551686422,6.109346139221945,1.0159066915512085,-2.79737097421755
1708434771.2670379,-2.14164662361145,-1.3332570058158417,-2.52584416071047,6.109390604286947,1.0159153938293457,-2.797387425099508
1708434771.269037,-2.1416237354278564,-1.3332203489593049,-2.525794331227438,6.109407174378195,1.015861988067627,-2.797368113194601
1708434771.2710078,-2.1415855884552,-1.3332365465215226,-2.525851551686422,6.109356987267294,1.015882968902588,-2.797387425099508
1708434771.2730136,-2.1415765285491943,-1.3332451742938538,-2.525810782109396,6.109377491265096,1.0158872604370117,-2.7973573843585413
1708434771.2750087,-2.1416022777557373,-1.3332160723260422,-2.525865141545431,6.109427559166708,1.015861988067627,-2.7973693052874964
1708434771.2770216,-2.1416306495666504,-1.3332246106914063,-2.525806252156393,6.109386193543234,1.0159242153167725,-2.7973902861224573
1708434771.2790017,-2.1416420936584473,-1.3332332533648987,-2.525860611592428,6.109364378243246,1.0158785581588745,-2.7973812262164515
1708434771.2810059,-2.1416802406311035,-1.3332982522300263,-2.525851551686422,6.109344947129049,1.015894889831543,-2.7974067370044153
1708434771.2830164,-2.1416192054748535,-1.333261327152588,-2.5258305708514612,6.109365689545431,1.0158991813659668,-2.7974351088153284
1708434771.2849946,-2.1416397094726562,-1.3332073849490662,-2.525851551686422,6.109405982285299,1.0158621072769165,-2.7974558512317103
1708434771.28701,-2.1416146755218506,-1.3332166832736512,-2.525856081639425,6.109344947129049,1.0159111022949219,-2.7973976770984095
1708434771.2890081,-2.1416306495666504,-1.3332613718560715,-2.525860611592428,6.109360205918112,1.015923023223877,-2.7974730173694056
1708434771.290984,-2.1416261196136475,-1.333240808253624,-2.5257988611804407,6.109401690750875,1.0159529447555542,-2.7973695437060755
1708434771.2930136,-2.141585350036621,-1.3331875813058396,-2.525839630757467,6.1094387648399255,1.0159153938293457,-2.7974639574633997
1708434771.2949922,-2.141639471054077,-1.3332124215415497,-2.52584416071047,6.109376776009359,1.0158621072769165,-2.7974141279803675
1708434771.2969966,-2.14164662361145,-1.3331833195737381,-2.5258033911334437,6.109394061356344,1.0159022808074951,-2.7974424997912806
1708434771.2989929,-2.1416218280792236,-1.3332408231547852,-2.525827471409933,6.109425890236654,1.0158960819244385,-2.7974186579333704
1708434771.30104,-2.1416218280792236,-1.3332569760135193,-2.525835100804464,6.109453666001119,1.0159111022949219,-2.7974050680743616
1708434771.3030043,-2.14164662361145,-1.3332117658904572,-2.525806252156393,6.1094257710273645,1.015865445137024,-2.7973931471454065
1708434771.304997,-2.14165997505188,-1.3332331788590928,-2.5258410612689417,6.109372365265646,1.0159317255020142,-2.7974050680743616
1708434771.3070076,-2.1416893005371094,-1.3332203340581437,-2.525848690663473,6.109482157021322,1.0159153938293457,-2.7974215189563196
1708434771.3089933,-2.1416802406311035,-1.3332031977227707,-2.5258305708514612,6.109417187958517,1.0158859491348267,-2.7973931471454065
1708434771.3110266,-2.1416499614715576,-1.3332246255925675,-2.525856081639425,6.10942434051589,1.0159316062927246,-2.7974804083453577
1708434771.3130293,-2.1416306495666504,-1.3332203191569825,-2.52582294145693,6.109404194145956,1.0159111022949219,-2.7974186579333704
1708434771.3150342,-2.1416332721710205,-1.333252714281418,-2.525835100804464,6.109444963722982,1.015923023223877,-2.797462288533346
1708434771.3170369,-2.1416192054748535,-1.3331875813058396,-2.525865141545431,6.109452593117513,1.0158947706222534,-2.797391478215353
1708434771.319004,-2.1416590213775635,-1.3332289916327973,-2.52586800256838,6.109449374466696,1.0159317255020142,-2.7974005381213587
1708434771.3209991,-2.14164662361145,-1.3332732182792206,-2.5258305708514612,6.10948537567214,1.0159273147583008,-2.7974124590503138
1708434771.3230197,-2.1416873931884766,-1.3331791025451203,-2.525851551686422,6.109461176186361,1.0159274339675903,-2.7974379698382776
1708434771.3250005,-2.1416847705841064,-1.3332374107888718,-2.525839630757467,6.109417187958517,1.015906810760498,-2.79748779932131
1708434771.3270335,-2.1416590213775635,-1.3332854223302384,-2.52586800256838,6.109420048981466,1.015906810760498,-2.797450367604391
1708434771.3290093,-2.14169979095459,-1.3332407933524628,-2.52586800256838,6.109526502877035,1.0159310102462769,-2.797459427510397
1708434771.3309977,-2.14164662361145,-1.3332236123136063,-2.525813881550924,6.109478461533346,1.015918493270874,-2.797455135975973
1708434771.3330247,-2.1416454315185547,-1.3332037788680573,-2.525835100804464,6.109518873482504,1.0158698558807373,-2.797457758580343
1708434771.3350532,-2.1416375637054443,-1.3332974326661606,-2.525860611592428,6.109482157021322,1.0159354209899902,-2.797462288533346
1708434771.337124,-2.141605854034424,-1.3332279932549973,-2.525856081639425,6.1094374535377405,1.015906810760498,-2.79745322862734
1708434771.3390553,-2.1416499614715576,-1.33323226988826,-2.525872532521383,6.109452593117513,1.0159153938293457,-2.797544304524557
1708434771.3410523,-2.141605854034424,-1.3332080704024811,-2.525851551686422,6.109469878464498,1.0159111022949219,-2.797507111226217
1708434771.3430388,-2.1416802406311035,-1.3332118105939408,-2.5258589426623743,6.109469878464498,1.0159311294555664,-2.7975145022021692
1708434771.3450322,-2.1416420936584473,-1.3332569909146805,-2.525888744984762,6.109490859299459,1.0159516334533691,-2.7975524107562464
1708434771.34702,-2.1415889263153076,-1.333227978353836,-2.5258424917804163,6.109478461533346,1.0158817768096924,-2.7975145022021692
1708434771.349022,-2.1416633129119873,-1.3332289916327973,-2.525856081639425,6.109502661019125,1.0159517526626587,-2.797502581273214
1708434771.351015,-2.1415889263153076,-1.333228961830475,-2.525851551686422,6.1094950316245935,1.015956163406372,-2.7975009123431605
1708434771.3530252,-2.1416375637054443,-1.3332451593926926,-2.52586800256838,6.109474289208212,1.0159473419189453,-2.7975145022021692
1708434771.3550029,-2.1416678428649902,-1.3332365316203614,-2.5258963743792933,6.109478461533346,1.0159592628479004,-2.7975264231311243
1708434771.3570535,-2.141725540161133,-1.3332038235715409,-2.5258992354022425,6.109507071762838,1.0159142017364502,-2.7975173632251185
1708434771.3590274,-2.1416678428649902,-1.3332896542600174,-2.525900904332296,6.1094939587409876,1.0159354209899902,-2.7975009123431605
1708434771.3610039,-2.1416420936584473,-1.3332613420537491,-2.5258782545672815,6.109421479492941,1.0159268379211426,-2.7975626627551478
1708434771.3630214,-2.1416714191436768,-1.333261327152588,-2.5258708635913294,6.1094374535377405,1.015942931175232,-2.7975390593158167
1708434771.365051,-2.1416714191436768,-1.33323226988826,-2.5259116331683558,6.109490859299459,1.0159592628479004,-2.7975054422961634
1708434771.3670347,-2.1416544914245605,-1.333252714281418,-2.5258901754962366,6.109445917397299,1.0159790515899658,-2.7975171248065394
1708434771.3690503,-2.1416261196136475,-1.333224580889084,-2.525951925908224,6.109440552979269,1.0159549713134766,-2.7975462118731897
1708434771.3710036,-2.1416633129119873,-1.3332613420537491,-2.525951925908224,6.10942434051589,1.0159342288970947,-2.7975598017321985
1708434771.3730235,-2.1416172981262207,-1.3332451593926926,-2.52598482767214,6.109461176186361,1.0160126686096191,-2.797525469456808
1708434771.3750205,-2.1416544914245605,-1.333273173575737,-2.525980297719137,6.109502661019125,1.0159505605697632,-2.797574583684103
1708434771.3770509,-2.1416499614715576,-1.333264635210373,-2.525959316884176,6.109417187958517,1.0160082578659058,-2.797541681920187
1708434771.3790357,-2.1416332721710205,-1.3332038235715409,-2.525959316884176,6.109444963722982,1.0159342288970947,-2.797541681920187
1708434771.3810112,-2.1416375637054443,-1.3332160723260422,-2.5259879271136683,6.1094950316245935,1.0159841775894165,-2.797537151967184
1708434771.3830085,-2.1416330337524414,-1.3332365316203614,-2.52595025697817,6.109461176186361,1.0159841775894165,-2.7975671927081507
1708434771.385024,-2.1416332721710205,-1.333256022339203,-2.52592641512026,6.1094655869300745,1.0159473419189453,-2.7975834051715296
1708434771.3870068,-2.1416351795196533,-1.333228961830475,-2.5259621779071253,6.109441745072164,1.0160205364227295,-2.7975626627551478
1708434771.3890145,-2.1416544914245605,-1.333171771173813,-2.525971237813131,6.109421479492941,1.015987753868103,-2.797525231038229
1708434771.3910246,-2.1416499614715576,-1.3332160723260422,-2.525975767766134,6.10949074009017,1.0159841775894165,-2.797516409550802
1708434771.3930357,-2.141651153564453,-1.3332768839648743,-2.525963846837179,6.109444963722982,1.0159790515899658,-2.797553602849142
1708434771.395002,-2.1416146755218506,-1.3332365316203614,-2.5259667078601282,6.109457957535543,1.015966773033142,-2.7975953261004847
1708434771.397014,-2.1416759490966797,-1.3331909489682694,-2.525963846837179,6.109505998879232,1.015966773033142,-2.7975671927081507
1708434771.3990154,-2.1416375637054443,-1.3332407933524628,-2.5260043779956263,6.109507071762838,1.0159952640533447,-2.797581974660055
1708434771.4009898,-2.1416218280792236,-1.3332365316203614,-2.525968376790182,6.1094374535377405,1.0160118341445923,-2.7975700537311
1708434771.4030263,-2.1416757106781006,-1.33323226988826,-2.5259295145617884,6.109417187958517,1.0159624814987183,-2.797537151967184
1708434771.4050019,-2.141672372817993,-1.3332160723260422,-2.5259459654437464,6.109474289208212,1.0160236358642578,-2.797574583684103
1708434771.4070144,-2.1416103839874268,-1.33323226988826,-2.525963846837179,6.109413492470541,1.0160236358642578,-2.797574583684103
1708434771.4090416,-2.1416375637054443,-1.333252714281418,-2.525959316884176,6.109444963722982,1.0159943103790283,-2.797560993825094
1708434771.4110136,-2.1416590213775635,-1.333264635210373,-2.5259667078601282,6.109462249069967,1.0160236358642578,-2.79759389558901
1708434771.4130344,-2.1416757106781006,-1.3331995618394394,-2.5259833971606653,6.109421479492941,1.0159908533096313,-2.7975953261004847
1708434771.415003,-2.1416261196136475,-1.3332484525493165,-2.5259879271136683,6.109453666001119,1.0160149335861206,-2.797619167958395
1708434771.4170356,-2.14164662361145,-1.3331919026425858,-2.5259667078601282,6.109428632050314,1.0160075426101685,-2.797577444707052
1708434771.4190388,-2.1416544914245605,-1.333264635210373,-2.5259879271136683,6.109499442368307,1.0160315036773682,-2.797602717076437
1708434771.4210453,-2.1416375637054443,-1.3331876409104844,-2.5259667078601282,6.109441745072164,1.0160359144210815,-2.797581974660055
1708434771.4230466,-2.1416351795196533,-1.333281160598137,-2.5259621779071253,6.109453666001119,1.016007423400879,-2.797577444707052
1708434771.425043,-2.1416590213775635,-1.3332398247769852,-2.525938336049215,6.109498369484701,1.0160359144210815,-2.797614876423971
1708434771.4269955,-2.1416285037994385,-1.3332236421159287,-2.525975767766134,6.1094374535377405,1.0159987211227417,-2.79755670229067
1708434771.429011,-2.1415977478027344,-1.3332484525493165,-2.5260165373431605,6.10946665981368,1.016019344329834,-2.797589365636007
1708434771.4310155,-2.1416590213775635,-1.3332689118436356,-2.526025358830587,6.109434473305502,1.0160272121429443,-2.797648255025045
1708434771.4330182,-2.1416757106781006,-1.3331803989461442,-2.5259667078601282,6.10946665981368,1.016047716140747,-2.797601286564962
1708434771.43504,-2.1416544914245605,-1.333252714281418,-2.525959316884176,6.109426605492391,1.0160272121429443,-2.79759389558901
1708434771.4370334,-2.1416847705841064,-1.3332484525493165,-2.525959316884176,6.109422194748678,1.016047716140747,-2.79761773744692
1708434771.4390814,-2.141666889190674,-1.333252714281418,-2.525963846837179,6.1094387648399255,1.0160727500915527,-2.797561232243673
1708434771.4410431,-2.1416499614715576,-1.3332775247148057,-2.525954786931173,6.109430062561788,1.016080617904663,-2.797561232243673
1708434771.4430096,-2.1416261196136475,-1.3332407933524628,-2.525971237813131,6.109459030419149,1.0160185098648071,-2.797589365636007
1708434771.4450104,-2.1416802406311035,-1.3332203489593049,-2.5259833971606653,6.10931562164382,1.0160434246063232,-2.797549311314718
1708434771.4470158,-2.1416847705841064,-1.333264635210373,-2.525968376790182,6.109434473305502,1.0160185098648071,-2.797648255025045
1708434771.4490194,-2.1416802406311035,-1.3331791025451203,-2.525938336049215,6.109392988472738,1.0160596370697021,-2.797619167958395
1708434771.4510553,-2.1416146755218506,-1.3332484525493165,-2.525947395955221,6.109422194748678,1.016050934791565,-2.797577444707052
1708434771.4530299,-2.1416261196136475,-1.3332818013480683,-2.525975767766134,6.109438884049215,1.0160434246063232,-2.797610346470968
1708434771.4549966,-2.1416146755218506,-1.33323226988826,-2.525938336049215,6.109364378243246,1.016084909439087,-2.797605816517965
1708434771.4570227,-2.1416332721710205,-1.333264635210373,-2.525968376790182,6.109398472100057,1.0160303115844727,-2.797614638005392
1708434771.4590025,-2.1416351795196533,-1.333293081527092,-2.525938336049215,6.109398472100057,1.0160315036773682,-2.797577444707052
1708434771.4610121,-2.1415889263153076,-1.333195300107338,-2.525984589253561,6.109373199730673,1.0160434246063232,-2.7975731531726282
1708434771.4629972,-2.1416306495666504,-1.3332365316203614,-2.52602988878359,6.109365689545431,1.0160391330718994,-2.7976346651660364
1708434771.4650202,-2.1416306495666504,-1.3331747514060517,-2.52595025697817,6.109365689545431,1.0160927772521973,-2.797648255025045
1708434771.4669929,-2.1416544914245605,-1.3332973432591935,-2.526013199483053,6.109337436943807,1.0160229206085205,-2.797610346470968
1708434771.4689887,-2.1416847705841064,-1.3332081002048035,-2.525938336049215,6.109378683357992,1.0160272121429443,-2.797610346470968
1708434771.4709942,-2.1416103839874268,-1.3332365316203614,-2.5259667078601282,6.109353768616476,1.0160391330718994,-2.797601286564962
1708434771.4729855,-2.1416172981262207,-1.3332081002048035,-2.525963846837179,6.109366762429037,1.016006350517273,-2.79763108888735
1708434771.4750116,-2.1415934562683105,-1.3332656037858506,-2.525996987019674,6.109322058945455,1.016034722328186,-2.797622267399923
1708434771.4769826,-2.1416218280792236,-1.3332768839648743,-2.5259667078601282,6.109330642014303,1.0160391330718994,-2.79755670229067
1708434771.479004,-2.1416218280792236,-1.3332203489593049,-2.525975767766134,6.10932623127059,1.0159900188446045,-2.7975922266589563
1708434771.4809952,-2.1416544914245605,-1.333269791012146,-2.525992457066671,6.109302866249838,1.0160062313079834,-2.7976437250720423
1708434771.4829905,-2.1416218280792236,-1.3332203489593049,-2.525942866002218,6.109314667969503,1.0160719156265259,-2.797614638005392
1708434771.4850383,-2.1416332721710205,-1.3332203489593049,-2.525980297719137,6.1093599674995325,1.0160762071609497,-2.7975850741015833
1708434771.487007,-2.1416306495666504,-1.3332160723260422,-2.525963846837179,6.109335052758016,1.0160796642303467,-2.79761773744692
1708434771.489012,-2.141605854034424,-1.333256022339203,-2.525975767766134,6.109330642014303,1.0160315036773682,-2.797610346470968
1708434771.4910352,-2.1416420936584473,-1.3332484525493165,-2.525959316884176,6.109290587693014,1.016063928604126,-2.797622267399923
1708434771.492996,-2.141650915145874,-1.3332038235715409,-2.525959316884176,6.109289872437277,1.0160553455352783,-2.79759389558901
1708434771.4950361,-2.1416101455688477,-1.3332818013480683,-2.525980297719137,6.109289872437277,1.0160465240478516,-2.797622267399923
1708434771.496998,-2.1416375637054443,-1.3332973432591935,-2.525975767766134,6.109298455506124,1.0160434246063232,-2.797610346470968
1708434771.4990094,-2.1416146755218506,-1.3332246106914063,-2.525951925908224,6.109277593880453,1.016034722328186,-2.79761773744692
1708434771.500992,-2.1415889263153076,-1.3332279932549973,-2.525951925908224,6.10932348945693,1.0160564184188843,-2.797601286564962
1708434771.5030189,-2.1415934562683105,-1.3332365316203614,-2.5259667078601282,6.10928629615859,1.0160564184188843,-2.79755670229067
1708434771.5049987,-2.141676902770996,-1.333236501818039,-2.525938336049215,6.10933934429244,1.0160553455352783,-2.797626797352926
1708434771.5070193,-2.14164400100708,-1.3332484525493165,-2.526005808507101,6.109237539559164,1.0160762071609497,-2.797601286564962
1708434771.5090072,-2.1416306495666504,-1.3332203489593049,-2.525942866002218,6.109298455506124,1.0160359144210815,-2.7975686232196253
1708434771.511005,-2.1416420936584473,-1.3332332384637375,-2.526017729436056,6.10928629615859,1.0159944295883179,-2.797664467488424
1708434771.5129952,-2.1416590213775635,-1.3333058816245575,-2.525923554097311,6.109290587693014,1.0160106420516968,-2.797614638005392
1708434771.515001,-2.141650915145874,-1.3332484525493165,-2.525963846837179,6.109249341278829,1.016019344329834,-2.797560993825094
1708434771.5170064,-2.141650915145874,-1.3332322549870987,-2.525933806096212,6.109237539559164,1.016034722328186,-2.797635618840353
1708434771.5190256,-2.1416544914245605,-1.333244190817215,-2.525933806096212,6.109274375229635,1.016050934791565,-2.7975850741015833
1708434771.521002,-2.1416802406311035,-1.3331909489682694,-2.525972906743185,6.1093037007148645,1.0160434246063232,-2.79759389558901
1708434771.5230086,-2.1416261196136475,-1.3332073849490662,-2.525930945073263,6.109335052758016,1.0160553455352783,-2.797626558934347
1708434771.5250309,-2.141650915145874,-1.3332118105939408,-2.525909964238302,6.10932348945693,1.0160521268844604,-2.797572914754049
1708434771.5270193,-2.1415889263153076,-1.3332160723260422,-2.5259621779071253,6.1092296717460535,1.016047716140747,-2.797561232243673
1708434771.5290418,-2.14164662361145,-1.3332038235715409,-2.525919024144308,6.109310376435079,1.0160315036773682,-2.79759389558901
1708434771.5310016,-2.1416237354278564,-1.333252714281418,-2.525975767766134,6.109274375229635,1.0160229206085205,-2.79759389558901
1708434771.5330355,-2.1416237354278564,-1.3332365316203614,-2.525933806096212,6.109281885414877,1.0160237550735474,-2.79759389558901
1708434771.5350382,-2.1416192054748535,-1.3332355630448838,-2.525951925908224,6.109249460488119,1.0159778594970703,-2.7975700537311
1708434771.5370824,-2.1416261196136475,-1.3332603734782715,-2.52598482767214,6.109253871231832,1.0160118341445923,-2.797610346470968
1708434771.5390437,-2.1416103839874268,-1.3332074594548722,-2.525954786931173,6.109282958298483,1.0160149335861206,-2.7975521723376673
1708434771.5410352,-2.1416192054748535,-1.3332689118436356,-2.525984589253561,6.109253752022543,1.0160359144210815,-2.797561232243673
1708434771.543038,-2.1416420936584473,-1.3331995618394394,-2.525909964238302,6.109261262207784,1.0159900188446045,-2.79761773744692
1708434771.545008,-2.1416590213775635,-1.3332365316203614,-2.525914494191305,6.109240758209982,1.0160446166992188,-2.797581974660055
1708434771.547012,-2.1416306495666504,-1.3332451593926926,-2.52598482767214,6.109266745835104,1.0159865617752075,-2.797572914754049
1708434771.5490258,-2.1416172981262207,-1.3332038235715409,-2.525956455861227,6.109237658768453,1.0160118341445923,-2.79759389558901
1708434771.5510798,-2.1416544914245605,-1.3332689118436356,-2.525947395955221,6.10933934429244,1.016007423400879,-2.797605816517965
1708434771.5530207,-2.141655445098877,-1.3332160723260422,-2.525977436696188,6.109266745835104,1.0160149335861206,-2.7975803057300013
1708434771.5550203,-2.1416375637054443,-1.3332656037858506,-2.525947395955221,6.109213340073385,1.0160359144210815,-2.79759389558901
1708434771.556997,-2.1416375637054443,-1.3332603734782715,-2.525942866002218,6.109241831093588,1.0159703493118286,-2.7976401487933558
1708434771.5590022,-2.1416590213775635,-1.33323226988826,-2.525968376790182,6.109327780991354,1.0160161256790161,-2.797610346470968
1708434771.5609994,-2.141672372817993,-1.3332940352014084,-2.525930945073263,6.109246241837301,1.0159624814987183,-2.797589365636007
1708434771.5630293,-2.1416237354278564,-1.3332613420537491,-2.52595025697817,6.109302866249838,1.0160161256790161,-2.797561232243673
1708434771.564999,-2.1416420936584473,-1.333252714281418,-2.5259936491595667,6.109311568527975,1.0159952640533447,-2.7975240389453333
1708434771.5669987,-2.1415722370147705,-1.3332484525493165,-2.525942866002218,6.10923312881545,1.0159995555877686,-2.797610346470968
1708434771.568997,-2.1415810585021973,-1.333264635210373,-2.525914494191305,6.1093201515968225,1.0159952640533447,-2.797598425542013
1708434771.5709946,-2.1416633129119873,-1.3332407933524628,-2.525893513356344,6.109282958298483,1.0160205364227295,-2.797657076512472
1708434771.573023,-2.1416261196136475,-1.333183379178383,-2.5258856455432337,6.109274375229635,1.016003966331482,-2.797565523778097
1708434771.5750425,-2.1416146755218506,-1.333207444553711,-2.525923554097311,6.109271156578817,1.0159462690353394,-2.797561232243673
1708434771.5770242,-2.1416590213775635,-1.3331909489682694,-2.52590257326235,6.109281885414877,1.015987753868103,-2.797561232243673
1708434771.5789967,-2.1416351795196533,-1.333252714281418,-2.5258947054492396,6.109241831093588,1.0159995555877686,-2.7975686232196253
1708434771.5809946,-2.141639471054077,-1.333281160598137,-2.525907103215353,6.10926245430068,1.0159833431243896,-2.797619167958395
1708434771.5830197,-2.141605854034424,-1.333273173575737,-2.5258947054492396,6.109290587693014,1.0159995555877686,-2.79759389558901
1708434771.5849867,-2.1416261196136475,-1.3332203489593049,-2.5259206930743616,6.109249460488119,1.0159505605697632,-2.797528330479757
1708434771.587022,-2.1416280269622803,-1.3332603734782715,-2.5258470217334192,6.109299289971151,1.016003966331482,-2.797589365636007
1708434771.5890515,-2.1416306495666504,-1.3332896840623398,-2.5258379618274134,6.109270083695211,1.015987753868103,-2.797612969075338
1708434771.5910358,-2.14164662361145,-1.3332484525493165,-2.5258470217334192,6.109237658768453,1.015929937362671,-2.797577444707052
1708434771.5930603,-2.141650915145874,-1.3332603734782715,-2.525860611592428,6.10926245430068,1.0159592628479004,-2.797537390385763
1708434771.5950289,-2.1416678428649902,-1.3332940352014084,-2.525818411503927,6.109265672951498,1.0159549713134766,-2.7975791136371058
1708434771.597014,-2.1416103839874268,-1.3332075339606781,-2.5257988611804407,6.109278666764059,1.0159592628479004,-2.7975700537311
1708434771.5990148,-2.1416306495666504,-1.3332081002048035,-2.525832001362936,6.109278666764059,1.0159505605697632,-2.7975700537311
1708434771.601002,-2.1416261196136475,-1.333228961830475,-2.5258365313159388,6.109237539559164,1.0159624814987183,-2.7975357214557093
1708434771.6030216,-2.1416068077087402,-1.3331995618394394,-2.5258153120623987,6.10926245430068,1.0159387588500977,-2.7975907961474817
1708434771.6055508,-2.1415810585021973,-1.3332441759160538,-2.525839630757467,6.109294879227438,1.0159592628479004,-2.797511879597799
1708434771.6070244,-2.1416218280792236,-1.3332074594548722,-2.5258079210864466,6.10928629615859,1.0159473419189453,-2.797652546559469
1708434771.6090398,-2.1416544914245605,-1.3331990402987977,-2.5258079210864466,6.109290587693014,1.0159099102020264,-2.797586504613058
1708434771.611001,-2.1416802406311035,-1.3332896840623398,-2.525789801274435,6.10928629615859,1.0159516334533691,-2.797581974660055
1708434771.6130369,-2.1416351795196533,-1.3332689118436356,-2.525761429463522,6.109294879227438,1.0159311294555664,-2.797619167958395
1708434771.614993,-2.14164662361145,-1.33323226988826,-2.5257750193225306,6.109274375229635,1.0158979892730713,-2.7975700537311
1708434771.6169999,-2.1416103839874268,-1.3332365316203614,-2.5258198420154017,6.109274375229635,1.0159186124801636,-2.7975907961474817
1708434771.619002,-2.1416420936584473,-1.3332569909146805,-2.525761429463522,6.109241950302877,1.0159354209899902,-2.797549311314718
1708434771.6210287,-2.1416714191436768,-1.3332074147513886,-2.5257988611804407,6.109250533371725,1.0159142017364502,-2.797572914754049
1708434771.6230392,-2.1416192054748535,-1.333264635210373,-2.5258153120623987,6.109258162766256,1.015894889831543,-2.797577444707052
1708434771.6251173,-2.1416420936584473,-1.3332407933524628,-2.5258198420154017,6.109290587693014,1.015956163406372,-2.797586504613058
1708434771.6270266,-2.1416282653808594,-1.3332246106914063,-2.525857750569479,6.10923312881545,1.0159022808074951,-2.797635618840353
1708434771.629053,-2.1416633129119873,-1.3332124513438721,-2.5258365313159388,6.109278666764059,1.0159111022949219,-2.7975731531726282
1708434771.6309988,-2.141639471054077,-1.3332854223302384,-2.52582294145693,6.109261262207784,1.0159034729003906,-2.797561232243673
1708434771.6330163,-2.1416633129119873,-1.3332689118436356,-2.525785509740011,6.10923312881545,1.0159111022949219,-2.797605816517965
1708434771.635022,-2.1416146755218506,-1.3332818013480683,-2.525785509740011,6.109315860062399,1.015907883644104,-2.797574583684103
1708434771.6370463,-2.1416351795196533,-1.3332081747106095,-2.5258079210864466,6.109290587693014,1.0159111022949219,-2.7976072470294397
1708434771.6390538,-2.1416218280792236,-1.333264635210373,-2.5258410612689417,6.109281885414877,1.0159034729003906,-2.7975700537311
1708434771.6410377,-2.1416590213775635,-1.3332160723260422,-2.525853220616476,6.109261262207784,1.0159153938293457,-2.7975700537311
1708434771.6430452,-2.1416420936584473,-1.3332896840623398,-2.5258243719684046,6.109245168953695,1.0159316062927246,-2.7975907961474817
1708434771.645009,-2.141639471054077,-1.333281160598137,-2.525857750569479,6.109266865044393,1.0159111022949219,-2.797561232243673
1708434771.6470659,-2.1416306495666504,-1.3332160723260422,-2.525761429463522,6.109269010811605,1.015923023223877,-2.7975700537311
1708434771.6490119,-2.1416192054748535,-1.3332569909146805,-2.525794331227438,6.10922526100234,1.015882968902588,-2.7975834051715296
1708434771.6510208,-2.1415934562683105,-1.333301604991295,-2.5258079210864466,6.109278785973348,1.0158532857894897,-2.7975121180163782
1708434771.6530097,-2.1416306495666504,-1.333252714281418,-2.5257988611804407,6.109278785973348,1.0159196853637695,-2.797553602849142
1708434771.6550007,-2.1416678428649902,-1.333198921089508,-2.5257988611804407,6.1093071577842615,1.015907883644104,-2.797565523778097
1708434771.6570287,-2.1416261196136475,-1.3332246106914063,-2.5257704893695276,6.10923312881545,1.0158706903457642,-2.7975788752185267
1708434771.659009,-2.1416375637054443,-1.3332160723260422,-2.5258289019214075,6.1093071577842615,1.015878677368164,-2.7975907961474817
1708434771.6610096,-2.1416919231414795,-1.3332768839648743,-2.5257960001574915,6.109270083695211,1.0158706903457642,-2.7975834051715296
1708434771.663041,-2.1416544914245605,-1.3332774502089997,-2.525839630757467,6.109247076302328,1.015891671180725,-2.7975626627551478
1708434771.6650364,-2.141639471054077,-1.3332896840623398,-2.5258544127093714,6.109241950302877,1.015882968902588,-2.797602717076437
1708434771.6670144,-2.1416678428649902,-1.3332603585771103,-2.525761429463522,6.109331953316488,1.0158544778823853,-2.7975700537311
1708434771.6690235,-2.1416306495666504,-1.3332279932549973,-2.5257750193225306,6.10922538021163,1.0158872604370117,-2.7975357214557093
1708434771.6710107,-2.1416215896606445,-1.3332236421159287,-2.5257704893695276,6.109311568527975,1.0158751010894775,-2.797549311314718
1708434771.6730492,-2.1416332721710205,-1.3332203489593049,-2.525857750569479,6.109278666764059,1.0158751010894775,-2.7975700537311
1708434771.675031,-2.1416714191436768,-1.3332731437734147,-2.5258198420154017,6.109322058945455,1.0158544778823853,-2.79759389558901
1708434771.677041,-2.1416876316070557,-1.3331953299096604,-2.5257988611804407,6.10925708988265,1.0158838033676147,-2.797516409550802
1708434771.6790202,-2.1416964530944824,-1.333281160598137,-2.5257659594165247,6.1093071577842615,1.015892505645752,-2.797586504613058
1708434771.6810074,-2.1416306495666504,-1.3332160723260422,-2.525761429463522,6.109290587693014,1.0158588886260986,-2.797553602849142
1708434771.6830087,-2.1416635513305664,-1.3332398694804688,-2.5257869402514856,6.109249460488119,1.0158706903457642,-2.797541681920187
1708434771.6849892,-2.1416714191436768,-1.333208130007126,-2.5257914702044886,6.109274375229635,1.015878677368164,-2.7975700537311
1708434771.6870196,-2.1416261196136475,-1.3332355630448838,-2.5258153120623987,6.109261262207784,1.0158544778823853,-2.797516409550802
1708434771.6890063,-2.1416714191436768,-1.3332407933524628,-2.5258243719684046,6.109270083695211,1.0159122943878174,-2.797574583684103
1708434771.691013,-2.141705274581909,-1.3332398247769852,-2.5257960001574915,6.109265672951498,1.0158544778823853,-2.797541681920187
1708434771.6929986,-2.1416590213775635,-1.333264635210373,-2.52582294145693,6.109327780991354,1.0158510208129883,-2.7975297609912317
1708434771.6950135,-2.141605854034424,-1.3332646203092118,-2.5257824102984827,6.109287488251486,1.0158344507217407,-2.7975700537311
1708434771.6969984,-2.1416218280792236,-1.3332569909146805,-2.5258410612689417,6.109278666764059,1.0158095359802246,-2.797558132802145
1708434771.699002,-2.1416375637054443,-1.3332854223302384,-2.5257824102984827,6.109249460488119,1.015846610069275,-2.797525469456808
1708434771.7010021,-2.141605854034424,-1.333220363860466,-2.5257960001574915,6.1093190787132166,1.0158838033676147,-2.797541681920187
1708434771.703004,-2.1416332721710205,-1.3332160723260422,-2.5257869402514856,6.10925708988265,1.0158838033676147,-2.797574583684103
1708434771.7049944,-2.1416544914245605,-1.3332569909146805,-2.5257704893695276,6.10933934429244,1.0158631801605225,-2.797574583684103
1708434771.7070093,-2.1416306495666504,-1.3332408380559464,-2.5257914702044886,6.109335052758016,1.0158300399780273,-2.7975881735431116
1708434771.7090104,-2.1416306495666504,-1.3332236421159287,-2.5258198420154017,6.109278666764059,1.0158882141113281,-2.7975342909442347
1708434771.711013,-2.1416420936584473,-1.33323226988826,-2.5258079210864466,6.109261262207784,1.0158554315567017,-2.7975700537311
1708434771.7130275,-2.1416261196136475,-1.333195374613144,-2.5258198420154017,6.109314667969503,1.0158226490020752,-2.7975626627551478
1708434771.7150195,-2.141662359237671,-1.3332817417434235,-2.5258033911334437,6.109228837281027,1.0158631801605225,-2.797586504613058
1708434771.7169974,-2.1416332721710205,-1.3332682710937043,-2.5258124510394495,6.109302866249838,1.0158640146255493,-2.797558132802145
1708434771.7189991,-2.1416332721710205,-1.3332322549870987,-2.5257704893695276,6.109298455506124,1.0158344507217407,-2.7975433508502405
1708434771.7209952,-2.1416544914245605,-1.33323226988826,-2.5258033911334437,6.109249341278829,1.015846610069275,-2.7975462118731897
1708434771.7230191,-2.1416544914245605,-1.333252714281418,-2.5257869402514856,6.109343635826864,1.0158510208129883,-2.7975173632251185
1708434771.7250056,-2.1416633129119873,-1.3332074594548722,-2.5257960001574915,6.109261381417074,1.0158510208129883,-2.797544781361715
1708434771.7270417,-2.141584634780884,-1.3332442057183762,-2.5257704893695276,6.1093071577842615,1.0158675909042358,-2.7975834051715296
1708434771.7289991,-2.14164662361145,-1.3332117956927796,-2.5258079210864466,6.109314667969503,1.0158720016479492,-2.797553602849142
1708434771.7309911,-2.141666889190674,-1.3332081002048035,-2.5257869402514856,6.109298455506124,1.015876293182373,-2.7975700537311
1708434771.7330294,-2.1416544914245605,-1.3332075041583558,-2.525757137929098,6.109258162766256,1.0158554315567017,-2.7975669542895716
1708434771.7350068,-2.1416146755218506,-1.333208144908287,-2.5257988611804407,6.109330642014303,1.0158300399780273,-2.797525469456808
1708434771.7370303,-2.1415934562683105,-1.3332203489593049,-2.5258198420154017,6.109290587693014,1.0158554315567017,-2.7975083033191126
1708434771.7390316,-2.1416544914245605,-1.3332236421159287,-2.5258243719684046,6.109314667969503,1.0158182382583618,-2.79753286043276
1708434771.7410052,-2.1416263580322266,-1.3332203340581437,-2.5257869402514856,6.109277593880453,1.015802025794983,-2.7975834051715296
1708434771.7430162,-2.1416420936584473,-1.3332332384637375,-2.5258033911334437,6.109274375229635,1.015826940536499,-2.7975342909442347
1708434771.7450187,-2.141608238220215,-1.3332854223302384,-2.5257824102984827,6.109334933548727,1.015838861465454,-2.7975669542895716
1708434771.747003,-2.1416544914245605,-1.3332569909146805,-2.5258033911334437,6.109310376435079,1.0157943964004517,-2.7975760141955774
1708434771.7490308,-2.14164662361145,-1.3332811158946534,-2.5258334318744105,6.109277593880453,1.015826940536499,-2.7975507418261927
1708434771.7510014,-2.1416218280792236,-1.3332332384637375,-2.5258198420154017,6.10928629615859,1.0158182382583618,-2.7975462118731897
1708434771.7530403,-2.1416499614715576,-1.3332527440837403,-2.5257988611804407,6.109342562943258,1.0158107280731201,-2.7975507418261927
1708434771.7550273,-2.1416757106781006,-1.3331706088832398,-2.5258033911334437,6.10928629615859,1.0158064365386963,-2.7975297609912317
1708434771.7570186,-2.1416759490966797,-1.333264635210373,-2.5257914702044886,6.10933397987441,1.0158344507217407,-2.7975700537311
1708434771.759061,-2.1416964530944824,-1.333195374613144,-2.5258198420154017,6.109346854477682,1.0158355236053467,-2.7975626627551478
1708434771.7610142,-2.1416375637054443,-1.3332517457059403,-2.5257824102984827,6.1092941639717,1.0157856941223145,-2.7975881735431116
1708434771.7630289,-2.1416454315185547,-1.3332854223302384,-2.5257869402514856,6.109273302346029,1.0158597230911255,-2.7975626627551478
1708434771.7650268,-2.141666889190674,-1.3332407933524628,-2.5258033911334437,6.109285580902853,1.0158138275146484,-2.7975128332721155
1708434771.7670002,-2.1416261196136475,-1.333252729182579,-2.5257824102984827,6.109306204109945,1.0158684253692627,-2.7975669542895716
1708434771.7690525,-2.1416218280792236,-1.333244190817215,-2.525806252156393,6.109285580902853,1.0158554315567017,-2.797541681920187
1708434771.7709947,-2.1416420936584473,-1.3332854223302384,-2.5258079210864466,6.1093190787132166,1.0157945156097412,-2.797541681920187
1708434771.773011,-2.1416919231414795,-1.3332365316203614,-2.5257750193225306,6.109310376435079,1.0158226490020752,-2.7975669542895716
1708434771.7749903,-2.14164662361145,-1.3332646054080506,-2.5258243719684046,6.109289872437277,1.015838861465454,-2.7975173632251185
1708434771.7770202,-2.1416375637054443,-1.3332613420537491,-2.525794331227438,6.109314667969503,1.015826940536499,-2.797525469456808
1708434771.7790082,-2.1416757106781006,-1.3332613420537491,-2.5257659594165247,6.109281885414877,1.015826940536499,-2.7975083033191126
1708434771.7809951,-2.1416783332824707,-1.3332279932549973,-2.5258033911334437,6.109281170159139,1.015856146812439,-2.797541681920187
1708434771.7829978,-2.1416873931884766,-1.3332854223302384,-2.525794331227438,6.10937117317275,1.0158107280731201,-2.7975128332721155
1708434771.7849844,-2.1416544914245605,-1.3332397949746628,-2.5257988611804407,6.109326350479879,1.0157865285873413,-2.7975700537311
1708434771.7869978,-2.1416714191436768,-1.333244190817215,-2.5258033911334437,6.109277474671163,1.0158597230911255,-2.7975507418261927
1708434771.7890005,-2.1416499614715576,-1.333281160598137,-2.5257914702044886,6.109329569130697,1.015826940536499,-2.797558132802145
1708434771.7910025,-2.141662120819092,-1.333294079904892,-2.5257988611804407,6.1093623516853235,1.0158182382583618,-2.7975507418261927
1708434771.7930083,-2.1416783332824707,-1.3332118105939408,-2.525810782109396,6.109350549965658,1.015826940536499,-2.7974875609027308
1708434771.7949948,-2.1416499614715576,-1.3332569909146805,-2.5258904139148157,6.109302866249838,1.0157856941223145,-2.7975462118731897
1708434771.7969966,-2.1416332721710205,-1.3332203489593049,-2.5257988611804407,6.109281170159139,1.0158474445343018,-2.7975297609912317
1708434771.7990284,-2.1416714191436768,-1.333256022339203,-2.525806252156393,6.109310376435079,1.0157902240753174,-2.7974711100207728
1708434771.80111,-2.1416375637054443,-1.3332118105939408,-2.5258243719684046,6.109252798348226,1.0158193111419678,-2.7975218931781214
1708434771.8030202,-2.1416172981262207,-1.3331996214440842,-2.525794331227438,6.1093177674110315,1.015826940536499,-2.7975054422961634
1708434771.8050303,-2.1416544914245605,-1.333264635210373,-2.5258033911334437,6.109320986061849,1.0158344507217407,-2.7975264231311243
1708434771.807027,-2.1416332721710205,-1.3332603734782715,-2.5257988611804407,6.109273302346029,1.0158597230911255,-2.7975083033191126
1708434771.808995,-2.1416454315185547,-1.3332246106914063,-2.5257988611804407,6.109346139221945,1.015843152999878,-2.7975099722491663
1708434771.8110204,-2.141653299331665,-1.3332160723260422,-2.5257914702044886,6.109359133034506,1.0158640146255493,-2.7975640932666224
1708434771.8130326,-2.1416499614715576,-1.3332203489593049,-2.5258198420154017,6.109297382622518,1.015826940536499,-2.7975009123431605
1708434771.815028,-2.1416499614715576,-1.333244190817215,-2.5258124510394495,6.109329569130697,1.0158107280731201,-2.7974918524371546
1708434771.8170192,-2.1416633129119873,-1.3332569611123581,-2.5257704893695276,6.109297382622518,1.0158182382583618,-2.7975297609912317
1708434771.8189917,-2.1416828632354736,-1.333252714281418,-2.5258153120623987,6.109346139221945,1.0158237218856812,-2.797530714665548
1708434771.8209949,-2.1416127681732178,-1.33331352592025,-2.5258033911334437,6.109350549965658,1.0158312320709229,-2.7975173632251185
1708434771.8230197,-2.141666889190674,-1.3332484525493165,-2.5257914702044886,6.109329569130697,1.0158226490020752,-2.7975054422961634
1708434771.825003,-2.1417043209075928,-1.3332203489593049,-2.5257988611804407,6.1092941639717,1.0158182382583618,-2.7975145022021692
1708434771.8270311,-2.14169979095459,-1.3332517457059403,-2.5258365313159388,6.109354841500082,1.0158226490020752,-2.7974563280688685
1708434771.829008,-2.1416409015655518,-1.3332365465215226,-2.5258153120623987,6.109341847687521,1.0158517360687256,-2.7974727789508265
1708434771.8309994,-2.14169979095459,-1.3332603734782715,-2.5258243719684046,6.109346139221945,1.0158474445343018,-2.7975218931781214
1708434771.8330257,-2.1416759490966797,-1.333239809875824,-2.5258153120623987,6.109346139221945,1.0158344507217407,-2.7974816004382532
1708434771.835011,-2.1416714191436768,-1.3332398247769852,-2.5258198420154017,6.109374272614279,1.0157692432403564,-2.7975145022021692
1708434771.837038,-2.1416544914245605,-1.3332279932549973,-2.5257914702044886,6.10937117317275,1.015843152999878,-2.7974608580218714
1708434771.839146,-2.1416375637054443,-1.3332484674504776,-2.525810782109396,6.109378683357992,1.015843152999878,-2.7974980513202112
1708434771.84105,-2.1416409015655518,-1.3332365316203614,-2.5258079210864466,6.109346139221945,1.015802025794983,-2.797494951878683
1708434771.8430243,-2.1416544914245605,-1.3332689118436356,-2.5257914702044886,6.109329569130697,1.0157856941223145,-2.797535244618551
1708434771.8450053,-2.141666889190674,-1.333203838472702,-2.525789801274435,6.109369981079855,1.0158226490020752,-2.7974563280688685
1708434771.8470361,-2.141666889190674,-1.333281160598137,-2.5257824102984827,6.109369981079855,1.015838861465454,-2.797535244618551
1708434771.849017,-2.1416873931884766,-1.3332646501115342,-2.5258453528033655,6.109353768616476,1.0158355236053467,-2.797474209462301
1708434771.8510041,-2.141666889190674,-1.333281160598137,-2.525810782109396,6.109426486283102,1.0158554315567017,-2.79748779932131
1708434771.853032,-2.1416919231414795,-1.3332517457059403,-2.525810782109396,6.109426605492391,1.015826940536499,-2.797462288533346
1708434771.8550267,-2.141662359237671,-1.3332279932549973,-2.525827471409933,6.109394061356344,1.015838861465454,-2.797474209462301
1708434771.8570182,-2.141657829284668,-1.3332313013127823,-2.5258153120623987,6.109397280007162,1.0158344507217407,-2.797441546116964
1708434771.8590314,-2.141711950302124,-1.3332160723260422,-2.5258198420154017,6.109462249069967,1.0158107280731201,-2.797457758580343
1708434771.8610108,-2.1416828632354736,-1.3332365316203614,-2.525832001362936,6.109462249069967,1.015826940536499,-2.797483030949728
1708434771.8630323,-2.141653299331665,-1.3332246106914063,-2.52582294145693,6.109404909401693,1.0158226490020752,-2.7974424997912806
1708434771.8650036,-2.1416332721710205,-1.3331760478070755,-2.525769058858053,6.109474289208212,1.015838861465454,-2.797466818486349
1708434771.8670158,-2.1416873931884766,-1.3332246106914063,-2.525857750569479,6.109489667206564,1.015815019607544,-2.7974334398852747
1708434771.868986,-2.1416919231414795,-1.3332398247769852,-2.5258455912219446,6.109441745072164,1.0158107280731201,-2.7974379698382776
1708434771.8709838,-2.1416218280792236,-1.3331909489682694,-2.5258033911334437,6.109444963722982,1.0158312320709229,-2.7974169890033167
1708434771.8730495,-2.1416454315185547,-1.3332569611123581,-2.52577788034548,6.109499442368307,1.0158064365386963,-2.797428909932272
1708434771.874991,-2.14169979095459,-1.3332724881223221,-2.5258153120623987,6.109486448555746,1.015838861465454,-2.797459427510397
1708434771.8769968,-2.141662359237671,-1.3332689118436356,-2.5258033911334437,6.109475362091818,1.015826940536499,-2.797445837651388
1708434771.8790183,-2.141666889190674,-1.3332613420537491,-2.5258410612689417,6.109457957535543,1.0158312320709229,-2.797450367604391
1708434771.8810005,-2.141666889190674,-1.3332569909146805,-2.525810782109396,6.109417903214254,1.015838861465454,-2.7974334398852747
1708434771.883013,-2.1417043209075928,-1.3331995618394394,-2.5257960001574915,6.1094374535377405,1.0158720016479492,-2.797450367604391
1708434771.885002,-2.1416544914245605,-1.3332731139710923,-2.5258079210864466,6.109417187958517,1.0158510208129883,-2.797441546116964
1708434771.8870249,-2.1416738033294678,-1.333220363860466,-2.525810782109396,6.109474169998922,1.0158640146255493,-2.797450367604391
1708434771.8890395,-2.141666889190674,-1.33331352592025,-2.525832001362936,6.109417187958517,1.0158588886260986,-2.797428909932272
1708434771.8910012,-2.1416828632354736,-1.3332407933524628,-2.5258365313159388,6.109486448555746,1.0158588886260986,-2.797445837651388
1708434771.8929958,-2.1416239738464355,-1.3332236421159287,-2.525810782109396,6.109446036606588,1.0158182382583618,-2.7974467913257044
1708434771.8950467,-2.1416499614715576,-1.3332193803838273,-2.52582294145693,6.109433162003317,1.0158554315567017,-2.7974966208087366
1708434771.8970034,-2.1416919231414795,-1.3332768839648743,-2.525827471409933,6.109405028610983,1.0158597230911255,-2.797454897557394
1708434771.8990176,-2.1417043209075928,-1.3332124662450333,-2.525832001362936,6.109446036606588,1.0158344507217407,-2.7974639574633997
1708434771.9010193,-2.1416828632354736,-1.3332854223302384,-2.5257988611804407,6.109446036606588,1.0158675909042358,-2.7974801699267786
1708434771.9030366,-2.141648769378662,-1.3332613420537491,-2.5258410612689417,6.109487163811483,1.0158510208129883,-2.7974424997912806
1708434771.9050288,-2.1416261196136475,-1.3332279932549973,-2.525856081639425,6.1094950316245935,1.015843152999878,-2.7974215189563196
1708434771.9070296,-2.1416828632354736,-1.3332775247148057,-2.525865141545431,6.109457957535543,1.0158257484436035,-2.7974801699267786
1708434771.9090443,-2.141666889190674,-1.333256022339203,-2.525789801274435,6.10948537567214,1.015802025794983,-2.797450367604391
1708434771.9110255,-2.1416409015655518,-1.3333048683455964,-2.525794331227438,6.109456884651937,1.0158720016479492,-2.7974053064929407
1708434771.9130633,-2.1416332721710205,-1.3332280081561585,-2.5258198420154017,6.1094374535377405,1.015843152999878,-2.7974467913257044
1708434771.9150171,-2.1416409015655518,-1.3332074594548722,-2.525832001362936,6.109421479492941,1.0158226490020752,-2.797455612813131
1708434771.9170425,-2.1416544914245605,-1.3332811754992981,-2.5258033911334437,6.109469997673788,1.0158344507217407,-2.7974124590503138
1708434771.919006,-2.141632080078125,-1.3332484525493165,-2.525806252156393,6.109396207123556,1.0158344507217407,-2.797454897557394
1708434771.9210007,-2.1416714191436768,-1.3332646501115342,-2.5258153120623987,6.109404909401693,1.0158720016479492,-2.797471348439352
1708434771.9230137,-2.1416332721710205,-1.3332570058158417,-2.525785509740011,6.1094387648399255,1.0158718824386597,-2.7974005381213587
1708434771.9250453,-2.141662359237671,-1.3332768988660355,-2.5257960001574915,6.109454738884725,1.015830159187317,-2.7974169890033167
1708434771.9270265,-2.141695261001587,-1.3332322549870987,-2.525856081639425,6.109434473305502,1.0158544778823853,-2.797445837651388
1708434771.9290233,-2.141666889190674,-1.3332365465215226,-2.525806252156393,6.109434473305502,1.0158882141113281,-2.7974424997912806
1708434771.9310198,-2.141636371612549,-1.3332560074380417,-2.52584416071047,6.109434473305502,1.0158631801605225,-2.797450367604391
1708434771.9330149,-2.141657829284668,-1.3332768839648743,-2.525848690663473,6.109430062561788,1.0158882141113281,-2.7974124590503138
1708434771.9350193,-2.1416242122650146,-1.3332038086703797,-2.525874201451437,6.109434473305502,1.015846610069275,-2.7974005381213587
1708434771.9370465,-2.1416783332824707,-1.333240808253624,-2.525853220616476,6.109434473305502,1.0158300399780273,-2.797450367604391
1708434771.9390404,-2.1416757106781006,-1.3332484525493165,-2.52582294145693,6.109397280007162,1.0158675909042358,-2.797454897557394
1708434771.941041,-2.141695261001587,-1.3332603734782715,-2.5258033911334437,6.10941909530715,1.015891671180725,-2.7974186579333704
1708434771.9430017,-2.141662359237671,-1.333244190817215,-2.525848690663473,6.109434473305502,1.0158720016479492,-2.79740816751589
1708434771.9450285,-2.1416499614715576,-1.3332451593926926,-2.5258079210864466,6.109441745072164,1.0158793926239014,-2.7974379698382776
1708434771.947014,-2.141666889190674,-1.3332603734782715,-2.5258243719684046,6.109397160797872,1.0158588886260986,-2.797445837651388
1708434771.949035,-2.1416757106781006,-1.3332725328258057,-2.525860611592428,6.109401690750875,1.0158675909042358,-2.797396246586935
1708434771.951011,-2.1416332721710205,-1.3332451742938538,-2.52582294145693,6.109355914383688,1.0158379077911377,-2.797474209462301
1708434771.9530144,-2.141666889190674,-1.333248422746994,-2.525789801274435,6.109459030419149,1.0158675909042358,-2.797459427510397
1708434771.9549944,-2.1416409015655518,-1.333251730804779,-2.525860611592428,6.109397280007162,1.015846610069275,-2.797428909932272
1708434771.957052,-2.1416590213775635,-1.3332117658904572,-2.5258365313159388,6.109410273819723,1.015842318534851,-2.797474209462301
1708434771.9590154,-2.141666889190674,-1.3332484525493165,-2.525865141545431,6.10938190200881,1.0158588886260986,-2.7974112669574183
1708434771.9610639,-2.1416544914245605,-1.3332398247769852,-2.525827471409933,6.109409200936117,1.0159121751785278,-2.797462288533346
1708434771.963035,-2.1416375637054443,-1.3332689118436356,-2.5258365313159388,6.109407055168905,1.0158336162567139,-2.797499481831686
1708434771.965023,-2.1416172981262207,-1.333268941645958,-2.525789801274435,6.10938190200881,1.0158501863479614,-2.797474209462301
1708434771.967041,-2.1416678428649902,-1.3332775247148057,-2.5258243719684046,6.109349477082052,1.015892505645752,-2.7975433508502405
1708434771.9690242,-2.1416714191436768,-1.3332897436669846,-2.525851551686422,6.1092930910880945,1.0158344507217407,-2.7975218931781214
1708434771.9710226,-2.1416125297546387,-1.333244190817215,-2.525865141545431,6.109298455506124,1.0158213376998901,-2.7975507418261927
1708434771.9730167,-2.1416103839874268,-1.333228976731636,-2.525856081639425,6.109314667969503,1.0158500671386719,-2.797537390385763
1708434771.9750264,-2.141666889190674,-1.3332569909146805,-2.52582294145693,6.109253871231832,1.0159003734588623,-2.797577444707052
1708434771.9770334,-2.1416218280792236,-1.3332854521325608,-2.525856081639425,6.109274375229635,1.015842318534851,-2.7975879351245325
1708434771.979023,-2.1416499614715576,-1.333244190817215,-2.52582294145693,6.109266745835104,1.0158706903457642,-2.7976301352130335
1708434771.9810112,-2.1416261196136475,-1.3332203489593049,-2.525848690663473,6.109343755036154,1.0158785581588745,-2.7976704279529017
1708434771.9830627,-2.1416332721710205,-1.33331352592025,-2.525851551686422,6.109274375229635,1.0158838033676147,-2.797677818928854
1708434771.9849968,-2.1416714191436768,-1.3332656037858506,-2.525835100804464,6.109254944115438,1.015878677368164,-2.797692600880758
1708434771.9870472,-2.1416828632354736,-1.3332689118436356,-2.52584416071047,6.109253752022543,1.0158675909042358,-2.797767702733175
1708434771.9890368,-2.1416714191436768,-1.3332365167192002,-2.5257988611804407,6.109307992249288,1.0158793926239014,-2.7978063265429896
1708434771.991022,-2.1416375637054443,-1.3332407933524628,-2.525806252156393,6.109302866249838,1.015919804573059,-2.797826353703634
1708434771.9930172,-2.1416544914245605,-1.333252729182579,-2.525856081639425,6.109253871231832,1.015894889831543,-2.797870937977926
1708434771.995021,-2.1416125297546387,-1.3332941395095368,-2.52577788034548,6.109258162766256,1.015891671180725,-2.7979190985309046
1708434771.997017,-2.1416873931884766,-1.333240808253624,-2.525794331227438,6.109254944115438,1.0158838033676147,-2.7979593912707728
1708434771.9990234,-2.1416499614715576,-1.3332203340581437,-2.525806252156393,6.109205829888143,1.0158793926239014,-2.7979653517352503
1708434772.0010011,-2.1416633129119873,-1.3332451742938538,-2.525810782109396,6.109222161560812,1.0158991813659668,-2.798011366521017
1708434772.0030465,-2.141662120819092,-1.3332725328258057,-2.525806252156393,6.1092145321662805,1.015891671180725,-2.798034731541769
1708434772.0050247,-2.1416375637054443,-1.3332646501115342,-2.525877062474386,6.109186279564657,1.0158501863479614,-2.7981515566455286
1708434772.0070252,-2.1416759490966797,-1.3332656633904953,-2.52582294145693,6.10916148403243,1.0158991813659668,-2.798129145299093
1708434772.0090306,-2.14164662361145,-1.3332236123136063,-2.525839630757467,6.1092145321662805,1.015878677368164,-2.7981937567340296
1708434772.0110385,-2.141666889190674,-1.3332732182792206,-2.525860611592428,6.109183060913839,1.0158872604370117,-2.7982612291919153
1708434772.0130193,-2.1416802406311035,-1.333228976731636,-2.525856081639425,6.109183060913839,1.0159196853637695,-2.7983675638781946
1708434772.015039,-2.1416544914245605,-1.3332731884768982,-2.52582294145693,6.109199273377218,1.0158544778823853,-2.7984138170825403
1708434772.0170088,-2.141651153564453,-1.333199532037117,-2.52580172220339,6.109187590866842,1.015907883644104,-2.798473898564474
1708434772.0190282,-2.141651153564453,-1.3332854521325608,-2.525865141545431,6.109162556916036,1.0159403085708618,-2.7985532919513147
1708434772.0210443,-2.1416635513305664,-1.3332117658904572,-2.525839630757467,6.109138476639547,1.0158785581588745,-2.7986579577075403
1708434772.0230107,-2.1416237354278564,-1.3332570058158417,-2.525839630757467,6.109134065895834,1.0159242153167725,-2.798784319554464
1708434772.0250123,-2.1415889263153076,-1.3332897436669846,-2.525853220616476,6.109192836075582,1.015906810760498,-2.798784081135885
1708434772.027003,-2.141651153564453,-1.3332603883794327,-2.525810782109396,6.109163391381063,1.0159153938293457,-2.7990174929248255
1708434772.029022,-2.1416397094726562,-1.3332397949746628,-2.525806252156393,6.109117734223165,1.0159111022949219,-2.7990360895739954
1708434772.031019,-2.1416261196136475,-1.3332570058158417,-2.525835100804464,6.109090792923727,1.0159196853637695,-2.7991719881640833
1708434772.0330296,-2.1416420936584473,-1.3332441759160538,-2.52580172220339,6.109118926316061,1.0159111022949219,-2.7992706934558313
1708434772.0349896,-2.1416261196136475,-1.3332725179246445,-2.52582294145693,6.109127628594198,1.0158979892730713,-2.7993961016284388
1708434772.037075,-2.1416215896606445,-1.333216057424881,-2.52584416071047,6.109136211663046,1.015906810760498,-2.799490276967184
1708434772.0390391,-2.1415765285491943,-1.3332811754992981,-2.525860611592428,6.109086382180013,1.0158860683441162,-2.7996187845813196
1708434772.041018,-2.1416146755218506,-1.333288700585701,-2.52584416071047,6.109065878182211,1.0159022808074951,-2.799774948750631
1708434772.0430088,-2.1416261196136475,-1.333245189195015,-2.525839630757467,6.1090712426002405,1.015918493270874,-2.7999442259417933
1708434772.045011,-2.141639471054077,-1.333252729182579,-2.52582294145693,6.109087455063619,1.0159273147583008,-2.800058428441183
1708434772.0470104,-2.1416280269622803,-1.3332080853036423,-2.5258153120623987,6.109059083252706,1.0158936977386475,-2.800267998372213
1708434772.0490205,-2.1415765285491943,-1.3332441759160538,-2.525856081639425,6.109062540322103,1.0159399509429932,-2.800389591847555
1708434772.0510566,-2.1416397094726562,-1.3332280230573197,-2.525835100804464,6.109112489014425,1.015969157218933,-2.80058724084963
1708434772.0530336,-2.1415810585021973,-1.3332080853036423,-2.525818411503927,6.109047162323751,1.015923023223877,-2.800807778035299
