Eg3-git/Classifiers/Data Collection/u2/u2www2_ur3e_joint_states.csv
time,elbow_joint,shoulder_lift_joint,shoulder_pan_joint,wrist_1_joint,wrist_2_joint,wrist_3_joint
1708435111.2692144,-2.141523599624634,-1.3336266887239,-2.52718168893923,6.110438930779257,1.0183186531066895,-2.4471944014178675
1708435111.271192,-2.1415317058563232,-1.3336593818715592,-2.527231041585104,6.11043010929183,1.0182949304580688,-2.4471445719348353
1708435111.2731879,-2.14154052734375,-1.3336549562266846,-2.527177874241964,6.110464083939352,1.0183277130126953,-2.447174374257223
1708435111.2751749,-2.1414875984191895,-1.333684654240944,-2.5272114912616175,6.11043010929183,1.0183366537094116,-2.447178904210226
1708435111.2772048,-2.14151930809021,-1.3337013286403199,-2.527182165776388,6.110418069153585,1.018356204032898,-2.4471564928637903
1708435111.2791932,-2.1414663791656494,-1.3336311143687745,-2.5272353331195276,6.110389458924093,1.0183366537094116,-2.4471445719348353
1708435111.2811754,-2.1414990425109863,-1.333601177935936,-2.527247492467062,6.11041938045577,1.0183354616165161,-2.447153631840841
1708435111.2831886,-2.1414990425109863,-1.333644376402237,-2.527214829121725,6.1103776572044275,1.0183113813400269,-2.4471235910998743
1708435111.2851915,-2.1414833068847656,-1.333610014324524,-2.527231041585104,6.110427129059591,1.0183321237564087,-2.4471235910998743
1708435111.2871978,-2.1414859294891357,-1.3336430352977295,-2.5272191206561487,6.110393988877096,1.018381953239441,-2.4471643606769007
1708435111.2891865,-2.1414620876312256,-1.3336713028005143,-2.5272191206561487,6.1103776572044275,1.0183444023132324,-2.4471400419818323
1708435111.2911828,-2.141453981399536,-1.3336430352977295,-2.5272234121905726,6.110348927765646,1.0183775424957275,-2.4470999876605433
1708435111.293231,-2.141507863998413,-1.3336801391891022,-2.52722675005068,6.110320675164022,1.018356204032898,-2.4471734205829065
1708435111.2951798,-2.141510486602783,-1.3336638373187562,-2.5272520224200647,6.1103341458137415,1.0183517932891846,-2.447149101887838
1708435111.297235,-2.1415317058563232,-1.333680124287941,-2.527226511632101,6.110329735070028,1.0183517932891846,-2.447146240864889
1708435111.2991831,-2.1414787769317627,-1.333644376402237,-2.5272682348834437,6.1103460667426965,1.0183398723602295,-2.4471610228167933
1708435111.30123,-2.1414990425109863,-1.333610014324524,-2.527238670979635,6.11032651641921,1.0183398723602295,-2.447149101887838
1708435111.303231,-2.14150333404541,-1.3336311143687745,-2.527231041585104,6.1103505966956995,1.0183517932891846,-2.447149101887838
1708435111.3052442,-2.141462802886963,-1.3336519759944458,-2.527247492467062,6.110329735070028,1.018356204032898,-2.447174374257223
1708435111.3072293,-2.1414833068847656,-1.3336638075164338,-2.5272234121905726,6.110338675766744,1.0183684825897217,-2.4471119085894983
1708435111.3091884,-2.1414833068847656,-1.3336133372834702,-2.5272560755359095,6.110343205719747,1.0183321237564087,-2.44716984430422
1708435111.3111842,-2.1414875984191895,-1.3336835515550156,-2.527238432561056,6.110305893212118,1.0183639526367188,-2.4471400419818323
1708435111.3132114,-2.1414918899536133,-1.3336638075164338,-2.527210537587301,6.110364067345419,1.0183639526367188,-2.447157923375265
1708435111.3152068,-2.14150333404541,-1.3336683523705979,-2.5272472540484827,6.110274302750387,1.0183472633361816,-2.4471870104419153
1708435111.31719,-2.141535997390747,-1.3336713177016755,-2.527238670979635,6.110265362053671,1.0183444023132324,-2.447149101887838
1708435111.3191717,-2.141515016555786,-1.333651990895607,-2.527242962514059,6.110236990242758,1.0183277130126953,-2.447178665791647
1708435111.321214,-2.141458511352539,-1.333680198793747,-2.527283493672506,6.110229599266805,1.0183517932891846,-2.4471779505359095
1708435111.323221,-2.141523599624634,-1.3336266887239,-2.52722675005068,6.110250460892477,1.0183354616165161,-2.447149101887838
1708435111.3252077,-2.1414875984191895,-1.3336055439761658,-2.5272966066943567,6.110229599266805,1.0183354616165161,-2.4471870104419153
1708435111.32722,-2.141510486602783,-1.3336638075164338,-2.527238670979635,6.110274302750387,1.0183517932891846,-2.447141710911886
1708435111.3291912,-2.141496419906616,-1.3336475056460877,-2.527231041585104,6.110243069916525,1.0183594226837158,-2.447125260029928
1708435111.331184,-2.1414222717285156,-1.3336341840079804,-2.527246061955587,6.110238539963522,1.018302321434021,-2.44714600244631
1708435111.3332293,-2.1414921283721924,-1.3336846244386216,-2.527238670979635,6.110247599869528,1.018356204032898,-2.447165552769796
1708435111.335187,-2.1414875984191895,-1.3336474609426041,-2.527238670979635,6.110238539963522,1.0183262825012207,-2.4471071402179163
1708435111.3372223,-2.1414875984191895,-1.3336549711278458,-2.527242962514059,6.110259520798483,1.018381953239441,-2.447191301976339
1708435111.3391895,-2.141462802886963,-1.3336266887239,-2.527292315159933,6.110198485642233,1.0183684825897217,-2.447150532399313
1708435111.3412418,-2.141523599624634,-1.3336757284453888,-2.527276102696554,6.110156285553732,1.0183851718902588,-2.44713265100588
1708435111.343219,-2.1414990425109863,-1.3336637777141114,-2.5272629896747034,6.110207307129659,1.0183717012405396,-2.447141710911886
1708435111.3451679,-2.1414496898651123,-1.333617852335312,-2.5272136370288294,6.110229599266805,1.0183308124542236,-2.447129789982931
1708435111.3472226,-2.1414222717285156,-1.3336266887239,-2.5272629896747034,6.110223400383749,1.0183696746826172,-2.447141710911886
1708435111.349182,-2.1414709091186523,-1.3336311143687745,-2.5272374788867396,6.110223400383749,1.0183472633361816,-2.447125260029928
1708435111.3511808,-2.1414337158203125,-1.3336296838572999,-2.527238670979635,6.110207307129659,1.0183186531066895,-2.447134081517355
1708435111.3532176,-2.1414620876312256,-1.3336474609426041,-2.5272472540484827,6.110174166947164,1.0183308124542236,-2.447109047566549
1708435111.3552144,-2.1414918899536133,-1.3336341840079804,-2.527259174977438,6.110195386200704,1.0183594226837158,-2.447149101887838
1708435111.3572176,-2.141453981399536,-1.3336311292699357,-2.527250353490011,6.110236871033468,1.0183186531066895,-2.447166983281271
1708435111.3591857,-2.14150071144104,-1.3336638075164338,-2.527242962514059,6.110211837082662,1.0183398723602295,-2.447129789982931
1708435111.3611674,-2.141458511352539,-1.3336430352977295,-2.5272179285632532,6.110187756806173,1.0183095932006836,-2.447137180958883
1708435111.363197,-2.1414990425109863,-1.333656297331192,-2.527242962514059,6.110207307129659,1.0183775424957275,-2.4471550623523157
1708435111.3651762,-2.1414382457733154,-1.3336222630790253,-2.527254883443014,6.110189306526937,1.0183427333831787,-2.44708496729006
1708435111.3672137,-2.141523838043213,-1.3336683076671143,-2.527254883443014,6.110208976059713,1.0183775424957275,-2.44714600244631
1708435111.3692164,-2.141496419906616,-1.3336683076671143,-2.527210537587301,6.110180365830221,1.0183517932891846,-2.447129789982931
1708435111.3711946,-2.141453981399536,-1.333617852335312,-2.527299706135885,6.110150444298544,1.0183684825897217,-2.4470680395709437
1708435111.373202,-2.141505241394043,-1.33365053058181,-2.5272463003741663,6.110154855042257,1.0183897018432617,-2.4470725695239466
1708435111.3751783,-2.1414663791656494,-1.3336189550212403,-2.5272062460528772,6.1101921675498865,1.0183308124542236,-2.4470680395709437
1708435111.3772247,-2.1415369510650635,-1.3336266887239,-2.5272629896747034,6.110151755600729,1.0183684825897217,-2.4471104780780237
1708435111.379182,-2.14150071144104,-1.333617852335312,-2.527254883443014,6.110126244812765,1.0183472633361816,-2.4470680395709437
1708435111.3811915,-2.14150071144104,-1.3336757284453888,-2.527222458516256,6.110060679703512,1.0183444023132324,-2.4470770994769495
1708435111.3832095,-2.141505241394043,-1.333610014324524,-2.527271572743551,6.110123383789816,1.0183942317962646,-2.447057310734884
1708435111.3851957,-2.141475200653076,-1.3336056035808106,-2.527222458516256,6.110139715462484,1.0183517932891846,-2.4470651785479944
1708435111.3872159,-2.1414875984191895,-1.3336757284453888,-2.527271572743551,6.110111462860861,1.0183262825012207,-2.4470606485949915
1708435111.3891842,-2.141496419906616,-1.3336801391891022,-2.527242962514059,6.110106932907858,1.0183141231536865,-2.4470437208758753
1708435111.3911755,-2.141458511352539,-1.3336222630790253,-2.5272634665118616,6.110177385597982,1.0183141231536865,-2.447066132222311
1708435111.3931768,-2.1414918899536133,-1.3336519759944458,-2.527234141026632,6.110127913742819,1.0183684825897217,-2.4470742384540003
1708435111.3951979,-2.141479730606079,-1.3336266887239,-2.5272472540484827,6.110114443093099,1.0183354616165161,-2.447052780781881
1708435111.3971922,-2.1414875984191895,-1.3336549562266846,-2.52722675005068,6.110177385597982,1.018356204032898,-2.447040859852926
1708435111.3991818,-2.1414620876312256,-1.3336266887239,-2.5272396246539515,6.110130893975057,1.0183067321777344,-2.447028938923971
1708435111.401213,-2.141453981399536,-1.3336055737784882,-2.5272191206561487,6.1101863262946985,1.0183113813400269,-2.4470706621753138
1708435111.4032452,-2.1414990425109863,-1.3336923879436036,-2.5272634665118616,6.110126244812765,1.0183489322662354,-2.446996275578634
1708435111.405254,-2.14150333404541,-1.3336253029159089,-2.527238670979635,6.110107052117147,1.0183231830596924,-2.44703179994692
1708435111.4072208,-2.141458511352539,-1.333647446041443,-2.527231041585104,6.110115873604574,1.0183517932891846,-2.4469872156726282
1708435111.4092348,-2.1415529251098633,-1.3336342138103028,-2.5272353331195276,6.110090601235189,1.0183472633361816,-2.447049681340353
1708435111.4111798,-2.141462802886963,-1.3336056035808106,-2.52722675005068,6.110120403557577,1.0183730125427246,-2.447000567113058
1708435111.4132135,-2.1414337158203125,-1.3336222630790253,-2.527231041585104,6.110123383789816,1.0183697938919067,-2.447000567113058
1708435111.4151907,-2.141496419906616,-1.333656297331192,-2.527280394230978,6.110118973046102,1.0183608531951904,-2.4470422903644007
1708435111.4172204,-2.141462802886963,-1.3336683076671143,-2.5272634665118616,6.110108482628622,1.0183186531066895,-2.447012488042013
1708435111.419195,-2.141458511352539,-1.3336474609426041,-2.527242962514059,6.110102522164144,1.0183366537094116,-2.447045389805929
1708435111.4211786,-2.1414268016815186,-1.3336056035808106,-2.5272677580462855,6.110086190491476,1.0183157920837402,-2.446988646184103
1708435111.4231877,-2.141458511352539,-1.333601177935936,-2.527214829121725,6.1100995419319055,1.0183277130126953,-2.447021547948019
1708435111.4251933,-2.141447067260742,-1.3336222630790253,-2.52722675005068,6.110093462258138,1.0183067321777344,-2.4469807783709925
1708435111.4272134,-2.1414883136749268,-1.3336222630790253,-2.527214829121725,6.110127794533529,1.0182784795761108,-2.4470258394824427
1708435111.4291906,-2.1414310932159424,-1.3336311143687745,-2.52722675005068,6.110102522164144,1.0183897018432617,-2.4470422903644007
1708435111.431178,-2.141453981399536,-1.333601177935936,-2.5272515455829065,6.110157716065206,1.0183277130126953,-2.4470513502704065
1708435111.4331796,-2.1415369510650635,-1.3336430352977295,-2.5272722879992884,6.110132324486532,1.0182859897613525,-2.4469853083239954
1708435111.4351788,-2.141453981399536,-1.3336638075164338,-2.527242962514059,6.110115873604574,1.0183489322662354,-2.446984354649679
1708435111.437196,-2.141523838043213,-1.3336341840079804,-2.5272472540484827,6.110107052117147,1.0183366537094116,-2.4469931761371058
1708435111.439194,-2.1414382457733154,-1.3336683076671143,-2.5272191206561487,6.110107052117147,1.0182949304580688,-2.447033468876974
1708435111.4411936,-2.141453981399536,-1.333647446041443,-2.5272472540484827,6.110145675926962,1.018290400505066,-2.4469671885119837
1708435111.4432168,-2.1414794921875,-1.3336683076671143,-2.5272515455829065,6.110123383789816,1.0183533430099487,-2.4469931761371058
1708435111.4451878,-2.1414670944213867,-1.3336144250682374,-2.5272017160998743,6.110095011978903,1.0183067321777344,-2.4470096270190638
1708435111.4472036,-2.1414918899536133,-1.3336713028005143,-2.527231041585104,6.110127794533529,1.0183113813400269,-2.4469807783709925
1708435111.4491808,-2.141479730606079,-1.3335984212211152,-2.5272472540484827,6.110057818680563,1.018341064453125,-2.4469977060901087
1708435111.4512212,-2.141475200653076,-1.3336356294206162,-2.52720553079714,6.110111462860861,1.0183277130126953,-2.446946446095602
1708435111.453213,-2.1414875984191895,-1.3336356294206162,-2.5272560755359095,6.110127794533529,1.0183113813400269,-2.4469597975360315
1708435111.4551678,-2.141462802886963,-1.3336386394551774,-2.5271909872638147,6.110111462860861,1.0183038711547852,-2.4470141569720667
1708435111.4572086,-2.141462802886963,-1.3336549562266846,-2.527242962514059,6.110086190491476,1.0182994604110718,-2.447005097066061
1708435111.4591913,-2.1414833068847656,-1.3336430352977295,-2.527182404194967,6.110139834671774,1.0183608531951904,-2.446934525166647
1708435111.461174,-2.1414709091186523,-1.3336713028005143,-2.5272191206561487,6.110103952675619,1.0182740688323975,-2.4470558802234095
1708435111.4631767,-2.141447067260742,-1.3336757135442276,-2.527186457310812,6.110169636994161,1.0182875394821167,-2.4469552675830286
1708435111.4651706,-2.1414670944213867,-1.333651990895607,-2.5272071997271937,6.110111462860861,1.01829195022583,-2.4469853083239954
1708435111.4672015,-2.141462802886963,-1.3336356294206162,-2.527193609868185,6.110086190491476,1.018302321434021,-2.4470022360431116
1708435111.469184,-2.1414709091186523,-1.3336266887239,-2.527198616658346,6.110132324486532,1.0182949304580688,-2.4470141569720667
1708435111.4712017,-2.141417980194092,-1.3336638075164338,-2.527214829121725,6.11007713058547,1.0183038711547852,-2.4469597975360315
1708435111.4732075,-2.1414794921875,-1.3336100590280076,-2.5272353331195276,6.110123383789816,1.0182795524597168,-2.4470141569720667
1708435111.4751697,-2.1414670944213867,-1.3336222928813477,-2.52720290819277,6.110098111420431,1.0183321237564087,-2.4469717184649866
1708435111.4771578,-2.141484022140503,-1.3336474609426041,-2.527276579533712,6.110111462860861,1.0183321237564087,-2.4469717184649866
1708435111.4792092,-2.1414268016815186,-1.3336801391891022,-2.5272191206561487,6.110086190491476,1.0183038711547852,-2.4469850699054163
1708435111.4811687,-2.1414716243743896,-1.3336222630790253,-2.5272515455829065,6.110123383789816,1.018312931060791,-2.4470186869250696
1708435111.4832006,-2.141451358795166,-1.333617852335312,-2.5272191206561487,6.110098111420431,1.0183038711547852,-2.4469552675830286
1708435111.485214,-2.141484022140503,-1.3336713028005143,-2.527242962514059,6.1101040718849084,1.0182795524597168,-2.446994129811422
1708435111.487164,-2.141496419906616,-1.3335940104774018,-2.5272117296801966,6.110118973046102,1.0182795524597168,-2.4469931761371058
1708435111.4891975,-2.1414918899536133,-1.3336801391891022,-2.5272191206561487,6.110098111420431,1.0183038711547852,-2.4469807783709925
1708435111.491172,-2.1414706707000732,-1.333610014324524,-2.527194086705343,6.110111462860861,1.0182795524597168,-2.4469762484179896
1708435111.4932144,-2.1414670944213867,-1.3336266887239,-2.5271785894977015,6.110102522164144,1.0182875394821167,-2.4469977060901087
1708435111.4951818,-2.1414918899536133,-1.3336189550212403,-2.52720290819277,6.110102522164144,1.0183082818984985,-2.4469361940967005
1708435111.497188,-2.141484022140503,-1.3336519759944458,-2.5271909872638147,6.110156166344442,1.0183038711547852,-2.4469433466540735
1708435111.4991822,-2.1414670944213867,-1.333684654240944,-2.52720290819277,6.110174047737875,1.0182965993881226,-2.4469450155841272
1708435111.5011952,-2.141447067260742,-1.3336233061603089,-2.5272398630725306,6.110156166344442,1.0182830095291138,-2.4470186869250696
1708435111.5032272,-2.141439914703369,-1.3336801391891022,-2.527236525212423,6.110115873604574,1.0182749032974243,-2.446994129811422
1708435111.505204,-2.1414055824279785,-1.3336356294206162,-2.5272114912616175,6.110107052117147,1.0182965993881226,-2.4469524065600794
1708435111.5072093,-2.141462802886963,-1.3336311292699357,-2.5272071997271937,6.110123383789816,1.018237590789795,-2.446988646184103
1708435111.5092242,-2.1414875984191895,-1.333684654240944,-2.527170006428854,6.110102522164144,1.0182585716247559,-2.4469226042376917
1708435111.5111976,-2.141447067260742,-1.3336012226394196,-2.5271995703326624,6.110093462258138,1.018288493156433,-2.4469853083239954
1708435111.513185,-2.141484022140503,-1.3336713028005143,-2.527236525212423,6.110118973046102,1.018288493156433,-2.4469733873950403
1708435111.5151625,-2.141484022140503,-1.3336266440204163,-2.5271666685687464,6.110132324486532,1.0182965993881226,-2.4470022360431116
1708435111.51716,-2.141451358795166,-1.3336444211057206,-2.5272071997271937,6.110139834671774,1.0183054208755493,-2.4469614664660853
1708435111.5192149,-2.1414794921875,-1.3335895997336884,-2.5271995703326624,6.110118973046102,1.0182631015777588,-2.4469853083239954
1708435111.5211906,-2.1414918899536133,-1.3335940104774018,-2.5272322336779993,6.110053407936849,1.0182304382324219,-2.446994129811422
1708435111.5231886,-2.1414918899536133,-1.333656297331192,-2.5271995703326624,6.110086190491476,1.018276572227478,-2.4469853083239954
1708435111.5251834,-2.14151668548584,-1.3336189550212403,-2.5272114912616175,6.110098111420431,1.0182512998580933,-2.4469316641436976
1708435111.5271964,-2.141418695449829,-1.333601177935936,-2.5271788279162806,6.110130893975057,1.0182528495788574,-2.4470067659961146
1708435111.5291824,-2.141484022140503,-1.3336266887239,-2.52717096010317,6.110160696297445,1.0182393789291382,-2.4469671885119837
1708435111.5311785,-2.141447067260742,-1.3336519759944458,-2.5271952787982386,6.110127913742819,1.0182106494903564,-2.4470141569720667
1708435111.53321,-2.1414875984191895,-1.33363992095504,-2.527236525212423,6.110118973046102,1.0181939601898193,-2.4469481150256556
1708435111.5352309,-2.1414268016815186,-1.3336399656585236,-2.5271952787982386,6.110118973046102,1.0182030200958252,-2.4469524065600794
1708435111.537203,-2.141507863998413,-1.3336356294206162,-2.5271952787982386,6.110106932907858,1.018195629119873,-2.4469597975360315
1708435111.5391884,-2.141484022140503,-1.3336222630790253,-2.5272043387042444,6.110142695694723,1.0182287693023682,-2.4469614664660853
1708435111.5412345,-2.1414794921875,-1.333586649303772,-2.527186695729391,6.110135304718771,1.0182075500488281,-2.4469733873950403
1708435111.543216,-2.1414268016815186,-1.3335940104774018,-2.527170006428854,6.110181796341696,1.0182119607925415,-2.4469597975360315
1708435111.5451827,-2.141512155532837,-1.3336232912591477,-2.5272203127490442,6.110102522164144,1.018178939819336,-2.4469361940967005
1708435111.5472214,-2.141451358795166,-1.3336682480624695,-2.52717096010317,6.110135304718771,1.018195629119873,-2.4469977060901087
1708435111.5491903,-2.1414883136749268,-1.33365053058181,-2.527240816746847,6.110123383789816,1.0181910991668701,-2.4469478766070765
1708435111.551182,-2.1414222717285156,-1.3336726439050217,-2.5271874109851282,6.11013816574172,1.018162488937378,-2.4469268957721155
1708435111.553185,-2.141458511352539,-1.3336550307324906,-2.5271742979632776,6.110114443093099,1.0182164907455444,-2.4469762484179896
1708435111.5551853,-2.1414425373077393,-1.3336100590280076,-2.527186695729391,6.110165226250448,1.0181552171707153,-2.4469242731677454
1708435111.5572307,-2.141458511352539,-1.3336474609426041,-2.5271952787982386,6.110172855644979,1.018178939819336,-2.4469569365130823
1708435111.5591908,-2.14150071144104,-1.333610014324524,-2.5271459261523646,6.110168444901266,1.0181834697723389,-2.4469977060901087
1708435111.5611846,-2.1414055824279785,-1.3336505901864548,-2.5272114912616175,6.110142695694723,1.018162488937378,-2.4469316641436976
1708435111.5632048,-2.1414425373077393,-1.3336311143687745,-2.527208391820089,6.110147225647726,1.0181759595870972,-2.4469895998584192
1708435111.565197,-2.14145565032959,-1.3336311143687745,-2.5271666685687464,6.110126244812765,1.0181294679641724,-2.446977678929464
1708435111.5672307,-2.1414382457733154,-1.333659366970398,-2.52717096010317,6.110172855644979,1.018178939819336,-2.446934525166647
1708435111.5691786,-2.14145565032959,-1.3336683225682755,-2.5271909872638147,6.11015938499526,1.0181506872177124,-2.446994129811422
1708435111.571211,-2.1414670944213867,-1.333601252441742,-2.5272114912616175,6.110135304718771,1.0181806087493896,-2.4469688574420374
1708435111.5731907,-2.141484022140503,-1.3336968135884781,-2.5271666685687464,6.110118853836813,1.018195629119873,-2.446977678929464
1708435111.5751767,-2.141453981399536,-1.3336356294206162,-2.5272041002856653,6.110175835877218,1.0181878805160522,-2.4469895998584192
1708435111.5772011,-2.1414709091186523,-1.3336100739291687,-2.5271621386157435,6.1101876375968835,1.0181552171707153,-2.4469569365130823
1708435111.5792143,-2.14150071144104,-1.3336923879436036,-2.527159039174215,6.110150444298544,1.0181506872177124,-2.4469450155841272
1708435111.581195,-2.1414875984191895,-1.3336222630790253,-2.527236525212423,6.110177385597982,1.018142819404602,-2.4469895998584192
1708435111.5832257,-2.1414883136749268,-1.3336356294206162,-2.5271504561053675,6.110208856850424,1.0181429386138916,-2.4469688574420374
1708435111.5852165,-2.141475200653076,-1.333617852335312,-2.527224604283468,6.110163914948263,1.0181760787963867,-2.4469895998584192
1708435111.5872226,-2.141451358795166,-1.3336637777141114,-2.5271788279162806,6.110196697502889,1.0181429386138916,-2.4469614664660853
1708435111.5891986,-2.141523838043213,-1.3336519312909623,-2.5271666685687464,6.110174166947164,1.0181851387023926,-2.4469762484179896
1708435111.591178,-2.14151668548584,-1.3336056035808106,-2.5271831194507044,6.110175835877218,1.0181474685668945,-2.4469242731677454
1708435111.5932033,-2.141496419906616,-1.3336430352977295,-2.5271297136889856,6.110142695694723,1.0181641578674316,-2.4469433466540735
1708435111.59518,-2.1414794921875,-1.3336474609426041,-2.527224604283468,6.110154855042257,1.0181641578674316,-2.4469895998584192
1708435111.5972354,-2.14150071144104,-1.3336637926152726,-2.527191702519552,6.110166775971212,1.0181806087493896,-2.4469807783709925
1708435111.599175,-2.1414709091186523,-1.33363992095504,-2.52717096010317,6.110225307732382,1.0181127786636353,-2.4469643274890345
1708435111.601239,-2.1415324211120605,-1.3336341840079804,-2.5271502176867884,6.110199916153707,1.0181307792663574,-2.4469361940967005
1708435111.6032417,-2.141447067260742,-1.333647446041443,-2.5271459261523646,6.1101698754127405,1.0181384086608887,-2.4470067659961146
1708435111.6051872,-2.141447067260742,-1.3336012375405808,-2.5271788279162806,6.1101921675498865,1.0181834697723389,-2.446977678929464
1708435111.6072123,-2.1414833068847656,-1.3336683523705979,-2.527175251637594,6.110195386200704,1.0181596279144287,-2.4470186869250696
1708435111.6092126,-2.1414670944213867,-1.3336726141026993,-2.527159039174215,6.110211837082662,1.0181217193603516,-2.4469597975360315
1708435111.6111805,-2.141512155532837,-1.3336266738227387,-2.5271382967578333,6.1102144596870325,1.0181429386138916,-2.4469361940967005
1708435111.6131954,-2.141484022140503,-1.3336712282947083,-2.5271459261523646,6.1102144596870325,1.0181596279144287,-2.4469853083239954
1708435111.6151745,-2.141484022140503,-1.3336189550212403,-2.5271547476397913,6.110234129219808,1.0181353092193604,-2.4470112959491175
1708435111.6172006,-2.141462802886963,-1.333605633383133,-2.52714711824526,6.110182988434591,1.0181596279144287,-2.4469643274890345
1708435111.6191711,-2.1414921283721924,-1.3336924326470871,-2.5271874109851282,6.110316383629598,1.018196940422058,-2.4469977060901087
1708435111.6211815,-2.1414918899536133,-1.3336756986430665,-2.5271621386157435,6.110241400986471,1.0181474685668945,-2.4469853083239954
1708435111.6232233,-2.141505241394043,-1.3336311292699357,-2.5271547476397913,6.110248911171713,1.0181429386138916,-2.4470067659961146
1708435111.62518,-2.141496419906616,-1.3336356294206162,-2.5271382967578333,6.110257851868429,1.0181429386138916,-2.4469688574420374
1708435111.6272233,-2.1414794921875,-1.333638609652855,-2.527163569127218,6.110269772797384,1.0181519985198975,-2.4469762484179896
1708435111.6291893,-2.1414496898651123,-1.333647446041443,-2.5271177927600306,6.110295522003927,1.0181506872177124,-2.4470022360431116
1708435111.6311793,-2.1414425373077393,-1.3336266887239,-2.5271263758288782,6.110295522003927,1.0181143283843994,-2.4469569365130823
1708435111.6332188,-2.1414875984191895,-1.3336845946362992,-2.5271220842944544,6.110330927162924,1.0181806087493896,-2.4469807783709925
1708435111.6351764,-2.141453981399536,-1.3336011630347748,-2.527196232472555,6.110253441124716,1.0181519985198975,-2.4469895998584192
1708435111.6372097,-2.1414709091186523,-1.3336189550212403,-2.527135197316305,6.110294091492452,1.0181641578674316,-2.4470484892474573
1708435111.6391923,-2.141475200653076,-1.3336430352977295,-2.527142588292257,6.110294091492452,1.018097996711731,-2.4469597975360315
1708435111.6411984,-2.141512155532837,-1.333610014324524,-2.527130667363302,6.1102731106574915,1.0181307792663574,-2.446982208882467
1708435111.6432061,-2.1414716243743896,-1.3336356294206162,-2.527130667363302,6.1103014824684045,1.018118977546692,-2.4469597975360315
1708435111.6451845,-2.141507863998413,-1.3335866046002884,-2.527097527180807,6.110298383026876,1.018118977546692,-2.4469733873950403
1708435111.647174,-2.1414875984191895,-1.333662287597992,-2.527118508015768,6.110334265023031,1.0181397199630737,-2.4469643274890345
1708435111.6491947,-2.141512393951416,-1.3336311143687745,-2.527106587086813,6.110321986466207,1.0181159973144531,-2.4469895998584192
1708435111.6512132,-2.1414875984191895,-1.3336800646832963,-2.5271156469928187,6.1102895615394495,1.018118977546692,-2.4469895998584192
1708435111.653211,-2.1415367126464844,-1.3336190295270463,-2.5270498434649866,6.110347616463461,1.0181307792663574,-2.4469569365130823
1708435111.6551745,-2.1415281295776367,-1.333626703625061,-2.5270841757403772,6.110321986466207,1.0180857181549072,-2.4469569365130823
1708435111.6572266,-2.1414918899536133,-1.3336266887239,-2.5270589033709925,6.1103728888328455,1.018103837966919,-2.4469433466540735
1708435111.6591914,-2.1414337158203125,-1.333659366970398,-2.5270307699786585,6.110321986466207,1.0180813074111938,-2.4469895998584192
1708435111.6611784,-2.1414382457733154,-1.3336430054954072,-2.5270751158343714,6.1103237746055505,1.018078327178955,-2.4469404856311243
1708435111.6632164,-2.141458511352539,-1.3336055886796494,-2.527039353047506,6.110330927162924,1.0181025266647339,-2.4470155874835413
1708435111.66518,-2.1414794921875,-1.3336801391891022,-2.527059857045309,6.110321986466207,1.0181143283843994,-2.4470067659961146
1708435111.6671996,-2.141475200653076,-1.3336356294206162,-2.52704364458193,6.110321986466207,1.0181097984313965,-2.4469643274890345
1708435111.6691992,-2.141458511352539,-1.3336178225329895,-2.5270074049579065,6.110310423165121,1.0181609392166138,-2.446977678929464
1708435111.671207,-2.14151668548584,-1.3335966926864167,-2.5270398298846644,6.110314833908834,1.0181397199630737,-2.4469481150256556
1708435111.6732152,-2.14150333404541,-1.3336519610932847,-2.52702242532839,6.1103625176246545,1.0181442499160767,-2.4469316641436976
1708435111.675172,-2.141453981399536,-1.3336341691068192,-2.5270686785327356,6.110380279808798,1.0181398391723633,-2.4469285647021692
1708435111.6772237,-2.141505241394043,-1.3336267185262223,-2.5270350615130823,6.110338675766744,1.0181609392166138,-2.4469569365130823
1708435111.6791918,-2.1414833068847656,-1.333683432345726,-2.5270686785327356,6.1103014824684045,1.0181307792663574,-2.4469524065600794
1708435111.6812117,-2.141475200653076,-1.3336222928813477,-2.5270355383502405,6.1103893397148035,1.0181324481964111,-2.4470022360431116
1708435111.6832304,-2.1414921283721924,-1.3336222928813477,-2.52704364458193,6.1103505966956995,1.018078327178955,-2.4469614664660853
1708435111.6851795,-2.1414663791656494,-1.3335984212211152,-2.527018133793966,6.110317456513204,1.0180829763412476,-2.446933094655172
1708435111.6872098,-2.1414794921875,-1.3336474311402817,-2.5270524660693567,6.110380399018087,1.018099308013916,-2.4469895998584192
1708435111.6891983,-2.1414496898651123,-1.3336189848235627,-2.527039353047506,6.110305893212118,1.0181487798690796,-2.446982208882467
1708435111.691194,-2.1414098739624023,-1.3336879324964066,-2.5270686785327356,6.110329735070028,1.018094778060913,-2.4469614664660853
1708435111.6931965,-2.1414875984191895,-1.3336056631854554,-2.526990000401632,6.110343205719747,1.0181082487106323,-2.4469614664660853
1708435111.695186,-2.1414918899536133,-1.3336519759944458,-2.52706748643984,6.110375988274374,1.0180829763412476,-2.4469597975360315
1708435111.6972244,-2.1414833068847656,-1.3336430352977295,-2.52706748643984,6.110376107483663,1.0181114673614502,-2.4469688574420374
1708435111.6991932,-2.141453981399536,-1.3336222630790253,-2.527026955281393,6.110329735070028,1.018087387084961,-2.4469481150256556
1708435111.7012022,-2.1414453983306885,-1.3335865896991272,-2.5270686785327356,6.110357987671652,1.0181037187576294,-2.4469643274890345
1708435111.7032452,-2.141475200653076,-1.3336835515550156,-2.526986900960104,6.110305893212118,1.018087387084961,-2.4469688574420374
1708435111.7052212,-2.141453981399536,-1.333553598528244,-2.5270524660693567,6.110355007439413,1.0180829763412476,-2.4468990007983606
1708435111.707224,-2.1414451599121094,-1.333671287899353,-2.5270355383502405,6.110352027207174,1.0181249380111694,-2.4468868414508265
1708435111.7092052,-2.141484022140503,-1.3335866344026108,-2.527018133793966,6.110380399018087,1.0181159973144531,-2.4469316641436976
1708435111.7112095,-2.1414918899536133,-1.3336341840079804,-2.5269857088672083,6.1103341458137415,1.018094778060913,-2.4469643274890345
1708435111.7132173,-2.1414918899536133,-1.3336266887239,-2.52704364458193,6.1103625176246545,1.018078327178955,-2.4469271341906946
1708435111.7151868,-2.1414709091186523,-1.333614469771721,-2.5270350615130823,6.1103625176246545,1.018099308013916,-2.4469524065600794
1708435111.7172337,-2.1414425373077393,-1.3335866046002884,-2.5270360151873987,6.1103341458137415,1.0180665254592896,-2.4469895998584192
1708435111.7192013,-2.1414496898651123,-1.3336144250682374,-2.52704364458193,6.110313045769491,1.0180633068084717,-2.4469688574420374
1708435111.7212124,-2.141458511352539,-1.3335939359715958,-2.5270512739764612,6.110353457718649,1.018103837966919,-2.4469316641436976
1708435111.7232177,-2.1414875984191895,-1.333602951174118,-2.5270512739764612,6.110366928368368,1.018082857131958,-2.446965758000509
1708435111.7251816,-2.141544818878174,-1.3336144399693985,-2.5270350615130823,6.110341536789694,1.018082857131958,-2.4469524065600794
1708435111.7272034,-2.141453981399536,-1.333668277864792,-2.527050320302145,6.110338675766744,1.018087387084961,-2.4469688574420374
1708435111.7291832,-2.1414709091186523,-1.3336399805596848,-2.5270307699786585,6.110329735070028,1.0180829763412476,-2.4469450155841272
1708435111.7311924,-2.1414337158203125,-1.3336277169040223,-2.5270512739764612,6.110343205719747,1.018087387084961,-2.4469853083239954
1708435111.7331822,-2.1414990425109863,-1.3336638075164338,-2.5270686785327356,6.110305893212118,1.0181082487106323,-2.4469853083239954
1708435111.7351744,-2.1414787769317627,-1.3336267334273835,-2.527039353047506,6.110329735070028,1.0181037187576294,-2.4469361940967005
1708435111.7372348,-2.1414990425109863,-1.333610014324524,-2.5270913282977503,6.110371458321371,1.018087387084961,-2.4469433466540735
1708435111.7391977,-2.141475200653076,-1.3336683225682755,-2.5270138422595423,6.110357987671652,1.0180829763412476,-2.446994129811422
1708435111.7412086,-2.1414833068847656,-1.3336563122323533,-2.5270589033709925,6.1103670475776575,1.0180917978286743,-2.4469733873950403
1708435111.7432077,-2.1414918899536133,-1.3335820895484467,-2.5270307699786585,6.1103625176246545,1.0181082487106323,-2.4469450155841272
1708435111.7452033,-2.141458511352539,-1.3336266887239,-2.527022663746969,6.110313045769491,1.018120527267456,-2.4469268957721155
1708435111.7472177,-2.1414787769317627,-1.3336189550212403,-2.526990000401632,6.1103625176246545,1.0180665254592896,-2.4470155874835413
1708435111.7491822,-2.1414918899536133,-1.3336430501988907,-2.527026955281393,6.110355007439413,1.0181037187576294,-2.4469688574420374
1708435111.75119,-2.1414382457733154,-1.3336311143687745,-2.527018133793966,6.110329735070028,1.0181277990341187,-2.4469569365130823
1708435111.7531993,-2.141453981399536,-1.3336233359626313,-2.5270264784442347,6.1103625176246545,1.0181324481964111,-2.4469450155841272
1708435111.7551785,-2.14151930809021,-1.3336266738227387,-2.5270138422595423,6.110388147621908,1.0180829763412476,-2.4469285647021692
1708435111.7571983,-2.1414875984191895,-1.333656297331192,-2.527026955281393,6.110338675766744,1.0180902481079102,-2.446965758000509
1708435111.7591836,-2.1414670944213867,-1.333614469771721,-2.527039353047506,6.1102850315864465,1.018087387084961,-2.4469569365130823
1708435111.7611773,-2.1414620876312256,-1.3336519759944458,-2.52706748643984,6.110329735070028,1.0181037187576294,-2.44694954553713
1708435111.7632113,-2.141462802886963,-1.3336638075164338,-2.5270307699786585,6.110357987671652,1.0181069374084473,-2.446998659764425
1708435111.7651803,-2.1414380073547363,-1.333614469771721,-2.527060095463888,6.1103625176246545,1.0181204080581665,-2.446977678929464
1708435111.7672088,-2.1414496898651123,-1.3336356294206162,-2.527039353047506,6.1103625176246545,1.018078327178955,-2.44698673883547
1708435111.7692158,-2.1414990425109863,-1.333602936272957,-2.527072254811422,6.1103625176246545,1.0180829763412476,-2.4469404856311243
1708435111.771214,-2.141458511352539,-1.3336519312909623,-2.527022186909811,6.1103341458137415,1.018094778060913,-2.4469361940967005
1708435111.7732146,-2.1414794921875,-1.3336266887239,-2.527055565510885,6.1103625176246545,1.018087387084961,-2.4469733873950403
1708435111.7751882,-2.14150333404541,-1.3336356294206162,-2.527107540761129,6.110392677574911,1.0181082487106323,-2.4469733873950403
1708435111.777187,-2.1415317058563232,-1.3336222630790253,-2.5270546118365687,6.1103625176246545,1.0180739164352417,-2.4469404856311243
1708435111.7791831,-2.141535997390747,-1.3336189550212403,-2.527055565510885,6.110346185951986,1.018094778060913,-2.4469450155841272
1708435111.78118,-2.1414918899536133,-1.3336266738227387,-2.527079407368795,6.110296952515402,1.018120527267456,-2.4469614664660853
1708435111.7832062,-2.1414620876312256,-1.3336430352977295,-2.5270589033709925,6.110305893212118,1.0180754661560059,-2.446937624608175
1708435111.7851772,-2.1414947509765625,-1.3336399805596848,-2.527079407368795,6.110371458321371,1.0180902481079102,-2.446982208882467
1708435111.7872295,-2.141453981399536,-1.3336934608272095,-2.527083698903219,6.110383736878195,1.0181037187576294,-2.4469569365130823
1708435111.7891903,-2.141475200653076,-1.3336311143687745,-2.5270631949054163,6.110296952515402,1.0181159973144531,-2.4469316641436976
1708435111.7912076,-2.1414425373077393,-1.3336311292699357,-2.5270350615130823,6.1103625176246545,1.0180964469909668,-2.4469524065600794
1708435111.7932112,-2.1414875984191895,-1.3336356741240998,-2.5270469824420374,6.110355007439413,1.0181204080581665,-2.4469361940967005
1708435111.7951756,-2.141496419906616,-1.3336356294206162,-2.5270827452289026,6.1103625176246545,1.0181487798690796,-2.4469123522387903
1708435111.7971785,-2.1415281295776367,-1.3336099994233628,-2.5270589033709925,6.110366928368368,1.0181368589401245,-2.4469404856311243
1708435111.7991939,-2.1414663791656494,-1.3336189848235627,-2.527100149785177,6.1103341458137415,1.0181037187576294,-2.44694954553713
1708435111.8011732,-2.1414990425109863,-1.3336356294206162,-2.5270512739764612,6.1103505966956995,1.0180542469024658,-2.4469197432147425
1708435111.8032594,-2.141507863998413,-1.3336356294206162,-2.527055565510885,6.110338675766744,1.0181324481964111,-2.446878973637716
1708435111.8051958,-2.1414709091186523,-1.3336385649493714,-2.5270381609546106,6.110313045769491,1.0180946588516235,-2.446977678929464
1708435111.8071918,-2.141462802886963,-1.3336100441268464,-2.5270512739764612,6.110346185951986,1.018099308013916,-2.446977678929464
1708435111.809188,-2.14145827293396,-1.3336099994233628,-2.5269814173327845,6.11033712604598,1.0181323289871216,-2.446953837071554
1708435111.811182,-2.141512155532837,-1.3337176007083436,-2.5270751158343714,6.110338675766744,1.0181487798690796,-2.4469450155841272
1708435111.813202,-2.14151930809021,-1.3336637777141114,-2.5270546118365687,6.110321986466207,1.0181233882904053,-2.4469688574420374
1708435111.8152134,-2.1414947509765625,-1.333647446041443,-2.5270631949054163,6.110317456513204,1.0181070566177368,-2.446933094655172
1708435111.8172233,-2.1414620876312256,-1.3336073023131867,-2.5271087328540247,6.11032651641921,1.0180739164352417,-2.44694954553713
1708435111.8191786,-2.1414620876312256,-1.3336144250682374,-2.5270665327655237,6.110383736878195,1.0181114673614502,-2.446965758000509
1708435111.8212543,-2.1414875984191895,-1.3336443615010758,-2.527100149785177,6.110397088318624,1.018097996711731,-2.4469285647021692
1708435111.8232217,-2.141536235809326,-1.3335984659245987,-2.5270751158343714,6.1103625176246545,1.018099308013916,-2.4469450155841272
1708435111.8251824,-2.141523599624634,-1.333643065100052,-2.5270546118365687,6.110305893212118,1.0181037187576294,-2.4468959013568323
1708435111.8272302,-2.14150071144104,-1.333635614519455,-2.527107540761129,6.11039565780715,1.0181442499160767,-2.4469285647021692
1708435111.829199,-2.1414794921875,-1.3335940104774018,-2.527033869420187,6.110379206925192,1.0181070566177368,-2.4469004313098353
1708435111.8312092,-2.1414794921875,-1.3336430352977295,-2.52706748643984,6.1103625176246545,1.0181070566177368,-2.4469032923327845
1708435111.8332324,-2.1414310932159424,-1.3336311143687745,-2.5270469824420374,6.1103505966956995,1.0181143283843994,-2.4469316641436976
1708435111.8351748,-2.141484022140503,-1.333602951174118,-2.5270589033709925,6.110346185951986,1.0181565284729004,-2.4469268957721155
1708435111.8372073,-2.141462802886963,-1.3336801391891022,-2.527083698903219,6.110366928368368,1.0181398391723633,-2.446994129811422
1708435111.8391843,-2.14150333404541,-1.3336178672364731,-2.527111832295553,6.1102850315864465,1.0181114673614502,-2.4469450155841272
1708435111.8411827,-2.14151930809021,-1.3336355996182938,-2.5270870367633265,6.1103625176246545,1.0181277990341187,-2.44694954553713
1708435111.8432186,-2.14150333404541,-1.3336100590280076,-2.527107540761129,6.110366928368368,1.0181233882904053,-2.446953837071554
1708435111.8451912,-2.1414496898651123,-1.3336519461921235,-2.5270708242999476,6.1103625176246545,1.0181324481964111,-2.4468959013568323
1708435111.8471804,-2.1414496898651123,-1.3336266738227387,-2.5270677248584192,6.110321986466207,1.0181474685668945,-2.4469895998584192
1708435111.8491843,-2.141484022140503,-1.3336321276477356,-2.5270751158343714,6.1103460667426965,1.0181397199630737,-2.4469450155841272
1708435111.8512037,-2.1414990425109863,-1.3336399805596848,-2.5270546118365687,6.110409128456869,1.0181397199630737,-2.446933094655172
1708435111.853206,-2.141507863998413,-1.3337100607207795,-2.5270751158343714,6.110329735070028,1.0181397199630737,-2.446933094655172
1708435111.8551917,-2.1414408683776855,-1.3336222928813477,-2.5271032492267054,6.110347616463461,1.0181025266647339,-2.4469569365130823
1708435111.8572135,-2.1414709091186523,-1.3335909110358735,-2.527050320302145,6.110346185951986,1.0181025266647339,-2.4469361940967005
1708435111.859219,-2.1414990425109863,-1.3336178821376343,-2.5271032492267054,6.110352027207174,1.018114447593689,-2.4469361940967005
1708435111.8611927,-2.141507863998413,-1.3336189550212403,-2.5271242300616663,6.110321986466207,1.0181487798690796,-2.44694954553713
1708435111.8632085,-2.1414620876312256,-1.3335940104774018,-2.527107540761129,6.110346185951986,1.0181776285171509,-2.4469450155841272
1708435111.865184,-2.14150071144104,-1.3336311143687745,-2.5270913282977503,6.11039565780715,1.018114447593689,-2.4469643274890345
1708435111.8672147,-2.1414833068847656,-1.3336100590280076,-2.5271316210376185,6.110355007439413,1.0181069374084473,-2.446970287953512
1708435111.86918,-2.1415324211120605,-1.33362332106147,-2.527078453694479,6.1103625176246545,1.0181070566177368,-2.4468913714038294
1708435111.871181,-2.141479730606079,-1.3335612577250977,-2.5270708242999476,6.1103670475776575,1.0180858373641968,-2.4469404856311243
1708435111.8731968,-2.1414663791656494,-1.3336682629636307,-2.5270989576922815,6.110359656601705,1.0181397199630737,-2.4469450155841272
1708435111.8751938,-2.141447067260742,-1.3336144250682374,-2.527045790349142,6.1103505966956995,1.0181025266647339,-2.446933094655172
1708435111.8772135,-2.1414709091186523,-1.3336683076671143,-2.527050320302145,6.110383736878195,1.0181233882904053,-2.446933094655172
1708435111.879189,-2.1414709091186523,-1.3336800795844574,-2.5271197001086634,6.110313045769491,1.0181397199630737,-2.4469404856311243
1708435111.8811703,-2.1414833068847656,-1.3336683076671143,-2.5270825068103235,6.110366928368368,1.0181143283843994,-2.4469361940967005
1708435111.883206,-2.1414709091186523,-1.3336189550212403,-2.5270989576922815,6.1103670475776575,1.0181398391723633,-2.4469078222857874
1708435111.8851933,-2.1414947509765625,-1.3336712580970307,-2.5270870367633265,6.110329735070028,1.018097996711731,-2.4469569365130823
1708435111.8872201,-2.141458511352539,-1.333656297331192,-2.5270751158343714,6.1103625176246545,1.0181474685668945,-2.4469242731677454
1708435111.8891838,-2.141496419906616,-1.3336012226394196,-2.5271032492267054,6.1103505966956995,1.0181487798690796,-2.4469688574420374
1708435111.8911996,-2.1414875984191895,-1.3336399805596848,-2.5270989576922815,6.1103505966956995,1.018118977546692,-2.44694954553713
1708435111.8932154,-2.14150333404541,-1.3336593818715592,-2.5270913282977503,6.1103505966956995,1.0181487798690796,-2.4469123522387903
1708435111.8951893,-2.1414918899536133,-1.33361008883033,-2.527053419743673,6.110329735070028,1.0181277990341187,-2.446970287953512
1708435111.8972204,-2.1414709091186523,-1.3336712282947083,-2.5270751158343714,6.110380399018087,1.0181353092193604,-2.446977678929464
1708435111.8991833,-2.1414990425109863,-1.3336341840079804,-2.527090374623434,6.110346185951986,1.0181307792663574,-2.446965758000509
1708435111.9011714,-2.141523599624634,-1.3336055737784882,-2.5271318594561976,6.110343205719747,1.0181143283843994,-2.44698673883547
1708435111.903201,-2.141514778137207,-1.333635614519455,-2.5271316210376185,6.110374676972189,1.0181025266647339,-2.4469240347491663
1708435111.905179,-2.1414709091186523,-1.3336056035808106,-2.527111832295553,6.110346185951986,1.0181353092193604,-2.4469285647021692
1708435111.9072876,-2.1414663791656494,-1.3336266887239,-2.5270827452289026,6.110317456513204,1.0181262493133545,-2.446874443684713
1708435111.9092407,-2.141523599624634,-1.3336593818715592,-2.527074162160055,6.110313045769491,1.0181641578674316,-2.446937386189596
1708435111.9111829,-2.141510486602783,-1.3336638373187562,-2.527033869420187,6.1103625176246545,1.0181609392166138,-2.4469032923327845
1708435111.9132118,-2.141453981399536,-1.3336474162391205,-2.5270589033709925,6.110313045769491,1.0181233882904053,-2.446965758000509
1708435111.9151745,-2.1414833068847656,-1.3336474162391205,-2.5270989576922815,6.1103625176246545,1.0181519985198975,-2.446970287953512
1708435111.9172032,-2.14151930809021,-1.3336310994676133,-2.5271197001086634,6.110338675766744,1.0181609392166138,-2.4469361940967005
1708435111.919225,-2.1414663791656494,-1.3336222779801865,-2.5270946661578577,6.1103625176246545,1.0181097984313965,-2.4469450155841272
1708435111.921182,-2.141475200653076,-1.3336623770049592,-2.5271032492267054,6.1103670475776575,1.0181519985198975,-2.4469361940967005
1708435111.9232168,-2.1414787769317627,-1.3336519759944458,-2.5271032492267054,6.110329735070028,1.0181233882904053,-2.4468959013568323
1708435111.925176,-2.1414875984191895,-1.3336055439761658,-2.5270827452289026,6.1103014824684045,1.0181474685668945,-2.4469450155841272
1708435111.9272168,-2.14151930809021,-1.333651990895607,-2.527053419743673,6.110292422562399,1.0181519985198975,-2.4469359556781214
1708435111.9292088,-2.14150333404541,-1.333651990895607,-2.5270989576922815,6.11032651641921,1.018118977546692,-2.4469404856311243
1708435111.931189,-2.1414875984191895,-1.333618940120079,-2.5270827452289026,6.1103505966956995,1.0181519985198975,-2.4469123522387903
1708435111.933207,-2.141475200653076,-1.3336846095374604,-2.5271197001086634,6.110366928368368,1.0181609392166138,-2.4469404856311243
1708435111.9352255,-2.1414875984191895,-1.3336593967727204,-2.5270989576922815,6.1103625176246545,1.0181732177734375,-2.4469242731677454
1708435111.9372497,-2.1414787769317627,-1.3336519759944458,-2.5271316210376185,6.110296952515402,1.0180858373641968,-2.4469404856311243
1708435111.939181,-2.141523599624634,-1.3335850995830079,-2.5271032492267054,6.1103505966956995,1.018118977546692,-2.4469450155841272
1708435111.9411852,-2.1414663791656494,-1.3336385798505326,-2.527074162160055,6.110379206925192,1.0181143283843994,-2.44694954553713
1708435111.94322,-2.141535997390747,-1.3335896295360108,-2.5271154085742396,6.1103505966956995,1.0181397199630737,-2.4469450155841272
1708435111.945179,-2.1415271759033203,-1.333617852335312,-2.527078453694479,6.110346185951986,1.0181442499160767,-2.4469404856311243
1708435111.9472046,-2.1414947509765625,-1.3336341840079804,-2.5270989576922815,6.110371458321371,1.0181609392166138,-2.4469242731677454
1708435111.9491942,-2.141535997390747,-1.3336266887239,-2.5271123091327112,6.110329735070028,1.0181277990341187,-2.446977678929464
1708435111.9511929,-2.1414830684661865,-1.3336178374341507,-2.527073923741476,6.110334265023031,1.0181519985198975,-2.446977678929464
1708435111.953204,-2.141512155532837,-1.3336889904788514,-2.5271487871753138,6.1103625176246545,1.0181474685668945,-2.4468913714038294
1708435111.955184,-2.1414990425109863,-1.3335966777852555,-2.527172629033224,6.110329735070028,1.0181474685668945,-2.4469285647021692
1708435111.95724,-2.1415317058563232,-1.333647446041443,-2.527139488850729,6.110379206925192,1.0181025266647339,-2.44694954553713
1708435111.9591963,-2.1414830684661865,-1.3336222928813477,-2.527163569127218,6.1103505966956995,1.0181353092193604,-2.446965758000509
1708435111.9611914,-2.1414902210235596,-1.3336593818715592,-2.527113978062765,6.110357987671652,1.0181262493133545,-2.4469123522387903
1708435111.9632144,-2.1414875984191895,-1.3336460453322907,-2.527139727269308,6.110386597901144,1.0181233882904053,-2.4469123522387903
1708435111.9651964,-2.14151930809021,-1.3335984212211152,-2.527138058339254,6.1103625176246545,1.0181398391723633,-2.4469123522387903
1708435111.9672067,-2.1414663791656494,-1.3336430352977295,-2.527163569127218,6.110379206925192,1.0181143283843994,-2.44694954553713
1708435111.9691906,-2.1414787769317627,-1.333610014324524,-2.5271547476397913,6.1103670475776575,1.0181776285171509,-2.446965758000509
1708435111.9712007,-2.1415274143218994,-1.333660678272583,-2.527224604283468,6.1103625176246545,1.0181307792663574,-2.4469123522387903
1708435111.9732327,-2.141510486602783,-1.333610014324524,-2.5272191206561487,6.110311734467306,1.018060326576233,-2.4469404856311243
1708435111.9751785,-2.141510486602783,-1.3336637777141114,-2.5271995703326624,6.110353457718649,1.0181307792663574,-2.44698673883547
1708435111.977209,-2.1415016651153564,-1.333647446041443,-2.52717096010317,6.11039565780715,1.0181519985198975,-2.4469361940967005
1708435111.9791746,-2.1415274143218994,-1.3336549562266846,-2.5271995703326624,6.110428321152487,1.0181025266647339,-2.4469361940967005
1708435111.9812212,-2.1414875984191895,-1.3336386245540162,-2.5272114912616175,6.110365736275472,1.018094778060913,-2.446977678929464
1708435111.9832242,-2.1415271759033203,-1.333585188989975,-2.527208391820089,6.1103776572044275,1.0181353092193604,-2.446953837071554
1708435111.9851708,-2.141510486602783,-1.333635614519455,-2.5271621386157435,6.11039565780715,1.0181324481964111,-2.446953837071554
1708435111.9872339,-2.1414833068847656,-1.3336682927659531,-2.5272114912616175,6.110436188965597,1.0181070566177368,-2.4469807783709925
1708435111.9891858,-2.1415016651153564,-1.3336520057967682,-2.5272281805621546,6.110411989479818,1.0181397199630737,-2.446977678929464
1708435111.991179,-2.1415228843688965,-1.333602936272957,-2.527240816746847,6.110410439759054,1.0181776285171509,-2.4469895998584192
1708435111.993219,-2.1415016651153564,-1.3336100441268464,-2.5271745363818567,6.110398518830099,1.0181565284729004,-2.4469450155841272
1708435111.995165,-2.141514778137207,-1.3336178076318284,-2.5271666685687464,6.110368597298422,1.0181277990341187,-2.4468913714038294
1708435111.997204,-2.141510486602783,-1.3336266887239,-2.52717096010317,6.110410439759054,1.0181609392166138,-2.446977678929464
1708435111.9991713,-2.141510486602783,-1.33365053058181,-2.5271952787982386,6.110418188362875,1.0181487798690796,-2.44694954553713
1708435112.001167,-2.1415483951568604,-1.3336012077382584,-2.5271995703326624,6.110410439759054,1.018118977546692,-2.446921173726217
1708435112.0032032,-2.1415271759033203,-1.3336355996182938,-2.5271788279162806,6.110443579941549,1.0181159973144531,-2.44694954553713
1708435112.0052173,-2.1414902210235596,-1.3336505454829712,-2.5271831194507044,6.110439049988546,1.0181397199630737,-2.4469242731677454
1708435112.0072198,-2.1415228843688965,-1.333647446041443,-2.5272157827960413,6.110453593521871,1.0181565284729004,-2.4469242731677454
1708435112.0091903,-2.141557216644287,-1.3336311143687745,-2.5272117296801966,6.110446202545919,1.0180813074111938,-2.4469078222857874
1708435112.011185,-2.1415483951568604,-1.33369234324012,-2.5271666685687464,6.1104256985481165,1.0181776285171509,-2.4469078222857874
1708435112.013217,-2.141514778137207,-1.3336683076671143,-2.5271788279162806,6.110466944962301,1.0181353092193604,-2.4469032923327845
1708435112.0151992,-2.1415016651153564,-1.3336222928813477,-2.5271623770343226,6.110434520035543,1.0181397199630737,-2.4469078222857874
1708435112.0172036,-2.1415624618530273,-1.333647446041443,-2.5271578470813196,6.1104702828224084,1.0180858373641968,-2.4469569365130823
1708435112.0192041,-2.141542434692383,-1.333668277864792,-2.5271909872638147,6.110495793610372,1.0181233882904053,-2.4469197432147425
1708435112.0211968,-2.1415352821350098,-1.3336356294206162,-2.5272396246539515,6.110421049385824,1.0181324481964111,-2.4469853083239954
1708435112.0232124,-2.141530990600586,-1.3336430054954072,-2.5272277037249964,6.110479342728414,1.0181143283843994,-2.446982208882467
1708435112.02518,-2.141481399536133,-1.3336144399693985,-2.5272071997271937,6.110491263657369,1.01816987991333,-2.4470112959491175
1708435112.027202,-2.1415793895721436,-1.3336189550212403,-2.5271578470813196,6.110428201943197,1.0181384086608887,-2.446933094655172
1708435112.0291686,-2.1415510177612305,-1.3336144548705597,-2.5271745363818567,6.110461342125692,1.0181776285171509,-2.4469614664660853
1708435112.031184,-2.1415793895721436,-1.3336562824300309,-2.5272536913501185,6.110449063568868,1.018118977546692,-2.4469123522387903
1708435112.0332022,-2.1415510177612305,-1.3336233061603089,-2.5272203127490442,6.110444652825155,1.0181277990341187,-2.4469450155841272
1708435112.035164,-2.1415352821350098,-1.3336266887239,-2.527186695729391,6.110458123474874,1.018097996711731,-2.446970287953512
1708435112.0372262,-2.1415555477142334,-1.3336222928813477,-2.5271578470813196,6.110519397049703,1.0181233882904053,-2.44694954553713
1708435112.039207,-2.141542434692383,-1.3336756837419053,-2.5271831194507044,6.110528456955709,1.0181442499160767,-2.44694954553713
1708435112.0412035,-2.141493082046509,-1.333617852335312,-2.5271621386157435,6.110444652825155,1.018118977546692,-2.4469404856311243
1708435112.043224,-2.141509771347046,-1.3336770695498963,-2.52717096010317,6.110519397049703,1.018097996711731,-2.4469404856311243
1708435112.0451765,-2.1415467262268066,-1.3336474609426041,-2.527191702519552,6.110507595330038,1.0181143283843994,-2.446998659764425
1708435112.047207,-2.141505241394043,-1.333614469771721,-2.5271547476397913,6.110465872078695,1.0181277990341187,-2.4469450155841272
1708435112.0491977,-2.1415467262268066,-1.333647446041443,-2.5271874109851282,6.110423671990194,1.0181114673614502,-2.446977678929464
1708435112.0512116,-2.1415352821350098,-1.3336519461921235,-2.527175251637594,6.110498535424032,1.0181070566177368,-2.4470067659961146
1708435112.053194,-2.1415510177612305,-1.3336311143687745,-2.5271382967578333,6.1104822037513635,1.0181564092636108,-2.446953837071554
1708435112.055177,-2.1415467262268066,-1.3336637777141114,-2.52717096010317,6.110465872078695,1.0181233882904053,-2.4469404856311243
1708435112.057232,-2.141542434692383,-1.3336178821376343,-2.5271504561053675,6.110449063568868,1.0181609392166138,-2.4469285647021692
1708435112.059185,-2.1415581703186035,-1.333626703625061,-2.52717096010317,6.110449063568868,1.0181324481964111,-2.44692570367922
1708435112.061204,-2.141526460647583,-1.3336100441268464,-2.5272114912616175,6.110453593521871,1.018153190612793,-2.446942154561178
1708435112.063214,-2.1415793895721436,-1.3336519312909623,-2.5271831194507044,6.1104256985481165,1.0181114673614502,-2.4469450155841272
1708435112.0651922,-2.141542434692383,-1.333602951174118,-2.52717096010317,6.11051498630599,1.0181114673614502,-2.446998659764425
1708435112.0672016,-2.1415491104125977,-1.3336144399693985,-2.527175251637594,6.110512125283041,1.0180858373641968,-2.4469450155841272
1708435112.0692153,-2.141530990600586,-1.333610014324524,-2.5271998087512415,6.110449063568868,1.0181277990341187,-2.44694954553713
1708435112.071198,-2.1415491104125977,-1.333626703625061,-2.5271621386157435,6.1104702828224084,1.0181487798690796,-2.446933094655172
1708435112.0732274,-2.141592025756836,-1.3336189550212403,-2.5271874109851282,6.110461342125692,1.0180740356445312,-2.4469285647021692
1708435112.075185,-2.141570568084717,-1.333638609652855,-2.5271874109851282,6.1104867337043665,1.0181397199630737,-2.447003189717428
1708435112.0772502,-2.14153790473938,-1.3337013286403199,-2.5271831194507044,6.110474812775411,1.0181368589401245,-2.4469404856311243
1708435112.0791776,-2.1415581703186035,-1.3336341840079804,-2.5271623770343226,6.1104702828224084,1.0181233882904053,-2.4469240347491663
1708435112.081207,-2.141526460647583,-1.3336430352977295,-2.5271578470813196,6.110519397049703,1.0181026458740234,-2.4469853083239954
1708435112.0832107,-2.1415538787841797,-1.3336222630790253,-2.5271340052234095,6.110453593521871,1.0180981159210205,-2.446937624608175
1708435112.0851831,-2.141542434692383,-1.3336474609426041,-2.5272322336779993,6.1104657528694055,1.018120527267456,-2.446933094655172
1708435112.087195,-2.1415748596191406,-1.3336505603841324,-2.527163330708639,6.110462653427877,1.0181277990341187,-2.4469197432147425
1708435112.0891848,-2.1415581703186035,-1.3336189550212403,-2.527175251637594,6.110449063568868,1.018118977546692,-2.4469450155841272
1708435112.0912411,-2.1415176391601562,-1.333635614519455,-2.5271666685687464,6.110519516258993,1.01814866065979,-2.447003189717428
1708435112.0931892,-2.1415538787841797,-1.3336356294206162,-2.5271666685687464,6.1104822037513635,1.0181324481964111,-2.4469197432147425
1708435112.095171,-2.141570568084717,-1.333638609652855,-2.5271666685687464,6.110503065377035,1.0181307792663574,-2.4469569365130823
1708435112.097222,-2.141561508178711,-1.3336144548705597,-2.5272041002856653,6.110461342125692,1.018141269683838,-2.446994129811422
1708435112.0992231,-2.141517400741577,-1.3336100441268464,-2.5271874109851282,6.1104822037513635,1.0181233882904053,-2.4469032923327845
1708435112.1012177,-2.1415581703186035,-1.3336505454829712,-2.527179543172018,6.110465872078695,1.0181487798690796,-2.4469614664660853
1708435112.103272,-2.141542434692383,-1.3336311143687745,-2.527196232472555,6.110452282219686,1.0181114673614502,-2.4469197432147425
1708435112.1052287,-2.1415669918060303,-1.3336311143687745,-2.527208391820089,6.11053620555953,1.0181233882904053,-2.4469361940967005
1708435112.1071916,-2.141592025756836,-1.3336683821729203,-2.527236525212423,6.110524046211996,1.0181277990341187,-2.446916643773214
1708435112.109182,-2.14158296585083,-1.3336144548705597,-2.527137343083517,6.110465872078695,1.0181368589401245,-2.4469197432147425
1708435112.1111844,-2.1415669918060303,-1.333671287899353,-2.5272160212146204,6.110453593521871,1.0181397199630737,-2.4469316641436976
1708435112.1132052,-2.14159893989563,-1.3336342138103028,-2.5271995703326624,6.11044334152297,1.018118977546692,-2.44694954553713
1708435112.1152253,-2.1415131092071533,-1.3336144548705597,-2.5271547476397913,6.110449063568868,1.0181307792663574,-2.4469643274890345
1708435112.1172013,-2.141526460647583,-1.333638609652855,-2.5271952787982386,6.1104822037513635,1.0181277990341187,-2.446977678929464
1708435112.1191957,-2.141544818878174,-1.3336668771556397,-2.52717096010317,6.11047779300765,1.0181397199630737,-2.446933094655172
1708435112.1212206,-2.141542434692383,-1.3336386245540162,-2.5272041002856653,6.110444652825155,1.0181519985198975,-2.446977678929464
1708435112.1231823,-2.1415793895721436,-1.3336311143687745,-2.5271876494037073,6.110447871475973,1.0181307792663574,-2.4469285647021692
1708435112.1251712,-2.141592025756836,-1.3336519759944458,-2.5271666685687464,6.1104822037513635,1.0181565284729004,-2.4469359556781214
1708435112.1271687,-2.141557216644287,-1.333610014324524,-2.52717096010317,6.110494124680319,1.018093466758728,-2.4469242731677454
1708435112.129197,-2.141571283340454,-1.3336593818715592,-2.5271874109851282,6.110557067185201,1.0181397199630737,-2.44698673883547
1708435112.131174,-2.1415581703186035,-1.3336505454829712,-2.5271874109851282,6.110458123474874,1.018097996711731,-2.4469450155841272
1708435112.1332347,-2.141542434692383,-1.333671287899353,-2.5271788279162806,6.110461342125692,1.0181143283843994,-2.4469478766070765
1708435112.1352491,-2.141603469848633,-1.3336386543563385,-2.5272277037249964,6.110498535424032,1.0181442499160767,-2.4469614664660853
1708435112.1372154,-2.141522169113159,-1.3336519759944458,-2.5272038618670862,6.110503065377035,1.0181143283843994,-2.446933094655172
1708435112.1392856,-2.1416008472442627,-1.333647446041443,-2.527175251637594,6.110441672592916,1.0181159973144531,-2.446965758000509
1708435112.1412046,-2.141592025756836,-1.3336519461921235,-2.5271831194507044,6.110453593521871,1.0181442499160767,-2.4469614664660853
1708435112.1432292,-2.1415491104125977,-1.333659366970398,-2.5271874109851282,6.110479342728414,1.0181307792663574,-2.4469643274890345
1708435112.1451714,-2.1415793895721436,-1.3336311143687745,-2.5271223227130335,6.110498535424032,1.0181070566177368,-2.446965996419088
1708435112.1471753,-2.141542434692383,-1.333610014324524,-2.52714711824526,6.110464203148641,1.0181025266647339,-2.4469733873950403
1708435112.149187,-2.1415836811065674,-1.333605633383133,-2.5271666685687464,6.110462653427877,1.0181368589401245,-2.4469123522387903
1708435112.1511762,-2.1415748596191406,-1.3336801093867798,-2.5271504561053675,6.110437142639913,1.0181397199630737,-2.4469240347491663
1708435112.1531909,-2.1416077613830566,-1.3336189550212403,-2.5271547476397913,6.110456931381979,1.0181233882904053,-2.4469450155841272
1708435112.1551688,-2.141594409942627,-1.333668277864792,-2.5271220842944544,6.110516536026754,1.018118977546692,-2.4469779173480433
1708435112.1572218,-2.1415748596191406,-1.3336311143687745,-2.5272048155414026,6.11051498630599,1.018097996711731,-2.4469359556781214
1708435112.1591835,-2.141592025756836,-1.3335896295360108,-2.5271995703326624,6.1104702828224084,1.0181565284729004,-2.4469359556781214
1708435112.1612196,-2.1415748596191406,-1.3336399358562012,-2.52717096010317,6.1104657528694055,1.0181565284729004,-2.4469152132617396
1708435112.1632314,-2.141570568084717,-1.3336835366538544,-2.5271788279162806,6.110495674401083,1.0181519985198975,-2.4469078222857874
1708435112.165175,-2.141542434692383,-1.333605633383133,-2.52717096010317,6.110465872078695,1.0181806087493896,-2.44694954553713
1708435112.1672277,-2.1415836811065674,-1.3336637628129502,-2.527196232472555,6.110416638642111,1.0181851387023926,-2.4469121138202112
1708435112.1691897,-2.1415538787841797,-1.3336430352977295,-2.527175251637594,6.110474812775411,1.0181519985198975,-2.446937624608175
1708435112.1711998,-2.1415793895721436,-1.3336012226394196,-2.5271831194507044,6.110491263657369,1.0181596279144287,-2.4469853083239954
1708435112.1732259,-2.1415467262268066,-1.3336399358562012,-2.527139488850729,6.110446202545919,1.0181474685668945,-2.4469152132617396
1708435112.1751754,-2.1415669918060303,-1.3336189550212403,-2.527159039174215,6.110466944962301,1.018114447593689,-2.4469898382769983
1708435112.1772017,-2.141505241394043,-1.3336460453322907,-2.5271874109851282,6.110458123474874,1.0181777477264404,-2.4469404856311243
1708435112.1791852,-2.141522169113159,-1.3336222630790253,-2.5271874109851282,6.110446202545919,1.0181353092193604,-2.4469450155841272
1708435112.1812332,-2.1415581703186035,-1.3336637777141114,-2.5271547476397913,6.1104211685951135,1.0181506872177124,-2.4469569365130823
1708435112.1832268,-2.1415748596191406,-1.3336845946362992,-2.527159039174215,6.110416638642111,1.0181384086608887,-2.4469404856311243
1708435112.185178,-2.141591787338257,-1.3336879771998902,-2.527175251637594,6.110458123474874,1.0181759595870972,-2.4469078222857874
1708435112.187248,-2.141566038131714,-1.333659366970398,-2.527163330708639,6.110488164215841,1.0181385278701782,-2.446977678929464
1708435112.1891892,-2.141566038131714,-1.3335940700820466,-2.5271666685687464,6.110466944962301,1.0181715488433838,-2.446965758000509
1708435112.1912012,-2.1415748596191406,-1.3336756986430665,-2.527175251637594,6.1105044958885095,1.0181806087493896,-2.4469285647021692
1708435112.193207,-2.1415786743164062,-1.333671287899353,-2.5272038618670862,6.110434520035543,1.0181307792663574,-2.446953837071554
1708435112.1951709,-2.1415441036224365,-1.3336638075164338,-2.5271177927600306,6.110450613289633,1.0181385278701782,-2.4469614664660853
1708435112.1972177,-2.141526460647583,-1.3336835366538544,-2.527224604283468,6.110421049385824,1.0181759595870972,-2.446994129811422
1708435112.1991866,-2.141542434692383,-1.3336356294206162,-2.5272114912616175,6.110434520035543,1.0181641578674316,-2.4469450155841272
1708435112.2011588,-2.1415581703186035,-1.3335732382586976,-2.5271666685687464,6.1104702828224084,1.0181429386138916,-2.4469285647021692
1708435112.2032063,-2.1415581703186035,-1.3336505454829712,-2.5271504561053675,6.1104211685951135,1.0181550979614258,-2.4469359556781214
1708435112.2052164,-2.1415836811065674,-1.333638609652855,-2.5271831194507044,6.110474812775411,1.018178939819336,-2.446965996419088
1708435112.2072182,-2.1415669918060303,-1.3336846244386216,-2.5271874109851282,6.110476004868307,1.0181759595870972,-2.44698673883547
1708435112.209181,-2.1415581703186035,-1.3336222928813477,-2.527159039174215,6.110466944962301,1.0181550979614258,-2.4469404856311243
1708435112.2111747,-2.1415669918060303,-1.3337055903724213,-2.5271874109851282,6.110418069153585,1.018204689025879,-2.4469450155841272
1708435112.2131748,-2.1415555477142334,-1.3336310696652909,-2.52717096010317,6.110396969109335,1.0181834697723389,-2.446982208882467
1708435112.2151766,-2.1415581703186035,-1.3336222928813477,-2.527191702519552,6.110427129059591,1.0181506872177124,-2.4469779173480433
1708435112.2171922,-2.1415352821350098,-1.3335896295360108,-2.527191702519552,6.110436188965597,1.0181788206100464,-2.4469404856311243
1708435112.2191787,-2.141542434692383,-1.3336189550212403,-2.5271416346179407,6.110389458924093,1.0181759595870972,-2.4469197432147425
1708435112.221188,-2.1415352821350098,-1.3336593818715592,-2.5272157827960413,6.110483753472128,1.0181461572647095,-2.44698673883547
1708435112.2231922,-2.1415598392486572,-1.333605633383133,-2.5271297136889856,6.110405909806051,1.0181596279144287,-2.4469450155841272
1708435112.2251816,-2.141571283340454,-1.3336144548705597,-2.5271874109851282,6.11038492897109,1.0182090997695923,-2.4469524065600794
1708435112.2272005,-2.141488552093506,-1.3336967688849946,-2.5271621386157435,6.110368597298422,1.0182030200958252,-2.446977678929464
1708435112.2291715,-2.1415395736694336,-1.3336637777141114,-2.527220074330465,6.11043010929183,1.018195629119873,-2.4469032923327845
1708435112.2312386,-2.1415512561798096,-1.3336311441710968,-2.5272234121905726,6.1103776572044275,1.0181910991668701,-2.4469361940967005
1708435112.2332044,-2.141509771347046,-1.333617852335312,-2.527208391820089,6.110386597901144,1.0182002782821655,-2.4469285647021692
1708435112.2351775,-2.1415510177612305,-1.3336638075164338,-2.52717096010317,6.110337006836691,1.018212080001831,-2.4469569365130823
1708435112.2372117,-2.1415185928344727,-1.3336757284453888,-2.527159039174215,6.1103505966956995,1.0181986093521118,-2.446974817906515
1708435112.2391977,-2.1415598392486572,-1.3337131601623078,-2.5271788279162806,6.110329735070028,1.0182197093963623,-2.4469361940967005
1708435112.2411969,-2.141514778137207,-1.333638609652855,-2.5271578470813196,6.1103341458137415,1.0182528495788574,-2.4469285647021692
1708435112.2432113,-2.1415317058563232,-1.333596722488739,-2.5272038618670862,6.110332834511556,1.0182242393493652,-2.4469569365130823
1708435112.245172,-2.141571283340454,-1.3336232763579865,-2.5271547476397913,6.110305893212118,1.0182483196258545,-2.4469268957721155
1708435112.2472022,-2.1415441036224365,-1.3336144399693985,-2.5272157827960413,6.1102895615394495,1.0182483196258545,-2.4469450155841272
1708435112.249177,-2.1415352821350098,-1.3336222630790253,-2.527125422154562,6.110352146416464,1.0182451009750366,-2.4468959013568323
1708435112.2511663,-2.1415317058563232,-1.333605633383133,-2.5271952787982386,6.1103237746055505,1.0181984901428223,-2.4469614664660853
1708435112.2532241,-2.1415016651153564,-1.3335940104774018,-2.5271831194507044,6.110344397812643,1.0182360410690308,-2.446998659764425
1708435112.255178,-2.141530990600586,-1.333647446041443,-2.5272253195392054,6.110274302750387,1.018206238746643,-2.4469569365130823
1708435112.2571948,-2.1415271759033203,-1.333637223844864,-2.5271831194507044,6.110310423165121,1.0182602405548096,-2.4469807783709925
1708435112.2591877,-2.1415352821350098,-1.3336593818715592,-2.5271831194507044,6.110274302750387,1.0183145999908447,-2.4469733873950403
1708435112.2611933,-2.1415228843688965,-1.33365053058181,-2.5271995703326624,6.110250580101766,1.018276572227478,-2.44694954553713
1708435112.2631943,-2.1415598392486572,-1.3336189550212403,-2.5271666685687464,6.1102038500602625,1.018288493156433,-2.4469478766070765
1708435112.265192,-2.141514778137207,-1.3336846095374604,-2.52717096010317,6.110287773400106,1.0182676315307617,-2.4469895998584192
1708435112.2672384,-2.14150333404541,-1.333610014324524,-2.52717096010317,6.110308992653646,1.0182795524597168,-2.4469733873950403
1708435112.2692034,-2.1415271759033203,-1.3335984510234375,-2.5271578470813196,6.110234129219808,1.018312931060791,-2.4469614664660853
1708435112.2712126,-2.1415395736694336,-1.3336683076671143,-2.5271666685687464,6.110247599869528,1.0183130502700806,-2.4469268957721155
1708435112.2732208,-2.141510486602783,-1.3336266887239,-2.5271831194507044,6.11028932312087,1.0182830095291138,-2.4469197432147425
1708435112.2751956,-2.1414787769317627,-1.3336144548705597,-2.5271666685687464,6.110247599869528,1.0183277130126953,-2.4469733873950403
1708435112.277235,-2.1414787769317627,-1.3336835515550156,-2.5271831194507044,6.1102263806159876,1.0183157920837402,-2.4469524065600794
1708435112.2791924,-2.1414787769317627,-1.3336341989091416,-2.5271578470813196,6.11026560047225,1.0182949304580688,-2.4469853083239954
1708435112.2811918,-2.141510486602783,-1.3335940402797242,-2.5271621386157435,6.110223400383749,1.0183277130126953,-2.4469643274890345
1708435112.2832181,-2.141514778137207,-1.3336178821376343,-2.5271666685687464,6.1102685807044885,1.0183082818984985,-2.44694954553713
1708435112.2851803,-2.141475200653076,-1.3336311143687745,-2.5271621386157435,6.11019383647994,1.0183038711547852,-2.4469450155841272
1708435112.287213,-2.1415281295776367,-1.3336637777141114,-2.5271666685687464,6.110223400383749,1.0183082818984985,-2.4470112959491175
1708435112.2892032,-2.1414337158203125,-1.3336276871016999,-2.5271788279162806,6.110220896988668,1.01829195022583,-2.4469853083239954
1708435112.291211,-2.1414921283721924,-1.3336967688849946,-2.5272041002856653,6.110169756203451,1.0182949304580688,-2.44694954553713
1708435112.2932432,-2.1414453983306885,-1.3336311143687745,-2.5271909872638147,6.110202896385946,1.0183366537094116,-2.4470232168780726
1708435112.2952032,-2.1414787769317627,-1.3336144548705597,-2.5271623770343226,6.110253321915426,1.0183277130126953,-2.4470112959491175
1708435112.2972221,-2.1414620876312256,-1.3336713028005143,-2.5271788279162806,6.110154855042257,1.0183112621307373,-2.4469316641436976
1708435112.2991948,-2.1414620876312256,-1.3336311143687745,-2.5272114912616175,6.110130774765768,1.0182994604110718,-2.4469450155841272
1708435112.3011756,-2.1414496898651123,-1.3336430352977295,-2.5271952787982386,6.110097992211141,1.0182949304580688,-2.4469524065600794
1708435112.303205,-2.1414294242858887,-1.3335940104774018,-2.5271909872638147,6.1100995419319055,1.018329381942749,-2.4469478766070765
1708435112.3051946,-2.141514778137207,-1.3335895848325272,-2.5272353331195276,6.110048758774557,1.0183366537094116,-2.4469733873950403
1708435112.3071947,-2.1414425373077393,-1.3336232763579865,-2.5271995703326624,6.110029089241781,1.0183398723602295,-2.4469388167010706
1708435112.3092177,-2.1414918899536133,-1.3336562675288697,-2.5272191206561487,6.110071170120992,1.0182875394821167,-2.4470112959491175
1708435112.3112004,-2.1414794921875,-1.3336430352977295,-2.5272114912616175,6.110026109009542,1.018329381942749,-2.4469450155841272
1708435112.3132064,-2.14150333404541,-1.3336189550212403,-2.5271874109851282,6.110033619194784,1.0183444023132324,-2.4469614664660853
1708435112.3151686,-2.1414382457733154,-1.3336144399693985,-2.5271745363818567,6.110072839051046,1.0183444023132324,-2.4469807783709925
1708435112.3172019,-2.1414709091186523,-1.3335940402797242,-2.5271578470813196,6.110026228218832,1.0183277130126953,-2.4469478766070765
1708435112.3192036,-2.141496419906616,-1.3336519759944458,-2.5272071997271937,6.110014307289877,1.0183608531951904,-2.4469569365130823
1708435112.3211904,-2.1414663791656494,-1.3336356294206162,-2.527175251637594,6.11001883724288,1.0183775424957275,-2.4469433466540735
1708435112.3231997,-2.14145565032959,-1.3336519759944458,-2.5271831194507044,6.110021698265829,1.0183517932891846,-2.4469977060901087
1708435112.3252163,-2.141475200653076,-1.3336144548705597,-2.5272071997271937,6.110023247986593,1.0183354616165161,-2.4469898382769983
1708435112.327224,-2.1414268016815186,-1.3336310994676133,-2.5271788279162806,6.110011327057638,1.018302321434021,-2.4469853083239954
1708435112.329198,-2.1414310932159424,-1.333605633383133,-2.5271909872638147,6.110036837845602,1.0183141231536865,-2.4469807783709925
1708435112.3312104,-2.141505241394043,-1.3336266887239,-2.527257029210226,6.110003697663107,1.0183684825897217,-2.4469688574420374
1708435112.3332257,-2.14150071144104,-1.3335702580264588,-2.5271952787982386,6.110039698868551,1.0183186531066895,-2.446998659764425
1708435112.3351688,-2.141475200653076,-1.3336311143687745,-2.5271745363818567,6.110011327057638,1.0183489322662354,-2.4469361940967005
1708435112.3372288,-2.1414971351623535,-1.3335909259370347,-2.5271623770343226,6.1099692461784265,1.0183897018432617,-2.4469733873950403
1708435112.3391998,-2.1414151191711426,-1.3336637777141114,-2.5271952787982386,6.109994637757101,1.0183851718902588,-2.4469762484179896
1708435112.3411937,-2.141447067260742,-1.3336399358562012,-2.5272277037249964,6.110000717430868,1.0183639526367188,-2.4469733873950403
1708435112.3431964,-2.141451358795166,-1.3336100441268464,-2.5271623770343226,6.110003697663107,1.0183639526367188,-2.4469524065600794
1708435112.3451796,-2.141427516937256,-1.3336222928813477,-2.527170006428854,6.109987365990438,1.0183517932891846,-2.4469152132617396
1708435112.3472288,-2.14145565032959,-1.3336474609426041,-2.5272203127490442,6.1099514839942834,1.0183354616165161,-2.446997944508688
1708435112.349219,-2.1414408683776855,-1.3335896295360108,-2.5271909872638147,6.109996187477865,1.0183354616165161,-2.446994129811422
1708435112.3511868,-2.141448736190796,-1.3336266887239,-2.5272114912616175,6.109980094223776,1.0183278322219849,-2.446994129811422
1708435112.3531904,-2.141432046890259,-1.3336189550212403,-2.5271995703326624,6.109954464226522,1.0183472633361816,-2.4469524065600794
1708435112.355173,-2.141373634338379,-1.333635614519455,-2.5271788279162806,6.109953152924337,1.018356204032898,-2.4469760099994105
1708435112.3572066,-2.1414036750793457,-1.3336638075164338,-2.527170006428854,6.109993684082784,1.0183717012405396,-2.4469895998584192
1708435112.359211,-2.1414363384246826,-1.333602936272957,-2.5271623770343226,6.1099305031593225,1.0183594226837158,-2.4469853083239954
1708435112.3611915,-2.1414108276367188,-1.3336232912591477,-2.5272071997271937,6.109903561859884,1.0183806419372559,-2.4469152132617396
1708435112.363203,-2.1414036750793457,-1.3336637777141114,-2.5272322336779993,6.109953152924337,1.018376111984253,-2.4469733873950403
1708435112.36518,-2.1413867473602295,-1.3336189550212403,-2.527252737675802,6.1099740145500085,1.0183141231536865,-2.446994129811422
1708435112.367204,-2.1414170265197754,-1.333602936272957,-2.527252737675802,6.109915482788839,1.0183472633361816,-2.4469853083239954
1708435112.3691962,-2.1413745880126953,-1.3336770695498963,-2.52722675005068,6.109882581024923,1.0183924436569214,-2.4469404856311243
1708435112.3711925,-2.1413745880126953,-1.3335984510234375,-2.5272071997271937,6.109896170883932,1.0184016227722168,-2.4469359556781214
1708435112.373209,-2.1414241790771484,-1.3336189550212403,-2.5272277037249964,6.109866249352255,1.0183472633361816,-2.4469643274890345
1708435112.3752012,-2.141383171081543,-1.3336474609426041,-2.5271745363818567,6.1098753092582605,1.0183594226837158,-2.4469268957721155
1708435112.3772233,-2.1413631439208984,-1.3336189550212403,-2.5271909872638147,6.1098753092582605,1.0183806419372559,-2.4469853083239954
1708435112.3791819,-2.1413955688476562,-1.3336144548705597,-2.527153555546896,6.1098917601402185,1.0183308124542236,-2.446997944508688
1708435112.3811746,-2.1413631439208984,-1.333610014324524,-2.5272322336779993,6.109899031906881,1.0183308124542236,-2.4469733873950403
1708435112.383234,-2.1413540840148926,-1.3336072725108643,-2.5272114912616175,6.109900700836935,1.0183308124542236,-2.4469478766070765
1708435112.3851838,-2.1414036750793457,-1.333602936272957,-2.5272353331195276,6.109933364182272,1.0183594226837158,-2.4469569365130823
1708435112.3872569,-2.1413912773132324,-1.3336399656585236,-2.52723199525942,6.109858977585592,1.0183382034301758,-2.4469359556781214
1708435112.3891852,-2.141371726989746,-1.3335984212211152,-2.5271745363818567,6.109867918282308,1.0183970928192139,-2.4469643274890345
1708435112.3912113,-2.141378879547119,-1.3336356294206162,-2.5272157827960413,6.10988866069869,1.018354892730713,-2.44694954553713
1708435112.3932185,-2.1413955688476562,-1.3335776639035721,-2.5272114912616175,6.109826195030966,1.0183639526367188,-2.4469807783709925
1708435112.395166,-2.141408920288086,-1.3336474609426041,-2.5272439161883753,6.109917032509603,1.0183594226837158,-2.4469733873950403
1708435112.3972163,-2.1413912773132324,-1.3336683076671143,-2.5271788279162806,6.10988866069869,1.0183354616165161,-2.4470022360431116
1708435112.3991866,-2.1413471698760986,-1.3336189550212403,-2.5272277037249964,6.109879720001974,1.0183262825012207,-2.4470067659961146
1708435112.401192,-2.141371726989746,-1.3336222630790253,-2.527153555546896,6.109879720001974,1.0183924436569214,-2.4469779173480433
1708435112.403211,-2.1413745880126953,-1.3336474609426041,-2.527153555546896,6.1098917601402185,1.0184179544448853,-2.4469524065600794
1708435112.405191,-2.141343593597412,-1.3336266887239,-2.5272439161883753,6.10986481884078,1.0183354616165161,-2.4469478766070765
1708435112.4072425,-2.1413674354553223,-1.3336519759944458,-2.5272203127490442,6.109896170883932,1.0183594226837158,-2.4469404856311243
1708435112.4092422,-2.141400098800659,-1.3335940104774018,-2.5272071997271937,6.10988877990798,1.018354892730713,-2.4469481150256556
1708435112.411204,-2.1413180828094482,-1.3336801391891022,-2.527161423360006,6.109891640930929,1.0183427333831787,-2.4470112959491175
1708435112.4132056,-2.1413559913635254,-1.3335953515819092,-2.527198616658346,6.109837996750631,1.0183594226837158,-2.4469688574420374
1708435112.41523,-2.141380548477173,-1.3336232912591477,-2.527214829121725,6.109879839211263,1.0183639526367188,-2.446997944508688
1708435112.4172404,-2.1413745880126953,-1.3336356294206162,-2.5271745363818567,6.109893190651693,1.0184223651885986,-2.4470112959491175
1708435112.4191937,-2.1413559913635254,-1.3336683076671143,-2.5271995703326624,6.109879720001974,1.018388032913208,-2.4469433466540735
1708435112.4211807,-2.1413674354553223,-1.333610014324524,-2.527231041585104,6.109933364182272,1.0184016227722168,-2.4469643274890345
1708435112.4232414,-2.141326665878296,-1.3336189550212403,-2.5272277037249964,6.109917032509603,1.0183639526367188,-2.4469524065600794
1708435112.4251764,-2.1413605213165283,-1.3336607229760666,-2.5272071997271937,6.10988866069869,1.0183594226837158,-2.4469316641436976
1708435112.427218,-2.1413919925689697,-1.3336232912591477,-2.5271788279162806,6.1098917601402185,1.018354892730713,-2.446988646184103
1708435112.4291644,-2.1413559913635254,-1.3335940104774018,-2.5272277037249964,6.109858977585592,1.0183806419372559,-2.446994129811422
1708435112.4312022,-2.1413674354553223,-1.3336651486209412,-2.5272234121905726,6.109855997353353,1.0183382034301758,-2.4469895998584192
1708435112.433185,-2.1413471698760986,-1.3335820895484467,-2.527161423360006,6.109933364182272,1.0183851718902588,-2.4469853083239954
1708435112.435194,-2.141376256942749,-1.3336519759944458,-2.5272071997271937,6.109924542694845,1.018388032913208,-2.4469895998584192
1708435112.4371989,-2.1413965225219727,-1.333602936272957,-2.5272071997271937,6.1099125025566,1.0183969736099243,-2.4469524065600794
1708435112.439173,-2.141376256942749,-1.3335953515819092,-2.527242962514059,6.109950172692098,1.0183717012405396,-2.4469569365130823
1708435112.4412093,-2.1413471698760986,-1.3336144399693985,-2.527259174977438,6.109844076424398,1.0183806419372559,-2.4469807783709925
1708435112.4432049,-2.1413021087646484,-1.333617852335312,-2.52722675005068,6.109893190651693,1.0183427333831787,-2.4469733873950403
1708435112.4451861,-2.141383171081543,-1.3336189550212403,-2.52720290819277,6.109837996750631,1.0183472633361816,-2.4469359556781214
1708435112.447215,-2.1413347721099854,-1.333610014324524,-2.527242962514059,6.1098976013954065,1.0183851718902588,-2.446982208882467
1708435112.44926,-2.1413516998291016,-1.3336399656585236,-2.527264658604757,6.109917032509603,1.018354892730713,-2.4469853083239954
1708435112.4512026,-2.141376256942749,-1.3336726439050217,-2.5272396246539515,6.109941231995382,1.0183851718902588,-2.4469760099994105
1708435112.4532104,-2.1413965225219727,-1.3336144399693985,-2.527214829121725,6.109933364182272,1.0183775424957275,-2.4469931761371058
1708435112.4551885,-2.141364812850952,-1.3336549562266846,-2.527182404194967,6.109863388329305,1.0183427333831787,-2.4469569365130823
1708435112.4571855,-2.1413516998291016,-1.3336311143687745,-2.5271952787982386,6.109905111580648,1.0183806419372559,-2.4469404856311243
1708435112.459208,-2.141380548477173,-1.3336430352977295,-2.527198616658346,6.109917032509603,1.0183594226837158,-2.446997944508688
1708435112.461254,-2.141343593597412,-1.3336189550212403,-2.5272191206561487,6.109909522324362,1.0183806419372559,-2.446977678929464
1708435112.4632003,-2.141360282897949,-1.3336356294206162,-2.5272439161883753,6.109860408097067,1.0183050632476807,-2.446977678929464
1708435112.4652193,-2.141343593597412,-1.3335984212211152,-2.5272191206561487,6.1098917601402185,1.018354892730713,-2.4469717184649866
1708435112.4671845,-2.141404390335083,-1.3336593818715592,-2.527149264012472,6.109849917679586,1.0183639526367188,-2.4469361940967005
1708435112.4692013,-2.1413393020629883,-1.333602936272957,-2.5271995703326624,6.109858977585592,1.0183684825897217,-2.4469807783709925
1708435112.471214,-2.1414132118225098,-1.3336593818715592,-2.5272114912616175,6.109921443253317,1.0183517932891846,-2.4469688574420374
1708435112.473197,-2.141380548477173,-1.333574579363205,-2.5272515455829065,6.109950172692098,1.0183472633361816,-2.4469895998584192
1708435112.4752324,-2.141376256942749,-1.333610014324524,-2.5272558371173304,6.1099125025566,1.0183517932891846,-2.4469152132617396
1708435112.4771903,-2.141387701034546,-1.3336341840079804,-2.5271909872638147,6.109854447632589,1.0183851718902588,-2.4469853083239954
1708435112.479214,-2.1413180828094482,-1.3336399656585236,-2.527214829121725,6.109933364182272,1.0183382034301758,-2.446977678929464
1708435112.4811902,-2.1413021087646484,-1.3335790050080796,-2.5272071997271937,6.109896170883932,1.0184016227722168,-2.4469688574420374
1708435112.4832206,-2.1413135528564453,-1.333602936272957,-2.527170006428854,6.10991262176589,1.0183639526367188,-2.4469316641436976
1708435112.485209,-2.1413471698760986,-1.3335984212211152,-2.5272277037249964,6.10988877990798,1.0183806419372559,-2.4469898382769983
1708435112.487226,-2.1413674354553223,-1.3336519759944458,-2.527170006428854,6.1099740145500085,1.0183472633361816,-2.4469152132617396
1708435112.489201,-2.141380548477173,-1.3336232912591477,-2.5272114912616175,6.10995768287734,1.0183366537094116,-2.4469977060901087
1708435112.4912248,-2.141376256942749,-1.3336277169040223,-2.527186695729391,6.109924423485555,1.018356204032898,-2.4469597975360315
1708435112.4932153,-2.1413393020629883,-1.3336189550212403,-2.52723199525942,6.109928953438558,1.0183218717575073,-2.4469807783709925
1708435112.4951947,-2.1413347721099854,-1.333656297331192,-2.5272157827960413,6.109937894135275,1.0183684825897217,-2.4469931761371058
1708435112.4972196,-2.141380548477173,-1.3336222630790253,-2.5272234121905726,6.1099575636680505,1.0183186531066895,-2.4469524065600794
1708435112.4991982,-2.1413393020629883,-1.3336474609426041,-2.5272277037249964,6.109924423485555,1.0183354616165161,-2.4469316641436976
1708435112.501226,-2.1413674354553223,-1.3336056035808106,-2.5271788279162806,6.109896170883932,1.0183517932891846,-2.4469977060901087
1708435112.5032346,-2.141385078430176,-1.3336474609426041,-2.5272439161883753,6.109908091812887,1.0183186531066895,-2.4469717184649866
1708435112.5052218,-2.141360282897949,-1.3336072725108643,-2.5272234121905726,6.109910952835836,1.0183517932891846,-2.4469433466540735
1708435112.507195,-2.141371726989746,-1.3335984212211152,-2.52720290819277,6.109924423485555,1.0183472633361816,-2.4469733873950403
1708435112.509211,-2.141376256942749,-1.333601177935936,-2.527236525212423,6.109985935478964,1.0183231830596924,-2.4469481150256556
1708435112.5111966,-2.141425848007202,-1.3336277169040223,-2.5271831194507044,6.109976875572958,1.0183444023132324,-2.4469433466540735
1708435112.5132005,-2.141376256942749,-1.3336232912591477,-2.5272439161883753,6.109932172089376,1.0183608531951904,-2.4469478766070765
1708435112.515207,-2.1413674354553223,-1.3336356294206162,-2.5272071997271937,6.109958994179525,1.0183651447296143,-2.4469614664660853
1708435112.5171926,-2.1413347721099854,-1.3335613173297425,-2.5272114912616175,6.109984624176779,1.0183398723602295,-2.446998659764425
1708435112.519214,-2.1413135528564453,-1.3336399358562012,-2.5272114912616175,6.1099679348762415,1.018285870552063,-2.446977678929464
1708435112.521228,-2.1413559913635254,-1.333659366970398,-2.5271745363818567,6.110017168312826,1.0183444023132324,-2.4469404856311243
1708435112.523197,-2.1413516998291016,-1.3336232912591477,-2.52720290819277,6.11002932766036,1.0182994604110718,-2.4469569365130823
1708435112.5251663,-2.141331195831299,-1.3336232763579865,-2.5271623770343226,6.109975683480062,1.0183366537094116,-2.4469779173480433
1708435112.527193,-2.1413674354553223,-1.3336189550212403,-2.5271995703326624,6.110069620400228,1.0183277130126953,-2.4469853083239954
1708435112.529177,-2.141383171081543,-1.3335909259370347,-2.5271952787982386,6.110133993416586,1.0183277130126953,-2.4469733873950403
1708435112.5311959,-2.141371726989746,-1.3335866344026108,-2.5271745363818567,6.110129344254293,1.0183113813400269,-2.4469614664660853
1708435112.533203,-2.141371726989746,-1.3336266887239,-2.5271578470813196,6.110066759377279,1.0183157920837402,-2.4469688574420374
1708435112.5351665,-2.1413516998291016,-1.3336100441268464,-2.5271745363818567,6.11006377914504,1.018290400505066,-2.4469478766070765
1708435112.5372055,-2.1413559913635254,-1.3336519759944458,-2.5272234121905726,6.110141265183248,1.0183202028274536,-2.4469197432147425
1708435112.539186,-2.1413559913635254,-1.3336637777141114,-2.52716571489443,6.1100830910499475,1.0182875394821167,-2.4469478766070765
1708435112.5412052,-2.1413516998291016,-1.3335820895484467,-2.5272114912616175,6.110127913742819,1.018341064453125,-2.4470022360431116
1708435112.5431986,-2.141343593597412,-1.3335866046002884,-2.5272327105151575,6.110153186112203,1.01829195022583,-2.4469733873950403
1708435112.54519,-2.141371726989746,-1.3336189550212403,-2.5271788279162806,6.110095011978903,1.01829195022583,-2.4469733873950403
1708435112.5472147,-2.1413674354553223,-1.3336399656585236,-2.5271666685687464,6.110139834671774,1.0182585716247559,-2.4469807783709925
1708435112.5491755,-2.1413471698760986,-1.3335790050080796,-2.5271547476397913,6.110156166344442,1.018270492553711,-2.446994129811422
1708435112.5511858,-2.1413471698760986,-1.3336386245540162,-2.527186695729391,6.110130774765768,1.0183082818984985,-2.4469733873950403
1708435112.5532205,-2.141371726989746,-1.3336072725108643,-2.5271909872638147,6.110180365830221,1.0182795524597168,-2.4469643274890345
1708435112.555208,-2.141376256942749,-1.3336311143687745,-2.5271952787982386,6.11013816574172,1.0183218717575073,-2.4469450155841272
1708435112.5572715,-2.1413674354553223,-1.3336232763579865,-2.5271831194507044,6.110114562302389,1.0182632207870483,-2.4470186869250696
1708435112.559235,-2.141376256942749,-1.3335732382586976,-2.5271788279162806,6.110100853234091,1.0182557106018066,-2.4469478766070765
1708435112.5611844,-2.141425848007202,-1.3336100292256852,-2.5272071997271937,6.110196816712179,1.0182584524154663,-2.4469760099994105
1708435112.5632076,-2.1413471698760986,-1.3336519461921235,-2.5272157827960413,6.110154855042257,1.0182929039001465,-2.4469268957721155
1708435112.5652108,-2.1413471698760986,-1.333610014324524,-2.5272396246539515,6.110166775971212,1.018215298652649,-2.4469404856311243
1708435112.5672204,-2.141400098800659,-1.3336144548705597,-2.5271745363818567,6.1101921675498865,1.0182225704193115,-2.4470186869250696
1708435112.5692112,-2.1413586139678955,-1.3336342138103028,-2.5271952787982386,6.110171305924215,1.0182225704193115,-2.447003189717428
1708435112.5711906,-2.1413586139678955,-1.333610014324524,-2.5271831194507044,6.110187756806173,1.0182360410690308,-2.4469359556781214
1708435112.5732265,-2.1413540840148926,-1.333601177935936,-2.5271666685687464,6.110223400383749,1.0182483196258545,-2.4469898382769983
1708435112.5752156,-2.1414284706115723,-1.3336100441268464,-2.5272038618670862,6.1101876375968835,1.0181821584701538,-2.4469104448901575
1708435112.5771945,-2.1413497924804688,-1.3336637777141114,-2.5271623770343226,6.110198485642233,1.018215298652649,-2.4469733873950403
1708435112.579193,-2.141399383544922,-1.333627702002861,-2.5272484461413782,6.110277402191915,1.018212080001831,-2.4469614664660853
1708435112.5812087,-2.1413867473602295,-1.3336189550212403,-2.5271995703326624,6.110243069916525,1.0182316303253174,-2.4469779173480433
1708435112.5832236,-2.1414082050323486,-1.333602936272957,-2.5271952787982386,6.110234129219808,1.0181984901428223,-2.4469895998584192
1708435112.5852034,-2.1413745880126953,-1.333656297331192,-2.5271831194507044,6.110337364464559,1.0182197093963623,-2.4469688574420374
1708435112.5872324,-2.1413779258728027,-1.3336056035808106,-2.52717096010317,6.110271441727438,1.0182360410690308,-2.4469552675830286
1708435112.5892503,-2.1413779258728027,-1.333626703625061,-2.5271623770343226,6.110302912979879,1.0182316303253174,-2.4469688574420374
1708435112.5911975,-2.1414318084716797,-1.3336144548705597,-2.527236286793844,6.110310423165121,1.018200159072876,-2.4469688574420374
1708435112.5932288,-2.141406297683716,-1.3335535836270829,-2.5271666685687464,6.110269772797384,1.0182242393493652,-2.4469733873950403
1708435112.5952392,-2.141340732574463,-1.3336770099452515,-2.527198616658346,6.110343205719747,1.0182119607925415,-2.4469569365130823
1708435112.5972455,-2.141427516937256,-1.3336100441268464,-2.52720290819277,6.110269772797384,1.018178939819336,-2.4469152132617396
1708435112.5991945,-2.1414575576782227,-1.333582119350769,-2.5272114912616175,6.110359656601705,1.0181745290756226,-2.4469779173480433
1708435112.6012084,-2.1414735317230225,-1.3336189550212403,-2.5271788279162806,6.110373008042135,1.0181910991668701,-2.4469197432147425
1708435112.6032157,-2.1413991451263428,-1.3336726439050217,-2.5271952787982386,6.110343205719747,1.0182242393493652,-2.4469597975360315
1708435112.6052048,-2.141435384750366,-1.3336296838572999,-2.5272071997271937,6.110329735070028,1.0181834697723389,-2.4469433466540735
1708435112.6072154,-2.1414356231689453,-1.3336311143687745,-2.5271995703326624,6.1103341458137415,1.018178939819336,-2.4469614664660853
1708435112.609221,-2.141448736190796,-1.3335984212211152,-2.5271459261523646,6.110329735070028,1.018195629119873,-2.446977678929464
1708435112.6112688,-2.1414716243743896,-1.3336144548705597,-2.5271874109851282,6.1103625176246545,1.0181834697723389,-2.4469807783709925
1708435112.613207,-2.141444206237793,-1.3336549562266846,-2.527170006428854,6.110379206925192,1.0181385278701782,-2.4469524065600794
1708435112.6152403,-2.141435384750366,-1.3336232763579865,-2.5271697680102747,6.1103625176246545,1.0181834697723389,-2.4469853083239954
1708435112.6171956,-2.1414530277252197,-1.3336651486209412,-2.5271995703326624,6.1103505966956995,1.0181641578674316,-2.4470067659961146
1708435112.6192331,-2.141447067260742,-1.3336519759944458,-2.527224604283468,6.110325205117025,1.0181506872177124,-2.4469643274890345
1708435112.6212018,-2.14145565032959,-1.333680124287941,-2.5271788279162806,6.110357987671652,1.0181596279144287,-2.4469807783709925
1708435112.6232314,-2.1414356231689453,-1.3336232912591477,-2.5271788279162806,6.1103625176246545,1.0181924104690552,-2.4469597975360315
1708435112.6251953,-2.141397476196289,-1.3336519461921235,-2.527224604283468,6.1103625176246545,1.0181429386138916,-2.4469316641436976
1708435112.6272094,-2.1414759159088135,-1.3336189550212403,-2.5272114912616175,6.110428440361776,1.0181641578674316,-2.4469226042376917
1708435112.6291866,-2.141418695449829,-1.3336562675288697,-2.5271745363818567,6.110391127854147,1.0182090997695923,-2.4469268957721155
1708435112.631213,-2.14145565032959,-1.3335940402797242,-2.5271664301501673,6.110374676972189,1.0181715488433838,-2.4469762484179896
1708435112.633223,-2.1414928436279297,-1.3336311143687745,-2.5271831194507044,6.110414969712057,1.0181552171707153,-2.4469643274890345
1708435112.635186,-2.1414928436279297,-1.333656297331192,-2.527186695729391,6.110403048783102,1.0181519985198975,-2.4469404856311243
1708435112.6372046,-2.141453981399536,-1.3335940402797242,-2.5271623770343226,6.110348927765646,1.0181641578674316,-2.4469106833087366
1708435112.6391928,-2.1414356231689453,-1.3336222928813477,-2.5271580854998987,6.110344517021932,1.0181384086608887,-2.4469481150256556
1708435112.641192,-2.141462802886963,-1.333602951174118,-2.527180020009176,6.110398518830099,1.0181474685668945,-2.4469316641436976
1708435112.6432247,-2.1414663791656494,-1.3335820895484467,-2.5272114912616175,6.110373008042135,1.0181759595870972,-2.4469898382769983
1708435112.6451912,-2.141458511352539,-1.3336100441268464,-2.5271952787982386,6.110380637436666,1.0181384086608887,-2.4469106833087366
1708435112.647217,-2.1414382457733154,-1.333656297331192,-2.5272038618670862,6.110466944962301,1.0181596279144287,-2.4469359556781214
1708435112.6491735,-2.1414425373077393,-1.3336320233396073,-2.5271909872638147,6.110483753472128,1.018109917640686,-2.4469197432147425
1708435112.651213,-2.1414425373077393,-1.3335732978633423,-2.5272191206561487,6.110418069153585,1.0181474685668945,-2.4469359556781214
1708435112.6531847,-2.1414268016815186,-1.3336342138103028,-2.5271547476397913,6.110446202545919,1.018114447593689,-2.446998659764425
1708435112.6551793,-2.141458511352539,-1.3335984212211152,-2.527191702519552,6.11051498630599,1.0181429386138916,-2.4469524065600794
1708435112.6572106,-2.141512393951416,-1.3336232912591477,-2.5271666685687464,6.110449063568868,1.0181924104690552,-2.4469895998584192
1708435112.6591988,-2.1414222717285156,-1.3336356294206162,-2.5271874109851282,6.110441791802206,1.0181307792663574,-2.4470067659961146
1708435112.6612067,-2.1414716243743896,-1.3336072725108643,-2.527208391820089,6.1104867337043665,1.0181686878204346,-2.4469853083239954
1708435112.6632082,-2.141475200653076,-1.333602951174118,-2.5271909872638147,6.1104702828224084,1.018118977546692,-2.4469717184649866
1708435112.66518,-2.141451358795166,-1.3336189550212403,-2.5272038618670862,6.110500085144796,1.0181519985198975,-2.4469733873950403
1708435112.6672163,-2.1414310932159424,-1.3336650890162964,-2.5271788279162806,6.1104702828224084,1.0181474685668945,-2.4469898382769983
1708435112.6692204,-2.1414883136749268,-1.3336311143687745,-2.5271788279162806,6.1104822037513635,1.018118977546692,-2.4469614664660853
1708435112.671194,-2.1414883136749268,-1.3336549562266846,-2.5271623770343226,6.110491263657369,1.0181519985198975,-2.4469643274890345
1708435112.6732216,-2.1414716243743896,-1.3336100441268464,-2.52717096010317,6.110449063568868,1.0181307792663574,-2.4470203558551233
1708435112.6751924,-2.141447067260742,-1.3335984212211152,-2.5271995703326624,6.110416638642111,1.0181385278701782,-2.4469569365130823
1708435112.6772065,-2.1414425373077393,-1.3335865896991272,-2.527175490056173,6.110444652825155,1.0181353092193604,-2.4469524065600794
1708435112.6791816,-2.14145565032959,-1.333656297331192,-2.52717096010317,6.110465872078695,1.018109917640686,-2.4469359556781214
1708435112.681195,-2.141451358795166,-1.3336356294206162,-2.527236525212423,6.1104702828224084,1.0181397199630737,-2.4469597975360315
1708435112.6832352,-2.141505241394043,-1.3336846095374604,-2.5271666685687464,6.110507595330038,1.0181233882904053,-2.446994129811422
1708435112.685166,-2.141475200653076,-1.3336549562266846,-2.5271666685687464,6.110498535424032,1.0181519985198975,-2.4469762484179896
1708435112.687221,-2.141475200653076,-1.333668277864792,-2.527191702519552,6.110465872078695,1.0181474685668945,-2.4469853083239954
1708435112.689191,-2.1414921283721924,-1.3335940402797242,-2.5271547476397913,6.110449063568868,1.0181686878204346,-2.4469614664660853
1708435112.6912007,-2.141496419906616,-1.3336637777141114,-2.527196232472555,6.110465872078695,1.0181564092636108,-2.4469316641436976
1708435112.6931899,-2.141484022140503,-1.3336144548705597,-2.5271504561053675,6.110458123474874,1.0181397199630737,-2.4469931761371058
1708435112.6952052,-2.14150333404541,-1.3336725992015381,-2.5271547476397913,6.110441791802206,1.018118977546692,-2.446998659764425
1708435112.6972003,-2.141475200653076,-1.3336189550212403,-2.52717096010317,6.110494124680319,1.0181519985198975,-2.4469853083239954
1708435112.6991887,-2.1414918899536133,-1.3336311143687745,-2.5272038618670862,6.110453593521871,1.0181143283843994,-2.4469895998584192
1708435112.701208,-2.1414382457733154,-1.333610014324524,-2.527191702519552,6.110473263054647,1.0181474685668945,-2.4469569365130823
1708435112.703217,-2.1414382457733154,-1.3336232912591477,-2.5271788279162806,6.110458123474874,1.0181474685668945,-2.4469688574420374
1708435112.7051897,-2.1414833068847656,-1.3336356294206162,-2.5271874109851282,6.110503065377035,1.0181565284729004,-2.446977678929464
1708435112.7072322,-2.1414663791656494,-1.3336189550212403,-2.5271297136889856,6.110453593521871,1.0181565284729004,-2.4469268957721155
1708435112.7092004,-2.1414382457733154,-1.3336519461921235,-2.527159039174215,6.110473263054647,1.018114447593689,-2.4469316641436976
1708435112.711184,-2.141496419906616,-1.333644376402237,-2.527159039174215,6.110441672592916,1.018118977546692,-2.4469316641436976
1708435112.71324,-2.1414918899536133,-1.3336100292256852,-2.5271831194507044,6.1104657528694055,1.0181474685668945,-2.4469688574420374
1708435112.7152143,-2.1414382457733154,-1.3336430352977295,-2.5271666685687464,6.110540735512533,1.0181609392166138,-2.446965758000509
1708435112.7172139,-2.141458511352539,-1.3336474609426041,-2.5271623770343226,6.110561716347494,1.0181565284729004,-2.4469285647021692
1708435112.7191777,-2.1414337158203125,-1.3336189550212403,-2.5271547476397913,6.110461342125692,1.0181143283843994,-2.4469688574420374
1708435112.7211843,-2.141453981399536,-1.3336637777141114,-2.5271831194507044,6.110474812775411,1.0181025266647339,-2.4469524065600794
1708435112.723215,-2.1414670944213867,-1.3335776788047333,-2.5271788279162806,6.110474812775411,1.0181565284729004,-2.4470067659961146
1708435112.725177,-2.141413688659668,-1.3336232912591477,-2.5271504561053675,6.110388028412618,1.0181306600570679,-2.4469895998584192
1708435112.7272005,-2.141512155532837,-1.3335895848325272,-2.527208391820089,6.110540735512533,1.0181564092636108,-2.446997944508688
1708435112.7291636,-2.141496419906616,-1.3336072725108643,-2.5271266142474573,6.110458123474874,1.0181397199630737,-2.4470067659961146
1708435112.731171,-2.1414794921875,-1.3336399656585236,-2.527191702519552,6.1105044958885095,1.0181025266647339,-2.4469853083239954
1708435112.7331939,-2.141451358795166,-1.3336311143687745,-2.527175251637594,6.11043010929183,1.0181262493133545,-2.4469569365130823
1708435112.7352223,-2.141458511352539,-1.3336144399693985,-2.52717096010317,6.110474812775411,1.0181851387023926,-2.44694954553713
1708435112.737196,-2.1414875984191895,-1.3336144399693985,-2.5271580854998987,6.110498535424032,1.0181474685668945,-2.4469481150256556
1708435112.7391841,-2.1414709091186523,-1.3336519759944458,-2.5271874109851282,6.110423791199484,1.0181474685668945,-2.4469569365130823
1708435112.7411635,-2.1414990425109863,-1.3336056035808106,-2.527191702519552,6.110428201943197,1.0181307792663574,-2.4469268957721155
1708435112.7431843,-2.1414709091186523,-1.333602951174118,-2.52717096010317,6.110491263657369,1.0181397199630737,-2.446994129811422
1708435112.7451892,-2.1414222717285156,-1.3336311143687745,-2.5271995703326624,6.110441672592916,1.0181641578674316,-2.446994129811422
1708435112.7471898,-2.1414709091186523,-1.333626703625061,-2.527125422154562,6.110446202545919,1.0181777477264404,-2.4469807783709925
1708435112.749165,-2.141484022140503,-1.3336519461921235,-2.52717096010317,6.110421049385824,1.0181759595870972,-2.4469316641436976
1708435112.7512124,-2.141474485397339,-1.3336144548705597,-2.5271666685687464,6.110439049988546,1.0181759595870972,-2.4469361940967005
1708435112.7531912,-2.141453981399536,-1.3336144399693985,-2.5271995703326624,6.110413777619161,1.0181596279144287,-2.4469898382769983
1708435112.7551858,-2.141453981399536,-1.3336637777141114,-2.5271874109851282,6.110458123474874,1.0181924104690552,-2.4470320383654993
1708435112.7571971,-2.141496419906616,-1.3336144399693985,-2.5271621386157435,6.110422599106588,1.0181686878204346,-2.4469152132617396
