Eg3-git/Classifiers/Data Collection/u2/u2www1_ur3e_joint_states.csv
time,elbow_joint,shoulder_lift_joint,shoulder_pan_joint,wrist_1_joint,wrist_2_joint,wrist_3_joint
1708435085.9691417,-2.14199161529541,-1.3337352585843583,-2.526818815861837,6.111334073334493,1.0175764560699463,-2.3216853777514856
1708435085.9711277,-2.1420819759368896,-1.3336986166289826,-2.52682334581484,6.111341464310446,1.0175853967666626,-2.3216689268695276
1708435085.9731507,-2.142011880874634,-1.3337105375579377,-2.5268471876727503,6.111317622452535,1.0176395177841187,-2.321704928074972
1708435085.9751325,-2.142077684402466,-1.333702878361084,-2.526839796696798,6.111322271614828,1.0176424980163574,-2.3216643969165247
1708435085.9771862,-2.142050266265869,-1.3337756109288712,-2.52682334581484,6.111313211708822,1.0176440477371216,-2.3216314951526087
1708435085.9791222,-2.142050266265869,-1.3337105375579377,-2.52688438097109,6.111376154213705,1.0176273584365845,-2.3216448465930384
1708435085.9811113,-2.142077684402466,-1.33369433999572,-2.526839796696798,6.111413585930624,1.0176228284835815,-2.3217065970050257
1708435085.9831538,-2.1420528888702393,-1.3336534363082428,-2.5268636385547083,6.111359464913168,1.017626166343689,-2.3216434160815638
1708435085.985165,-2.1420199871063232,-1.3336814504912873,-2.5268517176257532,6.111334073334493,1.017615556716919,-2.321693007146017
1708435085.9871342,-2.1420369148254395,-1.3336858016303559,-2.526888910924093,6.111331212311544,1.017655849456787,-2.3216477076159876
1708435085.9891284,-2.1420705318450928,-1.3337224584868927,-2.5268097559558313,6.111347663193502,1.017622947692871,-2.3216403166400355
1708435085.9911287,-2.1420865058898926,-1.3336986166289826,-2.5268262068377894,6.111347543984213,1.0176020860671997,-2.3217020670520228
1708435085.993171,-2.142024517059326,-1.3337352585843583,-2.5268636385547083,6.1113881943519495,1.0176228284835815,-2.3217020670520228
1708435085.9951441,-2.142024517059326,-1.3337105375579377,-2.526835266743795,6.111425506859579,1.0176351070404053,-2.3217065970050257
1708435085.997154,-2.142024517059326,-1.3337633621743699,-2.5268681685077112,6.111372935562887,1.0176273584365845,-2.3216853777514856
1708435085.999133,-2.142077684402466,-1.333702878361084,-2.5268517176257532,6.111338722496786,1.0176184177398682,-2.3216808477984827
1708435086.0011153,-2.142029047012329,-1.333714799290039,-2.5268517176257532,6.111299741059103,1.0176305770874023,-2.3216689268695276
1708435086.0031524,-2.142057180404663,-1.3337343794158478,-2.5268142859088343,6.111362802773275,1.017626166343689,-2.3216941992389124
1708435086.005131,-2.142073154449463,-1.3337429028800507,-2.5267720858203333,6.111289489060201,1.0175931453704834,-2.3216522375689905
1708435086.0071495,-2.142045736312866,-1.3337309819510956,-2.526856247578756,6.111313211708822,1.0176184177398682,-2.3216779867755335
1708435086.009122,-2.142011880874634,-1.3336866957000275,-2.5268381277667444,6.111310350685873,1.0176395177841187,-2.3216808477984827
1708435086.0111623,-2.142057180404663,-1.3337514412454148,-2.5268755594836634,6.111331212311544,1.0176184177398682,-2.3216987291919153
1708435086.0131307,-2.1420164108276367,-1.3337591004422684,-2.5268636385547083,6.111331212311544,1.0176020860671997,-2.3216703573810022
1708435086.015605,-2.1420164108276367,-1.3337591004422684,-2.526835266743795,6.111338603287496,1.017606496810913,-2.32167631784548
1708435086.0171373,-2.142050266265869,-1.3337386411479493,-2.5268471876727503,6.111362683563986,1.0176515579223633,-2.321655575429098
1708435086.019122,-2.142003059387207,-1.3337352585843583,-2.5268922487842005,6.111338722496786,1.0176184177398682,-2.3216734568225306
1708435086.0211415,-2.142024517059326,-1.3337917935899277,-2.5268307367907923,6.1113717434699915,1.01766037940979,-2.3216808477984827
1708435086.023128,-2.1420822143554688,-1.3337471795133133,-2.526835266743795,6.111358272820272,1.0176094770431519,-2.3216522375689905
1708435086.025122,-2.14206862449646,-1.3337019991925736,-2.5268142859088343,6.111350524216451,1.0176514387130737,-2.321713987980978
1708435086.0271242,-2.142011880874634,-1.3336696189692994,-2.526764456425802,6.111363994866171,1.017555594444275,-2.3217228094684046
1708435086.029125,-2.142073154449463,-1.333726705317833,-2.5268517176257532,6.111294019013204,1.0176351070404053,-2.3216899077044886
1708435086.0311322,-2.142057180404663,-1.3337224584868927,-2.5268471876727503,6.111331212311544,1.0175975561141968,-2.3216899077044886
1708435086.0331564,-2.142061710357666,-1.3336704981378098,-2.5268967787372034,6.111409055977621,1.0176228284835815,-2.321655575429098
1708435086.0351164,-2.142103433609009,-1.333763377075531,-2.5268545786487024,6.111343133240499,1.0176273584365845,-2.321713987980978
1708435086.0371144,-2.142124891281128,-1.33369433999572,-2.5268216768847864,6.111341583519735,1.0175975561141968,-2.3217108885394495
1708435086.0391212,-2.142033338546753,-1.333702878361084,-2.5268262068377894,6.111322271614828,1.0176184177398682,-2.3216853777514856
1708435086.0411437,-2.142061710357666,-1.3337386113456269,-2.5268710295306605,6.111359464913168,1.0176514387130737,-2.3216567675219935
1708435086.0431452,-2.1420798301696777,-1.3337343794158478,-2.5268681685077112,6.111392605095663,1.0176351070404053,-2.321713987980978
1708435086.045128,-2.142029047012329,-1.3337386411479493,-2.5268216768847864,6.111355054169454,1.0175853967666626,-2.3217020670520228
1708435086.0471284,-2.1420164108276367,-1.3336986166289826,-2.5268262068377894,6.111331212311544,1.0176514387130737,-2.3216689268695276
1708435086.049124,-2.142098903656006,-1.3337343794158478,-2.526835266743795,6.1113717434699915,1.0176273584365845,-2.321709458027975
1708435086.051143,-2.142057180404663,-1.3337471795133133,-2.526835266743795,6.1113717434699915,1.0176020860671997,-2.3216734568225306
1708435086.0531752,-2.142061710357666,-1.333751456146576,-2.5268800894366663,6.111304390221395,1.017655849456787,-2.3217273394214075
1708435086.0551147,-2.1420865058898926,-1.3336986166289826,-2.526889149342672,6.111313211708822,1.0176424980163574,-2.3217020670520228
1708435086.0571284,-2.142059326171875,-1.3337071400931855,-2.5268426577197474,6.11138807514266,1.0176094770431519,-2.321713987980978
1708435086.0591195,-2.1420705318450928,-1.3337471795133133,-2.5268681685077112,6.11132966259078,1.0175601243972778,-2.3216853777514856
1708435086.0611184,-2.142011880874634,-1.3336814504912873,-2.5268636385547083,6.111397135048666,1.0176138877868652,-2.321693007146017
1708435086.0631704,-2.142033338546753,-1.3337548238090058,-2.5268262068377894,6.111326801567831,1.017655849456787,-2.3216899077044886
1708435086.065114,-2.142045736312866,-1.3337352585843583,-2.5268710295306605,6.111395466118612,1.0176094770431519,-2.3217065970050257
1708435086.0671523,-2.142050266265869,-1.3337181818536301,-2.5268591086017054,6.11132966259078,1.0176305770874023,-2.3217065970050257
1708435086.0691364,-2.142059326171875,-1.3337591004422684,-2.5268097559558313,6.111376273422994,1.0176094770431519,-2.321751419697897
1708435086.071108,-2.1420154571533203,-1.3337181371501465,-2.5268426577197474,6.111395585327902,1.0176138877868652,-2.3217230478869837
1708435086.0731678,-2.1420912742614746,-1.3337224584868927,-2.5268471876727503,6.1113672135169885,1.0176273584365845,-2.321688477193014
1708435086.0751297,-2.142033338546753,-1.333706260924675,-2.526839796696798,6.1113836643989465,1.0176228284835815,-2.3217230478869837
1708435086.0771449,-2.142115831375122,-1.333697648053505,-2.5268471876727503,6.111301290779867,1.0176094770431519,-2.32169753709902
1708435086.0791306,-2.1420164108276367,-1.3337386411479493,-2.526839796696798,6.111334073334493,1.0176020860671997,-2.3216477076159876
1708435086.0811224,-2.142066240310669,-1.333714799290039,-2.5268381277667444,6.111371862679281,1.0176469087600708,-2.3217273394214075
1708435086.0831838,-2.142077684402466,-1.333726705317833,-2.5268262068377894,6.111370193749227,1.0176514387130737,-2.3217273394214075
1708435086.0851612,-2.142061710357666,-1.3336900782636185,-2.5268426577197474,6.111371862679281,1.0176228284835815,-2.3217230478869837
1708435086.0871658,-2.1420369148254395,-1.3337471795133133,-2.5268262068377894,6.111446606903829,1.0176094770431519,-2.321709458027975
1708435086.089119,-2.142029047012329,-1.3337224584868927,-2.526835266743795,6.11130582073287,1.0176351070404053,-2.321655575429098
1708435086.0911155,-2.1420414447784424,-1.3337267202189942,-2.526835266743795,6.111374604492941,1.0176351070404053,-2.32169753709902
1708435086.0931795,-2.1420414447784424,-1.3337309968522568,-2.5268636385547083,6.1113459942634485,1.0176681280136108,-2.3216477076159876
1708435086.095138,-2.1420528888702393,-1.3336986166289826,-2.5269132296191614,6.11141978481368,1.0176814794540405,-2.321660105382101
1708435086.0971265,-2.142050266265869,-1.3337352585843583,-2.52682334581484,6.111374604492941,1.0176184177398682,-2.321693007146017
1708435086.099106,-2.142073154449463,-1.33369433999572,-2.5268097559558313,6.111409055977621,1.0176351070404053,-2.32167631784548
1708435086.101101,-2.142066240310669,-1.3337462109378357,-2.5268471876727503,6.1113881943519495,1.0176138877868652,-2.3216779867755335
1708435086.1031358,-2.142061710357666,-1.333714799290039,-2.5268052260028284,6.1113717434699915,1.0176228284835815,-2.3216477076159876
1708435086.1051366,-2.142033338546753,-1.3337429028800507,-2.5268591086017054,6.111380803375997,1.017655849456787,-2.3217020670520228
1708435086.107147,-2.142033338546753,-1.3337756109288712,-2.5268262068377894,6.1113717434699915,1.0176273584365845,-2.32169753709902
1708435086.1091268,-2.142077684402466,-1.3337181818536301,-2.5268591086017054,6.111395585327902,1.0175853967666626,-2.3216314951526087
1708435086.1111064,-2.1420369148254395,-1.3337071400931855,-2.526835266743795,6.1113672135169885,1.0176351070404053,-2.3217020670520228
1708435086.113117,-2.1420483589172363,-1.3337633621743699,-2.526872698460714,6.111341583519735,1.017604947090149,-2.321693007146017
1708435086.1151168,-2.142073154449463,-1.3336824041656037,-2.5268846193896692,6.1113717434699915,1.0176514387130737,-2.321693007146017
1708435086.1171558,-2.14206862449646,-1.3337591004422684,-2.5268800894366663,6.11137472370223,1.0176514387130737,-2.321709458027975
1708435086.1191132,-2.142090082168579,-1.3337429028800507,-2.5268052260028284,6.111420976906576,1.0176094770431519,-2.3216899077044886
1708435086.1211257,-2.142061710357666,-1.3337429028800507,-2.5268216768847864,6.111325132637777,1.0176469087600708,-2.3216734568225306
1708435086.123131,-2.1420414447784424,-1.3337267202189942,-2.5268636385547083,6.111386644631185,1.0176228284835815,-2.3216989676104944
1708435086.1251032,-2.142073154449463,-1.3336814504912873,-2.5268381277667444,6.111395585327902,1.0176469087600708,-2.321671787892477
1708435086.127125,-2.1420528888702393,-1.333697648053505,-2.5268922487842005,6.1113295433814905,1.0176094770431519,-2.3216643969165247
1708435086.1291203,-2.142085552215576,-1.3336824786714097,-2.5268517176257532,6.111381995468893,1.0176681280136108,-2.3216314951526087
1708435086.1311092,-2.142050266265869,-1.33369433999572,-2.5268664995776575,6.111395466118612,1.0176094770431519,-2.3217185179339808
1708435086.1331656,-2.142061710357666,-1.3337309968522568,-2.5268517176257532,6.111349212914266,1.0176138877868652,-2.32167631784548
1708435086.1351423,-2.142077684402466,-1.333714799290039,-2.5268800894366663,6.1113449213798425,1.0176514387130737,-2.321713987980978
1708435086.1371307,-2.1420528888702393,-1.3337352585843583,-2.5269129912005823,6.111391055374899,1.0176351070404053,-2.321747128163473
1708435086.1391115,-2.1420209407806396,-1.3337309819510956,-2.5268006960498255,6.111370193749227,1.0176379680633545,-2.3216853777514856
1708435086.1411226,-2.142024517059326,-1.3337233376554032,-2.526839796696798,6.111407387047567,1.0176514387130737,-2.3216689268695276
1708435086.1431217,-2.142090082168579,-1.3336858016303559,-2.5268426577197474,6.111398446350851,1.0176514387130737,-2.3217020670520228
1708435086.1451268,-2.142054796218872,-1.3337352585843583,-2.5268381277667444,6.111398446350851,1.0176228284835815,-2.3216808477984827
1708435086.1471376,-2.1421079635620117,-1.3337343794158478,-2.5268216768847864,6.111420976906576,1.0176424980163574,-2.3216853777514856
1708435086.1491342,-2.1420705318450928,-1.3337514412454148,-2.5268545786487024,6.111407387047567,1.0176469087600708,-2.3217392603503626
1708435086.1511226,-2.142024517059326,-1.3336738807014008,-2.5268381277667444,6.111402976303854,1.0175808668136597,-2.321688477193014
1708435086.153186,-2.1420822143554688,-1.3337190610221406,-2.5268994013415735,6.111379134445944,1.0176681280136108,-2.3217020670520228
1708435086.1551485,-2.142066240310669,-1.3336986166289826,-2.5269058386432093,6.111386525421896,1.0175808668136597,-2.321709458027975
1708435086.157177,-2.142029047012329,-1.333706260924675,-2.5268710295306605,6.111370193749227,1.017626166343689,-2.3217111269580286
1708435086.1591454,-2.142050266265869,-1.3337429028800507,-2.5268517176257532,6.111402976303854,1.017626166343689,-2.3217392603503626
1708435086.1611261,-2.14202880859375,-1.3336824190667649,-2.5268636385547083,6.111407506256857,1.0176094770431519,-2.3217185179339808
1708435086.163171,-2.142061710357666,-1.3336858016303559,-2.5269175211535853,6.111391055374899,1.017626166343689,-2.32169753709902
1708435086.1651146,-2.1420323848724365,-1.3336814504912873,-2.5268307367907923,6.111358272820272,1.0176184177398682,-2.3216479460345667
1708435086.167142,-2.142057180404663,-1.3336986166289826,-2.5268591086017054,6.111402976303854,1.0176514387130737,-2.3216853777514856
1708435086.1691234,-2.142050266265869,-1.3337190610221406,-2.5268967787372034,6.111370193749227,1.0176351070404053,-2.321713987980978
1708435086.1711223,-2.1420819759368896,-1.3337343794158478,-2.5268636385547083,6.111402976303854,1.0175931453704834,-2.3216853777514856
1708435086.1731586,-2.142090082168579,-1.3337343794158478,-2.5268636385547083,6.111419665604391,1.017626166343689,-2.3217020670520228
1708435086.175144,-2.1420705318450928,-1.333706260924675,-2.5268381277667444,6.111427056580343,1.0176184177398682,-2.3216853777514856
1708435086.1771312,-2.142090082168579,-1.3336986166289826,-2.5268307367907923,6.111406194954672,1.0175764560699463,-2.321746889744894
1708435086.1791177,-2.142061710357666,-1.333738626246788,-2.5268426577197474,6.111385094910421,1.0176514387130737,-2.3217185179339808
1708435086.1811197,-2.142077684402466,-1.3337676388076325,-2.5268967787372034,6.111415135651388,1.0176094770431519,-2.321725908909933
1708435086.1831424,-2.1420412063598633,-1.3337841492942353,-2.5268426577197474,6.111365544586935,1.0176305770874023,-2.3216689268695276
1708435086.1851451,-2.142057180404663,-1.333739550118782,-2.5268922487842005,6.111447918206014,1.0176469087600708,-2.3217392603503626
1708435086.1871667,-2.142059326171875,-1.3336781573346634,-2.5268681685077112,6.11137746551589,1.0176184177398682,-2.321738068257467
1708435086.1891346,-2.142061710357666,-1.33369433999572,-2.5268800894366663,6.111407506256857,1.0176184177398682,-2.3217347303973597
1708435086.19118,-2.142033338546753,-1.3337309819510956,-2.5268664995776575,6.111419665604391,1.0176138877868652,-2.3217020670520228
1708435086.1931264,-2.142066240310669,-1.3336986166289826,-2.5268335978137415,6.111410724907675,1.0175975561141968,-2.3216853777514856
1708435086.195116,-2.14206862449646,-1.3337138307145615,-2.5268922487842005,6.111393916397848,1.017663598060608,-2.321730438862936
1708435086.1971722,-2.142061710357666,-1.3337309819510956,-2.5268591086017054,6.111398446350851,1.017663598060608,-2.3217185179339808
1708435086.1991663,-2.1420414447784424,-1.333706260924675,-2.526872698460714,6.111464011460104,1.017621636390686,-2.32169753709902
1708435086.2011192,-2.142077684402466,-1.33369433999572,-2.5268426577197474,6.111393916397848,1.0176469087600708,-2.32169753709902
1708435086.2031777,-2.1420865058898926,-1.3337105375579377,-2.5268307367907923,6.111447918206014,1.0176184177398682,-2.3217230478869837
1708435086.2051494,-2.142057180404663,-1.3337514412454148,-2.5268545786487024,6.111402976303854,1.0176305770874023,-2.3217020670520228
1708435086.2071397,-2.142115831375122,-1.3337352585843583,-2.5268664995776575,6.111398446350851,1.017626166343689,-2.3216808477984827
1708435086.2091138,-2.142050266265869,-1.3336943250945588,-2.5268171469317835,6.111443507462301,1.0176681280136108,-2.3216434160815638
1708435086.2111244,-2.142000436782837,-1.3337875318578263,-2.5268846193896692,6.111397254257955,1.0176305770874023,-2.321655575429098
1708435086.213174,-2.1420414447784424,-1.3337352585843583,-2.5268545786487024,6.111492621689596,1.0176424980163574,-2.321667496358053
1708435086.2151105,-2.142061710357666,-1.3337233376554032,-2.5268591086017054,6.11142264583663,1.0176379680633545,-2.321655575429098
1708435086.2171347,-2.1420154571533203,-1.333718166952469,-2.5268545786487024,6.11137746551589,1.0176424980163574,-2.321709458027975
1708435086.2191226,-2.14206862449646,-1.3336696189692994,-2.5268142859088343,6.1113730547721765,1.017655849456787,-2.321713987980978
1708435086.2211478,-2.1420912742614746,-1.3337309819510956,-2.526835266743795,6.111406194954672,1.017604947090149,-2.3217349688159388
1708435086.223143,-2.1420865058898926,-1.3336986166289826,-2.5268471876727503,6.111445057183065,1.017604947090149,-2.3217318693744105
1708435086.2251413,-2.142061710357666,-1.3337105375579377,-2.5268517176257532,6.111431586533346,1.0176591873168945,-2.321667257939474
1708435086.2271593,-2.142098903656006,-1.333682433967926,-2.5268471876727503,6.111368763237753,1.0176424980163574,-2.321700398121969
1708435086.2291157,-2.142024517059326,-1.3337471795133133,-2.5268681685077112,6.111398446350851,1.0176514387130737,-2.3216643969165247
1708435086.231126,-2.1420207023620605,-1.3337138307145615,-2.5268922487842005,6.1113895056541345,1.017663598060608,-2.3217185179339808
1708435086.2331474,-2.142045736312866,-1.3337071400931855,-2.5268545786487024,6.11142252662734,1.0176351070404053,-2.321693007146017
1708435086.2351332,-2.142054796218872,-1.3336900782636185,-2.526856247578756,6.111418235092916,1.0176424980163574,-2.321725908909933
1708435086.237131,-2.142077684402466,-1.3337591153434296,-2.5268006960498255,6.111413585930624,1.0176514387130737,-2.321725908909933
1708435086.2391126,-2.142061710357666,-1.3337471199086686,-2.5268097559558313,6.111385094910421,1.0176138877868652,-2.3217020670520228
1708435086.2411244,-2.1420819759368896,-1.3336738807014008,-2.5268800894366663,6.111409055977621,1.017626166343689,-2.321688477193014
1708435086.2431362,-2.1420528888702393,-1.3337105375579377,-2.5268591086017054,6.111447918206014,1.0176184177398682,-2.3217349688159388
1708435086.24514,-2.142057180404663,-1.333702878361084,-2.52682334581484,6.111436116486349,1.017626166343689,-2.321704928074972
1708435086.2471588,-2.142061710357666,-1.3337429028800507,-2.5268591086017054,6.111436116486349,1.0176469087600708,-2.321751419697897
1708435086.2491245,-2.142077684402466,-1.3337548238090058,-2.5268517176257532,6.111443507462301,1.017621636390686,-2.3216808477984827
1708435086.2511544,-2.1420199871063232,-1.3337309819510956,-2.5268471876727503,6.111461508065023,1.0176395177841187,-2.32172137895693
1708435086.2531219,-2.142033338546753,-1.3337437969497223,-2.5268219153033655,6.111471760063925,1.0176184177398682,-2.3217065970050257
1708435086.255118,-2.142077684402466,-1.3337429028800507,-2.5268755594836634,6.111471760063925,1.0176424980163574,-2.32169753709902
1708435086.2571895,-2.142042398452759,-1.3337190610221406,-2.5268800894366663,6.111415135651388,1.0176681280136108,-2.3217185179339808
1708435086.2591145,-2.142033338546753,-1.333697648053505,-2.5268426577197474,6.111419665604391,1.0176379680633545,-2.3217230478869837
1708435086.2611382,-2.142059326171875,-1.333706260924675,-2.5268262068377894,6.111398446350851,1.0176305770874023,-2.321704928074972
1708435086.2631476,-2.142094612121582,-1.333788425927498,-2.5268636385547083,6.111438977509298,1.017621636390686,-2.321693007146017
1708435086.2651222,-2.142073154449463,-1.3337138307145615,-2.5268517176257532,6.111464011460104,1.0176514387130737,-2.32169753709902
1708435086.2671466,-2.142024278640747,-1.3337429028800507,-2.5268800894366663,6.111398446350851,1.0176305770874023,-2.3216689268695276
1708435086.2691457,-2.142057180404663,-1.3337105375579377,-2.5268517176257532,6.111397254257955,1.017621636390686,-2.321659866963522
1708435086.2711678,-2.142073154449463,-1.3337505620769043,-2.526839796696798,6.111402976303854,1.0176184177398682,-2.321688477193014
1708435086.2731616,-2.142098903656006,-1.333690033560135,-2.526835266743795,6.111468541413107,1.0176184177398682,-2.321730438862936
1708435086.2751353,-2.142066240310669,-1.3337719601443787,-2.5268545786487024,6.111428606301107,1.0176873207092285,-2.32174259821047
1708435086.2771509,-2.1420209407806396,-1.3337591004422684,-2.5268710295306605,6.111393916397848,1.0176184177398682,-2.321730438862936
1708435086.2791293,-2.142037868499756,-1.3337105226567765,-2.52682334581484,6.111402976303854,1.0176424980163574,-2.32167631784548
1708435086.281131,-2.142057180404663,-1.3337472093156357,-2.5268335978137415,6.11145697811202,1.0176228284835815,-2.32169753709902
1708435086.2831554,-2.142073154449463,-1.333690957432129,-2.5268381277667444,6.111419665604391,1.0176351070404053,-2.321638886128561
1708435086.2851286,-2.142090082168579,-1.3336781573346634,-2.5268426577197474,6.111501681595602,1.0176514387130737,-2.321713987980978
1708435086.287162,-2.142077684402466,-1.3337676388076325,-2.5268262068377894,6.111375915795126,1.0176351070404053,-2.321725908909933
1708435086.2891264,-2.1420819759368896,-1.3337352734855195,-2.5268545786487024,6.111430036812582,1.017621636390686,-2.321730438862936
1708435086.2911162,-2.1420414447784424,-1.3336986166289826,-2.526889149342672,6.111489760666647,1.0176351070404053,-2.321688477193014
1708435086.293111,-2.1420912742614746,-1.3337429028800507,-2.5268307367907923,6.111452448159017,1.0176228284835815,-2.321725908909933
1708435086.2951298,-2.142098903656006,-1.3337343794158478,-2.5268664995776575,6.11142264583663,1.0176094770431519,-2.321704928074972
1708435086.2971478,-2.14200496673584,-1.333690033560135,-2.5268922487842005,6.11145960071639,1.0176546573638916,-2.321725908909933
1708435086.299126,-2.142024517059326,-1.333690033560135,-2.5268455187426966,6.111447918206014,1.0176305770874023,-2.321704928074972
1708435086.3011649,-2.142061710357666,-1.3337224584868927,-2.5268710295306605,6.1113775847251794,1.0176094770431519,-2.3217349688159388
1708435086.3031845,-2.1420164108276367,-1.3337181818536301,-2.5268755594836634,6.11142252662734,1.0176351070404053,-2.3216643969165247
1708435086.3051097,-2.142094373703003,-1.3337353032878418,-2.5268262068377894,6.111386525421896,1.0176020860671997,-2.321709458027975
1708435086.3071344,-2.1420414447784424,-1.3337105375579377,-2.5268710295306605,6.111393916397848,1.0176469087600708,-2.321713987980978
1708435086.3091156,-2.142007350921631,-1.3336986166289826,-2.5268664995776575,6.111447918206014,1.0175886154174805,-2.3217185179339808
1708435086.311117,-2.142075300216675,-1.3336975884488602,-2.5268681685077112,6.111393916397848,1.0176351070404053,-2.321730438862936
1708435086.3131502,-2.1420369148254395,-1.3337471944144745,-2.5268426577197474,6.111436116486349,1.017663598060608,-2.321713987980978
1708435086.3151083,-2.142045736312866,-1.333742917781212,-2.5268262068377894,6.11137746551589,1.017621636390686,-2.321767870579855
1708435086.317137,-2.142070770263672,-1.3337233525565644,-2.5268381277667444,6.111428725510397,1.0176305770874023,-2.3217347303973597
1708435086.319107,-2.142007350921631,-1.3336986017278214,-2.5268681685077112,6.111436116486349,1.017604947090149,-2.321713987980978
1708435086.3211358,-2.142061710357666,-1.3336975884488602,-2.52682334581484,6.111398446350851,1.017621636390686,-2.3216431776629847
1708435086.3231277,-2.142085552215576,-1.333727629189827,-2.5268800894366663,6.111379134445944,1.0176424980163574,-2.3217347303973597
1708435086.3251133,-2.142042398452759,-1.3337190610221406,-2.5268591086017054,6.111419665604391,1.0176215171813965,-2.321730438862936
1708435086.3271513,-2.142011880874634,-1.3336986017278214,-2.5268545786487024,6.111419665604391,1.0176184177398682,-2.321713987980978
1708435086.3291287,-2.142045736312866,-1.3337343496135254,-2.5268710295306605,6.111393916397848,1.0176305770874023,-2.321655575429098
1708435086.331112,-2.1420705318450928,-1.3337062460235138,-2.5268517176257532,6.111452448159017,1.0176094770431519,-2.321713987980978
1708435086.3331597,-2.142037868499756,-1.3337267202189942,-2.5268831888781946,6.111398446350851,1.0176514387130737,-2.321751419697897
1708435086.3351274,-2.142029047012329,-1.333755762582161,-2.526835266743795,6.111389386444845,1.0175718069076538,-2.32174259821047
1708435086.3371923,-2.1420705318450928,-1.3337719601443787,-2.526839796696798,6.11134027221755,1.0176799297332764,-2.321767870579855
1708435086.3391185,-2.1420705318450928,-1.3337105375579377,-2.5268877188311976,6.111402976303854,1.0176814794540405,-2.3217108885394495
1708435086.341126,-2.1419880390167236,-1.3336986017278214,-2.5268219153033655,6.111402976303854,1.017655849456787,-2.3216434160815638
1708435086.3431964,-2.142075300216675,-1.3337267202189942,-2.5268426577197474,6.1113895056541345,1.0176351070404053,-2.321713987980978
1708435086.3451157,-2.142050266265869,-1.3337062460235138,-2.526839796696798,6.111391055374899,1.0176184177398682,-2.32169753709902
1708435086.3471646,-2.1420822143554688,-1.3337514412454148,-2.5268517176257532,6.111386644631185,1.017626166343689,-2.3217228094684046
1708435086.3491476,-2.142045736312866,-1.3336866807988663,-2.5268636385547083,6.111353742867269,1.0176138877868652,-2.3216734568225306
1708435086.3511503,-2.142045736312866,-1.333742917781212,-2.5268307367907923,6.111395585327902,1.0175975561141968,-2.321700398121969
1708435086.3531556,-2.1420469284057617,-1.3337071549943467,-2.52688438097109,6.111436116486349,1.0176379680633545,-2.321713987980978
1708435086.3551266,-2.142061710357666,-1.333714799290039,-2.5268054644214075,6.111424195557394,1.0176094770431519,-2.32169753709902
1708435086.3571486,-2.142054796218872,-1.333748148088791,-2.52682334581484,6.111391055374899,1.017663598060608,-2.321651045476095
1708435086.3591435,-2.142024517059326,-1.333718166952469,-2.5268681685077112,6.1113836643989465,1.0175763368606567,-2.321693007146017
1708435086.361115,-2.1420209407806396,-1.3336858016303559,-2.5268426577197474,6.111398446350851,1.0176395177841187,-2.321751419697897
1708435086.3631637,-2.142024517059326,-1.3337591004422684,-2.5268517176257532,6.111415135651388,1.0176184177398682,-2.3217185179339808
1708435086.365166,-2.1420865058898926,-1.333754838710167,-2.5268681685077112,6.111402976303854,1.0176138877868652,-2.3217020670520228
1708435086.367158,-2.142061710357666,-1.3337062460235138,-2.5268262068377894,6.111425506859579,1.017606496810913,-2.321660105382101
1708435086.369144,-2.142037868499756,-1.333690033560135,-2.5268097559558313,6.111434566765585,1.0176317691802979,-2.3217437903033655
1708435086.371146,-2.1420705318450928,-1.3337233525565644,-2.5268545786487024,6.111370193749227,1.0176228284835815,-2.3216899077044886
1708435086.3731616,-2.1420300006866455,-1.3337386411479493,-2.526839796696798,6.111391055374899,1.0176094770431519,-2.3216853777514856
1708435086.3751612,-2.142045736312866,-1.3337019991925736,-2.526835266743795,6.111379134445944,1.0175975561141968,-2.3217065970050257
1708435086.377161,-2.142029047012329,-1.3337062460235138,-2.5268591086017054,6.111287820130148,1.0176154375076294,-2.321667496358053
1708435086.3791468,-2.142098903656006,-1.3337514859488984,-2.5268171469317835,6.111386644631185,1.0175853967666626,-2.3216689268695276
1708435086.3811457,-2.1420094966888428,-1.3338122528842469,-2.5268517176257532,6.111386525421896,1.0176228284835815,-2.3216643969165247
1708435086.3831635,-2.14199161529541,-1.333767683511116,-2.5268381277667444,6.111353742867269,1.0176020860671997,-2.3217392603503626
1708435086.3851223,-2.142045736312866,-1.333702878361084,-2.526835266743795,6.1113881943519495,1.017606496810913,-2.3217108885394495
1708435086.3871946,-2.142042398452759,-1.3337471944144745,-2.5268457571612757,6.111341583519735,1.0176020860671997,-2.3216522375689905
1708435086.3891766,-2.142024517059326,-1.3337190759233017,-2.5268591086017054,6.11137746551589,1.017606496810913,-2.3216434160815638
1708435086.3911822,-2.142054796218872,-1.3336866807988663,-2.526818815861837,6.111374604492941,1.0176440477371216,-2.321659866963522
1708435086.393151,-2.142033338546753,-1.3337267202189942,-2.5268800894366663,6.111347663193502,1.0175403356552124,-2.3216643969165247
1708435086.3951716,-2.142073154449463,-1.3337386113456269,-2.5268471876727503,6.111386525421896,1.017606496810913,-2.3217185179339808
1708435086.3971713,-2.1420209407806396,-1.3337190759233017,-2.5268426577197474,6.111398446350851,1.0176351070404053,-2.32167631784548
1708435086.3991494,-2.1420414447784424,-1.333690033560135,-2.5268710295306605,6.11141191700057,1.0176138877868652,-2.32169753709902
1708435086.4011962,-2.1420209407806396,-1.3337514859488984,-2.526835266743795,6.1113717434699915,1.017626166343689,-2.3216734568225306
1708435086.4031334,-2.1419880390167236,-1.333767683511116,-2.5268307367907923,6.111326682358541,1.0175824165344238,-2.3216808477984827
1708435086.4051285,-2.1420207023620605,-1.3337343645146866,-2.5268426577197474,6.111437785416403,1.017606496810913,-2.3216612974749964
1708435086.407123,-2.1420164108276367,-1.333714799290039,-2.5268426577197474,6.111355054169454,1.0176273584365845,-2.3216522375689905
1708435086.4091563,-2.141979217529297,-1.3336857569268723,-2.5268500486956995,6.1113295433814905,1.017573356628418,-2.3216522375689905
1708435086.4111304,-2.142045736312866,-1.333714799290039,-2.5268426577197474,6.111343133240499,1.0176154375076294,-2.3216567675219935
1708435086.413121,-2.1420254707336426,-1.3337438118508835,-2.5268171469317835,6.1113672135169885,1.0176184177398682,-2.3216868082629603
1708435086.4151318,-2.1419928073883057,-1.3336943250945588,-2.5268786589251917,6.111428725510397,1.0176441669464111,-2.321709458027975
1708435086.4171398,-2.142050266265869,-1.3336661917022248,-2.5268545786487024,6.111379134445944,1.017606496810913,-2.3216944376574915
1708435086.4191105,-2.142011880874634,-1.3337267351201554,-2.5268636385547083,6.1113881943519495,1.0175853967666626,-2.3216612974749964
1708435086.4211292,-2.1420705318450928,-1.3337062460235138,-2.5268636385547083,6.111334073334493,1.0176138877868652,-2.3216434160815638
1708435086.4231312,-2.142075300216675,-1.3336824041656037,-2.5268710295306605,6.111355054169454,1.0176396369934082,-2.321659866963522
1708435086.4251163,-2.1420254707336426,-1.333702878361084,-2.526818815861837,6.111379134445944,1.017611026763916,-2.3216477076159876
1708435086.4271548,-2.142042398452759,-1.3337386411479493,-2.5269013086902063,6.111343133240499,1.0175824165344238,-2.3216734568225306
1708435086.4291117,-2.142042398452759,-1.3337591153434296,-2.5269058386432093,6.111343133240499,1.0176228284835815,-2.3216612974749964
1708435086.4311275,-2.142054796218872,-1.3337028634599228,-2.5268517176257532,6.111370193749227,1.0176305770874023,-2.3216899077044886
1708435086.4331324,-2.142037868499756,-1.3336986017278214,-2.5268307367907923,6.1113672135169885,1.017594337463379,-2.32169753709902
1708435086.4351258,-2.142045736312866,-1.3336986017278214,-2.5268755594836634,6.111255156784811,1.0175734758377075,-2.3216734568225306
1708435086.4371169,-2.142037868499756,-1.3337148141912003,-2.5268636385547083,6.1113672135169885,1.017606496810913,-2.3216870466815394
1708435086.4391265,-2.1420469284057617,-1.3337190759233017,-2.5268307367907923,6.111385214119711,1.0176352262496948,-2.3216734568225306
1708435086.4411132,-2.142011880874634,-1.3337514859488984,-2.5268097559558313,6.1113459942634485,1.017585277557373,-2.3216567675219935
1708435086.443147,-2.142050266265869,-1.3337429028800507,-2.5268591086017054,6.111359464913168,1.0176317691802979,-2.3216808477984827
1708435086.4451149,-2.142042398452759,-1.3336986017278214,-2.5268173853503626,6.111313211708822,1.0176228284835815,-2.321659866963522
1708435086.4471157,-2.1420514583587646,-1.3336986017278214,-2.5268591086017054,6.111350524216451,1.0176020860671997,-2.3216434160815638
1708435086.4491563,-2.142033338546753,-1.333710477953293,-2.526835266743795,6.111355054169454,1.0176515579223633,-2.3216434160815638
1708435086.4511316,-2.142029047012329,-1.333690033560135,-2.52682334581484,6.111334073334493,1.0176273584365845,-2.3216899077044886
1708435086.4531233,-2.142037868499756,-1.3337471646121521,-2.5268426577197474,6.111326682358541,1.0176184177398682,-2.3216734568225306
1708435086.4551477,-2.1419758796691895,-1.333747149710991,-2.5268262068377894,6.111326682358541,1.0176184177398682,-2.3216779867755335
1708435086.4571376,-2.1420865058898926,-1.333734319811203,-2.526839796696798,6.111379134445944,1.0175807476043701,-2.3216899077044886
1708435086.4591298,-2.142037868499756,-1.3337352734855195,-2.5268800894366663,6.111355054169454,1.0175734758377075,-2.3216448465930384
1708435086.4611602,-2.1420094966888428,-1.3337224137834092,-2.5268381277667444,6.11132966259078,1.017627477645874,-2.3216493765460413
1708435086.4631462,-2.1420164108276367,-1.3336943250945588,-2.5268262068377894,6.111383545189657,1.017615556716919,-2.3216689268695276
1708435086.465155,-2.14200496673584,-1.3336790365031739,-2.526835266743795,6.111343133240499,1.0176228284835815,-2.3216567675219935
1708435086.4671369,-2.1420388221740723,-1.3337224137834092,-2.5268247763263147,6.111298429756918,1.0176228284835815,-2.3216238657580774
1708435086.4691253,-2.142033338546753,-1.3336824041656037,-2.5268219153033655,6.111350524216451,1.017594337463379,-2.3216283957110804
1708435086.47114,-2.1420705318450928,-1.3337190759233017,-2.5268710295306605,6.111314880638876,1.017611026763916,-2.3216329256640833
1708435086.473145,-2.142054796218872,-1.3337309968522568,-2.5268636385547083,6.111292350083151,1.017585277557373,-2.3216477076159876
1708435086.4751282,-2.142054796218872,-1.3337190759233017,-2.526835266743795,6.111322271614828,1.0176396369934082,-2.3216403166400355
1708435086.4771395,-2.142059326171875,-1.3336824041656037,-2.5268307367907923,6.111317622452535,1.017589807510376,-2.3216448465930384
1708435086.4791734,-2.1420094966888428,-1.3337352734855195,-2.5268173853503626,6.111326682358541,1.0176318883895874,-2.3216612974749964
1708435086.481129,-2.1420726776123047,-1.3337224435857316,-2.5268335978137415,6.111313211708822,1.017611026763916,-2.3216779867755335
1708435086.4831297,-2.14200496673584,-1.333714799290039,-2.5268545786487024,6.111335742264547,1.017627477645874,-2.3217244783984583
1708435086.485137,-2.142033338546753,-1.3336866807988663,-2.5268097559558313,6.111317622452535,1.017594337463379,-2.3216944376574915
1708435086.4872067,-2.1420164108276367,-1.3337429028800507,-2.5268591086017054,6.111314761429586,1.0176395177841187,-2.3216567675219935
1708435086.489154,-2.142054796218872,-1.3337352734855195,-2.5268097559558313,6.111368405609884,1.017589807510376,-2.3216825167285364
1708435086.4911442,-2.1419970989227295,-1.3336576235345383,-2.5268545786487024,6.111352073937216,1.017606496810913,-2.3217230478869837
1708435086.4931276,-2.1420164108276367,-1.3337148141912003,-2.5268800894366663,6.111317741661825,1.0176020860671997,-2.3216612974749964
1708435086.495154,-2.1420705318450928,-1.3337190759233017,-2.5268426577197474,6.111331212311544,1.017594337463379,-2.321713987980978
1708435086.4971228,-2.142029047012329,-1.3337548536113282,-2.5269086996661585,6.111380803375997,1.0175987482070923,-2.3216074148761194
1708435086.4991443,-2.142042398452759,-1.33371056736026,-2.5268426577197474,6.111335742264547,1.017585277557373,-2.3216314951526087
1708435086.5011568,-2.1420164108276367,-1.333690033560135,-2.5268262068377894,6.1113881943519495,1.0175780057907104,-2.3216612974749964
1708435086.5031362,-2.141995906829834,-1.3337190759233017,-2.526835266743795,6.111326682358541,1.017585277557373,-2.3217032591449183
1708435086.5051816,-2.1419880390167236,-1.3337309968522568,-2.5268097559558313,6.111355054169454,1.017585277557373,-2.321670118962423
1708435086.5071151,-2.1420164108276367,-1.3337071549943467,-2.5268471876727503,6.111338603287496,1.0176019668579102,-2.3216522375689905
1708435086.509136,-2.1420254707336426,-1.3337676686099549,-2.526789967213766,6.111355054169454,1.0176228284835815,-2.3216612974749964
1708435086.5111396,-2.142042398452759,-1.3337071549943467,-2.5268922487842005,6.111355054169454,1.0175974369049072,-2.3216899077044886
1708435086.5131745,-2.142000436782837,-1.3337105226567765,-2.5268471876727503,6.111334073334493,1.0176184177398682,-2.3216989676104944
1708435086.5151522,-2.1420300006866455,-1.3337105077556153,-2.5268307367907923,6.111334073334493,1.0176351070404053,-2.3216539064990442
1708435086.5171607,-2.142033338546753,-1.3337471944144745,-2.5268216768847864,6.111310350685873,1.0176318883895874,-2.3216734568225306
1708435086.5191467,-2.142011880874634,-1.3336986017278214,-2.5268681685077112,6.111443269043722,1.017606496810913,-2.3216269651996058
1708435086.521144,-2.1420164108276367,-1.333714799290039,-2.5268426577197474,6.111313211708822,1.017615556716919,-2.3216689268695276
1708435086.523133,-2.142054796218872,-1.3337514859488984,-2.5268307367907923,6.1113881943519495,1.017577886581421,-2.3216448465930384
1708435086.5251868,-2.142050266265869,-1.3337062460235138,-2.5268381277667444,6.1113881943519495,1.0176184177398682,-2.3216374556170862
1708435086.5271456,-2.142000436782837,-1.333714784388878,-2.5268517176257532,6.111392724304952,1.0175780057907104,-2.3216493765460413
1708435086.529115,-2.142045736312866,-1.333714799290039,-2.526872698460714,6.111334073334493,1.0175570249557495,-2.3216283957110804
1708435086.5311291,-2.1420209407806396,-1.3336943250945588,-2.5268381277667444,6.111338603287496,1.0175987482070923,-2.3216283957110804
1708435086.5331595,-2.14200496673584,-1.3337395650199433,-2.526818815861837,6.111380803375997,1.017611026763916,-2.3216643969165247
1708435086.5351403,-2.142054796218872,-1.3337352734855195,-2.5268591086017054,6.1113459942634485,1.0175780057907104,-2.3216612974749964
1708435086.53716,-2.1420705318450928,-1.3337267202189942,-2.526835266743795,6.1114046452339075,1.0175868272781372,-2.3216658274279993
1708435086.5391295,-2.142024517059326,-1.333739550118782,-2.526835266743795,6.111379134445944,1.0175615549087524,-2.3216567675219935
1708435086.5411494,-2.142011880874634,-1.3337395650199433,-2.5268636385547083,6.1113672135169885,1.0175704956054688,-2.3216643969165247
1708435086.5431502,-2.142037868499756,-1.3336900484612961,-2.5268426577197474,6.111359584122457,1.0175869464874268,-2.3216734568225306
1708435086.5451207,-2.1420254707336426,-1.3337266755155106,-2.5268755594836634,6.1113881943519495,1.0176124572753906,-2.3216360251056116
1708435086.547159,-2.1420164108276367,-1.3336453896811982,-2.5268471876727503,6.111354934960165,1.0175538063049316,-2.3216522375689905
1708435086.5491178,-2.14200496673584,-1.333697648053505,-2.5268142859088343,6.111350524216451,1.0175868272781372,-2.3216448465930384
1708435086.5511281,-2.14200496673584,-1.3336704832366486,-2.5267980734454554,6.111337053566732,1.0175869464874268,-2.3216658274279993
1708435086.5531406,-2.142042398452759,-1.3337386411479493,-2.5268800894366663,6.1113672135169885,1.0175492763519287,-2.3216360251056116
1708435086.5551288,-2.142011880874634,-1.3337062013200303,-2.5268097559558313,6.111355054169454,1.0175869464874268,-2.3216539064990442
1708435086.5571697,-2.142007350921631,-1.3337309819510956,-2.5268097559558313,6.111358272820272,1.0175371170043945,-2.3216448465930384
1708435086.5591226,-2.142007350921631,-1.3337471944144745,-2.5268846193896692,6.111386644631185,1.017529845237732,-2.3216493765460413
1708435086.5611079,-2.142033338546753,-1.3336857569268723,-2.5268009344684046,6.1114046452339075,1.0175750255584717,-2.3216195742236536
1708435086.5631738,-2.142061710357666,-1.3337471944144745,-2.5268054644214075,6.111402976303854,1.0175461769104004,-2.3216734568225306
1708435086.5651145,-2.1420209407806396,-1.3336824041656037,-2.526806894932882,6.111370193749227,1.0175750255584717,-2.3216703573810022
1708435086.567139,-2.142075300216675,-1.3337105077556153,-2.526835266743795,6.111419665604391,1.0175583362579346,-2.3216612974749964
1708435086.569115,-2.1420819759368896,-1.3336661917022248,-2.52682334581484,6.111379134445944,1.017588496208191,-2.3216493765460413
1708435086.5711482,-2.142054796218872,-1.3337627214244385,-2.5268216768847864,6.111428725510397,1.0175615549087524,-2.3216899077044886
1708435086.573163,-2.1420209407806396,-1.3337224435857316,-2.5268636385547083,6.111386644631185,1.0175583362579346,-2.3216493765460413
1708435086.5751371,-2.142054796218872,-1.3337105524590989,-2.526839796696798,6.111402976303854,1.0175505876541138,-2.3216703573810022
1708435086.5771456,-2.1420822143554688,-1.3337395650199433,-2.5268307367907923,6.111370193749227,1.0176005363464355,-2.3216779867755335
1708435086.5791457,-2.142045736312866,-1.3337395650199433,-2.526835266743795,6.11137472370223,1.0175448656082153,-2.3216360251056116
1708435086.5811532,-2.142050266265869,-1.3337386113456269,-2.5268591086017054,6.111365544586935,1.0175628662109375,-2.3217065970050257
1708435086.583184,-2.1420209407806396,-1.333714799290039,-2.526856247578756,6.111431586533346,1.0175718069076538,-2.3216779867755335
1708435086.5851278,-2.1420209407806396,-1.3337600541165848,-2.5268517176257532,6.111419665604391,1.0175704956054688,-2.3216403166400355
1708435086.5871518,-2.142033338546753,-1.3336985868266602,-2.526839796696798,6.111393916397848,1.0175325870513916,-2.3216195742236536
1708435086.5891595,-2.142061710357666,-1.3337352734855195,-2.5268517176257532,6.111413585930624,1.0175628662109375,-2.3217111269580286
1708435086.5911458,-2.142029047012329,-1.333742917781212,-2.526856247578756,6.1113895056541345,1.0175660848617554,-2.3216825167285364
1708435086.5932193,-2.142050266265869,-1.3337504875710984,-2.5268219153033655,6.11148368099288,1.0175914764404297,-2.3216403166400355
1708435086.595131,-2.1420705318450928,-1.333729938869812,-2.526818815861837,6.11145960071639,1.0175704956054688,-2.3216283957110804
1708435086.5971236,-2.142024517059326,-1.3337558072856446,-2.5268142859088343,6.111474740296163,1.0175461769104004,-2.3216448465930384
1708435086.5991127,-2.142057180404663,-1.3337267351201554,-2.526818815861837,6.111486661225118,1.0175461769104004,-2.3216241041766565
1708435086.6011424,-2.142057180404663,-1.3336986017278214,-2.52682334581484,6.111510741501608,1.0175416469573975,-2.3217185179339808
1708435086.60316,-2.142066240310669,-1.333755762582161,-2.5268517176257532,6.111515271454611,1.0175251960754395,-2.3216374556170862
1708435086.605121,-2.142061710357666,-1.3337799322656174,-2.5268517176257532,6.111569273262777,1.0175461769104004,-2.3216448465930384
1708435086.6071491,-2.142059326171875,-1.333690033560135,-2.526832405720846,6.111595618515768,1.0175551176071167,-2.3217108885394495
1708435086.6091259,-2.142066240310669,-1.333718166952469,-2.526839796696798,6.111628758698263,1.0175342559814453,-2.3217154184924524
1708435086.611117,-2.142073154449463,-1.3337028932622452,-2.526827875767843,6.111530053406515,1.0175251960754395,-2.321707789097921
1708435086.613139,-2.1420414447784424,-1.3337105226567765,-2.5268591086017054,6.11151813247756,1.0175673961639404,-2.3216779867755335
1708435086.6151195,-2.1421070098876953,-1.3337505620769043,-2.526827875767843,6.1115513918693445,1.0175342559814453,-2.3216868082629603
1708435086.6171398,-2.142045736312866,-1.3337062013200303,-2.526818815861837,6.111599075585165,1.017529845237732,-2.3216944376574915
1708435086.6191142,-2.142077684402466,-1.3336943101933976,-2.526839796696798,6.111537921219625,1.017529845237732,-2.3216899077044886
1708435086.6211126,-2.142073154449463,-1.3337267351201554,-2.526818815861837,6.11156593540267,1.0175673961639404,-2.3216987291919153
1708435086.6231778,-2.14206862449646,-1.3337429028800507,-2.52678090730776,6.111546742707052,1.017529845237732,-2.3216987291919153
1708435086.6251304,-2.1420819759368896,-1.3337190759233017,-2.5268097559558313,6.111573207169332,1.0175583362579346,-2.3216658274279993
1708435086.6271684,-2.142090082168579,-1.333690033560135,-2.526815954838888,6.111627208977499,1.0175628662109375,-2.3216522375689905
1708435086.6291375,-2.142073154449463,-1.3337148290923615,-2.526806894932882,6.111556756287374,1.0175551176071167,-2.3216283957110804
1708435086.6311197,-2.1420438289642334,-1.3337591153434296,-2.526806894932882,6.111564266472616,1.017588496208191,-2.3216870466815394
1708435086.6331646,-2.1420483589172363,-1.3336986017278214,-2.5267935434924524,6.111676800041952,1.0175342559814453,-2.3216567675219935
1708435086.6351154,-2.1420528888702393,-1.3336986017278214,-2.526832405720846,6.1116347191627405,1.0175012350082397,-2.3216689268695276
1708435086.637198,-2.142073154449463,-1.3336986315301438,-2.526818815861837,6.1116347191627405,1.0175342559814453,-2.3216150442706507
1708435086.6391397,-2.142111301422119,-1.3337386411479493,-2.526832405720846,6.111688363343038,1.0175251960754395,-2.3217108885394495
1708435086.641138,-2.1421024799346924,-1.3336942952922364,-2.526844326649801,6.111643659859457,1.017529845237732,-2.3216779867755335
1708435086.643156,-2.1421308517456055,-1.3336986017278214,-2.52688438097109,6.111579406052389,1.0175672769546509,-2.3216779867755335
1708435086.645111,-2.1421139240264893,-1.3336943548968812,-2.52682334581484,6.111621129303732,1.0175251960754395,-2.3216779867755335
1708435086.6471412,-2.1420767307281494,-1.3336738508990784,-2.5268517176257532,6.111682402878561,1.0175416469573975,-2.3216658274279993
1708435086.6491086,-2.142138719558716,-1.33370195448909,-2.526802364979879,6.111652362137594,1.0175386667251587,-2.3216448465930384
1708435086.6511264,-2.142064094543457,-1.3337343645146866,-2.526839796696798,6.111699092179098,1.0175386667251587,-2.3216403166400355
1708435086.6531672,-2.1420934200286865,-1.333730013375618,-2.526802364979879,6.111656892090597,1.0175342559814453,-2.3216522375689905
1708435086.655113,-2.1421093940734863,-1.333702878361084,-2.526789967213766,6.111694562226095,1.0175718069076538,-2.3216539064990442
1708435086.6571414,-2.1421003341674805,-1.333730013375618,-2.5267935434924524,6.111701953202047,1.0175673961639404,-2.3217199484454554
1708435086.659144,-2.1421263217926025,-1.3336975884488602,-2.526811424885885,6.111697542458334,1.0175342559814453,-2.3216612974749964
1708435086.6611376,-2.1421308517456055,-1.3337960106185456,-2.526806894932882,6.1117063639457605,1.0175551176071167,-2.3217108885394495
1708435086.6631577,-2.1421217918395996,-1.3337515008500596,-2.526818815861837,6.111709344177999,1.0175342559814453,-2.3216689268695276
1708435086.6651156,-2.1421172618865967,-1.333697573547699,-2.5268142859088343,6.111770736962118,1.0175673961639404,-2.3216689268695276
1708435086.6671584,-2.1421048641204834,-1.3337343794158478,-2.52686053911318,6.1117498753364465,1.0175206661224365,-2.3216870466815394
1708435086.6691437,-2.142134189605713,-1.3336985868266602,-2.52682334581484,6.111758816033163,1.0174847841262817,-2.3216539064990442
1708435086.6711457,-2.1421592235565186,-1.3336942952922364,-2.526768986378805,6.11179660537795,1.0175505876541138,-2.3216658274279993
1708435086.6731825,-2.1421501636505127,-1.3337300282767792,-2.526827875767843,6.111679422646322,1.0175596475601196,-2.3216567675219935
1708435086.675149,-2.14210844039917,-1.3337276440909882,-2.526844326649801,6.111729013710775,1.017541527748108,-2.3216357866870325
1708435086.6771488,-2.142138719558716,-1.3337548238090058,-2.526785437260763,6.111729013710775,1.017529845237732,-2.3217228094684046
1708435086.6791391,-2.1420912742614746,-1.3336823743632813,-2.526839796696798,6.111808049469747,1.0175011157989502,-2.321712319050924
1708435086.6811337,-2.142141103744507,-1.333734394317009,-2.526832405720846,6.1118273613746545,1.017513394355774,-2.3216612974749964
1708435086.683146,-2.1421616077423096,-1.3337181967547913,-2.526785437260763,6.111791956215658,1.0175596475601196,-2.3216779867755335
1708435086.68513,-2.1421570777893066,-1.3337267202189942,-2.5268035570727747,6.111787426262655,1.0175179243087769,-2.3216493765460413
1708435086.6871727,-2.1421172618865967,-1.3337224584868927,-2.52682334581484,6.111769664078512,1.0175672769546509,-2.3217111269580286
1708435086.6891568,-2.142164945602417,-1.3337462109378357,-2.526785437260763,6.111791956215658,1.0175223350524902,-2.3216734568225306
1708435086.6911345,-2.142195224761963,-1.3337233376554032,-2.526818815861837,6.111814009934225,1.0175056457519531,-2.3216779867755335
1708435086.693149,-2.1421456336975098,-1.333730013375618,-2.526794497166769,6.111720073014059,1.017564058303833,-2.3216448465930384
1708435086.6951184,-2.142136812210083,-1.33369433999572,-2.526832405720846,6.111761796265402,1.0175011157989502,-2.3216612974749964
1708435086.6971722,-2.1421782970428467,-1.3337599796107789,-2.5267980734454554,6.1118109104926965,1.0174891948699951,-2.3216643969165247
1708435086.6991494,-2.14214825630188,-1.3337548238090058,-2.526785437260763,6.1117275831993005,1.0175342559814453,-2.3216734568225306
1708435086.7011032,-2.14213228225708,-1.3337105375579377,-2.526806894932882,6.111769544869222,1.0175011157989502,-2.3216944376574915
1708435086.7031517,-2.142164945602417,-1.3336858016303559,-2.526827875767843,6.11180208900527,1.0175179243087769,-2.3216612974749964
1708435086.705132,-2.14216947555542,-1.33369433999572,-2.52682334581484,6.111736523896017,1.0175477266311646,-2.3216567675219935
1708435086.707147,-2.142202138900757,-1.3337386560491105,-2.52678090730776,6.111785638123312,1.017531394958496,-2.3216493765460413
1708435086.7091446,-2.14219069480896,-1.3337343794158478,-2.526789967213766,6.111745345383444,1.0175477266311646,-2.3216734568225306
1708435086.7111435,-2.142186403274536,-1.333706260924675,-2.52682334581484,6.111757266312399,1.017510175704956,-2.3216779867755335
1708435086.7131457,-2.142136812210083,-1.3337960702231904,-2.5268035570727747,6.111785638123312,1.0175223350524902,-2.3216734568225306
1708435086.7151535,-2.142186403274536,-1.33370956898246,-2.5267825762378138,6.111765134125509,1.0175145864486694,-2.3216477076159876
1708435086.7171435,-2.1422181129455566,-1.3337224584868927,-2.52682334581484,6.11180208900527,1.0175551176071167,-2.3216734568225306
1708435086.7191327,-2.1422111988067627,-1.3337633472732087,-2.526818815861837,6.111772048264303,1.017529845237732,-2.3216870466815394
1708435086.7211137,-2.142143726348877,-1.3337591004422684,-2.526835266743795,6.111844169884481,1.0175596475601196,-2.3216779867755335
1708435086.723161,-2.142127752304077,-1.3337633621743699,-2.526764694844381,6.11183642128066,1.0175011157989502,-2.3217199484454554
1708435086.7251575,-2.14219069480896,-1.3337224435857316,-2.526745144520895,6.111785638123312,1.017498254776001,-2.321620766316549
1708435086.7271478,-2.142160654067993,-1.3337548238090058,-2.52686053911318,6.111715543061056,1.0174938440322876,-2.3216403166400355
1708435086.7291262,-2.142151355743408,-1.3337514412454148,-2.526811424885885,6.111793029099264,1.0175223350524902,-2.3216899077044886
1708435086.7311301,-2.14214825630188,-1.3337471795133133,-2.526839796696798,6.11180208900527,1.0175011157989502,-2.3216403166400355
1708435086.7331355,-2.14216947555542,-1.3337548238090058,-2.526832405720846,6.111818420677938,1.0175342559814453,-2.32169753709902
1708435086.735143,-2.1421773433685303,-1.3337548238090058,-2.52682334581484,6.111773955612936,1.0175145864486694,-2.3216283957110804
1708435086.7371535,-2.1421773433685303,-1.3337471795133133,-2.52678090730776,6.111781108170309,1.0174893140792847,-2.3216195742236536
1708435086.739115,-2.142197847366333,-1.3337884110263367,-2.5268099943744105,6.111826169281759,1.0175342559814453,-2.321616236363546
1708435086.7411191,-2.142160654067993,-1.3337352585843583,-2.526773516331808,6.111818420677938,1.0175026655197144,-2.3216403166400355
1708435086.7431731,-2.1421730518341064,-1.3337309670499344,-2.5267942587481897,6.111788499146261,1.017529845237732,-2.321674887334005
1708435086.7451456,-2.142202138900757,-1.3337267202189942,-2.526811424885885,6.1117766974265955,1.017510175704956,-2.3216522375689905
1708435086.7471366,-2.142197847366333,-1.3337462109378357,-2.526785437260763,6.111781108170309,1.017510175704956,-2.3217650095569056
1708435086.7491412,-2.1421773433685303,-1.3337224584868927,-2.526794497166769,6.111765134125509,1.0174819231033325,-2.3216899077044886
1708435086.7511292,-2.142197847366333,-1.3337386560491105,-2.5267825762378138,6.111804950028219,1.0175179243087769,-2.3217065970050257
1708435086.7531652,-2.1421773433685303,-1.3338003319552918,-2.526811424885885,6.111788499146261,1.017498254776001,-2.3216944376574915
1708435086.7551134,-2.142164945602417,-1.3337182116559525,-2.526815954838888,6.111804950028219,1.0175477266311646,-2.3217318693744105
1708435086.75717,-2.1422226428985596,-1.3337591004422684,-2.526827875767843,6.111872422486105,1.0174891948699951,-2.3216944376574915
1708435086.7591279,-2.1421682834625244,-1.333730013375618,-2.526799027119772,6.11180196979598,1.0175268650054932,-2.3216689268695276
1708435086.7611332,-2.14220929145813,-1.3336858016303559,-2.526815954838888,6.111842620163717,1.0175236463546753,-2.3216853777514856
1708435086.7631547,-2.1422431468963623,-1.3337224584868927,-2.526832405720846,6.111763107567587,1.0175145864486694,-2.3216989676104944
1708435086.7651396,-2.142204761505127,-1.3337670725635071,-2.526815954838888,6.111818420677938,1.0174819231033325,-2.3217154184924524
1708435086.7671638,-2.142200231552124,-1.333714799290039,-2.52685791650881,6.1118425009544275,1.0174652338027954,-2.3216779867755335
1708435086.7691405,-2.1422340869903564,-1.333713786011078,-2.52682334581484,6.1118966219718835,1.017498254776001,-2.3217111269580286
1708435086.7711396,-2.1422135829925537,-1.3337548238090058,-2.5267661253558558,6.111806499748983,1.0175191164016724,-2.3216825167285364
1708435086.7731626,-2.1422455310821533,-1.3337352883866807,-2.5267661253558558,6.111845481186666,1.0175026655197144,-2.3216374556170862
1708435086.7751422,-2.1421797275543213,-1.3337757152369996,-2.526825014744894,6.111795890122213,1.017498254776001,-2.3216779867755335
1708435086.7771406,-2.1422431468963623,-1.3337429028800507,-2.526832405720846,6.11181269863204,1.0174651145935059,-2.3216448465930384
1708435086.779194,-2.1422386169433594,-1.3337224584868927,-2.526799027119772,6.111809479981222,1.017510175704956,-2.3216689268695276
1708435086.781155,-2.142188787460327,-1.3337181818536301,-2.526836935673849,6.111809479981222,1.0175191164016724,-2.32167631784548
1708435086.78315,-2.142191171646118,-1.3337214303067704,-2.5267797152148646,6.111824619560995,1.017498254776001,-2.3216779867755335
1708435086.7851284,-2.1422135829925537,-1.333751456146576,-2.5267916361438196,6.111817109375753,1.0175191164016724,-2.3217020670520228
1708435086.7871566,-2.1421823501586914,-1.3337756109288712,-2.526841465626852,6.111821639328756,1.0175327062606812,-2.3216689268695276
1708435086.7891917,-2.1422667503356934,-1.3337181818536301,-2.5268080870257776,6.111845481186666,1.0174696445465088,-2.3217111269580286
1708435086.791141,-2.14220929145813,-1.3337713491967698,-2.5267825762378138,6.111861932068624,1.0175191164016724,-2.3217275778399866
1708435086.793149,-2.1422364711761475,-1.3337633621743699,-2.5268035570727747,6.11183642128066,1.0174574851989746,-2.3217156569110315
1708435086.7951276,-2.142204761505127,-1.3337918531945725,-2.5268080870257776,6.1118860123451135,1.0174438953399658,-2.3217065970050257
1708435086.797158,-2.1422903537750244,-1.3337215197137375,-2.52675706544985,6.111895072251119,1.0174908638000488,-2.3216808477984827
1708435086.7991734,-2.1422321796417236,-1.3337591004422684,-2.5267751852618616,6.111921775131979,1.0175145864486694,-2.3216899077044886
1708435086.8011463,-2.1422364711761475,-1.3337591004422684,-2.5268412272082728,6.111930715828695,1.017486333847046,-2.3216658274279993
1708435086.8031542,-2.1422207355499268,-1.3337590855411072,-2.5268080870257776,6.1119351265724084,1.0174787044525146,-2.3216567675219935
1708435086.8051448,-2.1422455310821533,-1.3338122528842469,-2.5267916361438196,6.11194275596694,1.0174455642700195,-2.3216612974749964
1708435086.8071601,-2.142216205596924,-1.3337713491967698,-2.5267916361438196,6.111859071045675,1.0174741744995117,-2.3217020670520228
1708435086.8091328,-2.1422364711761475,-1.3337139052203675,-2.5267542044269007,6.111896025925436,1.0174696445465088,-2.3217111269580286
1708435086.811115,-2.1422250270843506,-1.3337429028800507,-2.5268412272082728,6.1119083044822595,1.0174787044525146,-2.3216734568225306
1708435086.8131425,-2.1422207355499268,-1.3337591004422684,-2.526815954838888,6.111891495972433,1.0174696445465088,-2.3216944376574915
1708435086.815132,-2.1422860622406006,-1.333730013375618,-2.5267871061908167,6.111989009171285,1.017466425895691,-2.3216944376574915
1708435086.8171153,-2.1422278881073,-1.3337994527867814,-2.5267706553088587,6.11195324638442,1.017429232597351,-2.3216734568225306
1708435086.819113,-2.1422364711761475,-1.3337019395879288,-2.526820484791891,6.111993419914999,1.0174620151519775,-2.3217111269580286
1708435086.8211105,-2.1422579288482666,-1.3337386560491105,-2.5267961660968226,6.111960756569662,1.0174620151519775,-2.3217111269580286
1708435086.8231423,-2.1422295570373535,-1.3337994825891037,-2.5267677942859095,6.111906754761495,1.017466425895691,-2.3216658274279993
1708435086.8251214,-2.142214298248291,-1.3337670725635071,-2.5267797152148646,6.111981498986044,1.017445683479309,-2.32169753709902
1708435086.8271594,-2.142223358154297,-1.3337713491967698,-2.5267587343799036,6.111981498986044,1.017487645149231,-2.3216643969165247
1708435086.8291142,-2.14227032661438,-1.3337548238090058,-2.5268126169787806,6.112042653351583,1.0174832344055176,-2.3216808477984827
1708435086.8311532,-2.142265796661377,-1.3336933714202424,-2.5267632643329065,6.112021791725912,1.0174200534820557,-2.321671787892477
1708435086.8332088,-2.142244577407837,-1.3337267202189942,-2.5267255941974085,6.112017261772909,1.0174635648727417,-2.3216899077044886
1708435086.8351488,-2.142268180847168,-1.3337429028800507,-2.5267961660968226,6.111987459450521,1.017429232597351,-2.3216899077044886
1708435086.8371356,-2.142277240753174,-1.3337138307145615,-2.5267496744738978,6.111993539124288,1.0174082517623901,-2.3216899077044886
1708435086.8391268,-2.1422841548919678,-1.3337994527867814,-2.5267422834979456,6.11196647861556,1.0174050331115723,-2.3217020670520228
1708435086.8411243,-2.142272710800171,-1.3337917935899277,-2.526829544697897,6.112024771958151,1.017421841621399,-2.3216312567340296
1708435086.8431356,-2.142301082611084,-1.3337670725635071,-2.5267558733569544,6.1120022414024255,1.0174500942230225,-2.3216431776629847
1708435086.84513,-2.1422433853149414,-1.3337951016477128,-2.5268006960498255,6.112110364228048,1.0174455642700195,-2.3216612974749964
1708435086.847153,-2.1423180103302,-1.3337267202189942,-2.5267797152148646,6.11207269409255,1.0174500942230225,-2.32167631784548
1708435086.8491297,-2.142329454421997,-1.3337670725635071,-2.5267558733569544,6.112105834275045,1.0174590349197388,-2.3217394987689417
1708435086.8511643,-2.1423089504241943,-1.333754838710167,-2.5267301241504114,6.112117635994711,1.0174336433410645,-2.3216689268695276
1708435086.8531427,-2.1423046588897705,-1.3337386411479493,-2.526749912892477,6.112124669342794,1.017421841621399,-2.3217275778399866
1708435086.8551323,-2.142362117767334,-1.3337257218411942,-2.5267513434039515,6.112092244416036,1.0174262523651123,-2.3216853777514856
1708435086.8571532,-2.142324924468994,-1.3337541830590744,-2.5267842451678675,6.112141477852621,1.017397403717041,-2.3217185179339808
1708435086.8591437,-2.1423001289367676,-1.3337343794158478,-2.5267797152148646,6.112119066506185,1.0174095630645752,-2.321713987980978
1708435086.861138,-2.142357587814331,-1.333767683511116,-2.5267751852618616,6.11217879036025,1.017417311668396,-2.3216853777514856
1708435086.8631365,-2.14235782623291,-1.3337994527867814,-2.5267797152148646,6.112172710686483,1.0174095630645752,-2.3217349688159388
1708435086.8651524,-2.1423487663269043,-1.333749921326973,-2.5267301241504114,6.112204301148214,1.0174307823181152,-2.32169753709902
1708435086.8671517,-2.1423745155334473,-1.3337591153434296,-2.5267048517810267,6.112163769989767,1.017397403717041,-2.321756188069479
1708435086.8691266,-2.142397403717041,-1.3337224286845704,-2.5267677942859095,6.112199890404501,1.017418622970581,-2.321730438862936
1708435086.871147,-2.1423115730285645,-1.3336814504912873,-2.5267182032214563,6.112220632820883,1.0174140930175781,-2.321704928074972
1708435086.8731577,-2.1423885822296143,-1.333758459692337,-2.5267139116870325,6.1122416136558435,1.0174517631530762,-2.321709458027975
1708435086.875136,-2.142347574234009,-1.3337505620769043,-2.5267346541034144,6.112211692124166,1.017401933670044,-2.321659866963522
1708435086.8771546,-2.1423635482788086,-1.3337865632823487,-2.5267604033099573,6.112228143006124,1.0174140930175781,-2.321688477193014
1708435086.8791363,-2.1424338817596436,-1.3338037145188828,-2.5267391840564173,6.112223613053121,1.0174307823181152,-2.321683947240011
1708435086.881128,-2.142392873764038,-1.3337541830590744,-2.5267723242389124,6.112260925560751,1.017397403717041,-2.321749989186422
1708435086.8831627,-2.1424338817596436,-1.3337505620769043,-2.5267632643329065,6.1122639057929895,1.0173945426940918,-2.321713987980978
1708435086.8851311,-2.1424248218536377,-1.3337514412454148,-2.5267015139209192,6.1122851250465295,1.017418622970581,-2.321738068257467
1708435086.8871634,-2.1423704624176025,-1.3337908399156113,-2.5267422834979456,6.112301456719198,1.0173856019973755,-2.321671787892477
1708435086.889228,-2.142397403717041,-1.333778904085495,-2.526727263127462,6.112295377045431,1.017423152923584,-2.321671787892477
1708435086.891242,-2.142415761947632,-1.3337627214244385,-2.5268052260028284,6.112290727883138,1.0173778533935547,-2.3217020670520228
1708435086.8931563,-2.142469882965088,-1.3337343645146866,-2.5267227331744593,6.1123400805290125,1.0173823833465576,-2.321730438862936
1708435086.8951485,-2.142453908920288,-1.3337670725635071,-2.526706043873922,6.112310516625204,1.0173659324645996,-2.321671787892477
1708435086.897163,-2.1424362659454346,-1.3337746423533936,-2.526773993168966,6.1122896549995325,1.0173990726470947,-2.321725908909933
1708435086.8991673,-2.1424849033355713,-1.3338235926679154,-2.52674371400942,6.112350809365072,1.0173659324645996,-2.32174259821047
1708435086.9011478,-2.142467975616455,-1.3337823015502472,-2.5267139116870325,6.112388121872701,1.0173496007919312,-2.3216853777514856
1708435086.9031413,-2.1424520015716553,-1.3337670725635071,-2.526727263127462,6.112433063774862,1.017295241355896,-2.321754519139425
1708435086.905124,-2.142461061477661,-1.333778904085495,-2.526710573826925,6.112452375679769,1.0173450708389282,-2.32172137895693
1708435086.9071202,-2.1424849033355713,-1.3337703806212922,-2.5267227331744593,6.112434494286337,1.0173331499099731,-2.321733538304464
1708435086.9091506,-2.1424520015716553,-1.3338112843087693,-2.526706043873922,6.112450945168295,1.0173420906066895,-2.321700398121969
1708435086.9111204,-2.1424882411956787,-1.3337541681579133,-2.526736323033468,6.112474667816915,1.0173765420913696,-2.321704928074972
1708435086.9131534,-2.1424927711486816,-1.333778904085495,-2.526689592991964,6.1124881384666345,1.0173133611679077,-2.32169753709902
1708435086.915122,-2.1424803733825684,-1.333778904085495,-2.526752535496847,6.112458336144247,1.0173602104187012,-2.32174259821047
1708435086.9171214,-2.142458915710449,-1.3337746423533936,-2.526727263127462,6.112582671433248,1.0173585414886475,-2.321725908909933
1708435086.919127,-2.1425423622131348,-1.3337713491967698,-2.52669865289797,6.112530457764425,1.0173267126083374,-2.321738068257467
1708435086.9211829,-2.142483711242676,-1.3337661039880295,-2.5266569296466272,6.11255561092452,1.0172759294509888,-2.321730438862936
1708435086.9231715,-2.142533540725708,-1.3338113290122529,-2.526695791875021,6.112522589951315,1.0173341035842896,-2.321688477193014
1708435086.9251118,-2.1425468921661377,-1.3337627214244385,-2.52667481104006,6.112609374314108,1.017334222793579,-2.3217032591449183
1708435086.9271584,-2.142490863800049,-1.333758459692337,-2.526719633732931,6.112542259484091,1.0172276496887207,-2.3217032591449183
1708435086.9291234,-2.142551898956299,-1.3337789338878174,-2.526727263127462,6.112583625107565,1.017364740371704,-2.3217695395099085
1708435086.9311244,-2.1425609588623047,-1.3338235330632706,-2.52667481104006,6.112621295243063,1.0172849893569946,-2.3217290083514612
1708435086.9331553,-2.142573118209839,-1.3338199120811005,-2.526707712803976,6.112549412041464,1.0172984600067139,-2.321725908909933
1708435086.9351263,-2.142531394958496,-1.333778904085495,-2.5267091433154505,6.112578022270956,1.0173029899597168,-2.3217785994159144
1708435086.9371161,-2.1425552368164062,-1.3337661039880295,-2.526649061833517,6.112648355751791,1.0172245502471924,-2.3218026796924036
1708435086.9391384,-2.142526865005493,-1.3338027459434052,-2.52665359178652,6.112585413246908,1.0172698497772217,-2.3217154184924524
1708435086.9411438,-2.142559766769409,-1.3337660890868683,-2.5266581217395228,6.112606274872579,1.0172698497772217,-2.3217154184924524
1708435086.9431367,-2.142551898956299,-1.3337541830590744,-2.526670281087057,6.1126513359840295,1.0172667503356934,-2.3217650095569056
1708435086.9451497,-2.1425881385803223,-1.3338150095990677,-2.52669865289797,6.112654316216268,1.017241358757019,-2.3217199484454554
1708435086.9471586,-2.142533779144287,-1.333782286649086,-2.5266838709460657,6.1126348851020715,1.0172080993652344,-2.3217814604388636
1708435086.9491453,-2.142597198486328,-1.3337940883687516,-2.526707712803976,6.112646806031027,1.0171749591827393,-2.3217905203448694
1708435086.9511313,-2.1425960063934326,-1.3338021647981186,-2.5267213026629847,6.112703549652853,1.0172756910324097,-2.3217831293689173
1708435086.9531572,-2.1425633430480957,-1.333826870923378,-2.526637140904562,6.112718570023336,1.0172126293182373,-2.3217666784869593
1708435086.955147,-2.1426217555999756,-1.3338097494891663,-2.5266717115985315,6.11269901969985,1.0172425508499146,-2.3217740694629114
1708435086.9571261,-2.1426243782043457,-1.3338504445603867,-2.5266838709460657,6.112715351372518,1.01717209815979,-2.3217576185809534
1708435086.9591534,-2.142608404159546,-1.333874524836876,-2.5267093817340296,6.112714040070333,1.017214298248291,-2.3217695395099085
1708435086.9611259,-2.1426403522491455,-1.3338583272746583,-2.5266626516925257,6.112735020905294,1.0172053575515747,-2.3217363993274134
1708435086.9631429,-2.1426570415496826,-1.3338540506413956,-2.5266507307635706,6.11274682262496,1.0171689987182617,-2.3217485586749476
1708435086.9651413,-2.142643690109253,-1.3338907074979325,-2.5266805330859583,6.112767803459921,1.017197608947754,-2.3217363993274134
1708435086.9671414,-2.142615556716919,-1.333944023852684,-2.5266643206225794,6.112763273506918,1.0172066688537598,-2.3217650095569056
1708435086.9691296,-2.142652750015259,-1.3338745099357148,-2.5266087690936487,6.112725960999288,1.0172020196914673,-2.3217604796039026
1708435086.9711232,-2.142652750015259,-1.3338897240212937,-2.5266643206225794,6.112758862763204,1.0172278881072998,-2.3217814604388636
1708435086.9731586,-2.142634868621826,-1.3338659715703507,-2.5266552607165735,6.112724530487814,1.017176628112793,-2.321831289921896
1708435086.975127,-2.142667531967163,-1.3339234006455918,-2.5266147295581263,6.112724530487814,1.0171525478363037,-2.3217905203448694
1708435086.9771507,-2.1426517963409424,-1.3339106005481263,-2.5266431013690394,6.112705099373617,1.0172066688537598,-2.3217905203448694
1708435086.979146,-2.142676591873169,-1.3338854622891922,-2.526619259511129,6.112737881928243,1.017214298248291,-2.3217936197863978
1708435086.98113,-2.142639398574829,-1.3338769686273118,-2.5265982786761683,6.112745272904196,1.0171571969985962,-2.3217769304858606
1708435086.98316,-2.1427242755889893,-1.3339429807714005,-2.5265775362597864,6.112766492157736,1.0171947479248047,-2.3217695395099085
1708435086.9851265,-2.1426515579223633,-1.3339139086059113,-2.5265892187701624,6.112806427269735,1.0171358585357666,-2.3217905203448694
1708435086.9871404,-2.1427128314971924,-1.3338735413602372,-2.526602808629171,6.112828719406881,1.0171661376953125,-2.3217650095569056
1708435086.9892025,-2.1427083015441895,-1.3338368994048615,-2.5265772978412073,6.112761962204733,1.0171329975128174,-2.3218072096454065
1708435086.9911997,-2.142670154571533,-1.3339139086059113,-2.526628319417135,6.112766492157736,1.0171403884887695,-2.3218491713153284
1708435086.99317,-2.142749071121216,-1.3339106005481263,-2.526628319417135,6.112785684853353,1.0170958042144775,-2.3217814604388636
1708435086.9951324,-2.142670154571533,-1.3338897389224549,-2.526635710393087,6.112781035691061,1.017112135887146,-2.3217995802508753
1708435086.9971454,-2.142695903778076,-1.3338692796281357,-2.5266147295581263,6.112761962204733,1.0171449184417725,-2.3218191305743616
1708435086.9991355,-2.1426780223846436,-1.3338659864715119,-2.52656060854067,6.1127333519752405,1.0171120166778564,-2.3217485586749476
1708435087.0011277,-2.14267897605896,-1.333926798110344,-2.526602808629171,6.112754332810201,1.0171464681625366,-2.3217695395099085
1708435087.0031452,-2.142674684524536,-1.3338778924993058,-2.526590887700216,6.1127720949943445,1.0171210765838623,-2.321826759968893
1708435087.005124,-2.142726182937622,-1.333926798110344,-2.526623789464132,6.112818705826559,1.0171092748641968,-2.3217559496508997
1708435087.0071473,-2.142728567123413,-1.3338821691325684,-2.526637379323141,6.112814175873556,1.0170966386795044,-2.3217454592334192
1708435087.00912,-2.142700433731079,-1.3338735413602372,-2.526604477559225,6.112797486573019,1.0171300172805786,-2.3217440287219446
1708435087.0111275,-2.142683506011963,-1.333877907400467,-2.5265982786761683,6.112774002342977,1.0171464681625366,-2.3218072096454065
1708435087.013122,-2.1427197456359863,-1.3338940900615235,-2.5265710989581507,6.112802016526022,1.0170966386795044,-2.3217695395099085
1708435087.0151234,-2.142670154571533,-1.333926798110344,-2.5265501181231897,6.112753140717306,1.0171136856079102,-2.3218117395984095
1708435087.0171463,-2.1427128314971924,-1.333885447388031,-2.526562039052145,6.112823235779562,1.017122745513916,-2.3217831293689173
1708435087.0191393,-2.1427128314971924,-1.3338864308646698,-2.526583258305685,6.112809645920553,1.0170729160308838,-2.321754519139425
1708435087.0211217,-2.1427242755889893,-1.3339544844678421,-2.526578728352682,6.112781035691061,1.0171102285385132,-2.321683947240011
1708435087.0231478,-2.1426870822906494,-1.3338735413602372,-2.5265801588641565,6.112827527313986,1.0170565843582153,-2.321683947240011
1708435087.025121,-2.1426913738250732,-1.3339106005481263,-2.5265501181231897,6.112823235779562,1.0170893669128418,-2.321704928074972
1708435087.027126,-2.1427037715911865,-1.3338455271771927,-2.526587788258688,6.112790095597067,1.017098307609558,-2.32169753709902
1708435087.029141,-2.14267897605896,-1.3338897389224549,-2.5265665690051478,6.112803566246786,1.0170730352401733,-2.3216431776629847
1708435087.03112,-2.142704725265503,-1.3338735413602372,-2.526587788258688,6.112809645920553,1.0171363353729248,-2.3216853777514856
1708435087.0331507,-2.142728567123413,-1.3338659864715119,-2.5265710989581507,6.112724530487814,1.0170730352401733,-2.3216283957110804
1708435087.035115,-2.1426496505737305,-1.3338940900615235,-2.5265710989581507,6.1127440808113,1.0170938968658447,-2.32166296640505
1708435087.0371683,-2.142728567123413,-1.3338455271771927,-2.5265427271472376,6.11283968666152,1.0170533657073975,-2.3216374556170862
1708435087.0391252,-2.142731189727783,-1.3338735413602372,-2.5265710989581507,6.112764942436971,1.0170848369598389,-2.3216179052936
1708435087.0411265,-2.1426870822906494,-1.3338659864715119,-2.5265262762652796,6.112818705826559,1.0170865058898926,-2.3215864340411585
1708435087.0431187,-2.1427083015441895,-1.333877907400467,-2.5265756289111536,6.112823235779562,1.0170700550079346,-2.321524683629171
1708435087.0451157,-2.1427083015441895,-1.3338692796281357,-2.526578728352682,6.112769591599264,1.0170443058013916,-2.321524683629171
1708435087.0471468,-2.1426949501037598,-1.333849774008133,-2.526562039052145,6.112790095597067,1.0170488357543945,-2.321533743535177
1708435087.0491273,-2.1427152156829834,-1.333877907400467,-2.5265591780291956,6.112766492157736,1.017015814781189,-2.3214855829821985
1708435087.05112,-2.1427197456359863,-1.3338702482036133,-2.5265217463122767,6.112700569420614,1.0170533657073975,-2.3214314619647425
1708435087.0531619,-2.1426913738250732,-1.3338659715703507,-2.5265353361712855,6.112742411881246,1.0170488357543945,-2.3214405218707483
1708435087.0551207,-2.1427037715911865,-1.3338540655425568,-2.5265472571002405,6.112754332810201,1.0170730352401733,-2.321416441594259
1708435087.0571208,-2.14267897605896,-1.3339181703380127,-2.5265591780291956,6.1127498028571985,1.0170202255249023,-2.3213804403888147
1708435087.059124,-2.1426587104797363,-1.3338977110436936,-2.5265968481646937,6.1127755520637415,1.0170414447784424,-2.321320358906881
1708435087.0611262,-2.142674684524536,-1.3338745099357148,-2.5265801588641565,6.112781035691061,1.0170292854309082,-2.321254078541891
1708435087.063124,-2.1426427364349365,-1.3338659864715119,-2.5264814535724085,6.1127755520637415,1.0170700550079346,-2.3212483564959925
1708435087.0651374,-2.1427037715911865,-1.3338497889092942,-2.5265665690051478,6.112734901696005,1.0170533657073975,-2.321228806172506
1708435087.0671554,-2.142683506011963,-1.333895058637001,-2.5265591780291956,6.112746941834249,1.0170533657073975,-2.3211806456195276
1708435087.0691311,-2.1427037715911865,-1.3338246655515213,-2.5265279451953333,6.112758743553915,1.0170443058013916,-2.321137253438131
1708435087.0711362,-2.1426632404327393,-1.3338497889092942,-2.5264976660357874,6.112730490952291,1.0170624256134033,-2.3210559527026575
1708435087.0731516,-2.1426913738250732,-1.3338745099357148,-2.526524607335226,6.112727629929342,1.0170700550079346,-2.320986811314718
1708435087.0751443,-2.142672061920166,-1.3338702482036133,-2.5265143553363245,6.112730490952291,1.017037034034729,-2.3209508101092737
1708435087.077134,-2.142667531967163,-1.3338778924993058,-2.5265801588641565,6.112718570023336,1.0170700550079346,-2.3208802382098597
1708435087.0791292,-2.142704725265503,-1.333873526459076,-2.5265517870532435,6.112654316216268,1.0170745849609375,-2.320756975804464
1708435087.0811265,-2.142700433731079,-1.3338659864715119,-2.5265472571002405,6.1126723168189905,1.0170577764511108,-2.3207436243640345
1708435087.0832145,-2.142688035964966,-1.3338583272746583,-2.5265143553363245,6.11259280422286,1.0170577764511108,-2.3206549326526087
1708435087.0851152,-2.1426632404327393,-1.3338617098382493,-2.5265188852893274,6.11259292343215,1.0170129537582397,-2.320599381123678
1708435087.0871813,-2.1426632404327393,-1.333906890158989,-2.5265546480761927,6.112603294640341,1.0170459747314453,-2.320453707371847
1708435087.0891626,-2.1426632404327393,-1.3338540655425568,-2.5265336672412317,6.112591612129965,1.0169992446899414,-2.3203604857074183
1708435087.0911467,-2.14267897605896,-1.3339234006455918,-2.5265262762652796,6.112621176033773,1.0170624256134033,-2.3203139940844935
1708435087.0931497,-2.142683506011963,-1.3338907223990937,-2.5265637079821985,6.11255573013381,1.017037034034729,-2.3202179113971155
1708435087.0951633,-2.142627000808716,-1.3338617098382493,-2.5265353361712855,6.112494337349691,1.017037034034729,-2.3201006094561976
1708435087.0971458,-2.142667531967163,-1.3339026433280488,-2.5265968481646937,6.112479197769918,1.0170459747314453,-2.3199835459338587
1708435087.099117,-2.142656087875366,-1.3338659864715119,-2.5265353361712855,6.11246274688796,1.0170459747314453,-2.3199294249164026
1708435087.1011283,-2.1426517963409424,-1.3338498038104554,-2.5265546480761927,6.112461435585775,1.017038345336914,-2.3197582403766077
1708435087.1031437,-2.142627000808716,-1.333915577535965,-2.5265637079821985,6.112386452942648,1.016996145248413,-2.3197463194476526
1708435087.1051185,-2.142656087875366,-1.3338669550469895,-2.5265262762652796,6.112416732102194,1.0170459747314453,-2.3195930163012903
1708435087.107126,-2.142648220062256,-1.3338864308646698,-2.5265262762652796,6.112329590111532,1.017037034034729,-2.319460693989889
1708435087.1091263,-2.1426358222961426,-1.333877907400467,-2.5265517870532435,6.112326729088583,1.017000675201416,-2.3193166891681116
1708435087.1111383,-2.142639398574829,-1.3338659715703507,-2.5265517870532435,6.112312066345968,1.017020344734192,-2.3191545645343226
1708435087.1131463,-2.1426243782043457,-1.3338375252536316,-2.5264976660357874,6.112303244858541,1.0170459747314453,-2.3190508524524134
1708435087.1151216,-2.142591714859009,-1.33381703615699,-2.5265682379352015,6.112287986069479,1.0170156955718994,-2.318906609212057
1708435087.1171622,-2.1426491737365723,-1.333862693314888,-2.5265427271472376,6.112233984261312,1.0170533657073975,-2.3187204043017786
1708435087.1191294,-2.1425702571868896,-1.3338788759759446,-2.5265472571002405,6.112221944123068,1.0169707536697388,-2.318601671849386
1708435087.1211293,-2.1425793170928955,-1.3338256192258378,-2.5265801588641565,6.1121699688728235,1.017037034034729,-2.3184738794909876
1708435087.1231413,-2.1425914764404297,-1.333874524836876,-2.5265353361712855,6.1122251627738855,1.0170533657073975,-2.31840950647463
1708435087.1251235,-2.1425507068634033,-1.3338299703649064,-2.5265591780291956,6.112192380219259,1.0170128345489502,-2.3181420008288782
1708435087.1271534,-2.142542839050293,-1.333809809093811,-2.5265725294696253,6.112184989243307,1.017037034034729,-2.318005386983053
1708435087.1291406,-2.142559766769409,-1.3338097643903275,-2.5265308062182825,6.112156259804525,1.0170624256134033,-2.3178611437426966
1708435087.1311164,-2.142573118209839,-1.3338312071612854,-2.5265591780291956,6.112129199295797,1.0170533657073975,-2.3176570574389856
1708435087.133149,-2.142535924911499,-1.333834246998169,-2.5265517870532435,6.112075555115499,1.0170577764511108,-2.317500654851095
1708435087.135141,-2.1425201892852783,-1.333858923321106,-2.5265846888171595,6.112035381584921,1.0170414447784424,-2.3173370997058313
1708435087.1372066,-2.142544984817505,-1.333846167927124,-2.5265398661242884,6.112003910332479,1.0170745849609375,-2.3171444574939173
1708435087.1391385,-2.142533540725708,-1.333797888164856,-2.5265546480761927,6.111980068474569,1.0170323848724365,-2.3169315497027796
1708435087.1411448,-2.1425211429595947,-1.3338256192258378,-2.5265727678882044,6.111947285919943,1.0170577764511108,-2.3167603651629847
1708435087.1431606,-2.1424951553344727,-1.3338063669255753,-2.5265846888171595,6.111915576248922,1.0170669555664062,-2.3165422121631067
1708435087.1451185,-2.1425132751464844,-1.3337564927390595,-2.526587788258688,6.111926305084982,1.0171318054199219,-2.3163185755359095
1708435087.1471648,-2.1424713134765625,-1.3338427257588883,-2.5265801588641565,6.111888634949484,1.0170701742172241,-2.316061560307638
1708435087.1491494,-2.1424429416656494,-1.3337856841138382,-2.5265546480761927,6.111811148911276,1.017098307609558,-2.3158438841449183
1708435087.1511238,-2.1424758434295654,-1.333741233949997,-2.5265217463122767,6.111852752953329,1.017048716545105,-2.315586868916647
1708435087.153142,-2.142463445663452,-1.3337455105832596,-2.5265846888171595,6.11181257942275,1.0171147584915161,-2.3154006640063685
1708435087.1551228,-2.1424803733825684,-1.3337627065232773,-2.5265336672412317,6.111785638123312,1.017052173614502,-2.3151515165912073
1708435087.1571536,-2.142472505569458,-1.3337961000255127,-2.5265546480761927,6.111761796265402,1.0170938968658447,-2.3149574438678187
1708435087.1591282,-2.142456531524658,-1.333734394317009,-2.5265143553363245,6.111643302231588,1.0171012878417969,-2.3146827856646937
1708435087.1611295,-2.142402410507202,-1.3337875318578263,-2.526562039052145,6.111627208977499,1.0171056985855103,-2.3144496122943323
1708435087.1631486,-2.142411470413208,-1.333742917781212,-2.526587788258688,6.111685502320089,1.017127275466919,-2.3141942659961146
1708435087.1651495,-2.142397403717041,-1.3337875616601487,-2.5265472571002405,6.111683833390035,1.0170966386795044,-2.3138955275165003
1708435087.1671534,-2.142441749572754,-1.3337181818536301,-2.526587788258688,6.111628997116842,1.0171301364898682,-2.3136399427997034
1708435087.1691232,-2.142392873764038,-1.3336781573346634,-2.5265756289111536,6.11161087730483,1.0171347856521606,-2.3133471647845667
1708435087.1711314,-2.1423726081848145,-1.333702878361084,-2.526599947606222,6.111549484520712,1.0171136856079102,-2.3130784670459192
1708435087.1731615,-2.1423184871673584,-1.3337190759233017,-2.526562039052145,6.111546742707052,1.0171256065368652,-2.3128021399127405
1708435087.1751332,-2.1423532962799072,-1.3337352734855195,-2.526548449193136,6.1115091917808435,1.0171583890914917,-2.3125720659839075
1708435087.1771455,-2.142345428466797,-1.3336695593646546,-2.526604477559225,6.111522662430563,1.0171449184417725,-2.312265936528341
1708435087.1791263,-2.142329454421997,-1.3337071549943467,-2.526583258305685,6.111522543221273,1.0171420574188232,-2.311953369771139
1708435087.1811116,-2.142275094985962,-1.3337634068778534,-2.5265665690051478,6.11147021034316,1.0171403884887695,-2.311707083378927
1708435087.183157,-2.1423180103302,-1.3337233525565644,-2.526604477559225,6.111450660019674,1.0171735286712646,-2.311345163975851
1708435087.1851246,-2.142275094985962,-1.333690033560135,-2.5265427271472376,6.111410605698385,1.0171644687652588,-2.3110294977771204
1708435087.1871655,-2.14225697517395,-1.3337267202189942,-2.526623789464132,6.111353862076559,1.017218828201294,-2.3107364813434046
1708435087.1891398,-2.1422488689422607,-1.3337114316276093,-2.526611868535177,6.111380803375997,1.0171812772750854,-2.3104077021228235
1708435087.1911404,-2.1422250270843506,-1.3336986017278214,-2.526595417653219,6.111376273422994,1.017235279083252,-2.3100338617907923
1708435087.193154,-2.1422135829925537,-1.3336662364057084,-2.5265818277942103,6.111331212311544,1.0172171592712402,-2.309704844151632
1708435087.1951175,-2.1422836780548096,-1.3337071400931855,-2.5266266504870813,6.111213195114889,1.0172052383422852,-2.309396807347433
1708435087.19712,-2.1421425342559814,-1.3336986017278214,-2.5265937487231653,6.111243116646566,1.0172711610794067,-2.3090859095202845
1708435087.199122,-2.142200231552124,-1.333702878361084,-2.5265772978412073,6.1112356064613245,1.0172576904296875,-2.308671299611227
1708435087.2011254,-2.1422271728515625,-1.3336781126311799,-2.5266101996051233,6.111232268601217,1.0172576904296875,-2.308404032384054
1708435087.2031703,-2.142197847366333,-1.333767683511116,-2.526602808629171,6.111178862839498,1.0172350406646729,-2.3079896608935755
1708435087.205133,-2.142164945602417,-1.333702878361084,-2.526632849370138,6.111114251404562,1.0172908306121826,-2.307629172001974
1708435087.2071698,-2.142181873321533,-1.3337062460235138,-2.5265937487231653,6.111148702889242,1.0173739194869995,-2.307261053715841
1708435087.2091238,-2.14213228225708,-1.3337267202189942,-2.5266266504870813,6.111087548523702,1.0173250436782837,-2.306953255330221
1708435087.2111285,-2.142174005508423,-1.3336943250945588,-2.5266853014575403,6.1110339043434045,1.017337679862976,-2.3066135088550013
1708435087.213143,-2.142112970352173,-1.3337105226567765,-2.5266221205340784,6.110981333046713,1.017374873161316,-2.3062365690814417
1708435087.2151144,-2.1420958042144775,-1.333718166952469,-2.5266552607165735,6.111048686295309,1.0173990726470947,-2.305864159260885
1708435087.2171485,-2.1420958042144775,-1.3337138307145615,-2.5266552607165735,6.111020314484396,1.0173540115356445,-2.3054421583758753
1708435087.21912,-2.1421308517456055,-1.3337309968522568,-2.5266884008990687,6.110982644348898,1.0173778533935547,-2.3050950209247034
1708435087.2211204,-2.1420631408691406,-1.3337190759233017,-2.526691261922018,6.111017334252157,1.017403483390808,-2.3046773115741175
1708435087.2231553,-2.1421048641204834,-1.3337062460235138,-2.526707712803976,6.11091576793746,1.017427682876587,-2.3043394724475306
1708435087.225115,-2.142059803009033,-1.3336952340653916,-2.526712242756979,6.110889899521627,1.0173732042312622,-2.3038225809680384
1708435087.2271426,-2.1420369148254395,-1.333732010131218,-2.526731793080465,6.110903489380636,1.017397403717041,-2.3034563700305384
1708435087.2291157,-2.142024517059326,-1.3337267202189942,-2.526710573826925,6.11097418048934,1.0173479318618774,-2.3030009905444544
1708435087.2311342,-2.1420094966888428,-1.3336985868266602,-2.5267227331744593,6.110863673477926,1.017418622970581,-2.302581850682394
1708435087.233149,-2.1420209407806396,-1.3337918531945725,-2.526665751134054,6.110872614174642,1.0174590349197388,-2.3021538893329065
1708435087.2351303,-2.1420016288757324,-1.3337352734855195,-2.526752773915426,6.110881554871359,1.0174517631530762,-2.3017213980304163
1708435087.2371476,-2.1419689655303955,-1.3337309968522568,-2.5267649332629603,6.110811102181234,1.017429232597351,-2.301267687474386
1708435087.2391322,-2.141975164413452,-1.333742917781212,-2.526748243962423,6.110873806267538,1.0174038410186768,-2.3008349577533167
1708435087.241117,-2.141958475112915,-1.33369433999572,-2.5267885367022913,6.110754239350118,1.0174620151519775,-2.3003528753863733
1708435087.2431338,-2.1418917179107666,-1.3337071549943467,-2.5267255941974085,6.110800492554464,1.0174773931503296,-2.300028626118795
1708435087.245112,-2.1419177055358887,-1.3337634068778534,-2.5267391840564173,6.110818373947897,1.0174819231033325,-2.299574915562765
1708435087.2471173,-2.1419177055358887,-1.333702878361084,-2.5267751852618616,6.11074839809493,1.017540454864502,-2.2991226355182093
1708435087.2491236,-2.1418983936309814,-1.3337267202189942,-2.5267422834979456,6.11073778846816,1.017510175704956,-2.29868728319277
1708435087.2511199,-2.1418800354003906,-1.3336781126311799,-2.5267797152148646,6.110749947815695,1.0175223350524902,-2.2981749216662806
1708435087.253151,-2.141841411590576,-1.3336975884488602,-2.5267587343799036,6.110689747124471,1.0175886154174805,-2.297805372868673
1708435087.2551146,-2.141864061355591,-1.3337471795133133,-2.5267542044269007,6.110673296242513,1.0175583362579346,-2.297351900731222
1708435087.257138,-2.1417737007141113,-1.3336533618024369,-2.526761595402853,6.110600220948019,1.017536997795105,-2.296795908604757
1708435087.2591205,-2.1417746543884277,-1.3336986017278214,-2.5267751852618616,6.110628711968221,1.0176032781600952,-2.2963877359973353
1708435087.261126,-2.1417553424835205,-1.3337267202189942,-2.5267916361438196,6.1106183407600305,1.017611026763916,-2.295952383671896
1708435087.2631605,-2.141710042953491,-1.3337028485587616,-2.526832405720846,6.110586869507589,1.0175869464874268,-2.2954207102404993
1708435087.265125,-2.1417348384857178,-1.3337719154408951,-2.526806894932882,6.110483515053549,1.0176351070404053,-2.294988457356588
1708435087.2671373,-2.1416783332824707,-1.3337471944144745,-2.5268517176257532,6.110530125885763,1.0176515579223633,-2.2945407072650355
1708435087.2691705,-2.141657829284668,-1.3337505620769043,-2.5268517176257532,6.110489594727316,1.0176591873168945,-2.2940195242511194
1708435087.2711115,-2.1416172981262207,-1.3337548089078446,-2.5268664995776575,6.110441791802206,1.0176665782928467,-2.293509070073263
1708435087.2731493,-2.1416397094726562,-1.3337798577598114,-2.52683669725527,6.110422599106588,1.017732858657837,-2.293098274861471
1708435087.275108,-2.141578435897827,-1.333718166952469,-2.5269253889666956,6.1103354571159265,1.0176982879638672,-2.292591396962301
1708435087.277169,-2.14152193069458,-1.3337353330901642,-2.526928249989645,6.110325085907736,1.0177057981491089,-2.2921605745898646
1708435087.279145,-2.141510486602783,-1.3337105375579377,-2.5269373098956507,6.110312926560201,1.0177597999572754,-2.291708532963888
1708435087.2811427,-2.141453981399536,-1.333767683511116,-2.526980702077047,6.110232460289755,1.0177717208862305,-2.2912064234363
1708435087.2831538,-2.141418695449829,-1.3337181967547913,-2.5269716421710413,6.110271322518148,1.017767071723938,-2.2906926313983362
1708435087.285134,-2.1413991451263428,-1.3337540936521073,-2.5270496050464075,6.11024426200942,1.0178197622299194,-2.290220324193136
1708435087.2871404,-2.1414127349853516,-1.3337418597987671,-2.5270360151873987,6.11020444610671,1.0177489519119263,-2.289771858845846
1708435087.2891529,-2.141284942626953,-1.333734394317009,-2.5270076433764856,6.110056149750509,1.0178316831588745,-2.2892869154559534
1708435087.291207,-2.1412904262542725,-1.3337591153434296,-2.5270076433764856,6.110045897751608,1.0178422927856445,-2.28890043893923
1708435087.2931485,-2.1412198543548584,-1.3337548089078446,-2.52702242532839,6.110063659935751,1.017901062965393,-2.288438860570089
1708435087.2951167,-2.141174554824829,-1.3338112843087693,-2.5270512739764612,6.1100125191505334,1.0179040431976318,-2.28799015680422
1708435087.2971325,-2.1411519050598145,-1.3337627214244385,-2.527055803929464,6.109918701439657,1.0179232358932495,-2.287497107182638
1708435087.2991486,-2.141050338745117,-1.3337833148292084,-2.5270898977862757,6.109863388329305,1.0179312229156494,-2.28705865541567
1708435087.301129,-2.1410181522369385,-1.3337704104236145,-2.527156178151266,6.109852897911825,1.0180169343948364,-2.286560122166769
1708435087.3031278,-2.140939950942993,-1.3337865334800263,-2.527172629033224,6.109727370529928,1.0179669857025146,-2.2860870997058313
1708435087.3051386,-2.140838146209717,-1.3338106286576767,-2.527138058339254,6.10967646816329,1.018003225326538,-2.285667959843771
1708435087.3071244,-2.140819549560547,-1.333854616885521,-2.527196709309713,6.109610783844747,1.0180392265319824,-2.285208527241842
1708435087.3091416,-2.1407551765441895,-1.3339034926942368,-2.5272401014911097,6.109592664032736,1.018093466758728,-2.2847097555743616
1708435087.3111567,-2.1406683921813965,-1.3338702482036133,-2.5272672812091272,6.1094597456748865,1.0180498361587524,-2.2842405478106897
1708435087.313119,-2.140575885772705,-1.3339106005481263,-2.5272911230670374,6.109396922379293,1.0180902481079102,-2.283788029347555
1708435087.3151307,-2.1404829025268555,-1.3339182001403351,-2.527355496083395,6.109285104065695,1.0181776285171509,-2.2833645979510706
1708435087.317111,-2.1403796672821045,-1.3339744818261643,-2.527358595524923,6.109189259796896,1.0181596279144287,-2.2829416433917444
1708435087.3191419,-2.140308380126953,-1.3339942556670685,-2.527396027241842,6.109027612000265,1.018200159072876,-2.2825244108783167
1708435087.3211443,-2.140209197998047,-1.334026501779892,-2.5274561087237757,6.108932125359335,1.0182287693023682,-2.282069508229391
1708435087.3231096,-2.1401174068450928,-1.3340137761882325,-2.527487341557638,6.108841049462118,1.01826012134552,-2.2815454641925257
1708435087.3251276,-2.1400468349456787,-1.3340463501266022,-2.5275235811816614,6.108754026680746,1.0183219909667969,-2.281195942555563
1708435087.3271353,-2.1398773193359375,-1.3340690743974228,-2.5275548140155237,6.108594167023458,1.0183697938919067,-2.2807796637164515
1708435087.3291287,-2.1397366523742676,-1.3341051650098343,-2.52759558359255,6.108443128853597,1.018404483795166,-2.2803028265582483
1708435087.3311205,-2.1396074295043945,-1.3341292452863236,-2.5276389757739466,6.108241307526388,1.0184571743011475,-2.2798789183246058
1708435087.3331885,-2.139453172683716,-1.3341654253057023,-2.5276721159564417,6.1081158993537805,1.0185049772262573,-2.279478375111715
1708435087.3351312,-2.1392877101898193,-1.3342176240733643,-2.527719799672262,6.107936727791586,1.0185368061065674,-2.279001061116354
1708435087.3371494,-2.139169454574585,-1.3342978370240708,-2.5277350584613245,6.107784020691671,1.0186208486557007,-2.2786129156695765
1708435087.3391452,-2.13903546333313,-1.3342928898385544,-2.5277753512011927,6.107609379082479,1.0187020301818848,-2.278187100087301
1708435087.3411193,-2.138829231262207,-1.3343493354371567,-2.5278354326831263,6.107462513237753,1.018757939338684,-2.2778199354754847
1708435087.3431208,-2.138625383377075,-1.3343408119729538,-2.527883593236105,6.107147085457601,1.0188956260681152,-2.2774818579303187
1708435087.345137,-2.1384289264678955,-1.3344049614718934,-2.527947727833883,6.106993067055502,1.0189229249954224,-2.277102295552389
1708435087.3471415,-2.1382439136505127,-1.334448666577675,-2.5280032793628138,6.106737601547994,1.0189788341522217,-2.2767747084247034
1708435087.3491206,-2.138073444366455,-1.3345039647868653,-2.5280798117267054,6.106559860497274,1.019079327583313,-2.276365105305807
1708435087.3511245,-2.137824296951294,-1.3345238280347367,-2.5281370321856897,6.106238591461935,1.0191680192947388,-2.2759926954852503
1708435087.3531604,-2.137558698654175,-1.3346199256232758,-2.528159205113546,6.105991589813986,1.019223690032959,-2.275661293660299
1708435087.3551328,-2.1373002529144287,-1.3346517098001023,-2.528259817753927,6.105736124306478,1.0192956924438477,-2.2753289381610315
1708435087.3571165,-2.1370904445648193,-1.3346509796432038,-2.5283363501178187,6.105489241867819,1.0193678140640259,-2.2749999205218714
1708435087.3591256,-2.136768102645874,-1.334796057348587,-2.5283871332751673,6.105159032135763,1.01946222782135,-2.2746804396258753
1708435087.3611147,-2.1364614963531494,-1.3348804873279114,-2.528454605733053,6.104814994126119,1.0195724964141846,-2.274360958729879
1708435087.3631244,-2.1361711025238037,-1.3349001121572037,-2.5285735766040247,6.1043938277061365,1.0196921825408936,-2.2740610281573694
1708435087.3651245,-2.135852575302124,-1.3349435341409226,-2.5286932627307337,6.104085790901937,1.0198172330856323,-2.2737391630755823
1708435087.3671691,-2.1355483531951904,-1.3349302870086213,-2.5287323633777063,6.103767502098837,1.0199178457260132,-2.2734411398517054
1708435087.3691323,-2.135200023651123,-1.3350301545909424,-2.528844658528463,6.1033726809318445,1.0200124979019165,-2.2731688658343714
1708435087.3711145,-2.134873390197754,-1.335139350300171,-2.528924051915304,6.10296784618453,1.0201131105422974,-2.272895638142721
1708435087.3731391,-2.134465217590332,-1.335190625195839,-2.529032293950216,6.102605807572164,1.0202304124832153,-2.2726195494281214
1708435087.3751214,-2.1341676712036133,-1.3352911931327363,-2.529149119053976,6.1020511267478845,1.0203747749328613,-2.272433106099264
1708435087.3771482,-2.1337757110595703,-1.3353458058885117,-2.529245201741354,6.101674186974325,1.0204906463623047,-2.2721532026873987
1708435087.3791313,-2.133388042449951,-1.3354748797467728,-2.529372517262594,6.101196038513937,1.020655632019043,-2.271891419087545
1708435087.381113,-2.132965564727783,-1.3354604852250596,-2.5295587221728724,6.1006144163902185,1.0207788944244385,-2.27169639268984
1708435087.3831542,-2.1325173377990723,-1.335633562212326,-2.5296576658831995,6.100154506951132,1.0208948850631714,-2.271480385457174
1708435087.385118,-2.1320793628692627,-1.335692660217621,-2.5298317114459437,6.099622118263998,1.021088719367981,-2.271268669758932
1708435087.387121,-2.1316752433776855,-1.3357713979533692,-2.5299034754382532,6.099012005120077,1.0212284326553345,-2.2710564772235315
1708435087.3891537,-2.131162643432617,-1.3358592253974457,-2.5300398508654993,6.098520624428549,1.0213844776153564,-2.2709067503558558
1708435087.391185,-2.1306467056274414,-1.3359794181636353,-2.5302427450763147,6.097953426628866,1.0215981006622314,-2.270705048237936
1708435087.3931894,-2.130164384841919,-1.3361599755338212,-2.530353371297018,6.0973394987876794,1.0217498540878296,-2.2705495993243616
1708435087.3951912,-2.129617691040039,-1.336206705575325,-2.5305259863482874,6.0966547606285,1.0219517946243286,-2.270405117665426
1708435087.3971539,-2.1290550231933594,-1.3363750737956543,-2.530689541493551,6.0959805128868005,1.0221316814422607,-2.2702701727496546
1708435087.3991425,-2.1285111904144287,-1.336462215786316,-2.5309158007251185,6.095344888954916,1.022343397140503,-2.2701099554644983
1708435087.4011555,-2.1279852390289307,-1.3365982186845322,-2.531034294758932,6.094618665962972,1.022557258605957,-2.26996356645693
1708435087.4031804,-2.12744402885437,-1.336765931253769,-2.5312143007861536,6.09390007236556,1.0227357149124146,-2.2699716726886194
1708435087.405168,-2.126807689666748,-1.336889163856842,-2.5314062277423304,6.093177664070883,1.022923469543457,-2.269834820424215
1708435087.4071631,-2.126171588897705,-1.3369927120259781,-2.531553093587057,6.0924733755882166,1.0231655836105347,-2.269752327595846
1708435087.4091344,-2.125581979751587,-1.3371446144631882,-2.5317798296557825,6.091776716500082,1.023320198059082,-2.2696788946734827
1708435087.411127,-2.124992609024048,-1.3372887086919327,-2.5319672266589563,6.0909204361732385,1.023582100868225,-2.269569222127096
1708435087.4131467,-2.1242992877960205,-1.3373623949340363,-2.532100502644674,6.090180265694418,1.0238358974456787,-2.2695587317096155
1708435087.4151282,-2.1237032413482666,-1.3374982935241242,-2.5323386828051966,6.089375006943502,1.0240358114242554,-2.269519631062643
1708435087.4171407,-2.122966766357422,-1.3376666468432923,-2.5324888865100306,6.088531005173483,1.024247646331787,-2.2694953123675745
1708435087.41914,-2.122283935546875,-1.3378074330142518,-2.5327709356891077,6.087655532151022,1.0244715213775635,-2.269463841115133
1708435087.421113,-2.1215615272521973,-1.3379541051438828,-2.532989803944723,6.0866445181663416,1.0247738361358643,-2.269402329121725
1708435087.4231486,-2.120835304260254,-1.3380922836116333,-2.5332358519183558,6.08569763877944,1.0250427722930908,-2.269414726887838
1708435087.4251575,-2.1200931072235107,-1.3382116866162796,-2.533430878316061,6.084872829705038,1.0253071784973145,-2.269511047993795
1708435087.4271364,-2.1193785667419434,-1.3384171587279816,-2.5336180369006556,6.0839275000389,1.0255311727523804,-2.269507710133688
1708435087.4291117,-2.118670701980591,-1.3385723692229767,-2.533853594456808,6.082934725075521,1.025767207145691,-2.269559685383932
1708435087.4311264,-2.117840528488159,-1.3387356710485,-2.534107271824972,6.082038271218099,1.0260647535324097,-2.2696741263019007
1708435087.4331515,-2.1170270442962646,-1.3388468039086838,-2.534318510686056,6.080895530968466,1.0263339281082153,-2.2697041670428675
1708435087.4351497,-2.1161749362945557,-1.3389932972243805,-2.5346110502826136,6.079836594849386,1.0266132354736328,-2.2697370688067835
1708435087.437164,-2.1153180599212646,-1.3391933900168915,-2.534867588673727,6.078827488213339,1.0269511938095093,-2.2698710600482386
1708435087.4391258,-2.114459276199341,-1.3394094866565247,-2.535098377858297,6.077707993775167,1.0272762775421143,-2.2698920408831995
1708435087.441154,-2.1135411262512207,-1.3395443570664902,-2.5353336969958704,6.076689231186666,1.0275570154190063,-2.2699998060809534
1708435087.4431412,-2.1126949787139893,-1.3397520643523713,-2.535667959843771,6.0755807040031335,1.027815580368042,-2.2701662222491663
1708435087.4451144,-2.1117899417877197,-1.3399151277593155,-2.535870615636007,6.074456918030538,1.028105616569519,-2.2703078428851526
1708435087.4471462,-2.110802173614502,-1.3401592534831543,-2.5361269156085413,6.073269712715902,1.0284301042556763,-2.270423714314596
1708435087.4491208,-2.1098527908325195,-1.3402736198953171,-2.5363743940936487,6.07211052158431,1.0287669897079468,-2.2706130186664026
1708435087.4511325,-2.10891056060791,-1.3404933226159592,-2.536680285130636,6.070891964226522,1.0290659666061401,-2.270761315022604
1708435087.4531355,-2.1079657077789307,-1.3406729263118287,-2.536964003239767,6.0696743605430505,1.0294474363327026,-2.270982090626852
1708435087.4551256,-2.1068902015686035,-1.3409204942039032,-2.5372307936297815,6.0683025000389,1.0298081636428833,-2.2711480299579065
1708435087.457139,-2.105868101119995,-1.3410664063743134,-2.537489954625265,6.067000615387716,1.0301196575164795,-2.271400753651754
1708435087.4591281,-2.104811906814575,-1.341367484336235,-2.537790123616354,6.065726625710287,1.0305505990982056,-2.271675411854879
