Eg3-git/Classifiers/Data Collection/u2/u2www4_ur3e_joint_states.csv
time,elbow_joint,shoulder_lift_joint,shoulder_pan_joint,wrist_1_joint,wrist_2_joint,wrist_3_joint
1708435179.9433687,-2.1419732570648193,-1.333689646129944,-2.5269628206836146,6.111430156021871,1.0177310705184937,-2.3520427385913294
1708435179.9453585,-2.1420016288757324,-1.333714799290039,-2.5269420782672327,6.111471640854635,1.0176984071731567,-2.3520639578448694
1708435179.947363,-2.141984701156616,-1.3337192100337525,-2.5269508997546595,6.1114879725273035,1.0177356004714966,-2.3520472685443323
1708435179.9494116,-2.1420061588287354,-1.3337355715087433,-2.5270116964923304,6.111418354302206,1.017747402191162,-2.3520427385913294
1708435179.9513779,-2.1420016288757324,-1.333661363725998,-2.5269628206836146,6.111397492676534,1.017751932144165,-2.3520219961749476
1708435179.9533892,-2.1420140266418457,-1.333689646129944,-2.5269466082202356,6.111447798996725,1.017729640007019,-2.3520801703082483
1708435179.9553785,-2.141989231109619,-1.333726705317833,-2.5269628206836146,6.111385333329,1.0177385807037354,-2.3520308176623743
1708435179.9574,-2.1420273780822754,-1.3337267202189942,-2.526996676121847,6.111468302994528,1.0177552700042725,-2.3520548979388636
1708435179.9594126,-2.141984701156616,-1.3337637943080445,-2.526953999196188,6.111463892250814,1.0177507400512695,-2.3520594278918665
1708435179.961376,-2.142043352127075,-1.3337430518916626,-2.5269792715655726,6.111377703934469,1.0177417993545532,-2.3520353476153772
1708435179.9634497,-2.1420185565948486,-1.3337518733790894,-2.5269508997546595,6.111427056580343,1.0177507400512695,-2.3520639578448694
1708435179.9653716,-2.141998052597046,-1.3337682050517579,-2.5269792715655726,6.111447798996725,1.017713189125061,-2.3520308176623743
1708435179.9674015,-2.141993761062622,-1.333735541706421,-2.527020517979757,6.111427056580343,1.0177552700042725,-2.3520847002612513
1708435179.9693992,-2.1419928073883057,-1.333735541706421,-2.526971403752462,6.111401903420248,1.0177463293075562,-2.3520265261279505
1708435179.971377,-2.1420140266418457,-1.3337103885463257,-2.5269835630999964,6.111450660019674,1.0177385807037354,-2.3520713488208216
1708435179.97342,-2.141984701156616,-1.333697111611702,-2.526986900960104,6.111467349320211,1.0177340507507324,-2.3520548979388636
1708435179.9753878,-2.1419601440429688,-1.3337267202189942,-2.5270000139819544,6.111463773041525,1.0177463293075562,-2.3520594278918665
1708435179.97741,-2.141989231109619,-1.333656982784607,-2.5269749800311487,6.1114611504371545,1.0177340507507324,-2.3520639578448694
1708435179.9794116,-2.1420016288757324,-1.3337399524501343,-2.5269911924945276,6.111450660019674,1.0177552700042725,-2.352105442677633
1708435179.9813683,-2.1420388221740723,-1.3337430518916626,-2.52698785463442,6.111459362297811,1.0177671909332275,-2.3520548979388636
1708435179.983407,-2.141984701156616,-1.3337563139251252,-2.5269299189196985,6.111450660019674,1.0177793502807617,-2.3520920912372034
1708435179.9853704,-2.1420228481292725,-1.3336984676173707,-2.5270043055163782,6.111438977509298,1.0177581310272217,-2.3520999590503138
1708435179.9873905,-2.1420273780822754,-1.3337682050517579,-2.5269792715655726,6.111463773041525,1.0177507400512695,-2.3520877997027796
1708435179.9893856,-2.1420388221740723,-1.333694116478302,-2.5270043055163782,6.111406314163961,1.017767071723938,-2.3520713488208216
1708435179.9914296,-2.1419620513916016,-1.3337059778026124,-2.5269835630999964,6.111450660019674,1.017767071723938,-2.3520801703082483
1708435179.9934378,-2.142019510269165,-1.3337059778026124,-2.5269551912890833,6.111476051598348,1.0177748203277588,-2.352008644734518
1708435179.9954112,-2.1420273780822754,-1.3337386411479493,-2.526943031941549,6.111459362297811,1.0177536010742188,-2.3520639578448694
1708435179.997413,-2.142031669616699,-1.3337549728206177,-2.5269582907306116,6.111427056580343,1.0177417993545532,-2.3520219961749476
1708435179.9993722,-2.1420016288757324,-1.333714799290039,-2.526971403752462,6.111447798996725,1.0177581310272217,-2.3520427385913294
1708435180.0013847,-2.1419618129730225,-1.3337311309627076,-2.5269551912890833,6.111452328949728,1.0177748203277588,-2.352046076451437
1708435180.0035443,-2.1420140266418457,-1.3337103885463257,-2.5269344488727015,6.111410724907675,1.0177491903305054,-2.3520427385913294
1708435180.0053728,-2.1420094966888428,-1.3337549728206177,-2.5269466082202356,6.111398446350851,1.0177793502807617,-2.3520472685443323
1708435180.0073676,-2.1419970989227295,-1.333735541706421,-2.5269582907306116,6.111401903420248,1.0177702903747559,-2.3520384470569056
1708435180.0093803,-2.1420061588287354,-1.3336777699044724,-2.52698785463442,6.111431586533346,1.017798900604248,-2.3520548979388636
1708435180.0113728,-2.1420228481292725,-1.3337593537620087,-2.5270043055163782,6.111427056580343,1.0177702903747559,-2.3520594278918665
1708435180.0134037,-2.142014980316162,-1.3337059778026124,-2.5269835630999964,6.1114433882530115,1.0177825689315796,-2.3520639578448694
1708435180.0154102,-2.141984701156616,-1.333714799290039,-2.526992384587423,6.111459362297811,1.017791509628296,-2.3520758787738245
1708435180.017407,-2.1419758796691895,-1.333689646129944,-2.526959482823507,6.111447798996725,1.0177825689315796,-2.352013174687521
1708435180.0193706,-2.1420388221740723,-1.3336940568736573,-2.52698785463442,6.111419665604391,1.0177702903747559,-2.3520758787738245
1708435180.0213578,-2.1420061588287354,-1.333759383564331,-2.5270443598376673,6.111427056580343,1.0177748203277588,-2.3520339171039026
1708435180.0233536,-2.1419689655303955,-1.3337267202189942,-2.5269792715655726,6.111440408020773,1.0177748203277588,-2.3520548979388636
1708435180.0253696,-2.1420140266418457,-1.3337015372565766,-2.526971403752462,6.111438977509298,1.0177417993545532,-2.3520594278918665
1708435180.0273683,-2.141984701156616,-1.3337059778026124,-2.526937786732809,6.111447798996725,1.017791509628296,-2.3520639578448694
1708435180.0293794,-2.1420016288757324,-1.3337059927037735,-2.5270074049579065,6.111472713738241,1.0177748203277588,-2.3520427385913294
1708435180.0313642,-2.1419970989227295,-1.3337103736451645,-2.526953999196188,6.111361253052511,1.0178196430206299,-2.3520219961749476
1708435180.0334032,-2.1419451236724854,-1.3337518733790894,-2.5269628206836146,6.111427056580343,1.0177702903747559,-2.3520548979388636
1708435180.0353625,-2.1420183181762695,-1.3337267202189942,-2.5269582907306116,6.11142264583663,1.0177793502807617,-2.3520594278918665
1708435180.037382,-2.1420061588287354,-1.3337178987315674,-2.5269737879382532,6.111435997277059,1.017803430557251,-2.3520506064044397
1708435180.0393791,-2.141984701156616,-1.3337059778026124,-2.5270400683032435,6.111377703934469,1.017783761024475,-2.3520100752459925
1708435180.041367,-2.142014980316162,-1.3337562841228028,-2.5270000139819544,6.111435997277059,1.0177825689315796,-2.3521011511432093
1708435180.043402,-2.1419732570648193,-1.3337474328330536,-2.5269344488727015,6.111431467324056,1.0177825689315796,-2.3520100752459925
1708435180.0453873,-2.141993761062622,-1.333702878361084,-2.5269551912890833,6.111386644631185,1.0178316831588745,-2.3520472685443323
1708435180.0473886,-2.1420016288757324,-1.333759383564331,-2.5269671122180384,6.111415135651388,1.017798900604248,-2.3520639578448694
1708435180.049393,-2.1419837474823,-1.3337103885463257,-2.5269671122180384,6.111428487091818,1.0177702903747559,-2.352025095616476
1708435180.05137,-2.1419732570648193,-1.3337593984654923,-2.5269671122180384,6.11137472370223,1.0178152322769165,-2.3520920912372034
1708435180.0533788,-2.1420061588287354,-1.3337848645499726,-2.52698785463442,6.111402976303854,1.0177736282348633,-2.351992432271139
1708435180.0554073,-2.1419599056243896,-1.3337311309627076,-2.5269582907306116,6.111459362297811,1.0177944898605347,-2.3520847002612513
1708435180.0574005,-2.1419732570648193,-1.3337386411479493,-2.52698785463442,6.1113940356071375,1.0177736282348633,-2.3520548979388636
1708435180.0593598,-2.1419970989227295,-1.3336984676173707,-2.5269671122180384,6.111452328949728,1.017831563949585,-2.3520758787738245
1708435180.0613527,-2.1420016288757324,-1.333702878361084,-2.5269628206836146,6.111418354302206,1.0178316831588745,-2.3520339171039026
1708435180.063371,-2.1419618129730225,-1.3337518286756058,-2.526971403752462,6.111420857697286,1.0177944898605347,-2.3520682493792933
1708435180.065362,-2.1419644355773926,-1.3337059778026124,-2.52698785463442,6.111447798996725,1.017798900604248,-2.3520801703082483
1708435180.067369,-2.1419777870178223,-1.333686576490738,-2.5269628206836146,6.111419665604391,1.0177825689315796,-2.3520758787738245
1708435180.0693557,-2.1419804096221924,-1.333714799290039,-2.5269466082202356,6.111389624863424,1.0178227424621582,-2.352046076451437
1708435180.0713952,-2.1419644355773926,-1.3337682050517579,-2.5269420782672327,6.111472713738241,1.0177780389785767,-2.3520517984973353
1708435180.0733933,-2.1419529914855957,-1.3337103885463257,-2.5269628206836146,6.111440408020773,1.0177900791168213,-2.3520668188678187
1708435180.0754068,-2.1419732570648193,-1.333714799290039,-2.5269344488727015,6.111398446350851,1.017798900604248,-2.3520427385913294
1708435180.0773942,-2.1420016288757324,-1.3336865466884156,-2.527008597050802,6.111353862076559,1.0177944898605347,-2.3520308176623743
1708435180.0793817,-2.1420273780822754,-1.33375936866317,-2.5269954840289515,6.111415135651388,1.0178645849227905,-2.3520506064044397
1708435180.081384,-2.141989231109619,-1.3337267202189942,-2.5269582907306116,6.1113940356071375,1.0177899599075317,-2.352105442677633
1708435180.0833924,-2.1419644355773926,-1.3336359125426789,-2.526975695286886,6.111373293190756,1.017798900604248,-2.3520801703082483
1708435180.0853825,-2.1420016288757324,-1.3336777252009888,-2.5269671122180384,6.111353862076559,1.0178227424621582,-2.3520427385913294
1708435180.0873938,-2.1420016288757324,-1.3337223094752808,-2.5269551912890833,6.111370312958517,1.0177944898605347,-2.3520670572863978
1708435180.089387,-2.1419575214385986,-1.3337430369905015,-2.5270043055163782,6.111362802773275,1.0178271532058716,-2.3520670572863978
1708435180.0913815,-2.1420300006866455,-1.3337505471757432,-2.526975695286886,6.111416208534994,1.0177825689315796,-2.3520877997027796
1708435180.0933921,-2.1420016288757324,-1.3336733144572754,-2.5269508997546595,6.111391055374899,1.0178316831588745,-2.3520668188678187
1708435180.0953956,-2.1420185565948486,-1.3337059778026124,-2.526975695286886,6.111402976303854,1.0178349018096924,-2.3520801703082483
1708435180.097404,-2.1420185565948486,-1.3337311309627076,-2.5269387404071253,6.111391055374899,1.0178438425064087,-2.3520427385913294
1708435180.0993843,-2.1420140266418457,-1.3337192398360749,-2.5269628206836146,6.1114327786262415,1.0177944898605347,-2.3520427385913294
1708435180.1013763,-2.1420300006866455,-1.3337518733790894,-2.5269835630999964,6.111391055374899,1.017798900604248,-2.352008644734518
1708435180.1034338,-2.142047643661499,-1.3337879490903397,-2.5269508997546595,6.111341821938314,1.0177781581878662,-2.352056090031759
1708435180.1053782,-2.141993522644043,-1.3336940568736573,-2.526992384587423,6.111325371056356,1.0178018808364868,-2.3520219961749476
1708435180.1073785,-2.1420061588287354,-1.3336984676173707,-2.5269508997546595,6.111350524216451,1.0178033113479614,-2.3520506064044397
1708435180.109384,-2.141998052597046,-1.3336852353862305,-2.52698785463442,6.111334192543783,1.0177943706512451,-2.3520920912372034
1708435180.1113925,-2.141989231109619,-1.3337267202189942,-2.526971403752462,6.111334192543783,1.0177943706512451,-2.3521087805377405
1708435180.1133914,-2.1419529914855957,-1.3336984676173707,-2.5270000139819544,6.111362802773275,1.0178724527359009,-2.3520847002612513
1708435180.115378,-2.1419732570648193,-1.333759383564331,-2.5270043055163782,6.111408817559042,1.0178271532058716,-2.3520308176623743
1708435180.1173902,-2.1420068740844727,-1.333726705317833,-2.5269299189196985,6.111314880638876,1.0178152322769165,-2.352023426686422
1708435180.1193674,-2.1419451236724854,-1.333701567058899,-2.5269835630999964,6.111294138222494,1.0177899599075317,-2.3520517984973353
1708435180.1213748,-2.1419529914855957,-1.3336984676173707,-2.5269792715655726,6.111343133240499,1.0178271532058716,-2.3520517984973353
1708435180.1234186,-2.142010450363159,-1.33368073523555,-2.526975695286886,6.111294138222494,1.0177781581878662,-2.3520472685443323
1708435180.1253748,-2.1419618129730225,-1.3337804538062592,-2.526975695286886,6.111232864647665,1.0178271532058716,-2.3520427385913294
1708435180.127372,-2.141923666000366,-1.3337267202189942,-2.526971403752462,6.111304390221395,1.017852783203125,-2.3520639578448694
1708435180.1293874,-2.141989231109619,-1.3337847602418442,-2.526971403752462,6.111295449524679,1.017836093902588,-2.3520801703082483
1708435180.1313825,-2.142014980316162,-1.3337267202189942,-2.5269387404071253,6.111238586693563,1.0177780389785767,-2.3520265261279505
1708435180.1333816,-2.1420559883117676,-1.3337267202189942,-2.5269344488727015,6.111246096878805,1.0178483724594116,-2.3520353476153772
1708435180.1353686,-2.1420061588287354,-1.333689646129944,-2.527020517979757,6.11129246929244,1.0178394317626953,-2.3519979158984583
1708435180.1373818,-2.141993761062622,-1.333668903713562,-2.526953999196188,6.111222255020895,1.0178108215332031,-2.352056090031759
1708435180.139376,-2.1419484615325928,-1.3336984676173707,-2.5269582907306116,6.1112074730689905,1.0178394317626953,-2.3520713488208216
1708435180.1413772,-2.1419732570648193,-1.3337179285338898,-2.5269508997546595,6.111231195717611,1.0178724527359009,-2.3520639578448694
1708435180.1434155,-2.1420273780822754,-1.3337311011603852,-2.5269387404071253,6.111251938133993,1.01786470413208,-2.352056090031759
1708435180.145396,-2.142014980316162,-1.333701567058899,-2.5269299189196985,6.111265170365133,1.0178512334823608,-2.3520308176623743
1708435180.1473682,-2.1419732570648193,-1.3337518733790894,-2.52698785463442,6.1112029431159876,1.0177973508834839,-2.352013174687521
1708435180.1493633,-2.1420016288757324,-1.3337280315211792,-2.526921335850851,6.111218917160787,1.0178018808364868,-2.3519979158984583
1708435180.1514306,-2.141993761062622,-1.333668978219368,-2.526971403752462,6.1112801907356165,1.017830491065979,-2.352089230214254
1708435180.153372,-2.1419575214385986,-1.3337311458638688,-2.526953999196188,6.111284720688619,1.0178018808364868,-2.352032248173849
1708435180.155368,-2.1419777870178223,-1.3337103736451645,-2.5269671122180384,6.111191141396322,1.0178724527359009,-2.3520517984973353
1708435180.1573775,-2.141998291015625,-1.3337103885463257,-2.5269671122180384,6.111231195717611,1.0178349018096924,-2.352056090031759
1708435180.1593528,-2.1420016288757324,-1.3336984676173707,-2.527024809514181,6.111214506417074,1.0178438425064087,-2.3520188967334192
1708435180.161363,-2.141948699951172,-1.3337222945741196,-2.5269582907306116,6.111222374230184,1.0178635120391846,-2.352056090031759
1708435180.1633558,-2.142010450363159,-1.3337059629014512,-2.5269344488727015,6.111268269806661,1.017848253250122,-2.352056090031759
1708435180.165367,-2.1420061588287354,-1.3337103885463257,-2.5269671122180384,6.111218917160787,1.017848253250122,-2.352023426686422
1708435180.1673443,-2.141998052597046,-1.333747462635376,-2.5269466082202356,6.1112475273902795,1.0178182125091553,-2.3519979158984583
1708435180.1693995,-2.1419193744659424,-1.3337059778026124,-2.5269299189196985,6.111149060517111,1.0178394317626953,-2.3520694414721888
1708435180.1713893,-2.1419575214385986,-1.333725319509842,-2.5270031134234827,6.111244427948751,1.0178349018096924,-2.352065149937765
1708435180.173356,-2.1420071125030518,-1.3337192100337525,-2.52698785463442,6.111227738648214,1.0178182125091553,-2.352023426686422
1708435180.1753712,-2.142040729522705,-1.3337518733790894,-2.5269551912890833,6.1112074730689905,1.0178768634796143,-2.35203987756838
1708435180.1773841,-2.142014980316162,-1.3337103885463257,-2.5269792715655726,6.111216175347128,1.017809271812439,-2.352011267338888
1708435180.1793818,-2.1419663429260254,-1.3336984825185318,-2.5269628206836146,6.1112029431159876,1.017830491065979,-2.352023426686422
1708435180.1813598,-2.141923666000366,-1.333735541706421,-2.5269508997546595,6.111171233444967,1.0178271532058716,-2.35203987756838
1708435180.183415,-2.142010450363159,-1.333735541706421,-2.526992384587423,6.111244427948751,1.0178394317626953,-2.35203987756838
1708435180.1853807,-2.142014980316162,-1.3337386411479493,-2.5269671122180384,6.111256468086996,1.0178512334823608,-2.352015797291891
1708435180.187387,-2.141984701156616,-1.3337519031814118,-2.526971403752462,6.111240136414327,1.0178182125091553,-2.351978365574972
1708435180.189385,-2.1419618129730225,-1.3337399524501343,-2.52698785463442,6.111187922745504,1.0178557634353638,-2.351982657109396
1708435180.191377,-2.142036199569702,-1.3337518733790894,-2.5269299189196985,6.111179101258077,1.0178557634353638,-2.35199481645693
1708435180.193374,-2.141975164413452,-1.3337342602065583,-2.527024809514181,6.1112074730689905,1.017764687538147,-2.352032248173849
1708435180.1953967,-2.1419239044189453,-1.3336733144572754,-2.5269508997546595,6.11128460147933,1.0178349018096924,-2.352032486592428
1708435180.1973946,-2.141986608505249,-1.3337267202189942,-2.5269551912890833,6.111225116043844,1.0178349018096924,-2.351990524922506
1708435180.1993563,-2.1419405937194824,-1.333702878361084,-2.5270000139819544,6.111244427948751,1.0178018808364868,-2.352036778126852
1708435180.2013545,-2.141982316970825,-1.333702878361084,-2.5269835630999964,6.111183512001791,1.0178064107894897,-2.351990524922506
1708435180.2034025,-2.1419575214385986,-1.3337267202189942,-2.526971403752462,6.111220586090841,1.0178349018096924,-2.3519917170154017
1708435180.2053561,-2.1419618129730225,-1.3336984676173707,-2.5270116964923304,6.111199843674459,1.0178349018096924,-2.351999346409933
1708435180.2073824,-2.141975164413452,-1.3337223094752808,-2.5269954840289515,6.111195432930746,1.0178438425064087,-2.351949993764059
1708435180.2093573,-2.1419663429260254,-1.3337103885463257,-2.526992384587423,6.111171233444967,1.0178394317626953,-2.3519871870623987
1708435180.2113976,-2.1419618129730225,-1.3337430518916626,-2.5270043055163782,6.11122344711379,1.0177974700927734,-2.351982657109396
1708435180.2133708,-2.141993522644043,-1.3337178987315674,-2.5269299189196985,6.1111864922340295,1.0178512334823608,-2.3519588152514856
1708435180.2153986,-2.1419732570648193,-1.3337562841228028,-2.527008597050802,6.11122344711379,1.01786470413208,-2.3519752661334437
1708435180.2174063,-2.1419777870178223,-1.333738626246788,-2.5269835630999964,6.1111864922340295,1.0178182125091553,-2.3519466559039515
1708435180.2193902,-2.141982316970825,-1.333747462635376,-2.5269299189196985,6.111174809723654,1.0178018808364868,-2.3519557158099573
1708435180.2213662,-2.142002582550049,-1.3337430518916626,-2.5269954840289515,6.111225116043844,1.0178438425064087,-2.3519678751574915
1708435180.2233815,-2.1419663429260254,-1.333668903713562,-2.5269628206836146,6.111220586090841,1.017867922782898,-2.3519557158099573
1708435180.2253692,-2.141982316970825,-1.333759383564331,-2.5269508997546595,6.111186611443319,1.017809271812439,-2.351981226597921
1708435180.2273874,-2.1419732570648193,-1.3337116700461884,-2.5269628206836146,6.111204254418173,1.0178394317626953,-2.3519185225116175
1708435180.229361,-2.1419496536254883,-1.3336777252009888,-2.5269997755633753,6.111183512001791,1.0178512334823608,-2.3519018332110804
1708435180.2313511,-2.1419451236724854,-1.3336984676173707,-2.5269256273852747,6.111137258797445,1.0178512334823608,-2.3519840876208704
1708435180.2334094,-2.141993761062622,-1.3337059778026124,-2.5269179979907435,6.11123667934493,1.017813801765442,-2.3519349733935755
1708435180.2353816,-2.142023801803589,-1.3337355119040986,-2.5270043055163782,6.111220586090841,1.017830491065979,-2.3519347349749964
1708435180.2374034,-2.141982316970825,-1.3337267500213166,-2.526937786732809,6.111257660179891,1.0178018808364868,-2.3518944422351282
1708435180.2393754,-2.1419618129730225,-1.3337355566075821,-2.5269954840289515,6.11123667934493,1.0178018808364868,-2.3519139925586146
1708435180.2413588,-2.1419529914855957,-1.3337223094752808,-2.5270000139819544,6.111204254418173,1.0178018808364868,-2.3519228140460413
1708435180.2434123,-2.1419708728790283,-1.3337192100337525,-2.526986900960104,6.111170160561361,1.0178018808364868,-2.3519437948810022
1708435180.2453468,-2.142010450363159,-1.3337072891047974,-2.526986900960104,6.1112029431159876,1.0177974700927734,-2.3519557158099573
1708435180.2473667,-2.1419451236724854,-1.3337355268052598,-2.5270043055163782,6.111166822701254,1.017813801765442,-2.3519392649279993
1708435180.2493572,-2.141927480697632,-1.3337236207774659,-2.5269792715655726,6.1111968634422205,1.0178724527359009,-2.351910654698507
1708435180.2513573,-2.141937255859375,-1.333701567058899,-2.5269671122180384,6.111220586090841,1.0178182125091553,-2.351948086415426
1708435180.2533803,-2.141949415206909,-1.3337103885463257,-2.526971403752462,6.111211764603414,1.0178227424621582,-2.3519018332110804
1708435180.2553482,-2.141937017440796,-1.333726705317833,-2.5269749800311487,6.111195432930746,1.017830491065979,-2.351960007344381
1708435180.2573647,-2.141991138458252,-1.3336984676173707,-2.5270116964923304,6.111187922745504,1.0177810192108154,-2.351910654698507
1708435180.2593586,-2.1419732570648193,-1.333759383564331,-2.526905123387472,6.111204254418173,1.0178438425064087,-2.3519273439990442
1708435180.261373,-2.1419663429260254,-1.3337223094752808,-2.5269749800311487,6.111183512001791,1.0178394317626953,-2.351960007344381
1708435180.2633882,-2.141986608505249,-1.333735541706421,-2.5269880930529993,6.111216294556417,1.017830491065979,-2.351931873952047
1708435180.2653506,-2.1420061588287354,-1.3337430518916626,-2.526975695286886,6.111199843674459,1.0178271532058716,-2.351919714604513
1708435180.2673748,-2.1419708728790283,-1.3337178987315674,-2.5269463698016565,6.1111581204231165,1.0177900791168213,-2.351957146321432
1708435180.2693725,-2.1419663429260254,-1.3337460619262238,-2.5269299189196985,6.111211764603414,1.0178768634796143,-2.351919714604513
1708435180.2713761,-2.1419708728790283,-1.3336777252009888,-2.526959482823507,6.111213195114889,1.0178601741790771,-2.351931873952047
1708435180.2733808,-2.142002582550049,-1.3337192100337525,-2.5270043055163782,6.111204254418173,1.0177929401397705,-2.351945225392477
1708435180.2753549,-2.142002582550049,-1.3336940568736573,-2.5269628206836146,6.1112533686454675,1.0178557634353638,-2.3519511858569544
1708435180.2773597,-2.1419618129730225,-1.333738626246788,-2.5270074049579065,6.111192452698507,1.0178227424621582,-2.351882521306173
1708435180.2793639,-2.141937017440796,-1.3337267202189942,-2.5269225279437464,6.111166822701254,1.017867922782898,-2.3519273439990442
1708435180.2813792,-2.1419076919555664,-1.3337804538062592,-2.5269792715655726,6.111171233444967,1.017825961112976,-2.3519437948810022
1708435180.2833648,-2.141991138458252,-1.3336852353862305,-2.527024809514181,6.111165392189779,1.0178108215332031,-2.351882521306173
1708435180.2853565,-2.1419239044189453,-1.3337443184903641,-2.526975695286886,6.111147510796346,1.0178349018096924,-2.351895872746603
1708435180.2873654,-2.141928195953369,-1.3337922853282471,-2.5269585291491907,6.111192452698507,1.0178438425064087,-2.35191518465151
1708435180.2893498,-2.141928195953369,-1.333759383564331,-2.5269954840289515,6.1112321493919275,1.0177944898605347,-2.3519437948810022
1708435180.291392,-2.141953945159912,-1.3336941015771409,-2.5269749800311487,6.111118900566854,1.0178108215332031,-2.351865832005636
1708435180.2933621,-2.1420071125030518,-1.3337386411479493,-2.526971403752462,6.111168253212728,1.0177944898605347,-2.351895872746603
1708435180.2953644,-2.141941547393799,-1.3337311309627076,-2.5269582907306116,6.11113857009963,1.0177944898605347,-2.3518913427936
1708435180.2974145,-2.141963005065918,-1.3337518733790894,-2.526992384587423,6.111163842469015,1.0178182125091553,-2.351903263722555
1708435180.2993615,-2.141963005065918,-1.3336658042720337,-2.526971403752462,6.111136781960287,1.0178227424621582,-2.351865832005636
1708435180.3013468,-2.141975164413452,-1.333735541706421,-2.5269792715655726,6.111172783165731,1.0177810192108154,-2.351886812840597
1708435180.3033974,-2.141986608505249,-1.3337505620769043,-2.526943031941549,6.111169564514913,1.017798900604248,-2.3518627325641077
1708435180.3053756,-2.1419708728790283,-1.3337178987315674,-2.5269466082202356,6.111135232239523,1.0177944898605347,-2.3518627325641077
1708435180.3074062,-2.141932725906372,-1.333759383564331,-2.526992384587423,6.1111159203346155,1.01786470413208,-2.3518298308001917
1708435180.3093777,-2.1419777870178223,-1.3336481165936966,-2.52692681947817,6.1111159203346155,1.0177702903747559,-2.3518880049334925
1708435180.3113954,-2.141925573348999,-1.3337549728206177,-2.526959482823507,6.111086475640096,1.0178349018096924,-2.351820770894186
1708435180.3133879,-2.141991138458252,-1.3337192100337525,-2.5269466082202356,6.111099946289816,1.0178271532058716,-2.3518386522876185
1708435180.3153985,-2.141946315765381,-1.3337178987315674,-2.526971403752462,6.111099946289816,1.017798900604248,-2.3518627325641077
1708435180.3173919,-2.1419708728790283,-1.3337342304042359,-2.52697998682131,6.111083256989279,1.0178018808364868,-2.3518508116351526
1708435180.3194022,-2.141991138458252,-1.333719254737236,-2.5269671122180384,6.11108015754775,1.017831563949585,-2.3518553415881556
1708435180.3213854,-2.141949415206909,-1.3337760132602234,-2.5269299189196985,6.111099946289816,1.0178064107894897,-2.3518222014056605
1708435180.3233926,-2.141921043395996,-1.3337028932622452,-2.526996676121847,6.1110384342964075,1.0178064107894897,-2.3518312613116663
1708435180.325362,-2.141958475112915,-1.333714799290039,-2.5269551912890833,6.111057984619894,1.0178033113479614,-2.3518806139575403
1708435180.3273616,-2.141963005065918,-1.3337311309627076,-2.5269671122180384,6.111111509590902,1.0178064107894897,-2.3518431822406214
1708435180.3293536,-2.141908645629883,-1.3337460619262238,-2.5269551912890833,6.111127841263571,1.017791509628296,-2.3518224398242396
1708435180.3313541,-2.141941547393799,-1.333747462635376,-2.5269299189196985,6.111083256989279,1.0178152322769165,-2.3518148104297083
1708435180.3333905,-2.141932725906372,-1.3337223094752808,-2.526992384587423,6.111099946289816,1.0178064107894897,-2.3518179098712366
1708435180.3353446,-2.141930103302002,-1.3337804538062592,-2.5269582907306116,6.11106692531661,1.017831563949585,-2.3518014589892786
1708435180.3373582,-2.1419239044189453,-1.333747462635376,-2.5269060770617884,6.111099946289816,1.0177944898605347,-2.3518343607531946
1708435180.3393698,-2.141958475112915,-1.3337311309627076,-2.5269387404071253,6.1111159203346155,1.017786979675293,-2.3518477121936243
1708435180.3413515,-2.1419708728790283,-1.3337103885463257,-2.5270043055163782,6.1111042378242395,1.0177825689315796,-2.3518059889422815
1708435180.3433812,-2.141984224319458,-1.3337103885463257,-2.5269387404071253,6.111144172936239,1.0178108215332031,-2.351856533681051
1708435180.345341,-2.141941547393799,-1.333714784388878,-2.5269344488727015,6.111096489220419,1.0178078413009644,-2.3518386522876185
1708435180.347343,-2.141986608505249,-1.3337104332498093,-2.5269582907306116,6.111075746804037,1.017831563949585,-2.3518760840045374
1708435180.3493543,-2.141941547393799,-1.3337549728206177,-2.526975695286886,6.111122000008383,1.0178406238555908,-2.3518641630755823
1708435180.3513887,-2.141921043395996,-1.3336896759322663,-2.526959482823507,6.111071216851034,1.017798900604248,-2.3518431822406214
1708435180.353353,-2.141921043395996,-1.3337178838304062,-2.526959482823507,6.1111042378242395,1.017786979675293,-2.3518431822406214
1708435180.355375,-2.1419460773468018,-1.3337311309627076,-2.5269835630999964,6.111148583679952,1.0177658796310425,-2.3517892996417444
1708435180.3573833,-2.141949415206909,-1.333694041972496,-2.5269420782672327,6.111099946289816,1.017798900604248,-2.351802651082174
1708435180.3593595,-2.141958475112915,-1.333747462635376,-2.5269256273852747,6.11108015754775,1.0177944898605347,-2.3518357912646692
1708435180.3613732,-2.1419777870178223,-1.3336614978364487,-2.5269182364093226,6.111108767777242,1.017798900604248,-2.3518267313586634
1708435180.3633912,-2.141958475112915,-1.3337267351201554,-2.526992384587423,6.111113178520956,1.0178152322769165,-2.351861063634054
1708435180.365354,-2.141916513442993,-1.333714784388878,-2.5269749800311487,6.111087548523702,1.0178242921829224,-2.351852003728048
1708435180.3673708,-2.1419663429260254,-1.3337430369905015,-2.5269671122180384,6.111117589264669,1.017791509628296,-2.3517819086657923
1708435180.369357,-2.141953945159912,-1.333726705317833,-2.526996676121847,6.111075746804037,1.017798900604248,-2.3518059889422815
1708435180.3713472,-2.1419551372528076,-1.3337222945741196,-2.5269551912890833,6.111091005593099,1.017786979675293,-2.3518179098712366
1708435180.3733494,-2.141930103302002,-1.3337103587440033,-2.5269551912890833,6.111057984619894,1.017791509628296,-2.3518105188952845
1708435180.3753588,-2.141937017440796,-1.3337178987315674,-2.52697998682131,6.1110430834587,1.017791509628296,-2.3518148104297083
1708435180.3773932,-2.141932725906372,-1.333726705317833,-2.5269387404071253,6.111111509590902,1.0177702903747559,-2.35181171098818
1708435180.3793454,-2.141953945159912,-1.3337518882802506,-2.5269344488727015,6.111108767777242,1.0177491903305054,-2.3518148104297083
1708435180.3813481,-2.141963005065918,-1.3336447191289444,-2.5268974939929407,6.111157405167379,1.0177702903747559,-2.351844612752096
1708435180.3833725,-2.141941547393799,-1.333768145447113,-2.526943031941549,6.111120211869039,1.0177793502807617,-2.351840082799093
1708435180.3853593,-2.141921043395996,-1.3336984527162095,-2.5269182364093226,6.111092078476705,1.017791509628296,-2.351769987736837
1708435180.3873892,-2.141930103302002,-1.3337430518916626,-2.526951853428976,6.111190426140585,1.0177702903747559,-2.351840082799093
1708435180.389364,-2.14190411567688,-1.333768130545952,-2.526943031941549,6.111111509590902,1.017765760421753,-2.3518105188952845
1708435180.3913496,-2.141949415206909,-1.3336940568736573,-2.526947323475973,6.111108767777242,1.0177463293075562,-2.351790730153219
1708435180.3933818,-2.1419708728790283,-1.3337028485587616,-2.526996676121847,6.111181604653158,1.0177748203277588,-2.351823870335714
1708435180.3953512,-2.1419177055358887,-1.333702878361084,-2.526984516774313,6.111025321274557,1.0177626609802246,-2.351844612752096
1708435180.3973527,-2.141937017440796,-1.3336985421231766,-2.52692681947817,6.111092078476705,1.0177340507507324,-2.3518312613116663
1708435180.3993552,-2.1419594287872314,-1.3337072891047974,-2.526931111012594,6.111066806107321,1.0177417993545532,-2.3517983595477503
1708435180.4013696,-2.1419460773468018,-1.3337192398360749,-2.526959482823507,6.111083256989279,1.0177581310272217,-2.351873222981588
1708435180.403392,-2.141937017440796,-1.3336984676173707,-2.526943031941549,6.1111159203346155,1.0177581310272217,-2.351807181035177
1708435180.4053552,-2.141963005065918,-1.3336733144572754,-2.526963774357931,6.111074316292562,1.0177295207977295,-2.3517773787127894
1708435180.4073849,-2.1419460773468018,-1.3336853098920365,-2.5269342104541224,6.1111053107078455,1.0177596807479858,-2.351786438618795
1708435180.409394,-2.141899824142456,-1.3337311309627076,-2.5269551912890833,6.111096489220419,1.017767071723938,-2.351828161870138
1708435180.4113655,-2.141921043395996,-1.3337474179318924,-2.526971403752462,6.111083256989279,1.0177626609802246,-2.35181171098818
1708435180.4133584,-2.141941547393799,-1.3337430667928238,-2.526971403752462,6.111124741822042,1.0177626609802246,-2.351832691823141
1708435180.4153783,-2.141941547393799,-1.3336658042720337,-2.526971403752462,6.111084568291464,1.0177251100540161,-2.3518193403827112
1708435180.4173903,-2.1419131755828857,-1.3336940568736573,-2.526931111012594,6.111096489220419,1.0177385807037354,-2.351802651082174
1708435180.4193985,-2.141925573348999,-1.333735541706421,-2.5269225279437464,6.111108767777242,1.017729640007019,-2.351807181035177
1708435180.4213762,-2.141979932785034,-1.3337104183486481,-2.5269508997546595,6.1111042378242395,1.0177717208862305,-2.351769987736837
1708435180.423379,-2.141953945159912,-1.33377260089431,-2.526996676121847,6.1111053107078455,1.0177175998687744,-2.351849142705099
1708435180.4253573,-2.141913414001465,-1.333735541706421,-2.5269387404071253,6.111111509590902,1.0176724195480347,-2.351840082799093
1708435180.4273603,-2.141941547393799,-1.333685280089714,-2.526959482823507,6.111108767777242,1.0177385807037354,-2.3517819086657923
1708435180.4293919,-2.141991138458252,-1.3336777102998276,-2.526931111012594,6.111108767777242,1.017747402191162,-2.351795260106222
1708435180.4313521,-2.141934633255005,-1.3337311309627076,-2.5269344488727015,6.111108767777242,1.0176984071731567,-2.351828161870138
1708435180.4333565,-2.141934633255005,-1.3337386411479493,-2.5269387404071253,6.111092078476705,1.017740249633789,-2.351823870335714
1708435180.4353788,-2.141984224319458,-1.3337223094752808,-2.5269387404071253,6.111075746804037,1.0177147388458252,-2.351807181035177
1708435180.4373531,-2.141967535018921,-1.333726705317833,-2.526947323475973,6.11108015754775,1.017751932144165,-2.351778809224264
1708435180.439348,-2.1419122219085693,-1.333694041972496,-2.526951853428976,6.111063825875082,1.017681360244751,-2.3518205324756067
1708435180.4415712,-2.1419663429260254,-1.3336535555175324,-2.52697998682131,6.111111509590902,1.0177028179168701,-2.3517983595477503
1708435180.4433558,-2.141921043395996,-1.3336865466884156,-2.526943031941549,6.111092078476705,1.0176857709884644,-2.3518193403827112
1708435180.4453473,-2.141941547393799,-1.3337430369905015,-2.526943031941549,6.111108767777242,1.0176938772201538,-2.3517566362964075
1708435180.4473534,-2.141937017440796,-1.3337637347033997,-2.5269420782672327,6.111059295922079,1.017723798751831,-2.35178786913027
1708435180.449355,-2.141958475112915,-1.3336941015771409,-2.526935640965597,6.111083256989279,1.0177191495895386,-2.351790730153219
1708435180.4513521,-2.141937017440796,-1.3337311309627076,-2.526968304310934,6.111132252007284,1.0177147388458252,-2.3517757097827356
1708435180.4533823,-2.141975164413452,-1.3337223094752808,-2.5269561449633997,6.111136543541708,1.0177310705184937,-2.351807181035177
1708435180.4553616,-2.141934633255005,-1.3336701405099411,-2.526935640965597,6.111096489220419,1.017756700515747,-2.35181171098818
1708435180.4573498,-2.1419460773468018,-1.333713413482048,-2.5269017855273646,6.11108015754775,1.0176984071731567,-2.351807181035177
1708435180.4593658,-2.141967535018921,-1.3337116700461884,-2.526971403752462,6.111148583679952,1.017669439315796,-2.3518040815936487
1708435180.4613523,-2.141925573348999,-1.3337192100337525,-2.526919190083639,6.111057984619894,1.0176904201507568,-2.351741377507345
1708435180.4633732,-2.1419506072998047,-1.3337311309627076,-2.526939932500021,6.111087548523702,1.0176904201507568,-2.35181171098818
1708435180.46535,-2.141925573348999,-1.3336896908334275,-2.5270052591906946,6.111136543541708,1.0177074670791626,-2.351795260106222
1708435180.4673624,-2.141953945159912,-1.3337311458638688,-2.526914898549215,6.111132252007284,1.0176857709884644,-2.351837221776144
1708435180.469375,-2.1419506072998047,-1.3336732995561142,-2.526910368596212,6.111099946289816,1.0176740884780884,-2.351795260106222
1708435180.471356,-2.1419177055358887,-1.3337148141912003,-2.526975695286886,6.111087548523702,1.0177028179168701,-2.351795260106222
1708435180.4733632,-2.141932725906372,-1.3337607097676774,-2.526910368596212,6.111107098847189,1.017669439315796,-2.3517711798297327
1708435180.4753616,-2.141958475112915,-1.3337311309627076,-2.526931111012594,6.111169564514913,1.017641305923462,-2.351783339177267
1708435180.4773555,-2.141953945159912,-1.3337355566075821,-2.5269561449633997,6.1111042378242395,1.0176740884780884,-2.351762119923727
1708435180.4793677,-2.141979932785034,-1.3337267202189942,-2.526971403752462,6.111098158150472,1.0176948308944702,-2.3517532984363
1708435180.481346,-2.1419708728790283,-1.3336688739112397,-2.526914898549215,6.111087548523702,1.017711877822876,-2.351745907460348
1708435180.4833634,-2.141925573348999,-1.3336852204850693,-2.5269179979907435,6.111144172936239,1.0176784992218018,-2.3517547289477747
1708435180.4853606,-2.141941547393799,-1.333702878361084,-2.526939932500021,6.111111509590902,1.0176621675491333,-2.351795260106222
1708435180.4873786,-2.14190411567688,-1.3336985123208542,-2.526959482823507,6.1111042378242395,1.0177208185195923,-2.3517592589007776
1708435180.4893706,-2.141958475112915,-1.333714799290039,-2.52692681947817,6.1111042378242395,1.01767098903656,-2.351762119923727
1708435180.4913592,-2.141921043395996,-1.3336984527162095,-2.526968304310934,6.111148583679952,1.0176984071731567,-2.35176664987673
1708435180.4934113,-2.1419389247894287,-1.3336940270713349,-2.52692681947817,6.111091005593099,1.0177037715911865,-2.35178786913027
1708435180.495375,-2.141953945159912,-1.333714799290039,-2.5268734137164515,6.111108767777242,1.0177074670791626,-2.3517547289477747
1708435180.4973907,-2.141937017440796,-1.3337103736451645,-2.5269179979907435,6.111160862236776,1.0177074670791626,-2.3517800013171595
1708435180.4993713,-2.1419460773468018,-1.333714799290039,-2.5269442240344446,6.111099946289816,1.0176904201507568,-2.35176664987673
1708435180.5013578,-2.1419763565063477,-1.3337235909751435,-2.526923481618063,6.111139762192526,1.0176740884780884,-2.3517473379718226
1708435180.5033987,-2.141932725906372,-1.3337103885463257,-2.526935402547018,6.111117589264669,1.0176993608474731,-2.351783339177267
1708435180.5053635,-2.141995668411255,-1.3337222945741196,-2.526914898549215,6.111132252007284,1.0177028179168701,-2.3517592589007776
1708435180.5074146,-2.1419389247894287,-1.3336852502873917,-2.526935402547018,6.111095535546102,1.0176784992218018,-2.3517637888537806
1708435180.5093904,-2.1420159339904785,-1.3336821657470246,-2.526931111012594,6.111132252007284,1.0176621675491333,-2.3517261187182825
1708435180.5113604,-2.141995668411255,-1.3336940866759797,-2.526943031941549,6.111087548523702,1.0176829099655151,-2.3517068068133753
1708435180.5134065,-2.141958475112915,-1.3337517988732834,-2.526898447667257,6.111091005593099,1.0176904201507568,-2.3517113367663782
1708435180.5153713,-2.141967535018921,-1.3336821359447022,-2.526870314274923,6.111087548523702,1.0176740884780884,-2.351703707371847
1708435180.5174236,-2.1419506072998047,-1.333722324376442,-2.526914898549215,6.111136543541708,1.0176458358764648,-2.351736609135763
1708435180.5193706,-2.141930103302002,-1.3337355715087433,-2.526898447667257,6.111111509590902,1.0176335573196411,-2.351694647465841
1708435180.5213556,-2.141967535018921,-1.3336971265128632,-2.5269485155688685,6.111160862236776,1.0176650285720825,-2.351694647465841
1708435180.5233831,-2.141925573348999,-1.3337236058763047,-2.526935402547018,6.111152994423666,1.0176546573638916,-2.351682726536886
1708435180.5253768,-2.141908645629883,-1.3337386411479493,-2.526935402547018,6.1111042378242395,1.017687439918518,-2.3516960779773157
1708435180.5273874,-2.141963005065918,-1.3337607246688385,-2.526947323475973,6.111160862236776,1.0176739692687988,-2.3516739050494593
1708435180.5293493,-2.141941547393799,-1.333702878361084,-2.526931111012594,6.111197936325826,1.0176904201507568,-2.351707998906271
1708435180.5313542,-2.1419460773468018,-1.3337060076049347,-2.526951853428976,6.111135232239523,1.0176948308944702,-2.351691786442892
1708435180.533408,-2.141979932785034,-1.3337311309627076,-2.5268994013415735,6.111123430519857,1.0176621675491333,-2.351707998906271
1708435180.5353553,-2.141934633255005,-1.3336984825185318,-2.526881996785299,6.111118900566854,1.0176665782928467,-2.351654354725973
1708435180.537374,-2.141941547393799,-1.333751843576767,-2.5268951098071497,6.111172783165731,1.0176502466201782,-2.351691786442892
1708435180.5393548,-2.141925573348999,-1.3336776953986664,-2.5268383661853235,6.111197936325826,1.0176457166671753,-2.351670805607931
1708435180.5413547,-2.1419460773468018,-1.3336896759322663,-2.5269082228290003,6.111168253212728,1.0176247358322144,-2.351724688206808
1708435180.5434003,-2.141941547393799,-1.3336896163276215,-2.526827637349264,6.111172783165731,1.0176665782928467,-2.351666514073507
1708435180.5453644,-2.141958475112915,-1.3337430369905015,-2.5268190542804163,6.111144172936239,1.0176002979278564,-2.3516467253314417
1708435180.5474005,-2.141921043395996,-1.3337073040059586,-2.5268033186541956,6.111123430519857,1.0176502466201782,-2.351699177418844
1708435180.549375,-2.1419460773468018,-1.3337147694877167,-2.526832167302267,6.111135232239523,1.0176621675491333,-2.351661984120504
1708435180.5513809,-2.141949415206909,-1.3336984825185318,-2.5268076101886194,6.111169683724203,1.0176665782928467,-2.351691786442892
1708435180.5533943,-2.141975164413452,-1.3337267202189942,-2.526820246373312,6.111114489823141,1.0177081823349,-2.3516631762133997
1708435180.555374,-2.1418964862823486,-1.333702878361084,-2.5267794767962855,6.111123430519857,1.0176546573638916,-2.351675335560934
1708435180.5574164,-2.141953945159912,-1.3336984825185318,-2.526782814656393,6.111123430519857,1.01767098903656,-2.351658646260397
1708435180.5593655,-2.141963005065918,-1.3337028634599228,-2.5267871061908167,6.111181604653158,1.0176457166671753,-2.351679865513937
1708435180.5613892,-2.141963005065918,-1.3336984825185318,-2.5267632643329065,6.111152994423666,1.0176740884780884,-2.351679865513937
1708435180.5634148,-2.141958475112915,-1.333710403447487,-2.5267589727984827,6.111160862236776,1.0176576375961304,-2.351637903844015
1708435180.5653694,-2.141937017440796,-1.3337060076049347,-2.5267871061908167,6.1111159203346155,1.017641305923462,-2.351658646260397
1708435180.5673988,-2.141963005065918,-1.333689646129944,-2.5268245379077356,6.11115192154006,1.0176379680633545,-2.3516467253314417
1708435180.5693822,-2.1419460773468018,-1.3337266904166718,-2.5267913977252405,6.111180174141683,1.0176502466201782,-2.351670805607931
1708435180.5713687,-2.141932725906372,-1.3337593537620087,-2.5267470518695276,6.111114489823141,1.017641305923462,-2.3516467253314417
1708435180.5734,-2.1419708728790283,-1.3337267202189942,-2.526766602193014,6.111132252007284,1.0176457166671753,-2.351679865513937
1708435180.5753675,-2.1419177055358887,-1.3337267202189942,-2.526794735585348,6.111091005593099,1.0176457166671753,-2.3516345659839075
1708435180.5773976,-2.141941547393799,-1.3337311160615464,-2.526766602193014,6.111193525582113,1.0176546573638916,-2.351642433797018
1708435180.5793803,-2.141930103302002,-1.3337399375489731,-2.5267871061908167,6.111135232239523,1.0176621675491333,-2.3516138235675257
1708435180.5813568,-2.1419460773468018,-1.3337311160615464,-2.526831928883688,6.111130821495809,1.0176305770874023,-2.3516183535205286
1708435180.5833893,-2.1418874263763428,-1.3336535853198548,-2.5268076101886194,6.111172783165731,1.01767098903656,-2.3516064325915735
1708435180.5853646,-2.141908645629883,-1.333706022506096,-2.5267751852618616,6.111126410752096,1.0176305770874023,-2.351658646260397
1708435180.5873933,-2.1419389247894287,-1.333734245305397,-2.526816431676046,6.111130821495809,1.0176424980163574,-2.3516257444964808
1708435180.5893672,-2.141963005065918,-1.3337060523084183,-2.5267794767962855,6.11117576339797,1.0176546573638916,-2.351635996495382
1708435180.5913506,-2.141941547393799,-1.3337235909751435,-2.52675444284548,6.1111416695411584,1.0176591873168945,-2.3516138235675257
1708435180.593357,-2.141921043395996,-1.3337060076049347,-2.526762072240011,6.111154901772299,1.017600417137146,-2.3516183535205286
1708435180.5953705,-2.141932725906372,-1.333710403447487,-2.52677828470339,6.111098158150472,1.0176756381988525,-2.3516810576068323
1708435180.5973892,-2.1419663429260254,-1.333710403447487,-2.5267913977252405,6.111168253212728,1.0176546573638916,-2.3516886870013636
1708435180.5993652,-2.1419460773468018,-1.3337235909751435,-2.526799027119772,6.11105369308547,1.0176002979278564,-2.351656977330343
1708435180.6013622,-2.1419131755828857,-1.3336970818093796,-2.5267751852618616,6.111123430519857,1.0176637172698975,-2.3516421953784388
1708435180.6034143,-2.1419460773468018,-1.3337235909751435,-2.5268076101886194,6.111201274185934,1.0176665782928467,-2.3516345659839075
1708435180.6054027,-2.141988754272461,-1.333734245305397,-2.5267871061908167,6.111147510796346,1.01767098903656,-2.3516345659839075
1708435180.6073966,-2.141941547393799,-1.3337593537620087,-2.5267871061908167,6.111130821495809,1.0176334381103516,-2.3516719977008265
1708435180.6093876,-2.141963005065918,-1.333722324376442,-2.526820246373312,6.111123430519857,1.0176379680633545,-2.3516107241259974
1708435180.611361,-2.141895294189453,-1.3337192100337525,-2.5268364588366907,6.111154901772299,1.017626166343689,-2.3515659014331263
1708435180.6133626,-2.141953945159912,-1.3337760132602234,-2.526790205632345,6.111135232239523,1.0176830291748047,-2.3515897432910364
1708435180.61538,-2.14190411567688,-1.3337311160615464,-2.5268076101886194,6.1111594317253015,1.0176591873168945,-2.3515942732440394
1708435180.6174083,-2.141937017440796,-1.333702878361084,-2.526762072240011,6.111130821495809,1.0176546573638916,-2.3516317049609583
1708435180.6194067,-2.141925573348999,-1.3337060076049347,-2.526799027119772,6.111184584885397,1.0176379680633545,-2.351598564778463
1708435180.6213896,-2.141930103302002,-1.3336746406606217,-2.526827637349264,6.111160862236776,1.0176424980163574,-2.3516109625445765
1708435180.6233895,-2.141949415206909,-1.3337116998485108,-2.526811424885885,6.111193525582113,1.0176335573196411,-2.3516646067248743
1708435180.6253886,-2.141937255859375,-1.3337235909751435,-2.526770893727438,6.111168253212728,1.0176424980163574,-2.3516436258899134
1708435180.627379,-2.1419053077697754,-1.333702878361084,-2.526832167302267,6.111160862236776,1.0176830291748047,-2.3516197840320032
1708435180.6293895,-2.141953945159912,-1.3337267202189942,-2.526799027119772,6.111143100052633,1.017617106437683,-2.3516197840320032
1708435180.6313658,-2.1419131755828857,-1.333739922647812,-2.5268033186541956,6.111168253212728,1.0176469087600708,-2.35162860551943
1708435180.633384,-2.141958475112915,-1.3337103885463257,-2.526770893727438,6.1111594317253015,1.0176305770874023,-2.3516152540790003
1708435180.6353831,-2.141908645629883,-1.3337059778026124,-2.526848379765646,6.111147510796346,1.0176094770431519,-2.3515659014331263
1708435180.6374521,-2.14190411567688,-1.3336865615895768,-2.526815954838888,6.111130821495809,1.0176305770874023,-2.3515659014331263
1708435180.6395814,-2.141871452331543,-1.333735541706421,-2.526782814656393,6.111184584885397,1.0176424980163574,-2.3516064325915735
1708435180.6413708,-2.141916513442993,-1.3336658042720337,-2.5267751852618616,6.1111594317253015,1.017604947090149,-2.351598564778463
1708435180.64341,-2.141930103302002,-1.3337223094752808,-2.526782814656393,6.111163842469015,1.0176591873168945,-2.3516197840320032
1708435180.6453667,-2.141979694366455,-1.333751843576767,-2.5267913977252405,6.111126410752096,1.0176756381988525,-2.351553742085592
1708435180.6473863,-2.141984224319458,-1.333702878361084,-2.5268364588366907,6.111205804138937,1.0176591873168945,-2.351598564778463
1708435180.6493683,-2.141988754272461,-1.3337072742036362,-2.526790205632345,6.111135232239523,1.0176546573638916,-2.35162860551943
1708435180.6514242,-2.141925573348999,-1.3336535853198548,-2.526750151311056,6.111183512001791,1.01767098903656,-2.351570431386129
1708435180.6533847,-2.1419460773468018,-1.3337311160615464,-2.526766602193014,6.111187922745504,1.0176215171813965,-2.35162860551943
1708435180.655364,-2.141963005065918,-1.3336984825185318,-2.5267913977252405,6.111192452698507,1.0176502466201782,-2.351570431386129
1708435180.6573634,-2.141937017440796,-1.333697111611702,-2.526773993168966,6.111166822701254,1.0176637172698975,-2.351570431386129
1708435180.6593897,-2.141941547393799,-1.3337355119040986,-2.526799027119772,6.11115192154006,1.0176260471343994,-2.351553742085592
1708435180.6613631,-2.1420068740844727,-1.3336865615895768,-2.526790205632345,6.111183512001791,1.0176424980163574,-2.351579252873556
1708435180.6634097,-2.141941547393799,-1.333714799290039,-2.52677828470339,6.111171233444967,1.0176048278808594,-2.351607624684469
1708435180.6653621,-2.141941547393799,-1.3337191951325913,-2.526815954838888,6.111192452698507,1.0176379680633545,-2.351607624684469
1708435180.6673768,-2.141925573348999,-1.3336984825185318,-2.526773993168966,6.1111891148384,1.0176591873168945,-2.3515659014331263
1708435180.669373,-2.141953945159912,-1.3337804091027756,-2.526794497166769,6.111204254418173,1.0176334381103516,-2.351586643849508
1708435180.671373,-2.1419708728790283,-1.3337279719165345,-2.526790205632345,6.111156451493063,1.0176424980163574,-2.351558272038595
1708435180.673402,-2.141941547393799,-1.3337072742036362,-2.5268033186541956,6.111187922745504,1.01767098903656,-2.351595703755514
1708435180.6753771,-2.1419131755828857,-1.3337430518916626,-2.52682334581484,6.1112087843711755,1.0176424980163574,-2.351586643849508
1708435180.6773806,-2.141904354095459,-1.3336658787778397,-2.526773993168966,6.111121880799093,1.0176184177398682,-2.351574722920553
1708435180.679369,-2.1419506072998047,-1.3337191951325913,-2.5268028418170374,6.111129748612203,1.0176963806152344,-2.351603094731466
1708435180.6813703,-2.1419222354888916,-1.3337549579194565,-2.5268071333514612,6.111154901772299,1.0176334381103516,-2.3515659014331263
1708435180.6833816,-2.141921043395996,-1.3336777550033112,-2.5267697016345423,6.11111747005538,1.0176470279693604,-2.3516197840320032
1708435180.6853578,-2.141941547393799,-1.3337562841228028,-2.526790205632345,6.1111594317253015,1.0176215171813965,-2.351595703755514
1708435180.687355,-2.1419222354888916,-1.3337804538062592,-2.526832167302267,6.111150491028585,1.0176048278808594,-2.351595703755514
1708435180.689367,-2.1418917179107666,-1.3337103885463257,-2.526827637349264,6.11113857009963,1.017680048942566,-2.351591173802511
1708435180.691402,-2.141934633255005,-1.333763764505722,-2.526794497166769,6.11115192154006,1.017626166343689,-2.351624075566427
1708435180.6933956,-2.141925573348999,-1.333710403447487,-2.52682334581484,6.11111747005538,1.0176305770874023,-2.351574722920553
1708435180.6953838,-2.141941547393799,-1.3337104183486481,-2.526790205632345,6.111147510796346,1.0175930261611938,-2.351574722920553
1708435180.6973772,-2.141899824142456,-1.33374738812957,-2.526827637349264,6.111144172936239,1.0176682472229004,-2.351595703755514
1708435180.6993742,-2.1419460773468018,-1.3337324869683762,-2.526843849812643,6.111192452698507,1.0176351070404053,-2.351598564778463
1708435180.7013805,-2.141932725906372,-1.3336658340743561,-2.526785914097921,6.11116241195754,1.017626166343689,-2.351579252873556
1708435180.7033675,-2.141953945159912,-1.333702878361084,-2.526782814656393,6.111166822701254,1.0176184177398682,-2.3515823523150843
1708435180.7053733,-2.141908645629883,-1.3337191951325913,-2.526811424885885,6.11113857009963,1.0176396369934082,-2.351570431386129
1708435180.707387,-2.1419708728790283,-1.3337060076049347,-2.526782814656393,6.1112087843711755,1.0176424980163574,-2.351611916218893
1708435180.7094018,-2.141930103302002,-1.333714799290039,-2.5268071333514612,6.111172783165731,1.0176726579666138,-2.351595703755514
1708435180.7113664,-2.141958475112915,-1.333714799290039,-2.526773993168966,6.111187922745504,1.0176138877868652,-2.351616446171896
1708435180.7133667,-2.141908645629883,-1.3336999130300065,-2.526820246373312,6.111229526787557,1.0176379680633545,-2.351570431386129
1708435180.7153547,-2.141921043395996,-1.3337060076049347,-2.526811424885885,6.111192452698507,1.0176424980163574,-2.351624075566427
1708435180.7173915,-2.141932725906372,-1.3337443631938477,-2.5268076101886194,6.11117576339797,1.017663598060608,-2.351595703755514
1708435180.7193823,-2.141963005065918,-1.3336821359447022,-2.526832167302267,6.1111968634422205,1.0176215171813965,-2.351574722920553
1708435180.721357,-2.1419131755828857,-1.3337072742036362,-2.52682334581484,6.111147510796346,1.0176048278808594,-2.351570431386129
1708435180.7233796,-2.141953945159912,-1.333710403447487,-2.526770893727438,6.111233937531271,1.017617106437683,-2.351586643849508
1708435180.7253652,-2.14190411567688,-1.3336733144572754,-2.526782814656393,6.1111968634422205,1.0176682472229004,-2.351599995289938
1708435180.7273788,-2.141963005065918,-1.3336702448180695,-2.5267913977252405,6.111154901772299,1.0176591873168945,-2.351595703755514
1708435180.7293675,-2.1420044898986816,-1.3336535555175324,-2.52677828470339,6.111187922745504,1.0176424980163574,-2.35162860551943
1708435180.7313573,-2.141925573348999,-1.333656982784607,-2.526872221623556,6.111154901772299,1.0176682472229004,-2.3515659014331263
1708435180.733363,-2.141941547393799,-1.3337267202189942,-2.526773993168966,6.11112533786849,1.0176215171813965,-2.351633135472433
1708435180.7353535,-2.141930103302002,-1.3337430369905015,-2.52677828470339,6.11116241195754,1.0176002979278564,-2.351558272038595
1708435180.7373698,-2.141941547393799,-1.3337116700461884,-2.526832167302267,6.111153471260824,1.0176260471343994,-2.3515403906451624
1708435180.7393649,-2.1419460773468018,-1.3336614233306427,-2.526860300694601,6.111248838692465,1.0176637172698975,-2.351586643849508
1708435180.7413685,-2.141899824142456,-1.3337103885463257,-2.526832167302267,6.11123667934493,1.017626166343689,-2.3515613714801233
1708435180.7433681,-2.1419663429260254,-1.3337267202189942,-2.5268190542804163,6.111183512001791,1.0175840854644775,-2.351635996495382
1708435180.745354,-2.141937017440796,-1.3336984676173707,-2.5268471876727503,6.111232268601217,1.0176424980163574,-2.351525370274679
1708435180.7473693,-2.141975164413452,-1.333689646129944,-2.526832167302267,6.111265170365133,1.0176351070404053,-2.351583782826559
1708435180.7493675,-2.141967535018921,-1.333735541706421,-2.5268071333514612,6.1112475273902795,1.0176591873168945,-2.3516197840320032
1708435180.7513688,-2.141921043395996,-1.3336777550033112,-2.526832167302267,6.111268269806661,1.0176469087600708,-2.3515506426440638
1708435180.7533703,-2.141941547393799,-1.333747462635376,-2.5268245379077356,6.111259448319235,1.0176305770874023,-2.3516197840320032
1708435180.7553558,-2.141958475112915,-1.3337059778026124,-2.526811424885885,6.111311781197347,1.017621636390686,-2.351549212132589
1708435180.757382,-2.1419460773468018,-1.333702878361084,-2.5268190542804163,6.111270296364584,1.0176424980163574,-2.351579252873556
1708435180.7593834,-2.1419007778167725,-1.3336984825185318,-2.526820246373312,6.111225354462423,1.0176469087600708,-2.351579252873556
1708435180.7613697,-2.141941547393799,-1.3337443333915253,-2.526799027119772,6.11127136924819,1.017622947692871,-2.351603094731466
1708435180.7633638,-2.141934633255005,-1.333710403447487,-2.526827637349264,6.111283528595724,1.0176093578338623,-2.351633135472433
1708435180.7653701,-2.141934633255005,-1.3336821359447022,-2.526863400136129,6.111304390221395,1.0176184177398682,-2.351583782826559
1708435180.767367,-2.141925573348999,-1.3336984527162095,-2.526790205632345,6.111283528595724,1.0176184177398682,-2.3516197840320032
1708435180.7693791,-2.1419460773468018,-1.3337192100337525,-2.526811424885885,6.111353385239401,1.0176020860671997,-2.351570431386129
1708435180.771379,-2.1419177055358887,-1.3336865913918992,-2.526773993168966,6.111304390221395,1.0176559686660767,-2.351579252873556
1708435180.773369,-2.141921043395996,-1.333685265188553,-2.5268591086017054,6.111246096878805,1.0176020860671997,-2.3516107241259974
1708435180.7753615,-2.141941547393799,-1.33374439299617,-2.52682334581484,6.1113741276557825,1.0176184177398682,-2.351624313985006
1708435180.7773726,-2.141921043395996,-1.3337072742036362,-2.5268071333514612,6.111316191941061,1.0176138877868652,-2.351574722920553
1708435180.7793984,-2.141937017440796,-1.3337103885463257,-2.526860300694601,6.111311781197347,1.0175930261611938,-2.351595703755514
1708435180.7813835,-2.141958475112915,-1.333735541706421,-2.5268645922290247,6.111262428551473,1.017594337463379,-2.351591173802511
1708435180.7833986,-2.141930103302002,-1.3337267351201554,-2.526839558278219,6.111295449524679,1.0176228284835815,-2.351599995289938
1708435180.785383,-2.141975164413452,-1.3337311160615464,-2.5267697016345423,6.11123417594985,1.0176470279693604,-2.3515659014331263
1708435180.7873766,-2.1419708728790283,-1.3337072891047974,-2.52682334581484,6.111259448319235,1.0176093578338623,-2.35162860551943
1708435180.789368,-2.141941547393799,-1.3337103885463257,-2.5268102327929896,6.111275779991903,1.017626166343689,-2.3516197840320032
1708435180.7914083,-2.141984224319458,-1.333735541706421,-2.526832167302267,6.111291038780966,1.0176351070404053,-2.351562563573019
1708435180.7933745,-2.1419222354888916,-1.3336896908334275,-2.526815954838888,6.111283528595724,1.0176184177398682,-2.351574722920553
1708435180.7953937,-2.141958475112915,-1.3336940866759797,-2.526839558278219,6.111283528595724,1.0176305770874023,-2.351607624684469
1708435180.7973928,-2.141958475112915,-1.3337103885463257,-2.526773993168966,6.111296880036154,1.0176637172698975,-2.3516197840320032
1708435180.7993956,-2.141937017440796,-1.333702878361084,-2.526855770741598,6.111283528595724,1.0175930261611938,-2.3515823523150843
1708435180.801358,-2.141932725906372,-1.333714799290039,-2.526790205632345,6.111283528595724,1.0175975561141968,-2.3515823523150843
1708435180.8034065,-2.1419506072998047,-1.3336777252009888,-2.5268071333514612,6.111238705902853,1.0176396369934082,-2.351607624684469
1708435180.8053858,-2.141937017440796,-1.3337638092092057,-2.5268071333514612,6.111320721894064,1.0176305770874023,-2.351591173802511
1708435180.807399,-2.141916513442993,-1.333714799290039,-2.5268147627459925,6.111284720688619,1.017615556716919,-2.351591173802511
1708435180.8093874,-2.141984224319458,-1.3336941313794632,-2.526832167302267,6.111255037575521,1.0176094770431519,-2.351603094731466
1708435180.8113885,-2.1419506072998047,-1.3337355119040986,-2.526832167302267,6.111262428551473,1.0176184177398682,-2.351591173802511
1708435180.8133836,-2.141934633255005,-1.333689646129944,-2.526827637349264,6.11129246929244,1.0175930261611938,-2.351607624684469
1708435180.815374,-2.141899824142456,-1.3336909723332901,-2.52687651315798,6.111288058548727,1.017606496810913,-2.351607624684469
1708435180.8174,-2.141908645629883,-1.333735541706421,-2.5268190542804163,6.11129246929244,1.0176020860671997,-2.351586643849508
1708435180.8194473,-2.141988754272461,-1.333714799290039,-2.5268190542804163,6.11123417594985,1.0176020860671997,-2.351553742085592
1708435180.8214657,-2.141930103302002,-1.3337518733790894,-2.526801649724142,6.11129246929244,1.0176184177398682,-2.351598564778463
1708435180.8233933,-2.141925573348999,-1.3336984676173707,-2.526860300694601,6.111226784973898,1.0175974369049072,-2.351603094731466
1708435180.8253896,-2.141967535018921,-1.333689646129944,-2.526835266743795,6.111325132637777,1.0176351070404053,-2.351553742085592
1708435180.8273513,-2.141908645629883,-1.3337192100337525,-2.5268645922290247,6.11127136924819,1.0176138877868652,-2.351599995289938
1708435180.8293746,-2.1419708728790283,-1.3336821359447022,-2.526851479207174,6.111275779991903,1.0176351070404053,-2.351549212132589
1708435180.8313773,-2.141916513442993,-1.3336985272220154,-2.52682334581484,6.111283528595724,1.0176351070404053,-2.35154635110964
1708435180.8333564,-2.141930103302002,-1.3337235909751435,-2.526843849812643,6.111283528595724,1.0176305770874023,-2.351591173802511
1708435180.8353467,-2.14188289642334,-1.3337474328330536,-2.526839558278219,6.111238705902853,1.0176138877868652,-2.351591173802511
1708435180.837378,-2.1419718265533447,-1.3337236207774659,-2.526835266743795,6.111243116646566,1.0176604986190796,-2.3516152540790003
1708435180.839357,-2.141995668411255,-1.333710403447487,-2.5268190542804163,6.111243116646566,1.0176184177398682,-2.351598564778463
1708435180.8413496,-2.141988754272461,-1.3336851757815857,-2.526872221623556,6.111275779991903,1.0176138877868652,-2.351549212132589
1708435180.843352,-2.141930103302002,-1.3337399524501343,-2.5267983118640345,6.11127136924819,1.0176138877868652,-2.351595703755514
1708435180.84535,-2.141928195953369,-1.3337073189071198,-2.526839558278219,6.111308800965109,1.0176682472229004,-2.351603094731466
1708435180.847359,-2.141963005065918,-1.333702878361084,-2.5268071333514612,6.111251938133993,1.0176351070404053,-2.351591173802511
1708435180.8493466,-2.141937017440796,-1.3336910021356125,-2.52687651315798,6.111288058548727,1.0175807476043701,-2.3515732924090784
1708435180.851366,-2.14188289642334,-1.3337161999991913,-2.5268266836749476,6.111259448319235,1.0176228284835815,-2.35162860551943
1708435180.853355,-2.141941547393799,-1.3336702597192307,-2.526863400136129,6.111268269806661,1.0176184177398682,-2.351595703755514
1708435180.8553824,-2.1419506072998047,-1.3337311011603852,-2.526851479207174,6.111308800965109,1.0176138877868652,-2.351595703755514
1708435180.857393,-2.141925573348999,-1.3337430518916626,-2.5268059412585657,6.11126075962142,1.0175974369049072,-2.351624075566427
1708435180.8593647,-2.141925573348999,-1.3337073040059586,-2.526835266743795,6.111275779991903,1.0176396369934082,-2.351616446171896
1708435180.8613627,-2.141988754272461,-1.3337103736451645,-2.526851479207174,6.11127136924819,1.017626166343689,-2.351586643849508
1708435180.8633935,-2.141930103302002,-1.3337072891047974,-2.526851479207174,6.11129246929244,1.0176469087600708,-2.351591173802511
1708435180.8653834,-2.141953945159912,-1.3336777252009888,-2.5268428961383265,6.1112029431159876,1.0176093578338623,-2.351595703755514
1708435180.8673844,-2.141963005065918,-1.3336658787778397,-2.5268309752093714,6.111263859062948,1.017606496810913,-2.351579252873556
1708435180.8693542,-2.141930103302002,-1.3337267202189942,-2.5268190542804163,6.1112416861350916,1.0175807476043701,-2.351598564778463
1708435180.8713531,-2.141932725906372,-1.3336985123208542,-2.52682334581484,6.111275779991903,1.0176559686660767,-2.351603094731466
1708435180.8733833,-2.141937017440796,-1.3337311309627076,-2.526835266743795,6.11128460147933,1.0176020860671997,-2.3516197840320032
1708435180.875368,-2.141921043395996,-1.3337386411479493,-2.5268428961383265,6.111266839295187,1.0176441669464111,-2.35162860551943
1708435180.8773696,-2.1419663429260254,-1.3337015521577378,-2.5268071333514612,6.111238705902853,1.017606496810913,-2.351624075566427
1708435180.8793957,-2.1419708728790283,-1.3336984527162095,-2.5268028418170374,6.111229645996847,1.0176020860671997,-2.351607624684469
1708435180.8813913,-2.1419222354888916,-1.3337443631938477,-2.52687651315798,6.111272799759664,1.0176351070404053,-2.3516317049609583
1708435180.8833773,-2.1418850421905518,-1.3337430518916626,-2.526855770741598,6.111243116646566,1.0176093578338623,-2.3515823523150843
1708435180.8853612,-2.1418964862823486,-1.333714799290039,-2.526843849812643,6.11123417594985,1.0176228284835815,-2.351607624684469
1708435180.887393,-2.141908645629883,-1.333702878361084,-2.526855770741598,6.11129246929244,1.017627477645874,-2.351591173802511
1708435180.8893764,-2.141941547393799,-1.3336733144572754,-2.526905123387472,6.111262428551473,1.017627477645874,-2.351595703755514
1708435180.8913662,-2.141908645629883,-1.3336985123208542,-2.52682334581484,6.111268269806661,1.0176020860671997,-2.351591173802511
1708435180.893401,-2.141921043395996,-1.333702878361084,-2.526867691670553,6.1112297652061365,1.017589807510376,-2.3516152540790003
1708435180.8953595,-2.141967535018921,-1.3337192100337525,-2.526839558278219,6.111210095673361,1.0176184177398682,-2.351635996495382
1708435180.8973713,-2.14190411567688,-1.3337443184903641,-2.5268428961383265,6.11130582073287,1.017611026763916,-2.351603094731466
1708435180.8993943,-2.1419460773468018,-1.333723635678627,-2.5268266836749476,6.11128460147933,1.017606496810913,-2.3516197840320032
1708435180.9014034,-2.141975164413452,-1.3336613935283204,-2.526851479207174,6.111226784973898,1.0176351070404053,-2.351598564778463
1708435180.9034517,-2.141958475112915,-1.3337505471757432,-2.5268266836749476,6.111231195717611,1.0176228284835815,-2.3516064325915735
1708435180.9053643,-2.141921043395996,-1.3337562841228028,-2.526835266743795,6.111250507622518,1.0175974369049072,-2.351598564778463
1708435180.9073935,-2.141916513442993,-1.3337060076049347,-2.526867691670553,6.111238705902853,1.0176351070404053,-2.351598564778463
1708435180.9093983,-2.141949415206909,-1.3337681603482743,-2.5268266836749476,6.111217725067892,1.0176138877868652,-2.3516152540790003
1708435180.911369,-2.141979932785034,-1.3336777550033112,-2.526851479207174,6.111275779991903,1.0176184177398682,-2.351586643849508
1708435180.9133828,-2.141925573348999,-1.3337386411479493,-2.5268428961383265,6.11127136924819,1.017611026763916,-2.3516152540790003
1708435180.915384,-2.1419405937194824,-1.3337072891047974,-2.5268190542804163,6.111198413162985,1.0176138877868652,-2.351656977330343
1708435180.9174314,-2.141937017440796,-1.333665819173195,-2.5268102327929896,6.1112475273902795,1.017585277557373,-2.351603094731466
1708435180.9194458,-2.141991138458252,-1.333689646129944,-2.526839558278219,6.111259448319235,1.0176184177398682,-2.3515942732440394
1708435180.9213715,-2.141958475112915,-1.3337192100337525,-2.5268190542804163,6.111284720688619,1.0176184177398682,-2.3516152540790003
1708435180.9234138,-2.141963005065918,-1.3337518584779282,-2.5268753210650843,6.1112475273902795,1.0176184177398682,-2.351598564778463
1708435180.925362,-2.141984224319458,-1.3337103885463257,-2.5268147627459925,6.1112475273902795,1.0176093578338623,-2.3516691366778772
1708435180.9273808,-2.141930103302002,-1.3336984825185318,-2.526900593434469,6.111251938133993,1.0176093578338623,-2.351656977330343
1708435180.9293516,-2.141932725906372,-1.3337311309627076,-2.526845995579855,6.111296880036154,1.0176138877868652,-2.3516197840320032
1708435180.9313674,-2.1419460773468018,-1.333714784388878,-2.526884142552511,6.111222374230184,1.0176441669464111,-2.3516436258899134
1708435180.933382,-2.141921043395996,-1.3337103885463257,-2.526851479207174,6.111240136414327,1.0176441669464111,-2.3516271750079554
1708435180.935347,-2.141921043395996,-1.3337444078973313,-2.526879612599508,6.111255037575521,1.0175930261611938,-2.3516841570483606
1708435180.9373798,-2.141979932785034,-1.3336865317872544,-2.52682334581484,6.111268269806661,1.0176020860671997,-2.3516257444964808
1708435180.9393618,-2.14190411567688,-1.333702878361084,-2.526896301900045,6.1112475273902795,1.0176184177398682,-2.3516064325915735
1708435180.9413621,-2.141930103302002,-1.3336569976857682,-2.526863400136129,6.111243116646566,1.0175763368606567,-2.3516271750079554
1708435180.9433799,-2.141921043395996,-1.333637223844864,-2.526884142552511,6.111210095673361,1.0176048278808594,-2.3516677061664026
1708435180.945372,-2.141995668411255,-1.333751843576767,-2.5268309752093714,6.1112475273902795,1.0176515579223633,-2.351679865513937
1708435180.9473832,-2.141908645629883,-1.3337311458638688,-2.526883904133932,6.111251938133993,1.0176515579223633,-2.3516841570483606
1708435180.9493933,-2.14190411567688,-1.3336658638766785,-2.5268059412585657,6.111255037575521,1.0176305770874023,-2.3517664114581507
1708435180.9514067,-2.141958475112915,-1.3337804538062592,-2.526888434086935,6.1112475273902795,1.0176441669464111,-2.351675335560934
1708435180.9534137,-2.14190411567688,-1.3336910021356125,-2.526884142552511,6.111231195717611,1.0176184177398682,-2.351670805607931
1708435180.9553618,-2.141975164413452,-1.3337430518916626,-2.526851479207174,6.111246096878805,1.0176726579666138,-2.351691786442892
1708435180.9574108,-2.1419177055358887,-1.3337223094752808,-2.5268147627459925,6.111255037575521,1.0176305770874023,-2.351736609135763
1708435180.9593618,-2.141908645629883,-1.3337235909751435,-2.5268383661853235,6.111216175347128,1.0176637172698975,-2.3517113367663782
1708435180.9613557,-2.141937017440796,-1.3337103885463257,-2.526867930089132,6.111243116646566,1.0176424980163574,-2.351724688206808
1708435180.963383,-2.141979932785034,-1.333756224518158,-2.5268309752093714,6.111256468086996,1.0176637172698975,-2.3517113367663782
1708435180.9653504,-2.141984224319458,-1.333702878361084,-2.5268102327929896,6.11129246929244,1.0176515579223633,-2.3517187277423304
1708435180.9673529,-2.1418917179107666,-1.3337549281171341,-2.5268753210650843,6.111301290779867,1.0176424980163574,-2.3517144362079065
1708435180.969367,-2.1419663429260254,-1.333723635678627,-2.526801649724142,6.111251938133993,1.0176379680633545,-2.3517680803882044
1708435180.9713604,-2.141975164413452,-1.333714799290039,-2.5268264452563685,6.111256468086996,1.0176379680633545,-2.3517890612231653
1708435180.9733918,-2.141899824142456,-1.3337236505797883,-2.5268221537219446,6.111226784973898,1.017680048942566,-2.3517306486712855
1708435180.97536,-2.141963005065918,-1.3337222796729584,-2.526896301900045,6.111263859062948,1.0176334381103516,-2.3517306486712855
1708435180.9774005,-2.141963005065918,-1.3337267202189942,-2.5268548170672815,6.111218917160787,1.0176591873168945,-2.3517592589007776
1708435180.9793591,-2.141949415206909,-1.3337103736451645,-2.5268383661853235,6.1112475273902795,1.017617106437683,-2.3517680803882044
1708435180.9813576,-2.141937017440796,-1.3337279868176957,-2.5269320646869105,6.111226784973898,1.0176845788955688,-2.351750437413351
1708435180.9833896,-2.141925573348999,-1.3336940866759797,-2.526935402547018,6.111272799759664,1.0176637172698975,-2.351738516484396
1708435180.9853656,-2.1419460773468018,-1.3337563139251252,-2.5269671122180384,6.111205684929647,1.0176379680633545,-2.35177451768984
1708435180.987426,-2.141958475112915,-1.333756224518158,-2.5269551912890833,6.111255037575521,1.0176829099655151,-2.351783339177267
1708435180.9893641,-2.141949415206909,-1.3337518733790894,-2.5269671122180384,6.111182200699606,1.0176576375961304,-2.351774279271261
1708435180.9913807,-2.1419551372528076,-1.3337192249349137,-2.5269954840289515,6.1112475273902795,1.0176411867141724,-2.351802651082174
1708435180.993401,-2.141953945159912,-1.3336777848056336,-2.526986900960104,6.111226784973898,1.0176379680633545,-2.351844612752096
1708435180.995393,-2.14190411567688,-1.3337443631938477,-2.527055565510885,6.111194002419271,1.0176379680633545,-2.351840082799093
1708435180.9973862,-2.141925573348999,-1.333735541706421,-2.526978317891256,6.111244427948751,1.0176457166671753,-2.351828161870138
1708435180.9993634,-2.141928195953369,-1.3337103885463257,-2.5270631949054163,6.11122344711379,1.017626166343689,-2.351790730153219
1708435181.0013843,-2.141953945159912,-1.3337072891047974,-2.5269857088672083,6.111275779991903,1.01767098903656,-2.351828161870138
1708435181.0034025,-2.141921043395996,-1.3336909425309678,-2.527039353047506,6.111275779991903,1.0176546573638916,-2.351861063634054
1708435181.0053654,-2.141953945159912,-1.3337029081634064,-2.526978079472677,6.1112029431159876,1.0176379680633545,-2.351823870335714
1708435181.0073805,-2.1419506072998047,-1.3337028634599228,-2.5270031134234827,6.111259448319235,1.0176591873168945,-2.351823870335714
1708435181.0093577,-2.141908645629883,-1.3337162149003525,-2.5270567576037806,6.111238705902853,1.017687439918518,-2.351844612752096
1708435181.0113578,-2.1419460773468018,-1.3337267202189942,-2.5270775000201624,6.111255037575521,1.0176546573638916,-2.3518553415881556
1708435181.0133796,-2.14190411567688,-1.3337103885463257,-2.526994530354635,6.111260878830709,1.0176502466201782,-2.3517521063434046
1708435181.0153723,-2.141908645629883,-1.3337072891047974,-2.526994530354635,6.111266839295187,1.017687439918518,-2.3518508116351526
1708435181.0173974,-2.141941547393799,-1.33371918023143,-2.5270443598376673,6.111268269806661,1.0176546573638916,-2.3518717924701136
1708435181.0193958,-2.141975164413452,-1.3337593090585251,-2.526986900960104,6.111251938133993,1.0176993608474731,-2.3518806139575403
1708435181.021444,-2.141958475112915,-1.333710403447487,-2.5269911924945276,6.111210095673361,1.0177074670791626,-2.3518508116351526
1708435181.0233915,-2.141958475112915,-1.3337192100337525,-2.5270119349109095,6.111210095673361,1.0176984071731567,-2.3518179098712366
1708435181.025387,-2.141916513442993,-1.3337072742036362,-2.5270074049579065,6.111218917160787,1.0177208185195923,-2.3518298308001917
1708435181.0273924,-2.1419506072998047,-1.3336896312287827,-2.526971403752462,6.11126075962142,1.0176904201507568,-2.3518477121936243
1708435181.0293748,-2.141963005065918,-1.3337222647717972,-2.526990000401632,6.111238705902853,1.0177103281021118,-2.351804558430807
1708435181.0313904,-2.141967535018921,-1.333702878361084,-2.5270074049579065,6.111265170365133,1.0177147388458252,-2.3518760840045374
1708435181.033388,-2.1419460773468018,-1.333702878361084,-2.526961867009298,6.1112475273902795,1.0177147388458252,-2.351853911076681
1708435181.0353632,-2.141937017440796,-1.3337223094752808,-2.526994530354635,6.111251938133993,1.0177147388458252,-2.3518837133990687
1708435181.0373971,-2.141916513442993,-1.333714799290039,-2.526990000401632,6.1112356064613245,1.0177102088928223,-2.3518913427936
1708435181.0393665,-2.141941547393799,-1.33368073523555,-2.527022663746969,6.111256468086996,1.0177565813064575,-2.351882282887594
1708435181.0413625,-2.1419708728790283,-1.333714799290039,-2.5270567576037806,6.111168849259176,1.0177356004714966,-2.351895872746603
1708435181.0433905,-2.141932725906372,-1.3337059778026124,-2.5270074049579065,6.111231195717611,1.0176904201507568,-2.3519139925586146
1708435181.0453835,-2.1419708728790283,-1.3337028932622452,-2.5270074049579065,6.1112356064613245,1.0176894664764404,-2.3519304434405726
1708435181.047375,-2.1419663429260254,-1.3337179285338898,-2.527055565510885,6.111238705902853,1.017744779586792,-2.3519678751574915
1708435181.0493774,-2.141937017440796,-1.3336984676173707,-2.526994530354635,6.111240136414327,1.0176857709884644,-2.3519721666919153
1708435181.051357,-2.141975164413452,-1.333702878361084,-2.526990000401632,6.1112074730689905,1.0177429914474487,-2.3519542852984827
1708435181.053368,-2.141967535018921,-1.333702878361084,-2.526978079472677,6.111170160561361,1.0177385807037354,-2.3519466559039515
1708435181.0553582,-2.141921043395996,-1.333726705317833,-2.5270074049579065,6.111218917160787,1.017713189125061,-2.3519511858569544
1708435181.0573606,-2.141975164413452,-1.333747462635376,-2.5269857088672083,6.1112356064613245,1.0177793502807617,-2.3519633452044886
1708435181.0593483,-2.141963005065918,-1.3336689931205292,-2.526978079472677,6.111251938133993,1.0177385807037354,-2.3519871870623987
1708435181.0613537,-2.141899824142456,-1.333694041972496,-2.526970688496725,6.111244427948751,1.0177552700042725,-2.3519797960864466
1708435181.0633922,-2.141925573348999,-1.3336984676173707,-2.526986900960104,6.111222374230184,1.0178050994873047,-2.3519752661334437
1708435181.065355,-2.141921043395996,-1.3337311309627076,-2.526953999196188,6.111222374230184,1.0177748203277588,-2.3519588152514856
1708435181.0673711,-2.1419506072998047,-1.3336746406606217,-2.526986900960104,6.111216175347128,1.017767071723938,-2.351982657109396
1708435181.0693524,-2.141949415206909,-1.3337192249349137,-2.52702242532839,6.111281621247091,1.0177793502807617,-2.3520126978503626
1708435181.0713708,-2.1419777870178223,-1.3337072891047974,-2.526994530354635,6.111226784973898,1.0177581310272217,-2.3520246187793177
1708435181.0733945,-2.141984224319458,-1.3336821359447022,-2.5270031134234827,6.111189591675558,1.0177793502807617,-2.3520246187793177
1708435181.0753613,-2.141925573348999,-1.3336777848056336,-2.526961867009298,6.111194002419271,1.017791509628296,-2.351978365574972
1708435181.0773833,-2.141925573348999,-1.3336940568736573,-2.5270355383502405,6.111240136414327,1.017765760421753,-2.352023426686422
1708435181.0793579,-2.141963005065918,-1.333723635678627,-2.5269911924945276,6.111265170365133,1.0177702903747559,-2.352003876362936
1708435181.0813584,-2.141979932785034,-1.3337147694877167,-2.5269737879382532,6.111216175347128,1.017798900604248,-2.351999346409933
1708435181.0834272,-2.1419451236724854,-1.3337072891047974,-2.527060095463888,6.111226784973898,1.017798900604248,-2.352015797291891
1708435181.085393,-2.141925573348999,-1.3336985123208542,-2.527026955281393,6.111240136414327,1.0177702903747559,-2.352011267338888
1708435181.0873723,-2.141975164413452,-1.3336984676173707,-2.5270031134234827,6.111218917160787,1.017798900604248,-2.352011267338888
1708435181.0893478,-2.141979932785034,-1.3336940121701737,-2.5270848909961146,6.111263859062948,1.0178152322769165,-2.352065149937765
1708435181.09135,-2.1419222354888916,-1.3337192100337525,-2.5270355383502405,6.111263859062948,1.0178197622299194,-2.3520353476153772
1708435181.0933769,-2.141953945159912,-1.3337103885463257,-2.5270400683032435,6.1112356064613245,1.01778244972229,-2.3520219961749476
1708435181.0953622,-2.141975164413452,-1.3337236207774659,-2.5270524660693567,6.1112475273902795,1.0178271532058716,-2.3520308176623743
1708435181.097379,-2.1419451236724854,-1.333714799290039,-2.5270031134234827,6.111251938133993,1.0178271532058716,-2.3520472685443323
1708435181.0993578,-2.141921043395996,-1.3336909872344513,-2.5269737879382532,6.111268269806661,1.0178602933883667,-2.352056090031759
1708435181.1013618,-2.141958475112915,-1.3337178987315674,-2.5270031134234827,6.111251938133993,1.0178108215332031,-2.3520146051989954
1708435181.103374,-2.1419460773468018,-1.3336985123208542,-2.5270851294146937,6.111194121628561,1.0178439617156982,-2.3519814650165003
1708435181.105398,-2.141953945159912,-1.3337236207774659,-2.5270443598376673,6.11127136924819,1.0178227424621582,-2.351982657109396
1708435181.1073956,-2.1419131755828857,-1.3337192100337525,-2.5269911924945276,6.11123417594985,1.0178680419921875,-2.352048699055807
1708435181.1093595,-2.1419460773468018,-1.3337192100337525,-2.5270031134234827,6.111243116646566,1.0178558826446533,-2.35203987756838
1708435181.11136,-2.141937017440796,-1.333702878361084,-2.5270031134234827,6.111229645996847,1.0178799629211426,-2.3520384470569056
1708435181.11337,-2.141958475112915,-1.3336896759322663,-2.527043883000509,6.111284720688619,1.017884373664856,-2.3520517984973353
1708435181.1153653,-2.141925573348999,-1.333714799290039,-2.52704364458193,6.111293422966757,1.0178512334823608,-2.3520594278918665
1708435181.1173906,-2.1419618129730225,-1.3337028932622452,-2.52702242532839,6.111210095673361,1.0178377628326416,-2.352098051701681
1708435181.1194148,-2.141934633255005,-1.3337192100337525,-2.527026955281393,6.11128460147933,1.0178709030151367,-2.3520801703082483
1708435181.1214125,-2.1419718265533447,-1.3336865317872544,-2.527043883000509,6.11129246929244,1.0178468227386475,-2.352060619984762
1708435181.123381,-2.1419460773468018,-1.3336777102998276,-2.5270031134234827,6.111259448319235,1.01787531375885,-2.3520384470569056
1708435181.125364,-2.141949415206909,-1.3337192100337525,-2.5270524660693567,6.111263859062948,1.017884373664856,-2.35203987756838
1708435181.1273599,-2.141949415206909,-1.3336940568736573,-2.5270355383502405,6.111259448319235,1.0178589820861816,-2.3520517984973353
1708435181.129364,-2.1419460773468018,-1.3336821359447022,-2.5270355383502405,6.111251938133993,1.0178663730621338,-2.3520639578448694
1708435181.1313581,-2.141958475112915,-1.3337134283832093,-2.52702242532839,6.111238705902853,1.017884373664856,-2.352056090031759
1708435181.1333706,-2.141963005065918,-1.3336448234370728,-2.5270031134234827,6.111238705902853,1.0178635120391846,-2.352056090031759
1708435181.1353812,-2.141953945159912,-1.3336984676173707,-2.526986900960104,6.111263859062948,1.0178709030151367,-2.3519933859454554
1708435181.1374173,-2.141925573348999,-1.3336821806481858,-2.5269911924945276,6.111218917160787,1.0178786516189575,-2.352056090031759
1708435181.1393769,-2.141934633255005,-1.333694041972496,-2.5270031134234827,6.1111851809318445,1.0178663730621338,-2.3519979158984583
1708435181.1413648,-2.141941547393799,-1.333689646129944,-2.527076307927267,6.1112801907356165,1.0178875923156738,-2.3519726435290735
1708435181.1433778,-2.141925573348999,-1.3337178838304062,-2.5270524660693567,6.111217844277181,1.017878532409668,-2.35203987756838
1708435181.1453848,-2.141982316970825,-1.3337354970029374,-2.527039353047506,6.111222374230184,1.0178663730621338,-2.352072779332296
1708435181.1473854,-2.141958475112915,-1.3336984527162095,-2.5269737879382532,6.1112356064613245,1.017894983291626,-2.3520427385913294
1708435181.1493633,-2.14188289642334,-1.3337549579194565,-2.5269814173327845,6.1112801907356165,1.0178754329681396,-2.35203987756838
1708435181.1514046,-2.141963005065918,-1.333670200114586,-2.5270443598376673,6.111296880036154,1.0178618431091309,-2.3520804087268274
1708435181.1533716,-2.141953945159912,-1.3336865615895768,-2.5270512739764612,6.111288058548727,1.0178618431091309,-2.352065149937765
1708435181.1553645,-2.1419460773468018,-1.3337430518916626,-2.526986900960104,6.111304390221395,1.0178574323654175,-2.352072779332296
1708435181.1573923,-2.142002582550049,-1.3337178838304062,-2.526986900960104,6.111295449524679,1.0179404020309448,-2.3520548979388636
1708435181.1593525,-2.141921043395996,-1.333710403447487,-2.527039353047506,6.111299860268392,1.0178905725479126,-2.3520427385913294
1708435181.1613684,-2.14190411567688,-1.3337342304042359,-2.5270729700671595,6.111307370453634,1.017894983291626,-2.3520174662219446
1708435181.1633618,-2.141963005065918,-1.3337072891047974,-2.527026955281393,6.111288058548727,1.0179024934768677,-2.3520384470569056
1708435181.1653614,-2.1419177055358887,-1.333735541706421,-2.527039353047506,6.111250507622518,1.0179141759872437,-2.3520517984973353
1708435181.167355,-2.1419732570648193,-1.3337606948665162,-2.5270400683032435,6.11127136924819,1.017935872077942,-2.35203987756838
1708435181.1693678,-2.141953945159912,-1.333702878361084,-2.527039353047506,6.111210095673361,1.0178978443145752,-2.3520265261279505
1708435181.1713657,-2.1419618129730225,-1.3336865466884156,-2.527076307927267,6.111268269806661,1.0179277658462524,-2.3520384470569056
1708435181.1733623,-2.1420116424560547,-1.3336599928191681,-2.5269857088672083,6.111251938133993,1.0179312229156494,-2.352089230214254
1708435181.1753547,-2.141953945159912,-1.3337355119040986,-2.527026955281393,6.111255037575521,1.0179113149642944,-2.3520594278918665
1708435181.1773775,-2.1419506072998047,-1.3337399524501343,-2.526986900960104,6.111250507622518,1.017890453338623,-2.3520472685443323
1708435181.1793602,-2.1419131755828857,-1.3337488633445282,-2.5270355383502405,6.111217844277181,1.0179097652435303,-2.3520384470569056
1708435181.1813555,-2.1418964862823486,-1.3337505620769043,-2.527026955281393,6.111259448319235,1.017926812171936,-2.352023426686422
1708435181.1833546,-2.141967535018921,-1.3337236505797883,-2.526970688496725,6.111255037575521,1.0179431438446045,-2.3520353476153772
1708435181.1853528,-2.1418917179107666,-1.3336852949908753,-2.526986900960104,6.11123417594985,1.0178978443145752,-2.3520219961749476
1708435181.1873815,-2.141925573348999,-1.333702878361084,-2.5270031134234827,6.111246096878805,1.0178933143615723,-2.3520847002612513
1708435181.1893668,-2.1419222354888916,-1.3336984825185318,-2.5269737879382532,6.111238705902853,1.0179431438446045,-2.352072779332296
1708435181.1913557,-2.141963005065918,-1.3337103885463257,-2.5270031134234827,6.11123417594985,1.0179052352905273,-2.352056328450338
1708435181.1933627,-2.1419618129730225,-1.3336733144572754,-2.527039353047506,6.111316191941061,1.0179266929626465,-2.3520472685443323
1708435181.1953545,-2.141958475112915,-1.3337355566075821,-2.5270074049579065,6.111250507622518,1.017935872077942,-2.3520639578448694
1708435181.1973777,-2.141941547393799,-1.333707259302475,-2.5270031134234827,6.111250507622518,1.0179849863052368,-2.3520801703082483
1708435181.1993647,-2.141930103302002,-1.3336984676173707,-2.5270031134234827,6.111189591675558,1.0179431438446045,-2.3520100752459925
1708435181.2013655,-2.1419460773468018,-1.3337562841228028,-2.5270355383502405,6.111253607064047,1.0179342031478882,-2.3520801703082483
1708435181.2033544,-2.141925573348999,-1.333694041972496,-2.5270031134234827,6.1112801907356165,1.0179387331008911,-2.3520174662219446
1708435181.2053635,-2.141941547393799,-1.3336984676173707,-2.52704364458193,6.111222374230184,1.017959475517273,-2.3520594278918665
1708435181.207356,-2.141963005065918,-1.333702878361084,-2.5270729700671595,6.111288058548727,1.0179715156555176,-2.3520517984973353
1708435181.209353,-2.141925573348999,-1.3337814819863816,-2.5269857088672083,6.111304390221395,1.0179506540298462,-2.3520265261279505
1708435181.2113523,-2.141958475112915,-1.3336702597192307,-2.5270355383502405,6.11129246929244,1.0179342031478882,-2.3519933859454554
1708435181.213347,-2.1419131755828857,-1.3337399524501343,-2.5270074049579065,6.111286628037252,1.017975926399231,-2.3520801703082483
1708435181.215359,-2.141932725906372,-1.3336984676173707,-2.5270074049579065,6.1112475273902795,1.0179387331008911,-2.3520146051989954
1708435181.2173517,-2.141930103302002,-1.3337103885463257,-2.5270355383502405,6.111288058548727,1.017959475517273,-2.3519933859454554
1708435181.2193635,-2.1419460773468018,-1.3337342006019135,-2.5270355383502405,6.1112475273902795,1.0179431438446045,-2.3520427385913294
1708435181.2214077,-2.141930103302002,-1.3337386113456269,-2.526986900960104,6.111288058548727,1.017975926399231,-2.3520801703082483
1708435181.2234046,-2.141908645629883,-1.3337430518916626,-2.5270355383502405,6.11127136924819,1.0179342031478882,-2.352072779332296
1708435181.2253978,-2.141880512237549,-1.3337072891047974,-2.526986900960104,6.111208903580465,1.0179837942123413,-2.3520517984973353
1708435181.2273858,-2.14190411567688,-1.3337562841228028,-2.527026955281393,6.111283528595724,1.0179296731948853,-2.3520265261279505
1708435181.2293534,-2.14190411567688,-1.3337430518916626,-2.5270074049579065,6.11127136924819,1.0179669857025146,-2.3520265261279505
1708435181.231406,-2.141958475112915,-1.3337222945741196,-2.527060095463888,6.111307370453634,1.0179296731948853,-2.3520472685443323
1708435181.2333722,-2.141963005065918,-1.333747462635376,-2.527043883000509,6.111283528595724,1.0179669857025146,-2.352072779332296
1708435181.2353654,-2.14190411567688,-1.333668903713562,-2.526978079472677,6.111288058548727,1.017922282218933,-2.352056090031759
1708435181.2374268,-2.141932725906372,-1.333714799290039,-2.5270355383502405,6.111299860268392,1.0179506540298462,-2.3520517984973353
1708435181.2393644,-2.141941547393799,-1.3337518733790894,-2.527043883000509,6.111320721894064,1.0179387331008911,-2.3520682493792933
1708435181.2413647,-2.141925573348999,-1.3336865466884156,-2.5270848909961146,6.11127136924819,1.017975926399231,-2.352056090031759
1708435181.243387,-2.141988754272461,-1.3337518137744446,-2.526994530354635,6.1113237021263025,1.0179475545883179,-2.3520339171039026
1708435181.2453477,-2.1419763565063477,-1.3337178987315674,-2.526994291936056,6.11127136924819,1.0179669857025146,-2.3519726435290735
1708435181.2473822,-2.141963005065918,-1.3336970669082184,-2.527026955281393,6.111283528595724,1.0179669857025146,-2.3520472685443323
1708435181.2493622,-2.141953945159912,-1.333735541706421,-2.5270350615130823,6.111299860268392,1.0179342031478882,-2.3519933859454554
1708435181.2513545,-2.141963005065918,-1.3336852353862305,-2.526994530354635,6.111250507622518,1.0179506540298462,-2.352044169102804
1708435181.2533853,-2.1419177055358887,-1.333768219952919,-2.526986900960104,6.111246096878805,1.0179669857025146,-2.3520219961749476
1708435181.2553473,-2.141916513442993,-1.3336941015771409,-2.527076307927267,6.1112297652061365,1.0179791450500488,-2.3520308176623743
1708435181.2573829,-2.141986608505249,-1.3337430220893403,-2.526961867009298,6.111255037575521,1.0179669857025146,-2.3520517984973353
1708435181.2593684,-2.141941547393799,-1.3336777550033112,-2.5270443598376673,6.111288058548727,1.0179580450057983,-2.3520308176623743
1708435181.2613413,-2.141930103302002,-1.3336896312287827,-2.526994530354635,6.111246096878805,1.0179386138916016,-2.351990524922506
1708435181.263393,-2.1418964862823486,-1.3337029081634064,-2.526994530354635,6.111286628037252,1.0179312229156494,-2.352006737385885
1708435181.2653563,-2.141941547393799,-1.3337192100337525,-2.5270848909961146,6.111238705902853,1.0179475545883179,-2.3520308176623743
1708435181.2673652,-2.14190411567688,-1.3337606948665162,-2.526994530354635,6.111259448319235,1.017975926399231,-2.3520100752459925
1708435181.2693594,-2.141937017440796,-1.3337192249349137,-2.5270031134234827,6.11132966259078,1.017971396446228,-2.3519979158984583
1708435181.2713668,-2.1419506072998047,-1.3337267202189942,-2.5270524660693567,6.111255037575521,1.017975926399231,-2.352011267338888
1708435181.2733767,-2.141979932785034,-1.3337236207774659,-2.527043883000509,6.111316191941061,1.017975926399231,-2.3519859949695032
1708435181.27535,-2.141941547393799,-1.3337848645499726,-2.5269811789142054,6.11135350444869,1.0179803371429443,-2.35203987756838
1708435181.277385,-2.141908645629883,-1.3337342304042359,-2.5270355383502405,6.111288058548727,1.017975926399231,-2.352027956639425
1708435181.279372,-2.141995668411255,-1.3336984676173707,-2.527043883000509,6.111325251847067,1.0179431438446045,-2.352006737385885
1708435181.281346,-2.141963005065918,-1.333689646129944,-2.526990000401632,6.1112791178520105,1.017926812171936,-2.352048699055807
1708435181.2833848,-2.141921043395996,-1.3337236207774659,-2.5270031134234827,6.111275779991903,1.0179640054702759,-2.352006737385885
1708435181.2853734,-2.141930103302002,-1.3336821359447022,-2.527018133793966,6.111262428551473,1.0179342031478882,-2.3520200888263147
1708435181.2873993,-2.141949415206909,-1.333735541706421,-2.5269911924945276,6.111283528595724,1.0179669857025146,-2.35199481645693
1708435181.2893565,-2.141963005065918,-1.3337386411479493,-2.527055565510885,6.11125801780776,1.0179715156555176,-2.351982657109396
1708435181.2913485,-2.141949415206909,-1.3337325614741822,-2.5270398298846644,6.111274707108297,1.0179550647735596,-2.352048699055807
1708435181.293399,-2.141899824142456,-1.3336689335158844,-2.5270567576037806,6.111274707108297,1.017975926399231,-2.35191256204714
1708435181.29538,-2.1419663429260254,-1.333714784388878,-2.5270074049579065,6.111291038780966,1.0179669857025146,-2.3519871870623987
1708435181.2973726,-2.141963005065918,-1.3336940568736573,-2.526990000401632,6.111217725067892,1.0179342031478882,-2.3520200888263147
1708435181.2993813,-2.141958475112915,-1.333735541706421,-2.5270031134234827,6.1113237021263025,1.0179580450057983,-2.3519859949695032
1708435181.30136,-2.1419708728790283,-1.3336777699044724,-2.52704364458193,6.11125801780776,1.0179431438446045,-2.3519871870623987
1708435181.3033984,-2.141975164413452,-1.3336777252009888,-2.5270567576037806,6.111270296364584,1.0179640054702759,-2.351928774510519
1708435181.3053656,-2.141921043395996,-1.3337606203607102,-2.5270355383502405,6.111283528595724,1.0179550647735596,-2.351961914693014
1708435181.307386,-2.141941547393799,-1.3336777550033112,-2.5269609133349817,6.111262428551473,1.0179177522659302,-2.3519917170154017
1708435181.309381,-2.141967535018921,-1.333763764505722,-2.5270031134234827,6.111328112870016,1.0179715156555176,-2.3519633452044886
1708435181.311358,-2.141921043395996,-1.333714799290039,-2.5270357767688196,6.111283528595724,1.017975926399231,-2.3519392649279993
1708435181.3133945,-2.141925573348999,-1.333689646129944,-2.5270116964923304,6.111299860268392,1.0179431438446045,-2.351948324834005
1708435181.3153691,-2.141908645629883,-1.3337355566075821,-2.5270031134234827,6.111261355667867,1.0179431438446045,-2.3519557158099573
1708435181.3173716,-2.141921043395996,-1.3337147694877167,-2.527043883000509,6.111344444542684,1.017926812171936,-2.3519602457629603
1708435181.3193655,-2.141986608505249,-1.3337311011603852,-2.527018133793966,6.111310469895162,1.0179096460342407,-2.351936165486471
1708435181.3213925,-2.141930103302002,-1.333697111611702,-2.5270729700671595,6.111340033798971,1.0179431438446045,-2.3519392649279993
1708435181.3233905,-2.1419718265533447,-1.3337386411479493,-2.526994530354635,6.111270296364584,1.0179188251495361,-2.3519228140460413
1708435181.3254192,-2.1419451236724854,-1.3336852502873917,-2.5270031134234827,6.11129246929244,1.0179522037506104,-2.3518899122821253
1708435181.3273993,-2.141963005065918,-1.3337311160615464,-2.5270355383502405,6.111340033798971,1.0179312229156494,-2.3518899122821253
1708435181.3293757,-2.141986608505249,-1.3337354970029374,-2.5269749800311487,6.111237275391378,1.0179567337036133,-2.351952616368429
1708435181.3314054,-2.141963005065918,-1.3336777550033112,-2.5269737879382532,6.111274707108297,1.0179402828216553,-2.35187799135317
1708435181.3334014,-2.141930103302002,-1.3336689633182068,-2.526978079472677,6.111311781197347,1.017874002456665,-2.351861302052633
1708435181.3354015,-2.141908645629883,-1.3336644780686875,-2.526953999196188,6.111298548966207,1.0179640054702759,-2.3518913427936
1708435181.3373842,-2.141908645629883,-1.3337311160615464,-2.5269954840289515,6.111274707108297,1.0179387331008911,-2.3518913427936
1708435181.3393652,-2.141880512237549,-1.3337311160615464,-2.5270355383502405,6.11123417594985,1.017922282218933,-2.3519273439990442
1708435181.3413603,-2.141937017440796,-1.3337430369905015,-2.526986900960104,6.111311781197347,1.0179266929626465,-2.3518791834460657
1708435181.343389,-2.141975164413452,-1.3336896759322663,-2.526986900960104,6.111266839295187,1.0179387331008911,-2.351849381123678
1708435181.3453503,-2.141941547393799,-1.333710403447487,-2.5270074049579065,6.111288058548727,1.0178933143615723,-2.351912323628561
1708435181.3474257,-2.141975164413452,-1.33377160251651,-2.5269911924945276,6.11126588562087,1.0179686546325684,-2.3518970648394983
1708435181.349353,-2.1419460773468018,-1.3337474179318924,-2.526978079472677,6.111326801567831,1.0179402828216553,-2.3518298308001917
1708435181.351373,-2.141928195953369,-1.333702878361084,-2.5270000139819544,6.111274707108297,1.0179640054702759,-2.3518553415881556
1708435181.353393,-2.141953945159912,-1.3337804091027756,-2.526986900960104,6.111332523613729,1.0178978443145752,-2.3518627325641077
1708435181.3553526,-2.1419131755828857,-1.333734245305397,-2.5270116964923304,6.111228453903951,1.0179567337036133,-2.3518627325641077
1708435181.357366,-2.141967535018921,-1.333747462635376,-2.5269749800311487,6.111266839295187,1.017906904220581,-2.3518343607531946
1708435181.359363,-2.1419460773468018,-1.3337060076049347,-2.5270074049579065,6.111266839295187,1.0179431438446045,-2.3518553415881556
1708435181.361352,-2.141949415206909,-1.3336984825185318,-2.5270357767688196,6.111286628037252,1.0178697109222412,-2.3518553415881556
1708435181.363495,-2.1419506072998047,-1.3337474328330536,-2.526986900960104,6.111328112870016,1.0178741216659546,-2.3518431822406214
1708435181.365866,-2.141937017440796,-1.333710403447487,-2.5270031134234827,6.111270296364584,1.0179404020309448,-2.3518267313586634
1708435181.3676019,-2.1419460773468018,-1.3337267202189942,-2.5270000139819544,6.111274707108297,1.0178860425949097,-2.3518672625171106
1708435181.3696125,-2.141958475112915,-1.3337460470250626,-2.5269911924945276,6.111295449524679,1.017911434173584,-2.3518553415881556
1708435181.3718286,-2.141937017440796,-1.3337562394193192,-2.5269835630999964,6.111307370453634,1.0178905725479126,-2.3518477121936243
1708435181.3733773,-2.141979932785034,-1.3337430518916626,-2.5270162264453333,6.111291038780966,1.0178741216659546,-2.3518477121936243
1708435181.37535,-2.141979932785034,-1.3337015968612214,-2.5269749800311487,6.111337053566732,1.0179113149642944,-2.3518343607531946
1708435181.3773642,-2.141925573348999,-1.3336777550033112,-2.5269749800311487,6.111274707108297,1.017853021621704,-2.3518148104297083
1708435181.3793418,-2.141949415206909,-1.3337399524501343,-2.5269911924945276,6.111307370453634,1.0178786516189575,-2.3518508116351526
1708435181.3813512,-2.141958475112915,-1.3337280017188569,-2.526970450078146,6.111311781197347,1.017911434173584,-2.3518148104297083
1708435181.3833745,-2.141934633255005,-1.333702878361084,-2.5269749800311487,6.1113237021263025,1.0178618431091309,-2.3518193403827112
1708435181.385356,-2.141949415206909,-1.333690957432129,-2.526961867009298,6.11126588562087,1.0179158449172974,-2.3518193403827112
1708435181.3873603,-2.1419177055358887,-1.3337804836085816,-2.5270162264453333,6.111291038780966,1.0178905725479126,-2.351877514516012
1708435181.3893473,-2.141916513442993,-1.333759383564331,-2.527039353047506,6.111332642823019,1.0178920030593872,-2.3518553415881556
1708435181.391348,-2.141953945159912,-1.3337311309627076,-2.5270355383502405,6.111304390221395,1.017883062362671,-2.351840082799093
1708435181.3933558,-2.141953945159912,-1.3338055175593873,-2.526970450078146,6.1112791178520105,1.01787531375885,-2.3518431822406214
1708435181.3953662,-2.141949415206909,-1.333739922647812,-2.5269749800311487,6.111241566925802,1.0178663730621338,-2.3518312613116663
1708435181.3973684,-2.141953945159912,-1.333702878361084,-2.5269835630999964,6.111314880638876,1.0178709030151367,-2.351802651082174
1708435181.399358,-2.1419460773468018,-1.3337267202189942,-2.526937786732809,6.1112791178520105,1.0178709030151367,-2.351844612752096
1708435181.401405,-2.1419460773468018,-1.3337267202189942,-2.526986900960104,6.1112791178520105,1.0178589820861816,-2.3518193403827112
1708435181.4034283,-2.1419708728790283,-1.3337134283832093,-2.526921335850851,6.111316191941061,1.0178169012069702,-2.351807181035177
1708435181.4053621,-2.141953945159912,-1.333685280089714,-2.5269671122180384,6.111291038780966,1.017884373664856,-2.3517983595477503
1708435181.4073913,-2.1419460773468018,-1.333702878361084,-2.5270116964923304,6.111328112870016,1.0178589820861816,-2.351816002522604
1708435181.4094114,-2.141958475112915,-1.3336821806481858,-2.5269911924945276,6.111340033798971,1.0178635120391846,-2.351823870335714
1708435181.4113786,-2.141963005065918,-1.333702878361084,-2.5269792715655726,6.111335623055258,1.0178468227386475,-2.351856533681051
1708435181.4133742,-2.141958475112915,-1.3336644780686875,-2.5270162264453333,6.111316191941061,1.0178468227386475,-2.351790730153219
1708435181.4153943,-2.141941547393799,-1.333734245305397,-2.5269792715655726,6.111316191941061,1.0178709030151367,-2.351828161870138
1708435181.4173791,-2.141932725906372,-1.333734245305397,-2.5269582907306116,6.111302959709921,1.0178635120391846,-2.351802651082174
1708435181.4193761,-2.141953945159912,-1.333734245305397,-2.5269749800311487,6.111262428551473,1.0178136825561523,-2.351807181035177
1708435181.4214206,-2.141967535018921,-1.3337191951325913,-2.5269835630999964,6.111255037575521,1.0178512334823608,-2.351840082799093
1708435181.4234397,-2.141953945159912,-1.333702878361084,-2.5270116964923304,6.111307370453634,1.017825961112976,-2.351807181035177
1708435181.4254625,-2.1419460773468018,-1.3337179285338898,-2.5269954840289515,6.111253607064047,1.01787531375885,-2.351807181035177
1708435181.4274251,-2.141937017440796,-1.333710403447487,-2.5269954840289515,6.1113295433814905,1.0178680419921875,-2.3517447153674524
1708435181.4294229,-2.141979932785034,-1.333709032540657,-2.5269911924945276,6.11129246929244,1.0178635120391846,-2.35184890428652
1708435181.431444,-2.141953945159912,-1.3337311309627076,-2.5269792715655726,6.111316191941061,1.0178091526031494,-2.351860825215475
1708435181.4334002,-2.141963005065918,-1.3336940568736573,-2.5269582907306116,6.111311781197347,1.0177899599075317,-2.3517938295947474
1708435181.4354045,-2.141963005065918,-1.333702878361084,-2.5270000139819544,6.111295449524679,1.0178349018096924,-2.351828161870138
1708435181.4373767,-2.141986608505249,-1.3337235909751435,-2.5269749800311487,6.111232983856954,1.0178558826446533,-2.351823870335714
