Eg3-git/Classifiers/Data Collection/u2/u2www5_ur3e_joint_states.csv
time,elbow_joint,shoulder_lift_joint,shoulder_pan_joint,wrist_1_joint,wrist_2_joint,wrist_3_joint
1708435228.9255111,-2.1412198543548584,-1.3333201867393036,-2.5267766157733362,6.108959066658773,1.0175268650054932,-2.9487302939044397
1708435228.9275393,-2.141190528869629,-1.3332800281098862,-2.5267346541034144,6.108970987587728,1.0175056457519531,-2.948742214833395
1708435228.9295464,-2.141179323196411,-1.3333738458207627,-2.5267227331744593,6.108979809075155,1.0174651145935059,-2.9487796465503138
1708435228.9315066,-2.141162395477295,-1.333308072095253,-2.5267558733569544,6.108926522522726,1.0175223350524902,-2.948737923298971
1708435228.9335165,-2.1412198543548584,-1.3332667213729401,-2.5267513434039515,6.108959066658773,1.0175056457519531,-2.948677364979879
1708435228.935498,-2.1412289142608643,-1.333283082847931,-2.5267677942859095,6.1089340327079675,1.0175191164016724,-2.948771063481466
1708435228.9375267,-2.1412198543548584,-1.3333247315934678,-2.5267604033099573,6.108966576844015,1.0175433158874512,-2.9487465063678187
1708435228.939545,-2.141237735748291,-1.3332756620696564,-2.5267227331744593,6.109003531723776,1.0175145864486694,-2.948737923298971
1708435228.94156,-2.141188144683838,-1.3332919937423249,-2.5267513434039515,6.109003531723776,1.017531394958496,-2.948742214833395
1708435228.9435506,-2.1411702632904053,-1.3333080422929307,-2.5267558733569544,6.108947145729818,1.0175433158874512,-2.948791567479269
1708435228.9455214,-2.1412198543548584,-1.3332697463086625,-2.5267558733569544,6.108947145729818,1.0175268650054932,-2.9487670103656214
1708435228.9475782,-2.141240119934082,-1.333312378530838,-2.52674371400942,6.108972179680624,1.0175179243087769,-2.9487584272967737
1708435228.9495354,-2.141145706176758,-1.3332947057536622,-2.526748243962423,6.108979809075155,1.0175433158874512,-2.948733393345968
1708435228.9515269,-2.141166925430298,-1.3333484840444108,-2.526748243962423,6.108991610794821,1.0175433158874512,-2.948726002370016
1708435228.9535315,-2.1412694454193115,-1.333308072095253,-2.526727263127462,6.108947145729818,1.0174893140792847,-2.948787275944845
1708435228.9555037,-2.1412198543548584,-1.3333008003285904,-2.526727263127462,6.108954775124349,1.0175145864486694,-2.948709789906637
1708435228.957534,-2.141166925430298,-1.3332920235446473,-2.5267723242389124,6.108960377960958,1.0175056457519531,-2.9487670103656214
1708435228.9595068,-2.1412289142608643,-1.3333247315934678,-2.5267301241504114,6.108913290291586,1.0175056457519531,-2.9487507979022425
1708435228.961498,-2.1412580013275146,-1.3333202314427872,-2.5267391840564173,6.108984100609579,1.0175342559814453,-2.9487627188311976
1708435228.9635048,-2.1412198543548584,-1.3333080273917695,-2.526727263127462,6.108963477402487,1.017531394958496,-2.948721710835592
1708435228.9655027,-2.1412155628204346,-1.3333290380290528,-2.526727263127462,6.10899173000411,1.017531394958496,-2.9487584272967737
1708435228.9675035,-2.1412153244018555,-1.3332920235446473,-2.5267558733569544,6.108979809075155,1.0175056457519531,-2.94877535501589
1708435228.9695354,-2.1412241458892822,-1.3332946610501786,-2.526710573826925,6.108972179680624,1.017531394958496,-2.948726002370016
1708435228.9715023,-2.1412153244018555,-1.3333080571940918,-2.5267558733569544,6.108955967217245,1.0174891948699951,-2.948742214833395
1708435228.9735148,-2.141195297241211,-1.3333321672729035,-2.5266643206225794,6.108942854195394,1.017540454864502,-2.9487128893481653
1708435228.9755104,-2.1412065029144287,-1.3332990568927308,-2.5267766157733362,6.108984219818868,1.017510175704956,-2.9487577120410364
1708435228.9774954,-2.141162633895874,-1.333292008643486,-2.5267301241504114,6.10895465591506,1.0175056457519531,-2.948742214833395
1708435228.979503,-2.141249179840088,-1.3333574098399659,-2.5267558733569544,6.108947145729818,1.017493724822998,-2.948714081441061
1708435228.981489,-2.1412580013275146,-1.3332623851350327,-2.5267558733569544,6.1089186547096155,1.0175145864486694,-2.9487021605121058
1708435228.9835274,-2.141174793243408,-1.3332902503064652,-2.526727263127462,6.108935224800863,1.0175223350524902,-2.9487507979022425
1708435228.9854994,-2.141237735748291,-1.3333247017911454,-2.526715103779928,6.108976709633627,1.0175387859344482,-2.948737923298971
1708435228.9875076,-2.141235828399658,-1.3333124083331604,-2.5267649332629603,6.108984219818868,1.0175433158874512,-2.948742214833395
1708435228.989507,-2.1411757469177246,-1.3332622808269043,-2.526719633732931,6.108970987587728,1.0175056457519531,-2.9487183729754847
1708435228.9915001,-2.141195297241211,-1.333324746494629,-2.526736323033468,6.108930933266439,1.0175223350524902,-2.948714081441061
1708435228.9935424,-2.141202211380005,-1.3333321672729035,-2.52669865289797,6.108963477402487,1.0175223350524902,-2.9487465063678187
1708435228.995534,-2.1412041187286377,-1.3332991015962143,-2.526710573826925,6.109008061676779,1.0175387859344482,-2.9487627188311976
1708435228.9975429,-2.141179323196411,-1.3333290678313752,-2.526710573826925,6.108935224800863,1.017498254776001,-2.9487507979022425
1708435228.9995053,-2.1412038803100586,-1.3333410334638138,-2.526715103779928,6.109029996186056,1.0174773931503296,-2.948697868977682
1708435229.0015194,-2.141166925430298,-1.3333379489234467,-2.5266853014575403,6.109012353211202,1.0175433158874512,-2.948742214833395
1708435229.0035756,-2.141162633895874,-1.333312378530838,-2.526710573826925,6.109000432282247,1.0174893140792847,-2.9487183729754847
1708435229.005506,-2.141233444213867,-1.3332920533469697,-2.5267604033099573,6.108972179680624,1.017510175704956,-2.9487226645099085
1708435229.00755,-2.1412038803100586,-1.3333123934319993,-2.526727263127462,6.108975398331442,1.0175145864486694,-2.9487345854388636
1708435229.009526,-2.141195297241211,-1.3333035123399277,-2.526706043873922,6.108947145729818,1.0174938440322876,-2.948737923298971
1708435229.011512,-2.141174793243408,-1.333266706471779,-2.5267227331744593,6.109033095627584,1.0175386667251587,-2.9487388769732874
1708435229.0134966,-2.1411924362182617,-1.3333202314427872,-2.526719633732931,6.108976709633627,1.0175191164016724,-2.9487584272967737
1708435229.015549,-2.141195297241211,-1.333316833978035,-2.52674371400942,6.108972298889913,1.0175342559814453,-2.9487670103656214
1708435229.0175223,-2.141183853149414,-1.3333410781672974,-2.526748243962423,6.108938443451681,1.0174847841262817,-2.9487021605121058
1708435229.0195398,-2.141183853149414,-1.3332831275514145,-2.526736323033468,6.108963477402487,1.0175433158874512,-2.948726002370016
1708435229.0215364,-2.1411802768707275,-1.3332844239524384,-2.526731793080465,6.109000432282247,1.017498254776001,-2.948721710835592
1708435229.0235128,-2.141183853149414,-1.3332831126502533,-2.5267182032214563,6.108975398331442,1.0175386667251587,-2.9487584272967737
1708435229.0255296,-2.1412038803100586,-1.3333008003285904,-2.526719633732931,6.108972298889913,1.0175056457519531,-2.948714081441061
1708435229.0275145,-2.141228675842285,-1.3332919788411637,-2.5267649332629603,6.1089678881462,1.0174847841262817,-2.9487183729754847
1708435229.0295491,-2.141183853149414,-1.3332756769708176,-2.52669865289797,6.109000432282247,1.0174847841262817,-2.9487670103656214
1708435229.0315385,-2.141190528869629,-1.3332667213729401,-2.526728693638937,6.108963477402487,1.0175386667251587,-2.9487302939044397
1708435229.0335028,-2.1411995887756348,-1.3333334785750885,-2.52669865289797,6.108950364380636,1.0175056457519531,-2.9487507979022425
1708435229.035512,-2.141162633895874,-1.333324746494629,-2.526689592991964,6.108939635544576,1.0174847841262817,-2.948737923298971
1708435229.0375075,-2.141237735748291,-1.3332711917212983,-2.526727263127462,6.108897912293234,1.0175268650054932,-2.9487839380847376
1708435229.0395162,-2.1412198543548584,-1.3332963746837159,-2.526715103779928,6.108893739968099,1.0175145864486694,-2.9487584272967737
1708435229.0415123,-2.1412289142608643,-1.3332844537547608,-2.526694122944967,6.108970987587728,1.0174891948699951,-2.9487465063678187
1708435229.0435438,-2.141253709793091,-1.3333247315934678,-2.526715103779928,6.108984219818868,1.017510175704956,-2.9487622419940394
1708435229.0455158,-2.141179323196411,-1.3333123934319993,-2.526719633732931,6.1089666960533044,1.017498254776001,-2.9487507979022425
1708435229.0475395,-2.1411995887756348,-1.3333410930684586,-2.526727263127462,6.108930933266439,1.0175433158874512,-2.948697868977682
1708435229.0495534,-2.1412241458892822,-1.3333247315934678,-2.526686731969015,6.1089678881462,1.0175223350524902,-2.948705498372213
1708435229.051541,-2.141183853149414,-1.33330354214225,-2.526682202016012,6.108975398331442,1.0175145864486694,-2.9487345854388636
1708435229.0535524,-2.1412065029144287,-1.3332667213729401,-2.526724163685934,6.108959066658773,1.0175312757492065,-2.948726002370016
1708435229.055517,-2.1411924362182617,-1.3333454740098496,-2.526703182850973,6.108930933266439,1.0175433158874512,-2.9487302939044397
1708435229.0575554,-2.1412110328674316,-1.3332680624774476,-2.526724163685934,6.108972179680624,1.0175641775131226,-2.948705498372213
1708435229.0595193,-2.1412127017974854,-1.3333080422929307,-2.526682202016012,6.108948457032003,1.0175403356552124,-2.9487345854388636
1708435229.0615072,-2.141242265701294,-1.3333334636739274,-2.526686731969015,6.108984219818868,1.0175223350524902,-2.94877535501589
1708435229.0635128,-2.141141176223755,-1.333303527241089,-2.5267706553088587,6.1089678881462,1.0175386667251587,-2.9487507979022425
1708435229.0655003,-2.141145706176758,-1.3332920235446473,-2.526761833821432,6.108950364380636,1.0174938440322876,-2.9487465063678187
1708435229.0675519,-2.1412198543548584,-1.3333008003285904,-2.52667481104006,6.1089186547096155,1.0175342559814453,-2.9487465063678187
1708435229.0695264,-2.1411995887756348,-1.3332844537547608,-2.526695791875021,6.108959066658773,1.017513394355774,-2.9487839380847376
1708435229.07152,-2.1411924362182617,-1.3332888197949906,-2.5266507307635706,6.108959066658773,1.0175179243087769,-2.9486730734454554
1708435229.073518,-2.141166925430298,-1.3332920384458085,-2.5266581217395228,6.108942854195394,1.0175223350524902,-2.948693577443258
1708435229.0755086,-2.1412110328674316,-1.3333080273917695,-2.5266717115985315,6.10893081405715,1.0175268650054932,-2.9487302939044397
1708435229.0775325,-2.1412198543548584,-1.33330354214225,-2.5266717115985315,6.108963477402487,1.017510175704956,-2.948737923298971
1708435229.079542,-2.141228675842285,-1.3333212298205872,-2.526641909276144,6.10899173000411,1.0175431966781616,-2.94875938097109
1708435229.0815248,-2.1412084102630615,-1.3333008003285904,-2.5266688505755823,6.108947145729818,1.017531394958496,-2.948709789906637
1708435229.08353,-2.1412110328674316,-1.3332800281098862,-2.5266838709460657,6.108996021538534,1.017493724822998,-2.948742214833395
1708435229.0855253,-2.141162633895874,-1.3332990568927308,-2.5266056696521204,6.108942854195394,1.017498254776001,-2.9487183729754847
1708435229.087596,-2.1411545276641846,-1.3332756918719788,-2.5266476313220423,6.108984100609579,1.0175223350524902,-2.948726002370016
1708435229.0895224,-2.141179323196411,-1.3332875084928055,-2.5266311804400843,6.108996021538534,1.0175433158874512,-2.9487670103656214
1708435229.091509,-2.1412110328674316,-1.3333035570434113,-2.5265730063067835,6.108979809075155,1.0175386667251587,-2.9487715403186243
1708435229.0935166,-2.1411924362182617,-1.3332920533469697,-2.5265982786761683,6.108979809075155,1.0175056457519531,-2.9487269560443323
1708435229.0955198,-2.1412065029144287,-1.3333247315934678,-2.526595417653219,6.10899173000411,1.0174847841262817,-2.948709789906637
1708435229.097524,-2.1412110328674316,-1.333292008643486,-2.526623789464132,6.108926522522726,1.0174938440322876,-2.948681656514303
1708435229.099514,-2.141195297241211,-1.3332785975984116,-2.526628319417135,6.108979809075155,1.0175056457519531,-2.9487021605121058
1708435229.1015074,-2.141190767288208,-1.333316833978035,-2.5265665690051478,6.108954775124349,1.0175223350524902,-2.948709789906637
1708435229.1035256,-2.1412649154663086,-1.333303527241089,-2.526607338582174,6.108942854195394,1.0175433158874512,-2.948709789906637
1708435229.105513,-2.141162633895874,-1.3333454740098496,-2.526590887700216,6.108954775124349,1.0174891948699951,-2.9487507979022425
1708435229.1075087,-2.1412153244018555,-1.3332725030234833,-2.526578728352682,6.108926522522726,1.0174684524536133,-2.9487345854388636
1708435229.109505,-2.141242265701294,-1.3332963448813935,-2.5265665690051478,6.108947145729818,1.0175223350524902,-2.9487226645099085
1708435229.1114998,-2.141157865524292,-1.333308072095253,-2.526611868535177,6.108914243965902,1.0175179243087769,-2.9487465063678187
1708435229.113532,-2.1412198543548584,-1.3333247613957901,-2.526569668446676,6.108983027725973,1.0175433158874512,-2.9487507979022425
1708435229.1155136,-2.141183853149414,-1.3333498251489182,-2.52664024034609,6.108929621964254,1.0175223350524902,-2.948697868977682
1708435229.1175332,-2.141195058822632,-1.3333529245904465,-2.526590887700216,6.108963477402487,1.0174728631973267,-2.9486783186541956
1708435229.119515,-2.1412012577056885,-1.3333574545434494,-2.5266147295581263,6.108975398331442,1.0175268650054932,-2.9487269560443323
1708435229.1215014,-2.141249179840088,-1.3333080422929307,-2.526607338582174,6.108987319260397,1.0175145864486694,-2.9486945311175745
1708435229.1235304,-2.1412198543548584,-1.3333290976336976,-2.526607338582174,6.108975398331442,1.0175268650054932,-2.948669735585348
1708435229.125504,-2.1412198543548584,-1.3333168786815186,-2.5266101996051233,6.108959066658773,1.0175026655197144,-2.9486663977252405
1708435229.1275134,-2.1411633491516113,-1.3333202016404648,-2.52661639848818,6.108959066658773,1.017481803894043,-2.9486663977252405
1708435229.1295245,-2.1412198543548584,-1.3333825033954163,-2.526635710393087,6.10899173000411,1.017481803894043,-2.948691431676046
1708435229.1315253,-2.141190528869629,-1.3332875680974503,-2.5266147295581263,6.108959066658773,1.0174938440322876,-2.9486663977252405
1708435229.1335137,-2.1412155628204346,-1.3333168190768738,-2.52664024034609,6.10894142368392,1.017531394958496,-2.948691431676046
1708435229.1355152,-2.141195297241211,-1.3333618205836792,-2.526635710393087,6.108947145729818,1.0174728631973267,-2.9486826101886194
1708435229.1375308,-2.141145706176758,-1.3332844835570832,-2.52664024034609,6.1089340327079675,1.0174891948699951,-2.9486494700061243
1708435229.1395223,-2.1412084102630615,-1.3333290678313752,-2.526644770299093,6.108996021538534,1.0175237655639648,-2.9486945311175745
1708435229.1415226,-2.141174793243408,-1.3332426112941285,-2.526578728352682,6.108966576844015,1.0174819231033325,-2.9486826101886194
1708435229.143526,-2.1412065029144287,-1.3332830977490921,-2.526623789464132,6.108982908516683,1.0175145864486694,-2.94869572321047
1708435229.1455104,-2.141242027282715,-1.333300770526268,-2.526635710393087,6.109011161118307,1.0174938440322876,-2.948679510747091
1708435229.147516,-2.141186237335205,-1.333315761094429,-2.5266266504870813,6.108999240189352,1.017493724822998,-2.948618237172262
1708435229.149549,-2.1412198543548584,-1.3333617460778733,-2.526611868535177,6.1089666960533044,1.0175477266311646,-2.948646370564596
1708435229.1514926,-2.1412065029144287,-1.3333302301219483,-2.5266147295581263,6.108999240189352,1.017510175704956,-2.948613945637838
1708435229.153511,-2.1412153244018555,-1.3333290976336976,-2.526602808629171,6.1090277312095544,1.017493724822998,-2.9486258665667933
1708435229.1555312,-2.141183614730835,-1.333341048364975,-2.526619259511129,6.108999240189352,1.0175145864486694,-2.9486592451678675
1708435229.1575053,-2.1412110328674316,-1.3332963746837159,-2.526623789464132,6.108950364380636,1.0174651145935059,-2.9486387411700647
1708435229.1595266,-2.1412155628204346,-1.333284468655922,-2.526602808629171,6.108974087029257,1.017486333847046,-2.9486711660968226
1708435229.161508,-2.1412038803100586,-1.333254874949791,-2.526590887700216,6.109006631165304,1.0174938440322876,-2.9485815207110804
1708435229.1635249,-2.1412200927734375,-1.3333365780166169,-2.5266476313220423,6.108999240189352,1.0174819231033325,-2.9486549536334437
1708435229.1655085,-2.141179323196411,-1.3332963746837159,-2.526652161275045,6.109027850418844,1.0175163745880127,-2.9486051241504114
1708435229.1675136,-2.1412200927734375,-1.3333008301309128,-2.526602808629171,6.109028684883871,1.0174651145935059,-2.9486387411700647
1708435229.169497,-2.1412084102630615,-1.3333453995040436,-2.5266101996051233,6.108974087029257,1.0174651145935059,-2.9486258665667933
1708435229.1715,-2.141179323196411,-1.3332800281098862,-2.526599947606222,6.109044062882223,1.0175145864486694,-2.948630158101217
1708435229.1734993,-2.141244888305664,-1.3332830381444474,-2.526548449193136,6.109019982605734,1.017498254776001,-2.948618237172262
1708435229.175502,-2.1412289142608643,-1.3333290827325364,-2.526628319417135,6.109040844231405,1.0175073146820068,-2.9485724608050745
1708435229.1774967,-2.141240358352661,-1.3332963746837159,-2.526583258305685,6.109011161118307,1.0174938440322876,-2.9486096541034144
1708435229.1794984,-2.141195297241211,-1.3333290678313752,-2.52664024034609,6.109003650933065,1.017498254776001,-2.948602024708883
1708435229.1814952,-2.141190767288208,-1.3332874935916443,-2.526590887700216,6.109019028931417,1.0174908638000488,-2.948642079030172
1708435229.1834953,-2.1412110328674316,-1.3333498251489182,-2.526620928441183,6.1090396521385095,1.017498254776001,-2.9486375490771692
1708435229.1854908,-2.141235828399658,-1.3333124232343216,-2.526620928441183,6.109030830651083,1.0175073146820068,-2.9486473242389124
1708435229.187511,-2.1412243843078613,-1.3333247315934678,-2.526586357747213,6.109042751580038,1.0174696445465088,-2.948618237172262
1708435229.1895192,-2.1412243843078613,-1.333283082847931,-2.526632849370138,6.109059083252706,1.0175026655197144,-2.948590103779928
1708435229.191503,-2.141240119934082,-1.3333113503507157,-2.526604477559225,6.109088885575094,1.0174787044525146,-2.9486430327044886
1708435229.1935174,-2.141190528869629,-1.333324746494629,-2.526635710393087,6.109091985016622,1.0174741744995117,-2.9486430327044886
1708435229.1955514,-2.1412110328674316,-1.3333410185626526,-2.526611868535177,6.10905812957839,1.0175073146820068,-2.948630158101217
1708435229.1975226,-2.141197681427002,-1.3333167743733902,-2.526635710393087,6.109142768173971,1.0174529552459717,-2.948602024708883
1708435229.19951,-2.141272783279419,-1.3333410036614914,-2.526635710393087,6.109122025757589,1.0174365043640137,-2.948602024708883
1708435229.201553,-2.141247272491455,-1.33330354214225,-2.526595417653219,6.109159099846639,1.0174787044525146,-2.9486387411700647
1708435229.2035472,-2.1412065029144287,-1.3333168190768738,-2.526602808629171,6.109171378403463,1.017445683479309,-2.9486592451678675
1708435229.205508,-2.141202211380005,-1.3332668107799073,-2.526635710393087,6.109171378403463,1.0174620151519775,-2.948602024708883
1708435229.207511,-2.1412200927734375,-1.3332920384458085,-2.526644770299093,6.109150159149923,1.017445683479309,-2.9486549536334437
1708435229.209515,-2.141277313232422,-1.3333290976336976,-2.5266311804400843,6.1092039225395105,1.0174427032470703,-2.948585573826925
1708435229.2115061,-2.1412315368652344,-1.333320216541626,-2.5265775362597864,6.10919069030837,1.0173839330673218,-2.948602024708883
1708435229.2135122,-2.141244888305664,-1.3333123934319993,-2.5266147295581263,6.109181868820944,1.017433762550354,-2.948606316243307
1708435229.2155387,-2.141251564025879,-1.3333498251489182,-2.526602808629171,6.109165656357565,1.017466425895691,-2.9485986868487757
1708435229.2175274,-2.1412155628204346,-1.3332593601993104,-2.526619259511129,6.109235155373373,1.0173962116241455,-2.9486473242389124
1708435229.2195368,-2.1412642002105713,-1.3333080422929307,-2.526602808629171,6.109223353653707,1.017421841621399,-2.9486268202411097
1708435229.2215064,-2.1412200927734375,-1.33327570677314,-2.526607338582174,6.10927568653182,1.0174425840377808,-2.9485612551318567
1708435229.223507,-2.1412429809570312,-1.3333247613957901,-2.526607338582174,6.10920129993514,1.017421841621399,-2.948566738759176
1708435229.2255151,-2.141251564025879,-1.3333247613957901,-2.526628319417135,6.109238374024191,1.0174517631530762,-2.948599878941671
1708435229.2275198,-2.1412384510040283,-1.333321214919426,-2.526644770299093,6.109250533371725,1.017401933670044,-2.9485698382007044
1708435229.2295165,-2.141263961791992,-1.333287553196289,-2.526611868535177,6.109255063324728,1.017423152923584,-2.9486029783831995
1708435229.2315192,-2.1412763595581055,-1.3333247315934678,-2.526611868535177,6.109247195511617,1.017380952835083,-2.9485743681537073
1708435229.2335203,-2.1412878036499023,-1.3333498400500794,-2.526587788258688,6.109283196717062,1.017401933670044,-2.9486117998706263
1708435229.2355134,-2.1412429809570312,-1.3332991164973755,-2.526574198399679,6.1092907069023035,1.017418622970581,-2.9485986868487757
1708435229.2375042,-2.1412923336029053,-1.333320216541626,-2.526578728352682,6.1092580435569666,1.017408013343811,-2.9486518541919153
1708435229.2395282,-2.141263246536255,-1.3333498251489182,-2.526619259511129,6.109310376435079,1.017382264137268,-2.948622528706686
1708435229.2415497,-2.1412792205810547,-1.333320216541626,-2.526607338582174,6.109319317131796,1.0173450708389282,-2.9486237207995813
1708435229.2435596,-2.1413285732269287,-1.333299146299698,-2.526578728352682,6.109332430153646,1.0173540115356445,-2.9486075083362024
1708435229.2455559,-2.1413204669952393,-1.3333233159831543,-2.526595417653219,6.109281885414877,1.0173450708389282,-2.9486399332629603
1708435229.2475677,-2.1412878036499023,-1.3332920384458085,-2.526565138493673,6.109326350479879,1.0173823833465576,-2.9485655466662806
1708435229.2495108,-2.1412551403045654,-1.333320216541626,-2.526599947606222,6.1093294499214075,1.0173540115356445,-2.9485867659198206
1708435229.2515154,-2.1412994861602783,-1.3332800281098862,-2.5265772978412073,6.109329569130697,1.017317771911621,-2.948606316243307
1708435229.2535424,-2.141308069229126,-1.3332548451474686,-2.526607338582174,6.10932074764327,1.0173296928405762,-2.9485912958728235
1708435229.2555263,-2.141324281692505,-1.333349884753563,-2.526590887700216,6.109362470894613,1.0173250436782837,-2.9485867659198206
1708435229.2575119,-2.1412746906280518,-1.333320216541626,-2.526583258305685,6.109383213310995,1.0173602104187012,-2.9485912958728235
1708435229.259497,-2.1413204669952393,-1.3332874935916443,-2.526599947606222,6.109325158386984,1.0173250436782837,-2.948578182850973
1708435229.2615073,-2.1413073539733887,-1.3333440285972138,-2.526548449193136,6.109374391823568,1.017346739768982,-2.9485419432269495
1708435229.2635074,-2.1413073539733887,-1.3333691966584702,-2.526562039052145,6.109369981079855,1.0173430442810059,-2.9486191908465784
1708435229.2654915,-2.1413331031799316,-1.3333335232785721,-2.526611868535177,6.10939513423995,1.0173087120056152,-2.948582474385397
1708435229.2675023,-2.1413028240203857,-1.3333168637803574,-2.526602808629171,6.109407293587484,1.0173087120056152,-2.9485743681537073
1708435229.2695155,-2.1412861347198486,-1.3333410781672974,-2.526607338582174,6.109325158386984,1.0172637701034546,-2.948594395314352
1708435229.2715023,-2.1413354873657227,-1.33330354214225,-2.5265710989581507,6.109333026200094,1.017334222793579,-2.9485867659198206
1708435229.2735114,-2.141265630722046,-1.3333440583995362,-2.526609007512228,6.109405982285299,1.017317771911621,-2.948594395314352
1708435229.2755306,-2.141373872756958,-1.3333035868457337,-2.526587788258688,6.109385239868917,1.0173313617706299,-2.948594395314352
1708435229.277513,-2.141324281692505,-1.333332137470581,-2.52661639848818,6.1094223139579675,1.0172804594039917,-2.9485331217395228
1708435229.27952,-2.1412816047668457,-1.3332947057536622,-2.5266147295581263,6.1094432947929285,1.0173512697219849,-2.9485698382007044
1708435229.28153,-2.141339063644409,-1.33330354214225,-2.526565138493673,6.10936866977767,1.0172804594039917,-2.9485698382007044
1708435229.2835438,-2.1413357257843018,-1.33330354214225,-2.5265710989581507,6.109446036606588,1.0172938108444214,-2.9486237207995813
1708435229.2855241,-2.141364812850952,-1.3333290678313752,-2.526620928441183,6.109421360283651,1.017317771911621,-2.948594395314352
1708435229.2875063,-2.141356945037842,-1.3333440583995362,-2.5265756289111536,6.109491097718038,1.0172772407531738,-2.9485331217395228
1708435229.2894952,-2.141369104385376,-1.3333453995040436,-2.526557509099142,6.109471189766683,1.0172861814498901,-2.9485867659198206
1708435229.291493,-2.141373872756958,-1.3333290678313752,-2.5265665690051478,6.109409081726827,1.0172817707061768,-2.9486029783831995
1708435229.2935095,-2.141380548477173,-1.3332947057536622,-2.526574198399679,6.109482157021322,1.017251968383789,-2.9485624472247522
1708435229.2954988,-2.141376256942749,-1.3332831126502533,-2.526607338582174,6.1094610569770715,1.0171945095062256,-2.948556963597433
1708435229.2975187,-2.141376256942749,-1.3332756918719788,-2.526620928441183,6.109469997673788,1.0172486305236816,-2.9485743681537073
1708435229.2995028,-2.1413674354553223,-1.3332800281098862,-2.526604477559225,6.109508979111471,1.0172486305236816,-2.9485624472247522
1708435229.3015375,-2.1413393020629883,-1.3332831126502533,-2.5265710989581507,6.1094655869300745,1.0172367095947266,-2.948606316243307
1708435229.3035462,-2.1413180828094482,-1.333332137470581,-2.526583258305685,6.109555232315817,1.0172277688980103,-2.9485743681537073
1708435229.3055003,-2.141360282897949,-1.3332920384458085,-2.526545588170187,6.109522211342611,1.0172367095947266,-2.9486029783831995
1708435229.307522,-2.141322374343872,-1.3333365631154557,-2.526611868535177,6.109534489899435,1.0172368288040161,-2.948556963597433
1708435229.3094943,-2.1413347721099854,-1.3333453995040436,-2.5265710989581507,6.109460103302755,1.017241358757019,-2.9485867659198206
1708435229.311501,-2.1413674354553223,-1.3333080571940918,-2.5265982786761683,6.109489667206564,1.0172622203826904,-2.9485581556903284
1708435229.3135152,-2.1413631439208984,-1.3332831126502533,-2.5265710989581507,6.109534489899435,1.0172200202941895,-2.948566738759176
1708435229.3155274,-2.1413674354553223,-1.3333978366902848,-2.526574198399679,6.10948525646285,1.0172576904296875,-2.9485419432269495
1708435229.31754,-2.141387701034546,-1.3333484840444108,-2.526583258305685,6.10954641082839,1.0172336101531982,-2.9486075083362024
1708435229.3195198,-2.1414082050323486,-1.3332831126502533,-2.5265801588641565,6.109534489899435,1.0172457695007324,-2.948582474385397
1708435229.321534,-2.141383171081543,-1.3333814901164551,-2.5265846888171595,6.109550821572103,1.0172336101531982,-2.9485912958728235
1708435229.3235445,-2.1414082050323486,-1.3333365631154557,-2.526609007512228,6.109543311386862,1.0172290802001953,-2.9485743681537073
1708435229.3254943,-2.1414215564727783,-1.3333574098399659,-2.5265756289111536,6.109547722130575,1.0171796083450317,-2.9485419432269495
1708435229.3275225,-2.141400098800659,-1.3333379042199631,-2.526512686406271,6.1095266220863245,1.0172290802001953,-2.9485536257373255
1708435229.3295069,-2.141400098800659,-1.3333484840444108,-2.526583258305685,6.10956238487319,1.0172457695007324,-2.9485955874072474
1708435229.3315141,-2.1414151191711426,-1.3333276969245453,-2.526529137288229,6.109488355904379,1.0172711610794067,-2.9485374132739466
1708435229.3335187,-2.1413867473602295,-1.333320216541626,-2.5265710989581507,6.109491455345907,1.0172380208969116,-2.948516909276144
1708435229.3355403,-2.1413958072662354,-1.3333604049733658,-2.526587788258688,6.1095420000846765,1.0172126293182373,-2.9485698382007044
1708435229.3375192,-2.1414363384246826,-1.3333498251489182,-2.5265591780291956,6.109504687577047,1.0172008275985718,-2.948578659688131
1708435229.3395,-2.141399383544922,-1.3333692711642762,-2.5266013781176966,6.109583008080282,1.0172172784805298,-2.9485912958728235
1708435229.3415346,-2.1413824558258057,-1.3333484840444108,-2.526562039052145,6.109561192780294,1.0172381401062012,-2.9485867659198206
1708435229.343548,-2.141394853591919,-1.3333157908967515,-2.5265591780291956,6.109549271851339,1.0172053575515747,-2.94861609140505
1708435229.3455257,-2.1414239406585693,-1.3333574098399659,-2.5265710989581507,6.109549271851339,1.0171961784362793,-2.9485624472247522
1708435229.3475814,-2.141427516937256,-1.333320216541626,-2.526620928441183,6.109565603524008,1.017188549041748,-2.9485912958728235
1708435229.3495002,-2.1414194107055664,-1.3333212298205872,-2.5265591780291956,6.109595286637106,1.017230749130249,-2.9485955874072474
1708435229.3515384,-2.1414318084716797,-1.3333396327546616,-2.526562039052145,6.109565603524008,1.0172396898269653,-2.9486117998706263
1708435229.3535361,-2.141448736190796,-1.3332991164973755,-2.5265665690051478,6.109556782036581,1.017197608947754,-2.9485212008105677
1708435229.3555374,-2.141439914703369,-1.3333277118257065,-2.5265172163592737,6.109536039620199,1.0171812772750854,-2.9485743681537073
1708435229.3575137,-2.141406297683716,-1.3332963746837159,-2.526583258305685,6.109556782036581,1.017209768295288,-2.9485049883471888
1708435229.3595252,-2.1414601802825928,-1.3333277118257065,-2.5265381971942347,6.109533297806539,1.017197608947754,-2.948573891316549
1708435229.3615189,-2.141451358795166,-1.333341048364975,-2.526587788258688,6.109589683800497,1.0171599388122559,-2.9485955874072474
1708435229.363571,-2.1414151191711426,-1.3333157908967515,-2.5265381971942347,6.109598505287924,1.0171735286712646,-2.9485743681537073
1708435229.3655193,-2.141439914703369,-1.3333604049733658,-2.5265381971942347,6.1095852730567834,1.017197608947754,-2.9485955874072474
1708435229.367553,-2.141418695449829,-1.333250419502594,-2.5265501181231897,6.1095512984092615,1.017176628112793,-2.9485374132739466
1708435229.369534,-2.141439914703369,-1.3333069545081635,-2.5265517870532435,6.109568941384115,1.017218828201294,-2.948582951222555
1708435229.3715336,-2.141448736190796,-1.3333396327546616,-2.5265188852893274,6.109544861107626,1.017155408859253,-2.9485743681537073
1708435229.3735323,-2.1414670944213867,-1.333315761094429,-2.5265262762652796,6.109573352127828,1.017218828201294,-2.9485374132739466
1708435229.375539,-2.141451358795166,-1.3333648306182404,-2.5265472571002405,6.109577762871542,1.0171856880187988,-2.9485912958728235
1708435229.3775733,-2.1414268016815186,-1.3332742613605042,-2.5264931360827845,6.1095852730567834,1.0172021389007568,-2.9485710302936
1708435229.3795183,-2.1414883136749268,-1.3333692413619538,-2.5265563170062464,6.109572040825643,1.0171599388122559,-2.9485300222979944
1708435229.3815165,-2.141462802886963,-1.3333692413619538,-2.5265021959887903,6.109531628876486,1.0171767473220825,-2.948578659688131
1708435229.3835406,-2.141453981399536,-1.333320216541626,-2.5265653769122522,6.109626996308126,1.0171812772750854,-2.9485581556903284
1708435229.3855033,-2.1414356231689453,-1.3333396327546616,-2.526494805012838,6.109592783242025,1.017107605934143,-2.9485867659198206
1708435229.3875327,-2.14145565032959,-1.3333113652518769,-2.526503864918844,6.1095971939857385,1.0171856880187988,-2.9485698382007044
1708435229.3895104,-2.1414222717285156,-1.3333113652518769,-2.526475254689352,6.1095852730567834,1.0171902179718018,-2.948578659688131
1708435229.3915226,-2.141475200653076,-1.3333529096892853,-2.526463333760397,6.109555709152975,1.017176628112793,-2.9485955874072474
1708435229.3935275,-2.141453981399536,-1.3333157759955903,-2.526508394871847,6.109610426216879,1.017197608947754,-2.9485581556903284
1708435229.395537,-2.141417980194092,-1.3333365631154557,-2.526470724736349,6.109555709152975,1.0172233581542969,-2.9485374132739466
1708435229.39754,-2.141451358795166,-1.3333187860301514,-2.526454273854391,6.10959409454421,1.0171436071395874,-2.9485462347613733
1708435229.3995304,-2.141458511352539,-1.3333574098399659,-2.5265007654773157,6.1095852730567834,1.0172066688537598,-2.9485581556903284
1708435229.401513,-2.14145565032959,-1.333378092651703,-2.526479784642355,6.109650838166036,1.0172020196914673,-2.9485536257373255
1708435229.403571,-2.141475200653076,-1.333320216541626,-2.5264468828784388,6.109605896263876,1.0172233581542969,-2.9485419432269495
1708435229.4055064,-2.141453981399536,-1.3333069545081635,-2.5264301935779017,6.109577882080831,1.0172278881072998,-2.9485955874072474
1708435229.4075353,-2.141451358795166,-1.3333574098399659,-2.5264468828784388,6.109576451569357,1.0171947479248047,-2.948550526295797
1708435229.4095333,-2.1414268016815186,-1.3333453995040436,-2.526463333760397,6.109589683800497,1.017209768295288,-2.9485743681537073
1708435229.4115138,-2.141453981399536,-1.3333365631154557,-2.526470724736349,6.109560119896688,1.0171689987182617,-2.9485743681537073
1708435229.41352,-2.141515016555786,-1.3333277267268677,-2.526479784642355,6.109522807389059,1.0171689987182617,-2.9485212008105677
1708435229.415512,-2.141453981399536,-1.3333692115596314,-2.5265007654773157,6.109588372498312,1.0171856880187988,-2.948578659688131
1708435229.4175644,-2.1414663791656494,-1.3333484840444108,-2.5264514128314417,6.109552252083578,1.0172052383422852,-2.94861609140505
1708435229.4195335,-2.141467332839966,-1.3333692413619538,-2.526470724736349,6.109572040825643,1.0171616077423096,-2.9485300222979944
1708435229.4215202,-2.1414382457733154,-1.3333365631154557,-2.5264678637133997,6.1096181748206995,1.017218828201294,-2.9485743681537073
1708435229.4235554,-2.141447067260742,-1.3333202314427872,-2.5264468828784388,6.109650838166036,1.0171902179718018,-2.9485300222979944
1708435229.4255216,-2.141496419906616,-1.3333351177028199,-2.526449743901388,6.109539139061727,1.0171812772750854,-2.9485212008105677
1708435229.4275246,-2.1414496898651123,-1.33333212256942,-2.526479784642355,6.109609353333273,1.0171571969985962,-2.948566738759176
1708435229.4295127,-2.1414875984191895,-1.3333024245551606,-2.526461664830343,6.109531628876486,1.017197608947754,-2.9485300222979944
1708435229.431508,-2.1414794921875,-1.3333410781672974,-2.526475254689352,6.109564649849691,1.017218828201294,-2.9485212008105677
1708435229.4335296,-2.1414663791656494,-1.3333574098399659,-2.526470724736349,6.109609353333273,1.0171481370925903,-2.948559109364645
1708435229.4355273,-2.141496419906616,-1.3333365333131333,-2.526503864918844,6.109531628876486,1.017197608947754,-2.948542896901266
1708435229.4375415,-2.141496419906616,-1.3333024096539994,-2.526479784642355,6.109609353333273,1.0171359777450562,-2.9485343138324183
1708435229.4395175,-2.1414575576782227,-1.3333440583995362,-2.526470724736349,6.109543430596151,1.0171780586242676,-2.948526684437887
1708435229.441534,-2.141507863998413,-1.3333024394563218,-2.5265007654773157,6.109552371292867,1.0171645879745483,-2.948559109364645
1708435229.4435613,-2.1414620876312256,-1.333372713332512,-2.526475254689352,6.109511124878683,1.0171480178833008,-2.9485352675067347
1708435229.4455624,-2.141475200653076,-1.33335596442733,-2.526449743901388,6.109592783242025,1.0171481370925903,-2.948554817830221
1708435229.447504,-2.14150333404541,-1.3333351177028199,-2.5264468828784388,6.109543549805441,1.0172396898269653,-2.948522392903463
1708435229.4495187,-2.1414875984191895,-1.3333233308843155,-2.526470724736349,6.109576451569357,1.0172066688537598,-2.948538605366842
1708435229.4515207,-2.1414709091186523,-1.3333692711642762,-2.526496235524313,6.109613764076986,1.0171856880187988,-2.948510471974508
1708435229.4535463,-2.1415035724639893,-1.3333692413619538,-2.526503864918844,6.1096300957496545,1.017193078994751,-2.9485676924334925
1708435229.455513,-2.141535997390747,-1.333364800815918,-2.526496235524313,6.10958086231307,1.017197608947754,-2.948510471974508
1708435229.4575062,-2.14150333404541,-1.3333277118257065,-2.526463333760397,6.109613764076986,1.0171825885772705,-2.948510471974508
1708435229.4595087,-2.1414875984191895,-1.3333069843104859,-2.526421133671896,6.109601604729452,1.0172351598739624,-2.948526684437887
1708435229.4615016,-2.141453981399536,-1.333348498945572,-2.526496235524313,6.109613883286276,1.017218828201294,-2.9484780470477503
1708435229.4635248,-2.141451358795166,-1.3333079528859635,-2.526428763066427,6.10963140705184,1.0171947479248047,-2.9485071341144007
1708435229.4655151,-2.1414496898651123,-1.3333528500846406,-2.526458803807394,6.109610426216879,1.0171903371810913,-2.9484735170947474
1708435229.4675024,-2.141557216644287,-1.3333069843104859,-2.526487175618307,6.109588372498312,1.0171947479248047,-2.9485343138324183
1708435229.4695165,-2.1415061950683594,-1.3332920384458085,-2.526454273854391,6.109573352127828,1.0172111988067627,-2.9485278765307825
1708435229.4715195,-2.141514778137207,-1.3333529096892853,-2.526479784642355,6.10964201667861,1.0171481370925903,-2.9484739939319056
1708435229.4735274,-2.141475200653076,-1.333364800815918,-2.526458803807394,6.109609353333273,1.0171571969985962,-2.9485352675067347
1708435229.4754899,-2.1414947509765625,-1.3333529096892853,-2.526458803807394,6.109635698586263,1.017197608947754,-2.9484899679767054
1708435229.4774873,-2.141507863998413,-1.33334535480056,-2.52649170557131,6.109609353333273,1.0171902179718018,-2.948494259511129
1708435229.4795327,-2.1414947509765625,-1.3333080869964142,-2.526475254689352,6.109576451569357,1.0172260999679565,-2.9484954516040247
1708435229.4814909,-2.1414787769317627,-1.3333692413619538,-2.526461664830343,6.1095971939857385,1.0171947479248047,-2.9485116640674036
1708435229.4834962,-2.141523599624634,-1.3333233159831543,-2.526437822972433,6.109626996308126,1.0172020196914673,-2.9485278765307825
1708435229.485496,-2.1414875984191895,-1.3332947057536622,-2.5264468828784388,6.109539139061727,1.0171780586242676,-2.9484697023974817
1708435229.4875116,-2.1414794921875,-1.3333201569369812,-2.526458803807394,6.10958086231307,1.0171644687652588,-2.9484780470477503
1708435229.4895277,-2.141507863998413,-1.333344043498375,-2.526470724736349,6.109589683800497,1.017181158065796,-2.9484739939319056
1708435229.4914923,-2.1414947509765625,-1.3333233308843155,-2.526466194783346,6.109568941384115,1.0171616077423096,-2.948530975972311
1708435229.4934921,-2.141510486602783,-1.3333201271346589,-2.526499334965841,6.109576451569357,1.0171644687652588,-2.948502842579977
1708435229.4954836,-2.14150333404541,-1.3334022772363205,-2.526508394871847,6.109614836960592,1.0172020196914673,-2.9485116640674036
1708435229.4975123,-2.141507863998413,-1.3333277118257065,-2.526442352925436,6.109560119896688,1.0171856880187988,-2.9484739939319056
1708435229.4994972,-2.14150333404541,-1.333324671988823,-2.526515785847799,6.109552371292867,1.0171267986297607,-2.948490921651022
1708435229.5015302,-2.1414875984191895,-1.3333514642766495,-2.526508394871847,6.109572040825643,1.017181158065796,-2.9484954516040247
1708435229.5035503,-2.1414918899536133,-1.3333484393409272,-2.5264678637133997,6.109626996308126,1.0171689987182617,-2.9484739939319056
1708435229.5055134,-2.141535997390747,-1.3333603900722046,-2.526463333760397,6.109589683800497,1.0171902179718018,-2.9484577814685267
1708435229.507518,-2.141475200653076,-1.3333573651364823,-2.526470724736349,6.109556662827291,1.017197608947754,-2.948490921651022
1708435229.5095272,-2.1414496898651123,-1.3333396327546616,-2.5265336672412317,6.109543430596151,1.0171480178833008,-2.9484997431384485
1708435229.5115342,-2.141557216644287,-1.3334097576192399,-2.5265384356128138,6.109576451569357,1.0171856880187988,-2.9484954516040247
1708435229.5135224,-2.141453981399536,-1.3332947057536622,-2.526503864918844,6.109564649849691,1.0171571969985962,-2.9485071341144007
1708435229.515527,-2.141507863998413,-1.3332991164973755,-2.526478115712301,6.10958086231307,1.0171812772750854,-2.948487106953756
1708435229.517515,-2.1414709091186523,-1.333332137470581,-2.52649170557131,6.109646427422323,1.017218828201294,-2.9485233465777796
1708435229.5195868,-2.141512155532837,-1.333323286180832,-2.526508394871847,6.109601604729452,1.0171947479248047,-2.9484739939319056
1708435229.5215225,-2.1414833068847656,-1.333366112118103,-2.526487175618307,6.1095852730567834,1.0171902179718018,-2.9484329859363
1708435229.5235164,-2.1414918899536133,-1.3333114099553605,-2.526508394871847,6.10958086231307,1.0171403884887695,-2.948510471974508
1708435229.5255034,-2.141458511352539,-1.33330354214225,-2.526470724736349,6.109560239105978,1.017181158065796,-2.9484460989581507
1708435229.5275016,-2.14151930809021,-1.3332857501557847,-2.5264888445483606,6.109588372498312,1.0171481370925903,-2.948487106953756
1708435229.5295227,-2.1415317058563232,-1.3333202314427872,-2.526499334965841,6.109573352127828,1.0171856880187988,-2.9484708944903772
1708435229.5315058,-2.14150333404541,-1.333357350235321,-2.526482645665304,6.109610426216879,1.017218828201294,-2.9484739939319056
1708435229.5335405,-2.1415281295776367,-1.3333158057979126,-2.526479784642355,6.109598505287924,1.0172021389007568,-2.9484460989581507
1708435229.535506,-2.141507863998413,-1.3333024394563218,-2.526499334965841,6.109577882080831,1.0172021389007568,-2.9484954516040247
1708435229.5375104,-2.141512155532837,-1.3333978366902848,-2.526537005101339,6.10958086231307,1.0172442197799683,-2.9484503904925745
1708435229.5395055,-2.1414709091186523,-1.333292008643486,-2.526503864918844,6.109589683800497,1.0171856880187988,-2.9484708944903772
1708435229.5415015,-2.141512155532837,-1.333299146299698,-2.5265067259417933,6.1095852730567834,1.0171947479248047,-2.948487106953756
1708435229.5435457,-2.1415061950683594,-1.3333233308843155,-2.526494805012838,6.109590875893392,1.017209768295288,-2.9484666029559534
1708435229.545512,-2.141557216644287,-1.333336503510811,-2.5264468828784388,6.10950385311202,1.0171902179718018,-2.948487106953756
1708435229.547512,-2.1414294242858887,-1.33335596442733,-2.526466194783346,6.109552371292867,1.0171735286712646,-2.9484708944903772
1708435229.5495052,-2.1414787769317627,-1.333372638826706,-2.526482645665304,6.109610426216879,1.0172233581542969,-2.9484460989581507
1708435229.5515308,-2.1414833068847656,-1.3333559793284913,-2.526529375706808,6.109544861107626,1.017218828201294,-2.948487106953756
1708435229.5535362,-2.1414833068847656,-1.333364800815918,-2.526470724736349,6.109491455345907,1.017193078994751,-2.9484666029559534
1708435229.555543,-2.141507863998413,-1.3332579892924805,-2.526499334965841,6.109544861107626,1.017176628112793,-2.9484708944903772
1708435229.5575113,-2.1414709091186523,-1.333373711710312,-2.526487175618307,6.109568941384115,1.0172066688537598,-2.9484341780291956
1708435229.5595138,-2.1415536403656006,-1.3333157461932679,-2.526499334965841,6.109565603524008,1.0171689987182617,-2.948425833378927
1708435229.561517,-2.1414620876312256,-1.3333440583995362,-2.526479784642355,6.109607088356771,1.0172066688537598,-2.9484666029559534
1708435229.5635247,-2.1414663791656494,-1.3333889555982132,-2.52649170557131,6.109553563385763,1.0171735286712646,-2.9484384695636194
1708435229.5655088,-2.1414833068847656,-1.3333114099553605,-2.526515785847799,6.109573352127828,1.0171812772750854,-2.9484384695636194
1708435229.567513,-2.1414787769317627,-1.3333485138467331,-2.526520315800802,6.109544861107626,1.0172020196914673,-2.948458973561422
1708435229.569534,-2.14150071144104,-1.3332741570523758,-2.526470724736349,6.109537589340963,1.0171735286712646,-2.948447291051046
1708435229.57154,-2.1414833068847656,-1.3333114099553605,-2.526482645665304,6.1094915745551965,1.0171722173690796,-2.948447291051046
1708435229.5735326,-2.1414408683776855,-1.333344118004181,-2.526449743901388,6.109488355904379,1.0171722173690796,-2.948463503514425
1708435229.5755236,-2.141453981399536,-1.333332137470581,-2.526466194783346,6.109504687577047,1.017176628112793,-2.9484503904925745
1708435229.5775175,-2.1414709091186523,-1.3333484840444108,-2.526482645665304,6.109477746277609,1.0172066688537598,-2.948479715977804
1708435229.5795112,-2.1414794921875,-1.3333232563785096,-2.526475254689352,6.109477746277609,1.0172110795974731,-2.9484708944903772
1708435229.5815434,-2.1414794921875,-1.3333187860301514,-2.526466194783346,6.109522211342611,1.0172110795974731,-2.9483559767352503
1708435229.5835612,-2.1414875984191895,-1.3333321672729035,-2.526494805012838,6.109489667206564,1.017226219177246,-2.94843036333193
1708435229.5855165,-2.1414310932159424,-1.3333528649858017,-2.526508394871847,6.109444844513693,1.017176628112793,-2.9484215418445032
1708435229.5875428,-2.1414294242858887,-1.3333069247058411,-2.526499334965841,6.109395968704977,1.0171735286712646,-2.948352877293722
1708435229.5895076,-2.1414794921875,-1.3333498251489182,-2.526494805012838,6.109421360283651,1.017177939414978,-2.9484227339373987
1708435229.591518,-2.141462802886963,-1.333352879886963,-2.526487175618307,6.109413373261251,1.0172065496444702,-2.94843036333193
1708435229.5935247,-2.141458511352539,-1.3333814901164551,-2.526508394871847,6.109446036606588,1.0171812772750854,-2.9483941237079065
1708435229.5955229,-2.1414268016815186,-1.3333648306182404,-2.526470724736349,6.109377491265096,1.017181158065796,-2.9483984152423304
1708435229.5975246,-2.1414337158203125,-1.333332137470581,-2.526520315800802,6.10938190200881,1.0171902179718018,-2.9483779112445276
1708435229.5995169,-2.1414310932159424,-1.3333350879004975,-2.526494805012838,6.109398591309347,1.017209768295288,-2.948340956364767
1708435229.6015065,-2.141458511352539,-1.3332920384458085,-2.526508394871847,6.1093788025672815,1.017218828201294,-2.9483583609210413
1708435229.6035073,-2.141451358795166,-1.33330690980468,-2.526494805012838,6.109310495644369,1.0171812772750854,-2.948334519063131
1708435229.6054938,-2.1414294242858887,-1.3332991164973755,-2.526496235524313,6.109342682152548,1.017197608947754,-2.9483183065997522
1708435229.6075108,-2.14151668548584,-1.3333201867393036,-2.52643329301943,6.1093307612235925,1.0171616077423096,-2.948268715535299
1708435229.609516,-2.141453981399536,-1.3333202314427872,-2.526482645665304,6.109253632813253,1.0171644687652588,-2.948310677205221
1708435229.6114898,-2.141462802886963,-1.3333335232785721,-2.526482645665304,6.109271275788107,1.0171616077423096,-2.948310677205221
1708435229.6134932,-2.141451358795166,-1.3333024841598053,-2.526494805012838,6.109250533371725,1.0171644687652588,-2.9482582251178187
1708435229.615498,-2.1414310932159424,-1.333312378530838,-2.526458803807394,6.109274375229635,1.0171616077423096,-2.9482701460467737
1708435229.6175456,-2.141467332839966,-1.3333573800376435,-2.52649170557131,6.109242784767904,1.0171780586242676,-2.9482582251178187
1708435229.619513,-2.141451358795166,-1.3333233159831543,-2.526487175618307,6.109189498215475,1.0171902179718018,-2.9482300917254847
1708435229.6214988,-2.141418695449829,-1.3333529096892853,-2.526466194783346,6.109138357430258,1.0171449184417725,-2.9482181707965296
1708435229.623511,-2.1414310932159424,-1.3332921129516144,-2.526449743901388,6.109110104828634,1.0172110795974731,-2.9481893221484583
1708435229.6254983,-2.141423225402832,-1.33330354214225,-2.526449743901388,6.10911105850295,1.0171284675598145,-2.948146168385641
1708435229.6275115,-2.141386032104492,-1.3333201867393036,-2.526470724736349,6.109090912133016,1.0171616077423096,-2.948174301777975
1708435229.629494,-2.1414318084716797,-1.3332991015962143,-2.526487175618307,6.109054672508993,1.017124056816101,-2.948113505040304
1708435229.6315331,-2.1414318084716797,-1.333308072095253,-2.526496235524313,6.109059083252706,1.0171661376953125,-2.9481011072741907
1708435229.6335216,-2.141448736190796,-1.3332787615111847,-2.526449743901388,6.109014618187704,1.0171571969985962,-2.948094193135397
1708435229.6355226,-2.141399383544922,-1.3332592856935044,-2.526442352925436,6.108950245171346,1.0172234773635864,-2.9480984846698206
1708435229.6375048,-2.141427516937256,-1.3332293045571824,-2.526437822972433,6.10893081405715,1.0171494483947754,-2.948049847279684
1708435229.6394954,-2.1414036750793457,-1.3332844835570832,-2.526449743901388,6.108926522522726,1.0171706676483154,-2.948022190724508
1708435229.6424167,-2.1413912773132324,-1.3333454442075272,-2.526496235524313,6.108861911087789,1.017124056816101,-2.9479854742633265
1708435229.643543,-2.1413586139678955,-1.3333454442075272,-2.5265219847308558,6.108915555268087,1.0171449184417725,-2.9479907194720667
1708435229.6455672,-2.1413540840148926,-1.3333080571940918,-2.526479784642355,6.1088143465812585,1.0171464681625366,-2.9479551951037806
1708435229.6475358,-2.141342878341675,-1.333333433871605,-2.526508394871847,6.108839618950643,1.0171706676483154,-2.9478731791125696
1708435229.649524,-2.141383171081543,-1.3333167743733902,-2.526442352925436,6.108799207001486,1.0171183347702026,-2.9478939215289515
1708435229.6515625,-2.1413516998291016,-1.33330354214225,-2.526508394871847,6.108770715981283,1.017127275466919,-2.9478207270251673
1708435229.65353,-2.1413304805755615,-1.3332742762616654,-2.526475254689352,6.108772027283468,1.017092227935791,-2.947805706654684
1708435229.6555145,-2.1413393020629883,-1.3332636815360566,-2.526475254689352,6.108739363938131,1.0170611143112183,-2.947827164326803
1708435229.6575522,-2.1413393020629883,-1.3332888644984742,-2.526454273854391,6.1087002632911584,1.0170774459838867,-2.9477742354022425
1708435229.659518,-2.141347885131836,-1.3333211255124588,-2.5264888445483606,6.10868393161849,1.0170938968658447,-2.947779957448141
1708435229.6615155,-2.141315460205078,-1.333296389584877,-2.526463333760397,6.1086346981819055,1.0170533657073975,-2.9477017561541956
1708435229.6635404,-2.1412770748138428,-1.333235116010048,-2.5264468828784388,6.108567702561178,1.0170578956604004,-2.9476166407214563
1708435229.665503,-2.1412858963012695,-1.3333212298205872,-2.526482645665304,6.10866545417861,1.0170578956604004,-2.947629753743307
1708435229.667519,-2.1413116455078125,-1.3332815033248444,-2.52651292482485,6.108592736511984,1.0170247554779053,-2.94757324854006
1708435229.6695158,-2.1412792205810547,-1.3332736504128953,-2.526479784642355,6.108544814377584,1.0170173645019531,-2.947562042866842
1708435229.6715066,-2.1413161754608154,-1.333227665429451,-2.5264092127429407,6.108549105912008,1.0170173645019531,-2.947505776082174
1708435229.673544,-2.141267776489258,-1.3332395118526001,-2.5264256636248987,6.108477461128988,1.0169724225997925,-2.9474692980395716
1708435229.67553,-2.1412596702575684,-1.3332068932107468,-2.5264769236194056,6.108416545182028,1.0169932842254639,-2.947446648274557
1708435229.677537,-2.141242027282715,-1.3332291406444092,-2.5264092127429407,6.108413445740499,1.0169557332992554,-2.947393242512838
1708435229.6795442,-2.1412429809570312,-1.3332291406444092,-2.5263970533954065,6.108400332718649,1.0169813632965088,-2.9473698774920862
1708435229.6815054,-2.141251564025879,-1.3332335215858002,-2.5264015833484095,6.108384954720297,1.0169451236724854,-2.9472976366626185
1708435229.683528,-2.1412808895111084,-1.3332246255925675,-2.5264723936664026,6.1083282110984705,1.0169075727462769,-2.94729453722109
1708435229.685509,-2.1412606239318848,-1.3332124513438721,-2.526479784642355,6.108345854073324,1.0169451236724854,-2.947193209324972
1708435229.6875312,-2.141201972961426,-1.333142564897873,-2.5264979044543665,6.1083059189613245,1.0169000625610352,-2.9470930735217493
1708435229.6895058,-2.1411757469177246,-1.3331682097962876,-2.5264347235309046,6.10826991775588,1.016909122467041,-2.9470492045031946
1708435229.6915023,-2.1411712169647217,-1.3332005155137558,-2.5264106432544153,6.108254658966818,1.016875982284546,-2.946984831486837
1708435229.6935036,-2.1411845684051514,-1.3331813973239441,-2.5264061133014124,6.108221995621481,1.0168927907943726,-2.9468935171710413
1708435229.6955223,-2.1411800384521484,-1.3331932735494156,-2.5264437834369105,6.108131396561422,1.0168805122375488,-2.946862522755758
1708435229.697572,-2.1411476135253906,-1.3331351292184372,-2.5264647642718714,6.108181822090902,1.0168637037277222,-2.9467573801623743
1708435229.6995182,-2.1411800384521484,-1.3331903231194993,-2.526407782231466,6.108117687493124,1.0168728828430176,-2.946681801472799
1708435229.701534,-2.1411449909210205,-1.3331647527268906,-2.526419703160421,6.108086335449972,1.0168699026107788,-2.946547333394186
1708435229.703579,-2.141104221343994,-1.3331769567779084,-2.5264106432544153,6.108012902527609,1.0168204307556152,-2.9464524427997034
1708435229.7055275,-2.141111373901367,-1.3331320744803925,-2.5264151732074183,6.10808418968276,1.0168461799621582,-2.9463816324817103
1708435229.7075703,-2.1411359310150146,-1.3331528466990967,-2.526391331349508,6.107957827835836,1.0168325901031494,-2.946301047001974
1708435229.7095184,-2.1410717964172363,-1.3330870282701035,-2.526391331349508,6.107941496163168,1.0167990922927856,-2.9461851755725306
1708435229.7115169,-2.14105486869812,-1.3331617575934906,-2.52643329301943,6.10795150974349,1.0168249607086182,-2.9460204283343714
1708435229.7135391,-2.1410183906555176,-1.3331409108689805,-2.526424233113424,6.1079022763069055,1.016800880432129,-2.945932451878683
1708435229.7155128,-2.14103627204895,-1.3331123900464554,-2.526400391255514,6.107812869339742,1.016800880432129,-2.9458120504962366
1708435229.7175367,-2.1410000324249268,-1.3331647676280518,-2.52640945116152,6.107875096588888,1.016812801361084,-2.945634905491964
1708435229.7195277,-2.14104962348938,-1.333149866466858,-2.5263431707965296,6.10777376869277,1.0167603492736816,-2.945535961781637
1708435229.7215223,-2.141044855117798,-1.3330797117999573,-2.526362959538595,6.107798921852865,1.0167768001556396,-2.945392672215597
1708435229.7235467,-2.1410157680511475,-1.3331498813680192,-2.5263553301440638,6.107815372734823,1.0167604684829712,-2.9452479521380823
1708435229.7255123,-2.1410088539123535,-1.333113746052124,-2.5263176600085657,6.107767569809713,1.0167396068572998,-2.945087734852926
1708435229.7275496,-2.14097261428833,-1.3331376326135178,-2.5263598600970667,6.107690202980795,1.0167604684829712,-2.9449480215655726
1708435229.729548,-2.1409637928009033,-1.333133192067482,-2.5263477007495325,6.1076838848884485,1.016762137413025,-2.944763962422506
1708435229.731528,-2.140939950942993,-1.3331168454936524,-2.5263150374041956,6.107630240708151,1.0167529582977295,-2.9446354548083704
1708435229.7335382,-2.140970230102539,-1.3331168752959748,-2.5263598600970667,6.1075782654579065,1.016757607460022,-2.944451634083883
1708435229.735517,-2.140927314758301,-1.3331168603948136,-2.5263057390796106,6.1076063988502405,1.016757607460022,-2.9442711512195032
1708435229.7375453,-2.1409363746643066,-1.333150790338852,-2.5263238588916224,6.107653844147482,1.0167315006256104,-2.9441240469561976
1708435229.7395153,-2.1409037113189697,-1.3330634397319336,-2.5263403097735804,6.1075641987617395,1.0166791677474976,-2.943874184285299
1708435229.7415662,-2.140859603881836,-1.3330677908710022,-2.5263028780566614,6.107503402024069,1.0167450904846191,-2.943777147923605
1708435229.7435718,-2.1408755779266357,-1.3330797117999573,-2.5263028780566614,6.107507812767782,1.0167003870010376,-2.9435187021838587
1708435229.7455213,-2.140869379043579,-1.3330930036357422,-2.5263028780566614,6.107439029007711,1.016683578491211,-2.943359676991598
1708435229.7475142,-2.1408605575561523,-1.3330528003028412,-2.5262652079211634,6.1074267504508875,1.0167301893234253,-2.943073813115255
1708435229.749525,-2.1408729553222656,-1.3330722463181992,-2.5262742678271692,6.107423770218649,1.0167003870010376,-2.942906443272726
1708435229.751539,-2.140864849090576,-1.3331137311509629,-2.5262413660632532,6.107469785004415,1.016704797744751,-2.9426704088794153
1708435229.7535372,-2.140894889831543,-1.333060310488083,-2.52631646791567,6.107429730683126,1.0167183876037598,-2.9424713293658655
1708435229.7555113,-2.1408073902130127,-1.3330409240773697,-2.526292387639181,6.107425319939413,1.0166627168655396,-2.942234818135397
1708435229.7575316,-2.140841007232666,-1.3331049543670197,-2.526292387639181,6.107381927758016,1.0166672468185425,-2.941962544118063
1708435229.7595422,-2.140803098678589,-1.3330440086177369,-2.5262742678271692,6.107300030976095,1.0166852474212646,-2.9417265097247522
1708435229.761523,-2.140789031982422,-1.3330735725215455,-2.526275936757223,6.107320654183187,1.0167016983032227,-2.941518847142355
1708435229.763544,-2.140795946121216,-1.333094285135605,-2.52625018755068,6.107374298363485,1.0166897773742676,-2.941251341496603
1708435229.7655065,-2.1407766342163086,-1.3330188703588028,-2.526238266621725,6.107292401581564,1.016672968864441,-2.9409576098071497
1708435229.767509,-2.140795946121216,-1.3330647510341187,-2.526287857686178,6.107292520790853,1.0166970491409302,-2.9406901041613978
1708435229.7695005,-2.140789031982422,-1.3330527555993577,-2.52625018755068,6.107305633812704,1.0166763067245483,-2.9404099623309534
1708435229.7714915,-2.1408021450042725,-1.33304979026828,-2.52625018755068,6.107280480652609,1.0166926383972168,-2.9400959650622767
1708435229.7735603,-2.1407852172851562,-1.3330691319755097,-2.526292387639181,6.107273924141683,1.0166971683502197,-2.939833943043844
1708435229.7754953,-2.1407480239868164,-1.3331062209657212,-2.526284996663229,6.107260811119833,1.0166640281677246,-2.9395414034472864
1708435229.777529,-2.1407809257507324,-1.3330483746579667,-2.526217285786764,6.10726426818923,1.0166354179382324,-2.9391964117633265
1708435229.7795365,-2.1407854557037354,-1.3331062656692048,-2.526242796574728,6.1072696326072595,1.0166897773742676,-2.9388771692859095
1708435229.7815351,-2.140740394592285,-1.3330484193614502,-2.526254717503683,6.107232558518209,1.016619086265564,-2.9385042826281946
1708435229.7835226,-2.1407809257507324,-1.333089904194214,-2.52625018755068,6.107256400376119,1.016706109046936,-2.938155714665548
1708435229.7854986,-2.1407976150512695,-1.3330483597568055,-2.5262637774096888,6.107286202698507,1.0166354179382324,-2.9378369490252894
1708435229.7875392,-2.140744686126709,-1.333069161777832,-2.526309076939718,6.107238280564108,1.0166521072387695,-2.937510077153341
1708435229.7895179,-2.1407077312469482,-1.3330678802779694,-2.526275936757223,6.107233869820394,1.0166807174682617,-2.937115494404928
1708435229.7915437,-2.140718936920166,-1.3331018549254914,-2.526292387639181,6.107241380005636,1.0166116952896118,-2.936805073414938
1708435229.7935476,-2.1407294273376465,-1.333043949013092,-2.52625018755068,6.1072696326072595,1.0166354179382324,-2.9363377729998987
1708435229.7955256,-2.140716552734375,-1.3330930185369034,-2.526275936757223,6.107204067498007,1.0166701078414917,-2.9360278288470667
1708435229.797567,-2.140713691711426,-1.3331062656692048,-2.526259247456686,6.1072577116783044,1.0166640281677246,-2.935648266469137
1708435229.7995465,-2.140705108642578,-1.333067850475647,-2.526221815739767,6.107214081078329,1.016710638999939,-2.935215775166647
1708435229.8015673,-2.1407322883605957,-1.3330153685859223,-2.526283327733175,6.107257592469015,1.0166566371917725,-2.93483549753298
1708435229.8035686,-2.140709400177002,-1.3330854934505005,-2.52622634569277,6.107253300934591,1.0166549682617188,-2.934350554143087
1708435229.8055143,-2.14074969291687,-1.3330572557500382,-2.526275936757223,6.107248890190878,1.016672968864441,-2.933962647114889
1708435229.807565,-2.1407251358032227,-1.3330943298390885,-2.526292387639181,6.107248890190878,1.0166475772857666,-2.933530871068136
1708435229.8095233,-2.1406936645507812,-1.3330528152040024,-2.526262346898214,6.10722171047286,1.0166640281677246,-2.933114830647604
1708435229.811515,-2.1406893730163574,-1.3330153983882447,-2.526259247456686,6.107187735825338,1.016652226448059,-2.9325862566577356
1708435229.8135152,-2.140681266784668,-1.3330440086177369,-2.5262637774096888,6.107196557312765,1.0166776180267334,-2.9321304003344935
1708435229.8155193,-2.140652656555176,-1.3330974292806168,-2.52627140680422,6.107220756798544,1.0166611671447754,-2.9316206614123743
1708435229.8175347,-2.140713691711426,-1.3330109131387253,-2.526233736668722,6.107180583267965,1.0166763067245483,-2.931230608616964
1708435229.8195186,-2.140707015991211,-1.3330973994782944,-2.526233736668722,6.107164251595297,1.0166263580322266,-2.9306495825396937
1708435229.8215227,-2.140702247619629,-1.3330691468766709,-2.526242796574728,6.107229459076681,1.0166807174682617,-2.9301427046405237
1708435229.8235412,-2.1406686305999756,-1.3330691766789933,-2.526266876851217,6.107212888985433,1.0166852474212646,-2.9295900503741663
1708435229.8255124,-2.1406893730163574,-1.333036483531334,-2.526300017033712,6.107229459076681,1.0166970491409302,-2.929129664097921
1708435229.8275385,-2.1407270431518555,-1.3330855083516617,-2.526292387639181,6.107250201493063,1.0166970491409302,-2.9285782019244593
1708435229.8295317,-2.140685558319092,-1.3330735874227067,-2.526275936757223,6.107193696289816,1.0166431665420532,-2.9280288855182093
1708435229.8315387,-2.140676975250244,-1.3330988597920914,-2.5263074080096644,6.107246982842245,1.016683578491211,-2.9274359385119837
1708435229.833518,-2.140709400177002,-1.3330153238824387,-2.526283327733175,6.107262122422018,1.0166970491409302,-2.9269090334521692
1708435229.8355186,-2.140681266784668,-1.3330929738334198,-2.526275936757223,6.107217299729147,1.0166640281677246,-2.926364008580343
1708435229.8375428,-2.140713691711426,-1.333104894762375,-2.526309076939718,6.1072589037712,1.016725778579712,-2.925833050404684
1708435229.8395257,-2.140702247619629,-1.333023266201355,-2.5263329187976282,6.1072250483329675,1.0167466402053833,-2.9252446333514612
1708435229.8415082,-2.1407270431518555,-1.3330439788154145,-2.526262346898214,6.10722171047286,1.016704797744751,-2.9245908896075647
1708435229.843544,-2.1406404972076416,-1.3330735576203843,-2.526309076939718,6.107226002007284,1.0166881084442139,-2.9240275065051478
1708435229.8455122,-2.140652894973755,-1.3330439639142533,-2.5262697378741663,6.107178914337911,1.016704797744751,-2.923394505177633
1708435229.8475099,-2.1406774520874023,-1.333069161777832,-2.5263329187976282,6.107245790749349,1.0167286396026611,-2.922770325337545
1708435229.8495207,-2.1406686305999756,-1.3330409538796921,-2.5262697378741663,6.107229459076681,1.0167495012283325,-2.9220648447619837
1708435229.8514996,-2.1406660079956055,-1.3331018698266526,-2.52631646791567,6.107187735825338,1.0167694091796875,-2.921450916920797
1708435229.8535402,-2.1406731605529785,-1.3330527406981965,-2.5263119379626673,6.107286202698507,1.01677405834198,-2.920802179967062
1708435229.8555021,-2.140644073486328,-1.3330810827067872,-2.5263283888446253,6.107236969261923,1.0167887210845947,-2.920109573994772
1708435229.8575492,-2.1406900882720947,-1.33306476593528,-2.5262983481036585,6.107262003212728,1.0167964696884155,-2.919473473225729
1708435229.8595057,-2.1406660079956055,-1.333125652079918,-2.5263193289386194,6.107250201493063,1.0168218612670898,-2.91876727739443
1708435229.8615096,-2.140657424926758,-1.3330930036357422,-2.5263238588916224,6.107238280564108,1.016812801361084,-2.918105427418844
1708435229.863511,-2.1406617164611816,-1.333027721648552,-2.5262909571277063,6.107199656754293,1.016834020614624,-2.9174485842334192
1708435229.8655086,-2.140681266784668,-1.33306476593528,-2.5263074080096644,6.1072589037712,1.0168416500091553,-2.9168205896960657
1708435229.8675046,-2.140657424926758,-1.3330188703588028,-2.5262938181506556,6.107262122422018,1.0168490409851074,-2.9160426298724573
1708435229.8695054,-2.1406660079956055,-1.3331181865981598,-2.5262983481036585,6.107278334885397,1.0168942213058472,-2.9153927008258265
1708435229.8715096,-2.1406166553497314,-1.3330810529044648,-2.5263329187976282,6.1072250483329675,1.0168728828430176,-2.914706532155172
1708435229.8735178,-2.1406776905059814,-1.333084152345993,-2.5263431707965296,6.10726951339797,1.016897201538086,-2.913917605076925
1708435229.8755217,-2.140625476837158,-1.333064780836441,-2.5263312498675745,6.107199656754293,1.0169541835784912,-2.9132395426379603
1708435229.8775008,-2.1406660079956055,-1.333081067805626,-2.5263312498675745,6.107278334885397,1.0169377326965332,-2.912482802067892
1708435229.8795,-2.1406617164611816,-1.333134488468506,-2.526393000279562,6.107241380005636,1.016925573348999,-2.9116690794574183
1708435229.881543,-2.140658140182495,-1.333015428190567,-2.526350800191061,6.107220756798544,1.0169451236724854,-2.9109330813037317
1708435229.8834963,-2.1406211853027344,-1.3330766570619126,-2.526395861302511,6.10721634605483,1.0169750452041626,-2.91014534631838
1708435229.8855083,-2.140658140182495,-1.3330452603152771,-2.526400391255514,6.107244479447164,1.0169905424118042,-2.909327809010641
1708435229.8874986,-2.1406140327453613,-1.333069161777832,-2.526412312184469,6.107244479447164,1.0170096158981323,-2.9085682074176233
1708435229.889504,-2.1406095027923584,-1.3331093204072495,-2.5264528433429163,6.107260691910543,1.0170128345489502,-2.907693926488058
1708435229.891545,-2.140584945678711,-1.3330440533212204,-2.5264363924609583,6.107272970467367,1.0170128345489502,-2.906911913548605
1708435229.8935068,-2.140610694885254,-1.333043934111931,-2.5264392534839075,6.107274043350973,1.0170578956604004,-2.906046215687887
1708435229.8955395,-2.1405937671661377,-1.3330766719630738,-2.5264392534839075,6.107278334885397,1.0170156955718994,-2.905160967503683
1708435229.8975174,-2.1405892372131348,-1.3330722165158768,-2.5264979044543665,6.107286202698507,1.0170893669128418,-2.904382054005758
1708435229.8995113,-2.140528440475464,-1.3331093353084107,-2.526479784642355,6.107273924141683,1.0171183347702026,-2.9035092035876673
1708435229.9015415,-2.1405396461486816,-1.333138884311058,-2.526470724736349,6.107305633812704,1.0171183347702026,-2.9026861826526087
1708435229.9035308,-2.1405653953552246,-1.3330352020314713,-2.5264678637133997,6.107273924141683,1.0171539783477783,-2.9018500486956995
1708435229.905539,-2.1405653953552246,-1.3330646765283127,-2.526496235524313,6.107236969261923,1.0171539783477783,-2.9009361902820032
1708435229.9075472,-2.1405344009399414,-1.3330841672471543,-2.526461664830343,6.107265221863546,1.0171780586242676,-2.900072161351339
1708435229.909524,-2.1404964923858643,-1.3331137758544465,-2.526553455983297,6.107220637589254,1.0172066688537598,-2.8992181460009974
1708435229.9115613,-2.140446901321411,-1.3331344437650223,-2.526511255894796,6.107249009400167,1.0172171592712402,-2.898289505635397
1708435229.9135485,-2.140448808670044,-1.3331093353084107,-2.5265443960772913,6.107248890190878,1.0172172784805298,-2.8974133173571985
1708435229.9155257,-2.140448808670044,-1.3330722761205216,-2.5265279451953333,6.107241380005636,1.0172953605651855,-2.8965256849872034
1708435229.9175303,-2.140481472015381,-1.3331049096635361,-2.5265801588641565,6.1072696326072595,1.0172772407531738,-2.895636860524313
1708435229.9195457,-2.140453338623047,-1.333134488468506,-2.5265427271472376,6.107212888985433,1.017317771911621,-2.8947153727160853
1708435229.9215093,-2.1404471397399902,-1.333134503369667,-2.5265546480761927,6.107245790749349,1.01736319065094,-2.8938472906695765
1708435229.9235313,-2.1403517723083496,-1.3331256669810791,-2.526548449193136,6.10720835903243,1.017370343208313,-2.8928988615619105
1708435229.925517,-2.140349864959717,-1.3331124496511002,-2.526632849370138,6.1071849940116785,1.017408013343811,-2.891965929661886
1708435229.9275365,-2.140312910079956,-1.333124266271927,-2.526656691228048,6.107193696289816,1.017439842224121,-2.8910425345050257
1708435229.9295585,-2.1403260231018066,-1.3330797863057633,-2.5266311804400843,6.107165205269613,1.0174140930175781,-2.890115563069479
1708435229.9315107,-2.1402456760406494,-1.3331454259208222,-2.5266807715045374,6.107190596848287,1.0174753665924072,-2.8891664187060755
1708435229.933566,-2.140275716781616,-1.3331375879100342,-2.5266507307635706,6.107108461647787,1.017487645149231,-2.8882132212268274
1708435229.935535,-2.140176773071289,-1.3331035685590287,-2.5266626516925257,6.107077109604635,1.017540454864502,-2.8872128168689173
1708435229.937545,-2.1401450634002686,-1.33314202845607,-2.526719633732931,6.107114183693685,1.0174728631973267,-2.8862393538104456
1708435229.9395158,-2.1400885581970215,-1.3330841672471543,-2.526728693638937,6.107036936074056,1.0175477266311646,-2.885324541722433
1708435229.9415112,-2.140040874481201,-1.333112434749939,-2.5267842451678675,6.107029187470236,1.017529845237732,-2.8844099680529993
1708435229.943534,-2.1400158405303955,-1.3330708605102082,-2.5267797152148646,6.106976854592123,1.0175538063049316,-2.8833919207202356
1708435229.9455338,-2.1399850845336914,-1.3331409257701416,-2.5267751852618616,6.106954562454977,1.0175987482070923,-2.8824089209186
1708435229.9475484,-2.139974594116211,-1.3331947487643738,-2.526815954838888,6.106906640320577,1.0176515579223633,-2.8813908735858362
1708435229.949537,-2.1399178504943848,-1.333139495258667,-2.5269175211535853,6.1068129418189905,1.0176591873168945,-2.8803401629077356
1708435229.9515276,-2.1398861408233643,-1.333155871634819,-2.5268996397601526,6.10689257362441,1.017687439918518,-2.8793469111071985
1708435229.9535642,-2.139822483062744,-1.3331395250609894,-2.5269208590136927,6.106730568199911,1.0176784992218018,-2.878277365361349
1708435229.9555225,-2.139775037765503,-1.3331528168967743,-2.526902739201681,6.106697666435995,1.0177642107009888,-2.87722093263735
1708435229.9575508,-2.1397342681884766,-1.3331515353969117,-2.526952091847555,6.106612551003256,1.017767071723938,-2.8761606852160853
1708435229.9595258,-2.139657497406006,-1.3332035404494782,-2.526943031941549,6.106573807984152,1.017807960510254,-2.8751102129565638
1708435229.961515,-2.1396028995513916,-1.3331961196712037,-2.5269883314715784,6.1064945338066,1.0178771018981934,-2.8740208784686487
1708435229.9635596,-2.1395716667175293,-1.3332246106914063,-2.527062002812521,6.10641490200118,1.017883062362671,-2.8729451338397425
1708435229.9655285,-2.1394712924957275,-1.3332572740367432,-2.526989523564474,6.106387960701742,1.0179402828216553,-2.8719173113452356
1708435229.9675355,-2.1393826007843018,-1.3332113486579438,-2.5270422140704554,6.106280433922567,1.017926812171936,-2.870803419743673
1708435229.9695127,-2.139366626739502,-1.333255873327591,-2.5270989576922815,6.106142031937399,1.0179579257965088,-2.8697193304644983
1708435229.9715009,-2.1392557621002197,-1.3332277250340958,-2.5271487871753138,6.106144535332479,1.0180617570877075,-2.8686633745776575
1708435229.973535,-2.139206886291504,-1.3333454442075272,-2.527189079915182,6.10598777511672,1.0180392265319824,-2.86761981645693
1708435229.9755104,-2.1391327381134033,-1.3332712215236207,-2.527180020009176,6.105904209404745,1.0181128978729248,-2.8665555159198206
1708435229.9775195,-2.139051675796509,-1.3333334487727662,-2.5271740595446985,6.105857121735372,1.0181114673614502,-2.865511719380514
1708435229.9795284,-2.138967752456665,-1.333378018145897,-2.5271740595446985,6.1057214615638635,1.0181924104690552,-2.86443001428713
1708435229.9815025,-2.1388747692108154,-1.33330690980468,-2.527247492467062,6.1056508896644495,1.0182360410690308,-2.863347593938009
1708435229.9835346,-2.138820171356201,-1.3333977919868012,-2.5273001829730433,6.105473506241598,1.018288493156433,-2.8623514811145228
1708435229.985516,-2.1387338638305664,-1.333342657690384,-2.5273404757129114,6.105321395188131,1.0183366537094116,-2.861262623463766
1708435229.98752,-2.1386001110076904,-1.3334141385606308,-2.5273645559894007,6.105192649155416,1.0183684825897217,-2.860161368046896
1708435229.9895356,-2.1385533809661865,-1.333396391277649,-2.527384106312887,6.105093943863668,1.0184450149536133,-2.859093968068258
1708435229.9915123,-2.13840913772583,-1.3334454757026215,-2.5274155775653284,6.104978549271383,1.0184767246246338,-2.8580754438983362
1708435229.9935317,-2.138289451599121,-1.3334365052035828,-2.5274232069598597,6.10490499713973,1.018586277961731,-2.8569520155536097
1708435229.9955764,-2.1382060050964355,-1.33345182359729,-2.5274844805346888,6.104764568596639,1.0186718702316284,-2.8559256235705774
1708435229.9975371,-2.138093948364258,-1.3334233176759263,-2.5275400320636194,6.104593145638265,1.0186781883239746,-2.8549097220050257
1708435229.9995086,-2.13796067237854,-1.3334919971278687,-2.5275145212756556,6.104482280998983,1.0187304019927979,-2.8538134733783167
1708435230.001531,-2.137826442718506,-1.3334712398103257,-2.527642075215475,6.104239332466879,1.018822431564331,-2.852844301854269
1708435230.0035481,-2.1377317905426025,-1.3335246604732056,-2.5276315847979944,6.104162561684408,1.0188493728637695,-2.851706568394796
1708435230.0055196,-2.1375675201416016,-1.3335352700999756,-2.5277424494372767,6.1039830324943445,1.018906593322754,-2.850670401250021
1708435230.0075395,-2.137418270111084,-1.333507017498352,-2.527710739766256,6.1038410542304895,1.0189380645751953,-2.849576775227682
1708435230.0095026,-2.1372787952423096,-1.3336056631854554,-2.5277441183673304,6.103606569557943,1.0189846754074097,-2.8485074679004114
1708435230.0115345,-2.137125015258789,-1.333575652246811,-2.52783710161318,6.1034690020378015,1.0190749168395996,-2.84741455713381
1708435230.0135536,-2.136976957321167,-1.3335879457047959,-2.5278685728656214,6.103264081269064,1.0191030502319336,-2.8463812510119837
1708435230.0155194,-2.1367805004119873,-1.3336276871016999,-2.527907435094015,6.103022682457723,1.0191917419433594,-2.845255200062887
1708435230.017524,-2.136592388153076,-1.3336144250682374,-2.5279386679278772,6.1028456566627405,1.019242763519287,-2.8441899458514612
1708435230.0195086,-2.13642954826355,-1.3337100011161347,-2.5279584566699427,6.102614033013143,1.0193270444869995,-2.843025509511129
1708435230.021559,-2.136225461959839,-1.3336790216020127,-2.528010908757345,6.102413999825277,1.019370675086975,-2.8419669310199183
1708435230.0235348,-2.136045455932617,-1.333690957432129,-2.5280588308917444,6.102236139565267,1.0194520950317383,-2.8408425490008753
1708435230.0255318,-2.1359002590179443,-1.3337638241103669,-2.528130833302633,6.102016317635336,1.019540786743164,-2.839809242879049
1708435230.0275548,-2.1356873512268066,-1.3337672364762803,-2.5281971136676233,6.101776826172628,1.019658088684082,-2.838684384022848
1708435230.029522,-2.135478973388672,-1.333790974026062,-2.528281037007467,6.101500856667318,1.0196517705917358,-2.8375723997699183
1708435230.0315225,-2.1352505683898926,-1.3338403415730973,-2.5283408800708216,6.101275789528646,1.0198127031326294,-2.8365474382983606
1708435230.0335693,-2.1350393295288086,-1.3339131337455292,-2.528379742299215,6.100946175843038,1.0198352336883545,-2.835402313862936
1708435230.0355198,-2.134823799133301,-1.3338702482036133,-2.5284233728991907,6.100650417595663,1.0199480056762695,-2.834344450627462
1708435230.037535,-2.134542942047119,-1.3338658225587388,-2.5285118261920374,6.100322949677267,1.0200729370117188,-2.8333898226367396
1708435230.0395222,-2.1343860626220703,-1.3339225959828873,-2.528517548237936,6.100120889931478,1.0201870203018188,-2.8322766462909144
1708435230.0415208,-2.134143114089966,-1.3339911264232178,-2.5286529699908655,6.09979675987319,1.020257592201233,-2.831254784260885
1708435230.043561,-2.1339404582977295,-1.3340314042619248,-2.5287368933307093,6.099575388222494,1.0203222036361694,-2.830215040837423
1708435230.0455408,-2.1336588859558105,-1.3340432804873963,-2.528825346623556,6.0993255255515955,1.0204122066497803,-2.8291266600238245
1708435230.0475347,-2.1333746910095215,-1.3340538305095215,-2.5288928190814417,6.0988865969474695,1.0205342769622803,-2.828104082738058
1708435230.0495312,-2.1331160068511963,-1.3341149997762223,-2.5289767424212855,6.098617303162374,1.0205971002578735,-2.8270891348468226
1708435230.0515094,-2.1328725814819336,-1.3341599267772217,-2.529088799153463,6.09829472282485,1.02073073387146,-2.82603365579714
1708435230.053529,-2.132533311843872,-1.334136651163437,-2.5291596094714563,6.097971904068746,1.020800232887268,-2.825007740651266
1708435230.0555184,-2.132249116897583,-1.3342180711082001,-2.529193941746847,6.097626197129049,1.0209174156188965,-2.8240647951709192
1708435230.0575593,-2.1319327354431152,-1.3342379194549103,-2.5293815771686,6.0973031399543665,1.021051049232483,-2.82300836244692
1708435230.05953,-2.1316215991973877,-1.3342378747514267,-2.52943998972048,6.096846449166097,1.0211879014968872,-2.8219993750201624
1708435230.0615008,-2.1313109397888184,-1.3343180429986496,-2.5295782724963587,6.096536624222555,1.0212631225585938,-2.821061436329977
1708435230.0635326,-2.1309664249420166,-1.3342829954675217,-2.529663387929098,6.096136319428243,1.0214327573776245,-2.820024315510885
1708435230.0655015,-2.1306729316711426,-1.3343964380076905,-2.529801670704977,6.095774876862325,1.0215696096420288,-2.819009844456808
1708435230.067535,-2.1302356719970703,-1.3344039779952546,-2.5298929850207728,6.095372068672933,1.021714210510254,-2.8180015722857874
1708435230.0695274,-2.129868745803833,-1.3344488155892869,-2.5300052801715296,6.094884145050802,1.0218490362167358,-2.8169918696032923
1708435230.0714977,-2.1294939517974854,-1.3345325005105515,-2.530111853276388,6.094558822899618,1.0220054388046265,-2.8159964720355433
1708435230.0735242,-2.129099130630493,-1.334547520881035,-2.530262056981222,6.094155537873068,1.0221993923187256,-2.8150444666491907
1708435230.075518,-2.1286914348602295,-1.33461149156604,-2.5303850809680384,6.093680488854208,1.0223225355148315,-2.813960138951437
1708435230.077499,-2.1283457279205322,-1.3346463304809113,-2.5304434935199183,6.093233573227682,1.0224955081939697,-2.812997881566183
1708435230.0795093,-2.127894401550293,-1.3347070974162598,-2.530593458806173,6.092799770623007,1.0225778818130493,-2.8120062986956995
1708435230.0815096,-2.1275243759155273,-1.3348529648831864,-2.5307372252093714,6.09231590011672,1.0227882862091064,-2.8109987417804163
1708435230.0835204,-2.1270227432250977,-1.3349129420569916,-2.5308454672442835,6.091792809754171,1.0229116678237915,-2.810063425694601
1708435230.0855415,-2.1265382766723633,-1.3349029135755082,-2.531001154576437,6.091282832413473,1.0230873823165894,-2.8091047445880335
1708435230.0875268,-2.1261184215545654,-1.335011975174286,-2.5311618486987513,6.090752708702841,1.023296594619751,-2.808178726826803
1708435230.0895092,-2.1256308555603027,-1.3350509119084855,-2.5313177744494837,6.090229499131002,1.0235190391540527,-2.807237211857931
1708435230.0915248,-2.125171661376953,-1.3351749789765854,-2.531457010899679,6.089720952301779,1.0237146615982056,-2.8063462416278284
1708435230.0935273,-2.1247215270996094,-1.3352793169072648,-2.5316746870623987,6.089219915657797,1.0238823890686035,-2.805419985448019
1708435230.095527,-2.124230146408081,-1.3352812093547364,-2.531806294118063,6.088712918549337,1.0240209102630615,-2.804483954106466
1708435230.097515,-2.1236727237701416,-1.335389958029129,-2.5319698492633265,6.088141071587362,1.0242645740509033,-2.8036261240588587
1708435230.0995321,-2.1232049465179443,-1.3355140399983902,-2.532079283391134,6.0875998614128015,1.0244734287261963,-2.8027406374560755
1708435230.101498,-2.122657537460327,-1.3355368834785004,-2.5323014895068567,6.087018477707662,1.0246444940567017,-2.8019469420062464
1708435230.1035435,-2.1221094131469727,-1.3356400293162842,-2.5324602762805384,6.086489426880636,1.0248818397521973,-2.801084343587057
1708435230.1055465,-2.121614933013916,-1.3357725602439423,-2.532665793095724,6.085894095688619,1.0250730514526367,-2.800238911305563
1708435230.107507,-2.1210341453552246,-1.3359129887870331,-2.5327842871295374,6.085238802223959,1.0253266096115112,-2.799436871205465
1708435230.1095023,-2.120492696762085,-1.3360130202821274,-2.5330212751971644,6.084657656937399,1.0255310535430908,-2.7986374537097376
1708435230.1115086,-2.119886636734009,-1.3361204725554963,-2.5332372824298304,6.083947169571676,1.025762677192688,-2.7978790442096155
1708435230.1135197,-2.119300603866577,-1.336308778529503,-2.533438030873434,6.0833297846610925,1.02601957321167,-2.7970567385302942
1708435230.1155136,-2.1187005043029785,-1.336363048558571,-2.533670488988058,6.082752573281088,1.026239037513733,-2.796276871358053
1708435230.1175418,-2.11808705329895,-1.3365314316800614,-2.533858124409811,6.082118499069967,1.0264885425567627,-2.7955589930163782
1708435230.1195104,-2.117455244064331,-1.3366660636714478,-2.5340543429004114,6.0814024088676355,1.0267003774642944,-2.794799868260519
1708435230.1215143,-2.116800308227539,-1.3367782843163987,-2.5342958609210413,6.08070062378005,1.0269771814346313,-2.794133011494772
1708435230.1235244,-2.1161580085754395,-1.3369650405696412,-2.534534279500143,6.079974162369528,1.0272983312606812,-2.7933641115771692
1708435230.1255116,-2.115410327911377,-1.3371296238950272,-2.534750286732809,6.079236256867208,1.0276036262512207,-2.792685333882467
1708435230.1275263,-2.114717960357666,-1.3372922253659745,-2.5350216070758265,6.078543770104208,1.0279043912887573,-2.791989866887228
1708435230.1295073,-2.113982677459717,-1.3374732595733185,-2.5352795759784144,6.077895867615499,1.0281764268875122,-2.7913549582110804
1708435230.1315284,-2.113243579864502,-1.3376392734101792,-2.535456720982687,6.077169406204977,1.0285025835037231,-2.7906556765185755
1708435230.1335034,-2.1124801635742188,-1.3377790463021775,-2.535691801701681,6.076374518662252,1.0287415981292725,-2.790009323750631
1708435230.135502,-2.1117372512817383,-1.3379506778768082,-2.535936419163839,6.075616943627157,1.0290778875350952,-2.789391581212179
1708435230.1375043,-2.110963821411133,-1.3381685626557847,-2.5362542311297815,6.074920642166891,1.0293858051300049,-2.7886984984027308
1708435230.1395102,-2.1101341247558594,-1.3383677464774628,-2.536480728779928,6.0740582821662805,1.0296865701675415,-2.7880995909320276
1708435230.1415086,-2.1093688011169434,-1.3384635013392945,-2.5368180910693567,6.073241698532858,1.030043125152588,-2.787520710621969
1708435230.1435359,-2.108471393585205,-1.3386890155128022,-2.5370987097369593,6.072351324349203,1.0303796529769897,-2.786940876637594
1708435230.1455307,-2.1076056957244873,-1.3389042180827637,-2.537476364766256,6.071564423828878,1.0307852029800415,-2.7863078753100794
1708435230.1476057,-2.106757640838623,-1.3391388815692444,-2.537705961857931,6.070723759918966,1.0311415195465088,-2.7857132593738
1708435230.1495433,-2.1058828830718994,-1.3393750202706833,-2.538067404423849,6.06978868225173,1.0315184593200684,-2.785194460545675
1708435230.1515408,-2.1049513816833496,-1.3394753199866791,-2.5383179823504847,6.068917619972982,1.0319209098815918,-2.7845919767962855
1708435230.1535366,-2.104046106338501,-1.3397516769221802,-2.5386417547809046,6.0680274842079065,1.0322564840316772,-2.7841041723834437
1708435230.1555362,-2.10310959815979,-1.3400420111468812,-2.5390332380877894,6.067160594254293,1.032629370689392,-2.7835686842547815
1708435230.1575334,-2.1021504402160645,-1.3402314943126221,-2.5393102804767054,6.0661871311958215,1.0330184698104858,-2.7830470244037073
1708435230.159527,-2.101126194000244,-1.3404378604939957,-2.5397124926196497,6.065209495812216,1.0334675312042236,-2.7825680414782923
1708435230.161518,-2.100133180618286,-1.3407847744277497,-2.5400541464435022,6.0643091080482385,1.0339181423187256,-2.7821159998523157
1708435230.1635165,-2.0990829467773438,-1.3410340261510392,-2.5404112974749964,6.063356506615438,1.034436821937561,-2.7816641966449183
1708435230.1655097,-2.0980489253997803,-1.3412940961173554,-2.5407875219928187,6.062429415970602,1.034794807434082,-2.7811840216266077
1708435230.1675065,-2.097034454345703,-1.3415647608092804,-2.541121784840719,6.061336743622579,1.0352855920791626,-2.7807560602771204
1708435230.1695104,-2.0959513187408447,-1.3418476295522233,-2.5415149370776575,6.060250985413351,1.0357050895690918,-2.7803154627429407
1708435230.1715157,-2.0948092937469482,-1.3421432834914704,-2.541910950337545,6.059267985611715,1.0361586809158325,-2.779975239430563
1708435230.1735086,-2.093740224838257,-1.3424331110766907,-2.542384926472799,6.058202969818868,1.036661148071289,-2.779567066823141
1708435230.1755219,-2.0925543308258057,-1.3427109730294724,-2.542776171361105,6.0571056483085535,1.0371378660202026,-2.779181782399313
1708435230.1775122,-2.0914418697357178,-1.3430847090533753,-2.5431512037860315,6.0559884188468835,1.0376017093658447,-2.7788639704333704
1708435230.1795156,-2.090217113494873,-1.3433792305043717,-2.543612782155172,6.054946172028341,1.0380830764770508,-2.7785280386554163
1708435230.1815407,-2.0889832973480225,-1.3437094253352662,-2.5439868609057825,6.05376027801589,1.0386226177215576,-2.778163019810812
1708435230.183536,-2.087803840637207,-1.344031111603119,-2.544436279927389,6.052612769394674,1.039147138595581,-2.777870480214254
1708435230.185546,-2.0866079330444336,-1.3443583858064194,-2.5449417273150843,6.051410424500265,1.0396713018417358,-2.777600351964132
1708435230.1875176,-2.0853078365325928,-1.3447351318648835,-2.5453811327563685,6.050158846169271,1.040266752243042,-2.7773640791522425
1708435230.1895142,-2.0840439796447754,-1.345080242758133,-2.5458129088031214,6.048889744072714,1.04081130027771,-2.7771361509906214
1708435230.1915357,-2.082770586013794,-1.345446528201439,-2.546295706425802,6.04765950420455,1.041331171989441,-2.7768383661853235
1708435230.1935086,-2.0814273357391357,-1.345863254075386,-2.5467565695392054,6.046503889351644,1.0419243574142456,-2.7766035238849085
1708435230.1955085,-2.080108880996704,-1.3462264847806473,-2.547231737767355,6.045243370323934,1.0425273180007935,-2.7763755957232874
1708435230.1975307,-2.078810930252075,-1.3466285926154633,-2.54771858850588,6.043925392418661,1.0430418252944946,-2.776163164769308
1708435230.199515,-2.077434778213501,-1.3469588321498414,-2.548243586217062,6.042743432312765,1.043652892112732,-2.7759881655322474
1708435230.2015085,-2.076111078262329,-1.3473238360932847,-2.5487399736987513,6.0414477465446375,1.0443083047866821,-2.7757719198810022
1708435230.2035275,-2.074681520462036,-1.3477721077254792,-2.5493128935443323,6.040088641434469,1.044886827468872,-2.775567118321554
1708435230.2055073,-2.073230028152466,-1.3482369047454377,-2.549807373677389,6.0387624380882166,1.045450210571289,-2.775459591542379
1708435230.207549,-2.071841239929199,-1.3486312490752717,-2.5503702799426478,6.037465798645773,1.0461311340332031,-2.7753568331347864
1708435230.2095425,-2.0703258514404297,-1.3489677470973511,-2.5508883635150355,6.036069500237264,1.0466853380203247,-2.7752485910998743
1708435230.2115335,-2.068847417831421,-1.3494313669255753,-2.5514121691333216,6.0346563933189294,1.0472559928894043,-2.7750967184649866
1708435230.2135189,-2.0673561096191406,-1.3498376619866868,-2.552042309437887,6.033275949745931,1.0478636026382446,-2.774987761174337
1708435230.2155163,-2.065798044204712,-1.3503060054830094,-2.552551809941427,6.031888234406271,1.0485637187957764,-2.774916712437765
1708435230.2175035,-2.0642788410186768,-1.350710616712906,-2.5531650225268763,6.030512320786276,1.0492329597473145,-2.7748194376574915
1708435230.222482,-2.0626983642578125,-1.351193444137909,-2.5537400881396692,6.029124486237325,1.0499104261398315,-2.7747836748706263
1708435230.2235303,-2.059436321258545,-1.352138341670372,-2.554904047642843,6.026154267578878,1.0511866807937622,-2.7747533957110804
1708435230.2255118,-2.057807683944702,-1.352610395555832,-2.5554829279529017,6.024688589363851,1.0518505573272705,-2.774778429661886
1708435230.2275193,-2.0561447143554688,-1.3531008523753663,-2.556049648915426,6.023176896363058,1.0525537729263306,-2.774830166493551
1708435230.2295125,-2.0545082092285156,-1.3535742175630112,-2.5567124525653284,6.021707045822897,1.0533106327056885,-2.7748292128192347
1708435230.2315357,-2.052826166152954,-1.3540962797454377,-2.5573599974261683,6.0201371786888025,1.054064154624939,-2.7749179045306605
1708435230.233537,-2.051079750061035,-1.3545819830945511,-2.5579782168017786,6.018456804543295,1.05487060546875,-2.775001827870504
1708435230.2355518,-2.0492734909057617,-1.3551582258990784,-2.558629814778463,6.016892778664388,1.0556443929672241,-2.775156323109762
1708435230.237539,-2.047578811645508,-1.3556338560632248,-2.55929404893984,6.015314090042867,1.0563673973083496,-2.775210205708639
1708435230.2395325,-2.0458667278289795,-1.3561574232629319,-2.559889618550436,6.013792264252462,1.0571248531341553,-2.7753029505359095
1708435230.2415128,-2.04408597946167,-1.3567353349975129,-2.560516659413473,6.012125599175253,1.0578964948654175,-2.775403086339132
1708435230.2435436,-2.0422885417938232,-1.3572992545417328,-2.5612011591540735,6.010566222458639,1.058611273765564,-2.7755802313434046
1708435230.2455328,-2.040452241897583,-1.3578235518983384,-2.56189471880068,6.008876073151388,1.0594258308410645,-2.7757373491870325
1708435230.2475557,-2.038601875305176,-1.3583972466043015,-2.5624869505511683,6.007075536042013,1.0602575540542603,-2.7758329550372522
1708435230.249523,-2.0367493629455566,-1.358963818555214,-2.5632012526141565,6.005407678871908,1.0611076354980469,-2.7759767214404505
1708435230.2515075,-2.0348987579345703,-1.3596243125251313,-2.56389290491213,6.003697979241171,1.061794400215149,-2.776165787373678
1708435230.2535665,-2.032984495162964,-1.3601523053697129,-2.5645626227008265,6.001955497055807,1.0626252889633179,-2.776386086140768
1708435230.2555172,-2.031096935272217,-1.360819624071457,-2.565284077321188,6.00017141082839,1.063456416130066,-2.7766338030444544
1708435230.2575269,-2.0292394161224365,-1.3614168179086228,-2.5660060087787073,5.998440730362692,1.0643057823181152,-2.776921812688009
1708435230.2595122,-2.027282238006592,-1.3619280022433777,-2.566782061253683,5.996630775719442,1.0650734901428223,-2.7772398630725306
1708435230.2615256,-2.0252978801727295,-1.3626618695310135,-2.5674806276904505,5.9948476431663416,1.0659408569335938,-2.77749210992922
1708435230.263523,-2.023343324661255,-1.3632747393897553,-2.5681873003589075,5.993025409966268,1.0667990446090698,-2.7778518835650843
1708435230.2655053,-2.0214085578918457,-1.3639083963683625,-2.568887535725729,5.991130697518148,1.0676765441894531,-2.7782300154315394
1708435230.2675066,-2.0193679332733154,-1.3645186585238953,-2.569677178059713,5.989230620651998,1.068490982055664,-2.778529230748312
1708435230.269499,-2.0172929763793945,-1.3652089846185227,-2.5703776518451136,5.987237441330709,1.0694421529769897,-2.778907362614767
1708435230.2715,-2.0152089595794678,-1.3658218544772645,-2.5711548964129847,5.985352861672201,1.0703234672546387,-2.7793236414538782
1708435230.2735243,-2.013155460357666,-1.3664822441390534,-2.5719733873950403,5.983471381455221,1.0711544752120972,-2.779658857976095
1708435230.2754986,-2.0110394954681396,-1.3671490413001557,-2.5726540724383753,5.981646168022909,1.0720429420471191,-2.780084196721212
1708435230.2775068,-2.008899688720703,-1.3677898210338135,-2.5734344164477747,5.979730713158407,1.072920560836792,-2.7804802099811
1708435230.279509,-2.006767511367798,-1.3685031694224854,-2.5741661230670374,5.977699982910909,1.0738264322280884,-2.780802313481466
1708435230.2815168,-2.0045664310455322,-1.3691579562476655,-2.5749219099627894,5.975685345917501,1.074703335762024,-2.7813366095172327
1708435230.2835214,-2.002434492111206,-1.369818852548935,-2.5757256189929407,5.973739373474874,1.0756566524505615,-2.7817888895617884
1708435230.2855039,-2.0001542568206787,-1.3705448371222992,-2.576592508946554,5.971748816757955,1.0765973329544067,-2.78233510652651
1708435230.2875092,-1.997958779335022,-1.3712071043303986,-2.577355925236837,5.969753491669454,1.0775210857391357,-2.782822910939352
1708435230.289508,-1.9957531690597534,-1.3719304961017151,-2.5781131426440638,5.967828500061788,1.0784133672714233,-2.78333551088442
1708435230.2914944,-1.9935004711151123,-1.3726405066302796,-2.578942362462179,5.9658695338066,1.0793427228927612,-2.7838755289660853
1708435230.293529,-1.9912749528884888,-1.3732770693353196,-2.5797551313983362,5.963881122856893,1.0802311897277832,-2.7844041029559534
1708435230.2955058,-1.989102840423584,-1.37394833684478,-2.580510918294088,5.961913215904989,1.0810755491256714,-2.7849274317370813
1708435230.2975159,-1.986879825592041,-1.374680907731392,-2.5813279787646692,5.95998631694869,1.081915259361267,-2.785504404698507
1708435230.2994974,-1.9846222400665283,-1.3753633213094254,-2.5820820967303675,5.957946288376608,1.0828298330307007,-2.786105457936422
1708435230.3015428,-1.9823837280273438,-1.3760792326978226,-2.5828686396228235,5.955947863846578,1.083665132522583,-2.786640469227926
1708435230.303526,-1.980168104171753,-1.3767201465419312,-2.5836804548846644,5.95392798164443,1.0845391750335693,-2.7872145811664026
1708435230.3055184,-1.9779820442199707,-1.377475844030716,-2.5844503084765833,5.951866256981649,1.08538818359375,-2.7878149191485804
1708435230.3075073,-1.9757581949234009,-1.3781627428582688,-2.5852161089526575,5.94990490654067,1.0863090753555298,-2.7883504072772425
1708435230.30953,-1.9735890626907349,-1.3788325202516098,-2.5860236326800745,5.94795190074996,1.0872212648391724,-2.7888453642474573
1708435230.3115067,-1.9713963270187378,-1.3794987511685868,-2.5868292490588587,5.945929515152731,1.0881266593933105,-2.789434258137838
1708435230.3135116,-1.969187617301941,-1.3802383852056046,-2.5876367727862757,5.943906533509054,1.0889875888824463,-2.789969507847921
1708435230.3155212,-1.9670239686965942,-1.3809706580689927,-2.5884273687945765,5.941859710007467,1.089909553527832,-2.7904797236071985
1708435230.3175175,-1.9648460149765015,-1.3815865975669404,-2.589231793080465,5.939904677658834,1.0907779932022095,-2.7910223642932337
1708435230.319515,-1.9626214504241943,-1.3823275429061432,-2.5900355021106165,5.937957274704733,1.0916374921798706,-2.7916274706469935
1708435230.3215082,-1.960465669631958,-1.382992373113968,-2.590801779423849,5.935946094780721,1.0925381183624268,-2.7921107451068323
1708435230.3235092,-1.9583146572113037,-1.3837440323880692,-2.591611925755636,5.933945047646322,1.0934717655181885,-2.7926674524890345
1708435230.325496,-1.956128478050232,-1.384519801740982,-2.5923698584186,5.931942212372579,1.0943517684936523,-2.79325515428652
1708435230.32751,-1.9539095163345337,-1.3852357131293793,-2.593205992375509,5.92990659454421,1.095210313796997,-2.793774191533224
1708435230.3295026,-1.9516501426696777,-1.3859989059022446,-2.5939396063434046,5.9278732416923425,1.0961116552352905,-2.7942402998553675
1708435230.331508,-1.9495551586151123,-1.3866470766118546,-2.5947275797473353,5.925789582520284,1.0969834327697754,-2.7948551813708704
1708435230.3334966,-1.9473330974578857,-1.3874400568059464,-2.595539633427755,5.923823821335592,1.0978705883026123,-2.7953909079181116
1708435230.3355358,-1.9450995922088623,-1.3881212782910843,-2.596292797719137,5.921787130623617,1.0987906455993652,-2.7959633509265345
1708435230.3375368,-1.9429295063018799,-1.388830454354622,-2.597062889729635,5.919842588692465,1.0996427536010742,-2.796554152165548
1708435230.3395104,-1.9407169818878174,-1.389619232421257,-2.5978415648089808,5.917849647789755,1.1006377935409546,-2.7970946470843714
1708435230.341501,-1.9385309219360352,-1.3903291833451767,-2.5986743609057825,5.915863978653707,1.1014715433120728,-2.797643009816305
1708435230.3435016,-1.936352252960205,-1.3910849255374451,-2.5994444529162806,5.913900482445516,1.1024407148361206,-2.798173491154806
1708435230.3455384,-1.9341151714324951,-1.3917383563569565,-2.6001833120929163,5.9119160054023645,1.1032923460006714,-2.7988067309008997
1708435230.3475583,-1.931915521621704,-1.3924565923265,-2.6009822527514856,5.9099159119422815,1.1041924953460693,-2.799281183873312
1708435230.3495824,-1.9297209978103638,-1.3931349229863663,-2.6017475763904017,5.9079251168067834,1.1050947904586792,-2.799786631261007
1708435230.3515363,-1.9275413751602173,-1.3939191114953537,-2.6025074164019983,5.905915605812826,1.1059718132019043,-2.800375763569967
1708435230.3535607,-1.925313115119934,-1.3945875626853486,-2.603302542363302,5.903983461647787,1.106855869293213,-2.800927225743429
1708435230.3555238,-1.9231798648834229,-1.3952623319676896,-2.604090754185812,5.902013289719381,1.1076838970184326,-2.801451031361715
1708435230.357555,-1.920964241027832,-1.3960267913392563,-2.604901138936178,5.900066602021017,1.1085598468780518,-2.802039448414938
1708435230.3595383,-1.9188123941421509,-1.3966984760812302,-2.6055975596057337,5.898053157120504,1.1093918085098267,-2.8025534788714808
1708435230.3615398,-1.9165972471237183,-1.397381291990616,-2.6064110437976282,5.896043884545126,1.1101964712142944,-2.803154532109396
1708435230.3635423,-1.9143754243850708,-1.3980592501214524,-2.607182566319601,5.893958198815145,1.1109750270843506,-2.8036933580981653
1708435230.3655074,-1.9121803045272827,-1.3988084209016343,-2.6079776922809046,5.891931164055624,1.1118699312210083,-2.8043344656573694
1708435230.3675156,-1.9099845886230469,-1.3995024871877213,-2.6087821165667933,5.8899632571037195,1.1127511262893677,-2.804918352757589
1708435230.3695107,-1.907793402671814,-1.4001926493695755,-2.609514300023214,5.888022410660543,1.1136729717254639,-2.8055012861834925
1708435230.3715165,-1.905612587928772,-1.4009000223926087,-2.610309902821676,5.8860357878501794,1.1146011352539062,-2.8060696760760706
1708435230.3735578,-1.9034473896026611,-1.4015664619258423,-2.611086908970968,5.884090411454,1.1155604124069214,-2.806594435368673
1708435230.3755145,-1.9012222290039062,-1.4022563260844727,-2.611910645161764,5.882066476136007,1.1164430379867554,-2.80721623102297
1708435230.3775697,-1.8989973068237305,-1.4029812973788758,-2.612663809453146,5.8800463555152795,1.117396593093872,-2.8078790346728724
1708435230.379537,-1.896743893623352,-1.4035937649062653,-2.6134188810931605,5.8780802367027185,1.1183140277862549,-2.808338228856222
1708435230.3815403,-1.8945480585098267,-1.404349611406662,-2.6142426172839563,5.876056182175436,1.1191661357879639,-2.808901850377218
1708435230.383548,-1.8923333883285522,-1.4050353181413193,-2.61507755914797,5.874103295594015,1.1200777292251587,-2.8093767801867884
1708435230.3855116,-1.8900641202926636,-1.4057140213302155,-2.61582857767214,5.8721563694770715,1.1210156679153442,-2.8099449316607874
1708435230.3875535,-1.8878238201141357,-1.4064579469016572,-2.6166353861438196,5.870141017227926,1.121941328048706,-2.810594145451681
1708435230.3895166,-1.885610580444336,-1.4071838718703766,-2.6173647085772913,5.868120062142172,1.1228338479995728,-2.811166588460104
1708435230.3915331,-1.8833622932434082,-1.4078893226436158,-2.618204895650045,5.866191971092977,1.1236770153045654,-2.811676804219381
1708435230.3935387,-1.8811776638031006,-1.4086409223130723,-2.618976895009176,5.86410819271163,1.1245625019073486,-2.812151018773214
1708435230.3955078,-1.878975510597229,-1.4092922073653718,-2.6197684446917933,5.862124788552084,1.125443696975708,-2.812723938618795
1708435230.397537,-1.8768004179000854,-1.4099902969649811,-2.620556418095724,5.860108244210043,1.1263188123703003,-2.813242499028341
1708435230.399519,-1.874646544456482,-1.410726473932602,-2.621350351964132,5.8580912230308435,1.1272408962249756,-2.81385308900942
1708435230.4015481,-1.872456669807434,-1.411408008342125,-2.6221781412707728,5.856090295105734,1.128138780593872,-2.8143649736987513
1708435230.4035296,-1.8702627420425415,-1.4121108812144776,-2.6229808966266077,5.8540533659751794,1.129010796546936,-2.814918820058004
1708435230.4055166,-1.868042230606079,-1.4127647441676636,-2.6236770788775843,5.85204433181838,1.1299294233322144,-2.8154943625079554
1708435230.4075189,-1.8658826351165771,-1.4134753358415146,-2.624547068272726,5.850027072220602,1.1307837963104248,-2.816054169331686
1708435230.4095192,-1.8636807203292847,-1.4142486316016694,-2.6253159681903284,5.8480673907096765,1.1316848993301392,-2.816545073186056
1708435230.4115186,-1.8614802360534668,-1.4149675530246277,-2.6261232534991663,5.846053826599874,1.1326055526733398,-2.817056719456808
1708435230.4135368,-1.8592778444290161,-1.415623129611351,-2.626951281224386,5.844136702805319,1.133561611175537,-2.8176091353045862
1708435230.4155073,-1.8571103811264038,-1.4163598877242585,-2.627677027379171,5.8422433016593835,1.1343953609466553,-2.818173948918478
1708435230.4174898,-1.8549655675888062,-1.4171043795398255,-2.628462616597311,5.840282428055563,1.1352652311325073,-2.8187130133258265
1708435230.4195461,-1.8527175188064575,-1.4178990882686158,-2.6293237845050257,5.838255989342489,1.1360926628112793,-2.81925613084902
