Eg3-git/Classifiers/Data Collection/u2/u2www3_ur3e_joint_states.csv
time,elbow_joint,shoulder_lift_joint,shoulder_pan_joint,wrist_1_joint,wrist_2_joint,wrist_3_joint
1708435163.9173274,-2.161407709121704,-1.338816450243332,-2.5225687662707728,6.156421887665548,1.0097672939300537,-2.566484038029806
1708435163.919315,-2.161442279815674,-1.3388529133847733,-2.522601906453268,6.1563769457633875,1.0097553730010986,-2.5664928595172327
1708435163.9213283,-2.161374807357788,-1.3388002675822754,-2.522547785435812,6.156412946968832,1.0097627639770508,-2.5664849917041224
1708435163.9233575,-2.161412000656128,-1.3388609153083344,-2.522559706364767,6.156384694367208,1.0097672939300537,-2.566488567982809
1708435163.9252934,-2.1614253520965576,-1.3388327074101944,-2.522576157246725,6.156417357712545,1.0097390413284302,-2.5665584246264856
1708435163.927349,-2.161383867263794,-1.3388284605792542,-2.522559706364767,6.156409966736593,1.0097390413284302,-2.566488567982809
1708435163.929301,-2.161412000656128,-1.3388399940780182,-2.5225687662707728,6.156417357712545,1.0097672939300537,-2.5665674845324915
1708435163.931309,-2.161442279815674,-1.3388890785029908,-2.5225117842303675,6.156372535019674,1.0097750425338745,-2.5664973894702356
1708435163.9333463,-2.1614606380462646,-1.3388284754804154,-2.522576157246725,6.156450378685751,1.0097509622573853,-2.566561524068014
1708435163.9353187,-2.161428928375244,-1.3388694685748597,-2.522559706364767,6.156450378685751,1.0097750425338745,-2.5665422121631067
1708435163.9373333,-2.161482095718384,-1.338824064736702,-2.522543255482809,6.15639208534316,1.0097750425338745,-2.566495958958761
1708435163.9393086,-2.1614041328430176,-1.338839979176857,-2.5225852171527308,6.156417357712545,1.0098003149032593,-2.56657058397402
1708435163.9413087,-2.1614582538604736,-1.338832677607872,-2.5225897471057337,6.156421887665548,1.0097957849502563,-2.566512409840719
1708435163.9433346,-2.161412000656128,-1.3388609153083344,-2.522510353718893,6.156434047013082,1.0098048448562622,-2.566608254109518
1708435163.945403,-2.161367893218994,-1.3388327074101944,-2.5225358645068567,6.156445967942037,1.0098003149032593,-2.566587511693136
1708435163.9473534,-2.161435842514038,-1.338832677607872,-2.5225358645068567,6.156401026039877,1.0097750425338745,-2.566561524068014
1708435163.9493232,-2.161374807357788,-1.3388326925090333,-2.522576157246725,6.156393635063925,1.009791374206543,-2.566594902669088
1708435163.9513297,-2.1614537239074707,-1.3388164651444932,-2.5225523153888147,6.156450378685751,1.0098152160644531,-2.5666163603412073
1708435163.9533236,-2.161437749862671,-1.3388326925090333,-2.5225942770587366,6.1563769457633875,1.009803295135498,-2.566582981740133
1708435163.9553347,-2.161428928375244,-1.3388370138457795,-2.5225613752948206,6.1564262984092615,1.0097957849502563,-2.5665982405291956
1708435163.9573097,-2.161379337310791,-1.3388565343669434,-2.5225568453418177,6.156398045807638,1.0098122358322144,-2.5665891806231897
1708435163.9593391,-2.1614537239074707,-1.3388164353421708,-2.522601906453268,6.156435239105978,1.0097706317901611,-2.5665982405291956
1708435163.9613068,-2.1614041328430176,-1.3388122630170365,-2.5225687662707728,6.156447398453512,1.0098211765289307,-2.566624943410055
1708435163.9633706,-2.161403179168701,-1.3388443750194092,-2.522562567387716,6.156430709152975,1.0097750425338745,-2.5666385332690638
1708435163.9653187,-2.161416530609131,-1.338820756678917,-2.522592846547262,6.1564262984092615,1.009779453277588,-2.566580359135763
1708435163.9673383,-2.1614041328430176,-1.3388284754804154,-2.522576157246725,6.156389224320211,1.0098240375518799,-2.5666800181018274
1708435163.9693048,-2.1614468097686768,-1.3388240200332184,-2.5225732962237757,6.156390297203817,1.0097988843917847,-2.566625181828634
1708435163.971322,-2.1613545417785645,-1.3388207715800782,-2.522580687199728,6.156347143441,1.0097824335098267,-2.566634003316061
1708435163.9733386,-2.161428928375244,-1.3388356876424332,-2.5225687662707728,6.1564262984092615,1.0098501443862915,-2.5666592756854456
1708435163.9753184,-2.1613881587982178,-1.3388443750194092,-2.52260929742922,6.156360614090719,1.0098285675048828,-2.5666592756854456
1708435163.977348,-2.161379337310791,-1.3388326925090333,-2.5225732962237757,6.156451928406515,1.0097824335098267,-2.5666430632220667
1708435163.9793096,-2.161433458328247,-1.3388370138457795,-2.522531334553854,6.1563769457633875,1.0098152160644531,-2.566580359135763
1708435163.9813046,-2.161433458328247,-1.3388564896634598,-2.522531334553854,6.156438576966085,1.0098276138305664,-2.566657845173971
1708435163.9833314,-2.161421060562134,-1.3388399940780182,-2.52256423631777,6.156435239105978,1.0098152160644531,-2.566587750111715
1708435163.9853072,-2.1614041328430176,-1.3388478469899674,-2.522606436406271,6.156438576966085,1.0098061561584473,-2.566620651875631
1708435163.9873385,-2.1614606380462646,-1.3388609302094956,-2.522531334553854,6.156438576966085,1.009803295135498,-2.566641394292013
1708435163.989321,-2.161395311355591,-1.338828445678093,-2.522601906453268,6.156456339150228,1.0098366737365723,-2.566662375126974
1708435163.9913144,-2.161424398422241,-1.3388651472381135,-2.522550646458761,6.156365024834432,1.0098105669021606,-2.566662375126974
1708435163.9933612,-2.161433458328247,-1.3388609302094956,-2.522576157246725,6.156414377480306,1.0097852945327759,-2.566732947026388
1708435163.9953222,-2.161428928375244,-1.338832677607872,-2.5225687662707728,6.156402575760641,1.0098105669021606,-2.566662375126974
1708435163.9973288,-2.161444902420044,-1.3388002079776307,-2.522547785435812,6.1563947079475305,1.0097942352294922,-2.566657845173971
1708435163.9993093,-2.161424398422241,-1.3387922954610367,-2.522592846547262,6.156368005066671,1.0098395347595215,-2.566678587590353
1708435164.0013175,-2.161379337310791,-1.3388284009746094,-2.522580687199728,6.156390297203817,1.0098469257354736,-2.566664997731344
1708435164.0033703,-2.1614537239074707,-1.3388529580882569,-2.522592846547262,6.156442987709799,1.0098061561584473,-2.566629473363058
1708435164.0053535,-2.161407709121704,-1.3388651472381135,-2.522576157246725,6.156344163208761,1.0098514556884766,-2.5666733423816126
1708435164.0073507,-2.161424398422241,-1.338812233214714,-2.52260929742922,6.156401026039877,1.0098425149917603,-2.5666940847979944
1708435164.0093284,-2.161433458328247,-1.3388326925090333,-2.52256423631777,6.156380164414205,1.009835124015808,-2.566664997731344
1708435164.0113134,-2.161437749862671,-1.338832677607872,-2.522576157246725,6.156398045807638,1.009889006614685,-2.5666821638690394
1708435164.0133853,-2.1614086627960205,-1.338774935608246,-2.522592846547262,6.156393635063925,1.0098469257354736,-2.5666940847979944
1708435164.015319,-2.161428928375244,-1.3388565641692658,-2.522601906453268,6.156442987709799,1.0098636150360107,-2.5666776339160364
1708435164.0173218,-2.161412000656128,-1.338824064736702,-2.522580687199728,6.156406986504354,1.0098711252212524,-2.5666733423816126
1708435164.0192955,-2.161416530609131,-1.338832677607872,-2.522588316594259,6.1563947079475305,1.0098665952682495,-2.5666895548449915
1708435164.0213094,-2.161372423171997,-1.338844360118248,-2.52260929742922,6.156390297203817,1.0098711252212524,-2.5667060057269495
1708435164.0233073,-2.161374807357788,-1.3388609302094956,-2.5225897471057337,6.1563769457633875,1.0098963975906372,-2.5667195955859583
1708435164.0253239,-2.161421060562134,-1.3388444048217316,-2.522613827382223,6.156439769058981,1.009904146194458,-2.5667884985553187
1708435164.0273366,-2.161435842514038,-1.338808850651123,-2.5225792566882532,6.156381356507101,1.009899616241455,-2.566721502934591
1708435164.0293303,-2.161383867263794,-1.3388412606767197,-2.522601906453268,6.15635763385848,1.0099117755889893,-2.5667014757739466
1708435164.0313268,-2.1614041328430176,-1.3388529133847733,-2.522583786641256,6.156442987709799,1.0099163055419922,-2.5666924158679407
1708435164.0333304,-2.161379337310791,-1.338844360118248,-2.5225852171527308,6.156398045807638,1.0099117755889893,-2.566734854375021
1708435164.035326,-2.1613996028900146,-1.3387916100076218,-2.522580687199728,6.156381356507101,1.0099371671676636,-2.5666969458209437
1708435164.0373325,-2.1614298820495605,-1.3388772022775193,-2.52263051668276,6.156393635063925,1.0099085569381714,-2.5667224566089075
1708435164.0393186,-2.161379337310791,-1.3388609898141404,-2.522583786641256,6.156389224320211,1.0098950862884521,-2.566742245350973
1708435164.041319,-2.161390781402588,-1.3388399344733735,-2.52260929742922,6.156435239105978,1.0098861455917358,-2.5667179266559046
1708435164.0436764,-2.161416530609131,-1.3388522577336808,-2.5226169268237513,6.156393635063925,1.009899616241455,-2.5666969458209437
1708435164.045353,-2.161416530609131,-1.3388813895038147,-2.522625986729757,6.156409966736593,1.009948968887329,-2.5667088667498987
1708435164.047312,-2.161442279815674,-1.3388284754804154,-2.522592846547262,6.156398045807638,1.0099208354949951,-2.566725794469015
1708435164.049315,-2.161428928375244,-1.3388164800456543,-2.522597376500265,6.156384575157919,1.0099326372146606,-2.566734854375021
1708435164.0512981,-2.161412000656128,-1.3388001930764695,-2.52260929742922,6.156414377480306,1.0099163055419922,-2.5667088667498987
1708435164.0533576,-2.1614491939544678,-1.3388486069491883,-2.52260929742922,6.156423318177023,1.009899616241455,-2.566762987767355
1708435164.055327,-2.161412000656128,-1.3388250780156632,-2.5225957075702112,6.156414377480306,1.0099073648452759,-2.566699806843893
1708435164.0573442,-2.1614582538604736,-1.3388251078179856,-2.52256423631777,6.156442987709799,1.009899616241455,-2.5667014757739466
1708435164.0593183,-2.161444902420044,-1.3388609451106568,-2.522559706364767,6.156451928406515,1.0099281072616577,-2.566733185444967
1708435164.0613174,-2.161379337310791,-1.338872791533806,-2.522576157246725,6.156409966736593,1.0099400281906128,-2.566749636326925
1708435164.0633426,-2.161407709121704,-1.3388857704452057,-2.522576157246725,6.156406986504354,1.009985327720642,-2.566763226185934
1708435164.065312,-2.161407709121704,-1.338819758301117,-2.522637907658712,6.156381356507101,1.009968638420105,-2.566728655491964
1708435164.0673347,-2.161437749862671,-1.338848592048027,-2.5226169268237513,6.156430709152975,1.0099475383758545,-2.566766087208883
1708435164.0693028,-2.161416530609131,-1.3388284754804154,-2.5225792566882532,6.156393635063925,1.009910225868225,-2.5667131582843226
1708435164.0713325,-2.1613881587982178,-1.3388121736100693,-2.522651497517721,6.156435239105978,1.0099430084228516,-2.566725794469015
1708435164.07334,-2.161433458328247,-1.3388132464936753,-2.522592846547262,6.156339752465048,1.0099763870239258,-2.566754166279928
1708435164.0752904,-2.161412000656128,-1.3388240200332184,-2.5225747267352503,6.156414377480306,1.0099475383758545,-2.566725794469015
1708435164.0773172,-2.161390781402588,-1.3388565343669434,-2.5225942770587366,6.156336772232809,1.0099763870239258,-2.566742245350973
1708435164.0793028,-2.161437749862671,-1.3388002228787919,-2.522558037434713,6.156398045807638,1.0099507570266724,-2.566734854375021
1708435164.0812871,-2.161407709121704,-1.3388651323369523,-2.522604767476217,6.156423318177023,1.0099507570266724,-2.566687885914938
1708435164.0833266,-2.1614253520965576,-1.3388197433999558,-2.5225957075702112,6.156356084137716,1.009985327720642,-2.566733423863546
1708435164.0853095,-2.161367893218994,-1.3388240349343796,-2.5225792566882532,6.156442987709799,1.0099629163742065,-2.566784207020895
1708435164.0873096,-2.161395311355591,-1.3388413202813645,-2.5226362387286585,6.156484710961141,1.0100091695785522,-2.566746775303976
1708435164.089296,-2.161444902420044,-1.3388413202813645,-2.5226197878467005,6.156389224320211,1.0100045204162598,-2.566742245350973
1708435164.0913432,-2.1614253520965576,-1.3388522279313584,-2.5225704352008265,6.156409966736593,1.0099748373031616,-2.566734854375021
1708435164.09332,-2.161412000656128,-1.3388284605792542,-2.5226498285876673,6.156423318177023,1.0100001096725464,-2.566784207020895
1708435164.0952997,-2.161395311355591,-1.338816450243332,-2.5225866476642054,6.156323420792379,1.0100046396255493,-2.566767756138937
1708435164.0973198,-2.161395311355591,-1.3388651621392746,-2.522600237523214,6.156402575760641,1.0099583864212036,-2.566728655491964
1708435164.0993218,-2.161433458328247,-1.3388565343669434,-2.522604767476217,6.156409966736593,1.0100167989730835,-2.566758696232931
1708435164.1012955,-2.1614253520965576,-1.3388694834760209,-2.5226123968707483,6.156372535019674,1.0099674463272095,-2.5667088667498987
1708435164.103328,-2.161421060562134,-1.338804469709732,-2.5226169268237513,6.156406986504354,1.0099748373031616,-2.566733185444967
1708435164.105307,-2.161444902420044,-1.3388572049191971,-2.5226526896106165,6.156385886460104,1.0099674463272095,-2.566742245350973
1708435164.1073108,-2.161433458328247,-1.3387836527875443,-2.5225866476642054,6.156439769058981,1.0099583864212036,-2.566733423863546
1708435164.109296,-2.161428928375244,-1.3388443750194092,-2.5225957075702112,6.156365024834432,1.0100287199020386,-2.566678826008932
1708435164.1112947,-2.161428928375244,-1.338844360118248,-2.522600237523214,6.156414377480306,1.009983777999878,-2.566730324422018
1708435164.1133618,-2.161416530609131,-1.3388890039971848,-2.52265435854067,6.156390297203817,1.0100034475326538,-2.5666924158679407
1708435164.115322,-2.1613881587982178,-1.3388240945390244,-2.5226662794696253,6.156339752465048,1.0100486278533936,-2.5667224566089075
1708435164.1173086,-2.161442279815674,-1.3388443750194092,-2.5226333777057093,6.156402575760641,1.009995698928833,-2.5667133967029017
1708435164.119327,-2.161412000656128,-1.3388370138457795,-2.5226288477527063,6.156402575760641,1.0100153684616089,-2.566742245350973
1708435164.121317,-2.161412000656128,-1.3388326627067109,-2.5226243177997034,6.156344163208761,1.0100317001342773,-2.566767756138937
1708435164.1233144,-2.161428928375244,-1.3388443899205704,-2.5226107279406946,6.156382787018575,1.0100034475326538,-2.566766087208883
1708435164.1253033,-2.161416530609131,-1.3388045144132157,-2.5226648489581507,6.156435358315267,1.00999116897583,-2.566767756138937
1708435164.1273038,-2.1613590717315674,-1.3387915951064606,-2.5226152578936976,6.156423318177023,1.0100078582763672,-2.566721502934591
1708435164.1292996,-2.1614537239074707,-1.3388122034123917,-2.5226078669177454,6.156398045807638,1.0100197792053223,-2.5667558352099817
1708435164.1313028,-2.161416530609131,-1.3388772171786805,-2.5226903597461146,6.156385886460104,1.0099703073501587,-2.566767756138937
1708435164.1333215,-2.161416530609131,-1.3388369989446183,-2.5226407686816614,6.156372535019674,1.0100531578063965,-2.566758696232931
1708435164.1353023,-2.1614086627960205,-1.3388609898141404,-2.5226648489581507,6.156380164414205,1.0100361108779907,-2.566762987767355
1708435164.1373303,-2.161433458328247,-1.3388154369643708,-2.522700850163595,6.156384694367208,1.0100123882293701,-2.566733423863546
1708435164.1392887,-2.161424398422241,-1.338795931344368,-2.5226903597461146,6.156360614090719,1.0100270509719849,-2.566725794469015
1708435164.1412911,-2.1614606380462646,-1.3388369542411347,-2.5226812998401087,6.156459319382467,1.0100361108779907,-2.566754166279928
1708435164.1433308,-2.161416530609131,-1.3388370138457795,-2.52268892923464,6.156439769058981,1.0100123882293701,-2.566801134740011
1708435164.1453338,-2.161379337310791,-1.3388565343669434,-2.5226677099811,6.156423318177023,1.0100270509719849,-2.566762987767355
1708435164.1473587,-2.161412000656128,-1.3387959909490128,-2.522672239934103,6.156414377480306,1.010040521621704,-2.5667603651629847
1708435164.1493485,-2.161395311355591,-1.338881404404976,-2.5227201620685022,6.156409966736593,1.0100486278533936,-2.56676155725588
1708435164.1513479,-2.161390781402588,-1.3388565343669434,-2.522742811833517,6.156423318177023,1.0100977420806885,-2.566751305256979
1708435164.1533363,-2.161433458328247,-1.3388207715800782,-2.522696320210592,6.156423318177023,1.0100270509719849,-2.566796604787008
1708435164.1553123,-2.1613996028900146,-1.3388078224710007,-2.5227156321154993,6.156389224320211,1.0100136995315552,-2.5667393843280237
1708435164.1573348,-2.161383867263794,-1.338832677607872,-2.522745911275045,6.156398045807638,1.0100361108779907,-2.566725794469015
1708435164.1593428,-2.1613996028900146,-1.338865191941597,-2.522691790257589,6.156389224320211,1.0099867582321167,-2.5667088667498987
1708435164.1613133,-2.161416530609131,-1.3388616305640717,-2.522696320210592,6.156373965531149,1.010048747062683,-2.5667267481433313
1708435164.163338,-2.1613881587982178,-1.3388413202813645,-2.522708241139547,6.156381356507101,1.0100034475326538,-2.5666895548449915
1708435164.1653497,-2.161424398422241,-1.3388443750194092,-2.522729221974508,6.1563769457633875,1.0100396871566772,-2.566751305256979
1708435164.1673386,-2.161433458328247,-1.3388164353421708,-2.522729221974508,6.156369554787435,1.0100560188293457,-2.5667088667498987
1708435164.1693296,-2.161372423171997,-1.3388356578401108,-2.5227232615100306,6.1563947079475305,1.0100287199020386,-2.5667088667498987
1708435164.1713102,-2.161428928375244,-1.338865191941597,-2.5227156321154993,6.15640555599288,1.0100486278533936,-2.5667179266559046
1708435164.173326,-2.161428928375244,-1.338812233214714,-2.5227156321154993,6.156442987709799,1.0100153684616089,-2.566767756138937
1708435164.1753473,-2.161428928375244,-1.3387915951064606,-2.522729221974508,6.156418907433309,1.010030746459961,-2.566704336796896
1708435164.1773696,-2.161379337310791,-1.3388327223113556,-2.522724692021505,6.156439769058981,1.0100531578063965,-2.5667133967029017
1708435164.1793313,-2.161412000656128,-1.3388486367515107,-2.522729221974508,6.156356084137716,1.0100440979003906,-2.566730324422018
1708435164.18134,-2.161379337310791,-1.3388284605792542,-2.5227156321154993,6.156398045807638,1.0100531578063965,-2.5667014757739466
1708435164.1833832,-2.1613996028900146,-1.3387794357589264,-2.5227368513690394,6.1564262984092615,1.0100226402282715,-2.5666759649859827
1708435164.1853418,-2.161416530609131,-1.338848592048027,-2.5227156321154993,6.156418907433309,1.0100396871566772,-2.5667133967029017
1708435164.18735,-2.161383867263794,-1.338832677607872,-2.5227323214160364,6.156385886460104,1.0100270509719849,-2.5667558352099817
1708435164.1893215,-2.161395311355591,-1.3388486069491883,-2.522675339375631,6.1563769457633875,1.0100440979003906,-2.5667014757739466
1708435164.1913114,-2.1614696979522705,-1.3388207715800782,-2.52271277109255,6.156423318177023,1.0100470781326294,-2.566725794469015
1708435164.1933353,-2.161383867263794,-1.338824064736702,-2.522696320210592,6.156414377480306,1.010048747062683,-2.5667393843280237
1708435164.1953132,-2.161412000656128,-1.3388284605792542,-2.522708241139547,6.156360614090719,1.0100470781326294,-2.566683594380514
1708435164.1973374,-2.161421060562134,-1.3388641339591523,-2.5227037111865442,6.156381356507101,1.010048747062683,-2.5667267481433313
1708435164.199322,-2.161424398422241,-1.3387829524329682,-2.5226991812335413,6.156385886460104,1.0099973678588867,-2.566751305256979
1708435164.2013233,-2.1613881587982178,-1.3388326925090333,-2.5227368513690394,6.156418907433309,1.010006308555603,-2.5666969458209437
1708435164.2033257,-2.1614537239074707,-1.3388486069491883,-2.5227037111865442,6.156385886460104,1.0100107192993164,-2.566767756138937
1708435164.205322,-2.161395311355591,-1.3388652366450806,-2.5227037111865442,6.156418907433309,1.0100034475326538,-2.5667179266559046
1708435164.2073278,-2.161428928375244,-1.338839979176857,-2.5227037111865442,6.156398045807638,1.0100317001342773,-2.5667558352099817
1708435164.2093096,-2.161428928375244,-1.3388326627067109,-2.5227037111865442,6.156390297203817,1.010040521621704,-2.566734854375021
1708435164.2113042,-2.161395311355591,-1.3388479065946122,-2.5227788130389612,6.1564262984092615,1.0100270509719849,-2.5667393843280237
1708435164.2133124,-2.161421060562134,-1.3388326925090333,-2.5227535406695765,6.156417357712545,1.0100531578063965,-2.5666895548449915
1708435164.215337,-2.161367893218994,-1.3388326478055497,-2.522724692021505,6.156372535019674,1.0100440979003906,-2.5666940847979944
1708435164.2173398,-2.161416530609131,-1.3388121885112305,-2.522675339375631,6.156414377480306,1.010048747062683,-2.5667014757739466
1708435164.2193317,-2.161421060562134,-1.338844360118248,-2.522700850163595,6.156390297203817,1.010069489479065,-2.566671673451559
1708435164.2213113,-2.161433458328247,-1.338812233214714,-2.52271277109255,6.15640555599288,1.010030746459961,-2.5667224566089075
1708435164.2233238,-2.161428928375244,-1.3387915951064606,-2.522738281880514,6.156385886460104,1.0100977420806885,-2.5666940847979944
1708435164.2253172,-2.161407709121704,-1.338839979176857,-2.522729221974508,6.156417357712545,1.0099899768829346,-2.5667360464679163
1708435164.2273269,-2.161367893218994,-1.338812233214714,-2.522679869328634,6.156335222512045,1.0100361108779907,-2.5666640440570276
1708435164.2293353,-2.161433458328247,-1.3388399344733735,-2.5226872603045862,6.156409966736593,1.0100440979003906,-2.566667143498556
1708435164.2313085,-2.161421060562134,-1.3388771724751969,-2.5226991812335413,6.156402575760641,1.0100650787353516,-2.5667060057269495
1708435164.2333214,-2.1614468097686768,-1.3388486069491883,-2.5227413813220423,6.156385886460104,1.010048747062683,-2.5667312780963343
1708435164.2353144,-2.161444902420044,-1.3388609302094956,-2.5227201620685022,6.156384694367208,1.0100317001342773,-2.5666804949389856
1708435164.2373247,-2.161442279815674,-1.338824064736702,-2.5226662794696253,6.156442987709799,1.0100361108779907,-2.5667269865619105
1708435164.2393255,-2.161442279815674,-1.3388326627067109,-2.5226782003985804,6.156406986504354,1.0100531578063965,-2.5667060057269495
1708435164.241322,-2.1614625453948975,-1.3388727766326447,-2.522696320210592,6.156398045807638,1.0100576877593994,-2.5667014757739466
1708435164.2433527,-2.1614625453948975,-1.3388370138457795,-2.522729221974508,6.156406986504354,1.0100361108779907,-2.5667031447040003
1708435164.245356,-2.161421060562134,-1.3388641339591523,-2.5227368513690394,6.156430709152975,1.0100406408309937,-2.5666759649859827
1708435164.2473438,-2.1614041328430176,-1.3388609302094956,-2.5226872603045862,6.156406986504354,1.0100396871566772,-2.5667105356799524
1708435164.2493393,-2.161395311355591,-1.338881404404976,-2.522691790257589,6.156409966736593,1.0100034475326538,-2.566659752522604
1708435164.2513547,-2.161437749862671,-1.3388326925090333,-2.522733751927511,6.156398045807638,1.0100270509719849,-2.5666561762439173
1708435164.2533648,-2.1613881587982178,-1.3388326925090333,-2.5227037111865442,6.156402575760641,1.0100107192993164,-2.5667150656329554
1708435164.2553515,-2.1614041328430176,-1.3388356429389496,-2.52271277109255,6.1563769457633875,1.0100270509719849,-2.5666516462909144
1708435164.2574322,-2.161444902420044,-1.3388900321773072,-2.5227111021624964,6.156418907433309,1.010060429573059,-2.5666731039630335
1708435164.2593439,-2.1614696979522705,-1.338839979176857,-2.52271277109255,6.156393635063925,1.0100153684616089,-2.5667148272143763
1708435164.2613337,-2.161421060562134,-1.3388413202813645,-2.522663180028097,6.1564262984092615,1.0100317001342773,-2.5666733423816126
1708435164.2633917,-2.161437749862671,-1.338824064736702,-2.522738281880514,6.156398045807638,1.0100531578063965,-2.5667031447040003
1708435164.2653198,-2.1613996028900146,-1.3388565343669434,-2.522724692021505,6.156414377480306,1.010048747062683,-2.5666852633105677
1708435164.2673306,-2.1614253520965576,-1.3388443750194092,-2.5227413813220423,6.15640555599288,1.0099990367889404,-2.566664997731344
1708435164.269307,-2.1614129543304443,-1.3388284605792542,-2.5227201620685022,6.156409966736593,1.0100197792053223,-2.5667031447040003
1708435164.27134,-2.1614086627960205,-1.3388338100961228,-2.5226991812335413,6.156435239105978,1.0100361108779907,-2.5666776339160364
1708435164.2733319,-2.1613881587982178,-1.3388370138457795,-2.5227413813220423,6.156356084137716,1.0100270509719849,-2.5666986147509974
1708435164.2753181,-2.161363363265991,-1.3388443750194092,-2.522729221974508,6.156414377480306,1.0100241899490356,-2.5666821638690394
1708435164.277334,-2.1614491939544678,-1.3388572347215195,-2.5227201620685022,6.156365024834432,1.0100361108779907,-2.5666776339160364
1708435164.2793224,-2.1614537239074707,-1.338881404404976,-2.5226872603045862,6.156360614090719,1.0100197792053223,-2.566657845173971
1708435164.2813134,-2.161416530609131,-1.338839979176857,-2.5226708094226282,6.156409966736593,1.0100361108779907,-2.5666235128985804
1708435164.283319,-2.161416530609131,-1.3388486069491883,-2.522696320210592,6.156389224320211,1.0100575685501099,-2.566695753728048
1708435164.285311,-2.161379337310791,-1.338824064736702,-2.522675339375631,6.1563546536262415,1.009995698928833,-2.566665236149923
1708435164.2873354,-2.161383867263794,-1.3388284605792542,-2.52271277109255,6.156411397248068,1.0099585056304932,-2.566662375126974
1708435164.2893023,-2.161412000656128,-1.3388111156276246,-2.522658650075094,6.156353223114767,1.0100287199020386,-2.566691223775045
1708435164.2912996,-2.161412000656128,-1.3388326925090333,-2.522700850163595,6.156418907433309,1.010040521621704,-2.566634003316061
1708435164.2933629,-2.1614491939544678,-1.3388486069491883,-2.522705380116598,6.156360614090719,1.0100034475326538,-2.5666821638690394
1708435164.295309,-2.161379337310791,-1.3388565343669434,-2.522700850163595,6.156430709152975,1.0100034475326538,-2.566662375126974
1708435164.2973502,-2.161367893218994,-1.338812233214714,-2.522672239934103,6.156414377480306,1.0100153684616089,-2.566691223775045
1708435164.299323,-2.1613996028900146,-1.338824064736702,-2.522679869328634,6.156402575760641,1.0100034475326538,-2.566657845173971
1708435164.3013346,-2.161379337310791,-1.338824064736702,-2.522663180028097,6.156353223114767,1.009995698928833,-2.566657845173971
1708435164.3033462,-2.161433458328247,-1.3388651621392746,-2.522696320210592,6.156385886460104,1.0100001096725464,-2.5666220823871058
1708435164.3053389,-2.161379337310791,-1.3388486069491883,-2.522705380116598,6.156432258873739,1.00999116897583,-2.566617552434103
1708435164.3073485,-2.161379337310791,-1.3388529133847733,-2.522684399281637,6.156398045807638,1.010045051574707,-2.5665722529040735
1708435164.3093357,-2.161416530609131,-1.3388284605792542,-2.52268892923464,6.156435239105978,1.009995698928833,-2.566650454198019
1708435164.311322,-2.1613996028900146,-1.3388002228787919,-2.5226708094226282,6.156402575760641,1.0099748373031616,-2.566662375126974
1708435164.3135889,-2.161442279815674,-1.338897631769516,-2.52272612253298,6.156362044602194,1.00999116897583,-2.566601339970724
1708435164.3153348,-2.161437749862671,-1.338816450243332,-2.522649590169088,6.156390297203817,1.0100033283233643,-2.5666831175433558
1708435164.3173265,-2.161421060562134,-1.3388207715800782,-2.522684399281637,6.156341302185812,1.009995698928833,-2.566580359135763
1708435164.3193262,-2.161437749862671,-1.3388694834760209,-2.522693459187643,6.156365024834432,1.0099629163742065,-2.566650454198019
1708435164.3213418,-2.161421060562134,-1.3388486069491883,-2.5226677099811,6.156348573952474,1.0099385976791382,-2.5666666666613978
1708435164.3233635,-2.1614298820495605,-1.3388572347215195,-2.522721830998556,6.156373965531149,1.0100167989730835,-2.5666220823871058
1708435164.325312,-2.161428928375244,-1.338808850651123,-2.5226677099811,6.1563007710273645,1.0099881887435913,-2.5666385332690638
1708435164.3273273,-2.161433458328247,-1.3388890039971848,-2.522696320210592,6.156362044602194,1.0100123882293701,-2.566608730946676
1708435164.3293161,-2.161437749862671,-1.3388609302094956,-2.5226481596576136,6.156400668412008,1.0100123882293701,-2.5666056315051478
1708435164.3313553,-2.161416530609131,-1.3388284605792542,-2.522630278264181,6.156314122467794,1.009983777999878,-2.566634003316061
1708435164.3333406,-2.161442279815674,-1.3388002228787919,-2.522597376500265,6.156309711724081,1.0100046396255493,-2.566629473363058
1708435164.335341,-2.161363363265991,-1.3388609302094956,-2.5226812998401087,6.156318533211508,1.009963035583496,-2.566641394292013
1708435164.3373225,-2.161390781402588,-1.338839979176857,-2.5226812998401087,6.156290042191305,1.0099793672561646,-2.566641394292013
1708435164.3393188,-2.161374807357788,-1.3388088953546067,-2.5226677099811,6.156290042191305,1.0099674463272095,-2.5666711966144007
1708435164.3412955,-2.1614739894866943,-1.3387872737697144,-2.5226677099811,6.1563230631645105,1.0099551677703857,-2.5666056315051478
1708435164.3433568,-2.161374807357788,-1.3388284605792542,-2.5226767698871058,6.156223165779867,1.009920597076416,-2.5666428248034876
1708435164.345322,-2.161363363265991,-1.3388565343669434,-2.522705380116598,6.156306731491842,1.0099763870239258,-2.566634003316061
1708435164.3473525,-2.161433458328247,-1.338839979176857,-2.5226677099811,6.156294452935018,1.009946346282959,-2.566662375126974
1708435164.349347,-2.161407709121704,-1.338796691303589,-2.522705380116598,6.15627812126235,1.0099763870239258,-2.566601339970724
1708435164.3513157,-2.161416530609131,-1.3388002228787919,-2.5226603190051478,6.156275141030111,1.0099384784698486,-2.5666847864734095
1708435164.3532991,-2.161412000656128,-1.338812233214714,-2.522663180028097,6.156302201538839,1.0099507570266724,-2.566650454198019
1708435164.3553128,-2.161374807357788,-1.3388651621392746,-2.522679869328634,6.156249868660726,1.0099430084228516,-2.566601339970724
1708435164.3573241,-2.1613996028900146,-1.3388975423625489,-2.522634569798605,6.156257378845968,1.0099340677261353,-2.5666027704821985
1708435164.3593457,-2.161395311355591,-1.3387959909490128,-2.522672239934103,6.1562421200569055,1.009926676750183,-2.566629473363058
1708435164.361291,-2.161395311355591,-1.338881404404976,-2.5226767698871058,6.156257378845968,1.0099763870239258,-2.5666473547564905
1708435164.363315,-2.1614086627960205,-1.3388370138457795,-2.522672239934103,6.156270611077108,1.009931206703186,-2.5666385332690638
1708435164.365316,-2.1614041328430176,-1.3388529133847733,-2.5226436297046106,6.156361686974325,1.0099763870239258,-2.566620651875631
1708435164.3673315,-2.161376714706421,-1.3388565343669434,-2.5226603190051478,6.156311142235555,1.0099551677703857,-2.566601339970724
1708435164.3693416,-2.161437749862671,-1.338812233214714,-2.5226603190051478,6.156332003861227,1.0099927186965942,-2.5665767828570765
1708435164.3713062,-2.1614253520965576,-1.3388572347215195,-2.522693459187643,6.1562737105186365,1.009968638420105,-2.566634003316061
1708435164.37333,-2.1614582538604736,-1.3388529133847733,-2.522663180028097,6.156282532006063,1.009914755821228,-2.566596810017721
1708435164.375315,-2.161442279815674,-1.3388078224710007,-2.5226693789111536,6.1562737105186365,1.0099430084228516,-2.5666428248034876
1708435164.377308,-2.161412000656128,-1.3388284605792542,-2.5226526896106165,6.156315552979269,1.0099881887435913,-2.5666266123401087
1708435164.3792932,-2.161374807357788,-1.3387915951064606,-2.5226317087756556,6.156257378845968,1.009902834892273,-2.5666757265674036
1708435164.3813245,-2.1613972187042236,-1.3387959909490128,-2.5226107279406946,6.156261789589681,1.0099596977233887,-2.566596810017721
1708435164.3832989,-2.161437749862671,-1.338850037460663,-2.5226407686816614,6.156257378845968,1.0099356174468994,-2.5666056315051478
1708435164.3853192,-2.161421060562134,-1.3388694834760209,-2.5226078669177454,6.156285512238302,1.009926676750183,-2.5666385332690638
1708435164.3873072,-2.1614253520965576,-1.3388900321773072,-2.522621456776754,6.156285512238302,1.0099400281906128,-2.5666146914111536
1708435164.3893237,-2.1614253520965576,-1.338881404404976,-2.5226288477527063,6.1562960026557825,1.0099809169769287,-2.566589419041769
1708435164.3913383,-2.1613996028900146,-1.3388313365033646,-2.522600237523214,6.1562691805656335,1.009919285774231,-2.5666428248034876
1708435164.3933175,-2.1613881587982178,-1.338848577146866,-2.5226498285876673,6.156249868660726,1.0099475383758545,-2.5665813128100794
1708435164.3953404,-2.161367893218994,-1.3388284605792542,-2.5225911776172083,6.156195986061849,1.009926676750183,-2.566617552434103
1708435164.3973258,-2.161395311355591,-1.3388737899116059,-2.5226169268237513,6.156286942749777,1.0099687576293945,-2.5666638056384485
1708435164.399319,-2.161383867263794,-1.3388443750194092,-2.522576157246725,6.156294452935018,1.0099117755889893,-2.5666101614581507
1708435164.401344,-2.1613881587982178,-1.3388413202813645,-2.5226169268237513,6.156228768616476,1.0099356174468994,-2.5666266123401087
1708435164.403332,-2.161379337310791,-1.3388572347215195,-2.522571627293722,6.156282532006063,1.0098861455917358,-2.566634003316061
1708435164.4053273,-2.161416530609131,-1.3388207715800782,-2.52260929742922,6.156275141030111,1.0099148750305176,-2.5666266123401087
1708435164.4073148,-2.161437749862671,-1.338881404404976,-2.522580687199728,6.15624092796401,1.0099281072616577,-2.5666728655444544
1708435164.4093132,-2.1613996028900146,-1.3388207715800782,-2.522588316594259,6.156294452935018,1.0099029541015625,-2.566601339970724
1708435164.4113362,-2.161442279815674,-1.338848592048027,-2.522529904042379,6.156275141030111,1.009968638420105,-2.566601339970724
1708435164.4133432,-2.161421060562134,-1.3388034862330933,-2.522567097340719,6.156224238663473,1.0099519491195679,-2.566601339970724
1708435164.4153285,-2.161416530609131,-1.3388529133847733,-2.5225852171527308,6.156233179360189,1.009926676750183,-2.566601339970724
1708435164.4173367,-2.161383867263794,-1.338816450243332,-2.522555176411764,6.156261789589681,1.009931206703186,-2.5666521231280726
1708435164.419325,-2.1614298820495605,-1.3388370138457795,-2.522534195576803,6.156249868660726,1.0099775791168213,-2.5665767828570765
1708435164.4213333,-2.1614582538604736,-1.3388486069491883,-2.522580687199728,6.156249868660726,1.0099775791168213,-2.5666192213641565
1708435164.4233363,-2.1614298820495605,-1.3387960505536576,-2.522555176411764,6.156224238663473,1.0099444389343262,-2.5666428248034876
1708435164.4253066,-2.161433458328247,-1.3388250929168244,-2.522601906453268,6.156286942749777,1.0099103450775146,-2.5666192213641565
1708435164.4273245,-2.1614468097686768,-1.338839979176857,-2.522559706364767,6.156286942749777,1.0099642276763916,-2.5665858427630823
1708435164.4293118,-2.1614253520965576,-1.338824064736702,-2.522580687199728,6.156282532006063,1.0099356174468994,-2.5666521231280726
1708435164.431313,-2.161437749862671,-1.3388782006553193,-2.522567097340719,6.156257378845968,1.009919285774231,-2.566584889088766
1708435164.4333305,-2.1614086627960205,-1.3388370138457795,-2.522600237523214,6.156258809357443,1.0099029541015625,-2.5665558020221155
1708435164.4353042,-2.1614253520965576,-1.338872717028,-2.522562567387716,6.156237590103903,1.0099444389343262,-2.5666220823871058
1708435164.437334,-2.161433458328247,-1.3388616305640717,-2.522630278264181,6.15625427940444,1.0098906755447388,-2.5666030089007776
1708435164.4393015,-2.1613926887512207,-1.3388413202813645,-2.522546116505758,6.1562421200569055,1.0099642276763916,-2.5665858427630823
1708435164.4412882,-2.1613857746124268,-1.3388078224710007,-2.5225792566882532,6.156282532006063,1.0099281072616577,-2.5666428248034876
1708435164.4433365,-2.161372423171997,-1.3387872737697144,-2.522637907658712,6.156237590103903,1.0099444389343262,-2.5665982405291956
1708435164.4453487,-2.1614468097686768,-1.3388326925090333,-2.52260929742922,6.156266200333395,1.0099444389343262,-2.5666192213641565
1708435164.447356,-2.1614253520965576,-1.3388486069491883,-2.522559706364767,6.156233179360189,1.0099356174468994,-2.5666146914111536
1708435164.4493842,-2.161363363265991,-1.3388565343669434,-2.522642437611715,6.1562960026557825,1.0099029541015625,-2.5666101614581507
1708435164.4513223,-2.161383867263794,-1.3388250929168244,-2.522580687199728,6.156258809357443,1.0099356174468994,-2.5665937105761927
1708435164.4533322,-2.161379337310791,-1.338816450243332,-2.522543255482809,6.1562795517738245,1.0099356174468994,-2.5665903727160853
1708435164.4553182,-2.161367893218994,-1.3388370138457795,-2.5226033369647425,6.156245457917013,1.009931206703186,-2.5666101614581507
1708435164.457361,-2.1613881587982178,-1.3388356578401108,-2.522555176411764,6.156263220101156,1.0099029541015625,-2.5665982405291956
1708435164.4593177,-2.1613996028900146,-1.3388651621392746,-2.522562567387716,6.156250941544332,1.009968638420105,-2.5665512720691126
1708435164.4613159,-2.161379337310791,-1.3388326925090333,-2.522571627293722,6.156237590103903,1.0099281072616577,-2.5665558020221155
1708435164.4633322,-2.161367893218994,-1.3388078224710007,-2.522571627293722,6.156258809357443,1.009926676750183,-2.5665858427630823
1708435164.4653182,-2.161367893218994,-1.3388002228787919,-2.522559706364767,6.156258809357443,1.0099444389343262,-2.5666237513171595
1708435164.46731,-2.161363363265991,-1.3388045144132157,-2.522600237523214,6.156209456711569,1.0099519491195679,-2.5665937105761927
1708435164.4693139,-2.161367893218994,-1.3387794357589264,-2.52260929742922,6.156188475876608,1.0099400281906128,-2.5665937105761927
1708435164.47133,-2.161379337310791,-1.338775025015213,-2.522559706364767,6.156275141030111,1.0099608898162842,-2.5665767828570765
1708435164.473344,-2.1614086627960205,-1.3388284307769318,-2.522597376500265,6.156204926758566,1.0099444389343262,-2.5666027704821985
1708435164.475332,-2.1614086627960205,-1.3387794357589264,-2.522571627293722,6.156246530800619,1.0099563598632812,-2.5665982405291956
1708435164.4773562,-2.1613972187042236,-1.3388356578401108,-2.522571627293722,6.1563079235847376,1.0099444389343262,-2.5665858427630823
1708435164.4793258,-2.1614041328430176,-1.3387915951064606,-2.522604767476217,6.156188595085897,1.0099281072616577,-2.5665434042560022
1708435164.4813135,-2.161360025405884,-1.3388572347215195,-2.522580687199728,6.1562421200569055,1.0098984241485596,-2.5665739218341272
1708435164.4833436,-2.1613926887512207,-1.3388284754804154,-2.52255088487734,6.156263220101156,1.0099475383758545,-2.5666356722461146
1708435164.485314,-2.1614129543304443,-1.338816450243332,-2.52260929742922,6.156246530800619,1.0099117755889893,-2.5666146914111536
1708435164.4873579,-2.1613881587982178,-1.3388694834760209,-2.5225957075702112,6.156237590103903,1.009931206703186,-2.5666399637805384
1708435164.4893146,-2.161395311355591,-1.338850037460663,-2.522571627293722,6.156258809357443,1.0099281072616577,-2.5666473547564905
1708435164.4913151,-2.161433458328247,-1.3388207715800782,-2.522604767476217,6.156263220101156,1.0099519491195679,-2.5666282812701624
1708435164.4933288,-2.161381244659424,-1.3388250929168244,-2.522642437611715,6.1562421200569055,1.009931206703186,-2.5665693918811243
1708435164.4953082,-2.1613972187042236,-1.338770718579628,-2.52260929742922,6.15625427940444,1.0099444389343262,-2.566566054021017
1708435164.4973314,-2.161442279815674,-1.3387794208577652,-2.522588316594259,6.1562421200569055,1.0099608898162842,-2.5666192213641565
1708435164.4993124,-2.1614086627960205,-1.3388326925090333,-2.522583786641256,6.156193005829611,1.0099356174468994,-2.5666120688067835
1708435164.5013297,-2.1613972187042236,-1.3388284605792542,-2.52260929742922,6.156258809357443,1.0099563598632812,-2.5665903727160853
1708435164.5033126,-2.1614041328430176,-1.3387749952128907,-2.522600237523214,6.156288492470541,1.0099519491195679,-2.566556994115011
1708435164.5053263,-2.1614344120025635,-1.3388413202813645,-2.5226078669177454,6.15623019912795,1.0099029541015625,-2.5665739218341272
1708435164.5073237,-2.161383867263794,-1.3388694834760209,-2.522583786641256,6.156263220101156,1.0099356174468994,-2.5665858427630823
1708435164.5093014,-2.1613972187042236,-1.3387959611466904,-2.5226078669177454,6.15625427940444,1.0099117755889893,-2.56657845178713
1708435164.511299,-2.1614298820495605,-1.3388045293143769,-2.5226169268237513,6.15623019912795,1.0099444389343262,-2.5665903727160853
1708435164.513311,-2.1614298820495605,-1.3388207715800782,-2.5226169268237513,6.156209456711569,1.0099073648452759,-2.5665858427630823
1708435164.515323,-2.1614298820495605,-1.3388132762959977,-2.522567097340719,6.156209456711569,1.0099029541015625,-2.566582981740133
1708435164.5173213,-2.161376714706421,-1.3388782006553193,-2.522562567387716,6.156189667969503,1.0099103450775146,-2.5665739218341272
1708435164.5193129,-2.161442279815674,-1.3388486069491883,-2.5226288477527063,6.156209456711569,1.0099073648452759,-2.566587511693136
1708435164.5213084,-2.161372423171997,-1.3388457310250779,-2.5226123968707483,6.156213867455282,1.0099029541015625,-2.5665269533740442
1708435164.5233362,-2.161355495452881,-1.338808850651123,-2.5226243177997034,6.156193005829611,1.0099356174468994,-2.5665739218341272
1708435164.5253117,-2.1614298820495605,-1.3387880486300965,-2.522583786641256,6.156218278198995,1.0099356174468994,-2.5665693918811243
1708435164.5273097,-2.161367893218994,-1.338832677607872,-2.522600237523214,6.156249868660726,1.0099475383758545,-2.566561524068014
1708435164.5293477,-2.161372423171997,-1.3388443750194092,-2.522600237523214,6.15620635727004,1.009919285774231,-2.566537682210104
1708435164.531305,-2.161381244659424,-1.3388609302094956,-2.5226288477527063,6.156233179360189,1.0099148750305176,-2.56657845178713
1708435164.5333323,-2.161376714706421,-1.3388207864812394,-2.522646729146139,6.156234609871664,1.0099642276763916,-2.566516939793722
1708435164.5353146,-2.161376714706421,-1.3388370287469407,-2.522571627293722,6.156222688942709,1.009931206703186,-2.5665257612811487
1708435164.537332,-2.161372423171997,-1.3389062744430085,-2.5225911776172083,6.15620635727004,1.009926676750183,-2.566484038029806
1708435164.539321,-2.1613972187042236,-1.3388486069491883,-2.5226033369647425,6.156234609871664,1.0099384784698486,-2.5665064493762415
1708435164.5413117,-2.161437749862671,-1.3387959909490128,-2.5226288477527063,6.156177866249838,1.0099029541015625,-2.5665465036975306
1708435164.5433462,-2.1613926887512207,-1.338824064736702,-2.5226333777057093,6.156218278198995,1.0099596977233887,-2.56647760072817
1708435164.5453684,-2.1614468097686768,-1.3388045591166993,-2.522637907658712,6.156201946526327,1.009926676750183,-2.5665019194232386
1708435164.547364,-2.1614174842834473,-1.3388207715800782,-2.5226123968707483,6.1561763165290735,1.0099148750305176,-2.566482130681173
1708435164.5493023,-2.1613972187042236,-1.3388529133847733,-2.522567097340719,6.156263220101156,1.009931206703186,-2.5664640108691614
1708435164.5513034,-2.161442279815674,-1.3388164353421708,-2.5226078669177454,6.156209456711569,1.0099642276763916,-2.5664895216571253
1708435164.5533168,-2.1613688468933105,-1.338824064736702,-2.522642437611715,6.156189667969503,1.0099475383758545,-2.56647760072817
1708435164.5552971,-2.1613881587982178,-1.3388651621392746,-2.5226288477527063,6.1561763165290735,1.0099148750305176,-2.5664849917041224
1708435164.5573251,-2.1613857746124268,-1.338816450243332,-2.5226784388171595,6.156227218895712,1.009968638420105,-2.5664685408221644
1708435164.5592916,-2.1614174842834473,-1.3388457310250779,-2.522600237523214,6.156218278198995,1.0099519491195679,-2.5664568583117884
1708435164.5612907,-2.1613972187042236,-1.338816450243332,-2.5225911776172083,6.15624355056838,1.0099642276763916,-2.566536251698629
1708435164.5633183,-2.1613564491271973,-1.3388326925090333,-2.5226152578936976,6.156276571541586,1.0099029541015625,-2.5664895216571253
1708435164.5653079,-2.161381244659424,-1.3388370138457795,-2.5226243177997034,6.156194197922506,1.0099103450775146,-2.566461149846212
1708435164.5673664,-2.1614174842834473,-1.3388616305640717,-2.5225821177112024,6.156155454903402,1.009968638420105,-2.566498343144552
1708435164.5693433,-2.1613643169403076,-1.3388846677592774,-2.5226078669177454,6.156189667969503,1.0099775791168213,-2.5665302912341517
1708435164.5713341,-2.161355495452881,-1.3388250929168244,-2.5226333777057093,6.156231629639425,1.009968638420105,-2.5664909521686
1708435164.573321,-2.161381244659424,-1.3388207715800782,-2.5226169268237513,6.15618525722579,1.0099608898162842,-2.566486660634176
1708435164.5753195,-2.161360025405884,-1.3388370138457795,-2.5225778261767786,6.156182276993551,1.009931206703186,-2.5664239565478724
1708435164.5773482,-2.1613881587982178,-1.3387642216733475,-2.5226152578936976,6.156164395600118,1.0099400281906128,-2.5665155092822474
1708435164.5793095,-2.161376714706421,-1.3388737899116059,-2.5226078669177454,6.156201946526327,1.0099430084228516,-2.566465679799215
1708435164.5813227,-2.161381244659424,-1.338808850651123,-2.5226407686816614,6.1561975357826135,1.0099356174468994,-2.5664358774768274
1708435164.583313,-2.161376714706421,-1.338839979176857,-2.5226407686816614,6.156201946526327,1.0099475383758545,-2.5664191881762903
1708435164.585296,-2.161372423171997,-1.3388529133847733,-2.5226407686816614,6.156177866249838,1.0098938941955566,-2.5664940516101282
1708435164.5873165,-2.161360025405884,-1.338808835749962,-2.5226452986346644,6.156213867455282,1.0099475383758545,-2.566465679799215
1708435164.589301,-2.1613643169403076,-1.3388326925090333,-2.5226407686816614,6.156215297966757,1.009931206703186,-2.566465679799215
1708435164.5912988,-2.161381244659424,-1.338839979176857,-2.5226333777057093,6.156257021218099,1.009926676750183,-2.566449228917257
1708435164.5933504,-2.161381244659424,-1.3388326627067109,-2.5226197878467005,6.156222688942709,1.009880542755127,-2.566449228917257
1708435164.595307,-2.161381244659424,-1.3388326925090333,-2.5225988070117396,6.15614806392745,1.0099475383758545,-2.566498343144552
1708435164.5973287,-2.1614129543304443,-1.3388164800456543,-2.5226243177997034,6.156189667969503,1.009968638420105,-2.5665066877948206
1708435164.5993066,-2.1613643169403076,-1.3387879741242905,-2.5226152578936976,6.156222688942709,1.0099563598632812,-2.5664940516101282
1708435164.6013012,-2.1613900661468506,-1.3388164353421708,-2.5226481596576136,6.156231629639425,1.0099927186965942,-2.566502873097555
1708435164.6033688,-2.1613688468933105,-1.3387915355018158,-2.5226526896106165,6.156246530800619,1.0099642276763916,-2.566465679799215
1708435164.6053092,-2.161360025405884,-1.3387674254230042,-2.5226481596576136,6.156193005829611,1.009985327720642,-2.566482130681173
1708435164.6073344,-2.161360025405884,-1.3388572347215195,-2.5226243177997034,6.156215297966757,1.0099103450775146,-2.56645375887026
1708435164.6093354,-2.1613972187042236,-1.3387879592231293,-2.5226078669177454,6.156170356064596,1.0099642276763916,-2.566493813191549
1708435164.6113014,-2.161381244659424,-1.338808850651123,-2.5225988070117396,6.156189667969503,1.009931206703186,-2.5665000120746058
1708435164.6133697,-2.1613476276397705,-1.3387915951064606,-2.5226152578936976,6.156177866249838,1.0099730491638184,-2.566486422215597
1708435164.6153228,-2.1613643169403076,-1.338841290479042,-2.5226407686816614,6.15618525722579,1.0099596977233887,-2.566465679799215
1708435164.6173658,-2.161381244659424,-1.3388369989446183,-2.5226603190051478,6.156213867455282,1.0098817348480225,-2.5664730707751673
1708435164.6193063,-2.161381244659424,-1.3387716871551056,-2.5226572195636194,6.156231629639425,1.0099730491638184,-2.566441837941305
1708435164.6213531,-2.1613316535949707,-1.3388694834760209,-2.5226436297046106,6.156164395600118,1.0099475383758545,-2.56642991701235
1708435164.6233397,-2.1613857746124268,-1.3388651621392746,-2.5226452986346644,6.15621970871047,1.0099475383758545,-2.566444698964254
1708435164.6253238,-2.1613900661468506,-1.3388197433999558,-2.5226152578936976,6.156159984856405,1.0099730491638184,-2.566462580357687
1708435164.627351,-2.1613900661468506,-1.3388122481158753,-2.5225945154773157,6.1561763165290735,1.0099475383758545,-2.566465679799215
1708435164.6293075,-2.1613857746124268,-1.3388616305640717,-2.5226693789111536,6.156182276993551,1.009919285774231,-2.5664835611926478
1708435164.6313183,-2.1613643169403076,-1.3388326925090333,-2.5226362387286585,6.1561986086662195,1.0099775791168213,-2.566437307988302
1708435164.6333148,-2.1613476276397705,-1.338816450243332,-2.5226481596576136,6.156224238663473,1.0099475383758545,-2.566479031239645
1708435164.63534,-2.1613271236419678,-1.3388002079776307,-2.5226288477527063,6.156144845276632,1.009931206703186,-2.566437307988302
1708435164.6373155,-2.1614015102386475,-1.3387673211148758,-2.5226407686816614,6.156161534577169,1.0098938941955566,-2.566482130681173
1708435164.6393104,-2.1613733768463135,-1.3388284605792542,-2.5226526896106165,6.156144845276632,1.0099384784698486,-2.566446367894308
1708435164.6413105,-2.1614086627960205,-1.3388370138457795,-2.5226603190051478,6.156174886017599,1.0099430084228516,-2.5664284865008753
1708435164.643337,-2.1613991260528564,-1.338816450243332,-2.5226436297046106,6.156186687737264,1.0099596977233887,-2.566425387059347
1708435164.6453354,-2.1613476276397705,-1.338800237779953,-2.5226243177997034,6.156189667969503,1.0099563598632812,-2.566479031239645
1708435164.6473489,-2.1613900661468506,-1.3388207864812394,-2.5226812998401087,6.156179296761312,1.0099340677261353,-2.566425387059347
1708435164.6493237,-2.161376714706421,-1.3388131868890305,-2.5226197878467005,6.156182276993551,1.0099986791610718,-2.566462580357687
1708435164.651354,-2.1614105701446533,-1.3388285052827378,-2.5226243177997034,6.156231629639425,1.0099475383758545,-2.56642991701235
1708435164.653313,-2.1613688468933105,-1.3388207864812394,-2.5226271788226526,6.156195628433981,1.0099384784698486,-2.566413466130392
1708435164.6553168,-2.1613776683807373,-1.3388207715800782,-2.5226362387286585,6.156231629639425,1.0099430084228516,-2.5664330164538782
1708435164.6573458,-2.1613733768463135,-1.338812218313553,-2.5226243177997034,6.1561986086662195,1.009926676750183,-2.566437307988302
1708435164.6593215,-2.1613519191741943,-1.3388370287469407,-2.5226739088641565,6.156170356064596,1.0099730491638184,-2.566446367894308
1708435164.6613095,-2.161381244659424,-1.338850037460663,-2.5226739088641565,6.156186687737264,1.0099763870239258,-2.566462818776266
1708435164.6633315,-2.161381244659424,-1.3388250929168244,-2.5226739088641565,6.156174886017599,1.0099056959152222,-2.5664051214801233
1708435164.6653242,-2.1613643169403076,-1.3388250929168244,-2.5226362387286585,6.156174886017599,1.0099103450775146,-2.566462580357687
1708435164.6673446,-2.1613688468933105,-1.3387794357589264,-2.5226572195636194,6.156194197922506,1.0099642276763916,-2.566417996083395
1708435164.6693354,-2.1613316535949707,-1.3388413202813645,-2.5226693789111536,6.15619574764327,1.0099519491195679,-2.5664003531085413
1708435164.6713388,-2.1613857746124268,-1.3388529133847733,-2.5226526896106165,6.156161534577169,1.009919285774231,-2.5663870016681116
1708435164.673348,-2.1613564491271973,-1.3387631934932251,-2.5226152578936976,6.156128394394674,1.0099475383758545,-2.5664764086352747
1708435164.675341,-2.161306619644165,-1.3388659220984955,-2.5226362387286585,6.156174886017599,1.009926676750183,-2.5663912932025355
1708435164.6773703,-2.1613643169403076,-1.3387879741242905,-2.522622887288229,6.156177866249838,1.0099400281906128,-2.5664051214801233
1708435164.6793258,-2.1613564491271973,-1.338812233214714,-2.5226107279406946,6.156200158386984,1.009931206703186,-2.5664003531085413
1708435164.6813104,-2.1613361835479736,-1.3388207715800782,-2.5226648489581507,6.156212079315939,1.0099475383758545,-2.56641394296755
1708435164.683355,-2.1613643169403076,-1.3388326925090333,-2.5226736704455774,6.15611361244277,1.0099444389343262,-2.5663767496692103
1708435164.6853406,-2.1613733768463135,-1.338808835749962,-2.5226572195636194,6.156170356064596,1.0099356174468994,-2.566350046788351
1708435164.6873252,-2.1613564491271973,-1.3388327074101944,-2.5226078669177454,6.156121003418722,1.0099475383758545,-2.566340986882345
1708435164.689322,-2.1613495349884033,-1.3388486218503495,-2.5226317087756556,6.15615068653182,1.0099519491195679,-2.566381279622213
1708435164.6913257,-2.1613821983337402,-1.3388572347215195,-2.5226739088641565,6.156188237458029,1.0099564790725708,-2.5663486162768763
1708435164.6933475,-2.161311149597168,-1.3388337802938004,-2.5226078669177454,6.156176078110494,1.0099356174468994,-2.566336695347921
1708435164.695322,-2.1613361835479736,-1.338812233214714,-2.5226407686816614,6.156110274582662,1.0099563598632812,-2.566345516835348
1708435164.6973207,-2.1613733768463135,-1.3388326627067109,-2.5226243177997034,6.156119096070089,1.0099103450775146,-2.566340986882345
1708435164.699315,-2.1613733768463135,-1.3388001930764695,-2.5226243177997034,6.156105744629659,1.009926676750183,-2.566345516835348
1708435164.7013342,-2.1613733768463135,-1.3387922954610367,-2.5226197878467005,6.156086432724752,1.0099236965179443,-2.566317145024435
1708435164.7033572,-2.1613519191741943,-1.3388053637794037,-2.5225911776172083,6.156131374626913,1.0099430084228516,-2.566274944935934
1708435164.7053187,-2.1613821983337402,-1.3388001930764695,-2.5226288477527063,6.15605782249526,1.0099564790725708,-2.5663917700396937
1708435164.707333,-2.1613380908966064,-1.338808835749962,-2.5225957075702112,6.156102764397421,1.009919285774231,-2.566336456929342
1708435164.709318,-2.1613519191741943,-1.3388207715800782,-2.5226078669177454,6.1560953734214685,1.0099326372146606,-2.5663707892047327
1708435164.7113519,-2.161320209503174,-1.338776097898819,-2.5225659052478235,6.15611611583785,1.0099073648452759,-2.566345516835348
1708435164.7133474,-2.161320209503174,-1.338800237779953,-2.5226033369647425,6.1559921381767175,1.009919285774231,-2.56636625925173
1708435164.7153392,-2.161311149597168,-1.338857264523842,-2.5226615110980433,6.1560953734214685,1.0099281072616577,-2.56632906595339
1708435164.7173355,-2.161370038986206,-1.3387555342963715,-2.522637907658712,6.1560414908225916,1.0099281072616577,-2.56636625925173
1708435164.7193143,-2.1613450050354004,-1.338865951900818,-2.5226078669177454,6.156022178917684,1.0098950862884521,-2.5663002173053187
1708435164.7213185,-2.1613821983337402,-1.3388616007617493,-2.5226526896106165,6.15605782249526,1.0099326372146606,-2.566338125859396
1708435164.7233405,-2.1613776683807373,-1.3388326925090333,-2.52265435854067,6.156050431519308,1.0098906755447388,-2.566321674977438
1708435164.7253554,-2.1613869667053223,-1.3388002526811142,-2.5226243177997034,6.156066763191976,1.0099208354949951,-2.566308323537008
1708435164.7273474,-2.1613495349884033,-1.3387922954610367,-2.5226123968707483,6.156038510590353,1.0098739862442017,-2.566321674977438
1708435164.7293067,-2.1613450050354004,-1.3388284009746094,-2.522621456776754,6.156083452492513,1.0098531246185303,-2.566338125859396
1708435164.7313116,-2.1613380908966064,-1.3387922805598755,-2.5225747267352503,6.1560354111488245,1.0099208354949951,-2.566317145024435
1708435164.7333415,-2.1613540649414062,-1.3388413500836869,-2.5226481596576136,6.156022178917684,1.0099252462387085,-2.566317145024435
1708435164.735351,-2.1613519191741943,-1.338788003926613,-2.5225911776172083,6.156047451287069,1.009882926940918,-2.566321674977438
1708435164.7372978,-2.1613290309906006,-1.338816450243332,-2.5226033369647425,6.156029689102926,1.0099163055419922,-2.5663092772113245
1708435164.7393153,-2.161320209503174,-1.3388001930764695,-2.5226288477527063,6.156071293144979,1.009872555732727,-2.5663471857654017
1708435164.7413092,-2.1613290309906006,-1.3388338100961228,-2.522583786641256,6.156022178917684,1.0098962783813477,-2.5662673155414026
1708435164.743306,-2.161306619644165,-1.3388486218503495,-2.5225866476642054,6.156066763191976,1.009887456893921,-2.5663092772113245
1708435164.7453313,-2.161299705505371,-1.338839904671051,-2.5226109663592737,6.1560637829597376,1.0099008083343506,-2.566294256840841
1708435164.7473896,-2.1613450050354004,-1.3387966764024277,-2.5226362387286585,6.156017768173971,1.0098381042480469,-2.5662735144244593
1708435164.749506,-2.161306619644165,-1.338800237779953,-2.5225823561297815,6.156066763191976,1.0098755359649658,-2.5662899653064173
1708435164.7513285,-2.1613495349884033,-1.3388132464936753,-2.522663180028097,6.156054842263021,1.0098799467086792,-2.566261593495504
1708435164.7533793,-2.1613540649414062,-1.3387967211059113,-2.5226243177997034,6.155992018967428,1.0098888874053955,-2.566244427357809
1708435164.7553136,-2.1613821983337402,-1.3387512427619477,-2.5225957075702112,6.156054842263021,1.0098888874053955,-2.5662158171283167
1708435164.7573524,-2.1613247394561768,-1.3388164204410096,-2.5225747267352503,6.156096803932943,1.0098469257354736,-2.56627065340151
1708435164.759317,-2.1613869667053223,-1.338804544215538,-2.5226033369647425,6.156042921334066,1.0098514556884766,-2.5661922136889856
1708435164.7613401,-2.1613450050354004,-1.338841290479042,-2.522583786641256,6.156047451287069,1.0098602771759033,-2.5662084261523646
1708435164.763329,-2.1613609790802,-1.3388338100961228,-2.522558037434713,6.156034099846639,1.0098681449890137,-2.566202465687887
1708435164.7653182,-2.161320209503174,-1.3387804490378876,-2.5225866476642054,6.156059253006735,1.0098142623901367,-2.5661442915545862
1708435164.7673686,-2.1613450050354004,-1.338800997739174,-2.522625986729757,6.156022178917684,1.009823203086853,-2.5660837332354944
1708435164.7693129,-2.161315679550171,-1.338787929420807,-2.522621456776754,6.156009900360861,1.0098514556884766,-2.5661006609546106
1708435164.7713106,-2.161370038986206,-1.3387642365745087,-2.5225957075702112,6.155998337059774,1.0098485946655273,-2.5660880247699183
1708435164.773363,-2.1613361835479736,-1.338857264523842,-2.522597376500265,6.156050431519308,1.0098276138305664,-2.566019121800558
1708435164.7753007,-2.1613495349884033,-1.3387966764024277,-2.5225911776172083,6.156031119614401,1.009803295135498,-2.5659878889666956
1708435164.7773428,-2.1613404750823975,-1.3387959164432068,-2.522588316594259,6.156009900360861,1.009803295135498,-2.5660014788257044
1708435164.779311,-2.161295175552368,-1.3387922954610367,-2.522588316594259,6.155973064690389,1.0097988843917847,-2.5659521261798304
1708435164.7813032,-2.1613247394561768,-1.3388132613948365,-2.522562805806295,6.156042921334066,1.0098366737365723,-2.5659080187426966
1708435164.7833142,-2.1613495349884033,-1.3388413202813645,-2.5225747267352503,6.156009900360861,1.0098196268081665,-2.5658634344684046
1708435164.7853088,-2.161320209503174,-1.338796691303589,-2.522637907658712,6.156026589661398,1.009803295135498,-2.5658560434924524
1708435164.7873454,-2.1613495349884033,-1.3388132017901917,-2.522618357335226,6.155999767571249,1.0097825527191162,-2.565840546284811
1708435164.789314,-2.161320209503174,-1.3387597662261506,-2.522621456776754,6.155974137573995,1.0098105669021606,-2.5657668749438685
1708435164.7913353,-2.161391258239746,-1.3387847703746338,-2.5225911776172083,6.1559489844139,1.0097957849502563,-2.565730635319845
1708435164.7933614,-2.1613426208496094,-1.3387686175158997,-2.522583786641256,6.155986416130819,1.009850025177002,-2.5657158533679407
1708435164.795303,-2.161315679550171,-1.338816375737526,-2.522558037434713,6.1560027478034876,1.0097988843917847,-2.5656877199756067
1708435164.7973444,-2.1613290309906006,-1.3388219487718125,-2.5225792566882532,6.155978667526998,1.0097957849502563,-2.565643850957052
1708435164.7993162,-2.161308765411377,-1.33879670620475,-2.522571627293722,6.155971157341757,1.0098122358322144,-2.5655911604510706
1708435164.8013093,-2.1612679958343506,-1.3387922805598755,-2.5225957075702112,6.1559592364128015,1.0097706317901611,-2.5656049887286585
1708435164.8033469,-2.16131329536438,-1.3388009828380127,-2.522567097340719,6.155921804695883,1.0097957849502563,-2.565507237111227
1708435164.8053184,-2.161284923553467,-1.3388369989446183,-2.5225957075702112,6.155960786133566,1.0098121166229248,-2.5654709974872034
1708435164.807321,-2.161292791366577,-1.3388132613948365,-2.5226123968707483,6.155861961632528,1.009753942489624,-2.5653939882861536
1708435164.809314,-2.161313056945801,-1.3388218891671677,-2.522555176411764,6.155894982605734,1.0097839832305908,-2.5653465429889124
1708435164.8113139,-2.1612565517425537,-1.338813231592514,-2.52260929742922,6.155851590424337,1.0097957849502563,-2.5652855078326624
1708435164.813348,-2.1612770557403564,-1.3387685430100937,-2.522583786641256,6.1558349011238,1.0097750425338745,-2.5652993361102503
1708435164.8153136,-2.1612565517425537,-1.3387772601893921,-2.522592846547262,6.155769097595968,1.0097750425338745,-2.5652182737933558
1708435164.8173375,-2.1612725257873535,-1.3387685281089325,-2.522600237523214,6.155775058060446,1.0097839832305908,-2.565155331288473
1708435164.8193102,-2.1612906455993652,-1.3388218593648453,-2.522543255482809,6.1557631371314905,1.0097869634628296,-2.5650416056262415
1708435164.8213177,-2.161229372024536,-1.338751958017685,-2.522600237523214,6.155715214997091,1.0098121166229248,-2.5649989287005823
1708435164.8233373,-2.1612496376037598,-1.33882628500972,-2.5226169268237513,6.15567039230422,1.0097869634628296,-2.564908806477682
1708435164.825315,-2.1612203121185303,-1.3388140362552186,-2.5225792566882532,6.155638801842489,1.0098003149032593,-2.564819637929098
1708435164.8273196,-2.1612203121185303,-1.3388140362552186,-2.522592846547262,6.155572998314657,1.0097957849502563,-2.5648039023028772
1708435164.8293087,-2.161179780960083,-1.3387432557395478,-2.522546354924337,6.155595290451803,1.0097839832305908,-2.564653221760885
1708435164.831303,-2.1612133979797363,-1.3387270134738465,-2.522604767476217,6.1556012509162805,1.0097957849502563,-2.5645936171161097
1708435164.8333154,-2.16117525100708,-1.3387314242175599,-2.522621456776754,6.15544747093276,1.0097672939300537,-2.5644355455981653
1708435164.8353326,-2.161226749420166,-1.3387606900981446,-2.5226333777057093,6.155478584557333,1.0098047256469727,-2.5643799940692347
1708435164.8373125,-2.161181688308716,-1.3387487691691895,-2.522588316594259,6.155479776650228,1.009791374206543,-2.5642316977130335
1708435164.839318,-2.161149740219116,-1.3387238395265122,-2.522571627293722,6.155500995903768,1.0097988843917847,-2.5641444365130823
1708435164.8413074,-2.1611034870147705,-1.3387195032886048,-2.52260929742922,6.155370580941,1.0097672939300537,-2.564047876988546
1708435164.8433108,-2.1610958576202393,-1.3387572926333924,-2.522621456776754,6.155367600708761,1.0097825527191162,-2.563890520726339
1708435164.8453119,-2.1610844135284424,-1.3387410801700135,-2.522567097340719,6.155342447548666,1.0097957849502563,-2.563770596181051
1708435164.8473155,-2.1610515117645264,-1.3387497973493119,-2.522558037434713,6.155261385231771,1.0097988843917847,-2.5636330286609095
1708435164.8493216,-2.161102056503296,-1.3387010854533692,-2.522534433995382,6.155246484070577,1.009803295135498,-2.563517395650045
1708435164.8513155,-2.1610569953918457,-1.3386805367520829,-2.522613588963644,6.1552268145378015,1.0097869634628296,-2.563397471104757
1708435164.8533256,-2.1610374450683594,-1.3386520457318802,-2.522600237523214,6.155187833100118,1.0097825527191162,-2.56325346628298
1708435164.8553326,-2.160947561264038,-1.3386563819697876,-2.522642437611715,6.1551681635673425,1.0098240375518799,-2.5630834738360804
1708435164.85734,-2.160952568054199,-1.3386326146176835,-2.5225957075702112,6.1551024792488,1.0098196268081665,-2.5629501978503626
1708435164.859313,-2.160957098007202,-1.3386412423900147,-2.522621456776754,6.155071246414938,1.009803295135498,-2.5627787748919886
1708435164.8613083,-2.160924196243286,-1.3386488419822236,-2.5226078669177454,6.155060398369589,1.0098322629928589,-2.5626280943499964
1708435164.8633254,-2.160893678665161,-1.3385956597379227,-2.5225957075702112,6.154942261963644,1.009823203086853,-2.5624428431140345
1708435164.8653603,-2.1608357429504395,-1.3386531633189698,-2.5226243177997034,6.154891478806295,1.0098276138305664,-2.5623071829425257
1708435164.8673415,-2.160825729370117,-1.3386823397925873,-2.5226152578936976,6.15483449676589,1.0098276138305664,-2.562078062688009
1708435164.8693101,-2.160818576812744,-1.3386423152736207,-2.5226078669177454,6.154795276909628,1.0099009275436401,-2.5619431177722376
1708435164.8713186,-2.1608242988586426,-1.3385978800109406,-2.5226243177997034,6.154735791474142,1.0099129676818848,-2.5617502371417444
1708435164.8733315,-2.1607911586761475,-1.3386011582664032,-2.5226333777057093,6.154650556832113,1.0098755359649658,-2.561532799397604
1708435164.8753178,-2.160701036453247,-1.3385435354760666,-2.5226767698871058,6.154517280846395,1.0098950862884521,-2.561291042958395
1708435164.8773146,-2.1606860160827637,-1.3385816377452393,-2.5226271788226526,6.154494631081381,1.009899616241455,-2.5611115137683313
1708435164.8793223,-2.160637378692627,-1.3385903549245377,-2.5226903597461146,6.154427039414205,1.0099029541015625,-2.5608530680285853
1708435164.8813226,-2.1606595516204834,-1.338545636539795,-2.5226390997516077,6.154335725098409,1.009968638420105,-2.560662810002462
1708435164.883347,-2.160569429397583,-1.338545636539795,-2.522630039845602,6.154284822731771,1.0099551677703857,-2.560455624257223
1708435164.8853154,-2.1605420112609863,-1.3385172349265595,-2.5226767698871058,6.154181468277731,1.009983777999878,-2.5602505842791956
1708435164.8873491,-2.1605465412139893,-1.3385257881930848,-2.522754971181051,6.154042231827535,1.009963035583496,-2.560025755559103
1708435164.8893268,-2.160510301589966,-1.3385388118079682,-2.5226827303515833,6.154029953270712,1.0100001096725464,-2.5597811380969446
1708435164.8913484,-2.160417318344116,-1.3384894293597718,-2.522705380116598,6.153905856400289,1.0100241899490356,-2.559516493474142
1708435164.8933368,-2.16037654876709,-1.3384979677251359,-2.5227156321154993,6.153736459999838,1.0099990367889404,-2.5593043009387415
1708435164.8953168,-2.1603875160217285,-1.3384738725474854,-2.522724692021505,6.153622853546896,1.0100153684616089,-2.559077564870016
1708435164.897324,-2.160273313522339,-1.338445709352829,-2.5227156321154993,6.15348647811965,1.0101099014282227,-2.5587545076953333
1708435164.8993192,-2.1602911949157715,-1.3383938086083909,-2.5227399508105677,6.153432595520773,1.0101262331008911,-2.558551851903097
1708435164.9013467,-2.160217761993408,-1.3383894723704834,-2.5227773825274866,6.153366791992941,1.010141372680664,-2.558274809514181
1708435164.9033487,-2.160195827484131,-1.3383610111526032,-2.5228057543383997,6.153226125031271,1.010111689567566,-2.5579493681537073
1708435164.905319,-2.160151720046997,-1.338402346973755,-2.522787634526388,6.153059708863058,1.0101027488708496,-2.557638947163717
1708435164.9073331,-2.160040855407715,-1.3383945238641282,-2.52279502550234,6.152932631760397,1.010168433189392,-2.557347838078634
1708435164.9093347,-2.1599977016448975,-1.3383628141931077,-2.522804085408346,6.15280960777358,1.0101929903030396,-2.556993548070089
1708435164.9113374,-2.159942865371704,-1.3383010786822815,-2.5228403250323694,6.152656662255087,1.0101839303970337,-2.5567637125598353
1708435164.913322,-2.1598875522613525,-1.3382859540036698,-2.5228357950793665,6.1525237438972376,1.010231852531433,-2.556394163762228
1708435164.91532,-2.1598141193389893,-1.3382903349450608,-2.5228236357318323,6.152385580330648,1.0102243423461914,-2.5560365358935755
1708435164.9173298,-2.1598010063171387,-1.338275135760643,-2.5228973070727747,6.152221309929647,1.010284423828125,-2.5557706991778772
1708435164.919302,-2.1597206592559814,-1.3382054728320618,-2.5228760878192347,6.152077424317159,1.0103126764297485,-2.555445973073141
1708435164.9213142,-2.1596479415893555,-1.3382434409907837,-2.522883717213766,6.151884305268087,1.0103938579559326,-2.5550504366504114
1708435164.9233305,-2.159592390060425,-1.3381697994521637,-2.5228987375842493,6.151692259102621,1.0104302167892456,-2.5547714869128626
1708435164.9253101,-2.159471035003662,-1.3382149797729035,-2.522907797490255,6.151630985527792,1.01044499874115,-2.5543516317950647
1708435164.9273374,-2.1594130992889404,-1.3381597709706803,-2.5229693094836634,6.151415216713705,1.0105172395706177,-2.5540409723864954
1708435164.9293008,-2.159298896789551,-1.3381803196719666,-2.5229557196246546,6.15126250961379,1.0105621814727783,-2.5536096731769007
1708435164.9313014,-2.15920352935791,-1.3381312650493165,-2.5229466597186487,6.151074993401327,1.0106267929077148,-2.5532859007464808
1708435164.9333177,-2.1591579914093018,-1.33807826161895,-2.523020092641012,6.150895464211263,1.0106467008590698,-2.552890125905172
1708435164.9353132,-2.159052610397339,-1.3380749982646485,-2.5230818430529993,6.150658714562216,1.0107035636901855,-2.5525875727282923
1708435164.9373395,-2.1589856147766113,-1.3380064082196732,-2.523032013569967,6.150540458946981,1.0107097625732422,-2.5521772543536585
1708435164.939304,-2.1589062213897705,-1.3380444210818787,-2.5230682531939905,6.150294768601217,1.010757565498352,-2.551760498677389
1708435164.9413512,-2.1587634086608887,-1.3379866492799302,-2.52309495607485,6.150164472847738,1.0107650756835938,-2.5513420740710657
1708435164.943305,-2.158726930618286,-1.3379382652095337,-2.523177687321798,6.149865138321676,1.0108134746551514,-2.550999704991476
1708435164.9453223,-2.1586427688598633,-1.3379953515580674,-2.5232139269458216,6.149724590569296,1.0108628273010254,-2.5505505243884485
1708435164.9473863,-2.1585545539855957,-1.337951884870865,-2.5231791178332728,6.14946078041152,1.0108988285064697,-2.550100866948263
1708435164.9493306,-2.158389091491699,-1.3379556250623246,-2.523261610661642,6.1492570517356775,1.0109351873397827,-2.5496776739703577
1708435164.9513419,-2.1583051681518555,-1.337883622651436,-2.5232766310321253,6.1490774033363245,1.0109543800354004,-2.5492220560656946
1708435164.9533408,-2.158235549926758,-1.3378793013146897,-2.5233126322375696,6.148837792664327,1.010987401008606,-2.5488341490374964
1708435164.9553082,-2.158118724822998,-1.337819055919983,-2.5233052412616175,6.148592340737142,1.0110267400741577,-2.548434321080343
1708435164.9573057,-2.1580326557159424,-1.3378231537393113,-2.523320023213522,6.148402082711019,1.0110745429992676,-2.547980610524313
1708435164.9593163,-2.1578831672668457,-1.3377956014922638,-2.5233517328845423,6.148232567101278,1.0111154317855835,-2.5475600401507776
1708435164.9613054,-2.157783031463623,-1.3378282350352784,-2.5234296957599085,6.147963273316183,1.0111918449401855,-2.5471840540515345
1708435164.9633272,-2.1576383113861084,-1.3378083866885682,-2.523444716130392,6.147763836174764,1.0112189054489136,-2.546699110661642
1708435164.9652996,-2.1575405597686768,-1.3378452968648453,-2.523431126271383,6.14747046211318,1.0112342834472656,-2.5462661425219935
1708435164.9673152,-2.1573829650878906,-1.3377437603524704,-2.52348500887026,6.147199618607321,1.0113437175750732,-2.545767847691671
1708435164.969303,-2.1573166847229004,-1.3377768260291596,-2.5235748926745813,6.146903264313497,1.0113621950149536,-2.5453386942492884
1708435164.9713008,-2.15718412399292,-1.3377487820437928,-2.5235121885882776,6.146750080376425,1.0114895105361938,-2.544884745274679
1708435164.9733407,-2.157102584838867,-1.3377289038947602,-2.523581091557638,6.1464117644126794,1.0115165710449219,-2.544452969227926
1708435164.9753478,-2.1569457054138184,-1.3376966428807755,-2.5236051718341272,6.146139132767477,1.0115751028060913,-2.543950144444601
1708435164.9773922,-2.1568472385406494,-1.3377008897117157,-2.5236621538745325,6.145893561631002,1.0116606950759888,-2.543534819279806
1708435164.9793131,-2.156694173812866,-1.337676690225937,-2.523672644292013,6.14563416221694,1.0117000341415405,-2.543044630681173
1708435164.9813,-2.1565659046173096,-1.3376447272351761,-2.523734156285421,6.145333158760824,1.011802077293396,-2.5425685087787073
1708435164.9833627,-2.1564478874206543,-1.3376129430583497,-2.5237250963794153,6.1450081942375085,1.0118324756622314,-2.542128388081686
1708435164.9853075,-2.1562700271606445,-1.3376087111285706,-2.5237982908831995,6.144758212357321,1.011871337890625,-2.541576687489645
1708435164.987363,-2.1561436653137207,-1.3376010072282334,-2.523809019719259,6.144461738854208,1.0119692087173462,-2.5410998503314417
1708435164.9892976,-2.1559700965881348,-1.3375198406032105,-2.5238657633410853,6.144204008370199,1.0120199918746948,-2.540616575871603
1708435164.9912987,-2.1558568477630615,-1.3376137924245377,-2.523902241383688,6.143853294640341,1.012097954750061,-2.5401435534106653
1708435164.9933183,-2.155687093734741,-1.3376179051450272,-2.5239198843585413,6.14358817318038,1.0120952129364014,-2.5396373907672327
1708435164.9953165,-2.1555237770080566,-1.3375734847835083,-2.5239198843585413,6.143275248795309,1.0121777057647705,-2.539161745701925
1708435164.9973164,-2.155362844467163,-1.3376179498485108,-2.524029556904928,6.142975914269247,1.0121797323226929,-2.538586680089132
1708435164.999322,-2.1551949977874756,-1.337533490066864,-2.5240772406207483,6.142656791001119,1.0122650861740112,-2.538180414830343
1708435165.0013092,-2.1550159454345703,-1.33749275029216,-2.524137560521261,6.1423507807548425,1.0123777389526367,-2.5376766363727015
1708435165.0033307,-2.1548542976379395,-1.3375038516572495,-2.524161402379171,6.142021882324972,1.0124332904815674,-2.5370610396014612
1708435165.0053005,-2.1546661853790283,-1.337573454981186,-2.5241928736316126,6.141660916596212,1.0125547647476196,-2.536539618168966
1708435165.007318,-2.1545026302337646,-1.337585301404335,-2.52427846590151,6.141414987831869,1.012606143951416,-2.53610068956484
1708435165.0093277,-2.154360771179199,-1.337573454981186,-2.5243218580829065,6.14105104187087,1.012682557106018,-2.535581652318136
1708435165.0112877,-2.1541528701782227,-1.3375811588815232,-2.524344507847921,6.140751468926229,1.012766718864441,-2.5350573698626917
1708435165.0133185,-2.153928518295288,-1.3375973266414185,-2.5244134108172815,6.140393483429708,1.0128226280212402,-2.5344749132739466
1708435165.0153036,-2.1536383628845215,-1.3375853610089798,-2.524494473134176,6.139975297241964,1.012942910194397,-2.5340076128589075
1708435165.0173507,-2.1534602642059326,-1.3375896227410813,-2.5244959036456507,6.139571773796835,1.0130645036697388,-2.533466164265768
1708435165.01931,-2.153207302093506,-1.3375607889941712,-2.5245559851275843,6.139162766724386,1.0131185054779053,-2.5329611937152308
1708435165.0213015,-2.153033494949341,-1.337613807325699,-2.524665419255392,6.138834464340963,1.0132149457931519,-2.5324369112597864
1708435165.0233195,-2.152766227722168,-1.337613807325699,-2.524713102971212,6.138380872994222,1.0133814811706543,-2.5319681803332728
1708435165.025295,-2.1525380611419678,-1.3376461130431672,-2.52476412454714,6.137990104943075,1.0134326219558716,-2.531529251729147
1708435165.0273364,-2.152376890182495,-1.337625728254654,-2.5248406569110315,6.1375783560569666,1.013491153717041,-2.5309258143054407
1708435165.029292,-2.152120351791382,-1.3376461130431672,-2.5249081293689173,6.137161838799276,1.013641357421875,-2.5304344336139124
1708435165.0313044,-2.151773452758789,-1.3376498085311432,-2.525017801915304,6.136777150421896,1.0137499570846558,-2.5298929850207728
1708435165.033334,-2.1515445709228516,-1.3376778823188324,-2.525076214467184,6.136360394745626,1.0138355493545532,-2.5293641726123255
1708435165.0353022,-2.1512765884399414,-1.337660865192749,-2.5251904169665735,6.135905253678121,1.0139769315719604,-2.5288270155536097
1708435165.0373435,-2.150956630706787,-1.3376362484744568,-2.525240961705343,6.135376679688253,1.0140981674194336,-2.5283058325396937
1708435165.039318,-2.1506783962249756,-1.3377051812461396,-2.525346342717306,6.134981143265524,1.014247179031372,-2.5278306643115442
1708435165.0412927,-2.1503591537475586,-1.3377283972552796,-2.525465790425436,6.134576785355367,1.0142923593521118,-2.527280394230978
1708435165.0433633,-2.1500420570373535,-1.3377445501140137,-2.5255048910724085,6.134066092758932,1.014421820640564,-2.5267801920520228
1708435165.0452995,-2.1497507095336914,-1.3377318543246766,-2.5255919138537806,6.133688795357504,1.0145704746246338,-2.5262919108020228
1708435165.0473282,-2.149415969848633,-1.3377718788436432,-2.5257330576526087,6.1331965802009485,1.014695167541504,-2.5257368723498743
1708435165.0493817,-2.1490280628204346,-1.3378477704576035,-2.5258634726153772,6.132648455887594,1.0148407220840454,-2.5252869764911097
1708435165.051307,-2.148681163787842,-1.3378836077502747,-2.5259385744677942,6.132052767067709,1.0150089263916016,-2.5247326532946985
1708435165.0533366,-2.148327350616455,-1.3379076284221192,-2.5260868708239954,6.131554829865255,1.015156626701355,-2.5242612997638147
1708435165.0553133,-2.147927761077881,-1.337996394639351,-2.5261741320239466,6.130958068161764,1.015300989151001,-2.5237517992602747
1708435165.0573258,-2.1475517749786377,-1.337996394639351,-2.526322666798727,6.13043366649703,1.015457034111023,-2.523238484059469
1708435165.059324,-2.1471681594848633,-1.3380641651204606,-2.5263975302325647,6.129953729897299,1.015634298324585,-2.522787634526388
1708435165.0613127,-2.146768808364868,-1.3380424988320847,-2.5265052954303187,6.129390227585592,1.015777349472046,-2.522277895604269
1708435165.0633786,-2.146366834640503,-1.3380869042924424,-2.526653830205099,6.128781187325277,1.0159379243850708,-2.5217838923083704
1708435165.0653439,-2.1459271907806396,-1.3381803792766114,-2.526785675679342,6.128177869110861,1.0161961317062378,-2.5213404337512415
1708435165.067336,-2.1454808712005615,-1.3382236075452347,-2.5269582907306116,6.1275906441505334,1.0163630247116089,-2.520883623753683
1708435165.0693328,-2.1449670791625977,-1.3382597279599686,-2.5271440188037317,6.126985537796774,1.0165855884552002,-2.520397965108053
1708435165.0713103,-2.1445024013519287,-1.3383236688426514,-2.5272162596331995,6.12630449512557,1.0167895555496216,-2.5199082533465784
1708435165.0733628,-2.144011974334717,-1.338358537559845,-2.527397696171896,6.125726210861959,1.0169733762741089,-2.5195005575763147
1708435165.075347,-2.1434993743896484,-1.338402346973755,-2.5275505224811,6.124995457917013,1.0171821117401123,-2.5190940538989466
1708435165.0773237,-2.143010377883911,-1.3385031831315537,-2.5277138392077845,6.1242796061332605,1.017386794090271,-2.518629852925436
1708435165.079331,-2.1424899101257324,-1.3385791939548035,-2.52788216272463,6.123690950661459,1.017569899559021,-2.518179003392355
1708435165.0813253,-2.1419308185577393,-1.3386110228351136,-2.5280514399157923,6.123004066735067,1.0177862644195557,-2.517777983342306
1708435165.0833328,-2.1413960456848145,-1.3386542213014145,-2.52824312845339,6.122336971550741,1.017993688583374,-2.5173688570605677
1708435165.085328,-2.1409146785736084,-1.338656337266304,-2.5283902327166956,6.1216163513954065,1.0181753635406494,-2.517026487980978
1708435165.087302,-2.140343427658081,-1.3387282204679032,-2.5285537878619593,6.120993125229635,1.0184415578842163,-2.516639534627096
1708435165.089301,-2.139785051345825,-1.3388370138457795,-2.5287845770465296,6.120273935585775,1.0186039209365845,-2.5162540117846888
1708435165.0913372,-2.1392135620117188,-1.3389500242522736,-2.5289812723742884,6.119426834374227,1.0188894271850586,-2.515877072011129
1708435165.093342,-2.1385512351989746,-1.3390499514392395,-2.5291596094714563,6.118617999344625,1.0191407203674316,-2.5154343287097376
1708435165.095304,-2.137888193130493,-1.3390725714019318,-2.529318396245138,6.117806541710653,1.0194398164749146,-2.515144173298971
1708435165.0973487,-2.13726544380188,-1.3392172467759629,-2.529534403477804,6.117003786354818,1.0196621417999268,-2.514747683201925
1708435165.0992982,-2.1366324424743652,-1.339305357342102,-2.529738728200094,6.116219150810995,1.0199517011642456,-2.5144124666797083
1708435165.1013525,-2.1360225677490234,-1.3393966567567368,-2.5299723784076136,6.1154459593589685,1.0201711654663086,-2.514087502156393
1708435165.1033072,-2.1353683471679688,-1.3394997280887146,-2.5301435629474085,6.114546525269308,1.0204448699951172,-2.5137136618243616
1708435165.10536,-2.1346304416656494,-1.3395836812308808,-2.5303755442248743,6.113676297455587,1.0207302570343018,-2.5134149233447474
1708435165.1073265,-2.1339235305786133,-1.3396140050939103,-2.530606810246603,6.112767445832052,1.0210634469985962,-2.513081137334005
1708435165.1093137,-2.1331562995910645,-1.3397903752378006,-2.5308435598956507,6.111801731377401,1.021359920501709,-2.512757126485006
1708435165.1113217,-2.1324355602264404,-1.3398978424123307,-2.531020704899923,6.110865700035848,1.0216964483261108,-2.51245624223818
1708435165.1133525,-2.1317293643951416,-1.3400175881436844,-2.531344477330343,6.10996566989974,1.0219719409942627,-2.512143913899557
1708435165.1153266,-2.13100004196167,-1.3401774030974885,-2.5315380732165735,6.108964311867513,1.0223052501678467,-2.511942211781637
1708435165.1173851,-2.130190372467041,-1.340333954696991,-2.5317960421191614,6.108071791916647,1.0226088762283325,-2.5115445295916956
1708435165.1193287,-2.129408121109009,-1.3404078495553513,-2.5321067015277308,6.107025849610128,1.0229381322860718,-2.511326615010397
1708435165.121353,-2.128560781478882,-1.3406369400075455,-2.532295529042379,6.106059062271871,1.0232837200164795,-2.51111609140505
1708435165.1233757,-2.127781629562378,-1.3407937747291108,-2.532599751149313,6.105022179871359,1.0236396789550781,-2.5108302275287073
1708435165.125323,-2.1269643306732178,-1.3408988577178498,-2.5328756014453333,6.1039230702217,1.023979663848877,-2.510577980672018
1708435165.1273315,-2.126052141189575,-1.3411399734071274,-2.5331276098834437,6.102822768479147,1.0243912935256958,-2.510352436696188
1708435165.1293142,-2.1251487731933594,-1.3413315576365967,-2.5333989302264612,6.101754891663351,1.0247756242752075,-2.5101710001574915
1708435165.1313472,-2.1242687702178955,-1.3414118897965928,-2.533719841633932,6.100626575737753,1.0251185894012451,-2.509904448186056
1708435165.133338,-2.123357057571411,-1.3416401904872437,-2.5339794794665735,6.099463212281027,1.025517225265503,-2.509758774434225
1708435165.135309,-2.122420072555542,-1.3418535453132172,-2.5342839399920862,6.098405706673422,1.0258972644805908,-2.5095251242267054
1708435165.1373425,-2.121485471725464,-1.3420445185950776,-2.534640614186422,6.097285496979513,1.0263221263885498,-2.5093894640551966
1708435165.1393087,-2.1205475330352783,-1.34223926187072,-2.5349345842944544,6.096165644913473,1.0267311334609985,-2.5092302004443567
1708435165.1413238,-2.119569778442383,-1.342437983756401,-2.535234276448385,6.0949028609092615,1.0271321535110474,-2.50909668604006
1708435165.143329,-2.1185154914855957,-1.342666433458664,-2.535579268132345,6.093715894013204,1.0275616645812988,-2.5089295546161097
1708435165.1453092,-2.1175379753112793,-1.3429057759097596,-2.535877529774801,6.092508065491476,1.0279786586761475,-2.5088349024402063
1708435165.1473696,-2.116415023803711,-1.3431165230325242,-2.5362351576434534,6.0911536095436,1.0283586978912354,-2.5086947123156946
1708435165.1493807,-2.115321636199951,-1.3433231723359604,-2.5365873018847864,6.090019690781393,1.0287617444992065,-2.508627955113546
1708435165.1513186,-2.114281415939331,-1.343627156024315,-2.5369680563556116,6.088597881584921,1.0292471647262573,-2.5084789435016077
1708435165.1533358,-2.113142967224121,-1.3438591074994584,-2.537311379109518,6.087358343392172,1.0297248363494873,-2.508390490208761
1708435165.1553028,-2.112053394317627,-1.3440448951772233,-2.537659470235006,6.086028206139364,1.0301768779754639,-2.50832969347109
1708435165.157339,-2.1108109951019287,-1.3443490278771897,-2.5380311647998255,6.084733712464132,1.030610203742981,-2.5082955996142786
1708435165.1593547,-2.109621286392212,-1.3445674639991303,-2.5383790175067347,6.0833462355430505,1.0311522483825684,-2.508219305668966
1708435165.1613107,-2.108402967453003,-1.344802663927414,-2.538788143788473,6.081859218865194,1.0316166877746582,-2.508163038884298
1708435165.1633446,-2.1071972846984863,-1.3450620931437989,-2.5391841570483606,6.08048294761733,1.0321290493011475,-2.5081258455859583
1708435165.1653254,-2.1059725284576416,-1.345316545372345,-2.539556090031759,6.078941929131307,1.0326344966888428,-2.508127514516012
1708435165.1673377,-2.1047401428222656,-1.3456087124398728,-2.5399354139911097,6.077526199608602,1.0331566333770752,-2.5081363360034388
1708435165.1693032,-2.103492259979248,-1.3458273720792313,-2.5403693358050745,6.076015102654257,1.0336779356002808,-2.508111063634054
1708435165.1713033,-2.1021876335144043,-1.3460786652616044,-2.5407467524157923,6.074562418251791,1.0341862440109253,-2.508134905491964
1708435165.1733305,-2.1008949279785156,-1.3463740360787888,-2.5411677996264856,6.073023307114401,1.0347031354904175,-2.5082083384143274
1708435165.1753075,-2.099580764770508,-1.3466730874827881,-2.5415638128863733,6.071431863098898,1.0352485179901123,-2.508259359990255
1708435165.177308,-2.0982627868652344,-1.3469319951585312,-2.5420079866992396,6.069813000946798,1.035834550857544,-2.5083404223071497
1708435165.1793258,-2.0968823432922363,-1.3471786838820954,-2.5424938837634485,6.068180668144979,1.0363832712173462,-2.5084219614612024
1708435165.1813378,-2.095531702041626,-1.3475396645120163,-2.5429301897632044,6.066620695381918,1.037040114402771,-2.508522097264425
1708435165.1833127,-2.094160556793213,-1.347804845576622,-2.543388907109396,6.064989316254415,1.0375590324401855,-2.508620087300436
1708435165.185314,-2.0927040576934814,-1.3480839741281052,-2.543741289769308,6.063373911171713,1.038111925125122,-2.508645836506979
1708435165.1873147,-2.091344118118286,-1.3483873468688508,-2.54419452348818,6.061746227532186,1.038712978363037,-2.5087342897998255
1708435165.1893115,-2.0899369716644287,-1.3487504881671448,-2.5446956793414515,6.060059892922201,1.0393065214157104,-2.5089250246631067
1708435165.1913035,-2.0884969234466553,-1.3490091425231476,-2.545154396687643,6.058386671334066,1.0399364233016968,-2.508998219166891
1708435165.1933239,-2.0869758129119873,-1.3493146163276215,-2.545697037373678,6.056664693146505,1.0405911207199097,-2.5092173258410853
1708435165.1953282,-2.085439920425415,-1.3496418756297608,-2.5462315718280237,6.0548462746436975,1.0411375761032104,-2.509324614201681
1708435165.1972983,-2.08394455909729,-1.3500380975059052,-2.546701971684591,6.053080308228292,1.0418243408203125,-2.509516779576437
1708435165.19933,-2.0823638439178467,-1.3503277909806748,-2.5471306482898157,6.051345217018881,1.042449712753296,-2.5097630659686487
1708435165.2013228,-2.08077073097229,-1.3507483464530488,-2.547659937535421,6.049513685494222,1.0430465936660767,-2.509984079991476
1708435165.203302,-2.0791778564453125,-1.351082221870758,-2.548150126134054,6.0476499674613855,1.0437040328979492,-2.510153834019796
1708435165.2053447,-2.07763934135437,-1.3514659863761445,-2.5486751238452356,6.045822489052572,1.044370412826538,-2.5104616324054163
1708435165.2073026,-2.076002836227417,-1.351804019217827,-2.549232069646017,6.044023978501119,1.0450758934020996,-2.510779921208517
1708435165.2093058,-2.0744071006774902,-1.3522396248630066,-2.549727741871969,6.042250621109762,1.045667052268982,-2.510976854954855
1708435165.2113125,-2.072788953781128,-1.3525365454009552,-2.550218645726339,6.040366756706991,1.0462888479232788,-2.5112579504596155
1708435165.213315,-2.0711536407470703,-1.3529159140637894,-2.5508421103106897,6.038483965187826,1.046910047531128,-2.5115495363818567
1708435165.215329,-2.0694189071655273,-1.3532986652902146,-2.5512874762164515,6.036498534470358,1.0475324392318726,-2.5118711630450647
1708435165.2173324,-2.0677871704101562,-1.3536661130240937,-2.5519097487079065,6.034492718964376,1.0481758117675781,-2.512240473424093
1708435165.2193058,-2.0660688877105713,-1.354011983876564,-2.5524523893939417,6.0326024172599695,1.0489925146102905,-2.5126305262195032
1708435165.2213554,-2.0643553733825684,-1.354474813943245,-2.553005043660299,6.030689465790548,1.0497992038726807,-2.5129504839526575
1708435165.2233188,-2.06268310546875,-1.3549060982516785,-2.5535946528064173,6.0287916539009,1.0504955053329468,-2.5133357683764856
1708435165.2253125,-2.060957193374634,-1.355275110607483,-2.5541182200061243,6.026873457222738,1.051151156425476,-2.5136964956866663
1708435165.2273154,-2.059234380722046,-1.355661765938141,-2.5546863714801233,6.024977433472433,1.0518239736557007,-2.5141459147082728
1708435165.2293305,-2.0575528144836426,-1.3560574513724823,-2.5552380720721644,6.022911774903097,1.0524991750717163,-2.5145064035998743
1708435165.2313104,-2.055732488632202,-1.356500656609871,-2.5558436552630823,6.021008002548971,1.0532320737838745,-2.5148890654193323
1708435165.233336,-2.0539369583129883,-1.356902153497078,-2.5564306418048304,6.018878328591146,1.0540554523468018,-2.5153518358813685
1708435165.2353516,-2.052081823348999,-1.3573735815337677,-2.5570300261126917,6.016773211746969,1.0548943281173706,-2.515841547642843
1708435165.2373235,-2.0502307415008545,-1.3578237903169175,-2.557678286229269,6.014659869461813,1.0557317733764648,-2.5163026491748255
1708435165.2393045,-2.0484135150909424,-1.3582711082747956,-2.5582290331469935,6.012605416565695,1.0565071105957031,-2.5167678038226526
1708435165.2413003,-2.04659366607666,-1.3586475563100358,-2.5588701407061976,6.010553824692526,1.0573067665100098,-2.5172274748431605
1708435165.2433245,-2.044731855392456,-1.3590900611928483,-2.5594328085528772,6.008464801102438,1.0579557418823242,-2.5177281538592737
1708435165.2453077,-2.0428974628448486,-1.359581248169281,-2.560011927281515,6.006326424866476,1.0587600469589233,-2.51825458208193
1708435165.2473176,-2.0409369468688965,-1.3600422900966187,-2.5606773535357874,6.004184829979696,1.0595377683639526,-2.5188005606280726
1708435165.2493618,-2.039029359817505,-1.3605186504176636,-2.5612857977496546,6.001979815750875,1.0603110790252686,-2.519308630620138
1708435165.251383,-2.0371055603027344,-1.3610239934972306,-2.561955515538351,5.999775278359213,1.061198353767395,-2.519869867955343
1708435165.2533495,-2.0351369380950928,-1.3615230333856125,-2.5625880400287073,5.997647273331442,1.0619454383850098,-2.5204997698413294
1708435165.255309,-2.0332252979278564,-1.3620254707387467,-2.5632479826556605,5.995475637703695,1.062736988067627,-2.5210276285754603
1708435165.2573054,-2.0312726497650146,-1.3624388736537476,-2.5638468901263636,5.993346440583029,1.0635548830032349,-2.521621052418844
1708435165.259311,-2.0293149948120117,-1.3629656744054337,-2.5644705931292933,5.991162764817037,1.0643600225448608,-2.522148672734396
1708435165.261305,-2.027364730834961,-1.3634353143027802,-2.565106217061178,5.988934266358175,1.0651501417160034,-2.5227864424334925
1708435165.2633274,-2.0254218578338623,-1.3638897401145478,-2.5658066908465784,5.986706721573629,1.0660158395767212,-2.5234244505511683
1708435165.2653089,-2.0233380794525146,-1.3644544047168274,-2.5664740244494837,5.984549987107076,1.066878318786621,-2.524078432713644
1708435165.2673414,-2.021256685256958,-1.3649180394462128,-2.567153278981344,5.98224567154006,1.06771719455719,-2.5247274080859583
1708435165.2693074,-2.019256591796875,-1.3655258280089875,-2.5678628126727503,5.979929554253378,1.0686357021331787,-2.5254505316363733
1708435165.2713137,-2.0171327590942383,-1.366031141286232,-2.5685511271106165,5.977604138642111,1.0695619583129883,-2.5260773340808313
1708435165.2733443,-2.015089511871338,-1.3665989351323624,-2.56923753419985,5.97517346122817,1.0704044103622437,-2.52674109140505
1708435165.275335,-2.013068675994873,-1.3671159905246277,-2.5699945131884974,5.972899782448568,1.07125723361969,-2.5274441877948206
1708435165.2773461,-2.0109364986419678,-1.3676342529109498,-2.5706172625171106,5.970650064736166,1.0720932483673096,-2.5281623045550745
1708435165.2793314,-2.008862257003784,-1.3681276452592392,-2.571350876485006,5.968398320465841,1.0729509592056274,-2.528870407735006
1708435165.2813344,-2.0067262649536133,-1.3687432718328019,-2.5720489660846155,5.966154444008627,1.0737508535385132,-2.52958327928652
1708435165.2833652,-2.0045998096466064,-1.3692518782666703,-2.572728697453634,5.963820802956381,1.0746098756790161,-2.5304020086871546
1708435165.2853262,-2.0024445056915283,-1.3698419791511078,-2.573498312626974,5.9615667937095544,1.0755376815795898,-2.5311763922320765
1708435165.2873237,-2.000300407409668,-1.3704118591598053,-2.574204985295431,5.959225880890646,1.0765196084976196,-2.5319743792163294
1708435165.2893286,-1.998120903968811,-1.3710149240544816,-2.5749648253070276,5.956820952683248,1.077447533607483,-2.5327745119677942
1708435165.2913144,-1.9958889484405518,-1.3715487134507676,-2.575693432484762,5.954400884896078,1.078351616859436,-2.533506695424215
1708435165.2933137,-1.9937118291854858,-1.3720781070045014,-2.5763638655291956,5.952074515610494,1.0792207717895508,-2.5343826452838343
1708435165.2953296,-1.9915610551834106,-1.3726362747005005,-2.577080551777975,5.94975374916152,1.0801106691360474,-2.535142246876852
1708435165.297317,-1.9892970323562622,-1.3731980186751862,-2.577829424534933,5.947427499085226,1.080970287322998,-2.5358977953540247
1708435165.299397,-1.9870485067367554,-1.3738085937551041,-2.5785351435290735,5.9450687048728845,1.0818507671356201,-2.5367420355426233
1708435165.3013144,-1.9847923517227173,-1.3743868929198761,-2.579412047063009,5.942576396256246,1.082857608795166,-2.5375054518329065
1708435165.3033304,-1.982527494430542,-1.3749941748431702,-2.5801082293139856,5.940166342049398,1.083716869354248,-2.5383763949023646
1708435165.305314,-1.9803632497787476,-1.3756297540715714,-2.5808730761157435,5.9378360388572595,1.0845979452133179,-2.5391488710986536
1708435165.3073215,-1.9781371355056763,-1.3762568098357697,-2.581595484410421,5.935619103699484,1.085436224937439,-2.5399857203113
1708435165.309315,-1.9760029315948486,-1.376835362320282,-2.5823808352099817,5.933386194496908,1.0863102674484253,-2.540799919758932
1708435165.311325,-1.9738355875015259,-1.377418653374054,-2.58311897913088,5.9310107109840295,1.087174654006958,-2.5416489283191126
1708435165.3133247,-1.9715677499771118,-1.377981500034668,-2.583874050770895,5.928612935334005,1.0880650281906128,-2.542485777531759
1708435165.3153238,-1.9694552421569824,-1.3785542857697983,-2.5846250692950647,5.926227557450094,1.089015007019043,-2.543375794087545
1708435165.317315,-1.9672942161560059,-1.3791957360557099,-2.5853758494006556,5.923897135048666,1.0898821353912354,-2.544147793446676
1708435165.3193166,-1.965064525604248,-1.3797488671592255,-2.5861218611346644,5.921507108002462,1.0908147096633911,-2.5450544993029993
1708435165.3213243,-1.962882399559021,-1.380381540661194,-2.58692175546755,5.919213878899374,1.0917012691497803,-2.545926634465353
1708435165.3233552,-1.960683822631836,-1.381074608569481,-2.5876362959491175,5.9168832180793665,1.0925122499465942,-2.5467713514911097
1708435165.3253107,-1.958475947380066,-1.3816442501595994,-2.588432852421896,5.914506661682882,1.0934511423110962,-2.5476625601397913
1708435165.32735,-1.9562519788742065,-1.3822269302657624,-2.5891338030444544,5.912246095925131,1.0943429470062256,-2.548547331486837
1708435165.3293247,-1.954101324081421,-1.3828239154866715,-2.5899630228625696,5.909795033722677,1.0952459573745728,-2.549420181904928
1708435165.3313344,-1.9518991708755493,-1.383469046359398,-2.590691630040304,5.907528984337606,1.0961459875106812,-2.5503442923175257
1708435165.3333514,-1.9496904611587524,-1.3841275584748765,-2.5914960543261927,5.905276047974386,1.0969865322113037,-2.551261011754171
1708435165.3353205,-1.9475504159927368,-1.3847379249385376,-2.5922136942492884,5.903038489609518,1.0979046821594238,-2.552133623753683
1708435165.3373148,-1.9453638792037964,-1.385418490772583,-2.5929608980761927,5.900801050453939,1.0987567901611328,-2.552998129521505
1708435165.339339,-1.943079948425293,-1.3859947335771103,-2.5937445799456995,5.8985434649284265,1.0996264219284058,-2.55394155183901
1708435165.3413124,-1.9408856630325317,-1.3866295379451294,-2.5944553057300013,5.89633725860671,1.100431203842163,-2.5548248926745813
1708435165.34336,-1.9386627674102783,-1.3872936230948945,-2.5951929728137415,5.894002902298727,1.101353645324707,-2.5557552019702356
1708435165.3453314,-1.9364774227142334,-1.3879447740367432,-2.595957342778341,5.891697871475973,1.1022851467132568,-2.5567145983325403
1708435165.3473246,-1.9342695474624634,-1.3885303449681778,-2.596659485493795,5.889418113022604,1.1031540632247925,-2.5576699415790003
1708435165.3493495,-1.9320793151855469,-1.3891775769046326,-2.597496573125021,5.887157785683431,1.104042887687683,-2.5585857073413294
1708435165.3513374,-1.929940938949585,-1.389853225355484,-2.5981717745410364,5.884862768441,1.104934811592102,-2.559446636830465
1708435165.3533535,-1.9276858568191528,-1.3904762131026764,-2.5989885965930384,5.8825114844139,1.1057995557785034,-2.5604329744922083
1708435165.3553357,-1.9254896640777588,-1.391127662067749,-2.599682156239645,5.880140888481893,1.1066316366195679,-2.5613511244403284
1708435165.357323,-1.9232265949249268,-1.3916963648847123,-2.6005035082446497,5.877819168358602,1.1074800491333008,-2.5623579660998743
1708435165.3593135,-1.9210230112075806,-1.3924012196115036,-2.601236406956808,5.875512587815084,1.1083414554595947,-2.5632594267474573
1708435165.3613462,-1.918908953666687,-1.3929944348386307,-2.6019371191607874,5.873300301819601,1.1091821193695068,-2.5641232172595423
1708435165.363347,-1.9167444705963135,-1.393584982757904,-2.602731768284933,5.871025430947103,1.110046625137329,-2.565031115208761
1708435165.365313,-1.9145309925079346,-1.3942611080459137,-2.6034606138812464,5.868795382767477,1.1108593940734863,-2.565899674092428
1708435165.3673294,-1.9123424291610718,-1.3948255342296143,-2.6042378584491175,5.866487848549642,1.1117159128189087,-2.566725556050436
1708435165.3693118,-1.9101712703704834,-1.395477683549263,-2.6049423853503626,5.864153969078817,1.112474799156189,-2.567676369343893
1708435165.3713336,-1.907935380935669,-1.3960976165584107,-2.605706278477804,5.861821639328756,1.113402247428894,-2.5685508886920374
1708435165.3733678,-1.9057551622390747,-1.3967309159091492,-2.6063998381244105,5.85958873012618,1.1142700910568237,-2.5694122950183313
1708435165.3753338,-1.903542160987854,-1.3973451268723984,-2.60718018213381,5.857353079109945,1.1151349544525146,-2.5703135172473353
1708435165.3773532,-1.901397943496704,-1.3979073923877259,-2.607976738606588,5.855075347214498,1.116097092628479,-2.571207825337545
1708435165.3793116,-1.899224877357483,-1.398567022090294,-2.608706537877218,5.852714884072103,1.1170878410339355,-2.572105948125021
1708435165.3813035,-1.897003173828125,-1.399230809216835,-2.609428946171896,5.850344764977255,1.1180084943771362,-2.572941605244772
1708435165.383312,-1.8947553634643555,-1.399821163421013,-2.6101999918567103,5.848083483963766,1.1188881397247314,-2.573826615010397
1708435165.385315,-1.892527461051941,-1.4004737001708527,-2.610992495213644,5.8457480547721765,1.1197636127471924,-2.574728314076559
1708435165.3873549,-1.8903350830078125,-1.4010964793017884,-2.6117215792285364,5.843487012177267,1.1207095384597778,-2.5756006876574915
1708435165.3893237,-1.888121247291565,-1.4017820072225113,-2.612497393284933,5.841352808266439,1.1215980052947998,-2.5765231291400355
1708435165.3913178,-1.8859301805496216,-1.4023721677115937,-2.6131792704211634,5.839105236321249,1.122470498085022,-2.5774670282946985
1708435165.3933094,-1.8836525678634644,-1.4029613745263596,-2.6139379183398646,5.8368966458137415,1.1233162879943848,-2.578329626713888
1708435165.3953133,-1.8815075159072876,-1.4036618334105988,-2.614718262349264,5.8345996020133875,1.1241519451141357,-2.5792277495013636
1708435165.3973331,-1.8792558908462524,-1.4042433959296723,-2.615443531666891,5.832274663239279,1.1249746084213257,-2.5801220575915735
1708435165.39933,-1.8770338296890259,-1.404875026350357,-2.616194550191061,5.8301018355186365,1.1259061098098755,-2.581059519444601
1708435165.4013436,-1.8748449087142944,-1.405501277451851,-2.616969172154562,5.827742326050558,1.1267898082733154,-2.5819159189807337
1708435165.4033315,-1.8726340532302856,-1.406096563940384,-2.617695156727926,5.825536238938131,1.1276336908340454,-2.5828169027911585
1708435165.4053125,-1.8704466819763184,-1.4067479234984894,-2.6185088793383997,5.823211300164022,1.1285314559936523,-2.583726946507589
1708435165.4073133,-1.8682959079742432,-1.4073911023190995,-2.6192882696734827,5.820946323662557,1.1293960809707642,-2.5846577326404017
1708435165.4093359,-1.866041898727417,-1.4079682689956208,-2.6200154463397425,5.81857846954421,1.1302608251571655,-2.585575882588522
