Eg3-git/Classifiers/Data Collection/u2/u2xyz5_ur3e_joint_states.csv
time,elbow_joint,shoulder_lift_joint,shoulder_pan_joint,wrist_1_joint,wrist_2_joint,wrist_3_joint
1708435379.5760956,-2.1418137550354004,-1.3336879921010514,-2.5268681685077112,6.111032235413351,1.0176184177398682,-2.07367450395693
1708435379.5781212,-2.1418416500091553,-1.33365352571521,-2.5268262068377894,6.1110665676887415,1.017622709274292,-2.073646370564596
1708435379.580072,-2.1418797969818115,-1.3336549562266846,-2.5268591086017054,6.111005055695333,1.0175976753234863,-2.0737088362323206
1708435379.5820673,-2.1418347358703613,-1.3336099994233628,-2.5268219153033655,6.111024844437399,1.0175812244415283,-2.0736826101886194
1708435379.584098,-2.1418542861938477,-1.3336222630790253,-2.526872460042135,6.111014115601339,1.0176262855529785,-2.0736539999591272
1708435379.586079,-2.1418957710266113,-1.3336474758437653,-2.5268262068377894,6.111057507782736,1.017622709274292,-2.0737159887896937
1708435379.5880725,-2.14189076423645,-1.3336790365031739,-2.526802364979879,6.1110232947166345,1.0175899267196655,-2.073704544697897
1708435379.5900645,-2.1418416500091553,-1.3337206554463883,-2.5268517176257532,6.111020314484396,1.0176184177398682,-2.0736830870257776
1708435379.5920737,-2.1418673992156982,-1.3336460155299683,-2.5268517176257532,6.111086118012228,1.0176513195037842,-2.0736539999591272
1708435379.5940888,-2.1418347358703613,-1.3335966628840943,-2.5268800894366663,6.1110113737876794,1.0176140069961548,-2.0737608114825647
1708435379.5960712,-2.1418585777282715,-1.3336593818715592,-2.5268262068377894,6.111014234810629,1.0176184177398682,-2.0736940542804163
1708435379.598079,-2.141904592514038,-1.3336835515550156,-2.526785437260763,6.111020433693685,1.0176109075546265,-2.073691193257467
1708435379.600159,-2.1418938636779785,-1.3336296838572999,-2.526835266743795,6.110985982209005,1.0176349878311157,-2.073691193257467
1708435379.602087,-2.1418864727020264,-1.3336757284453888,-2.526876989995138,6.111059415131368,1.017605185508728,-2.0736826101886194
1708435379.6041098,-2.1418752670288086,-1.3336549562266846,-2.5268054644214075,6.111014234810629,1.0176349878311157,-2.073691193257467
1708435379.6060913,-2.1418709754943848,-1.3336311143687745,-2.526872698460714,6.111048567086019,1.0176316499710083,-2.0736869017230433
1708435379.6080868,-2.141906499862671,-1.3336923879436036,-2.5268800894366663,6.111084568291464,1.017676591873169,-2.0737431685077112
1708435379.6100893,-2.141885280609131,-1.3336924326470871,-2.526802364979879,6.111071097641744,1.0176140069961548,-2.0737431685077112
1708435379.6120765,-2.1418864727020264,-1.3336790365031739,-2.5268517176257532,6.111051785736837,1.017627239227295,-2.0737388769732874
1708435379.6141365,-2.14189076423645,-1.3336474609426041,-2.5268710295306605,6.111101019173422,1.0176022052764893,-2.073714081441061
1708435379.6162727,-2.141913890838623,-1.3336341840079804,-2.5268307367907923,6.111108767777242,1.017655611038208,-2.0737388769732874
1708435379.6181235,-2.141909599304199,-1.3336668771556397,-2.526835266743795,6.111117708473959,1.0176513195037842,-2.0737064520465296
1708435379.6200721,-2.14186692237854,-1.3336164069226761,-2.5268099943744105,6.111045944481649,1.0175811052322388,-2.0737388769732874
1708435379.6220775,-2.1418981552124023,-1.3337043535760422,-2.52682334581484,6.111117708473959,1.017627239227295,-2.0737183729754847
1708435379.6241126,-2.141845941543579,-1.3336713028005143,-2.5268219153033655,6.1111042378242395,1.0175811052322388,-2.0736931006061
1708435379.6260712,-2.1419219970703125,-1.3336757284453888,-2.5268517176257532,6.111144292145529,1.0176305770874023,-2.0737512747394007
1708435379.6281106,-2.141951322555542,-1.3336460006288071,-2.52686053911318,6.111157643585958,1.017622709274292,-2.0737670103656214
1708435379.6300771,-2.141909599304199,-1.3336593818715592,-2.5268307367907923,6.111104357033529,1.017655611038208,-2.0737512747394007
1708435379.6321194,-2.14193058013916,-1.3336637628129502,-2.5268335978137415,6.111132252007284,1.0176438093185425,-2.073775116597311
1708435379.634079,-2.1419262886047363,-1.3336549562266846,-2.526856247578756,6.111132252007284,1.0176349878311157,-2.0737670103656214
1708435379.636107,-2.1418285369873047,-1.333684654240944,-2.526818815861837,6.111123430519857,1.0175899267196655,-2.0737584272967737
1708435379.6380713,-2.1418850421905518,-1.3337131601623078,-2.5268262068377894,6.111111509590902,1.0176140069961548,-2.07375413576235
1708435379.6400895,-2.141878128051758,-1.3336579215577622,-2.5268307367907923,6.111095416336813,1.0176184177398682,-2.073775116597311
1708435379.6420841,-2.141913890838623,-1.3336296838572999,-2.526835266743795,6.111099946289816,1.0175889730453491,-2.0736845175372522
1708435379.6440883,-2.1419010162353516,-1.3336998981288453,-2.5268681685077112,6.111086475640096,1.0176022052764893,-2.073770825062887
1708435379.6460793,-2.1419010162353516,-1.33367574334655,-2.526856247578756,6.111135232239523,1.0176140069961548,-2.073775116597311
1708435379.6480944,-2.1418893337249756,-1.3337207001498719,-2.5268517176257532,6.1111217615898035,1.0176513195037842,-2.073721710835592
1708435379.650073,-2.1419010162353516,-1.3336011332324524,-2.5268591086017054,6.111095297127523,1.0176095962524414,-2.073766533528463
1708435379.6520746,-2.1419262886047363,-1.3336998981288453,-2.5268591086017054,6.111118900566854,1.0176467895507812,-2.0737584272967737
1708435379.6540704,-2.1419589519500732,-1.3336968582919617,-2.5268426577197474,6.111144172936239,1.0176140069961548,-2.0737741629229944
1708435379.6560814,-2.1419222354888916,-1.3336460155299683,-2.5268262068377894,6.111126291542806,1.017605185508728,-2.073746983204977
1708435379.6581056,-2.1418938636779785,-1.3336998981288453,-2.5268877188311976,6.111172902375021,1.017560601234436,-2.073787037526266
1708435379.6600733,-2.1419219970703125,-1.3336534810117264,-2.5268636385547083,6.111098038941183,1.0176095962524414,-2.073803249989645
1708435379.6620746,-2.1418967247009277,-1.3336713028005143,-2.526872698460714,6.111156451493063,1.0176513195037842,-2.0737956205951136
1708435379.6640985,-2.1418967247009277,-1.3337295365384598,-2.5268099943744105,6.111126291542806,1.0176109075546265,-2.0737956205951136
1708435379.6660798,-2.1418895721435547,-1.333638609652855,-2.526818815861837,6.1111217615898035,1.0176140069961548,-2.073803249989645
1708435379.6681042,-2.1419262886047363,-1.33367574334655,-2.526856247578756,6.111172902375021,1.0175976753234863,-2.073803249989645
1708435379.670088,-2.1419434547424316,-1.3337087345174332,-2.5268426577197474,6.111139881401815,1.0176305770874023,-2.0737784544574183
1708435379.6720865,-2.1419262886047363,-1.3337117296508332,-2.5268099943744105,6.111192452698507,1.0176305770874023,-2.0737455526935022
1708435379.674085,-2.1419386863708496,-1.3337533336928864,-2.5268681685077112,6.111213195114889,1.0176095962524414,-2.0738242308246058
1708435379.6760972,-2.1419131755828857,-1.333666906957962,-2.5268471876727503,6.111180174141683,1.0175855159759521,-2.073787037526266
1708435379.6780841,-2.141934394836426,-1.3336757284453888,-2.5268381277667444,6.111192452698507,1.017622709274292,-2.073770825062887
1708435379.6800888,-2.141941547393799,-1.3336668771556397,-2.5268471876727503,6.111154901772299,1.017622709274292,-2.073798958455221
1708435379.6821241,-2.1419010162353516,-1.3336701703122635,-2.5268965403186243,6.111204373627462,1.0176512002944946,-2.073798958455221
1708435379.684094,-2.141880989074707,-1.3337043088725586,-2.5268636385547083,6.111205923348226,1.0176184177398682,-2.073787037526266
1708435379.6860867,-2.141904592514038,-1.3336623472026368,-2.526889149342672,6.111229645996847,1.017606496810913,-2.0738075415240687
1708435379.688084,-2.1419460773468018,-1.3336460155299683,-2.5268219153033655,6.1111252186592,1.0176305770874023,-2.073794666920797
1708435379.6900806,-2.1419754028320312,-1.3336835515550156,-2.5268545786487024,6.111178982048788,1.0176796913146973,-2.073782745991842
1708435379.6920986,-2.1419262886047363,-1.3336953979781647,-2.5268846193896692,6.111180174141683,1.0176140069961548,-2.073794666920797
1708435379.6940818,-2.141913414001465,-1.3337087792209168,-2.5268517176257532,6.1111429808433435,1.0176305770874023,-2.0738185087787073
1708435379.6960661,-2.1419551372528076,-1.333638609652855,-2.526818815861837,6.111195432930746,1.0176174640655518,-2.0737298170672815
1708435379.6980822,-2.1419503688812256,-1.3336879921010514,-2.5268471876727503,6.1111968634422205,1.017576813697815,-2.0737455526935022
1708435379.700177,-2.141934394836426,-1.3336835664561768,-2.5268755594836634,6.111204373627462,1.017622709274292,-2.073798958455221
1708435379.7020926,-2.141934394836426,-1.3336835664561768,-2.5268173853503626,6.111166822701254,1.0176140069961548,-2.073869053517477
1708435379.7040756,-2.1419503688812256,-1.3337043088725586,-2.526856247578756,6.111245620041647,1.0176184177398682,-2.0737903753863733
1708435379.7060618,-2.1419837474823,-1.33365053058181,-2.5268545786487024,6.111195432930746,1.0176678895950317,-2.0737741629229944
1708435379.7080965,-2.1419670581817627,-1.333690957432129,-2.5268142859088343,6.111154901772299,1.0176262855529785,-2.073794666920797
1708435379.7100887,-2.141930103302002,-1.3336998981288453,-2.5268545786487024,6.111159312516012,1.0175966024398804,-2.073766533528463
1708435379.712078,-2.141979455947876,-1.3337132197669526,-2.5268664995776575,6.111168253212728,1.0176262855529785,-2.0737741629229944
1708435379.7140746,-2.141941547393799,-1.3336623472026368,-2.5268381277667444,6.111220586090841,1.0176184177398682,-2.073770825062887
1708435379.7160816,-2.141930103302002,-1.3337013882449646,-2.5268591086017054,6.1111594317253015,1.0176184177398682,-2.0737693945514124
1708435379.7180865,-2.1419670581817627,-1.3337415021708985,-2.526839796696798,6.111150371819296,1.0176184177398682,-2.073836151753561
1708435379.7200973,-2.1419878005981445,-1.3336701703122635,-2.5268219153033655,6.1111910221870325,1.0176513195037842,-2.0737455526935022
1708435379.722078,-2.141937255859375,-1.3336879771998902,-2.5268517176257532,6.111150371819296,1.0176467895507812,-2.0738142172442835
1708435379.7240684,-2.1419503688812256,-1.3336623472026368,-2.5268262068377894,6.1112252352531335,1.0176349878311157,-2.0738113562213343
1708435379.7260807,-2.1419460773468018,-1.3336953979781647,-2.526835266743795,6.111150371819296,1.0176438093185425,-2.0737784544574183
1708435379.7280815,-2.1419503688812256,-1.3336999130300065,-2.5268219153033655,6.111187922745504,1.0176315307617188,-2.0737579504596155
1708435379.7300751,-2.141930103302002,-1.3336623472026368,-2.5268517176257532,6.111248957901754,1.0176678895950317,-2.0738123098956507
1708435379.7320728,-2.141962766647339,-1.3337073189071198,-2.5268471876727503,6.111178982048788,1.0176140069961548,-2.0737903753863733
1708435379.7340634,-2.141930103302002,-1.3337117445519944,-2.5268307367907923,6.111217725067892,1.0175976753234863,-2.0737817923175257
1708435379.7360804,-2.141925573348999,-1.3336579215577622,-2.5268755594836634,6.111183512001791,1.017639398574829,-2.073815647755758
1708435379.738082,-2.141934394836426,-1.3336668771556397,-2.5268681685077112,6.111244547158041,1.0176305770874023,-2.0738113562213343
1708435379.7400684,-2.141934394836426,-1.333632693891861,-2.5268426577197474,6.11117576339797,1.0176022052764893,-2.073860470448629
1708435379.7420728,-2.141979455947876,-1.3336953532746811,-2.5268262068377894,6.111174690514364,1.017627239227295,-2.073794666920797
1708435379.7440662,-2.141979455947876,-1.3336835515550156,-2.5268517176257532,6.111204254418173,1.0176305770874023,-2.0737817923175257
1708435379.7460566,-2.141925573348999,-1.333632693891861,-2.526888910924093,6.111245620041647,1.017606496810913,-2.073843781148092
1708435379.7480674,-2.1419177055358887,-1.333690957432129,-2.5268471876727503,6.111253487854757,1.0175889730453491,-2.0738113562213343
1708435379.7500594,-2.1419460773468018,-1.333690957432129,-2.5268219153033655,6.111217725067892,1.0176184177398682,-2.0737860838519495
1708435379.7520635,-2.141930103302002,-1.3336549562266846,-2.5268262068377894,6.111216175347128,1.0175933837890625,-2.073798481618063
1708435379.7540827,-2.1419460773468018,-1.3337161999991913,-2.5268591086017054,6.111129629402914,1.0176633596420288,-2.0738070646869105
1708435379.7560713,-2.141953945159912,-1.3336999130300065,-2.5268426577197474,6.1111968634422205,1.0175899267196655,-2.073815647755758
1708435379.7580671,-2.141925573348999,-1.3336593967727204,-2.5268681685077112,6.111187922745504,1.017639398574829,-2.073848549519674
1708435379.760107,-2.141904592514038,-1.333696798687317,-2.526856247578756,6.111174690514364,1.0176424980163574,-2.073794666920797
1708435379.7620661,-2.141962766647339,-1.3337117445519944,-2.5268338362323206,6.11123667934493,1.017622709274292,-2.073822800313131
1708435379.764112,-2.1419169902801514,-1.3336415600827713,-2.5268307367907923,6.111216175347128,1.0176228284835815,-2.073843781148092
1708435379.7660692,-2.141925573348999,-1.3336474758437653,-2.5268755594836634,6.111192452698507,1.0176305770874023,-2.0737741629229944
1708435379.768075,-2.141930103302002,-1.3336579215577622,-2.5268426577197474,6.111183512001791,1.0176349878311157,-2.073822800313131
1708435379.770069,-2.141925573348999,-1.3336820912412186,-2.52682334581484,6.111192452698507,1.017672061920166,-2.0738309065448206
1708435379.7721019,-2.141930103302002,-1.3336683523705979,-2.52688438097109,6.1111252186592,1.0176349878311157,-2.0738070646869105
1708435379.774085,-2.141941547393799,-1.333690957432129,-2.5268636385547083,6.111262428551473,1.017639398574829,-2.0738027731524866
1708435379.776096,-2.141962766647339,-1.3336790365031739,-2.526835266743795,6.111195432930746,1.0176262855529785,-2.073843781148092
1708435379.7780771,-2.1419003009796143,-1.3336701703122635,-2.52688438097109,6.111147510796346,1.0175856351852417,-2.0738142172442835
1708435379.7801077,-2.141908645629883,-1.3337043535760422,-2.526872460042135,6.111229645996847,1.017606496810913,-2.0738027731524866
1708435379.7820625,-2.141932964324951,-1.3336879921010514,-2.5268054644214075,6.111145961075582,1.0176140069961548,-2.0738070646869105
1708435379.7840674,-2.141913414001465,-1.3336505156806489,-2.5268636385547083,6.111147510796346,1.0176512002944946,-2.073782745991842
1708435379.7860548,-2.1419951915740967,-1.3337073189071198,-2.5268800894366663,6.111187922745504,1.0176349878311157,-2.0737698713885706
1708435379.7880726,-2.1419837474823,-1.3336623472026368,-2.5268335978137415,6.111199843674459,1.0175933837890625,-2.0737741629229944
1708435379.7900667,-2.141941547393799,-1.3336835664561768,-2.5268307367907923,6.111129629402914,1.0176349878311157,-2.0738185087787073
1708435379.7920837,-2.141916513442993,-1.3336953979781647,-2.5268142859088343,6.111199843674459,1.0176513195037842,-2.0737860838519495
1708435379.794086,-2.141958236694336,-1.3337251406959076,-2.5268383661853235,6.111187922745504,1.017622709274292,-2.0738351980792444
1708435379.7960746,-2.141925573348999,-1.3336579215577622,-2.5268426577197474,6.111154901772299,1.017627239227295,-2.0738142172442835
1708435379.7980711,-2.141921281814575,-1.3337370616248627,-2.5268755594836634,6.111183512001791,1.017622709274292,-2.073803249989645
1708435379.800117,-2.141932964324951,-1.333690957432129,-2.52682334581484,6.111199843674459,1.0176228284835815,-2.0737784544574183
1708435379.8021078,-2.141925573348999,-1.3337043535760422,-2.5268426577197474,6.111192452698507,1.017659068107605,-2.0738185087787073
1708435379.8040965,-2.141953945159912,-1.3336460006288071,-2.5268471876727503,6.111154901772299,1.0176140069961548,-2.0738142172442835
1708435379.8060718,-2.141887903213501,-1.3336579215577622,-2.526806894932882,6.111183512001791,1.0175899267196655,-2.0738113562213343
1708435379.8080835,-2.1419177055358887,-1.3336549562266846,-2.5268471876727503,6.111183512001791,1.0176217555999756,-2.073794190083639
1708435379.8100774,-2.141937255859375,-1.3336579215577622,-2.526835266743795,6.111216175347128,1.0176392793655396,-2.073798958455221
1708435379.8120818,-2.1418967247009277,-1.3336668771556397,-2.5268099943744105,6.111183512001791,1.0176305770874023,-2.073848072682516
1708435379.8140705,-2.141925573348999,-1.3336865168860932,-2.526856247578756,6.111199843674459,1.0176140069961548,-2.073843781148092
1708435379.8160708,-2.141921281814575,-1.333690957432129,-2.52690560022463,6.111130821495809,1.0176022052764893,-2.073822800313131
1708435379.8180766,-2.1419496536254883,-1.3336924326470871,-2.5268097559558313,6.111204254418173,1.0176053047180176,-2.0738185087787073
1708435379.8200812,-2.141953945159912,-1.333702878361084,-2.5268710295306605,6.111220705300131,1.0175976753234863,-2.0738394896136683
1708435379.8220634,-2.1419670581817627,-1.3336790365031739,-2.526888910924093,6.111205923348226,1.0176349878311157,-2.0737903753863733
1708435379.824077,-2.141904592514038,-1.3337073040059586,-2.5268009344684046,6.111192452698507,1.0176218748092651,-2.073787037526266
1708435379.8260775,-2.1419003009796143,-1.333678961997368,-2.5268471876727503,6.11122344711379,1.0176262855529785,-2.0737817923175257
1708435379.8280954,-2.141937255859375,-1.3336953979781647,-2.5269010702716272,6.111204254418173,1.0176512002944946,-2.073827091847555
1708435379.8300695,-2.141932964324951,-1.3336579215577622,-2.5268545786487024,6.111187922745504,1.017659068107605,-2.073794666920797
1708435379.832077,-2.141937255859375,-1.3336953979781647,-2.5268846193896692,6.111192452698507,1.0176020860671997,-2.073782745991842
1708435379.8340821,-2.141908884048462,-1.333702878361084,-2.5268338362323206,6.111183512001791,1.0175977945327759,-2.0738394896136683
1708435379.836077,-2.141970634460449,-1.3336835515550156,-2.526867930089132,6.111183512001791,1.0176634788513184,-2.073843781148092
1708435379.8380783,-2.1419503688812256,-1.3336089265397568,-2.5268877188311976,6.111229645996847,1.0176349878311157,-2.0738394896136683
1708435379.84011,-2.141932964324951,-1.3336579364589234,-2.5268545786487024,6.111201393395223,1.0176424980163574,-2.0737488905536097
1708435379.84208,-2.141921043395996,-1.333666817550995,-2.5268307367907923,6.1111968634422205,1.0176022052764893,-2.0738185087787073
1708435379.8440995,-2.1419169902801514,-1.3336746406606217,-2.526839796696798,6.111154782563009,1.0176512002944946,-2.0737741629229944
1708435379.8460772,-2.141941547393799,-1.3336923730424424,-2.5268591086017054,6.111262428551473,1.0176184177398682,-2.073794666920797
1708435379.848076,-2.141934394836426,-1.3337116998485108,-2.5268426577197474,6.111138450890341,1.0176140069961548,-2.0737817923175257
1708435379.8500698,-2.141925573348999,-1.3336534959128876,-2.5268307367907923,6.1112087843711755,1.0176600217819214,-2.0738185087787073
1708435379.8520792,-2.141921281814575,-1.3336953979781647,-2.5268142859088343,6.1111429808433435,1.0176467895507812,-2.0738428274737757
1708435379.8540783,-2.141921281814575,-1.3336549562266846,-2.5268471876727503,6.111220705300131,1.0176184177398682,-2.0738070646869105
1708435379.8561594,-2.141925573348999,-1.3336924326470871,-2.5268500486956995,6.111183512001791,1.0175986289978027,-2.073827091847555
1708435379.8580961,-2.141941547393799,-1.3336668771556397,-2.5268054644214075,6.111217725067892,1.0176095962524414,-2.0738027731524866
1708435379.8600981,-2.141904592514038,-1.3336474609426041,-2.5268262068377894,6.1111416695411584,1.017622709274292,-2.0738185087787073
1708435379.8620775,-2.1419169902801514,-1.3336865168860932,-2.5268545786487024,6.111187922745504,1.0176184177398682,-2.0738394896136683
1708435379.8640919,-2.141941547393799,-1.3336790365031739,-2.5268517176257532,6.111134040146627,1.0175693035125732,-2.0737622419940394
1708435379.8660796,-2.141925573348999,-1.3336865317872544,-2.5268471876727503,6.111145961075582,1.017613172531128,-2.073864761983053
1708435379.8681147,-2.141904592514038,-1.3336668771556397,-2.5268262068377894,6.111183512001791,1.0176271200180054,-2.0737770239459437
1708435379.8700776,-2.141932725906372,-1.3336999130300065,-2.5268219153033655,6.111213195114889,1.0176140069961548,-2.0738471190081995
1708435379.8720868,-2.141970634460449,-1.3336790216020127,-2.526872460042135,6.111133920937338,1.0176184177398682,-2.073794666920797
1708435379.8740935,-2.141984224319458,-1.33365053058181,-2.5268426577197474,6.111174690514364,1.0176184177398682,-2.073827091847555
1708435379.8760922,-2.141979455947876,-1.3336460006288071,-2.5268307367907923,6.11117576339797,1.0175693035125732,-2.073822800313131
1708435379.8781102,-2.141962766647339,-1.3336447489312668,-2.526872460042135,6.111142265587606,1.0176184177398682,-2.0738676230060022
1708435379.8801143,-2.141953945159912,-1.333674581055977,-2.5268383661853235,6.1111429808433435,1.0176349878311157,-2.0738394896136683
1708435379.8820777,-2.141962766647339,-1.3336999130300065,-2.526856009160177,6.111155140190878,1.0175977945327759,-2.0738113562213343
1708435379.8840756,-2.141932964324951,-1.33367574334655,-2.5268471876727503,6.11123667934493,1.017622709274292,-2.0738113562213343
1708435379.886073,-2.141941547393799,-1.3336790365031739,-2.52690560022463,6.111155140190878,1.0176643133163452,-2.073822800313131
1708435379.888122,-2.141921281814575,-1.3337251406959076,-2.5268800894366663,6.111188757210531,1.0176184177398682,-2.0738185087787073
1708435379.8900657,-2.141941547393799,-1.3336505603841324,-2.5268219153033655,6.111187922745504,1.0176095962524414,-2.0738676230060022
1708435379.8920717,-2.141921281814575,-1.3337162745049973,-2.5268262068377894,6.111184704094686,1.0176349878311157,-2.0737860838519495
1708435379.8940802,-2.141962766647339,-1.3336549562266846,-2.5268471876727503,6.1111217615898035,1.0176467895507812,-2.0737903753863733
1708435379.8960664,-2.141904592514038,-1.3336491298726578,-2.5268054644214075,6.1111594317253015,1.0176513195037842,-2.0737903753863733
1708435379.8980732,-2.141887903213501,-1.333604411487915,-2.526893440877096,6.111171233444967,1.0176305770874023,-2.0737860838519495
1708435379.900111,-2.1419837474823,-1.3336821359447022,-2.5268681685077112,6.111147510796346,1.0176467895507812,-2.0738070646869105
1708435379.90213,-2.1419503688812256,-1.3336327385953446,-2.526835266743795,6.11113857009963,1.017643690109253,-2.073794666920797
1708435379.904101,-2.141958236694336,-1.3336713028005143,-2.5268142859088343,6.111168253212728,1.0176305770874023,-2.0737860838519495
1708435379.9060714,-2.1419386863708496,-1.3336549562266846,-2.5268471876727503,6.111172783165731,1.017609715461731,-2.0738070646869105
1708435379.9081066,-2.1419503688812256,-1.3337087792209168,-2.526844326649801,6.111138450890341,1.0176305770874023,-2.073843781148092
1708435379.9100897,-2.141908884048462,-1.3337207001498719,-2.5268500486956995,6.111154782563009,1.0176424980163574,-2.073815647755758
1708435379.912083,-2.1419169902801514,-1.333620772962906,-2.5269175211535853,6.111193644791403,1.0176140069961548,-2.073827091847555
1708435379.9140735,-2.1419460773468018,-1.3336461049369355,-2.5268307367907923,6.111177313118734,1.0176349878311157,-2.073794666920797
1708435379.9160862,-2.1419503688812256,-1.3336713177016755,-2.5268965403186243,6.1111594317253015,1.0175977945327759,-2.073827091847555
1708435379.9180858,-2.141913414001465,-1.3336953830770035,-2.526818815861837,6.111171233444967,1.0176349878311157,-2.073843781148092
1708435379.9200926,-2.1419003009796143,-1.333737076526024,-2.5268517176257532,6.111130821495809,1.0176140069961548,-2.073794666920797
1708435379.9220774,-2.141930103302002,-1.33367012560878,-2.5268681685077112,6.111187922745504,1.0176349878311157,-2.073815647755758
1708435379.9240885,-2.141941547393799,-1.3336460155299683,-2.5268009344684046,6.111147510796346,1.017622709274292,-2.0737784544574183
1708435379.926083,-2.141908884048462,-1.3336623472026368,-2.5268681685077112,6.111138450890341,1.017638087272644,-2.073827091847555
1708435379.9280837,-2.1419003009796143,-1.3336534810117264,-2.5267980734454554,6.111109959870138,1.0176512002944946,-2.0738309065448206
1708435379.9300697,-2.1418967247009277,-1.3336835664561768,-2.5268800894366663,6.111168253212728,1.017622709274292,-2.073827091847555
1708435379.9320858,-2.141908884048462,-1.3336296838572999,-2.5268710295306605,6.11113070228652,1.0176151990890503,-2.073798958455221
1708435379.9340856,-2.141932964324951,-1.3336835664561768,-2.5268099943744105,6.111127841263571,1.0176140069961548,-2.0738351980792444
1708435379.9360929,-2.141908645629883,-1.3336657744697114,-2.526872460042135,6.111189234047689,1.017576813697815,-2.073777500783102
1708435379.9380836,-2.141904592514038,-1.3336222481778641,-2.5268142859088343,6.111139762192526,1.0176140069961548,-2.073855702077047
1708435379.9401078,-2.1419503688812256,-1.3336999130300065,-2.5268545786487024,6.111139762192526,1.0176305770874023,-2.0738070646869105
1708435379.9420774,-2.141925573348999,-1.3336623472026368,-2.5268517176257532,6.111172783165731,1.0176424980163574,-2.0738099257098597
1708435379.944095,-2.141937255859375,-1.3336549562266846,-2.5268800894366663,6.111099827080526,1.017606496810913,-2.0737903753863733
1708435379.9460733,-2.141930103302002,-1.3336880517056962,-2.526818815861837,6.111136662750997,1.0176184177398682,-2.073855702077047
1708435379.9480734,-2.1418874263763428,-1.3336835664561768,-2.5268636385547083,6.11113070228652,1.0176022052764893,-2.0738351980792444
1708435379.9500854,-2.141958236694336,-1.3336668622544785,-2.5268664995776575,6.111095416336813,1.0176184177398682,-2.0737817923175257
1708435379.952109,-2.1419460773468018,-1.3337117445519944,-2.5268381277667444,6.111078846245565,1.017606496810913,-2.0738070646869105
1708435379.954091,-2.141941547393799,-1.3336713177016755,-2.526921812688009,6.111177313118734,1.0176305770874023,-2.073787037526266
1708435379.9560833,-2.141962766647339,-1.3336835664561768,-2.5268500486956995,6.1111159203346155,1.0176022052764893,-2.0737903753863733
1708435379.9580846,-2.1419429779052734,-1.3337236654809494,-2.52688438097109,6.111172783165731,1.0176349878311157,-2.0738070646869105
1708435379.9600945,-2.1419460773468018,-1.3337072295001526,-2.5268471876727503,6.111132252007284,1.0176469087600708,-2.0738471190081995
1708435379.9620745,-2.1419460773468018,-1.3336535704186936,-2.5268545786487024,6.111138450890341,1.0176841020584106,-2.073798958455221
1708435379.9640787,-2.1419460773468018,-1.333643065100052,-2.526856247578756,6.111139762192526,1.0176305770874023,-2.073782745991842
1708435379.966077,-2.141934394836426,-1.3336415600827713,-2.5268591086017054,6.111144172936239,1.0176053047180176,-2.0738027731524866
1708435379.9680815,-2.1419503688812256,-1.3336790365031739,-2.5268009344684046,6.111177313118734,1.0176469087600708,-2.073794666920797
1708435379.9700763,-2.141934394836426,-1.3336790365031739,-2.5269084612475794,6.111091005593099,1.0176184177398682,-2.073843781148092
1708435379.9720924,-2.1419589519500732,-1.3336460155299683,-2.5268710295306605,6.111157643585958,1.0176467895507812,-2.0737860838519495
1708435379.9740868,-2.141962766647339,-1.3336865317872544,-2.5268426577197474,6.111124861031332,1.0176262855529785,-2.0737817923175257
1708435379.9761229,-2.14190411567688,-1.3336924624494095,-2.5268219153033655,6.111071097641744,1.0176140069961548,-2.0738027731524866
1708435379.9780896,-2.1419496536254883,-1.3336668771556397,-2.526856247578756,6.111136662750997,1.017622709274292,-2.0738351980792444
1708435379.980078,-2.141941547393799,-1.3336178970387955,-2.5268307367907923,6.1111159203346155,1.0176349878311157,-2.073822800313131
1708435379.982065,-2.1419460773468018,-1.33365352571521,-2.5268591086017054,6.111124861031332,1.0176271200180054,-2.0738394896136683
1708435379.9840662,-2.141930103302002,-1.3336342436126252,-2.526835266743795,6.111113178520956,1.0176512002944946,-2.0738142172442835
1708435379.9860651,-2.141934394836426,-1.3336999130300065,-2.5268471876727503,6.1111042378242395,1.0176392793655396,-2.0738027731524866
1708435379.988075,-2.141962766647339,-1.3336668622544785,-2.5268471876727503,6.111083137779989,1.0176305770874023,-2.0738113562213343
1708435379.9900653,-2.141934633255005,-1.333637223844864,-2.5268636385547083,6.111124861031332,1.0175812244415283,-2.0738070646869105
1708435379.9920616,-2.1419177055358887,-1.3336924326470871,-2.5268426577197474,6.111069786339559,1.0176467895507812,-2.0738351980792444
1708435379.9940698,-2.1419460773468018,-1.3336668771556397,-2.5268219153033655,6.111083137779989,1.0176305770874023,-2.0738309065448206
1708435379.996084,-2.141921281814575,-1.3336579960635682,-2.52688438097109,6.1111159203346155,1.0176349878311157,-2.073794190083639
1708435379.9980657,-2.141934394836426,-1.3336923879436036,-2.526835266743795,6.111096608429708,1.0176022052764893,-2.0738070646869105
1708435380.0001104,-2.141941547393799,-1.333737091427185,-2.5268636385547083,6.111095416336813,1.0176022052764893,-2.0738309065448206
1708435380.0021515,-2.141921281814575,-1.3337117445519944,-2.5268636385547083,6.111101019173422,1.017659068107605,-2.0738070646869105
1708435380.004229,-2.141941547393799,-1.3337236654809494,-2.5268755594836634,6.111074197083273,1.017622709274292,-2.0737860838519495
1708435380.0061092,-2.141916513442993,-1.3337281060269852,-2.5268130938159388,6.111120331078329,1.0176140069961548,-2.0738351980792444
1708435380.0081096,-2.1418967247009277,-1.333695412879326,-2.526867930089132,6.111092078476705,1.0176218748092651,-2.073827091847555
1708435380.0100744,-2.1419503688812256,-1.3337042939713974,-2.5268471876727503,6.111101019173422,1.0176140069961548,-2.0737817923175257
1708435380.012072,-2.1419460773468018,-1.333620862369873,-2.526856247578756,6.111084568291464,1.0176512002944946,-2.0737860838519495
1708435380.014105,-2.141904592514038,-1.3337191951325913,-2.5268681685077112,6.111059415131368,1.0175933837890625,-2.073822800313131
1708435380.0160913,-2.1419713497161865,-1.3336790365031739,-2.5268517176257532,6.111047374993124,1.0176022052764893,-2.0738113562213343
1708435380.018092,-2.141880989074707,-1.3336746257594605,-2.5268517176257532,6.111113178520956,1.0176184177398682,-2.0738309065448206
1708435380.020084,-2.141921043395996,-1.3336505156806489,-2.5268755594836634,6.11102174499587,1.0176305770874023,-2.073805634175436
1708435380.0220816,-2.1419460773468018,-1.333641604786255,-2.526872460042135,6.111113297730245,1.0176184177398682,-2.0737488905536097
1708435380.0240822,-2.1419506072998047,-1.3337087792209168,-2.5268009344684046,6.111026274948873,1.0176022052764893,-2.0738070646869105
1708435380.0260875,-2.1419503688812256,-1.33367574334655,-2.526856247578756,6.111054765969076,1.0176424980163574,-2.0737741629229944
1708435380.0281043,-2.141930103302002,-1.3336668771556397,-2.5268307367907923,6.111108767777242,1.017609715461731,-2.073798481618063
1708435380.030084,-2.1419460773468018,-1.3336790365031739,-2.5268500486956995,6.111117708473959,1.0176262855529785,-2.073777500783102
1708435380.0320778,-2.1419551372528076,-1.3336998981288453,-2.5268517176257532,6.1111336825187585,1.0176467895507812,-2.073843781148092
1708435380.0340843,-2.1419880390167236,-1.3336252135089417,-2.526856247578756,6.111109959870138,1.0176140069961548,-2.073794666920797
1708435380.0360734,-2.1418967247009277,-1.3336505156806489,-2.526839796696798,6.111113297730245,1.0175977945327759,-2.073848549519674
1708435380.0380795,-2.1419010162353516,-1.3336594116738816,-2.5268142859088343,6.111096489220419,1.017606496810913,-2.0738309065448206
1708435380.0400774,-2.141908645629883,-1.3336953830770035,-2.5268636385547083,6.111030685692587,1.017606496810913,-2.073815647755758
1708435380.0420768,-2.1418967247009277,-1.3336835664561768,-2.5268471876727503,6.111054765969076,1.0175724029541016,-2.073826615010397
1708435380.0441074,-2.141855478286743,-1.3336835664561768,-2.5268054644214075,6.1111100790794275,1.0176424980163574,-2.0738185087787073
1708435380.0460896,-2.141876459121704,-1.3336953681758423,-2.5268262068377894,6.1110726473625085,1.0176512002944946,-2.073794666920797
1708435380.0481145,-2.141892194747925,-1.3336133819869538,-2.5268636385547083,6.111095416336813,1.0175977945327759,-2.0738514105426233
1708435380.0500817,-2.141908884048462,-1.33365053058181,-2.526888910924093,6.1110726473625085,1.0176349878311157,-2.073798481618063
1708435380.0520954,-2.141913414001465,-1.3336579215577622,-2.5268755594836634,6.111059295922079,1.0176262855529785,-2.0738185087787073
1708435380.0540764,-2.1419053077697754,-1.3336790365031739,-2.5268381277667444,6.111066806107321,1.0176467895507812,-2.0738309065448206
1708435380.0560803,-2.141925573348999,-1.333666892056801,-2.526888910924093,6.1110936281974695,1.0176349878311157,-2.0737784544574183
1708435380.0580866,-2.1419010162353516,-1.3336386394551774,-2.5268636385547083,6.111101019173422,1.0176305770874023,-2.073848072682516
1708435380.0600824,-2.141958475112915,-1.3336790812066575,-2.526818815861837,6.111096489220419,1.017609715461731,-2.0738394896136683
1708435380.0620759,-2.141934633255005,-1.3336668771556397,-2.5268710295306605,6.111063825875082,1.017638087272644,-2.0738185087787073
1708435380.0641057,-2.141887903213501,-1.333699883227684,-2.52688438097109,6.111126649170675,1.0175977945327759,-2.0738309065448206
1708435380.066087,-2.1419713497161865,-1.333692417745926,-2.526879851018087,6.111068236618795,1.0175977945327759,-2.0737741629229944
1708435380.0680969,-2.141974925994873,-1.3336460006288071,-2.5268755594836634,6.1110771773155115,1.0176349878311157,-2.073826615010397
1708435380.0700815,-2.1419506072998047,-1.3336623770049592,-2.526879851018087,6.111044037133016,1.017609715461731,-2.0738027731524866
1708435380.0720732,-2.1419506072998047,-1.3336835515550156,-2.5268099943744105,6.111063825875082,1.0176053047180176,-2.0737817923175257
1708435380.0741103,-2.1419503688812256,-1.333679051404335,-2.5268800894366663,6.1110890982444666,1.0176512002944946,-2.073787037526266
1708435380.0760837,-2.1419262886047363,-1.3337072742036362,-2.5268426577197474,6.11108015754775,1.017622709274292,-2.073787037526266
1708435380.0781221,-2.141908884048462,-1.3336460453322907,-2.5268755594836634,6.1110890982444666,1.0176512002944946,-2.0737627188311976
1708435380.0800996,-2.141934394836426,-1.3336879921010514,-2.5268307367907923,6.111068236618795,1.0176424980163574,-2.073726002370016
1708435380.082078,-2.1419756412506104,-1.3336415600827713,-2.526835266743795,6.111075746804037,1.017622709274292,-2.0737064520465296
1708435380.0840902,-2.141930103302002,-1.3336953979781647,-2.526867930089132,6.111122119217672,1.0176184177398682,-2.0737302939044397
1708435380.0860822,-2.1419589519500732,-1.3337295365384598,-2.5268636385547083,6.111054765969076,1.0176512002944946,-2.0736869017230433
1708435380.0880737,-2.1419460773468018,-1.3337087345174332,-2.5268471876727503,6.111063825875082,1.0176184177398682,-2.07367450395693
1708435380.090085,-2.141880989074707,-1.3336460453322907,-2.5268471876727503,6.111084568291464,1.0176053047180176,-2.0736549536334437
1708435380.0920846,-2.141913414001465,-1.3336879921010514,-2.5268471876727503,6.111050474434652,1.0176140069961548,-2.073606793080465
1708435380.094093,-2.141908884048462,-1.3336490553668519,-2.5268800894366663,6.1111042378242395,1.0176305770874023,-2.0735581556903284
1708435380.096075,-2.141925573348999,-1.3336505156806489,-2.5268591086017054,6.111059295922079,1.0176022052764893,-2.073550049458639
1708435380.0980747,-2.141930103302002,-1.3336088520339509,-2.5268517176257532,6.111087548523702,1.0176424980163574,-2.0735347906695765
1708435380.1001084,-2.141930103302002,-1.3336549413255234,-2.5268664995776575,6.111039626389303,1.0176053047180176,-2.073494259511129
1708435380.10216,-2.1419177055358887,-1.3336372089437027,-2.5268471876727503,6.111050474434652,1.0176184177398682,-2.073466126118795
1708435380.1041584,-2.141925573348999,-1.3336999130300065,-2.52688438097109,6.111046063690939,1.0176600217819214,-2.0734098593341272
1708435380.1060848,-2.141908884048462,-1.3336460006288071,-2.5268307367907923,6.111012923508444,1.0176392793655396,-2.073401753102438
1708435380.1081104,-2.141908884048462,-1.3336579215577622,-2.5268755594836634,6.111048567086019,1.0176349878311157,-2.073395077382223
1708435380.110095,-2.1418964862823486,-1.3336953979781647,-2.5268755594836634,6.111084568291464,1.0176512002944946,-2.073301140462057
1708435380.1120791,-2.1419386863708496,-1.3336835664561768,-2.5268383661853235,6.1110068438346765,1.0176140069961548,-2.0732410589801233
1708435380.114078,-2.141930103302002,-1.3337087494185944,-2.5268591086017054,6.111101019173422,1.0176349878311157,-2.0732138792621058
1708435380.1161163,-2.1419053077697754,-1.333683581357338,-2.5268054644214075,6.111113178520956,1.0176512002944946,-2.0731852690326136
1708435380.1180818,-2.1419503688812256,-1.333666892056801,-2.5268922487842005,6.11105631568984,1.0176512002944946,-2.0731375853167933
1708435380.1200886,-2.1419386863708496,-1.3336296391538163,-2.5268922487842005,6.111083137779989,1.0176305770874023,-2.0730279127704065
1708435380.122091,-2.141921281814575,-1.3337207001498719,-2.5268545786487024,6.111084568291464,1.0176600217819214,-2.072972122822897
1708435380.1240852,-2.141887903213501,-1.333654986029007,-2.5268471876727503,6.111047374993124,1.0176512002944946,-2.0729334990130823
1708435380.1260843,-2.1419169902801514,-1.3336534810117264,-2.526835266743795,6.111083137779989,1.017638087272644,-2.0728490988360804
1708435380.1281579,-2.1419546604156494,-1.3337028485587616,-2.5268426577197474,6.11108015754775,1.0176262855529785,-2.072718922291891
1708435380.130076,-2.141934633255005,-1.3336296391538163,-2.5268517176257532,6.111018764763632,1.0176677703857422,-2.072693173085348
1708435380.1321225,-2.1419003009796143,-1.3336534810117264,-2.5268922487842005,6.111099946289816,1.017609715461731,-2.072542969380514
1708435380.1340787,-2.141941547393799,-1.3336668771556397,-2.526867930089132,6.111117708473959,1.0176218748092651,-2.072487179433004
1708435380.1360848,-2.1419177055358887,-1.33365053058181,-2.5268800894366663,6.1110726473625085,1.017622709274292,-2.0724242369281214
1708435380.1381106,-2.141913414001465,-1.3336415600827713,-2.5268755594836634,6.11105631568984,1.017609715461731,-2.072292153035299
1708435380.1400902,-2.141941547393799,-1.33372517049823,-2.5268545786487024,6.1110771773155115,1.0176512002944946,-2.0721915403949183
1708435380.1420856,-2.1419177055358887,-1.3336879921010514,-2.5268142859088343,6.1110384342964075,1.0176184177398682,-2.072066132222311
1708435380.1440716,-2.1418964862823486,-1.3337073189071198,-2.5268471876727503,6.1110890982444666,1.0176349878311157,-2.072012726460592
1708435380.146066,-2.1419594287872314,-1.3337207001498719,-2.5268591086017054,6.111075746804037,1.017659068107605,-2.07190448442568
1708435380.1480787,-2.1419546604156494,-1.333620772962906,-2.5268545786487024,6.111071097641744,1.017609715461731,-2.071780029927389
1708435380.1500998,-2.1419551372528076,-1.3336953830770035,-2.5268636385547083,6.111054765969076,1.0176140069961548,-2.071602169667379
1708435380.152097,-2.1419219970703125,-1.3336923879436036,-2.5268517176257532,6.111063825875082,1.0176424980163574,-2.071482006703512
1708435380.154078,-2.1419837474823,-1.3336790365031739,-2.5268517176257532,6.111096489220419,1.0176140069961548,-2.0713451544391077
1708435380.1560836,-2.141913414001465,-1.3336726439050217,-2.5268710295306605,6.111071216851034,1.0176841020584106,-2.071193520222799
1708435380.1581025,-2.1419460773468018,-1.3336790365031739,-2.526872460042135,6.111108767777242,1.017609715461731,-2.0710747877704065
1708435380.1601121,-2.141913414001465,-1.3336865168860932,-2.5268219153033655,6.111117708473959,1.0176467895507812,-2.0709293524371546
1708435380.1620708,-2.1418967247009277,-1.333666892056801,-2.5268922487842005,6.111087548523702,1.0176512002944946,-2.070756737385885
1708435380.1640825,-2.141892194747925,-1.3336668771556397,-2.5268173853503626,6.111071216851034,1.017638087272644,-2.0705888907061976
1708435380.1660821,-2.141908884048462,-1.3337162894061585,-2.5268922487842005,6.111123430519857,1.0176721811294556,-2.070530716572897
1708435380.1681,-2.141892194747925,-1.3337117445519944,-2.5268965403186243,6.111122119217672,1.0176424980163574,-2.0703447500811976
1708435380.1700757,-2.1418652534484863,-1.3336460006288071,-2.5268262068377894,6.111062276154318,1.0176546573638916,-2.0701115767108362
1708435380.1720943,-2.141892194747925,-1.3336132329753418,-2.5268591086017054,6.111099827080526,1.0176424980163574,-2.069984261189596
1708435380.174081,-2.141937255859375,-1.333690957432129,-2.5268545786487024,6.111136662750997,1.0176546573638916,-2.069803539906637
1708435380.1761084,-2.141925573348999,-1.3336999428323288,-2.5268755594836634,6.111068236618795,1.0176546573638916,-2.0696404615985315
1708435380.17809,-2.1419219970703125,-1.333699883227684,-2.526851479207174,6.1111159203346155,1.017625093460083,-2.069455925618307
1708435380.1800954,-2.1419951915740967,-1.333692492251732,-2.5268471876727503,6.111111509590902,1.017659068107605,-2.0693119207965296
1708435380.1820762,-2.1419386863708496,-1.3336668771556397,-2.5268877188311976,6.111136662750997,1.0176633596420288,-2.06907827058901
1708435380.184091,-2.141934394836426,-1.3336865168860932,-2.5268262068377894,6.111141192704,1.0176218748092651,-2.0688818136798304
1708435380.1860795,-2.141962766647339,-1.3336953830770035,-2.5268922487842005,6.111123311310568,1.0176752805709839,-2.06869346300234
1708435380.1880922,-2.141921281814575,-1.3337087792209168,-2.5268500486956995,6.111160981446066,1.0176708698272705,-2.068493668233053
1708435380.1900802,-2.1419460773468018,-1.33365053058181,-2.5268591086017054,6.11115192154006,1.0176634788513184,-2.0683305899249476
1708435380.1921039,-2.141930103302002,-1.3336909425309678,-2.5268338362323206,6.111135232239523,1.0176503658294678,-2.068172279988424
1708435380.1940763,-2.1419503688812256,-1.3336579364589234,-2.5269084612475794,6.111086356430807,1.0176459550857544,-2.0678733030902308
1708435380.1960723,-2.1419503688812256,-1.3336712431958695,-2.5268591086017054,6.111139762192526,1.0176546573638916,-2.0676329771624964
1708435380.1980734,-2.141925573348999,-1.3336208325675507,-2.5268920103656214,6.11113070228652,1.0176665782928467,-2.067404095326559
1708435380.200079,-2.141934394836426,-1.3336790365031739,-2.5268545786487024,6.111132252007284,1.0177034139633179,-2.067192856465475
1708435380.2021608,-2.1419177055358887,-1.3336701554111023,-2.5268636385547083,6.111118781357565,1.0176904201507568,-2.0669310728656214
1708435380.2041252,-2.141925573348999,-1.3336296540549775,-2.5268786589251917,6.111210453301229,1.0176459550857544,-2.066691223775045
1708435380.206112,-2.1419878005981445,-1.3336623024991532,-2.5269039312945765,6.111172902375021,1.0176502466201782,-2.0664566198932093
1708435380.2080905,-2.1419546604156494,-1.3337116998485108,-2.5268500486956995,6.111114370613851,1.0176784992218018,-2.0661800543414515
1708435380.210081,-2.141963005065918,-1.3337355715087433,-2.5268381277667444,6.111201393395223,1.017707347869873,-2.065892044697897
1708435380.2120776,-2.1419010162353516,-1.333674581055977,-2.5268755594836634,6.111180174141683,1.0177034139633179,-2.065639321004049
1708435380.2140734,-2.1419386863708496,-1.3336623919061203,-2.5268381277667444,6.111222374230184,1.0176784992218018,-2.0652969519244593
1708435380.2160702,-2.141934394836426,-1.3336879921010514,-2.5268545786487024,6.111166703491964,1.0176985263824463,-2.0650785605060022
1708435380.2180848,-2.141913414001465,-1.3336953830770035,-2.5268741289721888,6.111153352051534,1.0176653861999512,-2.064795796071188
1708435380.2200794,-2.141930103302002,-1.3337280613235016,-2.5269039312945765,6.111180174141683,1.017707347869873,-2.0645092169391077
1708435380.2221417,-2.141876459121704,-1.3336790365031739,-2.526890579854147,6.1112252352531335,1.0177028179168701,-2.0642417112933558
1708435380.2241023,-2.141925573348999,-1.333662362103798,-2.5269206205951136,6.111163842469015,1.017685890197754,-2.063904587422506
1708435380.2260993,-2.1418838500976562,-1.3337325763753434,-2.5268920103656214,6.111180293350973,1.0176985263824463,-2.0636051336871546
1708435380.22808,-2.141904592514038,-1.3336865168860932,-2.5268951098071497,6.11123417594985,1.0177353620529175,-2.0632503668414515
1708435380.230078,-2.1419589519500732,-1.333662362103798,-2.5268920103656214,6.111180174141683,1.017706036567688,-2.0629141966449183
1708435380.232103,-2.141958236694336,-1.333702878361084,-2.5268786589251917,6.111129510193624,1.0177267789840698,-2.062630001698629
1708435380.2340834,-2.141925573348999,-1.3337162298015137,-2.5268576780902308,6.1111910221870325,1.017730951309204,-2.0622533003436487
1708435380.236066,-2.1419460773468018,-1.3336657744697114,-2.526890579854147,6.111187922745504,1.017706036567688,-2.0619810263263147
1708435380.2380755,-2.141941547393799,-1.333702878361084,-2.526928249989645,6.111220705300131,1.0177104473114014,-2.0616090933429163
1708435380.2400925,-2.1418895721435547,-1.3337072742036362,-2.526890579854147,6.111204373627462,1.0177266597747803,-2.061312977467672
1708435380.242077,-2.141904592514038,-1.3336940270713349,-2.526931111012594,6.111202823906698,1.0177178382873535,-2.060943905507223
1708435380.2441134,-2.141887903213501,-1.3336953830770035,-2.526914660130636,6.111240136414327,1.0176973342895508,-2.0606115500079554
1708435380.2460885,-2.1418967247009277,-1.3336953830770035,-2.5268951098071497,6.111227857857504,1.017717957496643,-2.060263458882467
1708435380.2480805,-2.1419460773468018,-1.3336701852134247,-2.526919190083639,6.111181962281027,1.017783522605896,-2.0598986784564417
1708435380.2500749,-2.141909599304199,-1.3336999130300065,-2.526919190083639,6.111218917160787,1.0177507400512695,-2.0595181624041956
1708435380.252106,-2.141909599304199,-1.3336821359447022,-2.526902739201681,6.1112356064613245,1.017722249031067,-2.0592063109027308
1708435380.2540662,-2.1419010162353516,-1.3337103438428421,-2.526914660130636,6.111308800965109,1.0177792310714722,-2.058821980153219
1708435380.256119,-2.1419460773468018,-1.3337073040059586,-2.526931111012594,6.111251938133993,1.0177792310714722,-2.05839187303652
1708435380.2580745,-2.141930103302002,-1.3337475073388596,-2.5269444624530237,6.111242997437277,1.0177669525146484,-2.058060948048727
1708435380.260082,-2.141876459121704,-1.3336490255645295,-2.526947561894552,6.111260878830709,1.0177538394927979,-2.0576332251178187
1708435380.2620835,-2.141908884048462,-1.3336701852134247,-2.526910130177633,6.111240136414327,1.0177913904190063,-2.057267967854635
1708435380.264086,-2.1419010162353516,-1.3337117296508332,-2.526931111012594,6.111255037575521,1.0178077220916748,-2.05690843263735
1708435380.2660823,-2.1419177055358887,-1.3337192249349137,-2.526910130177633,6.111284720688619,1.0178282260894775,-2.056479279194967
1708435380.268094,-2.1418838500976562,-1.333702878361084,-2.526926581059591,6.111317741661825,1.0177704095840454,-2.05605394044985
1708435380.270085,-2.141908884048462,-1.3337399822524567,-2.5269957224475306,6.111259448319235,1.0177913904190063,-2.0556944052325647
1708435380.272076,-2.141887903213501,-1.333690957432129,-2.526935640965597,6.111280309944906,1.017815113067627,-2.055253330861227
1708435380.274084,-2.141913414001465,-1.3336865317872544,-2.5269339720355433,6.111299860268392,1.017786979675293,-2.0548532644854944
1708435380.2760727,-2.141913414001465,-1.3336940270713349,-2.5269957224475306,6.111222255020895,1.017815113067627,-2.054444138203756
1708435380.2780795,-2.141937255859375,-1.3336776953986664,-2.5269463698016565,6.111259448319235,1.0177704095840454,-2.0540407339679163
1708435380.2800984,-2.1419544219970703,-1.3337117296508332,-2.5269339720355433,6.111205565720358,1.0178108215332031,-2.0536282698260706
1708435380.2820709,-2.1419546604156494,-1.3337073040059586,-2.5270209948169153,6.111275779991903,1.0178108215332031,-2.0531838575946253
1708435380.2840862,-2.141958236694336,-1.3336820912412186,-2.5270002524005335,6.111280309944906,1.0177782773971558,-2.052717987691061
1708435380.2860787,-2.1419386863708496,-1.3336953830770035,-2.5269716421710413,6.111296999245443,1.017809510231018,-2.0522087256061
1708435380.2880998,-2.1418967247009277,-1.333702878361084,-2.5270076433764856,6.111283528595724,1.017859935760498,-2.0518177191363733
1708435380.2900887,-2.141908645629883,-1.3336569231799622,-2.526944700871603,6.111338722496786,1.0178349018096924,-2.0513647238360804
1708435380.2920892,-2.1419177055358887,-1.3337073040059586,-2.5269838015185755,6.1113014099891565,1.0178183317184448,-2.050842587147848
1708435380.2940946,-2.1418967247009277,-1.3336657744697114,-2.5270121733294886,6.11127136924819,1.0178306102752686,-2.050460163746969
1708435380.2960753,-2.14190411567688,-1.3337342155030747,-2.5270031134234827,6.111320841103353,1.0178260803222656,-2.049990955983297
1708435380.2980807,-2.141953945159912,-1.333702878361084,-2.526977841054098,6.111222255020895,1.0178751945495605,-2.0495789686786097
1708435380.300086,-2.141908884048462,-1.333772675400116,-2.5270164648639124,6.111283528595724,1.0178337097167969,-2.0490849653827112
1708435380.3021395,-2.1418967247009277,-1.3336984527162095,-2.5270360151873987,6.1112791178520105,1.017863392829895,-2.048612419758932
1708435380.304141,-2.141925573348999,-1.33370594800029,-2.5270448366748255,6.111255037575521,1.017891764640808,-2.0481370131122034
1708435380.306172,-2.1418652534484863,-1.3337311458638688,-2.5270076433764856,6.111288058548727,1.017894983291626,-2.0477145353900355
1708435380.3081589,-2.1419503688812256,-1.3336984527162095,-2.526989761983053,6.111262428551473,1.0179026126861572,-2.0472262541400355
1708435380.3100975,-2.141892194747925,-1.3337192249349137,-2.527069393788473,6.111262428551473,1.0178906917572021,-2.04678184190859
1708435380.3120809,-2.141876459121704,-1.3337519031814118,-2.527013365422384,6.111286508827963,1.0179232358932495,-2.0462892691241663
1708435380.3140829,-2.1419389247894287,-1.3337444973042984,-2.527069155369894,6.111255037575521,1.01792311668396,-2.045816246663229
1708435380.3160763,-2.141930103302002,-1.3336657744697114,-2.526989523564474,6.111255037575521,1.0179142951965332,-2.0452826658831995
1708435380.3180726,-2.1418917179107666,-1.3337430667928238,-2.5270467440234583,6.111255037575521,1.0178536176681519,-2.044868294392721
1708435380.3200705,-2.1419053077697754,-1.333772675400116,-2.5270305315600794,6.111275779991903,1.01792311668396,-2.0444324652301233
1708435380.3220656,-2.1419053077697754,-1.3337519031814118,-2.527039353047506,6.111280309944906,1.0178980827331543,-2.0439260641681116
1708435380.3240795,-2.1419131755828857,-1.3336998981288453,-2.527055565510885,6.111259448319235,1.0179142951965332,-2.0434563795672815
1708435380.3260725,-2.1419007778167725,-1.3337760728648682,-2.527013365422384,6.111255037575521,1.0179312229156494,-2.0429638067828577
1708435380.3280935,-2.1419177055358887,-1.3337355715087433,-2.5270348230945032,6.111259448319235,1.0179226398468018,-2.0424745718585413
1708435380.3300724,-2.141930103302002,-1.3336688441089173,-2.5270348230945032,6.111255037575521,1.0179014205932617,-2.042027298604147
1708435380.33209,-2.1419177055358887,-1.333748922949173,-2.527013365422384,6.111241566925802,1.0179507732391357,-2.0415881315814417
1708435380.334077,-2.141934394836426,-1.333710403447487,-2.52702242532839,6.111240136414327,1.0179712772369385,-2.0410197416888636
1708435380.3360686,-2.1419098377227783,-1.3337280613235016,-2.527055803929464,6.11129246929244,1.0179388523101807,-2.0406182448016565
1708435380.3380785,-2.1418964862823486,-1.3336657744697114,-2.5270870367633265,6.1112252352531335,1.0179375410079956,-2.0401089827166956
1708435380.3400767,-2.1418850421905518,-1.3337311458638688,-2.5271123091327112,6.111268389015951,1.017958164215088,-2.039677445088522
1708435380.3420804,-2.14186954498291,-1.3337399822524567,-2.5270586649524134,6.11127136924819,1.0180076360702515,-2.03918964067568
1708435380.344089,-2.1419177055358887,-1.3337015372565766,-2.5270677248584192,6.111226665764608,1.0179998874664307,-2.0386064688311976
1708435380.346071,-2.1419010162353516,-1.3336940270713349,-2.5270915667163294,6.111304509430685,1.018003225326538,-2.0381057898150843
1708435380.3480837,-2.14186954498291,-1.3337192398360749,-2.5270543734179896,6.111288058548727,1.0179988145828247,-2.037666145955221
1708435380.3500874,-2.1419222354888916,-1.333737002020218,-2.5270617643939417,6.111266839295187,1.018003225326538,-2.0371745268451136
1708435380.3520923,-2.1418938636779785,-1.3337073040059586,-2.5270915667163294,6.11127136924819,1.0180076360702515,-2.036722485219137
1708435380.3540792,-2.141902446746826,-1.3337133687785645,-2.5270915667163294,6.111283528595724,1.0179778337478638,-2.0361674467669886
1708435380.356087,-2.1419010162353516,-1.3336896163276215,-2.5270915667163294,6.111274587899008,1.0180273056030273,-2.0357311407672327
1708435380.3581,-2.1418895721435547,-1.333714799290039,-2.5270660559283655,6.11129258850173,1.0180315971374512,-2.0352237860309046
1708435380.3600836,-2.1419177055358887,-1.3337103736451645,-2.5270825068103235,6.111202823906698,1.018067717552185,-2.0346744696246546
1708435380.3620741,-2.1418850421905518,-1.3337849241546174,-2.5271034876452845,6.111231195717611,1.0180597305297852,-2.0342310110675257
1708435380.3640852,-2.141857862472534,-1.3337192249349137,-2.527073685322897,6.111251938133993,1.0180097818374634,-2.033728901539938
1708435380.3660839,-2.141862630844116,-1.3337430667928238,-2.5270944277392786,6.111243116646566,1.0180764198303223,-2.033243004475729
1708435380.368087,-2.1419310569763184,-1.333702878361084,-2.5271320978747767,6.111255037575521,1.0180633068084717,-2.032642666493551
1708435380.3700986,-2.1419098377227783,-1.3336896163276215,-2.5270944277392786,6.111209976464071,1.018100619316101,-2.0322163740741175
1708435380.3720717,-2.141862154006958,-1.33370594800029,-2.52710205713381,6.111205565720358,1.0180467367172241,-2.0317309538470667
1708435380.374082,-2.1418912410736084,-1.3337267202189942,-2.527155939732687,6.111226665764608,1.018071174621582,-2.031229321156637
1708435380.376088,-2.141906976699829,-1.3337879937938233,-2.527155939732687,6.111232268601217,1.018087387084961,-2.030720059071676
1708435380.3780935,-2.141846179962158,-1.3336776953986664,-2.5271604696856897,6.111207353859701,1.0180916786193848,-2.030210796986715
1708435380.3801038,-2.1418497562408447,-1.3336821061423798,-2.527114216481344,6.111205565720358,1.0181158781051636,-2.0297096411334437
1708435380.3820794,-2.1418585777282715,-1.3337015372565766,-2.5271275679217737,6.111182081490316,1.0181233882904053,-2.0292356649981897
1708435380.3840876,-2.1418540477752686,-1.3337192249349137,-2.527210060750143,6.1111910221870325,1.0181440114974976,-2.028714958821432
1708435380.3860989,-2.1418752670288086,-1.3337222945741196,-2.5271337668048304,6.111216294556417,1.0181365013122559,-2.0281971136676233
1708435380.3881168,-2.1418168544769287,-1.3337267202189942,-2.527159039174215,6.111216175347128,1.0181233882904053,-2.027670685444967
1708435380.390088,-2.1418302059173584,-1.3336806756309052,-2.5271843115436,6.1111700413520715,1.018114686012268,-2.0272467772113245
1708435380.3920808,-2.141846179962158,-1.3337103736451645,-2.527180020009176,6.111232268601217,1.0181387662887573,-2.026731793080465
1708435380.394084,-2.141855001449585,-1.3337342155030747,-2.5271664301501673,6.111141550331869,1.018180251121521,-2.026299778615133
1708435380.3960752,-2.141846179962158,-1.3337311458638688,-2.52717096010317,6.111192452698507,1.0181596279144287,-2.0258429686175745
1708435380.3980753,-2.141826629638672,-1.3337222945741196,-2.5271998087512415,6.111195432930746,1.0181715488433838,-2.0254104773150843
1708435380.4000893,-2.141785144805908,-1.333717868929245,-2.527175490056173,6.111184704094686,1.0181846618652344,-2.0249198118792933
1708435380.4021099,-2.141803026199341,-1.3337222945741196,-2.527175490056173,6.111205923348226,1.018192172050476,-2.0244343916522425
1708435380.4041514,-2.1417782306671143,-1.3337519031814118,-2.52717096010317,6.111102449684896,1.0181758403778076,-2.023984734212057
1708435380.406112,-2.141740083694458,-1.3337267202189942,-2.5272043387042444,6.111109840660848,1.0182162523269653,-2.023482147847311
1708435380.4081178,-2.1418099403381348,-1.333685190682747,-2.5271619001971644,6.111099827080526,1.0181790590286255,-2.023034397755758
1708435380.410082,-2.141761302947998,-1.3337342155030747,-2.5271998087512415,6.111136662750997,1.0182000398635864,-2.022548500691549
1708435380.4120874,-2.141785144805908,-1.333714799290039,-2.5271742979632776,6.111096608429708,1.018211841583252,-2.022095505391256
1708435380.414107,-2.1417489051818848,-1.3337342155030747,-2.5271952787982386,6.111047374993124,1.0182162523269653,-2.021658722554342
1708435380.4160838,-2.1417622566223145,-1.3336687845042725,-2.5271907488452356,6.110993492394247,1.0182154178619385,-2.0212252775775355
1708435380.4180968,-2.141770124435425,-1.333771677022316,-2.5272415320025843,6.111051904946127,1.0182197093963623,-2.020759884511129
1708435380.4200783,-2.1417791843414307,-1.333725245004036,-2.5272370020495813,6.1110113737876794,1.0182437896728516,-2.0202887693988245
1708435380.4220831,-2.1417508125305176,-1.3337550026229401,-2.5272071997271937,6.111032235413351,1.0182925462722778,-2.0199268499957483
1708435380.4241118,-2.1417622566223145,-1.3337672513774415,-2.5272236506091517,6.110945927887716,1.0182557106018066,-2.0193913618670862
1708435380.426074,-2.1417338848114014,-1.3337865632823487,-2.5272355715381067,6.110921609192648,1.018288254737854,-2.0189712683307093
1708435380.4281049,-2.1417348384857178,-1.3337924641421814,-2.527242962514059,6.110890018730917,1.0182795524597168,-2.018595043812887
1708435380.4300807,-2.1417076587677,-1.3337702018073578,-2.527226511632101,6.110965239792623,1.0182750225067139,-2.0182226339923304
1708435380.4320683,-2.1416819095611572,-1.3338117909482499,-2.527259413396017,6.1108871577079675,1.0183038711547852,-2.0177210013019007
1708435380.4341133,-2.1417076587677,-1.3337494146874924,-2.5272956530200403,6.1108752367790125,1.0183289051055908,-2.0173471609698694
1708435380.4360795,-2.14172101020813,-1.3338029247573395,-2.527221981679098,6.110893118172445,1.0183320045471191,-2.0168984572040003
1708435380.4380836,-2.1416420936584473,-1.333847553735115,-2.527313534413473,6.110848533898153,1.0183277130126953,-2.0165045897113245
1708435380.4401789,-2.141672372817993,-1.3338269603303452,-2.5273001829730433,6.110758769303121,1.0183277130126953,-2.016121212636129
1708435380.4420815,-2.141578435897827,-1.3338628572276612,-2.5273314158069056,6.110788690834799,1.0183604955673218,-2.015686813985006
1708435380.444106,-2.141594409942627,-1.3338298213532944,-2.5272701422320765,6.110790121346273,1.0183849334716797,-2.015318218861715
1708435380.4460862,-2.1415581703186035,-1.3338583272746583,-2.5273435751544397,6.1107544777686975,1.018376111984253,-2.014888588582174
1708435380.4480765,-2.1415441036224365,-1.3338416379741211,-2.527289692555563,6.110730278282919,1.018388032913208,-2.01453143755068
1708435380.4501061,-2.1414830684661865,-1.33389105022464,-2.5273478666888636,6.110636460572042,1.018399953842163,-2.014174763356344
1708435380.452091,-2.141446828842163,-1.3338628125241776,-2.527350966130392,6.110619771271505,1.0184402465820312,-2.013785187398092
1708435380.454084,-2.141368865966797,-1.3338702631047745,-2.5273705164538782,6.110630142479696,1.0184481143951416,-2.013400379811422
1708435380.456096,-2.1414151191711426,-1.3339389574578782,-2.527428929005758,6.1106018898780725,1.0184897184371948,-2.0130580107318323
1708435380.4580793,-2.1413514614105225,-1.3339257401278992,-2.5273945967303675,6.110582220345297,1.0185047388076782,-2.0127604643451136
1708435380.4600954,-2.141376256942749,-1.3339226108840485,-2.527437988911764,6.110533106118002,1.018576979637146,-2.0123708883868616
1708435380.4620752,-2.1412858963012695,-1.333913729791977,-2.527482811604635,6.110468733101644,1.018576979637146,-2.011974636708395
1708435380.4640877,-2.1412224769592285,-1.3339212250760575,-2.527487341557638,6.110434520035543,1.0186251401901245,-2.011627976094381
1708435380.4660845,-2.1411702632904053,-1.3339944344810029,-2.527504269276754,6.1103941080863855,1.0186489820480347,-2.0112913290606897
1708435380.468113,-2.1411545276641846,-1.3339319092086335,-2.5275607744800013,6.110299575119772,1.0186152458190918,-2.010958496724264
1708435380.4700742,-2.1411020755767822,-1.3339732748321076,-2.527522150670187,6.110305893212118,1.0186196565628052,-2.0105436483966272
1708435380.4720864,-2.1410717964172363,-1.3340169352344056,-2.5275848547564905,6.1103073237235925,1.0186678171157837,-2.0102933088885706
1708435380.4740765,-2.1410157680511475,-1.3340877753547211,-2.5276029745685022,6.110259401589193,1.018672227859497,-2.00991660753359
1708435380.4761374,-2.140984058380127,-1.3340495389750977,-2.5275941530810755,6.1101876375968835,1.0187321901321411,-2.0096071402179163
1708435380.4781256,-2.140907049179077,-1.3340495389750977,-2.5276601950274866,6.110109913140096,1.0187606811523438,-2.009310547505514
1708435380.4801352,-2.1408514976501465,-1.3340733808330079,-2.527707640324728,6.110041487007894,1.0187891721725464,-2.008986298237936
1708435380.4820957,-2.1407675743103027,-1.334167407160141,-2.527710739766256,6.109975683480062,1.0188579559326172,-2.0086849371539515
1708435380.4841127,-2.140704870223999,-1.3341613721898575,-2.5277515093432825,6.109906542092123,1.0188610553741455,-2.0083845297442835
1708435380.4860866,-2.1406121253967285,-1.3341942590526124,-2.5277753512011927,6.10982762554244,1.018885612487793,-2.008083168660299
1708435380.4880939,-2.140507698059082,-1.3341723543456574,-2.527807060872213,6.109698879509725,1.018897294998169,-2.007770363484518
1708435380.4900777,-2.140456199645996,-1.3341974479011078,-2.5278099218951624,6.10961543300704,1.0189247131347656,-2.0075071493731897
1708435380.4920828,-2.1403074264526367,-1.3342158955386658,-2.527916495000021,6.109500157624044,1.0189977884292603,-2.007143799458639
1708435380.4940825,-2.140220880508423,-1.3342647564462204,-2.527968947087423,6.1094045517738245,1.0190504789352417,-2.006888214741842
1708435380.496081,-2.1401004791259766,-1.3343576204827805,-2.5279386679278772,6.109247553139486,1.0191357135772705,-2.0065906683551233
1708435380.4980915,-2.1399850845336914,-1.334422842865326,-2.5279913584338587,6.109181749611654,1.01914644241333,-2.00629693666567
1708435380.500079,-2.139866590499878,-1.3343634915402909,-2.528010908757345,6.108970868378439,1.0192110538482666,-2.0060742537127894
1708435380.5020964,-2.139705181121826,-1.3344039779952546,-2.5280752817737024,6.108855831414022,1.0192668437957764,-2.005834404622213
1708435380.5041435,-2.139573574066162,-1.3344739091447373,-2.528159205113546,6.108695852547445,1.0193016529083252,-2.005592648183004
1708435380.5061188,-2.1394166946411133,-1.3345083457282563,-2.5281716028796595,6.108613717346945,1.0193870067596436,-2.0053723494159144
1708435380.5081248,-2.1393067836761475,-1.3345399659923096,-2.528238836918966,6.108432638436117,1.0194501876831055,-2.0050795714007776
1708435380.510106,-2.1391117572784424,-1.3346127283624192,-2.5283244291888636,6.108262407570638,1.0195794105529785,-2.0048955122577112
1708435380.5120993,-2.1389312744140625,-1.334644393329956,-2.528421942387716,6.108059274941244,1.0196635723114014,-2.004585091267721
1708435380.5140939,-2.138728141784668,-1.3346760433963318,-2.5284233728991907,6.107953059464254,1.019768476486206,-2.004392925892965
1708435380.5160897,-2.138502597808838,-1.3347281229547043,-2.528487745915548,6.107700454979696,1.0198559761047363,-2.004164520894186
1708435380.5180793,-2.138413906097412,-1.3347552579692383,-2.528555456792013,6.107547986298361,1.0199521780014038,-2.0040529409991663
1708435380.5200799,-2.1381654739379883,-1.334795058970787,-2.5286150614367884,6.107332813530721,1.0200774669647217,-2.003795925770895
1708435380.5220716,-2.1379342079162598,-1.3348430854133149,-2.528649632130758,6.107166874199667,1.020185947418213,-2.003619972859518
1708435380.5240827,-2.1377501487731934,-1.3348910075477143,-2.528804127370016,6.106926190644064,1.020293951034546,-2.0033867994891565
1708435380.526071,-2.1374876499176025,-1.3349311661771317,-2.5288851896869105,6.106725680619039,1.0203937292099,-2.0032060782061976
1708435380.5281115,-2.1372313499450684,-1.3349495244077225,-2.528957192097799,6.106471645623007,1.020485520362854,-2.003033463154928
1708435380.5300794,-2.136962413787842,-1.3350346249393006,-2.529020373021261,6.106301176338949,1.0206056833267212,-2.002885643635885
1708435380.5321202,-2.136732578277588,-1.3350899827531357,-2.529186550770895,6.1060621617134,1.020787000656128,-2.0027292410479944
1708435380.53407,-2.1364450454711914,-1.3351496172002335,-2.529301706944601,6.105806815415182,1.0208944082260132,-2.00256854692568
1708435380.5360687,-2.1361567974090576,-1.335249589090683,-2.529384438191549,6.105501401215353,1.0210022926330566,-2.002441708241598
1708435380.5380714,-2.135878324508667,-1.3353361797383805,-2.52948505083193,6.105232703476705,1.021180510520935,-2.0023091475116175
1708435380.540099,-2.135594129562378,-1.3353366714766999,-2.529600207005636,6.104943978577413,1.021278977394104,-2.0022171179400843
1708435380.5420754,-2.1353228092193604,-1.3354304444840928,-2.529766861592428,6.10465036609725,1.021419882774353,-2.00205642381777
1708435380.5441012,-2.1350934505462646,-1.33548458040271,-2.52983266512026,6.104386675148763,1.021579623222351,-2.001967732106344
1708435380.5460696,-2.1347053050994873,-1.3355682653239747,-2.52995735803713,6.104031550675192,1.0218100547790527,-2.0018561522113245
1708435380.5480895,-2.13435697555542,-1.335685895090439,-2.5301087538348597,6.103690016060629,1.0219446420669556,-2.0018089453326624
1708435380.5501037,-2.13405442237854,-1.3358140301755448,-2.530289951954977,6.103382456093588,1.0221368074417114,-2.001638714467184
1708435380.5520823,-2.133683681488037,-1.335848869090416,-2.5303924719439905,6.103019583016195,1.0223873853683472,-2.001652542744772
1708435380.554079,-2.1332955360412598,-1.3359359514764328,-2.5305991808520716,6.102637517243185,1.022566318511963,-2.001568619404928
1708435380.5560973,-2.1329236030578613,-1.3360434782556077,-2.530710045491354,6.102305161743917,1.0227916240692139,-2.0014875570880335
1708435380.558076,-2.132577657699585,-1.3361719262650986,-2.5308733622180384,6.1018645642097376,1.0229722261428833,-2.001444164906637
1708435380.560078,-2.1322028636932373,-1.3362434220365067,-2.5310760180102747,6.101489412575521,1.0231882333755493,-2.0014122168170374
1708435380.562068,-2.131758689880371,-1.3363335591605683,-2.5311928431140345,6.100989806443014,1.023404836654663,-2.0013845602618616
1708435380.5640736,-2.1313936710357666,-1.3364947450212021,-2.5313685576068323,6.100592362671652,1.0236660242080688,-2.00134784380068
1708435380.5660722,-2.130915641784668,-1.3365573447993775,-2.5316112677203577,6.100088345795431,1.023919701576233,-2.0013936201678675
1708435380.5680742,-2.1304593086242676,-1.3367708933404465,-2.5317822138415735,6.099580395012655,1.0241588354110718,-2.001357380543844
1708435380.5700688,-2.130002737045288,-1.3368739646724244,-2.5319533983813685,6.09920488575057,1.0244396924972534,-2.001404110585348
1708435380.572066,-2.129585027694702,-1.3369761270335694,-2.5321765581714075,6.098668563156881,1.024753451347351,-2.001448933278219
1708435380.5740778,-2.1291139125823975,-1.3371165257743378,-2.532389465962545,6.098230826645651,1.0249600410461426,-2.0014928022967737
1708435380.5760894,-2.1286354064941406,-1.337268592124321,-2.532610003148214,6.097715365677633,1.0252420902252197,-2.0015857855426233
1708435380.5780978,-2.1280746459960938,-1.3373628866723557,-2.532872263585226,6.0972187397773645,1.025490164756775,-2.0016372839557093
1708435380.5801077,-2.1276330947875977,-1.3375274401954194,-2.5330823103534144,6.096649157791891,1.0257502794265747,-2.001685444508688
1708435380.5821068,-2.1270813941955566,-1.337715507750847,-2.5333178679095667,6.0960765955741785,1.0260834693908691,-2.0017455259906214
1708435380.5840845,-2.1264612674713135,-1.3378388595632096,-2.53361159959902,6.09554289558486,1.026375651359558,-2.001850430165426
1708435380.5860827,-2.12593150138855,-1.3380122345737,-2.533867899571554,6.094899046211996,1.0266882181167603,-2.0019095579730433
1708435380.5880988,-2.125361204147339,-1.3381373894265671,-2.5340495745288294,6.094305383950033,1.0270085334777832,-2.002023522053854
1708435380.5900831,-2.124730348587036,-1.3383142811110993,-2.534342114125387,6.09379397609786,1.027337670326233,-2.0021079222308558
1708435380.5920773,-2.124093532562256,-1.3384081584266205,-2.5346346537219446,6.093097913056173,1.0276532173156738,-2.0022204558001917
1708435380.5940833,-2.123490333557129,-1.3385725182345887,-2.534910504017965,6.0925296423728845,1.028031349182129,-2.0023492018329065
1708435380.5960753,-2.122925043106079,-1.3387682747891922,-2.5351412932025355,6.091894495278158,1.0283520221710205,-2.002442185078756
1708435380.5980775,-2.122269630432129,-1.3388416332057496,-2.535438124333517,6.091239321022787,1.0287574529647827,-2.0025175253497522
1708435380.600106,-2.121661424636841,-1.3390701425126572,-2.5357232729541224,6.0905728218849084,1.0291252136230469,-2.0026939550982874
1708435380.6020987,-2.121025800704956,-1.339225487118103,-2.535969082509176,6.0899178860481165,1.0294737815856934,-2.0029032866107386
1708435380.6041534,-2.1203248500823975,-1.3393601936152955,-2.5362663904773157,6.089257466584005,1.0298291444778442,-2.003125015889303
1708435380.606101,-2.1196553707122803,-1.3395816099694748,-2.5365780035602015,6.088534939080038,1.030239224433899,-2.0032880941974085
1708435380.6080878,-2.1189205646514893,-1.339762346153595,-2.536912266408102,6.087720978050985,1.030656337738037,-2.003490749989645
1708435380.6100776,-2.1182024478912354,-1.3399374347976227,-2.537231747304098,6.086983907013693,1.031089186668396,-2.0037673155414026
1708435380.6120815,-2.1174631118774414,-1.340128482585289,-2.537555519734518,6.086243855744161,1.0314981937408447,-2.0039990584002894
1708435380.6140842,-2.116771936416626,-1.3403168332627793,-2.537842098866598,6.085478055268087,1.0319679975509644,-2.004190746937887
1708435380.6161134,-2.1159801483154297,-1.3404738169959565,-2.5381911436664026,6.084612834244528,1.032387614250183,-2.0044944922076624
1708435380.618105,-2.115147829055786,-1.3407352280667801,-2.5385151545154017,6.083798634796896,1.032865285873413,-2.0047901312457483
1708435380.6201015,-2.114272117614746,-1.3409010630897065,-2.538858477269308,6.082948076515951,1.0332858562469482,-2.005045715962545
1708435380.6220884,-2.113455295562744,-1.3411570650390168,-2.5392349402057093,6.082070696144857,1.033772349357605,-2.005367104207174
1708435380.6240993,-2.1125924587249756,-1.3413480085185547,-2.5396035353290003,6.0812381384666345,1.0342369079589844,-2.0056470076190394
1708435380.6260936,-2.111845016479492,-1.3416114908507843,-2.539917294179098,6.080381381302633,1.034708857536316,-2.0059688727008265
1708435380.6280847,-2.110989570617676,-1.3417771321586152,-2.5403223673449915,6.079463588982382,1.0351823568344116,-2.006315056477682
1708435380.630111,-2.110147714614868,-1.3419892501882096,-2.5406790415393274,6.078598487168112,1.0356674194335938,-2.006592098866598
1708435380.6320863,-2.1093177795410156,-1.3422285628369828,-2.541058603917257,6.07772062995986,1.036197543144226,-2.0069482962237757
1708435380.6340945,-2.1084437370300293,-1.342512623672821,-2.5414274374591272,6.0768189308936975,1.0366495847702026,-2.007326904927389
1708435380.6360767,-2.1075642108917236,-1.3426667016795655,-2.541793171559469,6.075911867409506,1.0371392965316772,-2.007609192525045
1708435380.638096,-2.106687307357788,-1.342959688310959,-2.5422356764422815,6.074896800308981,1.0376968383789062,-2.008012596760885
1708435380.6400971,-2.1057026386260986,-1.343189687733986,-2.5426602999316614,6.073983299523153,1.0382014513015747,-2.0084503332721155
1708435380.642066,-2.1047284603118896,-1.3434361827424546,-2.543018643056051,6.072901952057638,1.038796067237854,-2.0087817350970667
1708435380.6440833,-2.1038148403167725,-1.3436888319304963,-2.543471399937765,6.071926104813375,1.0393404960632324,-2.0091727415667933
1708435380.646072,-2.1028738021850586,-1.3439640265754242,-2.5438793341266077,6.070963966637411,1.0398446321487427,-2.00961143175234
1708435380.6480887,-2.101952075958252,-1.3441658181003113,-2.5442467371570032,6.069994556694784,1.0403854846954346,-2.0100343863116663
1708435380.6500897,-2.1010355949401855,-1.344454289679863,-2.5447145144092005,6.068989264756002,1.0409189462661743,-2.010458294545309
1708435380.6520686,-2.1000940799713135,-1.3447265189937134,-2.54515248933901,6.067920672684469,1.041440486907959,-2.0108702818499964
1708435380.6540759,-2.0990540981292725,-1.3449471902898331,-2.545525852833883,6.066933500557699,1.042069911956787,-2.011308018361227
1708435380.6560805,-2.098069429397583,-1.345252440576889,-2.5460191408740442,6.065852987557211,1.042680025100708,-2.011786762868063
1708435380.6580853,-2.0970754623413086,-1.3454738718322297,-2.5464659372912806,6.06478904464797,1.0432679653167725,-2.0122345129596155
1708435380.6600912,-2.0960259437561035,-1.345772237782814,-2.5469351450549524,6.063718426018514,1.043868899345398,-2.012732807789938
1708435380.662068,-2.0950074195861816,-1.3460353475860138,-2.547386709843771,6.0626128790672205,1.044503092765808,-2.013219181691305
1708435380.664094,-2.0939741134643555,-1.3463103634170075,-2.5478432814227503,6.061532485276022,1.0450760126113892,-2.013733212147848
1708435380.6660836,-2.0928757190704346,-1.3466275197318573,-2.5483434836017054,6.0604251501853845,1.0456526279449463,-2.0142276922809046
1708435380.6680896,-2.09179425239563,-1.3469141584685822,-2.548778835927145,6.059392916947164,1.046270489692688,-2.0147984663592737
1708435380.670074,-2.0907247066497803,-1.347090707426407,-2.5492733160602015,6.058260071068563,1.0469285249710083,-2.0152629057513636
1708435380.672115,-2.089662790298462,-1.3474152845195313,-2.5497739950763147,6.057092296868124,1.0475342273712158,-2.015783135090963
1708435380.674089,-2.0884828567504883,-1.347751111989357,-2.550258461629049,6.055883991509237,1.0481383800506592,-2.0163796583758753
1708435380.6761045,-2.0873794555664062,-1.3480383914760132,-2.5507665316211146,6.054745900421896,1.0487065315246582,-2.016923729573385
1708435380.678072,-2.0862765312194824,-1.3483057183078309,-2.55127197900881,6.053462731629171,1.049311876296997,-2.017489735280172
1708435380.680089,-2.085048198699951,-1.3485987347415467,-2.551724974309103,6.052311765938558,1.049942135810852,-2.018116299306051
1708435380.682092,-2.083921194076538,-1.3488782954267045,-2.5522528330432337,6.051062810211935,1.0505471229553223,-2.0186660925494593
1708435380.6841145,-2.0827817916870117,-1.3492057484439393,-2.5527988115893763,6.04985927322463,1.051224708557129,-2.0192464033709925
1708435380.6860778,-2.0815927982330322,-1.349488304262497,-2.5533130804644983,6.04859625080184,1.0518862009048462,-2.0198333899127405
1708435380.6880984,-2.080394983291626,-1.3498336386731644,-2.553828541432516,6.047425257950582,1.0525922775268555,-2.0204666296588343
1708435380.6900952,-2.079256534576416,-1.3501667988351365,-2.5543833414660853,6.04613624790267,1.0532770156860352,-2.0210607687579554
1708435380.692077,-2.07806658744812,-1.3505268853953858,-2.5548766295062464,6.044927942543783,1.054023265838623,-2.021677319203512
1708435380.6940887,-2.07684063911438,-1.3508377236178895,-2.555457417164938,6.043640720635214,1.0547161102294922,-2.0223525206195276
1708435380.6960847,-2.075620174407959,-1.351187602882721,-2.5559638182269495,6.042326676636495,1.0554287433624268,-2.0229738394366663
1708435380.69808,-2.0744104385375977,-1.3515599232963105,-2.5565200487719935,6.041015493660726,1.0561665296554565,-2.0236685911761683
1708435380.7001,-2.073204278945923,-1.3518408846906205,-2.5570600668536585,6.039737331658163,1.0568760633468628,-2.0242813269244593
1708435380.7020822,-2.071946859359741,-1.3522367638400574,-2.5576074759112757,6.038462507515707,1.0576344728469849,-2.024979893361227
1708435380.7041674,-2.0706822872161865,-1.352529690866806,-2.5581474939929407,6.037203299790182,1.0583187341690063,-2.0256908575641077
1708435380.7061157,-2.0694479942321777,-1.352888600235321,-2.55873686472048,6.035881745606222,1.059041142463684,-2.02631122270693
1708435380.7081099,-2.068140983581543,-1.3532367509654541,-2.559312407170431,6.034537780075826,1.0597504377365112,-2.02701980272402
1708435380.7100875,-2.0668087005615234,-1.353664518599846,-2.559876267110006,6.033204304962911,1.0604712963104248,-2.0276950041400355
1708435380.7120788,-2.0655698776245117,-1.354120449428894,-2.5604193846331995,6.031829464226522,1.061254620552063,-2.028388802205221
1708435380.714091,-2.0642685890197754,-1.3544208270362397,-2.5609710852252405,6.030453312187948,1.0619421005249023,-2.029177490864889
1708435380.7160695,-2.062912940979004,-1.3548150819591065,-2.5615459124194544,6.029100525170126,1.0626184940338135,-2.029850784932272
1708435380.718088,-2.061602830886841,-1.3552186054042359,-2.562099281941549,6.02774332740859,1.0633937120437622,-2.030548397694723
1708435380.720076,-2.0603585243225098,-1.355597124700882,-2.5626726786242884,6.026453363686361,1.0641446113586426,-2.031184975300924
1708435380.722069,-2.059041976928711,-1.3559511464885254,-2.56323749223818,6.025113808899679,1.0648155212402344,-2.03196889558901
1708435380.7240767,-2.0577187538146973,-1.3563383531621476,-2.5638418833362024,6.023703324585714,1.0655697584152222,-2.0326464811908167
1708435380.726122,-2.0564403533935547,-1.356769011621811,-2.5643726030932825,6.022313105850973,1.0662825107574463,-2.0333312193499964
1708435380.7280872,-2.0550949573516846,-1.3571676772883912,-2.564972702656881,6.020875203400411,1.0670597553253174,-2.0341175238238733
1708435380.7300737,-2.05379581451416,-1.3575590562871476,-2.5655527750598353,6.0194798586662195,1.0677881240844727,-2.0347793737994593
1708435380.7320807,-2.052402973175049,-1.3578822326711197,-2.5661616961108606,6.0179951069648645,1.0685698986053467,-2.035522762929098
1708435380.7340844,-2.0510916709899902,-1.358339012866356,-2.5667405764209192,6.016602384835043,1.0693416595458984,-2.0362399260150355
1708435380.7360878,-2.0497047901153564,-1.3587548595717927,-2.567319456730978,6.015168177872457,1.070106029510498,-2.0369208494769495
1708435380.738078,-2.048321008682251,-1.3591314268163224,-2.5679121653186243,6.013820397644796,1.07091224193573,-2.037748161946432
1708435380.7401013,-2.047060012817383,-1.3595784318498154,-2.568490807210104,6.012383210449972,1.0715539455413818,-2.0384767691241663
1708435380.7420735,-2.0455846786499023,-1.3600537043860932,-2.569165293370382,6.011021363526144,1.0722671747207642,-2.0392373243915003
1708435380.74409,-2.044206380844116,-1.3605219733766098,-2.569739643727438,6.009451138764181,1.0730446577072144,-2.040058437977926
1708435380.7460783,-2.0427887439727783,-1.3608490985682984,-2.5703607241259974,6.007965910225668,1.0738908052444458,-2.040753189717428
1708435380.748082,-2.041339635848999,-1.3613127332976838,-2.5709319750415247,6.006510484009542,1.074692964553833,-2.0415504614459437
1708435380.7500749,-2.039931058883667,-1.3618015211871644,-2.571601215993063,6.005000817566671,1.0755372047424316,-2.042319122944967
1708435380.752104,-2.038539409637451,-1.3621736627868195,-2.5721762816058558,6.00350974777297,1.076317548751831,-2.043135944996969
1708435380.7540827,-2.037165641784668,-1.3626669210246583,-2.5727301279651087,6.00209008434371,1.0770092010498047,-2.043917957936422
1708435380.7561,-2.0356976985931396,-1.3630797427943726,-2.5733464399920862,6.00061975696639,1.07776939868927,-2.0446680227862757
1708435380.7580826,-2.034291982650757,-1.363514245753624,-2.5739761034594935,5.999188411026754,1.0784900188446045,-2.0454610029803675
1708435380.760103,-2.0329082012176514,-1.3638865810683747,-2.574555222188131,5.99775658824996,1.0792179107666016,-2.0462668577777308
1708435380.762084,-2.0313520431518555,-1.3644041431001206,-2.5751593748675745,5.996244895249166,1.08003568649292,-2.04706317583193
1708435380.7641175,-2.0299649238586426,-1.3649265629104157,-2.5757878462420862,5.994768965035238,1.08078932762146,-2.04789382616152
1708435380.766082,-2.0284337997436523,-1.365348444586136,-2.576395098363058,5.993168580323019,1.081504225730896,-2.048713986073629
1708435380.7680957,-2.026982307434082,-1.365817443733551,-2.5770145098315638,5.991710054665365,1.0822452306747437,-2.049581829701559
1708435380.7700815,-2.025542736053467,-1.36630471170459,-2.5775979200946253,5.990150558739462,1.0830633640289307,-2.050375763569967
1708435380.7720876,-2.023984909057617,-1.3667308551124115,-2.578238550816671,5.988602268486776,1.0837429761886597,-2.0511673132525843
1708435380.7740912,-2.0225629806518555,-1.3672747176936646,-2.5788872877704065,5.987100350647726,1.0845363140106201,-2.0520222822772425
1708435380.7761128,-2.0210418701171875,-1.367671014075615,-2.579477373753683,5.985607135086813,1.0853164196014404,-2.0528186003314417
1708435380.7780957,-2.019602060317993,-1.3681730938008805,-2.5801003615008753,5.984075176506796,1.0861297845840454,-2.053687397633688
1708435380.7801216,-2.018062114715576,-1.3686637443355103,-2.5807693640338343,5.982580768852987,1.0869338512420654,-2.054535690938131
1708435380.7820988,-2.0165698528289795,-1.3692165923169632,-2.58142596880068,5.981005298882284,1.0877304077148438,-2.0554078261004847
1708435380.784083,-2.0150866508483887,-1.3696769338897248,-2.5820944944964808,5.979468810349264,1.0884991884231567,-2.056312863026754
1708435380.7860749,-2.0135326385498047,-1.3701999944499512,-2.5826757589923304,5.977791416435995,1.0893211364746094,-2.0571444670306605
1708435380.7881124,-2.0120348930358887,-1.3706531834653397,-2.583334747944967,5.9761918661888025,1.0900644063949585,-2.057925526295797
1708435380.790078,-2.010469436645508,-1.371150718336441,-2.5839863459216517,5.9746813652809045,1.0908007621765137,-2.058875862752096
1708435380.7921052,-2.0089073181152344,-1.3717025530389328,-2.5846455732928675,5.973151671677389,1.0915879011154175,-2.059685532246725
1708435380.7940779,-2.0074009895324707,-1.3721881222775956,-2.5853171984301966,5.971588122635641,1.0923116207122803,-2.0605624357806605
1708435380.7961204,-2.0058751106262207,-1.3727001410773774,-2.585940424595968,5.970069634705343,1.0930598974227905,-2.0614259878741663
1708435380.798072,-2.0042665004730225,-1.3733391028693696,-2.586590353642599,5.968495833664694,1.0938575267791748,-2.062239948903219
1708435380.8001053,-2.0026283264160156,-1.3738517624190827,-2.5872958342181605,5.966967808991232,1.094679594039917,-2.0630958716021937
1708435380.802067,-2.001063585281372,-1.3744267386249085,-2.5879417101489466,5.965298521309652,1.0954450368881226,-2.06396991411318
1708435380.8041632,-1.999430537223816,-1.3749903601459046,-2.5886126200305384,5.963727819710531,1.096286416053772,-2.0648720900165003
1708435380.8061118,-1.9978135824203491,-1.3755241495421906,-2.589205328618185,5.962173926621237,1.0971027612686157,-2.065646473561422
1708435380.808084,-1.9962750673294067,-1.3760842245868226,-2.5899110476123255,5.960514175682821,1.0978422164916992,-2.066537682210104
1708435380.810073,-1.994667410850525,-1.376581148510315,-2.5905538241015833,5.958878028183737,1.09865140914917,-2.06744891801943
1708435380.8120785,-1.993030071258545,-1.3771725606969376,-2.5911837259875696,5.957305419235983,1.0994291305541992,-2.0682323614703577
1708435380.8141038,-1.991368055343628,-1.3777625125697632,-2.5918267408954065,5.955563652306356,1.10019850730896,-2.069068733845846
1708435380.8160958,-1.9897068738937378,-1.3783688855222245,-2.5925727526294153,5.953931438713827,1.1010148525238037,-2.0699060598956507
1708435380.818101,-1.9880279302597046,-1.3789647382548829,-2.5932393709765833,5.952174412995138,1.101864218711853,-2.0707910696612757
1708435380.8200798,-1.9863308668136597,-1.3795131009868165,-2.593860451375143,5.950584518700399,1.1026802062988281,-2.071712319050924
1708435380.8221014,-1.9846426248550415,-1.380132482653,-2.5945244471179407,5.948889958649435,1.1034725904464722,-2.0724971930133265
1708435380.824124,-1.9829999208450317,-1.3807622355273743,-2.59522253671755,5.947173344879904,1.104261875152588,-2.0733912626849573
1708435380.826083,-1.9812562465667725,-1.381298990254738,-2.5958858172046106,5.945634948998251,1.1050217151641846,-2.0742858091937464
1708435380.8280895,-1.9795972108840942,-1.3819239002517243,-2.5965872446643274,5.94388900974349,1.1057753562927246,-2.075130287800924
1708435380.830096,-1.9779269695281982,-1.3825122726014634,-2.5972326437579554,5.942222821503439,1.1065809726715088,-2.076007668172018
1708435380.8320732,-1.976144552230835,-1.3831368547729035,-2.5979636351214808,5.940435039788046,1.1073490381240845,-2.0768869558917444
1708435380.834094,-1.97440767288208,-1.3838328284076233,-2.5986631552325647,5.938705432205953,1.108173131942749,-2.0777810255633753
1708435380.8360953,-1.9726760387420654,-1.3845037680915375,-2.599377695714132,5.937003361969747,1.108973741531372,-2.0786941687213343
1708435380.838088,-1.970918893814087,-1.3850916487029572,-2.600069824849264,5.93528841713027,1.1097782850265503,-2.0794957319842737
1708435380.840128,-1.9691226482391357,-1.3857355874827881,-2.6007371584521692,5.933508145600118,1.1105668544769287,-2.0804432074176233
1708435380.8420916,-1.967350959777832,-1.386414812212326,-2.601511541997091,5.931798565178671,1.1112587451934814,-2.081393543873922
1708435380.8440886,-1.965619444847107,-1.3871078056148072,-2.6022022406207483,5.930015194206991,1.1119712591171265,-2.0823171774493616
1708435380.8460839,-1.9638397693634033,-1.387679712181427,-2.6028505007373255,5.928297507553854,1.1127482652664185,-2.083202664052145
1708435380.8481033,-1.962009310722351,-1.3883094203523179,-2.6035800615893763,5.926480877190389,1.1135536432266235,-2.0841224829303187
1708435380.8500972,-1.960158109664917,-1.3890023094466706,-2.604325596486227,5.924601423531332,1.114346981048584,-2.0850818792926233
1708435380.8521004,-1.9582496881484985,-1.3898248237422486,-2.605034891759054,5.9227332947547815,1.1151553392410278,-2.0860589186297815
1708435380.8541303,-1.9563807249069214,-1.3904867631248017,-2.6057449022876185,5.920916068344869,1.1161222457885742,-2.087045971547262
1708435380.8560948,-1.9544873237609863,-1.3911545735648652,-2.6065009276019495,5.919125902443685,1.1170438528060913,-2.087985340748922
1708435380.8581161,-1.9526493549346924,-1.3919039827636261,-2.6071797052966517,5.917294490128317,1.1178092956542969,-2.088907066975729
1708435380.8601751,-1.9508429765701294,-1.3925564003041764,-2.607898775731222,5.915480839997091,1.1186261177062988,-2.0898268858539026
1708435380.8621533,-1.9490100145339966,-1.3932189506343384,-2.608577076588766,5.913645374565878,1.1195127964019775,-2.0907891432391565
1708435380.8641338,-1.947090744972229,-1.3938806515983124,-2.6092754046069544,5.911798584252157,1.120361089706421,-2.0917394796954554
1708435380.8660812,-1.9451425075531006,-1.3946574491313477,-2.6100242773639124,5.909932839661398,1.121176838874817,-2.0927422682391565
1708435380.8681128,-1.9431675672531128,-1.3953717809966584,-2.610795561467306,5.907984602242269,1.1220660209655762,-2.093661133443014
1708435380.8700721,-1.941203236579895,-1.3961807054332276,-2.6115220228778284,5.906139838486471,1.1229490041732788,-2.0946930090533655
1708435380.8720655,-1.9392062425613403,-1.3968795251897355,-2.6123130957232874,5.9041751501853845,1.1237965822219849,-2.0956252256976526
1708435380.874082,-1.9372864961624146,-1.3976709109595795,-2.612981621419088,5.902307021408834,1.1245967149734497,-2.096591297780172
1708435380.876092,-1.9352819919586182,-1.3984390658191224,-2.6137571970569056,5.900400388031759,1.1253597736358643,-2.0975096861468714
1708435380.8780937,-1.9333020448684692,-1.3991655123284836,-2.6144514719592493,5.898510205536642,1.1260993480682373,-2.0984213987933558
1708435380.8801146,-1.9313430786132812,-1.399862916474678,-2.6152573267566126,5.896569359093466,1.1269460916519165,-2.0993688742267054
1708435380.8821013,-1.9293729066848755,-1.400581718688347,-2.615978542958395,5.894602763443746,1.1277586221694946,-2.100274387990133
1708435380.884096,-1.9274160861968994,-1.4013059002212067,-2.6167247931109827,5.892728793412008,1.128555178642273,-2.1011999289142054
1708435380.8860805,-1.9253852367401123,-1.4019990426352997,-2.617525641118185,5.890705096512594,1.1294379234313965,-2.102164093648092
1708435380.8881123,-1.9234368801116943,-1.4027811896852036,-2.6182521025287073,5.888887035637655,1.1302202939987183,-2.1030591169940394
1708435380.8900955,-1.9214197397232056,-1.403514788751938,-2.6190059820758265,5.886878716736593,1.1310621500015259,-2.1040213743792933
1708435380.8920965,-1.9194247722625732,-1.404262365107872,-2.619831625615255,5.884946572571554,1.1318376064300537,-2.104957882558004
1708435380.8940923,-1.9173747301101685,-1.40504743278537,-2.6205907503711146,5.882952558785238,1.1327128410339355,-2.105902973805563
1708435380.8961048,-1.915252923965454,-1.4058898252299805,-2.621361319218771,5.8809043047721765,1.1334877014160156,-2.106875721608297
1708435380.8981175,-1.913152813911438,-1.4065807324698945,-2.622136179600851,5.87889193275527,1.1342812776565552,-2.107821766530172
1708435380.9001093,-1.9111613035202026,-1.4073542815497895,-2.6229315439807337,5.876983034401693,1.13498854637146,-2.108746353779928
1708435380.9020934,-1.9091076850891113,-1.4081110817245026,-2.623676602040426,5.875010359078207,1.1357665061950684,-2.109739605580465
1708435380.9041224,-1.907084584236145,-1.4089022290757676,-2.6244245211230677,5.873094546585836,1.1364898681640625,-2.1106422583209437
1708435380.9061532,-1.9049720764160156,-1.4096988302520295,-2.6251707712756556,5.8710481999214075,1.1373335123062134,-2.1116531530963343
1708435380.908173,-1.9028633832931519,-1.4104895305684586,-2.6259616057025355,5.869013654976644,1.1381868124008179,-2.1126845518695276
1708435380.9101007,-1.9006645679473877,-1.4112218183330079,-2.6267853418933313,5.866912233620443,1.1390845775604248,-2.1137049833880823
1708435380.9121017,-1.898522138595581,-1.4120288056186219,-2.627530638371603,5.864789593010702,1.1398886442184448,-2.1147120634662073
1708435380.914078,-1.8963689804077148,-1.4128076148084183,-2.6283462683307093,5.862751471787252,1.140715479850769,-2.115655247365133
1708435380.91609,-1.8942667245864868,-1.4136279833367844,-2.6291466395007532,5.860629665642538,1.1415199041366577,-2.1166580359088343
1708435380.9181025,-1.8921312093734741,-1.4143813264421006,-2.629918877278463,5.858546483307638,1.1423091888427734,-2.1177218596087855
1708435380.920082,-1.8899348974227905,-1.4152013820460816,-2.630669418965475,5.856534707337179,1.1430368423461914,-2.1187461058246058
1708435380.922074,-1.8877376317977905,-1.4160044503263016,-2.631470028554098,5.854507910996237,1.1438145637512207,-2.1197245756732386
1708435380.9240901,-1.8855394124984741,-1.416825832133629,-2.63225227991213,5.852380502014913,1.1445268392562866,-2.1207483450519007
1708435380.926089,-1.8832788467407227,-1.417693169122078,-2.6331048647509974,5.850212442665853,1.145361304283142,-2.1217954794513147
1708435380.9281218,-1.8810372352600098,-1.4185583156398316,-2.6339240709887903,5.848044264107504,1.1461215019226074,-2.1228492895709437
1708435380.9300792,-1.878767967224121,-1.4193794143250962,-2.634653631840841,5.845986473351278,1.146856665611267,-2.123892609273092
1708435380.9320788,-1.8765937089920044,-1.4201751065305253,-2.6354087034808558,5.843879449158468,1.1475422382354736,-2.124821488057272
1708435380.9340794,-1.8744664192199707,-1.4209609043649216,-2.6362202803241175,5.841877686768331,1.1482747793197632,-2.12584096590151
1708435380.936089,-1.87223482131958,-1.421768219476082,-2.636942450200216,5.839910256653585,1.1489956378936768,-2.126809899006979
1708435380.938076,-1.870067834854126,-1.4225639265826722,-2.6376915613757532,5.837773191719808,1.149757981300354,-2.1278041044818323
1708435380.9400811,-1.8678479194641113,-1.4233555656722565,-2.6384602228747767,5.835709082871237,1.150542140007019,-2.1288045088397425
1708435380.9420764,-1.8656320571899414,-1.424192638402321,-2.6392162481891077,5.833561527519979,1.1512460708618164,-2.129737679158346
1708435380.9440746,-1.8633918762207031,-1.424925686126091,-2.6399675051318567,5.8313400624092,1.1519129276275635,-2.130744282399313
1708435380.9460835,-1.8611547946929932,-1.425761104827263,-2.640708033238546,5.829274165421285,1.1527200937271118,-2.131709877644674
1708435380.9480948,-1.8590129613876343,-1.4266225111535569,-2.6414676348315638,5.827089416771688,1.1534392833709717,-2.1326502005206507
1708435380.9500744,-1.856783151626587,-1.4273867172053833,-2.6422060171710413,5.82507215717391,1.1541656255722046,-2.133609120045797
1708435380.952084,-1.8546406030654907,-1.4282417756370087,-2.642996851597921,5.822932469635763,1.1548913717269897,-2.134561363850729
1708435380.954077,-1.852427363395691,-1.4291132551482697,-2.6437769571887415,5.820841181069174,1.155591607093811,-2.1354649702655237
1708435380.95609,-1.8502047061920166,-1.4298998725465317,-2.6444619337665003,5.818764912873068,1.1563336849212646,-2.1364768187152308
1708435380.958083,-1.8480172157287598,-1.4306770426085968,-2.645193878804342,5.8166254637535,1.1569403409957886,-2.1374314467059534
1708435380.9600976,-1.8458681106567383,-1.4315290761044999,-2.645959440861837,5.8144874451454065,1.1576346158981323,-2.138405148183004
1708435380.962146,-1.8436613082885742,-1.432342843418457,-2.646707359944479,5.812377559929647,1.158327341079712,-2.139402691517965
1708435380.9641259,-1.841536045074463,-1.433168278341629,-2.6474297682391565,5.810384499817648,1.1590850353240967,-2.1402981917010706
1708435380.9660802,-1.8393477201461792,-1.433950037961342,-2.648188892995016,5.808280575066366,1.1598833799362183,-2.141292397175924
1708435380.9681215,-1.83711838722229,-1.4347656828216095,-2.6490145365344446,5.806239831238546,1.1606066226959229,-2.142228905354635
1708435380.9700825,-1.8349019289016724,-1.4355974954417725,-2.6496902147876185,5.804006206780233,1.161291480064392,-2.1432274023639124
1708435380.9720988,-1.8327243328094482,-1.4363904160312195,-2.6505077520953577,5.801841366081991,1.1619553565979004,-2.1442588011371058
1708435380.9740903,-1.8304802179336548,-1.437283919458725,-2.6512373129474085,5.7996370671089075,1.162750005722046,-2.145203415547506
1708435380.9761138,-1.8282601833343506,-1.4380218845656891,-2.652013603840963,5.79753206947402,1.1634145975112915,-2.146196190510885
1708435380.9780898,-1.8260990381240845,-1.4388879549554368,-2.6527729670154017,5.795507299691,1.164106845855713,-2.14720327058901
1708435380.9800808,-1.8239104747772217,-1.4397190076163788,-2.6535561720477503,5.793487536698141,1.164766550064087,-2.14821702638735
1708435380.9820871,-1.8217335939407349,-1.4404874604991456,-2.654316250477926,5.791381108551779,1.1654272079467773,-2.1492155233966272
1708435380.984084,-1.819498062133789,-1.4413066816380997,-2.6550124327289026,5.7892024395759485,1.1660758256912231,-2.150158230458395
1708435380.986088,-1.8173502683639526,-1.442126066689827,-2.655750576649801,5.787107813149252,1.1667699813842773,-2.151165787373678
1708435380.9880877,-1.815147876739502,-1.4429430824569245,-2.6565383116351526,5.784973370819845,1.1674457788467407,-2.1522157827960413
1708435380.9900777,-1.8129360675811768,-1.4437253338149567,-2.6573262850390833,5.782936441689291,1.1681421995162964,-2.15311843553652
1708435380.9921188,-1.8106789588928223,-1.4445497405580063,-2.658095661793844,5.780853855400839,1.1688395738601685,-2.154125515614645
1708435380.994089,-1.808590054512024,-1.4452868413976212,-2.65883976617922,5.778874146729269,1.1695607900619507,-2.15525466600527
1708435380.9960935,-1.8063985109329224,-1.4461482104710122,-2.6596184412585657,5.776795613556661,1.1702324151992798,-2.15619403520693
1708435380.9980824,-1.8041517734527588,-1.4468999517015,-2.6604347864734095,5.774666058808126,1.170941710472107,-2.1571181456195276
1708435381.0000777,-1.8019145727157593,-1.447741025393345,-2.661128107701437,5.772588360100546,1.1716378927230835,-2.1580823103534144
1708435381.0020804,-1.7997047901153564,-1.4485676449588318,-2.6619070211993616,5.770488488465109,1.1723803281784058,-2.1590855757342737
1708435381.0040915,-1.7975313663482666,-1.4493510139039536,-2.6627019087420862,5.768356430321493,1.1730395555496216,-2.1600335280047815
1708435381.0062022,-1.795301079750061,-1.450185166006424,-2.6634209791766565,5.766250717430868,1.1736514568328857,-2.160987679158346
1708435381.008122,-1.7930549383163452,-1.4509606820395966,-2.6642211119281214,5.764220344811239,1.1743080615997314,-2.1619799772845667
1708435381.010192,-1.7908990383148193,-1.4517334339073678,-2.664981190358297,5.7621415732200525,1.174965262413025,-2.1629207769977015
1708435381.0121148,-1.7886881828308105,-1.452513651256897,-2.6656530539142054,5.760024058609762,1.1756495237350464,-2.163863007222311
1708435381.0140755,-1.7864941358566284,-1.4533324477127572,-2.6664536635028284,5.758004534035482,1.1763921976089478,-2.164870087300436
1708435381.0160758,-1.7842141389846802,-1.4541561242989083,-2.6672080198871058,5.755874621659078,1.1770716905593872,-2.1657736937152308
1708435381.0180676,-1.7820594310760498,-1.4549538505128403,-2.66791803041567,5.753738987236776,1.1777929067611694,-2.1667946020709437
1708435381.0200694,-1.7798492908477783,-1.455794246201851,-2.668718163167135,5.751647579460897,1.1785303354263306,-2.1677239576922815
1708435381.0220687,-1.7776374816894531,-1.456559771006443,-2.669408146535055,5.749575841217794,1.1792670488357544,-2.168654266987936
1708435381.0241003,-1.775470495223999,-1.4573510003140946,-2.6701722780810755,5.747449385910787,1.1799746751785278,-2.1696317831622522
1708435381.0260696,-1.7732892036437988,-1.4581562143615265,-2.6709066073047083,5.745438086777487,1.1806875467300415,-2.1706212202655237
1708435381.0280888,-1.771093726158142,-1.4589147877744217,-2.671661917363302,5.743277895241537,1.181457281112671,-2.1715620199786585
1708435381.0300803,-1.7688512802124023,-1.4597789359143754,-2.6724045912372034,5.741167533188619,1.1821860074996948,-2.1725943724261683
1708435381.0320878,-1.7665917873382568,-1.4605731678060074,-2.6731720606433313,5.739025342255392,1.182890772819519,-2.173537556325094
1708435381.0340815,-1.764397144317627,-1.4614012104323884,-2.6739309469806116,5.736941563874044,1.1836117506027222,-2.1745312849627894
1708435381.0360806,-1.7621902227401733,-1.462175079887249,-2.6747356096850794,5.734771358757772,1.184282898902893,-2.175549332295553
1708435381.0380747,-1.7600293159484863,-1.4630544644645234,-2.6753700415240687,5.732720839768209,1.185014247894287,-2.1764333883868616
1708435381.0400887,-1.7578260898590088,-1.4638578084162255,-2.6762161890613,5.730614173203268,1.1857177019119263,-2.1774523893939417
1708435381.0420659,-1.7555971145629883,-1.4646960732391854,-2.6769636313067835,5.728513109474935,1.186381459236145,-2.178446594868795
1708435381.0441048,-1.7534328699111938,-1.4655206587961693,-2.6776729265796106,5.7264078734214685,1.1870989799499512,-2.1794517675982874
1708435381.0460837,-1.7512468099594116,-1.4663134154728432,-2.6784592310534876,5.724305975228109,1.1878204345703125,-2.180441204701559
1708435381.0480726,-1.7491073608398438,-1.467121736412384,-2.679157797490255,5.722151148110189,1.188504934310913,-2.181423012410299
1708435381.0500886,-1.7468246221542358,-1.4679659989527245,-2.6799736658679407,5.720082151680746,1.189250111579895,-2.1824005285846155
1708435381.052094,-1.7446223497390747,-1.4687943843058129,-2.6806796232806605,5.718094694405355,1.1899056434631348,-2.1834428946124476
1708435381.0540717,-1.7425223588943481,-1.4695653331330796,-2.681512180958883,5.715987074166097,1.1906832456588745,-2.1843960920916956
1708435381.056088,-1.7403277158737183,-1.4704170909575005,-2.682293717061178,5.713879811554708,1.1913633346557617,-2.1853964964496058
1708435381.05807,-1.7380610704421997,-1.4712273937514802,-2.683016602193014,5.7118286965186975,1.1920671463012695,-2.186377827321188
1708435381.0600827,-1.735859990119934,-1.4720336955836792,-2.683803383504049,5.709618615895071,1.1927837133407593,-2.1873748938189905
1708435381.06209,-1.7336660623550415,-1.4728289109519501,-2.6845291296588343,5.707590985089102,1.1934351921081543,-2.1883752981769007
1708435381.064123,-1.7315222024917603,-1.4736346688917656,-2.6852763334857386,5.705440270691671,1.1941310167312622,-2.1893680731402796
1708435381.066073,-1.7293416261672974,-1.4744190287641068,-2.6860325972186487,5.703352737217703,1.1948189735412598,-2.19033652940859
