Eg3-git/Classifiers/Data Collection/u2/u2xyz1_ur3e_joint_states.csv
time,elbow_joint,shoulder_lift_joint,shoulder_pan_joint,wrist_1_joint,wrist_2_joint,wrist_3_joint
1708435267.1456506,-2.1421947479248047,-1.333439664249756,-2.5257719198810022,6.110728847771444,1.0155309438705444,-2.3582046667682093
1708435267.147691,-2.1421399116516113,-1.333456353550293,-2.5257251898394983,6.110737550049581,1.015529751777649,-2.35822564760317
1708435267.1496332,-2.1422061920166016,-1.3334607791951676,-2.5257795492755335,6.110766041069784,1.0155428647994995,-2.3582168261157435
1708435267.1516461,-2.1421608924865723,-1.33341138184581,-2.5258005301104944,6.110684501915731,1.0155298709869385,-2.358246390019552
1708435267.153771,-2.1421990394592285,-1.3334307086518784,-2.5257628599749964,6.110720145493307,1.015570878982544,-2.3582125345813196
1708435267.1556673,-2.142181873321533,-1.333439664249756,-2.5257673899279993,6.110708224564352,1.0155056715011597,-2.3582003752337855
1708435267.1576416,-2.1421737670898438,-1.333423302774765,-2.5257297197925013,6.110758530884542,1.0155590772628784,-2.358241860066549
1708435267.1596313,-2.1421542167663574,-1.333436520104744,-2.5257704893695276,6.110737550049581,1.0155341625213623,-2.358197037373678
1708435267.1616242,-2.1422019004821777,-1.333435134296753,-2.5257931391345423,6.110692012100973,1.015554666519165,-2.358229939137594
1708435267.1636562,-2.1422219276428223,-1.333439664249756,-2.5257509390460413,6.110693204193868,1.0155590772628784,-2.3581958452807825
1708435267.1656444,-2.142129898071289,-1.3334695559791108,-2.525738779698507,6.110716926842489,1.0155665874481201,-2.358229939137594
1708435267.1676917,-2.1421780586242676,-1.3334771406701584,-2.5258095900165003,6.110680925637045,1.0155577659606934,-2.358213488255636
1708435267.1696725,-2.1421775817871094,-1.333463729625084,-2.5257869402514856,6.110782372742452,1.0155056715011597,-2.3582003752337855
1708435267.1716347,-2.142148494720459,-1.333439664249756,-2.5257750193225306,6.110713827400961,1.0155633687973022,-2.3581631819354456
1708435267.173658,-2.142152786254883,-1.333439664249756,-2.5257704893695276,6.110652911454,1.0155752897262573,-2.358241860066549
1708435267.1756346,-2.142186164855957,-1.3334771704724808,-2.5257464090930384,6.1107051251228235,1.0155503749847412,-2.358208958302633
1708435267.177652,-2.1421566009521484,-1.3334845316461106,-2.5258215109454554,6.110709416657247,1.0155056715011597,-2.358197037373678
1708435267.179661,-2.14216947555542,-1.333481566315033,-2.5257509390460413,6.110721337586202,1.0155384540557861,-2.358201567326681
1708435267.1816292,-2.1422178745269775,-1.333435134296753,-2.5257418791400355,6.110676514893331,1.0155298709869385,-2.3582168261157435
1708435267.183671,-2.1422019004821777,-1.3334321838668366,-2.5257583300219935,6.110737550049581,1.0155341625213623,-2.3581510225879114
1708435267.1856558,-2.142190456390381,-1.333439664249756,-2.5258095900165003,6.110718238144674,1.0155622959136963,-2.3581882158862513
1708435267.1876578,-2.142148494720459,-1.3334143322757264,-2.525759998952047,6.1107051251228235,1.0155589580535889,-2.358185116444723
1708435267.189641,-2.1421737670898438,-1.3335142892650147,-2.5258095900165003,6.1106756804283044,1.0155341625213623,-2.3581915537463587
1708435267.1916652,-2.1421775817871094,-1.3334637445262452,-2.525776449834005,6.1107332585151575,1.015570878982544,-2.358159844075338
1708435267.1936736,-2.1421613693237305,-1.333447353248932,-2.5257464090930384,6.110713827400961,1.0155384540557861,-2.358192745839254
1708435267.1956232,-2.1421780586242676,-1.333468185072281,-2.52574330965151,6.110750782280721,1.0155179500579834,-2.3581884543048304
1708435267.197663,-2.1422176361083984,-1.3334158223918458,-2.5257750193225306,6.110651600151815,1.0155309438705444,-2.3581765333758753
1708435267.1996412,-2.142181873321533,-1.3334233474782486,-2.525734249745504,6.1106722233589075,1.015526533126831,-2.358197037373678
1708435267.2016191,-2.142165184020996,-1.3334681403687973,-2.5257673899279993,6.110763656883993,1.0155099630355835,-2.3581765333758753
1708435267.2036636,-2.142137050628662,-1.3333652776530762,-2.5257704893695276,6.11074315288619,1.01554274559021,-2.3581610361682337
1708435267.2056339,-2.1421737670898438,-1.3334187877229233,-2.5257673899279993,6.11073003986434,1.0155309438705444,-2.358185116444723
1708435267.2076302,-2.1421780586242676,-1.3334727001241227,-2.5257509390460413,6.1107181189353845,1.0155665874481201,-2.358185116444723
1708435267.209655,-2.142197608947754,-1.3334637445262452,-2.5257795492755335,6.1107027409370325,1.0155384540557861,-2.35815674463381
1708435267.2116287,-2.142137050628662,-1.3334681701711197,-2.5257840792285364,6.11073003986434,1.0155384540557861,-2.358180824910299
1708435267.2136533,-2.142190456390381,-1.333456353550293,-2.5257869402514856,6.110722529679098,1.015529751777649,-2.3581729570971888
1708435267.215651,-2.14216947555542,-1.333377630715706,-2.5258169809924524,6.110725629120626,1.0155384540557861,-2.358185116444723
1708435267.2176967,-2.142129898071289,-1.3334024113467713,-2.525766197835104,6.110685336380758,1.0155590772628784,-2.358164374028341
1708435267.2196536,-2.1422176361083984,-1.3334277433208008,-2.5257750193225306,6.110750663071432,1.0155178308486938,-2.3582266012774866
1708435267.2216523,-2.142186164855957,-1.3334727001241227,-2.5257554689990442,6.110728847771444,1.0155384540557861,-2.358197037373678
1708435267.2236466,-2.142181873321533,-1.3334158074906846,-2.5257840792285364,6.110656010895529,1.01554274559021,-2.358144823704855
1708435267.2256622,-2.1422019004821777,-1.3334143322757264,-2.525738779698507,6.110697495728292,1.015529751777649,-2.358168665562765
1708435267.2276492,-2.1421327590942383,-1.333460734491684,-2.5257840792285364,6.110685336380758,1.0155589580535889,-2.3581729570971888
1708435267.2296507,-2.142165184020996,-1.3334396344474335,-2.525717798863546,6.110714781075277,1.0155634880065918,-2.358164135609762
1708435267.2316394,-2.1421608924865723,-1.333456279044487,-2.5257886091815394,6.110738742142477,1.015480875968933,-2.358136002217428
1708435267.2336352,-2.142186164855957,-1.333439664249756,-2.5257554689990442,6.110685455590048,1.0155384540557861,-2.358205858861105
1708435267.235614,-2.142181873321533,-1.333456353550293,-2.5257886091815394,6.110680925637045,1.0155515670776367,-2.3581491152392786
1708435267.237659,-2.142137050628662,-1.3334528815797348,-2.5257554689990442,6.110676514893331,1.015497088432312,-2.3581536451922815
1708435267.2396514,-2.142190456390381,-1.3334485304406662,-2.5257464090930384,6.110689627915182,1.01551353931427,-2.3581536451922815
1708435267.241633,-2.1421780586242676,-1.3334563237479706,-2.5257554689990442,6.110706317215719,1.015554666519165,-2.3581939379321497
1708435267.243661,-2.142190456390381,-1.3334441047957917,-2.5257931391345423,6.110705005913534,1.0155178308486938,-2.3581491152392786
1708435267.2456226,-2.142197608947754,-1.33348901689563,-2.5257554689990442,6.110685336380758,1.0155099630355835,-2.3581250349627894
1708435267.2476757,-2.142197608947754,-1.333426297908165,-2.525734249745504,6.110688793450155,1.0155099630355835,-2.358168665562765
1708435267.249652,-2.1422061920166016,-1.3334187877229233,-2.5257795492755335,6.110685336380758,1.015526533126831,-2.3581164518939417
1708435267.2516413,-2.142144203186035,-1.3334396493485947,-2.5257795492755335,6.1106159565742395,1.0154969692230225,-2.3581579367267054
1708435267.253654,-2.1421327590942383,-1.3334652048400422,-2.525731388722555,6.1106440899665735,1.01554274559021,-2.3581491152392786
1708435267.2556334,-2.14219331741333,-1.33341138184581,-2.5257673899279993,6.1107181189353845,1.015554666519165,-2.3581491152392786
1708435267.2576487,-2.1422104835510254,-1.3334307235530396,-2.5257554689990442,6.1107051251228235,1.0155471563339233,-2.3581624666797083
1708435267.259628,-2.142148494720459,-1.333444134598114,-2.5257719198810022,6.110694038658895,1.0155503749847412,-2.3581119219409388
1708435267.261629,-2.1421327590942383,-1.3334306937507172,-2.525734249745504,6.110713827400961,1.015554666519165,-2.3581207434283655
1708435267.2636547,-2.142165184020996,-1.3334607642940064,-2.5257840792285364,6.110677706986227,1.0155471563339233,-2.3581207434283655
1708435267.2656457,-2.1421327590942383,-1.3334440898946305,-2.5257554689990442,6.1107191918189905,1.0155222415924072,-2.3580759207354944
1708435267.2676659,-2.1421780586242676,-1.3334351640990754,-2.525759998952047,6.110689627915182,1.0154894590377808,-2.3580923716174524
1708435267.2696588,-2.142144203186035,-1.3334681254676362,-2.5257180372821253,6.110710608750143,1.0155514478683472,-2.35801345506777
1708435267.2716775,-2.14216947555542,-1.3334307086518784,-2.525801960621969,6.110669123917379,1.0155471563339233,-2.3580716292010706
1708435267.2736678,-2.142152786254883,-1.3334681552699585,-2.525759998952047,6.110731112747946,1.0155341625213623,-2.358117643986837
1708435267.2756245,-2.1422061920166016,-1.3334218722632905,-2.525759998952047,6.110657202988424,1.01554274559021,-2.358072821293966
1708435267.2776573,-2.1421656608581543,-1.3334695559791108,-2.5257554689990442,6.110694038658895,1.0155099630355835,-2.358109776173727
1708435267.2796197,-2.1421775817871094,-1.3334563088468094,-2.5257840792285364,6.110652792244711,1.01554274559021,-2.3580804506884974
1708435267.2816427,-2.142165184020996,-1.3334474128535767,-2.5257673899279993,6.110620248108663,1.0155503749847412,-2.358072821293966
1708435267.283666,-2.1421990394592285,-1.3334890615991135,-2.5257795492755335,6.110690820008077,1.01554274559021,-2.358072821293966
1708435267.2856407,-2.142190456390381,-1.33348901689563,-2.5257673899279993,6.11071931102828,1.0155633687973022,-2.35807711282839
1708435267.287664,-2.1421256065368652,-1.3334307384542008,-2.5257297197925013,6.1106369374092,1.0155178308486938,-2.358060661946432
1708435267.289635,-2.142165184020996,-1.3334440749934693,-2.525738779698507,6.110661494522848,1.015526533126831,-2.358126465474264
1708435267.291628,-2.142152786254883,-1.3334607195905228,-2.525726858769552,6.110689627915182,1.0155056715011597,-2.3580430189715784
1708435267.2936578,-2.1421737670898438,-1.3334114265492936,-2.525726858769552,6.1106369374092,1.0155222415924072,-2.358089033757345
1708435267.2956283,-2.1421890258789062,-1.3334756654552002,-2.525710407887594,6.110722529679098,1.0155396461486816,-2.3580475489245813
1708435267.2977047,-2.142181873321533,-1.3334263128093262,-2.5257135073291224,6.110624658852377,1.0155179500579834,-2.3581009546863
1708435267.2996566,-2.142144203186035,-1.3334440898946305,-2.5257509390460413,6.110648381500997,1.0155222415924072,-2.358056370412008
1708435267.3016312,-2.14216947555542,-1.3334681552699585,-2.525738779698507,6.110624658852377,1.015526533126831,-2.358097855244772
1708435267.3036604,-2.1422104835510254,-1.3334307384542008,-2.525731388722555,6.110657202988424,1.0155024528503418,-2.358048741017477
1708435267.3056448,-2.1422019004821777,-1.3334233325770875,-2.5257135073291224,6.110677826195516,1.0155341625213623,-2.358048741017477
1708435267.3076606,-2.1421656608581543,-1.3334485006383439,-2.52574330965151,6.110686409264364,1.0154861211776733,-2.358044449483053
1708435267.309627,-2.1421327590942383,-1.3334233176759263,-2.5257719198810022,6.110732424050131,1.0155186653137207,-2.358044449483053
1708435267.3116348,-2.1421570777893066,-1.3334321838668366,-2.5257840792285364,6.110625731735983,1.0155309438705444,-2.3580191771136683
1708435267.3136494,-2.1421656608581543,-1.3334563237479706,-2.525710407887594,6.110677706986227,1.0154688358306885,-2.358060661946432
1708435267.315651,-2.1421256065368652,-1.333407000904419,-2.5258005301104944,6.110677706986227,1.0155384540557861,-2.3580649534808558
1708435267.3177052,-2.1421737670898438,-1.333439664249756,-2.5257180372821253,6.1106289503868005,1.0155099630355835,-2.3580694834338587
1708435267.3196445,-2.1421737670898438,-1.333460734491684,-2.5257554689990442,6.110624658852377,1.0155709981918335,-2.35807711282839
1708435267.3216622,-2.1421327590942383,-1.3334099513343354,-2.525776449834005,6.110624539643087,1.0155471563339233,-2.358089033757345
1708435267.3236957,-2.1421780586242676,-1.3334410351565857,-2.525705877934591,6.110645639687338,1.0155384540557861,-2.3580694834338587
1708435267.3256347,-2.142141342163086,-1.3333980602077027,-2.52574330965151,6.110637652664938,1.0155589580535889,-2.3580084482776087
1708435267.3276618,-2.142181873321533,-1.3334726852229615,-2.5257554689990442,6.110646354943075,1.0155341625213623,-2.358056131993429
1708435267.3296392,-2.1421542167663574,-1.3334890466979523,-2.525734249745504,6.110569107323446,1.0155024528503418,-2.3580191771136683
1708435267.3316483,-2.1421608924865723,-1.3334144216826935,-2.52576452890505,6.110577809601583,1.0155309438705444,-2.3580694834338587
1708435267.3336825,-2.1421608924865723,-1.3334233623794098,-2.525776449834005,6.110550749092855,1.0155352354049683,-2.3580203692065638
1708435267.335634,-2.14219331741333,-1.3334681403687973,-2.525747839604513,6.110557186394491,1.015554666519165,-2.3580685297595423
1708435267.3376658,-2.1421737670898438,-1.3334440898946305,-2.525738779698507,6.110542046814718,1.0155056715011597,-2.358048741017477
1708435267.3396358,-2.142197608947754,-1.333439664249756,-2.525747839604513,6.110542046814718,1.015526533126831,-2.358048741017477
1708435267.3416383,-2.1422061920166016,-1.3334815216115494,-2.525722328816549,6.1105702994163416,1.0155298709869385,-2.35811430612673
1708435267.34365,-2.1421608924865723,-1.3334978085807343,-2.525722328816549,6.110530125885763,1.0155013799667358,-2.358048741017477
1708435267.3456337,-2.142137050628662,-1.333444045191147,-2.525734249745504,6.110574590950765,1.0154894590377808,-2.35807711282839
1708435267.3476653,-2.1421608924865723,-1.333509848718979,-2.525705877934591,6.110583293228903,1.0155179500579834,-2.358023707066671
1708435267.3496354,-2.1422061920166016,-1.3334770959666749,-2.52576452890505,6.11058663108901,1.0155253410339355,-2.358048741017477
1708435267.3516326,-2.142190456390381,-1.3333909970572968,-2.525722328816549,6.1106194136436365,1.0154969692230225,-2.358077351246969
1708435267.353676,-2.1421256065368652,-1.3334563386491318,-2.5257840792285364,6.110537755280294,1.0155471563339233,-2.3580649534808558
1708435267.3556538,-2.1421947479248047,-1.333459274177887,-2.5257464090930384,6.110583293228903,1.01554274559021,-2.3580649534808558
1708435267.3576574,-2.14223051071167,-1.333472655420639,-2.525722328816549,6.110595214157858,1.0155186653137207,-2.3580456415759485
1708435267.3596294,-2.1421284675598145,-1.333439664249756,-2.525759998952047,6.1105689881141565,1.0155589580535889,-2.358044449483053
1708435267.361652,-2.1421608924865723,-1.333439664249756,-2.5257208983050745,6.110602843552389,1.01554274559021,-2.358015839253561
1708435267.363651,-2.1421608924865723,-1.3333980453065415,-2.5257135073291224,6.110517132073202,1.0155352354049683,-2.358084742222921
1708435267.365643,-2.1421327590942383,-1.3334726852229615,-2.5257554689990442,6.11049650886611,1.0155633687973022,-2.358056370412008
1708435267.3676536,-2.1421170234680176,-1.333382101064064,-2.5257464090930384,6.110573518067159,1.0155179500579834,-2.358081642781393
1708435267.3696477,-2.142144203186035,-1.3334321838668366,-2.5257795492755335,6.110635626107015,1.0155309438705444,-2.358048741017477
1708435267.371642,-2.1421399116516113,-1.3334770661643525,-2.5257554689990442,6.110561597138204,1.015526533126831,-2.3580575625049036
1708435267.373681,-2.142152786254883,-1.333432139163353,-2.5257464090930384,6.110562312393942,1.0155503749847412,-2.3580649534808558
1708435267.3756337,-2.1421566009521484,-1.3334440749934693,-2.525747839604513,6.110549318581381,1.01554274559021,-2.358044449483053
1708435267.3776436,-2.142152786254883,-1.333439664249756,-2.5257719198810022,6.110549318581381,1.0155099630355835,-2.358048741017477
1708435267.3796625,-2.142197608947754,-1.333472640519478,-2.5257297197925013,6.110553729325094,1.015497088432312,-2.358032528554098
1708435267.381662,-2.1421737670898438,-1.3334651750377198,-2.525780741368429,6.110529053002157,1.0155503749847412,-2.358072821293966
1708435267.3836787,-2.1421890258789062,-1.3334233325770875,-2.5257132689105433,6.110544907837667,1.015526533126831,-2.358060661946432
1708435267.3856394,-2.142148494720459,-1.33346080899749,-2.525759998952047,6.110594022064962,1.015529751777649,-2.3580859343158167
1708435267.387765,-2.142141342163086,-1.3334144365838547,-2.525710407887594,6.110571133881368,1.0155341625213623,-2.358027998601095
1708435267.3896353,-2.1421775817871094,-1.3334474128535767,-2.525759998952047,6.110529053002157,1.0155460834503174,-2.358093563710348
1708435267.3916373,-2.142144203186035,-1.333444060092308,-2.5257719198810022,6.110607135086813,1.0155341625213623,-2.358060661946432
1708435267.3936405,-2.142148494720459,-1.3334440898946305,-2.525776449834005,6.110479938774862,1.0155341625213623,-2.358072821293966
1708435267.3956308,-2.1421284675598145,-1.3334681701711197,-2.5257673899279993,6.110521542816915,1.0155340433120728,-2.358036820088522
1708435267.397651,-2.1421775817871094,-1.3334563386491318,-2.525722328816549,6.1105702994163416,1.0155415534973145,-2.35803991953005
1708435267.3996425,-2.1421570777893066,-1.33345182359729,-2.5257869402514856,6.11058663108901,1.0155589580535889,-2.3580859343158167
1708435267.4016263,-2.1421213150024414,-1.33345182359729,-2.525726858769552,6.110607135086813,1.0155048370361328,-2.3581023851977747
1708435267.4036617,-2.1421613693237305,-1.333423377280571,-2.525776449834005,6.110544907837667,1.015570878982544,-2.3580859343158167
1708435267.4056537,-2.142152786254883,-1.3334727150252839,-2.525747839604513,6.1105702994163416,1.0155341625213623,-2.358110014592306
1708435267.4076948,-2.142165184020996,-1.333474026327469,-2.525801960621969,6.110552775650778,1.0155665874481201,-2.358060661946432
1708435267.409669,-2.142190456390381,-1.3335053485682984,-2.5257673899279993,6.110594141274252,1.0155298709869385,-2.358081642781393
1708435267.411632,-2.1422019004821777,-1.3334978085807343,-2.5257840792285364,6.1105702994163416,1.015570878982544,-2.3580027262317103
1708435267.413661,-2.142137050628662,-1.333526389007904,-2.5257840792285364,6.110558020859518,1.0155460834503174,-2.358044449483053
1708435267.4156406,-2.142141342163086,-1.3334889721921463,-2.525738779698507,6.110525834351339,1.0155746936798096,-2.358060661946432
1708435267.4176998,-2.142181873321533,-1.3334637445262452,-2.525722328816549,6.110537755280294,1.0155878067016602,-2.358051840459005
1708435267.4196825,-2.1422061920166016,-1.333435208802559,-2.525776449834005,6.110589730530538,1.0155577659606934,-2.35807711282839
1708435267.4218,-2.1421947479248047,-1.3334430021098633,-2.5257719198810022,6.110602843552389,1.0155577659606934,-2.3580649534808558
1708435267.4236565,-2.1422133445739746,-1.333439664249756,-2.5257464090930384,6.110577809601583,1.0155792236328125,-2.358032528554098
1708435267.425635,-2.142165184020996,-1.333472655420639,-2.5257931391345423,6.1105127213294885,1.0155997276306152,-2.3580694834338587
1708435267.4276412,-2.1421284675598145,-1.3334351491979142,-2.52574330965151,6.110577809601583,1.0155909061431885,-2.3580859343158167
1708435267.4296424,-2.1422133445739746,-1.3334307235530396,-2.5257886091815394,6.110533344536581,1.0155792236328125,-2.358072821293966
1708435267.43163,-2.1421284675598145,-1.3334233325770875,-2.52574330965151,6.110533344536581,1.0156028270721436,-2.3580649534808558
1708435267.4336615,-2.14219331741333,-1.3334770512631913,-2.525818411503927,6.11058663108901,1.015594244003296,-2.358084742222921
1708435267.435636,-2.1421327590942383,-1.33345182359729,-2.5257931391345423,6.110589849739828,1.0156071186065674,-2.3580859343158167
1708435267.437638,-2.1421608924865723,-1.3334694665721436,-2.525802199040548,6.1105689881141565,1.0155954360961914,-2.358084742222921
1708435267.4396367,-2.1422061920166016,-1.33345182359729,-2.5257673899279993,6.110557186394491,1.015578031539917,-2.358097855244772
1708435267.4416373,-2.1421127319335938,-1.3334024113467713,-2.5257464090930384,6.110585319786825,1.0155704021453857,-2.358027998601095
1708435267.4436471,-2.142152786254883,-1.333418832426407,-2.5257840792285364,6.110548484116354,1.0156028270721436,-2.3580356279956263
1708435267.445618,-2.142152786254883,-1.3334484559348603,-2.5257750193225306,6.110589730530538,1.0156147480010986,-2.35807711282839
1708435267.4476254,-2.14216947555542,-1.3334351640990754,-2.5257840792285364,6.110626923828878,1.0156313180923462,-2.358051840459005
1708435267.449626,-2.142165184020996,-1.333456353550293,-2.5257628599749964,6.110552775650778,1.0155973434448242,-2.358105484639303
1708435267.4516158,-2.142181873321533,-1.3334727448276062,-2.5258215109454554,6.1106194136436365,1.0155811309814453,-2.358081642781393
1708435267.4536376,-2.1422019004821777,-1.3334396940520783,-2.5257795492755335,6.110602843552389,1.015622615814209,-2.358072821293966
1708435267.4556432,-2.1421399116516113,-1.3334351491979142,-2.525776449834005,6.110585319786825,1.015638828277588,-2.3580685297595423
1708435267.4576254,-2.1421737670898438,-1.3334548485330124,-2.5257135073291224,6.110585319786825,1.0156676769256592,-2.358051840459005
1708435267.4596756,-2.142141342163086,-1.333439664249756,-2.5257795492755335,6.110622632294454,1.0156139135360718,-2.358089033757345
1708435267.4616196,-2.142141342163086,-1.3334351491979142,-2.5257750193225306,6.110540616303243,1.0156632661819458,-2.358051840459005
1708435267.4636254,-2.1421608924865723,-1.3334592890790482,-2.5257840792285364,6.1106018898780725,1.0156466960906982,-2.3581634203540247
1708435267.4656467,-2.142197608947754,-1.3334518384984513,-2.5257628599749964,6.110594022064962,1.0156632661819458,-2.358084742222921
1708435267.467632,-2.1421566009521484,-1.3334070307067414,-2.5257704893695276,6.110565888672628,1.0156466960906982,-2.358133856450216
1708435267.4696615,-2.142190456390381,-1.3334771406701584,-2.5257795492755335,6.110576617508688,1.0156588554382324,-2.358084742222921
1708435267.4716706,-2.1421608924865723,-1.3334681552699585,-2.5257795492755335,6.110594022064962,1.0156826972961426,-2.358072821293966
1708435267.4736345,-2.1421947479248047,-1.3334801209023972,-2.5257840792285364,6.110643136292257,1.0156676769256592,-2.3580835501300257
1708435267.475621,-2.1421170234680176,-1.3335053634694596,-2.5257931391345423,6.110576617508688,1.0156794786453247,-2.3580804506884974
1708435267.4776192,-2.142181873321533,-1.3334518832019349,-2.5257554689990442,6.1106475470359705,1.0156826972961426,-2.3580685297595423
1708435267.47962,-2.1421570777893066,-1.3334339720061799,-2.5257583300219935,6.110576617508688,1.0156989097595215,-2.3580597082721155
1708435267.482038,-2.1422019004821777,-1.3334727001241227,-2.5258169809924524,6.1105559943015955,1.0156664848327637,-2.3581131140338343
1708435267.483646,-2.142144203186035,-1.333421916966774,-2.5257628599749964,6.110589730530538,1.0156784057617188,-2.358051840459005
1708435267.4856398,-2.1421570777893066,-1.3334429574063797,-2.5257583300219935,6.110613810807028,1.0156784057617188,-2.3580804506884974
1708435267.4876466,-2.142144203186035,-1.3334637147239228,-2.5258215109454554,6.1106018898780725,1.0157406330108643,-2.358089033757345
1708435267.4896493,-2.1422104835510254,-1.3334681701711197,-2.5257931391345423,6.1106300232704065,1.0156292915344238,-2.3581624666797083
1708435267.4916863,-2.142165184020996,-1.333430753355362,-2.5257373491870325,6.110597598343649,1.0156902074813843,-2.3581295649157923
1708435267.4936578,-2.1422176361083984,-1.33345182359729,-2.5257795492755335,6.110643255501547,1.015685796737671,-2.358128372822897
1708435267.4956489,-2.1422061920166016,-1.3334890615991135,-2.5257464090930384,6.11063443401412,1.0156902074813843,-2.3581371943103235
1708435267.4976397,-2.14216947555542,-1.3334262532046814,-2.5257087389575403,6.1105888960655115,1.015715479850769,-2.3581414858447474
1708435267.4996464,-2.142186164855957,-1.3334845316461106,-2.5257538000689905,6.110621440201559,1.0156989097595215,-2.3581281344043177
1708435267.5016425,-2.1421775817871094,-1.3334306937507172,-2.5257914702044886,6.110646354943075,1.0156989097595215,-2.3581655661212366
1708435267.5036438,-2.1421823501586914,-1.3334548634341736,-2.5257628599749964,6.110665786057272,1.0156946182250977,-2.35815674463381
1708435267.5056663,-2.142181873321533,-1.3334485602429886,-2.5257795492755335,6.110649812012472,1.0157395601272583,-2.3581774870501917
1708435267.5076501,-2.1421775817871094,-1.33345182359729,-2.5258005301104944,6.110637652664938,1.0157023668289185,-2.358123842869894
1708435267.5096328,-2.142181873321533,-1.333418832426407,-2.5257886091815394,6.1106324074561975,1.0157395601272583,-2.358136002217428
1708435267.5116696,-2.1422019004821777,-1.33351422966037,-2.5257464090930384,6.11070071437911,1.015730857849121,-2.35815674463381
1708435267.513632,-2.1421890258789062,-1.3334518384984513,-2.5257886091815394,6.110767352371969,1.015681505203247,-2.358136002217428
1708435267.5156496,-2.1422019004821777,-1.3334263575128098,-2.5257750193225306,6.110693204193868,1.015730857849121,-2.358147923146383
1708435267.517701,-2.1421737670898438,-1.3334548634341736,-2.5257750193225306,6.110688793450155,1.015730857849121,-2.358152453099386
1708435267.5196812,-2.1422033309936523,-1.333456353550293,-2.5257750193225306,6.110684501915731,1.0156980752944946,-2.358136002217428
1708435267.521691,-2.1421947479248047,-1.333459274177887,-2.525776449834005,6.110709416657247,1.015681505203247,-2.3581884543048304
1708435267.5236723,-2.142144203186035,-1.333442972307541,-2.5257750193225306,6.110737550049581,1.015735149383545,-2.358185116444723
1708435267.5256374,-2.1421947479248047,-1.3334890317967911,-2.5257464090930384,6.1107051251228235,1.015735149383545,-2.358197037373678
1708435267.5276496,-2.142148494720459,-1.3334637147239228,-2.5257886091815394,6.110709416657247,1.0157146453857422,-2.358185116444723
1708435267.5296402,-2.1421823501586914,-1.333468185072281,-2.5258379618274134,6.110770451813497,1.0157146453857422,-2.3581271807300013
1708435267.531629,-2.1421656608581543,-1.333451808696129,-2.5257750193225306,6.110717046051779,1.015718936920166,-2.358185116444723
1708435267.533681,-2.142186164855957,-1.3334440898946305,-2.5257886091815394,6.110688912659445,1.0157221555709839,-2.358205858861105
1708435267.5356383,-2.1421823501586914,-1.3334143918803711,-2.5257795492755335,6.1107051251228235,1.0157103538513184,-2.3582213560687464
1708435267.537683,-2.1421823501586914,-1.33345182359729,-2.5257914702044886,6.110728847771444,1.015730857849121,-2.3581555525409144
1708435267.5396543,-2.1421732902526855,-1.3334563237479706,-2.5258169809924524,6.110696303635397,1.0157723426818848,-2.358238760625021
1708435267.5416253,-2.142165184020996,-1.3335097891143342,-2.5257960001574915,6.110769259720602,1.0157103538513184,-2.3581720034228724
1708435267.5436256,-2.14216947555542,-1.3334563386491318,-2.5257704893695276,6.1107051251228235,1.015730857849121,-2.358229939137594
1708435267.5456333,-2.142190456390381,-1.3334441047957917,-2.5257673899279993,6.110724437027731,1.0157470703125,-2.3581555525409144
1708435267.5476384,-2.142186164855957,-1.333426297908165,-2.5257704893695276,6.110774743347921,1.015730857849121,-2.3582375685321253
1708435267.5496423,-2.142152786254883,-1.333439664249756,-2.5257795492755335,6.1107051251228235,1.0157470703125,-2.358192745839254
1708435267.5516632,-2.1422061920166016,-1.3334473830512543,-2.52577788034548,6.110758530884542,1.0157395601272583,-2.358180824910299
1708435267.5536444,-2.1421947479248047,-1.3334845465472718,-2.5257795492755335,6.110688793450155,1.0157395601272583,-2.358159844075338
1708435267.5556414,-2.1422219276428223,-1.3334099513343354,-2.5258379618274134,6.110734450608053,1.0157558917999268,-2.358213488255636
1708435267.5576973,-2.142137050628662,-1.3334935170463105,-2.5258124510394495,6.110750663071432,1.0157636404037476,-2.3582046667682093
1708435267.5596488,-2.142181873321533,-1.3334130358747025,-2.5257538000689905,6.110725629120626,1.0157557725906372,-2.358213488255636
1708435267.5616498,-2.142181873321533,-1.333421842460968,-2.5257704893695276,6.110755073815145,1.0156980752944946,-2.358258310948507
1708435267.5636487,-2.1421499252319336,-1.3334473681500931,-2.5257914702044886,6.110696303635397,1.0157593488693237,-2.358229939137594
1708435267.565634,-2.1422019004821777,-1.333405466084816,-2.5258124510394495,6.110726821213522,1.0157265663146973,-2.358241860066549
1708435267.5676575,-2.1421737670898438,-1.3334638339332123,-2.5257795492755335,6.110684501915731,1.0157146453857422,-2.358201567326681
1708435267.5696669,-2.142165184020996,-1.3334593188813706,-2.5257914702044886,6.1107462523277185,1.0157549381256104,-2.3582211176501673
1708435267.5716813,-2.1421656608581543,-1.3334592443755646,-2.5257840792285364,6.110660302429952,1.0157470703125,-2.358197037373678
1708435267.573643,-2.1421127319335938,-1.3334890615991135,-2.5258215109454554,6.110706317215719,1.015730857849121,-2.3581884543048304
1708435267.5756328,-2.1421213150024414,-1.3334637594274064,-2.5257628599749964,6.110676514893331,1.015730857849121,-2.3582211176501673
1708435267.577656,-2.142148494720459,-1.333456353550293,-2.5258546511279505,6.110717046051779,1.0157636404037476,-2.3581677118884485
1708435267.5796454,-2.1421284675598145,-1.3334563237479706,-2.5258079210864466,6.110691892891683,1.0156937837600708,-2.35822564760317
1708435267.5816367,-2.142190456390381,-1.3334637445262452,-2.5257704893695276,6.110713708191671,1.0157265663146973,-2.3581631819354456
1708435267.5836356,-2.142186164855957,-1.3335086864284058,-2.5258289019214075,6.110741960793295,1.0157755613327026,-2.358208958302633
1708435267.5856283,-2.142186164855957,-1.333400936131813,-2.5258215109454554,6.110713827400961,1.0157636404037476,-2.358208958302633
1708435267.587638,-2.142148494720459,-1.333439664249756,-2.5257795492755335,6.110684501915731,1.0157383680343628,-2.3582125345813196
1708435267.5896325,-2.142152786254883,-1.3334396493485947,-2.5257795492755335,6.110684501915731,1.0157023668289185,-2.358192745839254
1708435267.591625,-2.142152786254883,-1.3334727150252839,-2.525761429463522,6.110693204193868,1.0157265663146973,-2.358208958302633
1708435267.5937033,-2.142152786254883,-1.3334296655705948,-2.5257869402514856,6.110693204193868,1.0156893730163574,-2.3582406679736536
1708435267.5956328,-2.142190456390381,-1.333435134296753,-2.5257840792285364,6.110696303635397,1.0157636404037476,-2.3582168261157435
1708435267.5976353,-2.1421737670898438,-1.3334681701711197,-2.5258124510394495,6.110754239350118,1.0157146453857422,-2.3582168261157435
1708435267.599639,-2.142186164855957,-1.3334307235530396,-2.5257795492755335,6.110709416657247,1.0157711505889893,-2.358192745839254
1708435267.6016278,-2.1421656608581543,-1.3334681552699585,-2.5258124510394495,6.110763656883993,1.0157593488693237,-2.3581677118884485
1708435267.6036866,-2.142141342163086,-1.33348901689563,-2.5257840792285364,6.11073003986434,1.0157513618469238,-2.35822564760317
1708435267.605654,-2.142165184020996,-1.3335380566171189,-2.5257704893695276,6.110717046051779,1.0157221555709839,-2.3581796328174036
1708435267.6076589,-2.1421737670898438,-1.3334233623794098,-2.5258079210864466,6.110718238144674,1.0157427787780762,-2.35822564760317
1708435267.6096296,-2.142152786254883,-1.3334351939013978,-2.5258169809924524,6.1107051251228235,1.0157383680343628,-2.3581915537463587
1708435267.6116395,-2.142181873321533,-1.33349201202903,-2.5257914702044886,6.1106722233589075,1.0157427787780762,-2.358197037373678
1708435267.6136682,-2.1421613693237305,-1.333484486942627,-2.5257750193225306,6.110713708191671,1.015730857849121,-2.3581839243518274
1708435267.615637,-2.142148494720459,-1.3334473979524155,-2.5257795492755335,6.110762822418966,1.0156937837600708,-2.3581839243518274
1708435267.6176863,-2.142148494720459,-1.3335335415652771,-2.5258033911334437,6.110684501915731,1.0157470703125,-2.3581555525409144
1708435267.6196618,-2.142148494720459,-1.33346080899749,-2.5258033911334437,6.11070071437911,1.0157103538513184,-2.3581555525409144
1708435267.6216507,-2.1421780586242676,-1.3334475022605439,-2.5257750193225306,6.1107051251228235,1.0157470703125,-2.3582168261157435
1708435267.6236668,-2.1421947479248047,-1.3335008484176178,-2.5257869402514856,6.1106722233589075,1.0157265663146973,-2.3581467310534876
1708435267.625655,-2.142152786254883,-1.3334563386491318,-2.5258124510394495,6.1106722233589075,1.0157265663146973,-2.358208958302633
1708435267.6276684,-2.14216947555542,-1.33345182359729,-2.5258033911334437,6.110718238144674,1.015735149383545,-2.3582211176501673
1708435267.629654,-2.14216947555542,-1.3334637445262452,-2.5258079210864466,6.110676514893331,1.0156980752944946,-2.358253780995504
1708435267.6316192,-2.1422061920166016,-1.333405540590622,-2.5258079210864466,6.110676634102621,1.015718936920166,-2.3581555525409144
1708435267.6336417,-2.142197608947754,-1.3334593337825318,-2.5258033911334437,6.110696303635397,1.015730857849121,-2.3581884543048304
1708435267.6356568,-2.142181873321533,-1.3334889870933075,-2.5258365313159388,6.110688793450155,1.0157265663146973,-2.358241860066549
1708435267.6376479,-2.142165184020996,-1.333483101134636,-2.5258079210864466,6.110750663071432,1.015685796737671,-2.3581884543048304
1708435267.6396308,-2.14216947555542,-1.3334593337825318,-2.5258079210864466,6.110717046051779,1.015730857849121,-2.3582046667682093
1708435267.6416454,-2.142181873321533,-1.3334219318679352,-2.5258079210864466,6.11073003986434,1.015730857849121,-2.3581958452807825
1708435267.643671,-2.142152786254883,-1.3334517937949677,-2.5258198420154017,6.110754120140829,1.0157265663146973,-2.3581839243518274
1708435267.6456559,-2.142148494720459,-1.3334069711020966,-2.5258124510394495,6.110717046051779,1.015718936920166,-2.358208958302633
1708435267.6476514,-2.1421456336975098,-1.33345182359729,-2.5257750193225306,6.110725629120626,1.015730857849121,-2.3581839243518274
1708435267.6496534,-2.142165184020996,-1.3335086566260834,-2.5257960001574915,6.110660302429952,1.0157067775726318,-2.358213488255636
1708435267.6516361,-2.142165184020996,-1.3334440749934693,-2.5257869402514856,6.11070071437911,1.0157023668289185,-2.3582168261157435
1708435267.6536715,-2.1421327590942383,-1.3334593337825318,-2.5257869402514856,6.110726821213522,1.015735149383545,-2.358229939137594
1708435267.6556325,-2.14216947555542,-1.3334263426116486,-2.5257960001574915,6.110774743347921,1.0156980752944946,-2.3582046667682093
1708435267.657671,-2.1421570777893066,-1.3334712398103257,-2.5257659594165247,6.110680925637045,1.015685796737671,-2.3582168261157435
1708435267.659644,-2.1421947479248047,-1.333439664249756,-2.525827471409933,6.1107051251228235,1.0157482624053955,-2.3582330385791224
1708435267.6616266,-2.142141342163086,-1.3334593337825318,-2.5257538000689905,6.110741960793295,1.0157395601272583,-2.3582125345813196
1708435267.6636503,-2.1422133445739746,-1.3334756654552002,-2.5257960001574915,6.110750663071432,1.0157439708709717,-2.3582375685321253
1708435267.6656566,-2.1421866416931152,-1.3334637445262452,-2.5258005301104944,6.11066352108077,1.0156946182250977,-2.3582046667682093
1708435267.6676538,-2.142152786254883,-1.333466724758484,-2.5257914702044886,6.110706317215719,1.0156989097595215,-2.358222309743063
1708435267.6696525,-2.142165184020996,-1.3334845167449494,-2.5258033911334437,6.110718238144674,1.0156902074813843,-2.358197037373678
1708435267.6716511,-2.142186164855957,-1.333439664249756,-2.5257704893695276,6.110717046051779,1.0156946182250977,-2.358192745839254
1708435267.6736684,-2.1421608924865723,-1.3334563088468094,-2.5257538000689905,6.110685336380758,1.0157277584075928,-2.35822564760317
1708435267.6756668,-2.142186164855957,-1.333496407871582,-2.5257869402514856,6.110680925637045,1.0156502723693848,-2.358176294957296
1708435267.6776462,-2.142190456390381,-1.3334263426116486,-2.5257750193225306,6.110701906472006,1.0156664848327637,-2.358208958302633
1708435267.679629,-2.142165184020996,-1.3334756654552002,-2.5258124510394495,6.110660302429952,1.0156664848327637,-2.3581555525409144
1708435267.6816247,-2.1421775817871094,-1.3334385615638276,-2.5257960001574915,6.110697495728292,1.0156750679016113,-2.358192745839254
1708435267.6836743,-2.1422104835510254,-1.333484486942627,-2.5257960001574915,6.110750663071432,1.0156913995742798,-2.3581765333758753
1708435267.6856263,-2.1422019004821777,-1.333439664249756,-2.5257704893695276,6.110669123917379,1.0156869888305664,-2.358152453099386
1708435267.6876526,-2.142144203186035,-1.3335335415652771,-2.5257750193225306,6.110676514893331,1.0156502723693848,-2.358197037373678
1708435267.689628,-2.142165184020996,-1.3334889870933075,-2.5257673899279993,6.110685336380758,1.0157032012939453,-2.358246390019552
1708435267.691654,-2.142186164855957,-1.3334219467690964,-2.5258410612689417,6.110673415451803,1.0156466960906982,-2.3581884543048304
1708435267.693623,-2.1421327590942383,-1.3334549230388184,-2.5257840792285364,6.110680925637045,1.015637993812561,-2.3581884543048304
1708435267.695667,-2.142181873321533,-1.333472655420639,-2.5257840792285364,6.110685336380758,1.0156632661819458,-2.358164374028341
1708435267.6976383,-2.1422441005706787,-1.33345182359729,-2.5257960001574915,6.11062382438735,1.015637993812561,-2.358180824910299
1708435267.6996403,-2.1421327590942383,-1.3334351640990754,-2.5257840792285364,6.110709416657247,1.0156466960906982,-2.3581391016589563
1708435267.7016246,-2.1421780586242676,-1.333472655420639,-2.5257719198810022,6.110759365349569,1.0156545639038086,-2.358140532170431
1708435267.7036397,-2.142144203186035,-1.333439664249756,-2.5258124510394495,6.110685336380758,1.0156257152557373,-2.3581677118884485
1708435267.7056632,-2.14216947555542,-1.3334351491979142,-2.5257418791400355,6.110713708191671,1.0156511068344116,-2.358136002217428
1708435267.7076762,-2.1421737670898438,-1.3334473979524155,-2.5258005301104944,6.1106722233589075,1.0156214237213135,-2.358168665562765
1708435267.7096334,-2.1421613693237305,-1.3335130971721192,-2.5258153120623987,6.110722529679098,1.0156301259994507,-2.358168665562765
1708435267.711632,-2.1421737670898438,-1.3334474128535767,-2.5257795492755335,6.110663401871481,1.0156476497650146,-2.3581610361682337
1708435267.7136548,-2.1421256065368652,-1.3333909672549744,-2.5257554689990442,6.110667931824484,1.0155855417251587,-2.3582103888141077
1708435267.7156312,-2.1421256065368652,-1.3334756654552002,-2.5257795492755335,6.11066900470809,1.0156017541885376,-2.3581939379321497
1708435267.7176774,-2.1421256065368652,-1.3334440898946305,-2.5257583300219935,6.1106440899665735,1.0156104564666748,-2.3581436316119593
1708435267.7196887,-2.1421456336975098,-1.3334800911000748,-2.5257583300219935,6.110680925637045,1.0156028270721436,-2.3581765333758753
1708435267.7217228,-2.142181873321533,-1.3334681701711197,-2.5257464090930384,6.1106722233589075,1.0155909061431885,-2.3581774870501917
1708435267.7236714,-2.142148494720459,-1.333439664249756,-2.5258124510394495,6.110722529679098,1.015594244003296,-2.358164374028341
1708435267.725627,-2.142190456390381,-1.33345182359729,-2.5258079210864466,6.110685336380758,1.0155866146087646,-2.3581610361682337
1708435267.7276373,-2.1421737670898438,-1.3334814471057435,-2.5257914702044886,6.110664593964376,1.0155534744262695,-2.358144823704855
1708435267.729642,-2.142186164855957,-1.3334637445262452,-2.5257704893695276,6.110656010895529,1.0156160593032837,-2.358091179524557
1708435267.7316282,-2.142186164855957,-1.3334756654552002,-2.5257960001574915,6.110722410469808,1.0155704021453857,-2.3581536451922815
1708435267.7336206,-2.142148494720459,-1.333439664249756,-2.5257628599749964,6.11061583736495,1.0155577659606934,-2.3582192103015345
1708435267.7356422,-2.1421608924865723,-1.333430753355362,-2.5258005301104944,6.110669123917379,1.0155503749847412,-2.358144823704855
1708435267.7376642,-2.142152786254883,-1.3333892685225983,-2.5257673899279993,6.110664593964376,1.0155835151672363,-2.3580790201770228
1708435267.7396362,-2.142152786254883,-1.3334919971278687,-2.5257795492755335,6.110673415451803,1.0155384540557861,-2.358145777379171
1708435267.7416344,-2.142144203186035,-1.3334549230388184,-2.5257509390460413,6.1107181189353845,1.0155460834503174,-2.3580716292010706
1708435267.7436473,-2.142144203186035,-1.333439664249756,-2.5257719198810022,6.110652792244711,1.0155341625213623,-2.358089033757345
1708435267.7456334,-2.1421737670898438,-1.333442972307541,-2.5257509390460413,6.110681998520651,1.015554666519165,-2.35813814798464
1708435267.7476227,-2.142148494720459,-1.3334340912154694,-2.525738779698507,6.110669123917379,1.0155460834503174,-2.358081642781393
1708435267.749647,-2.1421608924865723,-1.333496407871582,-2.5258169809924524,6.1106289503868005,1.01551353931427,-2.358051840459005
1708435267.751636,-2.1422019004821777,-1.3334263426116486,-2.5258169809924524,6.1107027409370325,1.0155298709869385,-2.358060661946432
1708435267.7536511,-2.142190456390381,-1.333442972307541,-2.5257886091815394,6.110652792244711,1.0155341625213623,-2.3581009546863
1708435267.7556489,-2.142152786254883,-1.3334712547114869,-2.5257795492755335,6.110669123917379,1.0155143737792969,-2.358060661946432
1708435267.7576501,-2.142190456390381,-1.3334351491979142,-2.5257554689990442,6.110657202988424,1.0155309438705444,-2.358093563710348
1708435267.7596445,-2.1421737670898438,-1.3334563386491318,-2.5257418791400355,6.110661494522848,1.0155056715011597,-2.35803991953005
1708435267.76166,-2.142152786254883,-1.33345182359729,-2.525776449834005,6.110656010895529,1.0155143737792969,-2.358089033757345
1708435267.7636409,-2.142186164855957,-1.3334770959666749,-2.5257554689990442,6.110680925637045,1.0154807567596436,-2.358023707066671
1708435267.7656338,-2.1421775817871094,-1.3334474128535767,-2.5257840792285364,6.110657202988424,1.0155067443847656,-2.358089033757345
1708435267.7676287,-2.1421213150024414,-1.333393619661667,-2.525738779698507,6.110680925637045,1.0154905319213867,-2.3580859343158167
1708435267.769649,-2.142152786254883,-1.3334845167449494,-2.525726858769552,6.110620248108663,1.0154696702957153,-2.358048741017477
1708435267.7716274,-2.142137050628662,-1.3334770661643525,-2.5257554689990442,6.110645639687338,1.0154818296432495,-2.358105484639303
1708435267.7737682,-2.1421737670898438,-1.3334800761989136,-2.5257087389575403,6.110722529679098,1.0154949426651,-2.358044449483053
1708435267.7756681,-2.1421737670898438,-1.3334263426116486,-2.525813881550924,6.110652792244711,1.015461802482605,-2.3580356279956263
1708435267.777623,-2.1421990394592285,-1.3334473979524155,-2.5258005301104944,6.110681998520651,1.015461802482605,-2.358015839253561
1708435267.779632,-2.1422104835510254,-1.3334233176759263,-2.52576452890505,6.110710608750143,1.0154573917388916,-2.358060661946432
1708435267.781625,-2.142144203186035,-1.33343859136615,-2.5257628599749964,6.110714900284567,1.0154573917388916,-2.3580411116229456
1708435267.7836463,-2.142190456390381,-1.333439664249756,-2.5257840792285364,6.110669123917379,1.015445590019226,-2.3580694834338587
1708435267.7856352,-2.1421608924865723,-1.3334667545608063,-2.5257719198810022,6.11061583736495,1.0154662132263184,-2.3580902258502405
1708435267.7876666,-2.14216947555542,-1.3334219318679352,-2.5257886091815394,6.110648381500997,1.0154836177825928,-2.358089033757345
1708435267.7896328,-2.142152786254883,-1.3335086566260834,-2.525797669087545,6.110652792244711,1.0154662132263184,-2.357995096837179
1708435267.7916493,-2.1422150135040283,-1.333454893236496,-2.525717798863546,6.110689627915182,1.0154467821121216,-2.3580456415759485
1708435267.7936363,-2.1422019004821777,-1.3334563386491318,-2.5257840792285364,6.110657202988424,1.0154258012771606,-2.35803991953005
1708435267.795635,-2.1421566009521484,-1.3334845167449494,-2.52574330965151,6.110673415451803,1.0154467821121216,-2.3580618540393274
1708435267.7977705,-2.1421608924865723,-1.3334712547114869,-2.5257087389575403,6.110673415451803,1.0154380798339844,-2.3580456415759485
1708435267.7996333,-2.1421823501586914,-1.3335086566260834,-2.5257840792285364,6.110689627915182,1.0154467821121216,-2.3580084482776087
1708435267.801646,-2.142165184020996,-1.3335097891143342,-2.525705877934591,6.110620248108663,1.0154258012771606,-2.358065191899435
1708435267.80365,-2.142148494720459,-1.3334637445262452,-2.525714937840597,6.110680925637045,1.0153930187225342,-2.35802132288088
1708435267.8056505,-2.142190456390381,-1.333484486942627,-2.525731388722555,6.110657202988424,1.0154095888137817,-2.3580334822284144
1708435267.8076317,-2.1421613693237305,-1.3334637445262452,-2.525693957005636,6.110694038658895,1.0154017210006714,-2.3579965273486536
1708435267.8096447,-2.142152786254883,-1.3334474128535767,-2.525747839604513,6.110685336380758,1.0154227018356323,-2.3580215612994593
1708435267.8116305,-2.14216947555542,-1.333430753355362,-2.5257554689990442,6.110670196800985,1.0154017210006714,-2.3580411116229456
1708435267.8136165,-2.1421613693237305,-1.3334549230388184,-2.5257194677936,6.110680925637045,1.0153942108154297,-2.357950274144308
1708435267.815618,-2.142186164855957,-1.3334770661643525,-2.5257328192340296,6.110652792244711,1.015398621559143,-2.3580246607409876
1708435267.8176572,-2.1421613693237305,-1.3334964376739045,-2.5257285276996058,6.110726821213522,1.0153701305389404,-2.3579798380481165
1708435267.8196392,-2.1421780586242676,-1.333484486942627,-2.5256531874286097,6.110648381500997,1.0153658390045166,-2.3580084482776087
1708435267.821643,-2.1421866416931152,-1.3334889870933075,-2.525735918675558,6.110673415451803,1.0153744220733643,-2.3580246607409876
1708435267.823643,-2.1421732902526855,-1.333439664249756,-2.5257120768176478,6.11061583736495,1.0153419971466064,-2.3580172697650355
1708435267.8256326,-2.1421566009521484,-1.3335008186152955,-2.5256927649127405,6.110608327179708,1.0153462886810303,-2.3579798380481165
1708435267.8276618,-2.142186164855957,-1.3334637445262452,-2.5256384054767054,6.110673415451803,1.0153744220733643,-2.3579722086535853
1708435267.8296278,-2.1421613693237305,-1.333472655420639,-2.5256713072406214,6.110707032471456,1.0153582096099854,-2.3580008188830774
1708435267.8316228,-2.142165184020996,-1.3334593337825318,-2.5256429354297083,6.110669123917379,1.0153582096099854,-2.358030382786886
1708435267.8336177,-2.1422061920166016,-1.3334396344474335,-2.5256758371936243,6.110645520478048,1.015367031097412,-2.3580170313464563
1708435267.8356209,-2.1421732902526855,-1.3334473979524155,-2.5256429354297083,6.11062370517806,1.015355110168457,-2.3579965273486536
1708435267.8376238,-2.1421947479248047,-1.33345182359729,-2.525623623524801,6.110673415451803,1.0153701305389404,-2.3580203692065638
1708435267.839624,-2.142165184020996,-1.3334351491979142,-2.525606934224264,6.110677706986227,1.0153001546859741,-2.3580215612994593
1708435267.8416348,-2.142141342163086,-1.3334263426116486,-2.525668446217672,6.1106369374092,1.0153462886810303,-2.3580291906939905
1708435267.8436394,-2.1422061920166016,-1.333439664249756,-2.525651995335714,6.110738742142477,1.015371322631836,-2.358037773762838
1708435267.8456128,-2.1422176361083984,-1.33350424588237,-2.5256474653827112,6.110651600151815,1.015383243560791,-2.3580127398120325
1708435267.847621,-2.1421284675598145,-1.333537982111313,-2.5256503264056605,6.110701906472006,1.0153462886810303,-2.3580215612994593
1708435267.8496168,-2.14219331741333,-1.3334440898946305,-2.525672976170675,6.110706317215719,1.0153250694274902,-2.3579798380481165
1708435267.8516104,-2.1422061920166016,-1.33345182359729,-2.525597874318258,6.1106289503868005,1.015353798866272,-2.3579724470721644
1708435267.8536081,-2.1421520709991455,-1.333402470951416,-2.525602404271261,6.110664593964376,1.0153625011444092,-2.3579965273486536
1708435267.8556485,-2.1421775817871094,-1.3334770959666749,-2.5256474653827112,6.1106289503868005,1.0153496265411377,-2.358009640370504
1708435267.8576257,-2.1421775817871094,-1.3335053634694596,-2.525651995335714,6.110657202988424,1.0153582096099854,-2.3580215612994593
1708435267.859613,-2.1422312259674072,-1.333463729625084,-2.5256474653827112,6.110726940422811,1.0153582096099854,-2.3580289522754114
1708435267.8616154,-2.1421399116516113,-1.3334549230388184,-2.525576893483297,6.1106289503868005,1.0153419971466064,-2.3579724470721644
1708435267.863619,-2.142209053039551,-1.3334219318679352,-2.525619093571798,6.110652792244711,1.0153508186340332,-2.357943836842672
1708435267.8656156,-2.1421732902526855,-1.333430753355362,-2.525635544453756,6.110612737923422,1.0153950452804565,-2.358009640370504
1708435267.8676305,-2.142181873321533,-1.33345182359729,-2.525602404271261,6.110660302429952,1.015333890914917,-2.357985560094015
1708435267.8696613,-2.14219331741333,-1.3334100109389802,-2.5256429354297083,6.1107027409370325,1.0153207778930664,-2.357992951069967
1708435267.8716536,-2.1421520709991455,-1.3334503930858155,-2.5256384054767054,6.110680925637045,1.0153580904006958,-2.3580008188830774
1708435267.8736227,-2.1422219276428223,-1.3334219318679352,-2.525635544453756,6.110689627915182,1.0153207778930664,-2.3580170313464563
1708435267.8756378,-2.1422133445739746,-1.3334527176669617,-2.525623623524801,6.110608327179708,1.015333890914917,-2.3580334822284144
1708435267.8776248,-2.1422019004821777,-1.3334473979524155,-2.525614563618795,6.110604035645284,1.015383243560791,-2.357992951069967
1708435267.8796144,-2.1421775817871094,-1.333439664249756,-2.5256310145007532,6.110657202988424,1.015355110168457,-2.3580215612994593
1708435267.8816135,-2.142148494720459,-1.3334473979524155,-2.525623623524801,6.110677706986227,1.015321969985962,-2.3580170313464563
1708435267.8836324,-2.1422019004821777,-1.3334889870933075,-2.525677506123678,6.110669123917379,1.0153332948684692,-2.3580127398120325
1708435267.8856184,-2.142214775085449,-1.3334800911000748,-2.525651995335714,6.110645639687338,1.0153582096099854,-2.357992951069967
1708435267.8876262,-2.1422019004821777,-1.333496407871582,-2.525614563618795,6.110676514893331,1.015394926071167,-2.3579471747027796
1708435267.8896341,-2.142197608947754,-1.333405540590622,-2.525623623524801,6.110656010895529,1.0153462886810303,-2.3580127398120325
1708435267.8916397,-2.1421775817871094,-1.3335008484176178,-2.525602404271261,6.110714900284567,1.0153701305389404,-2.3580215612994593
1708435267.893628,-2.1421608924865723,-1.3334681552699585,-2.5255888144122522,6.110677706986227,1.015378713607788,-2.3580499331103724
1708435267.8956547,-2.1421608924865723,-1.3334934425405045,-2.5256310145007532,6.110654222756185,1.0153744220733643,-2.3579843680011194
1708435267.8976178,-2.14216947555542,-1.3334756654552002,-2.525635544453756,6.1106289503868005,1.0153419971466064,-2.3579517046557825
1708435267.899615,-2.142197608947754,-1.3334430021098633,-2.5256639162646692,6.110669123917379,1.0153744220733643,-2.357992951069967
1708435267.9016087,-2.1421737670898438,-1.333472655420639,-2.5256972948657435,6.110743033676901,1.0153582096099854,-2.357954804097311
1708435267.903638,-2.1421844959259033,-1.3335130673697968,-2.5256803671466272,6.110669123917379,1.0153207778930664,-2.3580289522754114
1708435267.905624,-2.142186164855957,-1.3333864969066163,-2.5256100336657923,6.110641228943624,1.0153875350952148,-2.358013931904928
1708435267.9076188,-2.142209053039551,-1.3334099811366578,-2.525672976170675,6.110645520478048,1.0153508186340332,-2.3579886595355433
1708435267.9096177,-2.1422219276428223,-1.3335053634694596,-2.525672737752096,6.110648381500997,1.0153508186340332,-2.3580008188830774
1708435267.911618,-2.142197608947754,-1.3334563237479706,-2.525614563618795,6.110673415451803,1.0153419971466064,-2.3579559961902063
1708435267.913613,-2.1421566009521484,-1.3334351640990754,-2.525644604359762,6.110676514893331,1.015317678451538,-2.357992951069967
1708435267.9156163,-2.142197608947754,-1.3334681701711197,-2.525602404271261,6.110648381500997,1.0153419971466064,-2.357954804097311
1708435267.9176095,-2.14219331741333,-1.3334351640990754,-2.525606934224264,6.110624658852377,1.0153582096099854,-2.3579919973956507
1708435267.9196622,-2.142181873321533,-1.3334756654552002,-2.525684658681051,6.110664593964376,1.015329360961914,-2.3579679171191614
1708435267.9216697,-2.1422512531280518,-1.3334800911000748,-2.5256429354297083,6.110701906472006,1.0153250694274902,-2.3580289522754114
1708435267.9236636,-2.142165184020996,-1.3334637445262452,-2.5256310145007532,6.110645520478048,1.0153995752334595,-2.3580499331103724
1708435267.9256852,-2.1421732902526855,-1.3334307384542008,-2.525611464177267,6.110604035645284,1.0152764320373535,-2.358036820088522
1708435267.927674,-2.1421608924865723,-1.333454893236496,-2.5256474653827112,6.110620248108663,1.0153539180755615,-2.3580051104175013
1708435267.9296296,-2.1422269344329834,-1.3334845167449494,-2.525619093571798,6.110673415451803,1.0153207778930664,-2.3579798380481165
1708435267.9316564,-2.142165184020996,-1.3335008484176178,-2.525635544453756,6.1106324074561975,1.0153582096099854,-2.3580051104175013
1708435267.9336083,-2.1421196460723877,-1.3334430021098633,-2.525619093571798,6.110673415451803,1.0153377056121826,-2.3579517046557825
1708435267.935616,-2.1421520709991455,-1.3334144216826935,-2.525644604359762,6.1106982109840295,1.0153582096099854,-2.3579755465136927
1708435267.9376264,-2.142209053039551,-1.3334219616702576,-2.525595013295309,6.110660302429952,1.015367031097412,-2.3580170313464563
1708435267.9396207,-2.1421608924865723,-1.3334473979524155,-2.525668446217672,6.110689747124471,1.0153332948684692,-2.3580127398120325
1708435267.9416568,-2.1422019004821777,-1.33349201202903,-2.5256264845477503,6.110706317215719,1.0153658390045166,-2.3579965273486536
1708435267.9436357,-2.1422269344329834,-1.3334681552699585,-2.5256474653827112,6.110636818199911,1.0153377056121826,-2.3580051104175013
1708435267.9456303,-2.142204761505127,-1.33345182359729,-2.5256310145007532,6.1107027409370325,1.015333890914917,-2.358063046132223
1708435267.9476311,-2.142181873321533,-1.3334934425405045,-2.5256310145007532,6.110689627915182,1.0153539180755615,-2.3580008188830774
1708435267.9496324,-2.14219331741333,-1.3334143918803711,-2.5256384054767054,6.110669123917379,1.0153132677078247,-2.3580008188830774
1708435267.951688,-2.142213821411133,-1.333471269612648,-2.5256264845477503,6.1106369374092,1.015367031097412,-2.3580039183246058
1708435267.9536767,-2.14219331741333,-1.3334964376739045,-2.5256474653827112,6.110713708191671,1.0153701305389404,-2.3579471747027796
1708435267.9556198,-2.1422295570373535,-1.3334263128093262,-2.525651995335714,6.110680091172018,1.0153701305389404,-2.3580127398120325
1708435267.9576294,-2.142209053039551,-1.333439664249756,-2.5256474653827112,6.110726940422811,1.0153496265411377,-2.3580008188830774
1708435267.9596415,-2.142197608947754,-1.3334011000445862,-2.5256264845477503,6.110710608750143,1.0153701305389404,-2.3579636255847376
1708435267.9616208,-2.1421890258789062,-1.333447427754738,-2.525619093571798,6.110676514893331,1.0153419971466064,-2.3580170313464563
1708435267.9636333,-2.1421959400177,-1.33345182359729,-2.525644604359762,6.110647189408102,1.015378713607788,-2.3580411116229456
1708435267.965652,-2.142204761505127,-1.3335053634694596,-2.525651995335714,6.1107051251228235,1.0154072046279907,-2.3580053488360804
1708435267.9676378,-2.1422104835510254,-1.333439664249756,-2.5256474653827112,6.110669123917379,1.015383243560791,-2.3580170313464563
1708435267.969636,-2.1422181129455566,-1.3334188026240845,-2.5256639162646692,6.110660421639242,1.0153332948684692,-2.3579798380481165
1708435267.9716265,-2.1422133445739746,-1.333439664249756,-2.5256100336657923,6.1106440899665735,1.0153539180755615,-2.3580053488360804
1708435267.973668,-2.142235517501831,-1.3334770661643525,-2.5256310145007532,6.110722529679098,1.0154072046279907,-2.3580246607409876
1708435267.9757187,-2.1422133445739746,-1.333483101134636,-2.5256593863116663,6.110718238144674,1.0153582096099854,-2.357987705861227
1708435267.9776394,-2.1422269344329834,-1.3334637445262452,-2.5256100336657923,6.110701906472006,1.0153744220733643,-2.3580783049212855
1708435267.979679,-2.1421608924865723,-1.3334263128093262,-2.525651995335714,6.110693204193868,1.0153377056121826,-2.357954804097311
1708435267.9816291,-2.142242670059204,-1.333442972307541,-2.5256639162646692,6.110664713173666,1.0153658390045166,-2.3580825964557093
1708435267.9836915,-2.142200231552124,-1.3334144216826935,-2.5256310145007532,6.110676514893331,1.0153701305389404,-2.3580618540393274
1708435267.985664,-2.1421959400177,-1.333484486942627,-2.525606934224264,6.110750663071432,1.0153496265411377,-2.3580334822284144
1708435267.9876535,-2.1421844959259033,-1.3334593337825318,-2.5256384054767054,6.1107497093971155,1.0153906345367432,-2.3580201307879847
1708435267.989624,-2.142181873321533,-1.3334263426116486,-2.5256639162646692,6.110709416657247,1.0153776407241821,-2.3579965273486536
1708435267.991651,-2.1422181129455566,-1.333460734491684,-2.5257018248187464,6.110713708191671,1.0153582096099854,-2.358048741017477
1708435267.9936545,-2.1421959400177,-1.3334800761989136,-2.5256264845477503,6.110721337586202,1.0153820514678955,-2.3580289522754114
1708435267.995668,-2.142258405685425,-1.3334756654552002,-2.525606934224264,6.1107332585151575,1.015324592590332,-2.3580334822284144
1708435267.9976714,-2.1422338485717773,-1.3334474128535767,-2.5256310145007532,6.110713708191671,1.0153450965881348,-2.3580947558032435
1708435267.9996617,-2.142164468765259,-1.3334770661643525,-2.5256174246417444,6.110750782280721,1.0153776407241821,-2.358036820088522
1708435268.001611,-2.1421959400177,-1.3334889870933075,-2.5256429354297083,6.1107181189353845,1.0153906345367432,-2.358032290135519
1708435268.0036356,-2.1421916484832764,-1.333430753355362,-2.5256593863116663,6.110689747124471,1.015414834022522,-2.358048741017477
1708435268.0056365,-2.1422410011291504,-1.333466724758484,-2.5256639162646692,6.11070071437911,1.0154227018356323,-2.358027998601095
1708435268.007688,-2.142209053039551,-1.3334800761989136,-2.525651995335714,6.110696303635397,1.015402913093567,-2.3580737749682825
1708435268.0096252,-2.1422410011291504,-1.3334340912154694,-2.5256219545947474,6.110725629120626,1.0153452157974243,-2.3580694834338587
1708435268.011629,-2.1422338485717773,-1.3334563237479706,-2.5256713072406214,6.110758530884542,1.0154017210006714,-2.358065191899435
1708435268.0136561,-2.142204761505127,-1.3334756654552002,-2.5256548563586634,6.110713708191671,1.0154061317443848,-2.3580904642688196
1708435268.0156844,-2.142209529876709,-1.3334351491979142,-2.5256384054767054,6.110749828606405,1.015402913093567,-2.358097855244772
1708435268.0176663,-2.142249584197998,-1.3334978383830567,-2.5256264845477503,6.1107367155845544,1.0153733491897583,-2.358072821293966
1708435268.0196495,-2.1421802043914795,-1.33345182359729,-2.525614563618795,6.110716926842489,1.0154104232788086,-2.3580649534808558
1708435268.021707,-2.142209529876709,-1.333442972307541,-2.525623623524801,6.110684501915731,1.015414834022522,-2.358089033757345
1708435268.023664,-2.142205238342285,-1.3334712398103257,-2.5256057421313685,6.11070071437911,1.0154269933700562,-2.358084742222921
1708435268.0256152,-2.142249584197998,-1.333484486942627,-2.5256758371936243,6.1107332585151575,1.0154104232788086,-2.358138386403219
1708435268.0276423,-2.142209529876709,-1.3334277433208008,-2.5256055037127894,6.110773551255026,1.0153733491897583,-2.3580966631518763
1708435268.029618,-2.1422009468078613,-1.3334845167449494,-2.5256593863116663,6.110757338791647,1.015398621559143,-2.3580923716174524
1708435268.0316267,-2.142266273498535,-1.3334474128535767,-2.5256593863116663,6.110777961998739,1.0154227018356323,-2.3580923716174524
1708435268.0336456,-2.142245292663574,-1.3334681701711197,-2.5256429354297083,6.110741126328268,1.015418291091919,-2.3581000010119837
1708435268.035616,-2.1422324180603027,-1.33349201202903,-2.5256384054767054,6.110757338791647,1.0154345035552979,-2.3581581751452845
1708435268.0376463,-2.1422858238220215,-1.3334934425405045,-2.5256622473346155,6.110813724785604,1.015418291091919,-2.358134094868795
1708435268.0396545,-2.142294406890869,-1.333451808696129,-2.5256293455706995,6.110763656883993,1.0154095888137817,-2.3581250349627894
1708435268.0416203,-2.1422533988952637,-1.3334549230388184,-2.5256221930133265,6.110809314041891,1.0154467821121216,-2.3581252733813685
1708435268.0436575,-2.142228364944458,-1.3334726852229615,-2.5256667772876185,6.110793101578512,1.0154542922973633,-2.3581536451922815
1708435268.0456178,-2.1422324180603027,-1.3335219782641907,-2.5256548563586634,6.11087046840743,1.0154423713684082,-2.3581371943103235
1708435268.0476558,-2.1422533988952637,-1.3334637445262452,-2.5256310145007532,6.110800730973043,1.015482783317566,-2.358107391987936
1708435268.0496225,-2.1422855854034424,-1.3334637445262452,-2.5256131331073206,6.110849845200338,1.0154696702957153,-2.358194176350729
1708435268.0516539,-2.14224910736084,-1.3334474128535767,-2.525668446217672,6.110870349198141,1.0154783725738525,-2.3581820170031946
1708435268.0536652,-2.14224910736084,-1.3335086864284058,-2.5256758371936243,6.1108248112495325,1.0155024528503418,-2.358152453099386
1708435268.0556574,-2.1422855854034424,-1.3334593337825318,-2.5256264845477503,6.110827910691061,1.015486240386963,-2.3581271807300013
1708435268.0576518,-2.1422367095947266,-1.3334845167449494,-2.5256639162646692,6.110873567848959,1.0154905319213867,-2.35815674463381
1708435268.0596445,-2.1422410011291504,-1.333528996711113,-2.5256264845477503,6.110917913704672,1.015527367591858,-2.35815674463381
1708435268.0616198,-2.1422743797302246,-1.33348901689563,-2.5256927649127405,6.110888707428732,1.0154949426651,-2.358201567326681
1708435268.0637155,-2.14231014251709,-1.333463729625084,-2.5256927649127405,6.110872733383932,1.0154573917388916,-2.358115021382467
1708435268.065635,-2.1422533988952637,-1.3334845167449494,-2.5256548563586634,6.110887515335836,1.015461802482605,-2.358131710683004
1708435268.067686,-2.142277240753174,-1.33345182359729,-2.525668446217672,6.110903847008505,1.0154783725738525,-2.358229939137594
1708435268.0696194,-2.1422929763793945,-1.3335097295096894,-2.5256758371936243,6.1109540341194055,1.0155024528503418,-2.3581884543048304
1708435268.0716743,-2.1422855854034424,-1.3334681552699585,-2.5256593863116663,6.110933530121603,1.0155067443847656,-2.3581720034228724
1708435268.073638,-2.142305612564087,-1.3334800911000748,-2.525672976170675,6.111017930298605,1.015481948852539,-2.358197037373678
1708435268.0756736,-2.1422855854034424,-1.3334174317172547,-2.5256293455706995,6.110947835236349,1.0154696702957153,-2.35822564760317
1708435268.0776577,-2.1422886848449707,-1.3334637445262452,-2.5256264845477503,6.110911595612325,1.0154937505722046,-2.358213488255636
1708435268.0796435,-2.1423423290252686,-1.3334593337825318,-2.5256593863116663,6.111074435501852,1.015527367591858,-2.358208958302633
1708435268.0816226,-2.142244338989258,-1.3334756356528779,-2.5256593863116663,6.110973822861471,1.0155024528503418,-2.3582213560687464
1708435268.0836883,-2.142301082611084,-1.3334800911000748,-2.5256264845477503,6.110985743790426,1.015498161315918,-2.358241860066549
1708435268.0856397,-2.1423139572143555,-1.33345182359729,-2.5256593863116663,6.110959636956014,1.0154783725738525,-2.3581720034228724
1708435268.0876741,-2.142301559448242,-1.333439664249756,-2.5256548563586634,6.1109845516975305,1.0154739618301392,-2.358197275792257
1708435268.0896375,-2.1423099040985107,-1.3335042607835312,-2.525651995335714,6.110931145935812,1.0155186653137207,-2.358213488255636
1708435268.091657,-2.1422641277313232,-1.3334563386491318,-2.5256713072406214,6.1109715578849695,1.0155558586120605,-2.3581720034228724
1708435268.0936422,-2.142305612564087,-1.3334681701711197,-2.5256927649127405,6.111029016762533,1.0154937505722046,-2.358209196721212
1708435268.095632,-2.1422841548919678,-1.3334340018085022,-2.5256503264056605,6.111017095833578,1.0154411792755127,-2.3582213560687464
1708435268.0976808,-2.142378807067871,-1.3334726852229615,-2.5256503264056605,6.1109845516975305,1.015498161315918,-2.3582080046283167
1708435268.099648,-2.142322301864624,-1.3334473979524155,-2.525684658681051,6.111065971642294,1.0155309438705444,-2.3582420984851282
1708435268.1016533,-2.142305612564087,-1.3334307235530396,-2.5256338755237024,6.111033308296957,1.0155067443847656,-2.3582080046283167
1708435268.103685,-2.142305612564087,-1.333466724758484,-2.5256593863116663,6.111033308296957,1.015498161315918,-2.3582242170916956
1708435268.105682,-2.142301082611084,-1.3334263575128098,-2.5256412664996546,6.111036526947775,1.015498161315918,-2.3582168261157435
1708435268.1076765,-2.1423099040985107,-1.3334876012853165,-2.5256593863116663,6.111036526947775,1.015481948852539,-2.3582122961627405
1708435268.1096416,-2.1422712802886963,-1.3334712547114869,-2.5256803671466272,6.11102460601882,1.0155309438705444,-2.3582375685321253
1708435268.1116621,-2.1422841548919678,-1.3334430021098633,-2.5257135073291224,6.111097562104025,1.0154937505722046,-2.3582330385791224
1708435268.113668,-2.1423449516296387,-1.3334934425405045,-2.5256429354297083,6.11105631568984,1.015486240386963,-2.3582332769977015
1708435268.115641,-2.142322301864624,-1.3334726852229615,-2.525684658681051,6.111032235413351,1.0155099630355835,-2.3582080046283167
1708435268.11765,-2.142317771911621,-1.3334307235530396,-2.5257092157946985,6.11111747005538,1.0154905319213867,-2.3582573572741907
1708435268.119641,-2.142340660095215,-1.3334800761989136,-2.5256221930133265,6.1110607264335535,1.0155067443847656,-2.3582406679736536
1708435268.1216998,-2.1422841548919678,-1.3334099662354966,-2.5257001558886927,6.110998499184408,1.015511155128479,-2.3582406679736536
1708435268.123692,-2.1423134803771973,-1.3334441047957917,-2.5256837050067347,6.111007201462545,1.0155309438705444,-2.3582122961627405
1708435268.1256826,-2.1423206329345703,-1.3334787350944062,-2.5256548563586634,6.111044156342306,1.0155024528503418,-2.3582080046283167
1708435268.1276398,-2.1422598361968994,-1.3334473979524155,-2.5256503264056605,6.111093151360311,1.015481948852539,-2.3582406679736536
1708435268.1296346,-2.1423492431640625,-1.3334307235530396,-2.5256882349597376,6.111063945084371,1.0155024528503418,-2.358206574116842
1708435268.1316373,-2.142340660095215,-1.33349201202903,-2.5256384054767054,6.111113774567404,1.0155024528503418,-2.358215395604269
1708435268.1336827,-2.142357349395752,-1.3333980453065415,-2.5256503264056605,6.111038911133566,1.0154905319213867,-2.3582616488086146
1708435268.1356444,-2.1423091888427734,-1.3334173423102875,-2.5256548563586634,6.1110888598258875,1.0154905319213867,-2.3582735697375696
1708435268.1376777,-2.1423611640930176,-1.33348901689563,-2.5256837050067347,6.11108015754775,1.015527367591858,-2.358252827321188
1708435268.1396756,-2.1423206329345703,-1.3334233176759263,-2.5256882349597376,6.111093270569601,1.0154937505722046,-2.3582573572741907
1708435268.1416602,-2.1423449516296387,-1.33349201202903,-2.5256803671466272,6.1110267517860315,1.0154894590377808,-2.3582361380206507
1708435268.143667,-2.142361640930176,-1.3334297102740784,-2.5256882349597376,6.1111007807548425,1.0154905319213867,-2.3582573572741907
1708435268.1456368,-2.1423206329345703,-1.3334351491979142,-2.5257001558886927,6.111093270569601,1.0155067443847656,-2.3582494894610804
1708435268.1476703,-2.1423449516296387,-1.3335008484176178,-2.5256264845477503,6.111084568291464,1.0154775381088257,-2.358260456715719
1708435268.1496494,-2.1423163414001465,-1.33349201202903,-2.525668446217672,6.111022221833029,1.0154905319213867,-2.3582943121539515
1708435268.1516333,-2.1422924995422363,-1.3334712398103257,-2.5256384054767054,6.1111007807548425,1.0155186653137207,-2.3582573572741907
1708435268.1536446,-2.142300605773926,-1.3335086864284058,-2.5256667772876185,6.111121642380514,1.0155229568481445,-2.3582780996905726
1708435268.155638,-2.142353057861328,-1.33345182359729,-2.5256667772876185,6.1110713360603235,1.0155067443847656,-2.3582869211779993
1708435268.1576858,-2.1423048973083496,-1.3334593188813706,-2.5256429354297083,6.11111735084609,1.0155186653137207,-2.358231846486227
1708435268.159667,-2.142332077026367,-1.3335130971721192,-2.5256548563586634,6.111105072289266,1.0155067443847656,-2.358231846486227
1708435268.1616802,-2.142332077026367,-1.333442972307541,-2.5256429354297083,6.111047613411703,1.0154653787612915,-2.3582573572741907
1708435268.1636808,-2.142357349395752,-1.333442972307541,-2.5256338755237024,6.1110607264335535,1.0155024528503418,-2.358219925557272
1708435268.165623,-2.1423277854919434,-1.3335174483111878,-2.5256837050067347,6.1110607264335535,1.0155099630355835,-2.35823637643923
1708435268.1676471,-2.142374038696289,-1.33345182359729,-2.5256100336657923,6.11108015754775,1.0154894590377808,-2.3582406679736536
1708435268.1696568,-2.1423048973083496,-1.3334681701711197,-2.5256429354297083,6.111047732620992,1.0155274868011475,-2.358231846486227
1708435268.171655,-2.1423120498657227,-1.3334593188813706,-2.5256758371936243,6.111055123596945,1.0154949426651,-2.3582661787616175
1708435268.1736746,-2.142357349395752,-1.3334549230388184,-2.5256593863116663,6.111084449082174,1.0154905319213867,-2.358269278203146
1708435268.1756554,-2.1423487663269043,-1.3334297102740784,-2.5256503264056605,6.111105072289266,1.0154739618301392,-2.3582244555102747
1708435268.1776423,-2.1423444747924805,-1.33349201202903,-2.5256837050067347,6.111076938896932,1.0155067443847656,-2.358281199132101
1708435268.1796784,-2.142357349395752,-1.3334473979524155,-2.5256758371936243,6.111113059311666,1.0154368877410889,-2.358255926762716
1708435268.1816354,-2.142353057861328,-1.33349201202903,-2.5256219545947474,6.111092078476705,1.0154573917388916,-2.358288828526632
1708435268.1836634,-2.1423697471618652,-1.3334189069322129,-2.5256758371936243,6.111043321877279,1.0155155658721924,-2.35823637643923
1708435268.1856282,-2.1423277854919434,-1.333450363283493,-2.5256412664996546,6.1110726473625085,1.0154739618301392,-2.358227554951803
1708435268.1876209,-2.1423726081848145,-1.3335086864284058,-2.5256837050067347,6.111092078476705,1.0154949426651,-2.3582351843463343
1708435268.1896317,-2.142381191253662,-1.3334593188813706,-2.5256803671466272,6.111092078476705,1.0154653787612915,-2.358252827321188
1708435268.1916337,-2.1423768997192383,-1.3334800911000748,-2.5256593863116663,6.111105072289266,1.015499234199524,-2.35823637643923
1708435268.1936507,-2.142332077026367,-1.3334667694619675,-2.5256338755237024,6.111084449082174,1.0154905319213867,-2.3583019415484827
1708435268.1956642,-2.142381191253662,-1.3334473830512543,-2.5256972948657435,6.11100600936965,1.0154783725738525,-2.3582735697375696
1708435268.1976871,-2.1423654556274414,-1.3334787350944062,-2.5256131331073206,6.111084449082174,1.0154993534088135,-2.35823637643923
1708435268.1996775,-2.1423611640930176,-1.3334504228881379,-2.5256758371936243,6.111052024155416,1.0154905319213867,-2.35823637643923
1708435268.2016287,-2.1423444747924805,-1.333496407871582,-2.5256293455706995,6.111087667732992,1.0154573917388916,-2.358219925557272
1708435268.2036653,-2.142336368560791,-1.3334429872087021,-2.525668446217672,6.111071455269613,1.015433669090271,-2.358248297368185
1708435268.205689,-2.142374038696289,-1.3334681254676362,-2.5256639162646692,6.1111007807548425,1.0154993534088135,-2.3582616488086146
1708435268.2076426,-2.142353057861328,-1.3334430319121857,-2.5256503264056605,6.111105072289266,1.0154573917388916,-2.358248535786764
1708435268.2096455,-2.1423277854919434,-1.3334964376739045,-2.5256429354297083,6.111031043320455,1.015445590019226,-2.358280960713522
1708435268.211629,-2.142353057861328,-1.3335130971721192,-2.5256927649127405,6.1111007807548425,1.0154739618301392,-2.358293120061056
1708435268.213689,-2.1423611640930176,-1.3334593188813706,-2.5256713072406214,6.11110948303298,1.0154783725738525,-2.3582406679736536
1708435268.2156627,-2.1423120498657227,-1.3334844571403046,-2.5256667772876185,6.111093270569601,1.015482783317566,-2.358203713093893
1708435268.217677,-2.1423654556274414,-1.3334341508201142,-2.5256429354297083,6.111014830857076,1.015461802482605,-2.3582659403430384
1708435268.2196772,-2.1423697471618652,-1.3334933531335373,-2.5256503264056605,6.11110948303298,1.0154292583465576,-2.3582616488086146
1708435268.2216976,-2.1423726081848145,-1.3334681701711197,-2.525651995335714,6.111007320671835,1.015461802482605,-2.3582616488086146
1708435268.2236412,-2.1423234939575195,-1.3334263128093262,-2.5256310145007532,6.111044156342306,1.015461802482605,-2.358231846486227
1708435268.225663,-2.1424148082733154,-1.3334307235530396,-2.5256384054767054,6.111063945084371,1.0154705047607422,-2.358231846486227
1708435268.2276592,-2.1423768997192383,-1.3334726852229615,-2.5256384054767054,6.111031043320455,1.015461802482605,-2.3582449595080774
1708435268.2296386,-2.1423568725585938,-1.3335175228169938,-2.5256593863116663,6.111052024155416,1.0154500007629395,-2.358219925557272
1708435268.2316575,-2.1423611640930176,-1.333511398439743,-2.5256429354297083,6.111084449082174,1.0154705047607422,-2.3581870237933558
1708435268.2336788,-2.1423487663269043,-1.3334845167449494,-2.5257018248187464,6.111043321877279,1.0154705047607422,-2.3582451979266565
1708435268.2356348,-2.142381191253662,-1.3335364621928711,-2.5256593863116663,6.111084568291464,1.015461802482605,-2.358215395604269
1708435268.2376397,-2.1423654556274414,-1.3334518384984513,-2.525684658681051,6.111096370011129,1.0154337882995605,-2.3582616488086146
1708435268.2396317,-2.1424012184143066,-1.3334919971278687,-2.5256927649127405,6.11108015754775,1.015474796295166,-2.3582242170916956
1708435268.2416704,-2.1423768997192383,-1.3334875714829941,-2.5256548563586634,6.111063945084371,1.0154705047607422,-2.3582573572741907
1708435268.243657,-2.1423768997192383,-1.3334920418313523,-2.5257092157946985,6.111063945084371,1.0154051780700684,-2.358252827321188
1708435268.2456286,-2.14235258102417,-1.3334504228881379,-2.5256429354297083,6.1111042378242395,1.015405297279358,-2.35822564760317
1708435268.2476768,-2.142307758331299,-1.3334681552699585,-2.5256639162646692,6.111047732620992,1.015405297279358,-2.3582287470446985
1708435268.2496405,-2.1423444747924805,-1.333496407871582,-2.525672976170675,6.111023413925924,1.015443205833435,-2.35822564760317
1708435268.2516577,-2.1423234939575195,-1.3334726703218003,-2.5257225672351282,6.111097562104025,1.0154139995574951,-2.358192745839254
1708435268.2536268,-2.142381191253662,-1.3335008186152955,-2.5256803671466272,6.111121642380514,1.0153886079788208,-2.3581870237933558
1708435268.2556329,-2.1423163414001465,-1.33345182359729,-2.5256293455706995,6.111057150154867,1.0153930187225342,-2.3582287470446985
1708435268.2576666,-2.14235258102417,-1.33345182359729,-2.5256927649127405,6.111091959267416,1.0153942108154297,-2.3581422011004847
1708435268.2596354,-2.1423683166503906,-1.3334934425405045,-2.5256310145007532,6.11108015754775,1.015352725982666,-2.3582001368152063
1708435268.2616615,-2.1423840522766113,-1.333524690275528,-2.5256972948657435,6.111020314484396,1.0154104232788086,-2.3581510225879114
1708435268.2636344,-2.1423444747924805,-1.3334964376739045,-2.5256338755237024,6.111014830857076,1.0153658390045166,-2.3582001368152063
1708435268.2656398,-2.142388343811035,-1.3335008484176178,-2.5256713072406214,6.111097562104025,1.0153290033340454,-2.358192745839254
1708435268.2676592,-2.1423611640930176,-1.3334219616702576,-2.5256429354297083,6.111063945084371,1.0153625011444092,-2.358197275792257
1708435268.2696292,-2.1423444747924805,-1.3334430170110245,-2.5256384054767054,6.111100661545553,1.0153419971466064,-2.358159844075338
1708435268.2716575,-2.1423568725585938,-1.333484486942627,-2.5256474653827112,6.111072528153219,1.0153462886810303,-2.3581720034228724
1708435268.2736244,-2.142332077026367,-1.3334460866502305,-2.5256429354297083,6.111044156342306,1.0153582096099854,-2.35815674463381
1708435268.275625,-2.1423611640930176,-1.3334681701711197,-2.5256639162646692,6.1110116122062585,1.0153419971466064,-2.358159844075338
1708435268.2776647,-2.142401695251465,-1.3334174317172547,-2.525668446217672,6.11105631568984,1.0153950452804565,-2.358144823704855
1708435268.279651,-2.1423697471618652,-1.3334845167449494,-2.5256639162646692,6.111065017967977,1.0153419971466064,-2.358152453099386
1708435268.281663,-2.1423487663269043,-1.3334637445262452,-2.5256474653827112,6.111052024155416,1.0153744220733643,-2.358144823704855
1708435268.2836666,-2.1423726081848145,-1.3334712398103257,-2.5256639162646692,6.111007201462545,1.0153462886810303,-2.358107630406515
1708435268.2856271,-2.1423611640930176,-1.3334756654552002,-2.5256548563586634,6.1110607264335535,1.0153626203536987,-2.358140532170431
1708435268.2876327,-2.1423611640930176,-1.3334787648967286,-2.5256639162646692,6.111072528153219,1.0153701305389404,-2.3581295649157923
1708435268.289631,-2.1423726081848145,-1.3334681552699585,-2.5257180372821253,6.1109996912773035,1.015317678451538,-2.358119312916891
1708435268.291626,-2.1423611640930176,-1.33343958974395,-2.5256758371936243,6.11099539974288,1.0153582096099854,-2.3581536451922815
1708435268.2936661,-2.142385482788086,-1.3335174334100266,-2.5256503264056605,6.11099539974288,1.015367031097412,-2.3581369558917444
1708435268.295632,-2.142385482788086,-1.3334814024022599,-2.5256310145007532,6.110990988999166,1.0152969360351562,-2.3581000010119837
1708435268.2976503,-2.142392635345459,-1.3334637445262452,-2.5256429354297083,6.1110116122062585,1.015317678451538,-2.3581119219409388
1708435268.2996366,-2.1423444747924805,-1.3334800761989136,-2.525672976170675,6.111003982811727,1.015333890914917,-2.358145777379171
1708435268.301628,-2.1423611640930176,-1.3334800612977524,-2.5256639162646692,6.11104844787673,1.0153582096099854,-2.358133856450216
1708435268.3036728,-2.142381191253662,-1.3334890317967911,-2.525635544453756,6.111008393555441,1.0153462886810303,-2.358134094868795
1708435268.305626,-2.1423697471618652,-1.333517537718155,-2.5257018248187464,6.1110278246696375,1.0153508186340332,-2.358105484639303
1708435268.3076406,-2.1423401832580566,-1.3334593188813706,-2.5256100336657923,6.1110116122062585,1.0153014659881592,-2.3580639998065394
1708435268.3096566,-2.14235258102417,-1.3334548783353348,-2.525656525288717,6.1110572693641565,1.0152969360351562,-2.3580594698535364
1708435268.31163,-2.142353057861328,-1.3334474575570603,-2.5256264845477503,6.111020314484396,1.0153381824493408,-2.3580594698535364
1708435268.3136559,-2.1424148082733154,-1.333426372413971,-2.5256639162646692,6.111008393555441,1.0153424739837646,-2.3580639998065394
1708435268.3156228,-2.142357349395752,-1.3334875863841553,-2.525651995335714,6.111016022949972,1.015293836593628,-2.358060661946432
1708435268.3176403,-2.1423120498657227,-1.3334964376739045,-2.525672976170675,6.111036526947775,1.015346884727478,-2.358109776173727
1708435268.319641,-2.142392635345459,-1.3334800463965912,-2.5256310145007532,6.111033308296957,1.015293836593628,-2.358032290135519
1708435268.3216963,-2.1423611640930176,-1.3334548783353348,-2.525668446217672,6.111012804299154,1.0152816772460938,-2.358051840459005
1708435268.3236713,-2.142381191253662,-1.3334593337825318,-2.525614563618795,6.110955345421591,1.0153306722640991,-2.3580575625049036
1708435268.3256466,-2.142353057861328,-1.33349201202903,-2.5256803671466272,6.111021387368002,1.0152981281280518,-2.35805327097048
1708435268.3276296,-2.142388343811035,-1.3334386211684723,-2.5256429354297083,6.110980260163107,1.0153025388717651,-2.3580575625049036
1708435268.3296382,-2.1423277854919434,-1.3334473830512543,-2.5256221930133265,6.111013638764181,1.0153100490570068,-2.3580413500415247
1708435268.3316658,-2.1423487663269043,-1.3334756654552002,-2.5256593863116663,6.110981452256002,1.0152740478515625,-2.35805327097048
1708435268.3336241,-2.1423444747924805,-1.333483101134636,-2.525614563618795,6.110907304077902,1.0153262615203857,-2.3580456415759485
1708435268.3356237,-2.1423726081848145,-1.3334889870933075,-2.5256429354297083,6.110887515335836,1.0152981281280518,-2.3580127398120325
1708435268.3376207,-2.142340660095215,-1.3334504526904603,-2.5256429354297083,6.110957252770223,1.0153143405914307,-2.3580413500415247
1708435268.33962,-2.1423654556274414,-1.3334606748870392,-2.5256429354297083,6.110965955048361,1.0152815580368042,-2.3580127398120325
1708435268.3416235,-2.1423568725585938,-1.333480106001236,-2.525619093571798,6.1109540341194055,1.015293836593628,-2.3580053488360804
1708435268.3436549,-2.1423120498657227,-1.333463729625084,-2.5256639162646692,6.110877024918356,1.0152981281280518,-2.3580291906939905
1708435268.3456542,-2.1423726081848145,-1.3334549081376572,-2.525602404271261,6.110900628357687,1.0152653455734253,-2.358009640370504
1708435268.3478863,-2.142353057861328,-1.333414451485016,-2.525668446217672,6.1109050391014,1.0152740478515625,-2.3580291906939905
1708435268.3496375,-2.1423444747924805,-1.3334889721921463,-2.525628153477804,6.110844242363729,1.015244483947754,-2.3580082098590296
1708435268.3516319,-2.142381191253662,-1.3335130226663132,-2.525635544453756,6.110884415894308,1.0152902603149414,-2.358009640370504
1708435268.353631,-2.142396926879883,-1.3334845018437882,-2.525619093571798,6.110835540085592,1.0152697563171387,-2.3580127398120325
1708435268.3556302,-2.142353057861328,-1.3334593188813706,-2.5256639162646692,6.110860454827108,1.0152859687805176,-2.3580172697650355
1708435268.3576338,-2.142335891723633,-1.3334175211242218,-2.5256429354297083,6.110832321434774,1.0152859687805176,-2.3580051104175013
1708435268.3596356,-2.1424012184143066,-1.3334593039802094,-2.525689427052633,6.1108529446418665,1.0152610540390015,-2.357993189488546
1708435268.361627,-2.142385482788086,-1.3334651005319138,-2.5256310145007532,6.110873567848959,1.0152697563171387,-2.3579962889300745
1708435268.3636332,-2.1423683166503906,-1.3334876161864777,-2.525635544453756,6.110820400505819,1.015289545059204,-2.35799748102297
1708435268.3656583,-2.1423487663269043,-1.3334800612977524,-2.525623623524801,6.110869157105245,1.0152531862258911,-2.3579633871661585
1708435268.3676383,-2.1423768997192383,-1.3334297400764008,-2.525656525288717,6.110820519715109,1.0153112411499023,-2.3580289522754114
1708435268.3696873,-2.142381191253662,-1.3334800612977524,-2.525628153477804,6.110845434456625,1.0153025388717651,-2.357936207448141
1708435268.3716457,-2.142336368560791,-1.3334934127381821,-2.5256384054767054,6.110845315247335,1.0152784585952759,-2.35799748102297
1708435268.3736334,-2.142332077026367,-1.3334518384984513,-2.525668446217672,6.110829102783956,1.0152902603149414,-2.358002010975973
1708435268.375628,-2.1424055099487305,-1.3335008186152955,-2.525640074406759,6.110837924271383,1.0152902603149414,-2.357964817677633
1708435268.3776522,-2.1423654556274414,-1.3335175228169938,-2.52566105524172,6.1108529446418665,1.0152859687805176,-2.357964817677633
1708435268.379646,-2.142348051071167,-1.333496407871582,-2.5256264845477503,6.110805141716757,1.015318751335144,-2.3580053488360804
1708435268.3816483,-2.1423611640930176,-1.3334187728217621,-2.525602404271261,6.110825645714559,1.0152815580368042,-2.3579395453082483
1708435268.3836558,-2.1423654556274414,-1.3334549528411408,-2.525644604359762,6.110784399300375,1.015244483947754,-2.357969347630636
1708435268.3856306,-2.1423234939575195,-1.333439664249756,-2.5256639162646692,6.110793101578512,1.0152772665023804,-2.3579276243792933
1708435268.387655,-2.1423091888427734,-1.333439664249756,-2.5256100336657923,6.110799538880148,1.0152697563171387,-2.357969109212057
1708435268.3896303,-2.1423654556274414,-1.3334845167449494,-2.5256639162646692,6.110818016320028,1.0152815580368042,-2.3579471747027796
1708435268.3916519,-2.1423487663269043,-1.333513007765152,-2.5256100336657923,6.110793101578512,1.0152981281280518,-2.357957188283102
1708435268.3936584,-2.142361640930176,-1.3334964227727433,-2.5256639162646692,6.11077247837142,1.0152859687805176,-2.35797363916506
1708435268.395626,-2.142374038696289,-1.3334385317615052,-2.525628153477804,6.110753047257223,1.0152859687805176,-2.3579605261432093
1708435268.3976839,-2.142336368560791,-1.3334890466979523,-2.525640074406759,6.110785472183981,1.0153025388717651,-2.357969109212057
1708435268.399658,-2.1423568725585938,-1.333484486942627,-2.525644604359762,6.110753047257223,1.015306830406189,-2.3579121271716517
1708435268.4016454,-2.142332077026367,-1.3334263426116486,-2.525619093571798,6.110720026284017,1.015257477760315,-2.3579285780536097
1708435268.4036312,-2.1423487663269043,-1.333414451485016,-2.525656525288717,6.1107332585151575,1.0152618885040283,-2.3579495588885706
1708435268.4056642,-2.1423487663269043,-1.3334637445262452,-2.525640074406759,6.110737550049581,1.0152322053909302,-2.3579121271716517
1708435268.4076319,-2.142303466796875,-1.333442972307541,-2.5256221930133265,6.110721337586202,1.0152815580368042,-2.3578959147082728
1708435268.4096358,-2.1423163414001465,-1.3335130971721192,-2.5256713072406214,6.11079107502059,1.0152453184127808,-2.3579004446612757
1708435268.4116561,-2.1423487663269043,-1.3334519130042572,-2.5256429354297083,6.110737550049581,1.0152990818023682,-2.3579090277301233
1708435268.4136362,-2.1423659324645996,-1.3334144067815323,-2.525619093571798,6.1106722233589075,1.015257477760315,-2.357952658330099
1708435268.4156396,-2.1423871517181396,-1.33343859136615,-2.5256429354297083,6.110680091172018,1.0152487754821777,-2.3579331080066126
1708435268.4176817,-2.142340660095215,-1.3334307235530396,-2.525644604359762,6.110696303635397,1.0152697563171387,-2.3579121271716517
1708435268.4196382,-2.1423091888427734,-1.3334517937949677,-2.5256057421313685,6.11063979843215,1.0152815580368042,-2.3578971068011683
1708435268.4216886,-2.1423277854919434,-1.333459348683693,-2.525635544453756,6.110725748329916,1.0152784585952759,-2.3579047361956995
1708435268.4236782,-2.1423277854919434,-1.3334504824927826,-2.5256639162646692,6.110709416657247,1.0152618885040283,-2.3579373995410364
1708435268.4257588,-2.1423697471618652,-1.33345182359729,-2.525619093571798,6.110741960793295,1.015257477760315,-2.3579209486590784
1708435268.4276881,-2.1423449516296387,-1.333496407871582,-2.525677506123678,6.110684501915731,1.0152662992477417,-2.3579300085650843
1708435268.4297206,-2.142353057861328,-1.3334800612977524,-2.5256593863116663,6.110676634102621,1.015318751335144,-2.357901398335592
1708435268.4316378,-2.142296314239502,-1.3334756654552002,-2.5256429354297083,6.11063979843215,1.0153143405914307,-2.357918087636129
1708435268.433657,-2.14229679107666,-1.3334637445262452,-2.525651995335714,6.110677826195516,1.015321969985962,-2.3579135576831263
1708435268.4356256,-2.142336368560791,-1.333446056847908,-2.5256338755237024,6.110680925637045,1.0153230428695679,-2.3579254786120813
1708435268.4376304,-2.142357349395752,-1.333491937523224,-2.525651995335714,6.110660302429952,1.0152981281280518,-2.3579166571246546
1708435268.4396539,-2.1423134803771973,-1.3334844571403046,-2.5256100336657923,6.110701906472006,1.0152902603149414,-2.3579047361956995
1708435268.4416223,-2.142332077026367,-1.3334430319121857,-2.525644604359762,6.110721337586202,1.0153025388717651,-2.3578971068011683
1708435268.4436436,-2.1423048973083496,-1.33345182359729,-2.525628153477804,6.110643970757284,1.0153100490570068,-2.357950750981466
1708435268.4456215,-2.1423449516296387,-1.3334756654552002,-2.525611464177267,6.1106324074561975,1.015305757522583,-2.3579166571246546
1708435268.447679,-2.142324924468994,-1.3334307831576844,-2.525635544453756,6.110710608750143,1.015293836593628,-2.357903305684225
1708435268.4496415,-2.142361640930176,-1.3334385317615052,-2.525628153477804,6.110680925637045,1.015293836593628,-2.3579047361956995
1708435268.4516342,-2.1423134803771973,-1.3334474128535767,-2.525619093571798,6.110685336380758,1.0152784585952759,-2.3579092661487024
1708435268.4536283,-2.142333507537842,-1.3335130673697968,-2.525623623524801,6.110686409264364,1.015293836593628,-2.3579092661487024
1708435268.455628,-2.14227557182312,-1.3334726703218003,-2.525623623524801,6.110677706986227,1.0153100490570068,-2.3578599135028284
1708435268.45764,-2.142279863357544,-1.3334800612977524,-2.525651995335714,6.110661494522848,1.0152772665023804,-2.3578837553607386
1708435268.4596326,-2.142279863357544,-1.333426372413971,-2.525619093571798,6.110657202988424,1.0152815580368042,-2.3579540888415735
1708435268.4616346,-2.1423091888427734,-1.3334549081376572,-2.5256474653827112,6.110645520478048,1.0152981281280518,-2.3578880468951624
1708435268.4636865,-2.142317771911621,-1.3333892685225983,-2.525619093571798,6.110593306809225,1.015318751335144,-2.3578925768481653
1708435268.465629,-2.14227557182312,-1.3334844571403046,-2.525651995335714,6.110621440201559,1.015318751335144,-2.3579047361956995
1708435268.46763,-2.142301082611084,-1.3334681552699585,-2.525635544453756,6.110596406250753,1.0152487754821777,-2.3578837553607386
1708435268.4696631,-2.142317771911621,-1.3334681552699585,-2.525606934224264,6.11060510852889,1.0153143405914307,-2.3578553835498255
1708435268.4716246,-2.14229679107666,-1.3335263294032593,-2.5256310145007532,6.1105689881141565,1.0153393745422363,-2.3578806559192103
1708435268.4736326,-2.142279863357544,-1.33345182359729,-2.5256310145007532,6.11053620555953,1.0152772665023804,-2.3579135576831263
1708435268.475629,-2.142305612564087,-1.333472640519478,-2.525656525288717,6.110540616303243,1.0153381824493408,-2.3579300085650843
1708435268.4776325,-2.1422886848449707,-1.3334593337825318,-2.5256474653827112,6.1105127213294885,1.0153262615203857,-2.3578880468951624
1708435268.4796371,-2.1422641277313232,-1.3335042309812088,-2.525651995335714,6.110533344536581,1.0152851343154907,-2.3578959147082728
1708435268.4816296,-2.14229679107666,-1.333463729625084,-2.525651995335714,6.110577809601583,1.0152815580368042,-2.3578971068011683
1708435268.4836407,-2.1422929763793945,-1.3334667545608063,-2.525614563618795,6.110537874489584,1.0152523517608643,-2.3579373995410364
1708435268.4856296,-2.14229679107666,-1.3334473979524155,-2.525651995335714,6.110549318581381,1.015305757522583,-2.3578630129443567
1708435268.4876482,-2.142301082611084,-1.3334681403687973,-2.525668446217672,6.11053894737319,1.015305757522583,-2.3578718344317835
1708435268.4896557,-2.1422970294952393,-1.3334233325770875,-2.525668446217672,6.110574590950765,1.0153143405914307,-2.3579092661487024
1708435268.4916573,-2.1423134803771973,-1.3334637445262452,-2.525644604359762,6.110558020859518,1.015289545059204,-2.3578837553607386
1708435268.4936597,-2.1422929763793945,-1.33345182359729,-2.525606934224264,6.110537874489584,1.015317678451538,-2.3578837553607386
1708435268.4956555,-2.142301321029663,-1.3334800761989136,-2.525623623524801,6.110525834351339,1.0153424739837646,-2.357934300099508
1708435268.4976792,-2.142301082611084,-1.3334756654552002,-2.525668446217672,6.110579001694479,1.015333890914917,-2.3579121271716517
1708435268.4996479,-2.142301082611084,-1.3334800612977524,-2.5256310145007532,6.110537755280294,1.0153013467788696,-2.3579121271716517
1708435268.501655,-2.1422641277313232,-1.3334307831576844,-2.525623623524801,6.110549318581381,1.0153636932373047,-2.3579004446612757
1708435268.5036452,-2.1422319412231445,-1.3335174334100266,-2.5257018248187464,6.110525834351339,1.015371322631836,-2.3579092661487024
1708435268.505651,-2.142305612564087,-1.333472655420639,-2.5256055037127894,6.110521542816915,1.015317678451538,-2.3579419294940394
1708435268.5076308,-2.1422970294952393,-1.333460734491684,-2.525668446217672,6.110525834351339,1.015321969985962,-2.3579004446612757
1708435268.5096414,-2.1422362327575684,-1.333500788812973,-2.5256310145007532,6.110533344536581,1.015329360961914,-2.357885185872213
1708435268.5116432,-2.142301559448242,-1.3334889870933075,-2.5256429354297083,6.110559570580282,1.015333890914917,-2.3579047361956995
1708435268.5136647,-2.1422362327575684,-1.3334219318679352,-2.525635544453756,6.110623585968771,1.015378713607788,-2.3579092661487024
1708435268.5156405,-2.142228126525879,-1.333500788812973,-2.5256474653827112,6.110513913422384,1.0153508186340332,-2.3579211870776575
1708435268.5176842,-2.14229416847229,-1.3334307831576844,-2.5256639162646692,6.110521542816915,1.0153377056121826,-2.3579135576831263
1708435268.519637,-2.1422743797302246,-1.3334963780692597,-2.5256474653827112,6.110558020859518,1.015365719795227,-2.357962671910421
1708435268.5216591,-2.142245054244995,-1.3334637445262452,-2.5256593863116663,6.1105127213294885,1.0153250694274902,-2.3578971068011683
1708435268.5236938,-2.1422786712646484,-1.333444060092308,-2.525668446217672,6.110488641052999,1.0153462886810303,-2.3578630129443567
1708435268.5256965,-2.142270088195801,-1.3334637445262452,-2.5256474653827112,6.110521542816915,1.0153701305389404,-2.3579047361956995
1708435268.5276794,-2.1422324180603027,-1.3335052740624924,-2.5256055037127894,6.110557186394491,1.015324592590332,-2.3578599135028284
1708435268.5296392,-2.1422812938690186,-1.33345182359729,-2.5256758371936243,6.110521542816915,1.0153450965881348,-2.3579166571246546
1708435268.5316496,-2.1422295570373535,-1.333471269612648,-2.5256384054767054,6.110546338349142,1.0153820514678955,-2.3579373995410364
1708435268.5336967,-2.142216682434082,-1.333426372413971,-2.5256128946887415,6.110582101136007,1.015398621559143,-2.3579254786120813
1708435268.5356488,-2.1422970294952393,-1.3334726256183167,-2.5256264845477503,6.110546338349142,1.015398621559143,-2.3579538504229944
1708435268.5376575,-2.142245054244995,-1.3334430170110245,-2.5256593863116663,6.110521542816915,1.0153571367263794,-2.3578880468951624
1708435268.5396605,-2.142270088195801,-1.3334351790002366,-2.525656525288717,6.1105865118797205,1.0153863430023193,-2.3579419294940394
1708435268.5416517,-2.1422619819641113,-1.3334875863841553,-2.5256639162646692,6.110571133881368,1.015402913093567,-2.3578837553607386
1708435268.5436704,-2.142213821411133,-1.333439753656723,-2.525614563618795,6.1105432389076135,1.015368938446045,-2.3579166571246546
1708435268.5456572,-2.142270088195801,-1.3334563237479706,-2.52568489709963,6.110524642258444,1.0153732299804688,-2.357962671910421
1708435268.5476677,-2.142224073410034,-1.333472655420639,-2.5256429354297083,6.110602843552389,1.0153974294662476,-2.3579703013049524
1708435268.5496368,-2.142245292663574,-1.333451808696129,-2.5256593863116663,6.110530125885763,1.0153855085372925,-2.3578959147082728
1708435268.551656,-2.142245292663574,-1.3334681403687973,-2.525635544453756,6.110558020859518,1.015398621559143,-2.3579209486590784
1708435268.5536776,-2.142249584197998,-1.3334484559348603,-2.5256758371936243,6.110553729325094,1.0153776407241821,-2.3579660097705286
1708435268.5556622,-2.1422295570373535,-1.333521918659546,-2.5256758371936243,6.110492932587423,1.015418291091919,-2.357907835637228
1708435268.5576687,-2.142209529876709,-1.3334263426116486,-2.5256128946887415,6.110574590950765,1.015418291091919,-2.3579495588885706
1708435268.5596244,-2.142205238342285,-1.3334474128535767,-2.5256593863116663,6.110578882485189,1.015381097793579,-2.3579166571246546
1708435268.5616477,-2.142205238342285,-1.3333968681148072,-2.5256429354297083,6.110521542816915,1.0154629945755005,-2.3578925768481653
1708435268.5636656,-2.1422252655029297,-1.3334875863841553,-2.5256639162646692,6.110562312393942,1.0154061317443848,-2.3579703013049524
1708435268.5656612,-2.1422295570373535,-1.333439664249756,-2.5256338755237024,6.110546338349142,1.0154258012771606,-2.357985560094015
1708435268.567712,-2.142242670059204,-1.333426372413971,-2.52568489709963,6.110542046814718,1.0154215097427368,-2.35799748102297
1708435268.5696566,-2.1422295570373535,-1.3334830862334748,-2.5256639162646692,6.110530125885763,1.0154542922973633,-2.357969347630636
1708435268.5716677,-2.1421916484832764,-1.3334800761989136,-2.5256474653827112,6.110542046814718,1.0155036449432373,-2.3579514662372034
1708435268.5736694,-2.1421759128570557,-1.3334430319121857,-2.5257018248187464,6.110517132073202,1.0154573917388916,-2.3579393068896692
1708435268.5756452,-2.1422383785247803,-1.333472655420639,-2.525668446217672,6.110529053002157,1.0154870748519897,-2.3580272833453577
1708435268.577684,-2.1422383785247803,-1.3334637445262452,-2.5256593863116663,6.110471117287435,1.0154949426651,-2.358022991810934
1708435268.5796392,-2.142242670059204,-1.333447427754738,-2.5256927649127405,6.110624658852377,1.0155067443847656,-2.3580008188830774
1708435268.5816307,-2.14219331741333,-1.3334844571403046,-2.5256429354297083,6.110549318581381,1.0154783725738525,-2.357976738606588
1708435268.5836701,-2.1421844959259033,-1.3334770661643525,-2.5256474653827112,6.110530125885763,1.0155229568481445,-2.3580291906939905
1708435268.5856335,-2.142246961593628,-1.3334726256183167,-2.525672976170675,6.110578882485189,1.0154905319213867,-2.3579962889300745
1708435268.587669,-2.1422226428985596,-1.3334351790002366,-2.5256593863116663,6.110534536629476,1.015486240386963,-2.3580246607409876
1708435268.5896637,-2.1422410011291504,-1.3335052740624924,-2.5256457964526575,6.110521542816915,1.015523076057434,-2.3580127398120325
1708435268.5916471,-2.1422338485717773,-1.333459348683693,-2.5256882349597376,6.110546338349142,1.0154739618301392,-2.3580127398120325
1708435268.5936768,-2.1422312259674072,-1.3335174781135102,-2.5256548563586634,6.110533344536581,1.015486240386963,-2.3580246607409876
1708435268.595658,-2.1421916484832764,-1.3334844571403046,-2.5256639162646692,6.110542046814718,1.0155186653137207,-2.3580246607409876
1708435268.5976825,-2.1421890258789062,-1.3334474128535767,-2.5256593863116663,6.110583293228903,1.0154894590377808,-2.3580618540393274
1708435268.5996711,-2.1422669887542725,-1.3334889870933075,-2.5256713072406214,6.110578882485189,1.0155099630355835,-2.3580039183246058
1708435268.601638,-2.142254114151001,-1.3334070307067414,-2.5256338755237024,6.110553729325094,1.0155471563339233,-2.3580413500415247
1708435268.6037095,-2.1422226428985596,-1.3334386211684723,-2.5256293455706995,6.110550749092855,1.0155309438705444,-2.3580456415759485
1708435268.6056755,-2.1422226428985596,-1.33345182359729,-2.5256429354297083,6.110574590950765,1.0155056715011597,-2.3580575625049036
1708435268.607712,-2.1422181129455566,-1.3334756654552002,-2.5256758371936243,6.1105702994163416,1.0155384540557861,-2.358011547719137
1708435268.6096845,-2.1421844959259033,-1.33345182359729,-2.5256758371936243,6.110492932587423,1.0155099630355835,-2.358044449483053
1708435268.6116357,-2.1421775817871094,-1.33345182359729,-2.5256548563586634,6.11058663108901,1.0155752897262573,-2.358081642781393
1708435268.6137044,-2.1422269344329834,-1.3334756654552002,-2.5256882349597376,6.110525834351339,1.015523076057434,-2.3580694834338587
1708435268.6156588,-2.1421959400177,-1.33345182359729,-2.5256503264056605,6.110542046814718,1.0155222415924072,-2.358056131993429
1708435268.6176872,-2.142213821411133,-1.3334549230388184,-2.5256457964526575,6.110553729325094,1.0155222415924072,-2.3580620924579065
1708435268.6196792,-2.14219331741333,-1.333484486942627,-2.5257254282580774,6.110557901650228,1.0155012607574463,-2.358065191899435
1708435268.6216462,-2.1421775817871094,-1.3334681403687973,-2.5256758371936243,6.1105702994163416,1.0155341625213623,-2.35803991953005
1708435268.6237018,-2.142254114151001,-1.333459348683693,-2.5256713072406214,6.110562312393942,1.0155622959136963,-2.358023707066671
1708435268.6256595,-2.142204761505127,-1.3334844571403046,-2.5256384054767054,6.110529053002157,1.015554666519165,-2.3580649534808558
1708435268.6276393,-2.1421959400177,-1.333447427754738,-2.5256882349597376,6.110525834351339,1.0155460834503174,-2.358035389577047
1708435268.6296308,-2.1422181129455566,-1.3334563237479706,-2.5256503264056605,6.110542046814718,1.0155622959136963,-2.3581023851977747
1708435268.6316462,-2.14219331741333,-1.3334219765714188,-2.5256548563586634,6.110530125885763,1.0155503749847412,-2.358089033757345
1708435268.6336558,-2.142164468765259,-1.3334549230388184,-2.5256667772876185,6.1105865118797205,1.0155503749847412,-2.358068291340963
1708435268.6356478,-2.142246961593628,-1.3334307831576844,-2.5256972948657435,6.110607135086813,1.0155878067016602,-2.35812217393984
