Eg3-git/Classifiers/Data Collection/u2/u2xyz2_ur3e_joint_states.csv
time,elbow_joint,shoulder_lift_joint,shoulder_pan_joint,wrist_1_joint,wrist_2_joint,wrist_3_joint
1708435285.5637095,-2.142249822616577,-1.3337865483811875,-2.5268386046039026,6.111778366356649,1.017626166343689,-2.4441030661212366
1708435285.565692,-2.142308473587036,-1.3337865781835099,-2.5268917719470423,6.111756670265951,1.0176173448562622,-2.4440608660327356
1708435285.5676925,-2.142191171646118,-1.3337584298900147,-2.526862446461813,6.1118260500724695,1.0176502466201782,-2.4440651575671595
1708435285.569686,-2.142188787460327,-1.3337462109378357,-2.5268917719470423,6.111720669060507,1.017626166343689,-2.4440458456622522
1708435285.5717788,-2.1422135829925537,-1.333767057662346,-2.5268917719470423,6.111761081009664,1.017659068107605,-2.444050137196676
1708435285.5737226,-2.142199993133545,-1.3337866377881546,-2.526863400136129,6.111871349602499,1.0176798105239868,-2.4440415541278284
1708435285.575697,-2.1422226428985596,-1.333770365720131,-2.5268591086017054,6.111777055054464,1.0176217555999756,-2.4440458456622522
1708435285.5777464,-2.1422295570373535,-1.3337617081454773,-2.5268753210650843,6.111756670265951,1.0176546573638916,-2.4440458456622522
1708435285.5796943,-2.1422135829925537,-1.3337865483811875,-2.5268266836749476,6.111748802452841,1.0176173448562622,-2.4440134207354944
1708435285.5817323,-2.1422181129455566,-1.333783285026886,-2.5268309752093714,6.1117697832878015,1.0176678895950317,-2.4440458456622522
1708435285.5837185,-2.1421754360198975,-1.3337541681579133,-2.526916805897848,6.1118061421211145,1.0176634788513184,-2.4440749327289026
1708435285.5856788,-2.1422340869903564,-1.3337908399156113,-2.5268221537219446,6.111793267517843,1.0176634788513184,-2.4440458456622522
1708435285.5877192,-2.142204761505127,-1.3337660890868683,-2.526835266743795,6.111757385521688,1.0176173448562622,-2.444000307713644
1708435285.589692,-2.14220929145813,-1.3337746423533936,-2.526863400136129,6.111785638123312,1.0176292657852173,-2.4440749327289026
1708435285.5916939,-2.142181873321533,-1.3337994825891037,-2.5269036928759974,6.111856210022726,1.0176546573638916,-2.444033924733297
1708435285.5937061,-2.142200231552124,-1.33370956898246,-2.5268831888781946,6.1118061421211145,1.0176424980163574,-2.444038216267721
1708435285.595691,-2.142184257507324,-1.3337214303067704,-2.5268548170672815,6.1118061421211145,1.017605185508728,-2.444050137196676
1708435285.5977294,-2.1422359943389893,-1.3337875616601487,-2.526879612599508,6.111798512726583,1.0176305770874023,-2.444038216267721
1708435285.599745,-2.142181873321533,-1.3337661039880295,-2.5268753210650843,6.111801850586691,1.0176007747650146,-2.444050137196676
1708435285.6017146,-2.142200231552124,-1.3337789189866562,-2.526862446461813,6.111785638123312,1.0176217555999756,-2.4439852873431605
1708435285.6037629,-2.1421797275543213,-1.3338156652501603,-2.526879612599508,6.111716377526083,1.017605185508728,-2.4440134207354944
1708435285.6057277,-2.142202138900757,-1.3337344092181702,-2.5268340746508997,6.111761796265402,1.0176095962524414,-2.444038216267721
1708435285.607723,-2.142200231552124,-1.333783285026886,-2.5268710295306605,6.1118061421211145,1.0176634788513184,-2.444022003804342
1708435285.6096942,-2.14219331741333,-1.333795116548874,-2.526825491582052,6.111818182259359,1.017691731452942,-2.4440544287311
1708435285.6116822,-2.1422431468963623,-1.3338037741235276,-2.526879612599508,6.111765491753378,1.017638087272644,-2.4440630117999476
1708435285.6137097,-2.1422386169433594,-1.3337950718453904,-2.526862446461813,6.111785638123312,1.0176140069961548,-2.4440394083606165
1708435285.6157007,-2.1422386169433594,-1.3337010604194184,-2.526879851018087,6.111761796265402,1.0176469087600708,-2.444010082875387
1708435285.617723,-2.142204761505127,-1.3337984693101426,-2.5268548170672815,6.111782657891073,1.0176305770874023,-2.4440630117999476
1708435285.6196904,-2.14219331741333,-1.3337713491967698,-2.526827637349264,6.111745583802023,1.017626166343689,-2.444042507802145
1708435285.6216874,-2.1422295570373535,-1.3337703508189698,-2.5268266836749476,6.111798631935873,1.0176634788513184,-2.443993870412008
1708435285.6237426,-2.142200231552124,-1.3337627363255997,-2.5268428961383265,6.111781346588888,1.0176634788513184,-2.4440467993365687
1708435285.6256921,-2.14219331741333,-1.3337462109378357,-2.526907984410421,6.111772525101461,1.0176173448562622,-2.444014374409811
1708435285.627743,-2.1422431468963623,-1.3337214303067704,-2.5268266836749476,6.111793267517843,1.0176095962524414,-2.4439683596240442
1708435285.6297007,-2.1422431468963623,-1.3337789189866562,-2.5269036928759974,6.111822354584493,1.017605185508728,-2.4440467993365687
1708435285.6316936,-2.1421561241149902,-1.3338037741235276,-2.5268309752093714,6.1117697832878015,1.0176095962524414,-2.4439812342273157
1708435285.6337306,-2.142200231552124,-1.3337626916221161,-2.526879612599508,6.1118191359336755,1.0176305770874023,-2.444014374409811
1708435285.6356914,-2.142188787460327,-1.3337907952121277,-2.526900593434469,6.111753213196554,1.0176095962524414,-2.444022003804342
1708435285.6377048,-2.142204761505127,-1.3337950867465516,-2.5268059412585657,6.111729371338644,1.0176184177398682,-2.444026295338766
1708435285.639697,-2.142188787460327,-1.3337713789990921,-2.526879612599508,6.111793267517843,1.0176424980163574,-2.444014374409811
1708435285.6416981,-2.142184257507324,-1.333741919403412,-2.5268147627459925,6.111794340401449,1.0176634788513184,-2.4440510908709925
1708435285.6437435,-2.142195701599121,-1.3337746423533936,-2.526896301900045,6.111766087799825,1.0176349878311157,-2.443993870412008
1708435285.64569,-2.142195701599121,-1.3337660890868683,-2.5268874804126185,6.111778366356649,1.0176513195037842,-2.4440510908709925
1708435285.6477053,-2.1421730518341064,-1.3337584894946595,-2.5268917719470423,6.111757385521688,1.0176469087600708,-2.443998161946432
1708435285.6496842,-2.142188787460327,-1.3337627065232773,-2.5268428961383265,6.1117827771003626,1.017659068107605,-2.444026295338766
1708435285.6516888,-2.142181873321533,-1.3337627363255997,-2.5268591086017054,6.111810552864828,1.0176095962524414,-2.4439895788775843
1708435285.6537118,-2.1422386169433594,-1.3337865632823487,-2.5268591086017054,6.111761081009664,1.0176513195037842,-2.4440186659442347
1708435285.6556861,-2.142188787460327,-1.3337548834136506,-2.5268591086017054,6.1117368815238855,1.0176095962524414,-2.4440024534808558
1708435285.6577003,-2.1421682834625244,-1.3337419045022507,-2.5268471876727503,6.11178885677413,1.017572283744812,-2.444038216267721
1708435285.6596901,-2.1422135829925537,-1.333783285026886,-2.5268951098071497,6.111773955612936,1.0176678895950317,-2.4439812342273157
1708435285.6616783,-2.14219331741333,-1.3337865483811875,-2.526851479207174,6.111741173058309,1.0176140069961548,-2.4440467993365687
1708435285.6637328,-2.1421427726745605,-1.3337994825891037,-2.5268340746508997,6.1118050692375085,1.0176634788513184,-2.4440069834338587
1708435285.665698,-2.1422271728515625,-1.333758444791176,-2.526835266743795,6.111776935845175,1.0175899267196655,-2.444014374409811
1708435285.667721,-2.1421797275543213,-1.3337984842113038,-2.5268917719470423,6.111785638123312,1.0176482200622559,-2.4440394083606165
1708435285.6697,-2.142200231552124,-1.3337746274522324,-2.526896301900045,6.111802923470297,1.0175604820251465,-2.4440231958972376
1708435285.671714,-2.1422431468963623,-1.333741919403412,-2.5268471876727503,6.111814844399252,1.0176020860671997,-2.4439693132983606
1708435285.6737118,-2.142164945602417,-1.333741934304573,-2.526867691670553,6.111782657891073,1.0176140069961548,-2.4439900557147425
1708435285.6757073,-2.142254590988159,-1.333795116548874,-2.5268505255328577,6.11178885677413,1.0175976753234863,-2.4440675417529505
1708435285.677729,-2.1422181129455566,-1.3337660890868683,-2.5268428961383265,6.111838924675741,1.0176020860671997,-2.4440069834338587
1708435285.6796954,-2.1422226428985596,-1.3337671023658295,-2.526867691670553,6.1117522595222376,1.0176228284835815,-2.4440305868731897
1708435285.6817124,-2.1422181129455566,-1.3337505620769043,-2.5268753210650843,6.111773955612936,1.017627239227295,-2.443998161946432
1708435285.6837547,-2.142184257507324,-1.3337670874646683,-2.5268428961383265,6.111785638123312,1.0175899267196655,-2.4440317789660853
1708435285.6856897,-2.1421730518341064,-1.3337670725635071,-2.5268753210650843,6.111773955612936,1.017594337463379,-2.4440024534808558
1708435285.6877148,-2.142181873321533,-1.3337994527867814,-2.5268309752093714,6.111748802452841,1.0175766944885254,-2.4440394083606165
1708435285.689716,-2.1422317028045654,-1.3337541681579133,-2.526879612599508,6.111789810448446,1.0176140069961548,-2.4440673033343714
1708435285.6917114,-2.1422295570373535,-1.3337994825891037,-2.526863400136129,6.111850964813986,1.017594337463379,-2.4439781347857874
1708435285.6937172,-2.1422271728515625,-1.3337670278600235,-2.5268340746508997,6.111809479981222,1.0175855159759521,-2.4440112749682825
1708435285.6957057,-2.1422431468963623,-1.333758444791176,-2.5268548170672815,6.111842262535848,1.017627239227295,-2.4440436998950403
1708435285.6977282,-2.1422181129455566,-1.3337789338878174,-2.5268190542804163,6.111728298455038,1.0175855159759521,-2.444010082875387
1708435285.6997592,-2.1422455310821533,-1.3337703508189698,-2.5268471876727503,6.111826765328207,1.017627239227295,-2.4440305868731897
1708435285.7017205,-2.142195701599121,-1.3337343496135254,-2.526879612599508,6.11181806305007,1.0175855159759521,-2.4440394083606165
1708435285.703761,-2.142197847366333,-1.3336933863214036,-2.5268505255328577,6.111809479981222,1.017573595046997,-2.4439693132983606
1708435285.705702,-2.1422271728515625,-1.3337462109378357,-2.5268266836749476,6.111858594208517,1.0175647735595703,-2.443998161946432
1708435285.70771,-2.142188787460327,-1.3337584000876923,-2.526801649724142,6.111801850586691,1.0176482200622559,-2.4439855257617396
1708435285.70971,-2.1421682834625244,-1.3337584298900147,-2.5268190542804163,6.111834633141317,1.0175855159759521,-2.444014374409811
1708435285.7116945,-2.1422135829925537,-1.3337584149888535,-2.5268102327929896,6.11184989193038,1.0176153182983398,-2.443998161946432
1708435285.713717,-2.1421561241149902,-1.3337627214244385,-2.5268471876727503,6.111821639328756,1.017639398574829,-2.4440231958972376
1708435285.7157068,-2.1422135829925537,-1.3337865781835099,-2.526829783116476,6.111822354584493,1.0176305770874023,-2.4440305868731897
1708435285.7177324,-2.1421797275543213,-1.333758459692337,-2.5268710295306605,6.111744510918417,1.0176153182983398,-2.4440186659442347
1708435285.7196908,-2.1422271728515625,-1.3337343645146866,-2.526884142552511,6.111833560257711,1.0176109075546265,-2.4440024534808558
1708435285.7217078,-2.14220929145813,-1.333815024500229,-2.5268340746508997,6.111838924675741,1.017594337463379,-2.4439812342273157
1708435285.7237008,-2.1422677040100098,-1.3337918531945725,-2.526851479207174,6.11178885677413,1.017573595046997,-2.4439812342273157
1708435285.7256925,-2.142184257507324,-1.333758444791176,-2.5268471876727503,6.111809479981222,1.0175691843032837,-2.4440155665027063
1708435285.7277112,-2.142200231552124,-1.3337865632823487,-2.526884142552511,6.111830341606893,1.0176316499710083,-2.4440186659442347
1708435285.7296848,-2.1422386169433594,-1.3337617379477997,-2.5268266836749476,6.111772644310751,1.0176153182983398,-2.4440069834338587
1708435285.7316904,-2.142249822616577,-1.333783285026886,-2.526872221623556,6.111809479981222,1.0175899267196655,-2.4440024534808558
1708435285.7336826,-2.1422181129455566,-1.3337299835732956,-2.5268147627459925,6.111830341606893,1.0175855159759521,-2.4440274874316614
1708435285.735678,-2.1422226428985596,-1.333746151333191,-2.5268309752093714,6.111740100174703,1.0175617933273315,-2.4439693132983606
1708435285.7377007,-2.1422250270843506,-1.3337865781835099,-2.526863400136129,6.111821639328756,1.0175987482070923,-2.4440186659442347
1708435285.7397082,-2.1422455310821533,-1.3337703806212922,-2.52682334581484,6.1118249771888635,1.017594337463379,-2.4440112749682825
1708435285.7416875,-2.14220929145813,-1.333795116548874,-2.5268102327929896,6.1118050692375085,1.0175691843032837,-2.4440024534808558
1708435285.7437155,-2.1422181129455566,-1.3337505471757432,-2.526851479207174,6.111842262535848,1.0175855159759521,-2.4440348784076136
1708435285.7457032,-2.1422181129455566,-1.3337584298900147,-2.5268223921405237,6.111809479981222,1.0176482200622559,-2.443998161946432
1708435285.7476954,-2.1421775817871094,-1.3337627363255997,-2.526896301900045,6.111842262535848,1.0175987482070923,-2.4439900557147425
1708435285.74968,-2.1422340869903564,-1.3338365417769928,-2.5268753210650843,6.111837851792135,1.0175987482070923,-2.4440024534808558
1708435285.7516983,-2.142204761505127,-1.3337789189866562,-2.526835266743795,6.1118260500724695,1.0175855159759521,-2.4440112749682825
1708435285.7536936,-2.142188787460327,-1.3338156652501603,-2.5268190542804163,6.11187909820632,1.0175899267196655,-2.4440024534808558
1708435285.755682,-2.1422135829925537,-1.333737627868988,-2.5268266836749476,6.111796366959371,1.0175899267196655,-2.443998161946432
1708435285.7576895,-2.1422226428985596,-1.333799497490265,-2.5268428961383265,6.111842262535848,1.0175647735595703,-2.4440394083606165
1708435285.7596848,-2.1422250270843506,-1.3337455999902268,-2.5268266836749476,6.111824857979574,1.0176020860671997,-2.4440599123584192
1708435285.7617116,-2.1422386169433594,-1.3337541979602356,-2.526835266743795,6.111861812859335,1.0175811052322388,-2.444010082875387
1708435285.763684,-2.1421868801116943,-1.3337865632823487,-2.5268266836749476,6.111891257553854,1.0175987482070923,-2.4440186659442347
1708435285.7656922,-2.1422250270843506,-1.3337626916221161,-2.526835266743795,6.111817347794332,1.0175824165344238,-2.4439693132983606
1708435285.767689,-2.1421561241149902,-1.3337461811355134,-2.5268710295306605,6.111873972206869,1.0175855159759521,-2.4439943472491663
1708435285.769688,-2.1422226428985596,-1.3337704104236145,-2.5268428961383265,6.111861693650045,1.0176109075546265,-2.4439855257617396
1708435285.7717023,-2.1422410011291504,-1.3337660443833848,-2.5268383661853235,6.111804234772482,1.017606496810913,-2.4439900557147425
1708435285.773703,-2.1422431468963623,-1.3337865781835099,-2.526851479207174,6.111836778908529,1.0175691843032837,-2.443948809300558
1708435285.775702,-2.1422386169433594,-1.3338278096965333,-2.5268147627459925,6.1118695614631555,1.0176153182983398,-2.4440186659442347
1708435285.7777002,-2.1421868801116943,-1.3337376427701493,-2.5268920103656214,6.111918079644003,1.0175855159759521,-2.44399863878359
1708435285.7797,-2.1422667503356934,-1.333783285026886,-2.5268340746508997,6.111893164902487,1.0176481008529663,-2.4439855257617396
1708435285.7817435,-2.1422882080078125,-1.333782286649086,-2.526863400136129,6.111929166107931,1.017606496810913,-2.4439693132983606
1708435285.7836893,-2.142204761505127,-1.3337627214244385,-2.526835266743795,6.111937987595358,1.017622709274292,-2.4439693132983606
1708435285.7856817,-2.1422364711761475,-1.3338322204402466,-2.5268190542804163,6.111969458847799,1.0176184177398682,-2.444026295338766
1708435285.7877214,-2.14220929145813,-1.3337865334800263,-2.526851479207174,6.11197708824233,1.0176184177398682,-2.4439895788775843
1708435285.7897246,-2.1422622203826904,-1.333777980213501,-2.5268874804126185,6.111968385964193,1.0176109075546265,-2.444022003804342
1708435285.7916992,-2.1422135829925537,-1.3337779206088562,-2.5268386046039026,6.112005221634664,1.0175987482070923,-2.4440231958972376
1708435285.7937024,-2.142195701599121,-1.3337951016477128,-2.526863400136129,6.111964094429769,1.0176020860671997,-2.4440024534808558
1708435285.7956975,-2.1422622203826904,-1.3337290597013016,-2.526879612599508,6.112017261772909,1.0175933837890625,-2.4439900557147425
1708435285.797719,-2.142200231552124,-1.333758444791176,-2.5268428961383265,6.111993300705709,1.017578125,-2.4440186659442347
1708435285.7997248,-2.142216205596924,-1.3337865781835099,-2.526879612599508,6.1120290634925745,1.0176767110824585,-2.4440069834338587
1708435285.8017352,-2.1422667503356934,-1.333787516956665,-2.526862446461813,6.111989009171285,1.0176184177398682,-2.443998161946432
1708435285.8037496,-2.14227032661438,-1.3337541681579133,-2.526839558278219,6.1119879362876794,1.0176349878311157,-2.4439693132983606
1708435285.805732,-2.1422295570373535,-1.333758459692337,-2.5268309752093714,6.112044560700216,1.0176469087600708,-2.4439693132983606
1708435285.8077583,-2.1421797275543213,-1.3337865632823487,-2.5268059412585657,6.111980306893148,1.017606496810913,-2.444026295338766
1708435285.809745,-2.1422340869903564,-1.3337376576713105,-2.5268505255328577,6.111964094429769,1.0176184177398682,-2.4440069834338587
1708435285.8117585,-2.142254590988159,-1.333758459692337,-2.5268266836749476,6.111992227822103,1.0176349878311157,-2.4440348784076136
1708435285.813724,-2.1422712802886963,-1.3337865632823487,-2.5268548170672815,6.111996638565817,1.0176020860671997,-2.4439943472491663
1708435285.8157172,-2.1422135829925537,-1.3337617230466385,-2.5268221537219446,6.112024771958151,1.0176184177398682,-2.4439855257617396
1708435285.8177288,-2.142204761505127,-1.3337703806212922,-2.526851479207174,6.1120619652564905,1.0176424980163574,-2.4440069834338587
1708435285.8197222,-2.1421797275543213,-1.3337865781835099,-2.5268428961383265,6.112053262978353,1.0176095962524414,-2.4439812342273157
1708435285.8217378,-2.1422667503356934,-1.3338070672801514,-2.5268309752093714,6.112044560700216,1.0176184177398682,-2.4439693132983606
1708435285.8237052,-2.1422746181488037,-1.3337703508189698,-2.526872221623556,6.112081396370687,1.0176424980163574,-2.444014374409811
1708435285.825689,-2.1422622203826904,-1.3337789189866562,-2.5268548170672815,6.112004148751058,1.0176467895507812,-2.4440112749682825
1708435285.82769,-2.142204761505127,-1.3337703955224534,-2.526851479207174,6.112007367401876,1.0176140069961548,-2.444014374409811
1708435285.82972,-2.142204761505127,-1.3337376874736329,-2.5268471876727503,6.11204885223464,1.0176424980163574,-2.4440556208239954
1708435285.8316915,-2.1422746181488037,-1.333762751226761,-2.5268753210650843,6.112019288330831,1.0176829099655151,-2.4440024534808558
1708435285.8336923,-2.142200231552124,-1.3337661188891907,-2.5268710295306605,6.112084615021505,1.0176424980163574,-2.4439900557147425
1708435285.8356812,-2.142261505126953,-1.3337541830590744,-2.5268386046039026,6.112044560700216,1.0176557302474976,-2.4440274874316614
1708435285.8376796,-2.142204761505127,-1.3337865483811875,-2.5268831888781946,6.111991154938497,1.0176546573638916,-2.4439781347857874
1708435285.8396895,-2.1422410011291504,-1.3337864887765427,-2.5268548170672815,6.112080204277792,1.017626166343689,-2.4439943472491663
1708435285.8416946,-2.142277240753174,-1.3337908548167725,-2.5268591086017054,6.11204348781661,1.0176130533218384,-2.443965021763937
1708435285.8437173,-2.142261505126953,-1.333758444791176,-2.5268428961383265,6.112059700279989,1.0176424980163574,-2.444014374409811
1708435285.8457506,-2.1422488689422607,-1.3337541830590744,-2.526867691670553,6.1120924828346155,1.0176469087600708,-2.4440186659442347
1708435285.847686,-2.1422860622406006,-1.333777905707695,-2.526839558278219,6.112154233246603,1.017659068107605,-2.443965021763937
1708435285.8497167,-2.1422321796417236,-1.3337703806212922,-2.5268505255328577,6.112149941712179,1.0176217555999756,-2.444014374409811
1708435285.8516803,-2.1422321796417236,-1.3338364225677033,-2.5268264452563685,6.112083780556478,1.0176708698272705,-2.4440274874316614
1708435285.853714,-2.142272710800171,-1.3337951016477128,-2.526879612599508,6.112113106041708,1.0176459550857544,-2.4439531008349817
1708435285.8556948,-2.1422410011291504,-1.3337736439755936,-2.5268591086017054,6.1120924828346155,1.0176459550857544,-2.4439812342273157
1708435285.8577135,-2.1422321796417236,-1.3338277649930497,-2.526867691670553,6.1121606705482385,1.0176469087600708,-2.4440186659442347
1708435285.8597124,-2.142265796661377,-1.3337823313525696,-2.5268591086017054,6.112124550133505,1.0176130533218384,-2.443998161946432
1708435285.861714,-2.1422815322875977,-1.3338192713311692,-2.5268548170672815,6.112145530968466,1.0176546573638916,-2.4439900557147425
1708435285.8636928,-2.1423187255859375,-1.3337984842113038,-2.526870075856344,6.112185704499044,1.0176622867584229,-2.4439576307879847
1708435285.86571,-2.1422321796417236,-1.3337779653123398,-2.5268383661853235,6.112189161568441,1.017699122428894,-2.443965021763937
1708435285.867698,-2.1422119140625,-1.3337789189866562,-2.5268548170672815,6.112098562508383,1.0176784992218018,-2.444047991429464
1708435285.8696969,-2.1422533988952637,-1.3337984693101426,-2.5268874804126185,6.112171757012167,1.017638087272644,-2.443993870412008
1708435285.8716972,-2.1422972679138184,-1.3338235181621094,-2.5268471876727503,6.112208592682638,1.017659068107605,-2.4440274874316614
1708435285.873689,-2.1423232555389404,-1.3337746423533936,-2.5268505255328577,6.112130391388693,1.017699122428894,-2.443993870412008
1708435285.8756933,-2.142261505126953,-1.3338192862323304,-2.526896301900045,6.112192380219259,1.017641544342041,-2.443993870412008
1708435285.8776891,-2.1422972679138184,-1.333766133790352,-2.5268386046039026,6.11216829994277,1.0176784992218018,-2.4439812342273157
1708435285.8797102,-2.1422815322875977,-1.3337908250144501,-2.5268428961383265,6.112171876221456,1.0176459550857544,-2.4439824263202112
1708435285.8817568,-2.142272710800171,-1.3338156354478379,-2.5268428961383265,6.112232553749838,1.0176621675491333,-2.443927590047018
1708435285.8837044,-2.142322540283203,-1.3337984544089814,-2.5268591086017054,6.112224805146017,1.0176947116851807,-2.4439812342273157
1708435285.8857071,-2.1422932147979736,-1.333758459692337,-2.5268548170672815,6.112220513611593,1.0176459550857544,-2.444014374409811
1708435285.8876903,-2.142327070236206,-1.333753303890564,-2.5268874804126185,6.112187015801229,1.0177161693572998,-2.4440394083606165
1708435285.889737,-2.1423144340515137,-1.3338440668633957,-2.5268505255328577,6.112212884217062,1.0176621675491333,-2.44399863878359
1708435285.8917522,-2.142263650894165,-1.3337703508189698,-2.5268386046039026,6.112244474678793,1.0176621675491333,-2.4439812342273157
1708435285.8937023,-2.1422886848449707,-1.3337746274522324,-2.5268753210650843,6.112232434540548,1.0176652669906616,-2.444047991429464
1708435285.8957117,-2.1423180103302,-1.3337941330722352,-2.5268994013415735,6.112192380219259,1.0176622867584229,-2.4439781347857874
1708435285.8976996,-2.1422841548919678,-1.3337822717479249,-2.52685791650881,6.112244474678793,1.0176814794540405,-2.4439855257617396
1708435285.8997636,-2.14233136177063,-1.3338070225766678,-2.526896301900045,6.112244355469503,1.0176904201507568,-2.4440231958972376
1708435285.901725,-2.142301082611084,-1.3337908250144501,-2.5269158522235315,6.112191307335653,1.0176784992218018,-2.4440305868731897
1708435285.9037101,-2.1422886848449707,-1.333761752848961,-2.5269277731524866,6.112191426544943,1.017685890197754,-2.444005791340963
1708435285.905708,-2.1423428058624268,-1.3338070225766678,-2.526912514363424,6.11217080333785,1.0177236795425415,-2.443944517766134
1708435285.9077213,-2.142329454421997,-1.3338632446578522,-2.5268505255328577,6.112240063935079,1.0176695585250854,-2.444014374409811
1708435285.9097316,-2.1423180103302,-1.3338156354478379,-2.5268994013415735,6.112247693329611,1.0177236795425415,-2.4440274874316614
1708435285.9117324,-2.1423542499542236,-1.3337951016477128,-2.5268548170672815,6.112301099091329,1.0176652669906616,-2.444014374409811
1708435285.9137106,-2.142322540283203,-1.3337984842113038,-2.5268874804126185,6.112244355469503,1.0176904201507568,-2.4440186659442347
1708435285.915712,-2.142333745956421,-1.333810643558838,-2.5269036928759974,6.112240063935079,1.017707347869873,-2.4439693132983606
1708435285.9177368,-2.142324924468994,-1.3337823015502472,-2.5268591086017054,6.112256276398458,1.017747402191162,-2.4439812342273157
1708435285.919711,-2.1423180103302,-1.3338070225766678,-2.526862446461813,6.1122639057929895,1.017685890197754,-2.4440348784076136
1708435285.9217029,-2.142296552658081,-1.3337779355100174,-2.526863400136129,6.112280475884237,1.017719030380249,-2.4440024534808558
1708435285.9237096,-2.1423134803771973,-1.3338027459434052,-2.5268471876727503,6.112255203514852,1.0177266597747803,-2.4439895788775843
1708435285.925719,-2.142320394515991,-1.3338150095990677,-2.526878897343771,6.112283694535055,1.017722249031067,-2.4440024534808558
1708435285.9277115,-2.142270803451538,-1.3338027608445664,-2.526841704045431,6.112259495049276,1.0177428722381592,-2.4440231958972376
1708435285.9296873,-2.1423134803771973,-1.3337951016477128,-2.5268471876727503,6.112251984864034,1.0177016258239746,-2.444014374409811
1708435285.9316936,-2.142333745956421,-1.3337703806212922,-2.5268994013415735,6.1122717736061,1.017755150794983,-2.443993870412008
1708435285.9337113,-2.142340898513794,-1.3337865632823487,-2.5268917719470423,6.112287986069479,1.017706036567688,-2.444010082875387
1708435285.9356935,-2.142301082611084,-1.3338354539922257,-2.5268223921405237,6.112276065140524,1.017717957496643,-2.443960730229513
1708435285.9377475,-2.142366409301758,-1.3338027459434052,-2.5268874804126185,6.112280475884237,1.0177266597747803,-2.4440394083606165
1708435285.939694,-2.1423089504241943,-1.3337941330722352,-2.526862446461813,6.112312066345968,1.0177385807037354,-2.4440231958972376
1708435285.941717,-2.1423816680908203,-1.333773673777916,-2.5268917719470423,6.112267482071676,1.0177758932113647,-2.444014374409811
1708435285.94372,-2.1423497200012207,-1.3338149946979065,-2.526878897343771,6.112312066345968,1.0177463293075562,-2.4440599123584192
1708435285.9456987,-2.1423161029815674,-1.3338632446578522,-2.526890818272726,6.112307774811544,1.0177385807037354,-2.4440186659442347
1708435285.947707,-2.142324924468994,-1.3337574911168595,-2.526862446461813,6.112267482071676,1.017734169960022,-2.4440305868731897
1708435285.9496922,-2.1423745155334473,-1.3338396561196824,-2.526886526738302,6.112292277603903,1.0177464485168457,-2.4440112749682825
1708435285.951688,-2.1423745155334473,-1.3337661039880295,-2.5268874804126185,6.112320768624105,1.0177385807037354,-2.443993870412008
1708435285.9537246,-2.1423134803771973,-1.3338225793889542,-2.5268548170672815,6.112337100296774,1.0177429914474487,-2.444042507802145
1708435285.955689,-2.1423046588897705,-1.333741308455803,-2.5269203821765345,6.112323987274923,1.0177714824676514,-2.4440348784076136
1708435285.9577096,-2.142385959625244,-1.3337865632823487,-2.5268831888781946,6.112312066345968,1.0177669525146484,-2.4439812342273157
1708435285.959687,-2.142320394515991,-1.333810643558838,-2.526879612599508,6.112344252854147,1.017767071723938,-2.444026295338766
1708435285.96169,-2.1423442363739014,-1.3338192713311692,-2.5268831888781946,6.1123413918311975,1.0177135467529297,-2.444033924733297
1708435285.9637349,-2.142336368560791,-1.3338513237288971,-2.526923481618063,6.112320768624105,1.0177297592163086,-2.4440305868731897
1708435285.9657116,-2.1423532962799072,-1.3337823015502472,-2.5268994013415735,6.11230348327712,1.017820954322815,-2.444005791340963
1708435285.967709,-2.142336368560791,-1.333810643558838,-2.5268591086017054,6.112312066345968,1.017734169960022,-2.4439852873431605
1708435285.9696867,-2.142381429672241,-1.333761752848961,-2.5269246737109583,6.112344252854147,1.017767071723938,-2.4440069834338587
1708435285.9717367,-2.142336368560791,-1.3337779206088562,-2.5269039312945765,6.112351882248678,1.0177595615386963,-2.444026295338766
1708435285.9737058,-2.1423187255859375,-1.3338156354478379,-2.5268622080432337,6.112339842110433,1.0177091360092163,-2.4440186659442347
1708435285.9756978,-2.1423115730285645,-1.3337898564389725,-2.526878897343771,6.112364160805502,1.0177385807037354,-2.4440544287311
1708435285.9777048,-2.1423399448394775,-1.3338063818267365,-2.5268710295306605,6.112347590714254,1.0177748203277588,-2.4440024534808558
1708435285.9796913,-2.142331838607788,-1.3337779355100174,-2.5268831888781946,6.112339842110433,1.017786979675293,-2.444010082875387
1708435285.9817288,-2.142352342605591,-1.3337941330722352,-2.5268667379962366,6.112339842110433,1.017765998840332,-2.443998161946432
1708435285.983716,-2.142385959625244,-1.3338112843087693,-2.526862446461813,6.112360465317526,1.0178121328353882,-2.444022003804342
1708435285.9856822,-2.1423680782318115,-1.3338027459434052,-2.526878897343771,6.112344252854147,1.0177626609802246,-2.4440556208239954
1708435285.9876904,-2.1423771381378174,-1.333802194600441,-2.52685791650881,6.1122991917426965,1.017733097076416,-2.444038216267721
1708435285.9896882,-2.142352342605591,-1.3338311922601243,-2.5268622080432337,6.112344133644857,1.0177913904190063,-2.4440348784076136
1708435285.991707,-2.1423771381378174,-1.3337823015502472,-2.5269158522235315,6.11230348327712,1.0178077220916748,-2.4440587202655237
1708435285.9937212,-2.1424107551574707,-1.333888293509819,-2.526890818272726,6.112371670990743,1.0177825689315796,-2.444005791340963
1708435285.9957902,-2.1423442363739014,-1.3337823015502472,-2.526890818272726,6.112343179970541,1.0178121328353882,-2.4440510908709925
1708435285.9977143,-2.1423487663269043,-1.3338354539922257,-2.526878897343771,6.112364160805502,1.0178077220916748,-2.444042507802145
1708435285.9997318,-2.1423726081848145,-1.333741233949997,-2.526912514363424,6.112322675972738,1.0178076028823853,-2.444026295338766
1708435286.0017104,-2.14241099357605,-1.3338513237288971,-2.5268831888781946,6.112371670990743,1.0177704095840454,-2.444014374409811
1708435286.0037234,-2.1424179077148438,-1.3338027459434052,-2.5268994013415735,6.112375962525167,1.0177959203720093,-2.444022003804342
1708435286.0056887,-2.1424179077148438,-1.3337865632823487,-2.5269160906421106,6.112335669785299,1.0177537202835083,-2.444042507802145
1708435286.007728,-2.1423680782318115,-1.3337865632823487,-2.5268710295306605,6.1123225567634485,1.0178031921386719,-2.443998161946432
1708435286.0097039,-2.142406463623047,-1.3337941330722352,-2.5268994013415735,6.112347590714254,1.0177582502365112,-2.4440305868731897
1708435286.011697,-2.1423749923706055,-1.3337779355100174,-2.5268831888781946,6.112335669785299,1.0177704095840454,-2.4440587202655237
1708435286.0137196,-2.1423795223236084,-1.3338156354478379,-2.526874605809347,6.1123965857322595,1.0177704095840454,-2.4440749327289026
1708435286.0156975,-2.1423680782318115,-1.3338235330632706,-2.5268831888781946,6.112318265229025,1.0177913904190063,-2.443976942692892
1708435286.0177066,-2.1423885822296143,-1.3338112843087693,-2.5268874804126185,6.11236737945632,1.0177582502365112,-2.444005791340963
1708435286.0197084,-2.1423749923706055,-1.3338192713311692,-2.5269158522235315,6.112356054573812,1.017798900604248,-2.444033924733297
1708435286.0216823,-2.1424381732940674,-1.3337814074805756,-2.526890818272726,6.112363087921896,1.017786979675293,-2.4440587202655237
1708435286.023708,-2.142397403717041,-1.3337660890868683,-2.5268951098071497,6.112387883454122,1.0177704095840454,-2.4440458456622522
1708435286.0256853,-2.1424224376678467,-1.333834246998169,-2.5268710295306605,6.11236737945632,1.0177748203277588,-2.444070641194479
1708435286.0276983,-2.1424221992492676,-1.3338149946979065,-2.5269280115710657,6.112364160805502,1.017765998840332,-2.4440630117999476
1708435286.029701,-2.142388343811035,-1.3337694865516205,-2.5268994013415735,6.112343179970541,1.0177826881408691,-2.4440630117999476
1708435286.0317035,-2.1423795223236084,-1.3338354539922257,-2.5269280115710657,6.112326967507162,1.0177288055419922,-2.4440134207354944
1708435286.0336947,-2.142401933670044,-1.3338192713311692,-2.5268831888781946,6.112375962525167,1.017767071723938,-2.4440348784076136
1708435286.035687,-2.142397403717041,-1.3337941330722352,-2.5268667379962366,6.112371670990743,1.0177704095840454,-2.4440544287311
1708435286.0376968,-2.1424179077148438,-1.333834246998169,-2.5268874804126185,6.112322675972738,1.017786979675293,-2.4440749327289026
1708435286.0397,-2.1423749923706055,-1.3338268262198945,-2.5269277731524866,6.112408506661215,1.0177538394927979,-2.444038216267721
1708435286.0416877,-2.142392873764038,-1.3338235330632706,-2.5268994013415735,6.112374889641561,1.0177748203277588,-2.4440305868731897
1708435286.043696,-2.1424248218536377,-1.3338268262198945,-2.5268710295306605,6.112364160805502,1.0177332162857056,-2.4440091292010706
1708435286.0456908,-2.142406463623047,-1.3337941330722352,-2.5269115606891077,6.112371670990743,1.0177748203277588,-2.4439809958087366
1708435286.047711,-2.142392873764038,-1.3337703806212922,-2.526886526738302,6.112294900208273,1.0177538394927979,-2.444042507802145
1708435286.0497212,-2.142401933670044,-1.3338556450656434,-2.5268710295306605,6.112371670990743,1.017786979675293,-2.4440544287311
1708435286.0516944,-2.1423885822296143,-1.3337865632823487,-2.526886526738302,6.11230360248641,1.0177626609802246,-2.4440458456622522
1708435286.053684,-2.142397403717041,-1.3338192862323304,-2.526874605809347,6.112346756249227,1.0177748203277588,-2.444070641194479
1708435286.0557053,-2.1424248218536377,-1.3338235330632706,-2.5269246737109583,6.112351166992941,1.017798900604248,-2.4440458456622522
1708435286.0577068,-2.1424202919006348,-1.333769441848137,-2.5269115606891077,6.1123554585273645,1.017765998840332,-2.444022003804342
1708435286.0596879,-2.1424179077148438,-1.333834246998169,-2.5269036928759974,6.112347590714254,1.0177748203277588,-2.444090191517965
1708435286.0617106,-2.1423795223236084,-1.333773673777916,-2.5268831888781946,6.112380373268881,1.0177582502365112,-2.4440014998065394
1708435286.063705,-2.1423885822296143,-1.3337941330722352,-2.5268667379962366,6.112322675972738,1.0177375078201294,-2.4440544287311
1708435286.0657074,-2.1423795223236084,-1.3337823015502472,-2.5268874804126185,6.112347590714254,1.0177748203277588,-2.444050137196676
1708435286.0677032,-2.1423885822296143,-1.3337898564389725,-2.526907269154684,6.112334596901693,1.0178031921386719,-2.4440868536578577
1708435286.0696955,-2.142411470413208,-1.3338268262198945,-2.5269115606891077,6.112408506661215,1.0177669525146484,-2.4440534750567835
1708435286.071707,-2.1424291133880615,-1.333773673777916,-2.5269604364978235,6.112338888436117,1.0177913904190063,-2.444038216267721
1708435286.0737348,-2.1423661708831787,-1.3338063818267365,-2.5269115606891077,6.112371670990743,1.0177253484725952,-2.4440296331988733
1708435286.0757132,-2.142352342605591,-1.3338225495866318,-2.526890818272726,6.112408506661215,1.0177748203277588,-2.444098774586813
1708435286.077712,-2.1423704624176025,-1.3337898564389725,-2.5269158522235315,6.112359750061788,1.0177748203277588,-2.4440296331988733
1708435286.079717,-2.142408847808838,-1.3338063818267365,-2.5268994013415735,6.112371670990743,1.0177792310714722,-2.444050137196676
1708435286.0817127,-2.1423707008361816,-1.333822564487793,-2.5268874804126185,6.112359750061788,1.0177913904190063,-2.4440651575671595
1708435286.083713,-2.1423704624176025,-1.3338311922601243,-2.526874605809347,6.112375962525167,1.0177704095840454,-2.4440458456622522
1708435286.0857062,-2.1423704624176025,-1.3338354539922257,-2.52690297762026,6.112408387451925,1.0178357362747192,-2.444062058125631
1708435286.0877001,-2.1424338817596436,-1.3338268262198945,-2.526907269154684,6.112347590714254,1.0177626609802246,-2.4440813700305384
1708435286.089697,-2.142392873764038,-1.333822564487793,-2.526923481618063,6.1123684523399255,1.0178121328353882,-2.4440696875201624
1708435286.0916963,-2.1423749923706055,-1.3337779355100174,-2.5268994013415735,6.112409460335531,1.0178077220916748,-2.444090191517965
1708435286.0936923,-2.142413377761841,-1.333773673777916,-2.526886526738302,6.112375962525167,1.0177582502365112,-2.4440813700305384
1708435286.0957031,-2.1424248218536377,-1.333822564487793,-2.5268874804126185,6.112319814949789,1.0177748203277588,-2.4440940062152308
1708435286.0976949,-2.1423885822296143,-1.333794118171074,-2.5269277731524866,6.112331378250875,1.0177748203277588,-2.4441233317004603
1708435286.0997522,-2.142441511154175,-1.333842695956566,-2.526890818272726,6.112347590714254,1.0177669525146484,-2.4441352526294153
1708435286.1017466,-2.142408847808838,-1.333797888164856,-2.526878897343771,6.112323987274923,1.0177538394927979,-2.4440813700305384
1708435286.1037345,-2.1424179077148438,-1.3337856841138382,-2.5268994013415735,6.112307774811544,1.0177419185638428,-2.4440940062152308
1708435286.10572,-2.1423795223236084,-1.3338063818267365,-2.5269115606891077,6.112417208939352,1.0177419185638428,-2.444105927144186
1708435286.1077137,-2.142404317855835,-1.3338027459434052,-2.5268831888781946,6.112388002663412,1.017788052558899,-2.4441426436053675
1708435286.1097102,-2.1424291133880615,-1.333810643558838,-2.52686578432192,6.112359750061788,1.0177792310714722,-2.444105927144186
1708435286.1116948,-2.142401933670044,-1.3337865632823487,-2.5269115606891077,6.11243365982131,1.0177582502365112,-2.4441426436053675
1708435286.1137366,-2.142408847808838,-1.3338632893613358,-2.526878897343771,6.112351882248678,1.0177967548370361,-2.444129769002096
1708435286.1157072,-2.1424505710601807,-1.333807037477829,-2.5268548170672815,6.112343179970541,1.0177419185638428,-2.4441264311419886
1708435286.1176958,-2.1423635482788086,-1.333810643558838,-2.5268591086017054,6.112319814949789,1.0178046226501465,-2.444085423146383
1708435286.1197088,-2.1423704624176025,-1.3338513684323807,-2.526878897343771,6.112346875458517,1.0177626609802246,-2.444105927144186
1708435286.1216931,-2.142401933670044,-1.333810643558838,-2.5269203821765345,6.112359750061788,1.0177253484725952,-2.4440885225879114
1708435286.1237109,-2.142404317855835,-1.3337898266366501,-2.5268831888781946,6.112322675972738,1.0177582502365112,-2.444183413182394
1708435286.1256964,-2.142441511154175,-1.3337736439755936,-2.5269365946399134,6.1123684523399255,1.0177297592163086,-2.4441047350512903
1708435286.1277194,-2.1423797607421875,-1.3338588786176224,-2.5269115606891077,6.112311112671652,1.0177385807037354,-2.4441383520709437
1708435286.129701,-2.142432689666748,-1.3338268262198945,-2.5268994013415735,6.112338888436117,1.0177714824676514,-2.4441221396075647
1708435286.1317005,-2.142458438873291,-1.333810643558838,-2.5269158522235315,6.112338888436117,1.0177472829818726,-2.4441221396075647
1708435286.1336935,-2.1423704624176025,-1.3337984842113038,-2.5268831888781946,6.1122991917426965,1.0177385807037354,-2.4441707769977015
1708435286.1356905,-2.142395496368408,-1.3338588786176224,-2.5268874804126185,6.1123846648033044,1.0177178382873535,-2.44413406053652
1708435286.1376998,-2.142392873764038,-1.3338384342244645,-2.5268874804126185,6.112405168801107,1.0177595615386963,-2.4441877047168177
1708435286.1396947,-2.142397403717041,-1.3338027608445664,-2.5268994013415735,6.1123846648033044,1.0177758932113647,-2.4441707769977015
1708435286.141681,-2.1424338817596436,-1.333802194600441,-2.5268710295306605,6.112356173783102,1.0177385807037354,-2.4441221396075647
1708435286.143683,-2.1424179077148438,-1.3338384342244645,-2.526874605809347,6.112343179970541,1.0177104473114014,-2.4441502729998987
1708435286.1456833,-2.1424291133880615,-1.333822564487793,-2.5268548170672815,6.112318265229025,1.0177385807037354,-2.4441426436053675
1708435286.147689,-2.1423635482788086,-1.3338718128255387,-2.5268874804126185,6.112347590714254,1.017694115638733,-2.4441750685321253
1708435286.1497064,-2.1424460411071777,-1.333810643558838,-2.526841704045431,6.112351882248678,1.017723560333252,-2.444167677556173
1708435286.1516957,-2.1424248218536377,-1.3338021647981186,-2.5268502871142786,6.11236737945632,1.0177266597747803,-2.4441383520709437
1708435286.1536915,-2.142400026321411,-1.3337814074805756,-2.5269036928759974,6.112360465317526,1.017722249031067,-2.4441092650042933
1708435286.1556911,-2.1424248218536377,-1.333835483794548,-2.5268874804126185,6.112364160805502,1.017730951309204,-2.444145981465475
1708435286.1576946,-2.1424460411071777,-1.3338312071612854,-2.5268920103656214,6.112389075547018,1.0177223682403564,-2.4441102186786097
1708435286.159687,-2.142401933670044,-1.333834246998169,-2.5268831888781946,6.112364160805502,1.0176984071731567,-2.4441383520709437
1708435286.1616952,-2.142392873764038,-1.333847091799118,-2.5269246737109583,6.112364160805502,1.0177104473114014,-2.4441919962512415
1708435286.1637306,-2.1424338817596436,-1.3337661039880295,-2.5268591086017054,6.11230348327712,1.0177028179168701,-2.444113556538717
1708435286.1657052,-2.1423885822296143,-1.333810643558838,-2.5268994013415735,6.112338888436117,1.0176984071731567,-2.444117848073141
1708435286.167713,-2.1423704624176025,-1.3338192862323304,-2.5268548170672815,6.112351882248678,1.0177147388458252,-2.444137159978048
1708435286.1697025,-2.142453908920288,-1.333773673777916,-2.5268831888781946,6.1123554585273645,1.017674207687378,-2.4441707769977015
1708435286.171689,-2.1424338817596436,-1.333794118171074,-2.5268548170672815,6.1123225567634485,1.017719030380249,-2.4441004435168665
1708435286.173695,-2.142401933670044,-1.333781437282898,-2.5268667379962366,6.11230348327712,1.017707347869873,-2.4441426436053675
1708435286.1756845,-2.142408847808838,-1.333810643558838,-2.5268667379962366,6.112319695740499,1.0176327228546143,-2.444117848073141
1708435286.1777189,-2.142392873764038,-1.3338149946979065,-2.5268502871142786,6.11230348327712,1.0176904201507568,-2.4441383520709437
1708435286.179715,-2.1424202919006348,-1.3338225942901154,-2.5269203821765345,6.1123520014579675,1.017687201499939,-2.4441426436053675
1708435286.1817122,-2.142413377761841,-1.3337984842113038,-2.5268951098071497,6.112346756249227,1.0176533460617065,-2.444113556538717
1708435286.1837401,-2.1423840522766113,-1.3338064414313813,-2.5268951098071497,6.112360465317526,1.017674207687378,-2.444101635609762
1708435286.1856983,-2.142392873764038,-1.3338354688933869,-2.5268710295306605,6.112326967507162,1.01767098903656,-2.444117848073141
1708435286.1877067,-2.1423885822296143,-1.3338192415288468,-2.526862446461813,6.112312066345968,1.017687201499939,-2.444179360066549
1708435286.189681,-2.1424505710601807,-1.3338027608445664,-2.5268386046039026,6.112360465317526,1.0176827907562256,-2.4441750685321253
1708435286.191694,-2.1423704624176025,-1.3337984544089814,-2.5268831888781946,6.112352955132284,1.0176546573638916,-2.444101635609762
1708435286.1937323,-2.142408847808838,-1.3338192713311692,-2.526900593434469,6.112355339318075,1.017674207687378,-2.4441145102130335
1708435286.1956897,-2.1423840522766113,-1.333842695956566,-2.5268994013415735,6.112335669785299,1.0177034139633179,-2.4441221396075647
1708435286.1977222,-2.142462968826294,-1.333842695956566,-2.5268667379962366,6.112299072533407,1.0176293849945068,-2.4441102186786097
1708435286.1997344,-2.142408847808838,-1.3337985289147873,-2.5268667379962366,6.112312066345968,1.0176665782928467,-2.4441145102130335
1708435286.2017365,-2.142392873764038,-1.3337907654098053,-2.5268710295306605,6.112315404206075,1.0176503658294678,-2.4440982977496546
1708435286.2037423,-2.1423795223236084,-1.3338632446578522,-2.5268994013415735,6.112335669785299,1.0176796913146973,-2.4441092650042933
1708435286.2056925,-2.1424202919006348,-1.333789886241295,-2.5268591086017054,6.112388956337728,1.017638087272644,-2.4440940062152308
1708435286.207703,-2.1424202919006348,-1.3338354688933869,-2.5268710295306605,6.112328278809347,1.0176708698272705,-2.4441221396075647
1708435286.2096999,-2.142408847808838,-1.3338311922601243,-2.5268951098071497,6.1123846648033044,1.01767098903656,-2.4441307226764124
1708435286.211694,-2.1424291133880615,-1.333794118171074,-2.5268548170672815,6.112306701927938,1.0177034139633179,-2.444105927144186
1708435286.2136936,-2.1423680782318115,-1.3337533187917252,-2.5268874804126185,6.112335669785299,1.0176546573638916,-2.4441102186786097
1708435286.215703,-2.142462968826294,-1.3337694865516205,-2.5268831888781946,6.112393247872152,1.0176798105239868,-2.4441145102130335
1708435286.2177212,-2.1423885822296143,-1.3338192266276856,-2.526928965245382,6.1122792837913416,1.0176424980163574,-2.4441028277026575
1708435286.2197325,-2.142413377761841,-1.3338192266276856,-2.5268951098071497,6.11230348327712,1.017659068107605,-2.444105927144186
1708435286.2217162,-2.142437219619751,-1.3338192415288468,-2.5268548170672815,6.112291204720297,1.017626166343689,-2.4440727869616907
1708435286.223701,-2.1424460411071777,-1.3338063967278977,-2.5268951098071497,6.11230348327712,1.0176217555999756,-2.4440727869616907
1708435286.225684,-2.142397403717041,-1.3337617230466385,-2.5268591086017054,6.1122991917426965,1.0176513195037842,-2.4440489451037806
1708435286.2277067,-2.1423749923706055,-1.333802194600441,-2.5268753210650843,6.112312066345968,1.0176424980163574,-2.4440858999835413
1708435286.2296975,-2.1424248218536377,-1.33383001506839,-2.5268994013415735,6.112282621651449,1.0176513195037842,-2.444111410771505
1708435286.231685,-2.1423704624176025,-1.3337822568467637,-2.5268994013415735,6.112307774811544,1.0176591873168945,-2.4441264311419886
1708435286.2337134,-2.1423749923706055,-1.333842695956566,-2.5268667379962366,6.112344133644857,1.0175856351852417,-2.444090191517965
1708435286.2356958,-2.1424224376678467,-1.3338384342244645,-2.526907269154684,6.112312066345968,1.0176349878311157,-2.4441102186786097
1708435286.2377245,-2.1424291133880615,-1.3338184219649811,-2.5268591086017054,6.112320768624105,1.0176020860671997,-2.4440489451037806
1708435286.2397246,-2.142397403717041,-1.3337823015502472,-2.526863400136129,6.1122792837913416,1.0175855159759521,-2.444090191517965
1708435286.2417064,-2.1424338817596436,-1.3338063818267365,-2.526863400136129,6.112291204720297,1.0176184177398682,-2.4440253416644495
1708435286.2437465,-2.1423840522766113,-1.3338546466878434,-2.5268505255328577,6.112344252854147,1.0175899267196655,-2.444066349660055
1708435286.2459185,-2.1424202919006348,-1.333798499112465,-2.5268753210650843,6.1122991917426965,1.0176153182983398,-2.4440696875201624
1708435286.2477138,-2.142338752746582,-1.333847002392151,-2.5268667379962366,6.112325060158529,1.0175617933273315,-2.4440651575671595
1708435286.2497025,-2.142397403717041,-1.333785743718483,-2.5268428961383265,6.1122792837913416,1.017578125,-2.444070641194479
1708435286.2516963,-2.1424248218536377,-1.3338225942901154,-2.5268386046039026,6.112339961319723,1.0175495147705078,-2.44407827058901
1708435286.2537167,-2.1424179077148438,-1.3337941628745575,-2.5268548170672815,6.112328278809347,1.0175824165344238,-2.4440348784076136
1708435286.2556887,-2.142397403717041,-1.333842710857727,-2.5268340746508997,6.112323987274923,1.0175660848617554,-2.444026295338766
1708435286.2577102,-2.142441511154175,-1.3338027459434052,-2.526896301900045,6.1122954962547205,1.0175824165344238,-2.4440305868731897
1708435286.2597048,-2.1423840522766113,-1.333790810113289,-2.5269246737109583,6.112286913185873,1.0175495147705078,-2.4440673033343714
1708435286.2616942,-2.1423885822296143,-1.333854616885521,-2.526884142552511,6.1122954962547205,1.0175329446792603,-2.4440835157977503
1708435286.2637353,-2.142392873764038,-1.3338063818267365,-2.5268548170672815,6.112312066345968,1.0176241397857666,-2.444010082875387
1708435286.2657406,-2.142413377761841,-1.3338027608445664,-2.5268428961383265,6.1122954962547205,1.0175286531448364,-2.4440305868731897
1708435286.2677078,-2.1424179077148438,-1.3338149946979065,-2.5268548170672815,6.112312066345968,1.0175704956054688,-2.4439900557147425
1708435286.2696807,-2.1424202919006348,-1.3338149201921006,-2.5268059412585657,6.112312066345968,1.0175912380218506,-2.444014374409811
1708435286.2716823,-2.142401933670044,-1.3338149946979065,-2.5268340746508997,6.112312066345968,1.0175868272781372,-2.4440305868731897
1708435286.2737458,-2.1423704624176025,-1.3338632446578522,-2.526912514363424,6.112312066345968,1.0175867080688477,-2.4440024534808558
1708435286.2757058,-2.1423885822296143,-1.3337822717479249,-2.5268753210650843,6.112316596298971,1.0175495147705078,-2.4440296331988733
1708435286.277714,-2.142404317855835,-1.333773673777916,-2.5268428961383265,6.1122954962547205,1.0175451040267944,-2.4440467993365687
1708435286.2797616,-2.142408847808838,-1.3338149797967453,-2.526817862187521,6.112344252854147,1.017591118812561,-2.444005791340963
1708435286.2817023,-2.1423885822296143,-1.3337941479733963,-2.5268831888781946,6.11230360248641,1.0175671577453613,-2.444022003804342
1708435286.2837229,-2.1423704624176025,-1.333810643558838,-2.5268917719470423,6.112312066345968,1.0175329446792603,-2.444026295338766
1708435286.285713,-2.142441511154175,-1.3338149648955842,-2.5268591086017054,6.112325060158529,1.0175671577453613,-2.4440394083606165
1708435286.2877085,-2.1424877643585205,-1.3337737035802384,-2.526879612599508,6.11230348327712,1.017562747001648,-2.4440510908709925
1708435286.2896872,-2.1424224376678467,-1.333810643558838,-2.5268386046039026,6.112270700722494,1.0175583362579346,-2.4440231958972376
1708435286.2917013,-2.142406463623047,-1.3338021647981186,-2.526867691670553,6.112307774811544,1.0175912380218506,-2.4439693132983606
1708435286.2937222,-2.1423885822296143,-1.3338589084199448,-2.526801649724142,6.112316477089681,1.017562747001648,-2.4440177122699183
1708435286.2957122,-2.1424505710601807,-1.3338027608445664,-2.5268548170672815,6.112307774811544,1.0175704956054688,-2.444042507802145
1708435286.2977326,-2.1424224376678467,-1.3338070523789902,-2.526896301900045,6.112339842110433,1.0175461769104004,-2.4440394083606165
1708435286.2997231,-2.142413377761841,-1.3337575656226655,-2.5268471876727503,6.112344252854147,1.017529845237732,-2.443998161946432
1708435286.3017702,-2.142392873764038,-1.3338021647981186,-2.526863400136129,6.112282621651449,1.0175210237503052,-2.4439895788775843
1708435286.3037863,-2.142397403717041,-1.3338106584599991,-2.5268753210650843,6.112312066345968,1.017591118812561,-2.443993870412008
1708435286.305701,-2.142408847808838,-1.3338268262198945,-2.526879612599508,6.112364876061239,1.0175583362579346,-2.443976942692892
1708435286.3077178,-2.142441511154175,-1.3337660890868683,-2.5268591086017054,6.112347590714254,1.017562747001648,-2.443976942692892
1708435286.3096921,-2.1423885822296143,-1.333785743718483,-2.526863400136129,6.112312066345968,1.0175210237503052,-2.4440112749682825
1708435286.3116903,-2.1424248218536377,-1.3338063967278977,-2.5268266836749476,6.112336981087484,1.0175671577453613,-2.4439855257617396
1708435286.313691,-2.1423661708831787,-1.3337899160436173,-2.5268147627459925,6.112336981087484,1.017562747001648,-2.4440231958972376
1708435286.3156967,-2.1423749923706055,-1.3337779206088562,-2.5268591086017054,6.112360465317526,1.0175461769104004,-2.4440274874316614
1708435286.317684,-2.142441511154175,-1.3337984544089814,-2.5268266836749476,6.112312066345968,1.017529845237732,-2.4439943472491663
1708435286.319715,-2.142350196838379,-1.333819256430008,-2.5268471876727503,6.11230348327712,1.0175671577453613,-2.4440186659442347
1708435286.3216908,-2.142437219619751,-1.3338192415288468,-2.5268190542804163,6.112299906998434,1.0175299644470215,-2.443948809300558
1708435286.3237424,-2.1423749923706055,-1.3337979328683396,-2.5268102327929896,6.112307774811544,1.0175167322158813,-2.444014374409811
1708435286.3256922,-2.1423840522766113,-1.3338311624578019,-2.5268471876727503,6.112287986069479,1.017541766166687,-2.4440069834338587
1708435286.3277354,-2.142441511154175,-1.3338183921626587,-2.5268591086017054,6.112333881645956,1.0175210237503052,-2.4440024534808558
1708435286.3296952,-2.1424291133880615,-1.3338427555612107,-2.526867930089132,6.112335669785299,1.0175583362579346,-2.443965021763937
1708435286.3316982,-2.142415761947632,-1.333810643558838,-2.526867691670553,6.112312066345968,1.0175671577453613,-2.4440069834338587
1708435286.3336916,-2.1424717903137207,-1.333769441848137,-2.526863400136129,6.112312066345968,1.0175548791885376,-2.4439855257617396
1708435286.335688,-2.142392873764038,-1.3337456446937104,-2.526863400136129,6.112344252854147,1.0175342559814453,-2.4440024534808558
1708435286.3377006,-2.1424202919006348,-1.3338022244027634,-2.5268428961383265,6.1122954962547205,1.0175461769104004,-2.443965021763937
1708435286.3396974,-2.142415761947632,-1.3338384491256257,-2.526867691670553,6.112312066345968,1.017513632774353,-2.444014374409811
1708435286.3416915,-2.1424741744995117,-1.333863229756691,-2.526863400136129,6.112319695740499,1.0175505876541138,-2.443993870412008
1708435286.3437064,-2.1424202919006348,-1.333810643558838,-2.5268383661853235,6.112323987274923,1.017547369003296,-2.4440069834338587
1708435286.3456872,-2.142397403717041,-1.3337865781835099,-2.526843849812643,6.112344252854147,1.0175223350524902,-2.4440186659442347
1708435286.3478038,-2.142458438873291,-1.3338355135968705,-2.5268071333514612,6.112312066345968,1.0175461769104004,-2.443998161946432
1708435286.3497233,-2.142413377761841,-1.3338235032609482,-2.5268102327929896,6.112270700722494,1.0175254344940186,-2.4440274874316614
1708435286.3517232,-2.1424450874328613,-1.333810643558838,-2.526794497166769,6.112315404206075,1.0175057649612427,-2.4439855257617396
1708435286.353704,-2.1423795223236084,-1.3338183772614975,-2.5267816225634974,6.112312066345968,1.0175180435180664,-2.4440231958972376
1708435286.355712,-2.142395496368408,-1.3337941479733963,-2.5268190542804163,6.112307774811544,1.0175057649612427,-2.4440231958972376
1708435286.3576968,-2.142453908920288,-1.3337822568467637,-2.526811424885885,6.112328278809347,1.0175057649612427,-2.4439943472491663
1708435286.3596978,-2.1424450874328613,-1.3337737035802384,-2.526785914097921,6.112237918167867,1.0175013542175293,-2.4439693132983606
1708435286.361698,-2.1424496173858643,-1.333797962670662,-2.52682334581484,6.112299906998434,1.017531156539917,-2.4440024534808558
1708435286.3637087,-2.142465353012085,-1.3338311922601243,-2.5267871061908167,6.11229561546401,1.0174776315689087,-2.443998161946432
1708435286.3657126,-2.1424238681793213,-1.3337856841138382,-2.526762072240011,6.112316477089681,1.017510175704956,-2.444026295338766
1708435286.3676927,-2.142461061477661,-1.3338546764901658,-2.5268076101886194,6.112325060158529,1.0174894332885742,-2.443956438695089
1708435286.3696835,-2.142469882965088,-1.3338675063899537,-2.5267632643329065,6.112351882248678,1.017465353012085,-2.444010082875387
1708435286.3716936,-2.142453908920288,-1.3337865483811875,-2.5267589727984827,6.112339842110433,1.0174487829208374,-2.4439693132983606
1708435286.3737106,-2.1424496173858643,-1.333839790230133,-2.526788298283712,6.112328278809347,1.0174530744552612,-2.44399863878359
1708435286.3756905,-2.142432689666748,-1.3338268262198945,-2.5267513434039515,6.112312066345968,1.0174938440322876,-2.4440317789660853
1708435286.3777363,-2.1424520015716553,-1.3338070225766678,-2.5267391840564173,6.11226640918807,1.0175070762634277,-2.4440024534808558
1708435286.3797123,-2.1424496173858643,-1.3337941479733963,-2.5267837683307093,6.112312066345968,1.017498254776001,-2.4440069834338587
1708435286.3817499,-2.142428159713745,-1.3337778908065339,-2.5267229715930384,6.112364876061239,1.0174368619918823,-2.443993870412008
1708435286.3837457,-2.1424317359924316,-1.3337979328683396,-2.5267229715930384,6.112405168801107,1.0174907445907593,-2.4440274874316614
1708435286.385738,-2.1424450874328613,-1.3338021796992798,-2.526743475590841,6.112328278809347,1.0175026655197144,-2.444014374409811
1708435286.387721,-2.142489194869995,-1.333802194600441,-2.526710812245504,6.112312066345968,1.0175278186798096,-2.4439855257617396
1708435286.3897016,-2.142476797103882,-1.333835483794548,-2.526743475590841,6.112347590714254,1.017465353012085,-2.4440069834338587
1708435286.3917022,-2.142428159713745,-1.3338268411210557,-2.526719395314352,6.11234866359786,1.017498254776001,-2.4439900557147425
1708435286.393695,-2.1424193382263184,-1.3337979030660172,-2.526784960423605,6.1122991917426965,1.0174907445907593,-2.4439855257617396
1708435286.3957362,-2.1424477100372314,-1.3338342768004914,-2.5267229715930384,6.112307774811544,1.017486333847046,-2.4440394083606165
1708435286.3977156,-2.142467975616455,-1.3338354390910645,-2.526715103779928,6.1123520014579675,1.0174741744995117,-2.4440231958972376
1708435286.3997138,-2.142489194869995,-1.333822564487793,-2.526731554661886,6.112377035408773,1.0174951553344727,-2.4439531008349817
1708435286.4017596,-2.1424272060394287,-1.333826870923378,-2.526743475590841,6.112323987274923,1.0174620151519775,-2.4439707438098353
1708435286.4037542,-2.142472505569458,-1.3338192713311692,-2.5267229715930384,6.112339961319723,1.0174697637557983,-2.4439900557147425
1708435286.4057505,-2.142493724822998,-1.3338193011334916,-2.5267348925219935,6.1122991917426965,1.0174620151519775,-2.443998161946432
1708435286.407729,-2.1424858570098877,-1.3338342618993302,-2.5267186800586146,6.112328278809347,1.0174620151519775,-2.4440112749682825
1708435286.40972,-2.142428159713745,-1.333835483794548,-2.5267348925219935,6.11234866359786,1.0174412727355957,-2.4440348784076136
1708435286.4117112,-2.1424193382263184,-1.333782286649086,-2.5266900698291224,6.11230348327712,1.0174872875213623,-2.4439812342273157
1708435286.413702,-2.1424429416656494,-1.3338063818267365,-2.5267229715930384,6.112312066345968,1.0174707174301147,-2.4440024534808558
1708435286.4157097,-2.1424477100372314,-1.3338312071612854,-2.526743475590841,6.112344252854147,1.0174294710159302,-2.4439943472491663
1708435286.4177232,-2.1424405574798584,-1.3338471216014405,-2.526731554661886,6.11230348327712,1.0174907445907593,-2.4439693132983606
1708435286.4197142,-2.142463445663452,-1.3338183623603364,-2.5267556349383753,6.112320768624105,1.017466425895691,-2.4439781347857874
1708435286.4217045,-2.142456531524658,-1.3338021647981186,-2.5267019907580774,6.112344252854147,1.0174663066864014,-2.4439531008349817
1708435286.4237406,-2.1424362659454346,-1.3338268262198945,-2.526752297078268,6.112312185555258,1.0174381732940674,-2.4439812342273157
1708435286.425696,-2.142461061477661,-1.3337908250144501,-2.526703182850973,6.112319814949789,1.0174620151519775,-2.4439855257617396
1708435286.427716,-2.142498016357422,-1.333810643558838,-2.5266900698291224,6.112331378250875,1.0174751281738281,-2.4440436998950403
1708435286.4297209,-2.142489194869995,-1.3338632446578522,-2.526743475590841,6.112351882248678,1.017408847808838,-2.4440155665027063
1708435286.431703,-2.142489194869995,-1.3338183772614975,-2.5267065207110804,6.112312066345968,1.0174620151519775,-2.4439738432513636
1708435286.4337115,-2.142498016357422,-1.3338027459434052,-2.5267229715930384,6.112319695740499,1.0174576044082642,-2.443998161946432
1708435286.4356925,-2.142493724822998,-1.3338183772614975,-2.526727263127462,6.112328278809347,1.0174951553344727,-2.4440394083606165
1708435286.4376984,-2.142456531524658,-1.3338183623603364,-2.5267446676837366,6.11237262466506,1.017482876777649,-2.4440024534808558
1708435286.4397173,-2.1424496173858643,-1.333855540757515,-2.5267391840564173,6.112307774811544,1.0175114870071411,-2.444005791340963
1708435286.441694,-2.142461061477661,-1.3338299554637452,-2.526694361363546,6.112315404206075,1.0174620151519775,-2.443998161946432
1708435286.4436977,-2.142461061477661,-1.3338106584599991,-2.526731554661886,6.112344252854147,1.0174250602722168,-2.4440186659442347
1708435286.4456859,-2.142467975616455,-1.3337898564389725,-2.526710812245504,6.112282621651449,1.0174338817596436,-2.4440112749682825
1708435286.447711,-2.142456531524658,-1.333815024500229,-2.526731554661886,6.11234866359786,1.0174620151519775,-2.4439943472491663
1708435286.449709,-2.1424520015716553,-1.3338021796992798,-2.526727263127462,6.112312066345968,1.0174412727355957,-2.4439855257617396
1708435286.451692,-2.142406940460205,-1.333814115529396,-2.526752297078268,6.1123283980186365,1.0174620151519775,-2.4440274874316614
1708435286.4536846,-2.1424849033355713,-1.333842710857727,-2.5267391840564173,6.112319814949789,1.0174576044082642,-2.444014374409811
1708435286.455689,-2.1424405574798584,-1.3337737333825608,-2.5267348925219935,6.112319814949789,1.0174413919448853,-2.4440069834338587
1708435286.4576943,-2.142502546310425,-1.333815024500229,-2.526727263127462,6.112393247872152,1.0174458026885986,-2.4439855257617396
1708435286.4596915,-2.142461061477661,-1.333781362777092,-2.5267391840564173,6.112339961319723,1.0174543857574463,-2.443976942692892
1708435286.4616942,-2.1424193382263184,-1.3338268411210557,-2.5266857782946985,6.112344252854147,1.0174412727355957,-2.4440231958972376
1708435286.4637125,-2.142456531524658,-1.3338633340648194,-2.526731554661886,6.11234866359786,1.0174500942230225,-2.44399863878359
1708435286.4657402,-2.1424813270568848,-1.3338718724301835,-2.5267065207110804,6.112312066345968,1.0174206495285034,-2.4440348784076136
1708435286.4676995,-2.1424450874328613,-1.3338027161410828,-2.5267391840564173,6.112307774811544,1.0174576044082642,-2.4440069834338587
1708435286.4696937,-2.142467975616455,-1.3338027608445664,-2.5267065207110804,6.112344252854147,1.0174741744995117,-2.443965021763937
1708435286.4716928,-2.1424813270568848,-1.3338513684323807,-2.526752297078268,6.112316477089681,1.0174531936645508,-2.4439855257617396
1708435286.473719,-2.142428159713745,-1.3337822568467637,-2.526759926472799,6.112364160805502,1.0174707174301147,-2.4439407030688685
1708435286.4756827,-2.142472505569458,-1.3337984693101426,-2.5267065207110804,6.112282621651449,1.0174294710159302,-2.4440394083606165
1708435286.4776835,-2.1424362659454346,-1.3337984693101426,-2.526752297078268,6.112312066345968,1.0174663066864014,-2.4439407030688685
1708435286.4796891,-2.1425070762634277,-1.3338461977294465,-2.526743475590841,6.112323987274923,1.0174663066864014,-2.4439824263202112
1708435286.4816844,-2.142428159713745,-1.3338106584599991,-2.526694361363546,6.112335669785299,1.0174620151519775,-2.4440112749682825
1708435286.483704,-2.1424317359924316,-1.3337865334800263,-2.5267470518695276,6.112312066345968,1.017417550086975,-2.4439900557147425
1708435286.4856958,-2.142461061477661,-1.3338268560222168,-2.5267513434039515,6.11230360248641,1.0174294710159302,-2.4439855257617396
1708435286.4877284,-2.142472505569458,-1.333819256430008,-2.526743475590841,6.112328278809347,1.0174750089645386,-2.4440069834338587
1708435286.4897044,-2.142472505569458,-1.3337779206088562,-2.526764456425802,6.1122991917426965,1.0174338817596436,-2.4440069834338587
1708435286.4916844,-2.142498254776001,-1.333850459461548,-2.5267391840564173,6.1122792837913416,1.0174620151519775,-2.4439900557147425
1708435286.4936838,-2.142467975616455,-1.3338192862323304,-2.5267520586596888,6.1122954962547205,1.0174741744995117,-2.4439318815814417
1708435286.4956958,-2.142463445663452,-1.3338106584599991,-2.526727263127462,6.112319814949789,1.017478585243225,-2.4440394083606165
1708435286.497695,-2.1424520015716553,-1.333815024500229,-2.5267229715930384,6.112369167595663,1.017466425895691,-2.4440069834338587
1708435286.499687,-2.142461061477661,-1.3337736588767548,-2.5267391840564173,6.112360465317526,1.0174458026885986,-2.443965021763937
1708435286.5017214,-2.1424477100372314,-1.3338312369636078,-2.526743475590841,6.11230348327712,1.0174620151519775,-2.4439693132983606
1708435286.503733,-2.142456531524658,-1.3338589829257508,-2.5267348925219935,6.112312066345968,1.0174500942230225,-2.4440069834338587
1708435286.505706,-2.1424849033355713,-1.333777905707695,-2.5267348925219935,6.112352955132284,1.0174576044082642,-2.443976942692892
1708435286.507698,-2.142461061477661,-1.333794118171074,-2.526743475590841,6.112328278809347,1.017433762550354,-2.4440069834338587
1708435286.5097027,-2.1424405574798584,-1.3338354539922257,-2.5267391840564173,6.11230348327712,1.0174872875213623,-2.4439855257617396
1708435286.5117044,-2.142467975616455,-1.3338149946979065,-2.5267601648913782,6.112360465317526,1.0174531936645508,-2.4440317789660853
1708435286.5136952,-2.142489433288574,-1.333850459461548,-2.526771847401754,6.112328278809347,1.017482876777649,-2.443965021763937
1708435286.515699,-2.142428159713745,-1.3337736439755936,-2.5267186800586146,6.112291204720297,1.0174654722213745,-2.4439738432513636
1708435286.517709,-2.142472505569458,-1.333822564487793,-2.5267306009875696,6.112312066345968,1.0174413919448853,-2.443960730229513
1708435286.5197241,-2.142493724822998,-1.3338796955398102,-2.526759926472799,6.112254488259115,1.0174663066864014,-2.4440317789660853
1708435286.5217009,-2.142456531524658,-1.3338312071612854,-2.5267556349383753,6.112308609276571,1.0174381732940674,-2.443965021763937
1708435286.523716,-2.142456531524658,-1.3338235032609482,-2.5267306009875696,6.1122954962547205,1.0174412727355957,-2.4440436998950403
1708435286.5257008,-2.1424405574798584,-1.3338063669255753,-2.5267556349383753,6.112299906998434,1.017478585243225,-2.44399863878359
1708435286.5276976,-2.1424238681793213,-1.3338269007257004,-2.526727263127462,6.1122227785880945,1.0174576044082642,-2.4439855257617396
1708435286.5297062,-2.142465353012085,-1.333847166304924,-2.526771847401754,6.1122717736061,1.0174620151519775,-2.4440348784076136
1708435286.5317113,-2.142402410507202,-1.3338512641242524,-2.5267306009875696,6.112283694535055,1.0174620151519775,-2.4439855257617396
1708435286.533732,-2.1424317359924316,-1.3337694567492981,-2.5267143885241907,6.112262952118673,1.017478585243225,-2.4439619223224085
1708435286.5357308,-2.142432689666748,-1.3338150394013901,-2.526771847401754,6.112296688347616,1.0174576044082642,-2.4440024534808558
1708435286.5377,-2.1424496173858643,-1.3338235777667542,-2.526743475590841,6.112289178162374,1.0174620151519775,-2.4440394083606165
1708435286.5397146,-2.142465353012085,-1.3337941032699128,-2.5267632643329065,6.112240063935079,1.0174907445907593,-2.4440024534808558
1708435286.541696,-2.142465353012085,-1.3338183772614975,-2.526740376149313,6.1122076390083215,1.0174620151519775,-2.4440069834338587
1708435286.5437155,-2.1424496173858643,-1.3338546764901658,-2.5267556349383753,6.112195598870077,1.0174576044082642,-2.4439943472491663
1708435286.5457077,-2.1424238681793213,-1.3337941330722352,-2.5267143885241907,6.112163173943319,1.0174741744995117,-2.4440112749682825
1708435286.5477564,-2.1424238681793213,-1.3338070523789902,-2.5267675558673304,6.112217414170065,1.0174458026885986,-2.4439619223224085
1708435286.5497181,-2.1424238681793213,-1.333777905707695,-2.526743475590841,6.112188088684835,1.0174741744995117,-2.4440069834338587
1708435286.5516922,-2.1425063610076904,-1.3337778610042115,-2.5267794767962855,6.112196671753683,1.0174819231033325,-2.4439824263202112
1708435286.5537224,-2.142474412918091,-1.333835483794548,-2.5267141501056116,6.11220549324111,1.0174741744995117,-2.444047991429464
1708435286.5557113,-2.1424450874328613,-1.3338513982347031,-2.526770893727438,6.112163889199056,1.0175354480743408,-2.443993870412008
1708435286.5577238,-2.142476797103882,-1.3338193160346528,-2.5267589727984827,6.112143385201254,1.0174697637557983,-2.4439855257617396
1708435286.5597055,-2.142465353012085,-1.333806337123253,-2.5267632643329065,6.112180459290304,1.017466425895691,-2.4439855257617396
1708435286.5616946,-2.142404317855835,-1.3338384342244645,-2.526788298283712,6.112185704499044,1.017498254776001,-2.4440155665027063
1708435286.5637333,-2.1423797607421875,-1.3338798147490998,-2.526709858571188,6.112152087479391,1.0174487829208374,-2.4439738432513636
1708435286.565716,-2.142415761947632,-1.3338106733611603,-2.5267143885241907,6.112152087479391,1.0174413919448853,-2.443933073674337
1708435286.5677276,-2.142456531524658,-1.3338397157243271,-2.5267348925219935,6.112204301148214,1.0174741744995117,-2.4439738432513636
1708435286.5696886,-2.142458438873291,-1.3338225793889542,-2.526743475590841,6.1120914099510095,1.0175070762634277,-2.4439812342273157
1708435286.5717697,-2.142453908920288,-1.3337694269469758,-2.5268130938159388,6.112135755806722,1.017498254776001,-2.4439576307879847
1708435286.5737188,-2.1424248218536377,-1.3338384342244645,-2.5267837683307093,6.112123834877767,1.017486333847046,-2.4439900557147425
1708435286.575702,-2.1423795223236084,-1.3338513982347031,-2.526771847401754,6.112181293755331,1.0174610614776611,-2.4439900557147425
1708435286.5777266,-2.142453908920288,-1.3337979477695008,-2.5267391840564173,6.112135875016012,1.0174741744995117,-2.444036308919088
1708435286.5797234,-2.142400026321411,-1.3337490421584626,-2.5267513434039515,6.112152087479391,1.017498254776001,-2.443948809300558
1708435286.583717,-2.142437219619751,-1.3338675957969208,-2.5267229715930384,6.112128245621481,1.0174732208251953,-2.4439943472491663
1708435286.58571,-2.142441511154175,-1.3337898266366501,-2.5267675558673304,6.11214445808486,1.0175025463104248,-2.4440069834338587
1708435286.5877252,-2.142428159713745,-1.3338278245976944,-2.5267470518695276,6.112124669342794,1.017486333847046,-2.4439855257617396
1708435286.5897324,-2.1424202919006348,-1.3337779653123398,-2.52677828470339,6.1121606705482385,1.0174939632415771,-2.4440069834338587
1708435286.591723,-2.1423885822296143,-1.3338063669255753,-2.5267589727984827,6.112054335861959,1.0174566507339478,-2.4439619223224085
1708435286.5937388,-2.1423795223236084,-1.3338027459434052,-2.5267260710345667,6.112128245621481,1.0174894332885742,-2.4439619223224085
1708435286.5957174,-2.142415761947632,-1.3337856841138382,-2.5267675558673304,6.112145530968466,1.017498254776001,-2.4440274874316614
1708435286.5977528,-2.142397403717041,-1.3337984842113038,-2.526792589818136,6.1120924828346155,1.0175144672393799,-2.444003168736593
1708435286.5997162,-2.142400026321411,-1.333826870923378,-2.5267306009875696,6.112117397576132,1.0174939632415771,-2.4439531008349817
1708435286.6017458,-2.142415761947632,-1.3338142347386857,-2.5267589727984827,6.112128960877218,1.017510175704956,-2.4439824263202112
1708435286.6037822,-2.1424291133880615,-1.333839790230133,-2.5267751852618616,6.112096774369039,1.0175299644470215,-2.4439619223224085
1708435286.6057355,-2.1424291133880615,-1.3337984842113038,-2.5268002192126673,6.112080204277792,1.017543077468872,-2.4439943472491663
1708435286.6077483,-2.142413377761841,-1.3338396561196824,-2.526738230382101,6.112088191300192,1.0175342559814453,-2.4439287821399134
1708435286.6097076,-2.142437219619751,-1.3338183623603364,-2.5267675558673304,6.112128960877218,1.0175223350524902,-2.4439619223224085
1708435286.6117043,-2.1424248218536377,-1.3338225793889542,-2.526717487965719,6.112108695297994,1.0175342559814453,-2.443986956273214
1708435286.613734,-2.1423749923706055,-1.3338268411210557,-2.5267837683307093,6.112121689110555,1.0175749063491821,-2.4439361731158655
1708435286.615728,-2.142408847808838,-1.3337941330722352,-2.5267751852618616,6.112117397576132,1.0175758600234985,-2.4439662138568323
1708435286.6177256,-2.1424179077148438,-1.3338268858245392,-2.5267513434039515,6.112076985626974,1.0175749063491821,-2.44399863878359
1708435286.6197283,-2.1423795223236084,-1.3338470470956345,-2.5267632643329065,6.112096774369039,1.0175824165344238,-2.4439707438098353
1708435286.621712,-2.142415761947632,-1.3337984693101426,-2.5267470518695276,6.112019288330831,1.0175548791885376,-2.443986956273214
1708435286.6237366,-2.1423885822296143,-1.3338556301644822,-2.5267751852618616,6.112083780556478,1.017541766166687,-2.4439824263202112
1708435286.6257124,-2.1424202919006348,-1.3337865632823487,-2.5267303625689905,6.112075793534078,1.0175793170928955,-2.4439449946032923
1708435286.6277108,-2.1424291133880615,-1.3338470470956345,-2.5267391840564173,6.112141120224752,1.017595648765564,-2.444003168736593
1708435286.6297185,-2.1424291133880615,-1.3338150095990677,-2.526771847401754,6.112104403763571,1.0175373554229736,-2.4439836184131067
1708435286.6316953,-2.142408847808838,-1.3337660741857071,-2.5267913977252405,6.112063991814413,1.0175539255142212,-2.4440155665027063
1708435286.6337311,-2.1424505710601807,-1.3338633340648194,-2.526733938847677,6.11207269409255,1.0175495147705078,-2.44399863878359
1708435286.6356995,-2.142413377761841,-1.3337823015502472,-2.526770893727438,6.112068402558126,1.017562747001648,-2.4439361731158655
1708435286.637741,-2.142401933670044,-1.3338063669255753,-2.5268450419055384,6.112088906555929,1.0175749063491821,-2.4439693132983606
1708435286.6397028,-2.142343282699585,-1.3337616932443161,-2.526750389729635,6.112047779351034,1.0175505876541138,-2.4439693132983606
1708435286.6417234,-2.142392873764038,-1.3337541830590744,-2.5267959276782435,6.11204348781661,1.0175583362579346,-2.4439824263202112
1708435286.6437147,-2.1424381732940674,-1.3338106584599991,-2.5267751852618616,6.1121054766471765,1.0175495147705078,-2.4439693132983606
1708435286.6457295,-2.1424338817596436,-1.3337898713401337,-2.526766602193014,6.112097608834066,1.0175583362579346,-2.4439619223224085
1708435286.6477182,-2.1424179077148438,-1.3337823015502472,-2.526820246373312,6.112035977631368,1.0175495147705078,-2.44399863878359
1708435286.649701,-2.1424338817596436,-1.3337779355100174,-2.526799027119772,6.112121808319845,1.0175583362579346,-2.4439449946032923
1708435286.651684,-2.142401933670044,-1.3338311922601243,-2.526766602193014,6.112053262978353,1.0176109075546265,-2.4440274874316614
1708435286.6536958,-2.1424179077148438,-1.3337941777757187,-2.526799027119772,6.112056481629171,1.0176196098327637,-2.444028679524557
1708435286.6557024,-2.142401933670044,-1.3337531995824357,-2.526848379765646,6.112084615021505,1.0175704956054688,-2.443986956273214
1708435286.6576853,-2.142408847808838,-1.3338149648955842,-2.526835266743795,6.1120149967964075,1.017566204071045,-2.443986956273214
1708435286.6596909,-2.1424338817596436,-1.3338149946979065,-2.526811424885885,6.112035977631368,1.0176153182983398,-2.4439824263202112
1708435286.661689,-2.1423885822296143,-1.333777056341507,-2.5268309752093714,6.112047779351034,1.017606496810913,-2.4440155665027063
1708435286.6637154,-2.142397403717041,-1.3338149946979065,-2.5268548170672815,6.112077104836263,1.0176109075546265,-2.4439576307879847
1708435286.6656892,-2.1424338817596436,-1.3338027459434052,-2.5268505255328577,6.112096774369039,1.0175617933273315,-2.4439531008349817
1708435286.667706,-2.1423704624176025,-1.3338512641242524,-2.5268309752093714,6.112093317299642,1.0176109075546265,-2.444040600453512
1708435286.6697288,-2.1424179077148438,-1.333794118171074,-2.526890818272726,6.112118589669027,1.0175986289978027,-2.443965021763937
1708435286.6716826,-2.142397403717041,-1.3337856990149994,-2.5268951098071497,6.112035977631368,1.0175824165344238,-2.444014374409811
1708435286.6737216,-2.1423704624176025,-1.333753303890564,-2.5269036928759974,6.112114059716024,1.0175617933273315,-2.4439199606524866
1708435286.6757157,-2.142401933670044,-1.3337412935546418,-2.5268831888781946,6.112075793534078,1.0175986289978027,-2.4439576307879847
1708435286.6777158,-2.142415761947632,-1.3337941032699128,-2.52685791650881,6.112084615021505,1.017578125,-2.444003168736593
1708435286.679728,-2.142347574234009,-1.3337865632823487,-2.5268874804126185,6.112065064698019,1.017594337463379,-2.4439738432513636
1708435286.6817248,-2.1424202919006348,-1.3337823164514084,-2.5268874804126185,6.112056481629171,1.0175496339797974,-2.4439361731158655
1708435286.6837003,-2.142401933670044,-1.3337898564389725,-2.5268917719470423,6.1121184704597376,1.017566204071045,-2.4440317789660853
1708435286.6857455,-2.142397403717041,-1.3337898564389725,-2.5268502871142786,6.1120890257652185,1.0175036191940308,-2.4439781347857874
1708435286.6877203,-2.142408847808838,-1.333842695956566,-2.5268667379962366,6.112068402558126,1.0175824165344238,-2.4440112749682825
1708435286.6897402,-2.142404317855835,-1.3338027608445664,-2.5268753210650843,6.112088906555929,1.017594337463379,-2.44399863878359
1708435286.691696,-2.142404317855835,-1.3338106584599991,-2.526884142552511,6.112088906555929,1.0175986289978027,-2.4439738432513636
1708435286.6937222,-2.1424338817596436,-1.333835483794548,-2.526862446461813,6.112096774369039,1.017622709274292,-2.4440112749682825
1708435286.695703,-2.142408847808838,-1.3338225793889542,-2.5268831888781946,6.112128960877218,1.017594337463379,-2.4440069834338587
1708435286.6977043,-2.142408847808838,-1.333826870923378,-2.5268710295306605,6.112063991814413,1.017606496810913,-2.4440069834338587
1708435286.6997051,-2.1423885822296143,-1.3337941479733963,-2.526890818272726,6.112047779351034,1.017606496810913,-2.4440024534808558
1708435286.7017326,-2.1424460411071777,-1.3338300299695511,-2.5268753210650843,6.112141239434042,1.017594337463379,-2.444014374409811
1708435286.7037725,-2.1423749923706055,-1.3338193011334916,-2.526845995579855,6.112080323487081,1.017594337463379,-2.44399863878359
1708435286.7057927,-2.1423840522766113,-1.3338063818267365,-2.5268667379962366,6.112101185112753,1.017627239227295,-2.4440155665027063
1708435286.707715,-2.1423704624176025,-1.333810643558838,-2.5268548170672815,6.112068402558126,1.0175855159759521,-2.4440231958972376
1708435286.709716,-2.142397403717041,-1.3338840168765564,-2.5268831888781946,6.112157451897421,1.0175899267196655,-2.443998161946432
1708435286.7117064,-2.142401933670044,-1.3338712018779297,-2.5269036928759974,6.112141239434042,1.0176022052764893,-2.4439781347857874
1708435286.7137122,-2.1424291133880615,-1.3338192862323304,-2.5269203821765345,6.112052190094747,1.0176438093185425,-2.4439693132983606
1708435286.7157104,-2.142404317855835,-1.3338183772614975,-2.5268591086017054,6.112136947899618,1.0176095962524414,-2.4439812342273157
1708435286.7177072,-2.1424248218536377,-1.3338470470956345,-2.5269036928759974,6.112068402558126,1.0176022052764893,-2.4440186659442347
1708435286.719725,-2.1424224376678467,-1.333765224819519,-2.5269036928759974,6.112095820694723,1.017639398574829,-2.4439531008349817
1708435286.7217257,-2.142400026321411,-1.3338149797967453,-2.5268667379962366,6.112044679909506,1.0176184177398682,-2.4440348784076136
1708435286.723708,-2.1423749923706055,-1.3338183921626587,-2.5268710295306605,6.112055408745565,1.0176349878311157,-2.4440231958972376
1708435286.7257047,-2.1423795223236084,-1.333842695956566,-2.526862446461813,6.112128960877218,1.0175889730453491,-2.443965021763937
1708435286.7277026,-2.142347574234009,-1.3338149946979065,-2.5268428961383265,6.112104403763571,1.017638087272644,-2.443998161946432
1708435286.729719,-2.1423749923706055,-1.3338268411210557,-2.5268667379962366,6.112113106041708,1.0176424980163574,-2.4440186659442347
1708435286.731798,-2.1423840522766113,-1.333810643558838,-2.5268667379962366,6.112121689110555,1.017638087272644,-2.4440467993365687
1708435286.7337632,-2.142338752746582,-1.3338268262198945,-2.526845995579855,6.112153160362997,1.0176753997802734,-2.4440718332873743
1708435286.7357008,-2.1423635482788086,-1.3338268262198945,-2.5268753210650843,6.1121487496192834,1.017659068107605,-2.444042507802145
1708435286.7376966,-2.142397403717041,-1.333835394387581,-2.526845995579855,6.112115967064657,1.0176622867584229,-2.444010082875387
1708435286.7397008,-2.142408847808838,-1.3338299852660676,-2.526863400136129,6.112136947899618,1.0176665782928467,-2.444026295338766
1708435286.741705,-2.1423840522766113,-1.333777831201889,-2.5268548170672815,6.112111675530233,1.0176459550857544,-2.444010082875387
1708435286.7437527,-2.1423661708831787,-1.3338626635125657,-2.5268505255328577,6.112124550133505,1.0176336765289307,-2.444010082875387
1708435286.7457047,-2.1424224376678467,-1.3338063818267365,-2.5268386046039026,6.112164962082662,1.0176424980163574,-2.4440630117999476
1708435286.7477095,-2.1424202919006348,-1.333802194600441,-2.5268667379962366,6.112102973252096,1.0176546573638916,-2.444066349660055
1708435286.7497258,-2.142441511154175,-1.3338311922601243,-2.5269365946399134,6.112141239434042,1.0177122354507446,-2.444070641194479
1708435286.751716,-2.1423885822296143,-1.3338426661542435,-2.526890818272726,6.112153160362997,1.0176503658294678,-2.4439852873431605
1708435286.7536983,-2.1424460411071777,-1.333802194600441,-2.5268753210650843,6.112156379013815,1.0176546573638916,-2.4440296331988733
1708435286.7557042,-2.1424291133880615,-1.3338311922601243,-2.5268331209765833,6.112152087479391,1.0176708698272705,-2.4440296331988733
1708435286.7576997,-2.1423749923706055,-1.3338063818267365,-2.526846233998434,6.112189161568441,1.017613172531128,-2.444010082875387
1708435286.759721,-2.1424381732940674,-1.333823488359787,-2.5268753210650843,6.112163889199056,1.0176708698272705,-2.4440544287311
1708435286.7617192,-2.1424291133880615,-1.333822564487793,-2.5268340746508997,6.112192380219259,1.0176634788513184,-2.444033924733297
1708435286.7637062,-2.142401933670044,-1.3338183772614975,-2.5268753210650843,6.112192380219259,1.0176503658294678,-2.444070641194479
1708435286.7657206,-2.1423661708831787,-1.3338063818267365,-2.5268710295306605,6.112158882408895,1.0176708698272705,-2.4440544287311
1708435286.7677145,-2.1424248218536377,-1.3338268262198945,-2.5269036928759974,6.112179386406698,1.0176293849945068,-2.444062058125631
1708435286.7697198,-2.1424179077148438,-1.333854616885521,-2.5268383661853235,6.11222921588973,1.0176546573638916,-2.4440134207354944
1708435286.771707,-2.142401933670044,-1.3338149797967453,-2.526817862187521,6.112257349282064,1.0176459550857544,-2.4440415541278284
1708435286.7737439,-2.142441511154175,-1.3338063818267365,-2.5268917719470423,6.11225305774764,1.0177079439163208,-2.4440134207354944
1708435286.775713,-2.1424381732940674,-1.3338354539922257,-2.526867691670553,6.112195598870077,1.0176217555999756,-2.4440868536578577
1708435286.7777178,-2.142350196838379,-1.3337814074805756,-2.5268710295306605,6.112297761231222,1.0176665782928467,-2.444038216267721
1708435286.7797155,-2.142401933670044,-1.333854616885521,-2.526829783116476,6.112244355469503,1.0176503658294678,-2.4440544287311
1708435286.78171,-2.1423840522766113,-1.333822564487793,-2.5269036928759974,6.1122768996055505,1.0176546573638916,-2.4440296331988733
1708435286.7837055,-2.1423795223236084,-1.3338069927743454,-2.5268917719470423,6.112247693329611,1.0176336765289307,-2.444090191517965
1708435286.7857087,-2.142408847808838,-1.3338063818267365,-2.5268710295306605,6.112238991051473,1.0176336765289307,-2.4440446535693567
1708435286.7877216,-2.1424338817596436,-1.3337703806212922,-2.5268920103656214,6.112301099091329,1.0176503658294678,-2.44407827058901
1708435286.789698,-2.1423704624176025,-1.3338063818267365,-2.5268710295306605,6.112301099091329,1.017625093460083,-2.444127623234884
1708435286.7916954,-2.1424291133880615,-1.3338183772614975,-2.5268917719470423,6.112304317742147,1.0176708698272705,-2.4440696875201624
1708435286.7937126,-2.1423885822296143,-1.3338311922601243,-2.5268753210650843,6.112276065140524,1.017659068107605,-2.4440651575671595
1708435286.7956924,-2.1423885822296143,-1.3337779355100174,-2.5268710295306605,6.112288105278768,1.017659068107605,-2.4441307226764124
1708435286.7977276,-2.142441511154175,-1.3337898564389725,-2.5268591086017054,6.112325179367819,1.0176708698272705,-2.4440940062152308
1708435286.799713,-2.1424291133880615,-1.333822564487793,-2.5268591086017054,6.112316477089681,1.0176665782928467,-2.4441071192370813
1708435286.80173,-2.1423840522766113,-1.333822564487793,-2.5268548170672815,6.112325179367819,1.017638087272644,-2.4441588560687464
1708435286.803737,-2.142437219619751,-1.3338299852660676,-2.5268994013415735,6.112292396813192,1.0176827907562256,-2.4441221396075647
1708435286.8058121,-2.1424248218536377,-1.333773673777916,-2.5268831888781946,6.112312066345968,1.017659068107605,-2.444125477467672
1708435286.8077183,-2.1423840522766113,-1.333773673777916,-2.5268917719470423,6.112335669785299,1.0176503658294678,-2.444125477467672
1708435286.8096995,-2.1424551010131836,-1.3338632148555298,-2.526813570653097,6.112312066345968,1.0176503658294678,-2.4441209475146692
1708435286.8116987,-2.142404317855835,-1.3338632446578522,-2.5268667379962366,6.112339961319723,1.0176503658294678,-2.444129769002096
1708435286.8137138,-2.1423885822296143,-1.3338063818267365,-2.526900593434469,6.112344252854147,1.0176708698272705,-2.4441502729998987
1708435286.8156972,-2.1423840522766113,-1.3338183772614975,-2.526879612599508,6.112347590714254,1.0176827907562256,-2.444162193928854
1708435286.8176935,-2.1424496173858643,-1.333822564487793,-2.5268221537219446,6.112375962525167,1.017699122428894,-2.4441264311419886
1708435286.819729,-2.1424338817596436,-1.3337984842113038,-2.526863400136129,6.112347590714254,1.0176708698272705,-2.444141689931051
1708435286.8217192,-2.1423885822296143,-1.333773673777916,-2.526863400136129,6.112380373268881,1.017638087272644,-2.44415790239443
1708435286.823708,-2.1423885822296143,-1.333822564487793,-2.5268591086017054,6.112356054573812,1.0176708698272705,-2.444117848073141
1708435286.8256924,-2.1424202919006348,-1.333753303890564,-2.5268831888781946,6.112359750061788,1.0176916122436523,-2.444117848073141
1708435286.8277125,-2.142401933670044,-1.333782361154892,-2.5268874804126185,6.112379300385275,1.0176753997802734,-2.444145981465475
1708435286.829739,-2.142404317855835,-1.333842695956566,-2.526879612599508,6.112400996475973,1.0176459550857544,-2.444141689931051
1708435286.8317027,-2.1424381732940674,-1.3338141602328797,-2.526870314274923,6.11236737945632,1.0176336765289307,-2.444105927144186
1708435286.8337195,-2.142350196838379,-1.3338192415288468,-2.5268710295306605,6.112334596901693,1.0176459550857544,-2.4441664854632776
1708435286.8357296,-2.1424202919006348,-1.333810643558838,-2.5268874804126185,6.112379300385275,1.0176459550857544,-2.44413406053652
1708435286.8377004,-2.1424460411071777,-1.3338027459434052,-2.5268591086017054,6.112387883454122,1.0176622867584229,-2.444141689931051
1708435286.839707,-2.142469882965088,-1.3338149946979065,-2.526896301900045,6.112392174988546,1.017659068107605,-2.444137159978048
1708435286.841735,-2.1423749923706055,-1.3338149946979065,-2.526878897343771,6.112346756249227,1.0176503658294678,-2.4441490809070032
1708435286.8437243,-2.1424291133880615,-1.3338149946979065,-2.5268471876727503,6.1123424647148035,1.0176665782928467,-2.444125477467672
1708435286.8456855,-2.142408847808838,-1.3338312071612854,-2.5268059412585657,6.11236726024703,1.0176336765289307,-2.4441383520709437
1708435286.847708,-2.142400026321411,-1.3337984842113038,-2.5268266836749476,6.112387883454122,1.0176336765289307,-2.444117848073141
1708435286.849687,-2.142432689666748,-1.3338354539922257,-2.5268428961383265,6.112375962525167,1.0176336765289307,-2.4441545645343226
1708435286.851703,-2.142441511154175,-1.3338268262198945,-2.5268505255328577,6.112338888436117,1.0176087617874146,-2.4441209475146692
1708435286.8537042,-2.142467498779297,-1.3338311922601243,-2.5268951098071497,6.11236737945632,1.0176753997802734,-2.444174830113546
1708435286.855711,-2.1424248218536377,-1.3338225942901154,-2.5268505255328577,6.112404095917501,1.0176665782928467,-2.4441664854632776
1708435286.857713,-2.1424224376678467,-1.3338192713311692,-2.5268710295306605,6.112371670990743,1.017687201499939,-2.4441545645343226
1708435286.859699,-2.1423840522766113,-1.3338268262198945,-2.526896301900045,6.112342345505514,1.0176546573638916,-2.444162193928854
1708435286.8617392,-2.1424248218536377,-1.3338027906468888,-2.5268667379962366,6.112322675972738,1.0176708698272705,-2.444129769002096
1708435286.86376,-2.1424291133880615,-1.333777056341507,-2.526878897343771,6.112387883454122,1.017638087272644,-2.4442206064807337
1708435286.8657293,-2.142404317855835,-1.333769441848137,-2.5268505255328577,6.1123705981071375,1.0176467895507812,-2.4441047350512903
1708435286.8677266,-2.1423840522766113,-1.3338396710208436,-2.5268591086017054,6.112395512848654,1.0176503658294678,-2.44413406053652
1708435286.8697107,-2.1424460411071777,-1.3338235330632706,-2.5268831888781946,6.112358677178182,1.017687201499939,-2.444125477467672
1708435286.8717005,-2.142397403717041,-1.3338470172933121,-2.5268428961383265,6.112395512848654,1.0176665782928467,-2.444125477467672
1708435286.8737273,-2.142458438873291,-1.3337822717479249,-2.5268548170672815,6.112423884659567,1.017687201499939,-2.4441707769977015
1708435286.8757017,-2.142458438873291,-1.333822564487793,-2.52685791650881,6.112395512848654,1.0176503658294678,-2.4441877047168177
1708435286.8777137,-2.1423885822296143,-1.3338149797967453,-2.5268383661853235,6.112429368286886,1.0176416635513306,-2.4441469351397913
1708435286.8797047,-2.1424338817596436,-1.3338354539922257,-2.5268667379962366,6.112399804383077,1.0176708698272705,-2.444113556538717
1708435286.8817148,-2.1423840522766113,-1.3338589084199448,-2.5268591086017054,6.112420785218038,1.017613172531128,-2.444183413182394
1708435286.8837483,-2.142404317855835,-1.3337984842113038,-2.5268426577197474,6.112358677178182,1.0176336765289307,-2.444097344075338
1708435286.885745,-2.1423749923706055,-1.3337935668281098,-2.5268591086017054,6.112371670990743,1.017659068107605,-2.4441664854632776
1708435286.8877814,-2.142400026321411,-1.3337941330722352,-2.526933256779806,6.1123846648033044,1.017638087272644,-2.4441264311419886
1708435286.8897357,-2.142428159713745,-1.3337857139161606,-2.5268874804126185,6.112379300385275,1.0176634788513184,-2.44413406053652
1708435286.8917024,-2.142437219619751,-1.3337941479733963,-2.5268920103656214,6.1123835919196985,1.0176424980163574,-2.4441707769977015
1708435286.8937287,-2.1424460411071777,-1.333753303890564,-2.526862446461813,6.112375962525167,1.0177034139633179,-2.4441545645343226
1708435286.8957117,-2.142413377761841,-1.3338717085174103,-2.5268266836749476,6.112412082939901,1.0176665782928467,-2.444097344075338
1708435286.8977282,-2.1423704624176025,-1.3338311624578019,-2.5268223921405237,6.11236737945632,1.0176796913146973,-2.4440768400775355
1708435286.899713,-2.142413377761841,-1.3337935370257874,-2.5268753210650843,6.1123705981071375,1.017638087272644,-2.44413406053652
1708435286.9017012,-2.1423795223236084,-1.333842695956566,-2.5268917719470423,6.1123424647148035,1.017638087272644,-2.4441264311419886
1708435286.9037437,-2.1424505710601807,-1.3338513237288971,-2.5268591086017054,6.112399804383077,1.0175889730453491,-2.4440770784961146
1708435286.9057393,-2.142404317855835,-1.3337984842113038,-2.526863400136129,6.112404095917501,1.0176262855529785,-2.4440982977496546
1708435286.9077203,-2.142395496368408,-1.333810643558838,-2.526878897343771,6.112432586937704,1.0176184177398682,-2.4441469351397913
1708435286.9097111,-2.1424202919006348,-1.333765224819519,-2.526896301900045,6.112415301590719,1.0176349878311157,-2.4441307226764124
1708435286.9116924,-2.1424338817596436,-1.333810643558838,-2.5268428961383265,6.112334477692404,1.0176305770874023,-2.444089714680807
1708435286.9137096,-2.142404317855835,-1.3338588488153,-2.5268386046039026,6.112374889641561,1.017605185508728,-2.4441264311419886
1708435286.9157178,-2.1424202919006348,-1.333822564487793,-2.5268591086017054,6.112387883454122,1.0176634788513184,-2.4440577665912073
1708435286.9177008,-2.142441511154175,-1.3338063818267365,-2.5268667379962366,6.112399804383077,1.0176467895507812,-2.4440739790545862
1708435286.919724,-2.1423840522766113,-1.333773673777916,-2.5268502871142786,6.112380373268881,1.0176217555999756,-2.444070641194479
1708435286.921697,-2.142453908920288,-1.3337856841138382,-2.5268753210650843,6.112387883454122,1.0176634788513184,-2.444066349660055
1708435286.9237313,-2.142437219619751,-1.3338354539922257,-2.5268505255328577,6.112356173783102,1.017605185508728,-2.4440305868731897
1708435286.9256833,-2.142437219619751,-1.333842695956566,-2.5268266836749476,6.112379300385275,1.0176305770874023,-2.4439809958087366
1708435286.9277253,-2.1424202919006348,-1.3337703806212922,-2.5268264452563685,6.112432706146993,1.017639398574829,-2.4440134207354944
1708435286.9296992,-2.142458438873291,-1.3338588488153,-2.5268428961383265,6.112364160805502,1.0176140069961548,-2.4440305868731897
1708435286.931701,-2.1423704624176025,-1.3338063818267365,-2.5268548170672815,6.112364160805502,1.017655611038208,-2.4440436998950403
1708435286.9337308,-2.1424291133880615,-1.3338384342244645,-2.5268831888781946,6.11233805397109,1.0176022052764893,-2.4440112749682825
1708435286.9357028,-2.1424551010131836,-1.3338545870831986,-2.5268383661853235,6.112331378250875,1.0176184177398682,-2.4440231958972376
1708435286.9377172,-2.142413377761841,-1.3338354539922257,-2.526867691670553,6.1123846648033044,1.0176022052764893,-2.4439824263202112
1708435286.9397004,-2.142338752746582,-1.3338225942901154,-2.5268471876727503,6.112371670990743,1.0176095962524414,-2.4439824263202112
1708435286.9416955,-2.142411470413208,-1.333802194600441,-2.5268059412585657,6.112375962525167,1.017606496810913,-2.44399863878359
1708435286.9437118,-2.1423885822296143,-1.3337857139161606,-2.5268710295306605,6.1123835919196985,1.0175691843032837,-2.444003168736593
1708435286.9457421,-2.142437219619751,-1.333810643558838,-2.5268548170672815,6.112351166992941,1.0175899267196655,-2.44393760362734
1708435286.947731,-2.1424179077148438,-1.333802194600441,-2.526863400136129,6.112392294197836,1.0175737142562866,-2.4439342657672327
1708435286.949714,-2.142400026321411,-1.3337898564389725,-2.5268428961383265,6.112338888436117,1.017627239227295,-2.443925682698385
1708435286.9517076,-2.1424202919006348,-1.3337984842113038,-2.5268309752093714,6.112326967507162,1.0176153182983398,-2.4439836184131067
1708435286.9537148,-2.1424248218536377,-1.3338354539922257,-2.5268428961383265,6.112364160805502,1.0175495147705078,-2.443909470235006
1708435286.955709,-2.1424202919006348,-1.333810643558838,-2.5268548170672815,6.112343179970541,1.017594337463379,-2.44391376176943
1708435286.957737,-2.1424460411071777,-1.3338027459434052,-2.526817862187521,6.112318265229025,1.017566204071045,-2.443848196660177
1708435286.9597347,-2.142413377761841,-1.3337979328683396,-2.5268340746508997,6.112372743874349,1.0175704956054688,-2.443918530141012
1708435286.9617152,-2.1423704624176025,-1.333814115529396,-2.5268102327929896,6.112331259041586,1.0175867080688477,-2.4438374678241175
1708435286.9637077,-2.1423840522766113,-1.3338311922601243,-2.526851479207174,6.112388956337728,1.017545223236084,-2.4438212553607386
1708435286.965704,-2.1423885822296143,-1.333781437282898,-2.5268145243274134,6.112307774811544,1.0175824165344238,-2.443854633961813
1708435286.9676983,-2.142392873764038,-1.3338268113187333,-2.5268102327929896,6.112319814949789,1.017566204071045,-2.4437719027148646
1708435286.9696953,-2.1423749923706055,-1.3338183772614975,-2.526884142552511,6.112307774811544,1.0175867080688477,-2.443772856389181
1708435286.9717128,-2.142408847808838,-1.3338027459434052,-2.526835266743795,6.112316477089681,1.0175408124923706,-2.443794552479879
1708435286.9737065,-2.1424381732940674,-1.3338027459434052,-2.5268340746508997,6.112250792771139,1.017545223236084,-2.4437409082995813
1708435286.9757068,-2.142397403717041,-1.3338354539922257,-2.5268309752093714,6.112259495049276,1.0176109075546265,-2.443749729787008
1708435286.9777203,-2.1423752307891846,-1.3338311922601243,-2.5268190542804163,6.112276065140524,1.0175867080688477,-2.443704668675558
1708435286.9797049,-2.1424381732940674,-1.333802194600441,-2.526867930089132,6.112276184349813,1.0175704956054688,-2.4436972776996058
1708435286.9817138,-2.1423840522766113,-1.3337941479733963,-2.526896301900045,6.112231480866232,1.017578125,-2.4436615149127405
1708435286.9837599,-2.1423795223236084,-1.3338027459434052,-2.526883904133932,6.11218689659194,1.0175617933273315,-2.4436376730548304
1708435286.9856935,-2.1423885822296143,-1.3337695461562653,-2.5268059412585657,6.112204301148214,1.0175342559814453,-2.4435763994800013
1708435286.9877229,-2.142397403717041,-1.3338183772614975,-2.5268309752093714,6.112204301148214,1.0175539255142212,-2.443589512501852
1708435286.9897182,-2.1423726081848145,-1.333765224819519,-2.5268340746508997,6.112208592682638,1.017562747001648,-2.4435537497149866
1708435286.9917526,-2.1423749923706055,-1.3337779355100174,-2.5268502871142786,6.112213003426351,1.0175048112869263,-2.4435671011554163
1708435286.9937217,-2.142392873764038,-1.333842695956566,-2.5268591086017054,6.112140166550436,1.0175583362579346,-2.4435017744647425
1708435286.9957237,-2.1424551010131836,-1.3337865632823487,-2.5268386046039026,6.112184870034017,1.017562747001648,-2.4434405008899134
1708435286.9977305,-2.1423656940460205,-1.3338063818267365,-2.5268505255328577,6.1121487496192834,1.0175704956054688,-2.443444792424337
1708435286.9997432,-2.1423680782318115,-1.333802194600441,-2.5268505255328577,6.112080204277792,1.017578125,-2.4433844725238245
1708435287.001695,-2.1423680782318115,-1.3337652844241639,-2.5268428961383265,6.112113106041708,1.017566204071045,-2.443343702946798
1708435287.0037868,-2.1423275470733643,-1.333810643558838,-2.526835266743795,6.112052070885458,1.0175867080688477,-2.443324867879049
1708435287.005727,-2.142392873764038,-1.3337979030660172,-2.526839558278219,6.1120290634925745,1.0175617933273315,-2.4433322588550013
1708435287.007747,-2.1423442363739014,-1.3338545870831986,-2.5268147627459925,6.111996638565817,1.0175330638885498,-2.4432602564441126
1708435287.0097046,-2.142324924468994,-1.3338268262198945,-2.5268471876727503,6.1119727967079065,1.0175539255142212,-2.4432085196124476
1708435287.0117614,-2.1423487663269043,-1.333846167927124,-2.526835266743795,6.111993300705709,1.0175583362579346,-2.4431889692889612
1708435287.0137236,-2.1423046588897705,-1.3337941330722352,-2.5268471876727503,6.111941087036886,1.017525553703308,-2.4431644121753138
1708435287.0157442,-2.1422886848449707,-1.3337865632823487,-2.5268471876727503,6.111887562065878,1.0175867080688477,-2.4431451002704065
1708435287.0177171,-2.142268180847168,-1.3337412637523194,-2.526904884968893,6.1119093773658655,1.017595648765564,-2.4430931250201624
1708435287.0197065,-2.1422524452209473,-1.333842695956566,-2.5268428961383265,6.11184440830306,1.0175329446792603,-2.443012062703268
1708435287.0216985,-2.142223358154297,-1.3338311922601243,-2.526839558278219,6.111841189652242,1.0175329446792603,-2.4429474512683313
1708435287.0237486,-2.142277240753174,-1.333802194600441,-2.5268428961383265,6.111845481186666,1.0175999402999878,-2.4429410139666956
1708435287.0257263,-2.1422667503356934,-1.333802194600441,-2.5268927256213587,6.111761796265402,1.0175495147705078,-2.442880455647604
1708435287.0277495,-2.1421730518341064,-1.333810643558838,-2.5268710295306605,6.11172496059493,1.0175704956054688,-2.4428072611438196
1708435287.0296898,-2.1421682834625244,-1.3337823015502472,-2.5268591086017054,6.1117379544074915,1.0175824165344238,-2.4427359739886683
1708435287.03169,-2.142160654067993,-1.3338470172933121,-2.526851479207174,6.111681449204244,1.017591118812561,-2.4427207151996058
1708435287.033709,-2.1421234607696533,-1.333846167927124,-2.5268753210650843,6.1116206524665735,1.017595648765564,-2.442660156880514
1708435287.0356991,-2.142141103744507,-1.3338504296592255,-2.5268309752093714,6.1116182682807825,1.0175867080688477,-2.4425557295428675
1708435287.037718,-2.1421172618865967,-1.3338711273721238,-2.5268505255328577,6.1115572331245325,1.0175495147705078,-2.4425161520587366
1708435287.0397058,-2.1420767307281494,-1.3338183772614975,-2.526879612599508,6.1115901348884485,1.0176109075546265,-2.442460362111227
1708435287.041711,-2.142085552215576,-1.3338311922601243,-2.5268874804126185,6.111466038018026,1.0176481008529663,-2.442355219517843
1708435287.0437272,-2.1420254707336426,-1.3338299852660676,-2.5268428961383265,6.1114529249961755,1.017606496810913,-2.442242685948507
1708435287.0456872,-2.1420016288757324,-1.3338183772614975,-2.5268951098071497,6.111425983696737,1.0176228284835815,-2.4422200361834925
1708435287.0476904,-2.1419575214385986,-1.3337898564389725,-2.5269323031054896,6.111410844116964,1.0176305770874023,-2.4421523253070276
1708435287.049689,-2.141930103302002,-1.3338745099357148,-2.5268502871142786,6.111386763840475,1.0175933837890625,-2.442047421132223
1708435287.0516903,-2.141869068145752,-1.333914877181389,-2.5268831888781946,6.111404168396749,1.0176467895507812,-2.441991631184713
1708435287.053725,-2.1418211460113525,-1.333926798110344,-2.526890818272726,6.111290085106649,1.017659068107605,-2.4418745676623743
