Eg3-git/Classifiers/Data Collection/u2/u2xyz3_ur3e_joint_states.csv
time,elbow_joint,shoulder_lift_joint,shoulder_pan_joint,wrist_1_joint,wrist_2_joint,wrist_3_joint
1708435330.7319195,-2.1416544914245605,-1.3334439110806962,-2.526325289403097,6.109796988755026,1.016543984413147,-1.9443615118609827
1708435330.7339034,-2.141666889190674,-1.3334310960820694,-2.526300017033712,6.109703767090597,1.0165798664093018,-1.9443796316729944
1708435330.735956,-2.1416172981262207,-1.3334481579116364,-2.526341740285055,6.109753715782919,1.0165350437164307,-1.9443705717669886
1708435330.737944,-2.1416420936584473,-1.333439664249756,-2.526278797780172,6.109679686814108,1.016543984413147,-1.9443510214435022
1708435330.739892,-2.1416306495666504,-1.333439664249756,-2.52635366121401,6.10971366146163,1.0165603160858154,-1.9444049040423792
1708435330.7418976,-2.1416375637054443,-1.333439664249756,-2.526300017033712,6.109700667649069,1.016543984413147,-1.9443748633014124
1708435330.7439048,-2.1416146755218506,-1.3334234964898606,-2.526320759450094,6.109692799835958,1.016527771949768,-1.9443963209735315
1708435330.745903,-2.141589879989624,-1.3333997887424012,-2.526300017033712,6.109704959183492,1.0165513753890991,-1.9443915526019495
1708435330.747894,-2.1415979862213135,-1.3334440749934693,-2.5263028780566614,6.109698283463278,1.0165468454360962,-1.9443720022784632
1708435330.749911,-2.1415934562683105,-1.3334563088468094,-2.526300017033712,6.109624492913046,1.0165724754333496,-1.944355312977926
1708435330.7519128,-2.1416633129119873,-1.3334739071181794,-2.526283327733175,6.109640824585714,1.0165557861328125,-1.94435960451235
1708435330.7539225,-2.1416306495666504,-1.3334321540645142,-2.526266876851217,6.109677660256185,1.0165483951568604,-1.9443677107440394
1708435330.7558784,-2.141639471054077,-1.3333831888488312,-2.526266876851217,6.109661328583517,1.0165735483169556,-1.94440204301943
1708435330.7579193,-2.1416351795196533,-1.3334246140769501,-2.526262346898214,6.109657037049093,1.0165932178497314,-1.94432241121401
1708435330.7598844,-2.1415810585021973,-1.3333998185447236,-2.526308838521139,6.109620201378622,1.0165603160858154,-1.944327179585592
1708435330.7619019,-2.1416146755218506,-1.3334174317172547,-2.526283327733175,6.109670030861654,1.0165647268295288,-1.944350544606344
1708435330.763899,-2.1415696144104004,-1.3334233474782486,-2.526325289403097,6.109554874687948,1.01651132106781,-1.9443391005145472
1708435330.7658756,-2.141594409942627,-1.3334651452353974,-2.526309076939718,6.109609353333273,1.016532063484192,-1.9443476835833948
1708435330.7679124,-2.141615629196167,-1.3333909970572968,-2.5262742678271692,6.1095852730567834,1.0165408849716187,-1.94435960451235
1708435330.7698834,-2.1416234970092773,-1.3334070307067414,-2.5262954870807093,6.109564649849691,1.0165395736694336,-1.9443357626544397
1708435330.771882,-2.14158296585083,-1.3334243160537262,-2.526283327733175,6.109589564591207,1.0165603160858154,-1.94435960451235
1708435330.7739155,-2.141594409942627,-1.3334086251309891,-2.5263074080096644,6.109650599747457,1.016576886177063,-1.9443238417254847
1708435330.7758849,-2.14153790473938,-1.333432139163353,-2.526278797780172,6.109531867295065,1.016543984413147,-1.9443405310260218
1708435330.7779162,-2.14158296585083,-1.3334233474782486,-2.526287857686178,6.109605777054586,1.0165528059005737,-1.9443195501910608
1708435330.7798944,-2.1415741443634033,-1.3334528070739289,-2.526262346898214,6.109516966133871,1.016539454460144,-1.9442985693561
1708435330.7818773,-2.141592025756836,-1.333432139163353,-2.526266876851217,6.109573352127828,1.0165647268295288,-1.9443195501910608
1708435330.7839108,-2.14153790473938,-1.3334277135184784,-2.5263119379626673,6.109530079155721,1.016557216644287,-1.9443042914019983
1708435330.7858818,-2.1416008472442627,-1.3334041398814698,-2.52627140680422,6.109561192780294,1.0165483951568604,-1.944303337727682
1708435330.7879002,-2.141526460647583,-1.3333743822625657,-2.5262954870807093,6.109565603524008,1.0165735483169556,-1.9442952314959925
1708435330.7898948,-2.1415491104125977,-1.3334739071181794,-2.526309076939718,6.109468090325155,1.0165408849716187,-1.9442995230304163
1708435330.7918909,-2.1415538787841797,-1.3333998334458848,-2.52621299425234,6.1095290062721155,1.016532063484192,-1.9442952314959925
1708435330.7939105,-2.1415581703186035,-1.3334041398814698,-2.5263074080096644,6.10948525646285,1.0165483951568604,-1.9443166891681116
1708435330.7958663,-2.141542434692383,-1.3334453415921708,-2.526278797780172,6.109476554184713,1.0165157318115234,-1.9443042914019983
1708435330.798014,-2.14152193069458,-1.3333711487105866,-2.52627140680422,6.109477746277609,1.016532063484192,-1.9442876021014612
1708435330.7999036,-2.141526460647583,-1.3334453415921708,-2.526292149220602,6.109498369484701,1.0165232419967651,-1.9443042914019983
1708435330.8019135,-2.141481399536133,-1.333350495701172,-2.526275936757223,6.109510290413656,1.016557216644287,-1.9442713896380823
1708435330.803927,-2.1415059566497803,-1.3333756637624283,-2.526280466710226,6.109486448555746,1.016557216644287,-1.944268051777975
1708435330.805875,-2.1415669918060303,-1.3334130209735413,-2.526292387639181,6.109477746277609,1.0165157318115234,-1.9442427794085901
1708435330.8078916,-2.141530990600586,-1.3334409457496186,-2.526317898427145,6.109453785210409,1.0165618658065796,-1.9442833105670374
1708435330.809871,-2.1415555477142334,-1.333383486872055,-2.526278797780172,6.109461176186361,1.0165292024612427,-1.944230858479635
1708435330.8118758,-2.1415274143218994,-1.333342657690384,-2.526275936757223,6.109502780228414,1.0165157318115234,-1.944205109273092
1708435330.8138876,-2.14156436920166,-1.3334052723697205,-2.526233975087301,6.109474289208212,1.0165528059005737,-1.9442604223834437
1708435330.8159099,-2.1414945125579834,-1.3333758127740403,-2.526262346898214,6.109453666001119,1.0165528059005737,-1.9442938009845179
1708435330.8178725,-2.1414856910705566,-1.3333919656327744,-2.526292387639181,6.109453666001119,1.016507625579834,-1.9442694822894495
1708435330.8199,-2.1415059566497803,-1.3333668273738404,-2.526292387639181,6.109421479492941,1.016507625579834,-1.944207016621725
1708435330.8218994,-2.1414973735809326,-1.3333831590465088,-2.526254717503683,6.109453666001119,1.0165201425552368,-1.9441946188556116
1708435330.8238926,-2.141536235809326,-1.3333800596049805,-2.52622634569277,6.109453666001119,1.016512155532837,-1.944207016621725
1708435330.825911,-2.1414945125579834,-1.3333559793284913,-2.526238266621725,6.109447586327352,1.0165245532989502,-1.9442275206195276
1708435330.8279254,-2.1414902210235596,-1.3333681386760254,-2.526275936757223,6.109434473305502,1.0165245532989502,-1.9442365805255335
1708435330.829915,-2.1414830684661865,-1.3333470982364197,-2.526242796574728,6.1094223139579675,1.0164824724197388,-1.9442113081561487
1708435330.8318906,-2.141510486602783,-1.3334423017552872,-2.526254717503683,6.109451758652487,1.016533613204956,-1.944207016621725
1708435330.833887,-2.1414921283721924,-1.3333800596049805,-2.526259247456686,6.109447586327352,1.0165201425552368,-1.9441898504840296
1708435330.8358815,-2.1414709091186523,-1.3333440583995362,-2.526275936757223,6.109394061356344,1.0165661573410034,-1.9441617170916956
1708435330.8378987,-2.141510486602783,-1.3334201288274308,-2.52622634569277,6.109398472100057,1.016512155532837,-1.9441497961627405
1708435330.8398983,-2.141510486602783,-1.3333726239255448,-2.526254717503683,6.109394895821371,1.0164868831634521,-1.9442032019244593
1708435330.8418899,-2.14154052734375,-1.3333726537278672,-2.526242796574728,6.109398472100057,1.016474962234497,-1.9442155996905726
1708435330.8438852,-2.1414787769317627,-1.3333426874927063,-2.526275936757223,6.1093331454093835,1.016512155532837,-1.9442203680621546
1708435330.8458736,-2.1414875984191895,-1.333372638826706,-2.5262473265277308,6.109394061356344,1.0165209770202637,-1.9441450277911585
1708435330.8479056,-2.141523838043213,-1.3334219616702576,-2.5262518564807337,6.109365689545431,1.0165290832519531,-1.9441826979266565
1708435330.849901,-2.1414990425109863,-1.3333470684340973,-2.5262354055987757,6.1093331454093835,1.0165201425552368,-1.9441869894610804
1708435330.851895,-2.1414918899536133,-1.3333726239255448,-2.5262473265277308,6.109378683357992,1.016512155532837,-1.9441989103900355
1708435330.8539124,-2.141475200653076,-1.3334263128093262,-2.526250425969259,6.109402763634481,1.0164541006088257,-1.9441660086261194
1708435330.8558733,-2.1414830684661865,-1.3333919805339356,-2.52622634569277,6.109353768616476,1.0165002346038818,-1.9441750685321253
1708435330.8579173,-2.1414787769317627,-1.333372638826706,-2.52622634569277,6.1093177674110315,1.016467571258545,-1.9441540876971644
1708435330.859896,-2.141479730606079,-1.333384470348694,-2.5262637774096888,6.109284508019247,1.0164958238601685,-1.9441588560687464
1708435330.861908,-2.141496419906616,-1.3333726239255448,-2.5262637774096888,6.109308945923605,1.016525387763977,-1.944155518208639
1708435330.8638952,-2.1414380073547363,-1.3333933812430878,-2.5262022654162806,6.109346139221945,1.016467571258545,-1.9441793600665491
1708435330.8658733,-2.1414709091186523,-1.3333844554475327,-2.5262725988971155,6.1093623516853235,1.0164958238601685,-1.9442203680621546
1708435330.8678865,-2.141453981399536,-1.3333426874927063,-2.5262399355517786,6.109346139221945,1.016467571258545,-1.9441750685321253
1708435330.8698707,-2.141475200653076,-1.333396391277649,-2.526284996663229,6.109407055168905,1.016467571258545,-1.9441869894610804
1708435330.8718715,-2.141475200653076,-1.3334130507758637,-2.5262280146228235,6.109289872437277,1.0164763927459717,-1.9442170302020472
1708435330.8739083,-2.141453981399536,-1.3333559793284913,-2.52622634569277,6.109288799553671,1.0164927244186401,-1.9441793600665491
1708435330.8758714,-2.141500949859619,-1.333359346990921,-2.5262354055987757,6.109346139221945,1.016467571258545,-1.944205109273092
1708435330.8778765,-2.141446828842163,-1.3333307367614289,-2.5262189547168177,6.109351265221395,1.0165002346038818,-1.944129769002096
1708435330.8799121,-2.1414382457733154,-1.3333559793284913,-2.52622634569277,6.109337556153097,1.016513466835022,-1.9441793600665491
1708435330.8819,-2.141505241394043,-1.3334130507758637,-2.5262399355517786,6.109350549965658,1.016513466835022,-1.9441631476031702
1708435330.8839152,-2.1415212154388428,-1.3333559793284913,-2.5262444655047815,6.109354841500082,1.0165046453475952,-1.9441421667682093
1708435330.8859148,-2.141462802886963,-1.3333593171885987,-2.5262563864337366,6.109325277596273,1.0164390802383423,-1.944172207509176
1708435330.8878818,-2.1414716243743896,-1.333384470348694,-2.526259247456686,6.109301793366232,1.0164763927459717,-1.944172207509176
1708435330.8898752,-2.1414425373077393,-1.3334290546229859,-2.5262399355517786,6.109346139221945,1.0164971351623535,-1.9441631476031702
1708435330.8918931,-2.141484022140503,-1.333384470348694,-2.5262067953692835,6.109338271408834,1.0164597034454346,-1.9441793600665491
1708435330.8938892,-2.141479730606079,-1.333342657690384,-2.5262473265277308,6.109285580902853,1.0164942741394043,-1.944117848073141
1708435330.8958933,-2.1414883136749268,-1.3333963763764878,-2.5262609163867396,6.109313356667318,1.0164597034454346,-1.944155518208639
1708435330.8979661,-2.141505241394043,-1.3333770495704194,-2.5262518564807337,6.109309065132894,1.016431212425232,-1.944134537373678
1708435330.899952,-2.141451358795166,-1.3333919805339356,-2.5262234846698206,6.109313356667318,1.0164731740951538,-1.944134537373678
1708435330.9018993,-2.141435384750366,-1.333388940697052,-2.5262399355517786,6.109338271408834,1.0164642333984375,-1.9441388289081019
1708435330.9038975,-2.141484022140503,-1.333342657690384,-2.5261781851397913,6.109297382622518,1.0164445638656616,-1.9442170302020472
1708435330.9058738,-2.141479730606079,-1.3333889704993744,-2.5262487570392054,6.109313356667318,1.0164612531661987,-1.9441469351397913
1708435330.9078958,-2.141479730606079,-1.3333188158324738,-2.5261781851397913,6.109313356667318,1.016489863395691,-1.944160286580221
1708435330.9098947,-2.141475200653076,-1.3333637428334733,-2.5262234846698206,6.109367835312643,1.0164612531661987,-1.944122616444723
1708435330.9118874,-2.141451358795166,-1.3333933812430878,-2.5262025038348597,6.1093634245689294,1.0164821147918701,-1.944134537373678
1708435330.9139123,-2.1414759159088135,-1.333377019768097,-2.5262113253222864,6.109350549965658,1.0164238214492798,-1.944172207509176
1708435330.915899,-2.1414268016815186,-1.333298073416092,-2.5261991659747522,6.109298455506124,1.0164523124694824,-1.9441388289081019
1708435330.917881,-2.141444444656372,-1.3333307367614289,-2.5262113253222864,6.109322058945455,1.0164775848388672,-1.944129769002096
1708435330.9198968,-2.141462802886963,-1.333372638826706,-2.5262067953692835,6.109313356667318,1.0164192914962769,-1.9441269079791468
1708435330.9218836,-2.141462802886963,-1.3333559793284913,-2.526187245045797,6.109322058945455,1.0164194107055664,-1.9441421667682093
1708435330.9239066,-2.1414310932159424,-1.333384470348694,-2.5262158552752894,6.10932623127059,1.0164490938186646,-1.944089714680807
1708435330.9258592,-2.141453981399536,-1.3333814603141327,-2.5261738936053675,6.109359133034506,1.016416072845459,-1.944113556538717
1708435330.927895,-2.141458511352539,-1.3333514791778107,-2.5262158552752894,6.109329569130697,1.0164401531219482,-1.944122616444723
1708435330.9298923,-2.141488552093506,-1.3333681386760254,-2.5261781851397913,6.109346139221945,1.0164204835891724,-1.9441431204425257
1708435330.9318857,-2.1414222717285156,-1.3333470684340973,-2.5261946360217493,6.109366762429037,1.016411542892456,-1.9441269079791468
1708435330.933878,-2.141462802886963,-1.3333559793284913,-2.5261738936053675,6.109302866249838,1.016416072845459,-1.9441431204425257
1708435330.9358785,-2.141451358795166,-1.3333396476558228,-2.526224676762716,6.109354841500082,1.0163878202438354,-1.944160286580221
1708435330.9378803,-2.141484022140503,-1.3333396476558228,-2.5262158552752894,6.109354841500082,1.0164371728897095,-1.9441059271441858
1708435330.939885,-2.141462802886963,-1.3333233159831543,-2.5261648336993616,6.109252798348226,1.0164533853530884,-1.944113556538717
1708435330.941871,-2.1414761543273926,-1.3333559793284913,-2.5261781851397913,6.1092930910880945,1.0164371728897095,-1.9441106955157679
1708435330.9438975,-2.14145565032959,-1.3333514791778107,-2.5261827150927942,6.109371053963461,1.016432762145996,-1.9441311995135706
1708435330.9458718,-2.141448736190796,-1.3333889704993744,-2.5262234846698206,6.1093753454978845,1.0163952112197876,-1.944068733845846
1708435330.947868,-2.1414425373077393,-1.333363727932312,-2.526224676762716,6.109301793366232,1.0163789987564087,-1.9441269079791468
1708435330.94988,-2.141451358795166,-1.3333770495704194,-2.5261827150927942,6.109298455506124,1.016411542892456,-1.9441359678851526
1708435330.9518805,-2.141462802886963,-1.3333307367614289,-2.5262113253222864,6.109400260239401,1.0164085626602173,-1.944122616444723
1708435330.9538825,-2.141479730606079,-1.333363727932312,-2.5262368361102503,6.109338271408834,1.0164204835891724,-1.944084946309225
1708435330.9558926,-2.141496419906616,-1.3334008020213624,-2.526203695927755,6.109329569130697,1.0164071321487427,-1.9441521803485315
1708435330.9578755,-2.1414716243743896,-1.3333514791778107,-2.5262113253222864,6.109301793366232,1.0164204835891724,-1.9440940062152308
1708435330.959881,-2.1414425373077393,-1.3333514791778107,-2.5261619726764124,6.109297382622518,1.0163878202438354,-1.9441359678851526
1708435330.9618638,-2.1414921283721924,-1.3333514791778107,-2.5262158552752894,6.109309065132894,1.0164085626602173,-1.9441106955157679
1708435330.9638834,-2.1414921283721924,-1.333405302172043,-2.5262532869922083,6.109313356667318,1.0163878202438354,-1.9441402594195765
1708435330.9658816,-2.141455888748169,-1.333364800815918,-2.5262368361102503,6.10933397987441,1.0163878202438354,-1.9441106955157679
1708435330.9678745,-2.1414601802825928,-1.333342657690384,-2.5262280146228235,6.109306204109945,1.016383409500122,-1.944122616444723
1708435330.9698632,-2.141451358795166,-1.3333514791778107,-2.5261781851397913,6.109285580902853,1.0164204835891724,-1.9440940062152308
1708435330.9718688,-2.1414222717285156,-1.3333396476558228,-2.526224676762716,6.109350549965658,1.0163878202438354,-1.944117848073141
1708435330.973894,-2.1414265632629395,-1.3333440583995362,-2.526175324116842,6.109369981079855,1.0164175033569336,-1.9441059271441858
1708435330.975892,-2.1414356231689453,-1.3333593171885987,-2.526187245045797,6.1093623516853235,1.016383409500122,-1.9441106955157679
1708435330.9778988,-2.1414716243743896,-1.333372638826706,-2.526187245045797,6.109407889633932,1.0164085626602173,-1.9441478888141077
1708435330.979901,-2.141505241394043,-1.333372638826706,-2.5261662642108362,6.109350549965658,1.0163967609405518,-1.9441645781146448
1708435330.9819157,-2.141447067260742,-1.3333307367614289,-2.5261991659747522,6.109353768616476,1.0163846015930176,-1.9441359678851526
1708435330.9838808,-2.1414709091186523,-1.3333396476558228,-2.526203695927755,6.109325277596273,1.0164085626602173,-1.9441240469561976
1708435330.9859045,-2.141488552093506,-1.3333603900722046,-2.5261455217944544,6.109341847687521,1.0163878202438354,-1.9441388289081019
1708435330.9878776,-2.141435384750366,-1.3333800596049805,-2.5261500517474573,6.109378683357992,1.0164012908935547,-1.9441431204425257
1708435330.9899342,-2.1414055824279785,-1.3333514791778107,-2.5261991659747522,6.1093580601509,1.016404151916504,-1.9440987745868128
1708435330.9918888,-2.141451358795166,-1.3333514791778107,-2.526208225880758,6.109378564148702,1.0164294242858887,-1.9440777937518519
1708435330.993897,-2.141488552093506,-1.3333233159831543,-2.526203695927755,6.109420168190756,1.0164130926132202,-1.9441450277911585
1708435330.9959052,-2.141418695449829,-1.333363727932312,-2.5261617342578333,6.109387385636129,1.0163800716400146,-1.9441269079791468
1708435330.998017,-2.141451358795166,-1.3333593171885987,-2.5261827150927942,6.109353768616476,1.0163711309432983,-1.9441106955157679
1708435330.9999635,-2.141500949859619,-1.3334219616702576,-2.5261917749988,6.109341847687521,1.0163800716400146,-1.944172207509176
1708435331.0020602,-2.1414425373077393,-1.333298073416092,-2.5261500517474573,6.1093623516853235,1.0163922309875488,-1.944122616444723
1708435331.003971,-2.141512393951416,-1.3333919805339356,-2.526187245045797,6.1093580601509,1.016409993171692,-1.9441521803485315
1708435331.0059414,-2.1414663791656494,-1.3334022027305146,-2.5261409918414515,6.109394895821371,1.0163711309432983,-1.9440820852862757
1708435331.0079458,-2.1414010524749756,-1.3333514791778107,-2.526142422352926,6.109366762429037,1.0163589715957642,-1.944122616444723
1708435331.0099187,-2.1414663791656494,-1.333384470348694,-2.526187245045797,6.1093904850776575,1.0163846015930176,-1.9441521803485315
1708435331.011945,-2.141453981399536,-1.333384470348694,-2.526179854069845,6.109313356667318,1.0163711309432983,-1.944117848073141
1708435331.0138743,-2.141475200653076,-1.333372638826706,-2.526175324116842,6.10938976982192,1.0163800716400146,-1.9441149870501917
1708435331.015874,-2.1414408683776855,-1.333384470348694,-2.526187245045797,6.109414684563436,1.0163589715957642,-1.9440730253802698
1708435331.0178976,-2.141462802886963,-1.3333559793284913,-2.5261662642108362,6.109377491265096,1.0163633823394775,-1.944089714680807
1708435331.019873,-2.141447067260742,-1.3333188158324738,-2.526245896016256,6.109386193543234,1.016384482383728,-1.944160286580221
1708435331.0218742,-2.1415281295776367,-1.333405302172043,-2.526208225880758,6.109386193543234,1.0163723230361938,-1.9441106955157679
1708435331.023911,-2.141453981399536,-1.333364800815918,-2.526175324116842,6.109353768616476,1.0163679122924805,-1.9441106955157679
1708435331.0258615,-2.1414177417755127,-1.3333681386760254,-2.526187245045797,6.10941897609786,1.0163978338241577,-1.944129769002096
1708435331.0279107,-2.1414618492126465,-1.3333559793284913,-2.5261917749988,6.109398472100057,1.0163440704345703,-1.9441269079791468
1708435331.02989,-2.1414670944213867,-1.3332903248122712,-2.526146952305929,6.109402763634481,1.0163679122924805,-1.9441269079791468
1708435331.0318923,-2.1414709091186523,-1.333396391277649,-2.526175324116842,6.109360205918112,1.016389012336731,-1.9440777937518519
1708435331.0339065,-2.1414620876312256,-1.3333800596049805,-2.526163403187887,6.109426605492391,1.0163352489471436,-1.944084946309225
1708435331.0359037,-2.1415212154388428,-1.333372638826706,-2.526208225880758,6.109327661782064,1.0163633823394775,-1.944122616444723
1708435331.0378876,-2.141458511352539,-1.3333559793284913,-2.526175324116842,6.109405982285299,1.016351580619812,-1.9441311995135706
1708435331.0398865,-2.1414425373077393,-1.333342657690384,-2.526142422352926,6.109433042794027,1.0163888931274414,-1.9441359678851526
1708435331.041868,-2.141467332839966,-1.3334219616702576,-2.526151482258932,6.109421479492941,1.0163723230361938,-1.9441311995135706
1708435331.043912,-2.1414875984191895,-1.3333681386760254,-2.526146952305929,6.109436261444845,1.0163440704345703,-1.9441269079791468
1708435331.045886,-2.1414618492126465,-1.3333514791778107,-2.5261917749988,6.109436261444845,1.016351580619812,-1.944134537373678
1708435331.0478888,-2.1414794921875,-1.3333756488612671,-2.526158873234884,6.109482157021322,1.0163155794143677,-1.9441521803485315
1708435331.049904,-2.1414425373077393,-1.3333889704993744,-2.526163403187887,6.109534489899435,1.0163273811340332,-1.9441569487201136
1708435331.0519128,-2.1414794921875,-1.3333024841598053,-2.526184384022848,6.109530079155721,1.016319990158081,-1.9441149870501917
1708435331.0538943,-2.1414451599121094,-1.3333559793284913,-2.526179854069845,6.109530079155721,1.0163649320602417,-1.9441478888141077
1708435331.0558765,-2.1414706707000732,-1.3333514791778107,-2.526188675557272,6.109525668412008,1.0163573026657104,-1.9440696875201624
1708435331.0579247,-2.1414618492126465,-1.333342657690384,-2.52616793314089,6.1095622656639,1.0163440704345703,-1.9441478888141077
1708435331.0598814,-2.1415035724639893,-1.3333396476558228,-2.526200596486227,6.109497177391805,1.0163155794143677,-1.9441431204425257
1708435331.0618742,-2.1414706707000732,-1.333363727932312,-2.526175324116842,6.109553563385763,1.0163110494613647,-1.9441192785846155
1708435331.0638893,-2.141453981399536,-1.3333603900722046,-2.526130501423971,6.109569775849142,1.0162992477416992,-1.9441149870501917
1708435331.065877,-2.141507863998413,-1.3332903248122712,-2.526151482258932,6.109561192780294,1.016319990158081,-1.9441478888141077
1708435331.0678895,-2.141475200653076,-1.3333188158324738,-2.526151482258932,6.109537589340963,1.0163319110870361,-1.9441645781146448
1708435331.0698953,-2.1414990425109863,-1.333342657690384,-2.526139561329977,6.109626877098837,1.016319990158081,-1.9441240469561976
1708435331.0718849,-2.1414859294891357,-1.333372638826706,-2.526139561329977,6.109582054405966,1.016306757926941,-1.9440940062152308
1708435331.0739112,-2.1414742469787598,-1.333384470348694,-2.526156012211935,6.109582054405966,1.0162992477416992,-1.9441149870501917
1708435331.0759232,-2.1414787769317627,-1.3333470684340973,-2.526146952305929,6.109650599747457,1.0163451433181763,-1.944089714680807
1708435331.0778933,-2.141507863998413,-1.333363727932312,-2.5261181036578577,6.109560358315267,1.0163319110870361,-1.944172207509176
1708435331.079904,-2.1414618492126465,-1.3333725941232224,-2.526188675557272,6.109589564591207,1.0162959098815918,-1.9440777937518519
1708435331.0818813,-2.141535997390747,-1.3333889704993744,-2.5261226336108606,6.109573352127828,1.0162913799285889,-1.9440940062152308
1708435331.0839024,-2.1414833068847656,-1.3332936328700562,-2.526179854069845,6.109629976540365,1.0163036584854126,-1.9440730253802698
1708435331.0859025,-2.1414787769317627,-1.3333427470973511,-2.526151482258932,6.109612571984091,1.016308069229126,-1.9440940062152308
1708435331.0878701,-2.1415183544158936,-1.3333756488612671,-2.526156012211935,6.1096463082130334,1.0162748098373413,-1.9441059271441858
1708435331.0898898,-2.141510486602783,-1.3333933812430878,-2.5261226336108606,6.109625565796652,1.0162913799285889,-1.944181267415182
1708435331.0918796,-2.1415016651153564,-1.333377094273903,-2.526135031376974,6.109592783242025,1.016308069229126,-1.9441149870501917
1708435331.0938914,-2.1415228843688965,-1.333321900372841,-2.5261812845813196,6.109605061798849,1.0162992477416992,-1.9441059271441858
1708435331.095888,-2.1415140628814697,-1.3333889704993744,-2.526146952305929,6.109683143883505,1.0163289308547974,-1.9441059271441858
1708435331.0979207,-2.141510486602783,-1.3333681386760254,-2.5261486212359827,6.109621274262228,1.016270399093628,-1.944129769002096
1708435331.0999298,-2.1415398120880127,-1.333384470348694,-2.526139561329977,6.109649407654562,1.0162466764450073,-1.9441311995135706
1708435331.1018922,-2.1415441036224365,-1.3333668273738404,-2.5261362234698694,6.10957549789504,1.0162992477416992,-1.9441073576556605
1708435331.1039305,-2.14158034324646,-1.333417461519577,-2.5261271635638636,6.109645116120138,1.0162748098373413,-1.9441569487201136
1708435331.1058867,-2.141571521759033,-1.3334097129157563,-2.5261107126819056,6.109645116120138,1.0163496732711792,-1.9441431204425257
1708435331.1078794,-2.1415016651153564,-1.3333514791778107,-2.52614409128298,6.109648453980245,1.0163496732711792,-1.9441478888141077
1708435331.1099036,-2.1415467262268066,-1.3333307963660737,-2.526139561329977,6.109657037049093,1.0163004398345947,-1.9441059271441858
1708435331.1118784,-2.1415600776672363,-1.3333919805339356,-2.526135031376974,6.109677541046896,1.0162925720214844,-1.9440940062152308
1708435331.1139176,-2.141509771347046,-1.333372638826706,-2.52614409128298,6.109652745514669,1.0162959098815918,-1.944113556538717
1708435331.1158917,-2.1415059566497803,-1.3334497970393677,-2.5261486212359827,6.109729993134298,1.016304850578308,-1.9441359678851526
1708435331.1178994,-2.1415512561798096,-1.3333603900722046,-2.5261226336108606,6.109672176628866,1.0162959098815918,-1.9441269079791468
1708435331.1198812,-2.1415140628814697,-1.3333559793284913,-2.526135031376974,6.109648334770956,1.0162466764450073,-1.9441431204425257
1708435331.121907,-2.1415669918060303,-1.333396391277649,-2.5261226336108606,6.109734165459432,1.016255497932434,-1.944089714680807
1708435331.1238875,-2.1415441036224365,-1.3333381575397034,-2.5261226336108606,6.109709369927206,1.0162792205810547,-1.9441559950457972
1708435331.1259058,-2.1415538787841797,-1.3334379655173798,-2.5261271635638636,6.1097015021140955,1.016309142112732,-1.9441521803485315
1708435331.1279418,-2.1415627002716064,-1.333384470348694,-2.526135031376974,6.109705793648519,1.0162391662597656,-1.944089714680807
1708435331.12987,-2.1415669918060303,-1.333372638826706,-2.5260942617999476,6.109741794853964,1.016288161277771,-1.9440730253802698
1708435331.13187,-2.1415581703186035,-1.3333470684340973,-2.5260735193835657,6.109754907875814,1.0162628889083862,-1.944181267415182
1708435331.1338816,-2.141509771347046,-1.3333307367614289,-2.5261271635638636,6.109721171646871,1.0162628889083862,-1.9441149870501917
1708435331.1359053,-2.1415581703186035,-1.3333920699409028,-2.526101891194479,6.1097082970436,1.0162628889083862,-1.9440940062152308
1708435331.137888,-2.1415600776672363,-1.3333593171885987,-2.526135031376974,6.109728801041403,1.016255497932434,-1.9441388289081019
1708435331.1398895,-2.1415627002716064,-1.3333800596049805,-2.5261226336108606,6.109715688019552,1.0162628889083862,-1.9441388289081019
1708435331.1418753,-2.1415750980377197,-1.3333396476558228,-2.5261152426349085,6.109761583596029,1.0162718296051025,-1.944122616444723
1708435331.1438806,-2.1415627002716064,-1.333363727932312,-2.5261107126819056,6.109752881317892,1.0162792205810547,-1.9441269079791468
1708435331.1458812,-2.1415421962738037,-1.3334334653666993,-2.5261316935168665,6.109736311226644,1.0162628889083862,-1.9441311995135706
1708435331.1478758,-2.1415627002716064,-1.3334219616702576,-2.52614409128298,6.109769093781271,1.016243577003479,-1.9441521803485315
1708435331.1498754,-2.1415750980377197,-1.333363727932312,-2.5261316935168665,6.109826433449545,1.016288161277771,-1.9441149870501917
1708435331.151895,-2.141509532928467,-1.33340077221904,-2.526160542164938,6.109789478569784,1.0162925720214844,-1.9441269079791468
1708435331.1538777,-2.141526460647583,-1.3333711487105866,-2.5261486212359827,6.109699475556173,1.0162510871887207,-1.944089714680807
1708435331.1558692,-2.141566038131714,-1.3333668273738404,-2.5261271635638636,6.109724509506979,1.0162347555160522,-1.944117848073141
1708435331.1578827,-2.141566038131714,-1.3333800596049805,-2.5261152426349085,6.109772193222799,1.0162925720214844,-1.944160286580221
1708435331.1598866,-2.141598701477051,-1.333363727932312,-2.5261271635638636,6.109769093781271,1.016255497932434,-1.9440868536578577
1708435331.1618974,-2.141592025756836,-1.333396391277649,-2.5261197725879114,6.109707224159994,1.0163004398345947,-1.944089714680807
1708435331.1639485,-2.141566038131714,-1.3334379655173798,-2.5261316935168665,6.109780657082357,1.0162312984466553,-1.944089714680807
1708435331.165909,-2.141542434692383,-1.333363727932312,-2.5261271635638636,6.109769093781271,1.0162718296051025,-1.944089714680807
1708435331.167891,-2.1415538787841797,-1.3333668273738404,-2.526139561329977,6.109740721970358,1.016276240348816,-1.9441149870501917
1708435331.1698828,-2.141533374786377,-1.3334290546229859,-2.5261226336108606,6.109753715782919,1.0162674188613892,-1.94409686723818
1708435331.1719062,-2.141557216644287,-1.3333711487105866,-2.526097361241476,6.109748589783468,1.0162925720214844,-1.944108788167135
1708435331.1738842,-2.1415581703186035,-1.333426372413971,-2.526135031376974,6.109751808434286,1.0162792205810547,-1.944117848073141
1708435331.1759284,-2.1416211128234863,-1.3333889704993744,-2.52614409128298,6.109764802246847,1.0163004398345947,-1.9441192785846155
1708435331.1778834,-2.141566038131714,-1.333387480383255,-2.52614409128298,6.109770285874166,1.0162466764450073,-1.9441478888141077
1708435331.1799169,-2.141557216644287,-1.333417461519577,-2.5260897318469446,6.109780776291647,1.016255497932434,-1.9441078344928187
1708435331.1818798,-2.141587495803833,-1.3334008020213624,-2.5260897318469446,6.109798061638632,1.0163004398345947,-1.944101635609762
1708435331.1838684,-2.141587495803833,-1.333342657690384,-2.5261152426349085,6.109773504524984,1.0163004398345947,-1.9440777937518519
1708435331.1858764,-2.1415491104125977,-1.3333889704993744,-2.526097361241476,6.109772193222799,1.0162792205810547,-1.9441149870501917
1708435331.18787,-2.1416077613830566,-1.3333756488612671,-2.5261107126819056,6.109724509506979,1.016255497932434,-1.9441269079791468
1708435331.1898901,-2.14158296585083,-1.333384470348694,-2.526130501423971,6.109769093781271,1.0162466764450073,-1.9441559950457972
1708435331.191888,-2.141578435897827,-1.333321825867035,-2.5261486212359827,6.109805691033163,1.016276240348816,-1.9441340605365198
1708435331.1938837,-2.141561508178711,-1.3333593171885987,-2.526160542164938,6.109740721970358,1.0163004398345947,-1.9441974798785608
1708435331.1959295,-2.14158296585083,-1.3333756488612671,-2.5261648336993616,6.109749424248495,1.016288161277771,-1.9441240469561976
1708435331.1978846,-2.14152455329895,-1.333405302172043,-2.5261316935168665,6.109773504524984,1.0162599086761475,-1.9441431204425257
1708435331.199963,-2.1415793895721436,-1.3333559793284913,-2.5261486212359827,6.109736311226644,1.016255497932434,-1.944117848073141
1708435331.2020319,-2.14158296585083,-1.333384470348694,-2.5261152426349085,6.109769093781271,1.016304850578308,-1.9441269079791468
1708435331.203914,-2.1415085792541504,-1.3334130507758637,-2.5261061827289026,6.109764802246847,1.016276240348816,-1.9441431204425257
1708435331.2059207,-2.1415536403656006,-1.3333711487105866,-2.5261181036578577,6.109727728157797,1.0162792205810547,-1.9441431204425257
1708435331.2078798,-2.141611337661743,-1.3334219616702576,-2.52616793314089,6.109748589783468,1.016288161277771,-1.9441059271441858
1708435331.2099113,-2.141587495803833,-1.333417461519577,-2.526172463093893,6.109793770104208,1.0162510871887207,-1.944167439137594
1708435331.2118766,-2.141570568084717,-1.333384470348694,-2.5261216799365442,6.109772193222799,1.0162510871887207,-1.944181267415182
1708435331.2138932,-2.141561508178711,-1.333342657690384,-2.5261226336108606,6.109751808434286,1.0162718296051025,-1.9441645781146448
1708435331.2159097,-2.14158296585083,-1.3334008020213624,-2.526139561329977,6.1097320196922205,1.0163004398345947,-1.9441269079791468
1708435331.2178676,-2.141594409942627,-1.3334158223918458,-2.5261226336108606,6.1097320196922205,1.016276240348816,-1.944122616444723
1708435331.2198842,-2.1415750980377197,-1.3333889704993744,-2.5261486212359827,6.109695184021749,1.0162628889083862,-1.944101635609762
1708435331.2218988,-2.1415963172912598,-1.3333426874927063,-2.526184384022848,6.109757292061605,1.0162837505340576,-1.9441269079791468
1708435331.2239115,-2.14162015914917,-1.3334219616702576,-2.526139561329977,6.1097320196922205,1.016276240348816,-1.944113556538717
1708435331.225891,-2.1415741443634033,-1.333405302172043,-2.526139561329977,6.10970817783431,1.0162913799285889,-1.9441512266742151
1708435331.2279143,-2.1415491104125977,-1.333384470348694,-2.526085440312521,6.109777796059408,1.0162628889083862,-1.944188419972555
1708435331.2299023,-2.141517400741577,-1.3333559793284913,-2.5261316935168665,6.109777796059408,1.0162674188613892,-1.94409686723818
1708435331.2318895,-2.1415750980377197,-1.3333756488612671,-2.526184384022848,6.109769093781271,1.016304850578308,-1.944108788167135
1708435331.2338798,-2.1416077613830566,-1.3333889704993744,-2.526172463093893,6.109793770104208,1.016304850578308,-1.9441059271441858
1708435331.2358787,-2.14158296585083,-1.3333381575397034,-2.526172463093893,6.109727847367086,1.0162674188613892,-1.9441855589496058
1708435331.237899,-2.141587495803833,-1.3333559793284913,-2.52616793314089,6.1097320196922205,1.0163377523422241,-1.944172207509176
1708435331.23989,-2.141566038131714,-1.333342657690384,-2.526170794163839,6.109769093781271,1.0162421464920044,-1.9441149870501917
1708435331.2418885,-2.14159893989563,-1.333396391277649,-2.52616793314089,6.109792697220602,1.0163170099258423,-1.9441512266742151
1708435331.2438927,-2.141587495803833,-1.3333460849574585,-2.526179854069845,6.109736311226644,1.0162748098373413,-1.9441645781146448
1708435331.2458823,-2.141561508178711,-1.333309994345047,-2.5261226336108606,6.109760629921713,1.0163124799728394,-1.944113556538717
1708435331.2478938,-2.1416122913360596,-1.3333889704993744,-2.526172463093893,6.109736311226644,1.016308069229126,-1.9441388289081019
1708435331.2499428,-2.1415491104125977,-1.3333681386760254,-2.526188675557272,6.109748589783468,1.016304850578308,-1.944129769002096
1708435331.2519052,-2.141587495803833,-1.333366872077324,-2.5261271635638636,6.109785067826071,1.016308069229126,-1.9441269079791468
1708435331.253894,-2.1415669918060303,-1.3333800596049805,-2.526196304951803,6.109699475556173,1.0162659883499146,-1.9441106955157679
1708435331.2558744,-2.1416165828704834,-1.3333470684340973,-2.526176993046896,6.109764802246847,1.016308069229126,-1.944172207509176
1708435331.257886,-2.1415491104125977,-1.333387480383255,-2.526151482258932,6.109752881317892,1.0163289308547974,-1.944167439137594
1708435331.2598805,-2.1415491104125977,-1.3333800596049805,-2.5261932055102747,6.109711515694418,1.0163244009017944,-1.9441631476031702
1708435331.261878,-2.141598701477051,-1.3334246438792725,-2.526158873234884,6.109752881317892,1.016340732574463,-1.944117848073141
1708435331.2638826,-2.141592025756836,-1.3333756488612671,-2.526200834904806,6.109720098763265,1.0163244009017944,-1.944129769002096
1708435331.265909,-2.1415748596191406,-1.333384470348694,-2.526200596486227,6.109736311226644,1.0162992477416992,-1.944167439137594
1708435331.2678983,-2.1415627002716064,-1.3333889704993744,-2.526158873234884,6.109736311226644,1.0163484811782837,-1.944167439137594
1708435331.2698853,-2.1416165828704834,-1.3333831590465088,-2.52616793314089,6.109691011696615,1.0163319110870361,-1.944146458302633
1708435331.2718844,-2.1415793895721436,-1.3334008020213624,-2.526151482258932,6.1097450135047815,1.0163155794143677,-1.9441631476031702
1708435331.2738874,-2.1416237354278564,-1.3334130507758637,-2.526172463093893,6.109761583596029,1.0163319110870361,-1.9441660086261194
1708435331.2758753,-2.141570568084717,-1.3333711487105866,-2.526146952305929,6.109740721970358,1.016339659690857,-1.9441588560687464
1708435331.2778966,-2.141587495803833,-1.3333800745061417,-2.526184145604269,6.109765875130453,1.0163363218307495,-1.9441707769977015
1708435331.2798946,-2.1415750980377197,-1.3334008020213624,-2.52620512643923,6.109773504524984,1.0162904262542725,-1.9441841284381312
1708435331.2818775,-2.141561508178711,-1.333384470348694,-2.5261827150927942,6.109736311226644,1.0163559913635254,-1.9441960493670862
1708435331.2839024,-2.14152193069458,-1.3333756488612671,-2.526154343281881,6.109761583596029,1.0163767337799072,-1.9441912809955042
1708435331.2859,-2.141624689102173,-1.333396391277649,-2.526184384022848,6.109736311226644,1.0163559913635254,-1.9442036787616175
1708435331.287889,-2.1415669918060303,-1.3334130507758637,-2.526196304951803,6.109736311226644,1.0163308382034302,-1.9441869894610804
1708435331.289918,-2.1415750980377197,-1.3333514791778107,-2.526158873234884,6.109756219177999,1.016351580619812,-1.9442365805255335
1708435331.2918909,-2.1415536403656006,-1.3333800596049805,-2.526146952305929,6.109785067826071,1.016351580619812,-1.9442275206195276
1708435331.2938912,-2.141592025756836,-1.333387480383255,-2.526170794163839,6.109769093781271,1.0163846015930176,-1.9442275206195276
1708435331.2958977,-2.1415793895721436,-1.3333514791778107,-2.526126209889547,6.109721171646871,1.0163922309875488,-1.9442232290851038
1708435331.2978935,-2.14158296585083,-1.333396391277649,-2.526179854069845,6.109757292061605,1.016404151916504,-1.9442861715899866
1708435331.2999709,-2.1415786743164062,-1.333342657690384,-2.5261381308185022,6.109761583596029,1.0164533853530884,-1.944305721913473
1708435331.3019013,-2.1415963172912598,-1.3333800596049805,-2.5261336008654993,6.109733092575826,1.016432762145996,-1.944238011037008
1708435331.303888,-2.14150071144104,-1.3333593171885987,-2.526170794163839,6.109728801041403,1.0164282321929932,-1.9442804495440882
1708435331.3058712,-2.141566038131714,-1.3333711487105866,-2.526170794163839,6.109724509506979,1.0164401531219482,-1.9442923704730433
1708435331.3078866,-2.141533136367798,-1.3334334653666993,-2.526158873234884,6.109765875130453,1.0164568424224854,-1.9443257490741175
1708435331.30993,-2.141603469848633,-1.3334290546229859,-2.526187245045797,6.109770285874166,1.0164356231689453,-1.9442790190326136
1708435331.311885,-2.141566038131714,-1.3334378910115738,-2.5261662642108362,6.109786498337545,1.016447901725769,-1.9442833105670374
1708435331.3138888,-2.141592025756836,-1.333342657690384,-2.526187245045797,6.109752881317892,1.016485333442688,-1.9442756811725062
1708435331.3158863,-2.1415748596191406,-1.3333711487105866,-2.526203695927755,6.10973738411025,1.0164597034454346,-1.9442694822894495
1708435331.3179057,-2.141592025756836,-1.3334130507758637,-2.526170794163839,6.109752881317892,1.0165090560913086,-1.9443119207965296
1708435331.319888,-2.1415748596191406,-1.3333919805339356,-2.5261917749988,6.1097038862998865,1.0164971351623535,-1.9443405310260218
1708435331.3218691,-2.141540288925171,-1.333440975551941,-2.526187245045797,6.109727728157797,1.0164794921875,-1.944315258656637
1708435331.3239024,-2.14159893989563,-1.3334201735309144,-2.526203695927755,6.109724509506979,1.0165090560913086,-1.9443686644183558
1708435331.3258696,-2.1415624618530273,-1.3333919805339356,-2.5261827150927942,6.109733092575826,1.0164839029312134,-1.9443686644183558
1708435331.327928,-2.141592025756836,-1.3334290546229859,-2.5262487570392054,6.109757292061605,1.0165245532989502,-1.944364372883932
1708435331.3298938,-2.141611099243164,-1.3334453862956543,-2.5262325445758265,6.109773504524984,1.0165542364120483,-1.94435960451235
1708435331.3318915,-2.141587495803833,-1.333387480383255,-2.5261827150927942,6.109748589783468,1.01656174659729,-1.9443634192096155
1708435331.3338888,-2.141570568084717,-1.3334528070739289,-2.526203695927755,6.109773504524984,1.0165454149246216,-1.944310490285055
1708435331.3359163,-2.141598701477051,-1.3333998185447236,-2.5262158552752894,6.109740721970358,1.0165201425552368,-1.9443510214435022
1708435331.3379197,-2.14158296585083,-1.3333743077567597,-2.5262399355517786,6.1097320196922205,1.016557216644287,-1.9443677107440394
1708435331.3399265,-2.141592025756836,-1.3334086400321503,-2.5262399355517786,6.109761583596029,1.0165647268295288,-1.9443867842303675
1708435331.3419073,-2.141592025756836,-1.3334453862956543,-2.5262308756457728,6.1097779152686975,1.016543984413147,-1.9443991819964808
1708435331.3439064,-2.141578435897827,-1.3333547872355958,-2.5262518564807337,6.109700667649069,1.0165770053863525,-1.9444244543658655
1708435331.3458967,-2.141592025756836,-1.333427758221962,-2.52622634569277,6.109711515694418,1.0165754556655884,-1.9443872610675257
1708435331.347901,-2.141544818878174,-1.3334321838668366,-2.526259247456686,6.109761583596029,1.0165680646896362,-1.9444907347308558
1708435331.3498917,-2.1416122913360596,-1.3333954078010102,-2.526259247456686,6.109724509506979,1.0165843963623047,-1.944434944783346
1708435331.351871,-2.1416077613830566,-1.33342199147258,-2.5262637774096888,6.109736311226644,1.0166295766830444,-1.9444893042193812
1708435331.353905,-2.1415491104125977,-1.3334364754012604,-2.526259247456686,6.109773504524984,1.0165965557098389,-1.9444473425494593
1708435331.3558755,-2.1416122913360596,-1.3334130507758637,-2.526262346898214,6.109752881317892,1.016571044921875,-1.944397274647848
1708435331.357897,-2.141594409942627,-1.3334290397218247,-2.5263074080096644,6.109700667649069,1.016608476638794,-1.944479767476217
1708435331.359925,-2.141542434692383,-1.3334158223918458,-2.5262864271747034,6.109740721970358,1.01664137840271,-1.9444788138019007
1708435331.3618627,-2.141603469848633,-1.333396391277649,-2.5263119379626673,6.109695303231039,1.0166118144989014,-1.9444969336139124
1708435331.3639052,-2.141587495803833,-1.3334201586297532,-2.526332680379049,6.1097450135047815,1.0166162252426147,-1.9445331732379358
1708435331.3658934,-2.14159893989563,-1.3334130507758637,-2.5263312498675745,6.109683263092794,1.0166444778442383,-1.9445026556598108
1708435331.3678887,-2.1415538787841797,-1.3334086400321503,-2.5263221899615687,6.109740721970358,1.0166819095611572,-1.944545094166891
1708435331.369897,-2.141592025756836,-1.3334321540645142,-2.5262821356402796,6.109723436623373,1.0166356563568115,-1.944545094166891
1708435331.3719327,-2.1415491104125977,-1.3333668273738404,-2.5263431707965296,6.109720098763265,1.0166807174682617,-1.944589916859762
1708435331.3739102,-2.141592025756836,-1.3333295446685334,-2.5263477007495325,6.109752881317892,1.0166926383972168,-1.9446066061602991
1708435331.3758888,-2.1415538787841797,-1.3334041398814698,-2.5263312498675745,6.109728801041403,1.0167137384414673,-1.9446094671832483
1708435331.3778992,-2.1415538787841797,-1.3333338362029572,-2.52638823190798,6.109786498337545,1.0166763067245483,-1.9445670286761683
1708435331.379883,-2.141587495803833,-1.3333800000003357,-2.5263312498675745,6.109740721970358,1.0167003870010376,-1.94460374513735
1708435331.3819067,-2.141544818878174,-1.333387480383255,-2.5263267199145716,6.109727728157797,1.0167123079299927,-1.9446080366717737
1708435331.3839118,-2.141542434692383,-1.3334086698344727,-2.5263267199145716,6.109684097557821,1.016716718673706,-1.9446318785296839
1708435331.3858817,-2.1415793895721436,-1.3334321540645142,-2.526388470326559,6.109720098763265,1.016704797744751,-1.944594685231344
1708435331.3879313,-2.141592025756836,-1.3333919656327744,-2.5263057390796106,6.109719025879659,1.0167574882507324,-1.944686237965719
1708435331.3898897,-2.141624689102173,-1.3334086400321503,-2.5263598600970667,6.109777796059408,1.0167286396026611,-1.9446771780597132
1708435331.3919137,-2.1415529251098633,-1.3333919209292908,-2.526362959538595,6.1097320196922205,1.016757607460022,-1.9446681181537073
1708435331.3939323,-2.1415741443634033,-1.333395392899849,-2.526416603718893,6.109809982567587,1.0167738199234009,-1.9446714560138147
1708435331.3959093,-2.141578435897827,-1.3333998185447236,-2.526350800191061,6.109736311226644,1.0167604684829712,-1.9446499983416956
1708435331.3979027,-2.141624689102173,-1.3334158223918458,-2.526379410420553,6.109785067826071,1.0167887210845947,-1.9446786085711878
1708435331.3999696,-2.141522169113159,-1.3333998036435624,-2.526362959538595,6.109707104950704,1.0167516469955444,-1.944777790700094
1708435331.4019608,-2.141632318496704,-1.3333725941232224,-2.5263431707965296,6.109740721970358,1.0168800354003906,-1.9447854200946253
1708435331.403934,-2.141624689102173,-1.3334086251309891,-2.5263541380511683,6.109747516899862,1.0167887210845947,-1.9447525183307093
1708435331.4059002,-2.1415536403656006,-1.3334364754012604,-2.526395861302511,6.109760510712423,1.016833782196045,-1.9448140303241175
1708435331.4078794,-2.14158296585083,-1.3333963316730042,-2.526386801396505,6.109813558846273,1.0168172121047974,-1.9447973410235804
1708435331.4098742,-2.141544818878174,-1.3334246289781113,-2.52637488046755,6.109796988755026,1.0167875289916992,-1.9447510878192347
1708435331.41191,-2.141587495803833,-1.333427758221962,-2.526428524647848,6.1098540900047205,1.016829490661621,-1.9448455015765589
1708435331.413916,-2.14159893989563,-1.3334158223918458,-2.526370350514547,6.109808194428243,1.016844630241394,-1.9448497931109827
1708435331.4159167,-2.141590118408203,-1.3334321540645142,-2.526419703160421,6.109862673073568,1.016829490661621,-1.9448455015765589
1708435331.4179318,-2.1416068077087402,-1.333378718500473,-2.526403252278463,6.109849679261007,1.0168490409851074,-1.944848362599508
1708435331.4198775,-2.141592025756836,-1.333366797571518,-2.526452604924337,6.109827863961019,1.016844630241394,-1.9448817412005823
1708435331.4218748,-2.1416122913360596,-1.3334484857371827,-2.5264318625079554,6.109824406891622,1.0168534517288208,-1.9448817412005823
1708435331.4238849,-2.141592025756836,-1.333374337559082,-2.5263987223254603,6.109882104187765,1.0168565511703491,-1.9448888937579554
1708435331.425893,-2.141587495803833,-1.3334321838668366,-2.5264106432544153,6.109861600189962,1.0168609619140625,-1.9448969999896448
1708435331.427931,-2.141587495803833,-1.3334158223918458,-2.5263899008380335,6.109872329026022,1.016877293586731,-1.9449127356158655
1708435331.4298975,-2.1415491104125977,-1.333432139163353,-2.526403252278463,6.109891879349508,1.0168895721435547,-1.9449084440814417
1708435331.4318805,-2.1415445804595947,-1.3333624762347718,-2.5263987223254603,6.109949576645651,1.0168728828430176,-1.944953743611471
1708435331.433891,-2.141544818878174,-1.333362416630127,-2.526419703160421,6.10993658283309,1.0168565511703491,-1.9449284712420862
1708435331.4359074,-2.141540288925171,-1.3334114265492936,-2.5263899008380335,6.1099198935325525,1.0168938636779785,-1.9449480215655726
1708435331.4378965,-2.141578435897827,-1.3334233325770875,-2.5264106432544153,6.109874474793234,1.0168521404266357,-1.9449899832354944
1708435331.4398859,-2.141587495803833,-1.3334440749934693,-2.5264437834369105,6.109976637154379,1.0168358087539673,-1.9450395742999476
1708435331.4418802,-2.141592025756836,-1.3334365052035828,-2.5264650026904505,6.109969126969137,1.0168895721435547,-1.9450424353228968
1708435331.4438918,-2.141637086868286,-1.333387480383255,-2.5264063517199915,6.109981047898092,1.0168521404266357,-1.9450214544879358
1708435331.4458997,-2.1415157318115234,-1.3334607046893616,-2.5264650026904505,6.109959232598104,1.0168728828430176,-1.9450591246234339
1708435331.4478908,-2.141632318496704,-1.333411456351616,-2.5263972918139856,6.110016691475668,1.0168728828430176,-1.945045296345846
1708435331.4498773,-2.14158296585083,-1.3333909970572968,-2.5264392534839075,6.109991776734152,1.0168565511703491,-1.945045296345846
1708435331.4518716,-2.1415786743164062,-1.333402545457222,-2.5264559427844446,6.110015857010641,1.0168850421905518,-1.945078198109762
1708435331.4538794,-2.1415786743164062,-1.333444060092308,-2.5264273325549524,6.110024559288778,1.0168683528900146,-1.9451144377337855
1708435331.4558766,-2.141611337661743,-1.3333668273738404,-2.5264931360827845,6.1100560305412195,1.0169016122817993,-1.9450815359698694
1708435331.4578795,-2.1416149139404297,-1.3333743077567597,-2.5264678637133997,6.109967100411215,1.016877293586731,-1.9450729529010218
1708435331.4598792,-2.1416068077087402,-1.3333910268596192,-2.5264392534839075,6.1100724814231775,1.0169017314910889,-1.9450934568988245
1708435331.4618757,-2.1416149139404297,-1.3334086251309891,-2.5264139811145228,6.1099984524543665,1.0168850421905518,-1.94509202638735
1708435331.4638958,-2.1416237354278564,-1.3334114116481324,-2.5264468828784388,6.110091912537374,1.0168895721435547,-1.9451292196856897
1708435331.4659061,-2.1416103839874268,-1.3334694665721436,-2.526458803807394,6.110096323281088,1.0169016122817993,-1.945155445729391
1708435331.4678802,-2.1415855884552,-1.3334144961884995,-2.5264843145953577,6.1100594876106165,1.0168938636779785,-1.9451597372638147
1708435331.4699092,-2.141598701477051,-1.3334351491979142,-2.5264888445483606,6.110103833466329,1.0168684720993042,-1.945141617451803
1708435331.471884,-2.1416146755218506,-1.3334025603583832,-2.5264766852008265,6.110120165138998,1.0168683528900146,-1.94509202638735
1708435331.473917,-2.1416025161743164,-1.33341138184581,-2.5264437834369105,6.110042917519369,1.0168521404266357,-1.9451091925250452
1708435331.4759285,-2.141655445098877,-1.3334320795587082,-2.5264721552478235,6.1101276753242395,1.0169061422348022,-1.9450786749469202
1708435331.4778862,-2.1415891647338867,-1.3334563982537766,-2.5264559427844446,6.110070216446676,1.0169017314910889,-1.9451702276812952
1708435331.4799554,-2.141676425933838,-1.3334144365838547,-2.5264304319964808,6.110147225647726,1.0168850421905518,-1.9451373259173792
1708435331.4818943,-2.141650915145874,-1.3334396940520783,-2.5264185110675257,6.1101276753242395,1.0168805122375488,-1.9451869169818323
1708435331.4839025,-2.1416263580322266,-1.3334484857371827,-2.5264392534839075,6.110184418946066,1.0169105529785156,-1.9451521078692835
1708435331.4859169,-2.1416218280792236,-1.333427758221962,-2.5264647642718714,6.11012219169692,1.0168861150741577,-1.9450953642474573
1708435331.4878778,-2.1416261196136475,-1.3334277433208008,-2.5264151732074183,6.110180008202352,1.0168938636779785,-1.9451492468463343
1708435331.489891,-2.141666889190674,-1.3334440749934693,-2.526463333760397,6.110163795738973,1.016877293586731,-1.9451311270343226
1708435331.4918785,-2.1416587829589844,-1.3334934127381821,-2.5264723936664026,6.110146271973409,1.0168728828430176,-1.9451358954059046
1708435331.4938748,-2.1416873931884766,-1.3334069860032578,-2.5264273325549524,6.110138523369589,1.0168728828430176,-1.9451521078692835
1708435331.4958768,-2.141641139984131,-1.333435208802559,-2.5264318625079554,6.110191929131307,1.016877293586731,-1.9451521078692835
1708435331.497884,-2.1416828632354736,-1.3334025305560608,-2.5264678637133997,6.11022042015151,1.016877293586731,-1.9452155272113245
1708435331.4999392,-2.1416544914245605,-1.3334277433208008,-2.5264437834369105,6.110211598664083,1.016877293586731,-1.9451826254474085
1708435331.501951,-2.1416499614715576,-1.3334114116481324,-2.5264604727374476,6.110191809922018,1.0168490409851074,-1.9451521078692835
1708435331.503946,-2.1416499614715576,-1.3333998036435624,-2.5264318625079554,6.11018322685317,1.016812801361084,-1.9451778570758265
1708435331.5059195,-2.1416454315185547,-1.3334440302899857,-2.5264151732074183,6.110182511597433,1.0168578624725342,-1.9451974073993128
1708435331.5078826,-2.1416714191436768,-1.3334321689656754,-2.5264273325549524,6.110252606659689,1.0168371200561523,-1.9452155272113245
1708435331.5099845,-2.1416783332824707,-1.3334277284196396,-2.5264318625079554,6.1102040884788416,1.016812801361084,-1.9451783339129847
1708435331.511911,-2.1416919231414795,-1.3334607642940064,-2.5263734499560755,6.110211598664083,1.016812801361084,-1.9451854864703577
1708435331.513883,-2.141669511795044,-1.333436445598938,-2.5264151732074183,6.110211598664083,1.016800880432129,-1.9451854864703577
1708435331.5158992,-2.141662359237671,-1.3333910268596192,-2.5264318625079554,6.110227572708883,1.0168216228485107,-1.9451811949359339
1708435331.5178993,-2.14169979095459,-1.3334562939456482,-2.526419703160421,6.110248195915975,1.0167768001556396,-1.9452107588397425
1708435331.519903,-2.1416819095611572,-1.3334100854447861,-2.5264151732074183,6.110247480660238,1.0167738199234009,-1.9451358954059046
1708435331.5218978,-2.141669511795044,-1.333427758221962,-2.5264151732074183,6.110161530762472,1.0168019533157349,-1.9451192061053675
1708435331.5238776,-2.141690731048584,-1.3334563386491318,-2.5263658205615442,6.110226499825277,1.0167485475540161,-1.9451645056353968
1708435331.5258813,-2.141695022583008,-1.333426372413971,-2.526391331349508,6.110243785172262,1.016737461090088,-1.9452064673053187
1708435331.5278907,-2.14168643951416,-1.333460734491684,-2.526353899632589,6.110211598664083,1.01668381690979,-1.9452064673053187
1708435331.529898,-2.141707420349121,-1.333407000904419,-2.526329580937521,6.110245096474447,1.016709327697754,-1.9451945463763636
1708435331.5319064,-2.1416773796081543,-1.3334321689656754,-2.526341740285055,6.110223281174459,1.0167014598846436,-1.9451115767108362
1708435331.533911,-2.141660690307617,-1.3333981198123475,-2.526329580937521,6.110248195915975,1.0166566371917725,-1.9451358954059046
1708435331.5358725,-2.1417391300201416,-1.3334814620069046,-2.5263147989856165,6.110145318299093,1.016635537147522,-1.9451373259173792
1708435331.5378957,-2.141686201095581,-1.3334114414504548,-2.5263312498675745,6.11015402057723,1.0166339874267578,-1.9451282660113733
1708435331.5399234,-2.141730546951294,-1.3333865118077775,-2.5262821356402796,6.110182511597433,1.0165514945983887,-1.9451282660113733
1708435331.5419047,-2.141768455505371,-1.3334114116481324,-2.5263193289386194,6.1101910946662805,1.0165843963623047,-1.9451611677752894
1708435331.5438874,-2.1417057514190674,-1.333448426132538,-2.5263119379626673,6.110251772194662,1.0165364742279053,-1.9451826254474085
1708435331.5459042,-2.141768455505371,-1.3334364903024216,-2.5262954870807093,6.110178816109457,1.0164988040924072,-1.945153538380758
1708435331.5478866,-2.1417293548583984,-1.3334277433208008,-2.52625018755068,6.110178816109457,1.0164912939071655,-1.9451373259173792
1708435331.54989,-2.1417171955108643,-1.333439664249756,-2.526278797780172,6.1102040884788416,1.0165046453475952,-1.9451492468463343
1708435331.551889,-2.141726016998291,-1.3334726256183167,-2.5262637774096888,6.11018322685317,1.0164927244186401,-1.9450910727130335
1708435331.5538957,-2.141768455505371,-1.3334233474782486,-2.526209894810812,6.110224711685934,1.0164642333984375,-1.94511586824526
1708435331.5558877,-2.1417012214660645,-1.333439664249756,-2.5262308756457728,6.110187518387594,1.0164282321929932,-1.945124928151266
1708435331.5579007,-2.1417462825775146,-1.333444060092308,-2.526209894810812,6.110224711685934,1.0163997411727905,-1.945075813923971
1708435331.5599146,-2.1417622566223145,-1.3334485006383439,-2.5261781851397913,6.110195386200704,1.016383409500122,-1.9451339880572718
1708435331.5618849,-2.1417429447174072,-1.3334607493928452,-2.5261827150927942,6.110162603646078,1.016351580619812,-1.945063892995016
1708435331.5638824,-2.141775608062744,-1.3334364306977768,-2.526187245045797,6.110229003220358,1.0162904262542725,-1.9450648466693323
1708435331.565915,-2.141726016998291,-1.3333909821561356,-2.526163403187887,6.110223281174459,1.0162992477416992,-1.9450691382037562
1708435331.5678983,-2.1417622566223145,-1.3334351790002366,-2.526146952305929,6.1102040884788416,1.016249656677246,-1.9450247923480433
1708435331.5698702,-2.141775608062744,-1.3334025305560608,-2.526068989430563,6.110167014389791,1.0162718296051025,-1.9450128714190882
1708435331.571898,-2.1417596340179443,-1.3334527623704453,-2.5260914007769983,6.11015938499526,1.016243577003479,-1.945033375416891
1708435331.573885,-2.1417791843414307,-1.3334321540645142,-2.5261033217059534,6.110231983452596,1.016158103942871,-1.9449928442584437
1708435331.5759037,-2.1417293548583984,-1.3334396344474335,-2.5260375181781214,6.110162603646078,1.0162010192871094,-1.9449508825885218
1708435331.5779338,-2.1417551040649414,-1.3333874654820939,-2.5260584990130823,6.110129701882162,1.0161261558532715,-1.9449437300311487
1708435331.579893,-2.1417622566223145,-1.3334321689656754,-2.526067558919088,6.110163795738973,1.016078233718872,-1.9449446837054651
1708435331.5818865,-2.1417713165283203,-1.3334070307067414,-2.5260313192950647,6.110175597458639,1.0160928964614868,-1.944953743611471
1708435331.5838804,-2.141791343688965,-1.3334527772716065,-2.5260313192950647,6.1100865481193445,1.0159941911697388,-1.9449217955218714
1708435331.585894,-2.1417622566223145,-1.333432139163353,-2.5259788672076624,6.110107171326437,1.016014814376831,-1.9448755423175257
1708435331.5878823,-2.1417791843414307,-1.3333864373019715,-2.5259833971606653,6.110102760582723,1.015966773033142,-1.9448350111590784
1708435331.589917,-2.1417837142944336,-1.3334158223918458,-2.525971237813131,6.110132086067953,1.0159400701522827,-1.9448650519000452
1708435331.5919304,-2.1417789459228516,-1.3334277433208008,-2.525951925908224,6.110046493798055,1.0158618688583374,-1.9448111693011683
1708435331.593876,-2.1417508125305176,-1.3334158223918458,-2.525951925908224,6.110121238022604,1.0158135890960693,-1.9447792212115687
1708435331.5958838,-2.1417534351348877,-1.33340077221904,-2.5259116331683558,6.110088813095846,1.015815019607544,-1.9447463194476526
1708435331.5978742,-2.1417577266693115,-1.3334289950183411,-2.5258501211749476,6.110051619797506,1.0157743692398071,-1.9447673002826136
1708435331.5998926,-2.1417667865753174,-1.3334114116481324,-2.5258663336383265,6.1099984524543665,1.0157219171524048,-1.9447644392596644
1708435331.601983,-2.1417462825775146,-1.3333756190589447,-2.52590519586672,6.110057103424825,1.015669345855713,-1.944719139729635
1708435331.603888,-2.1417622566223145,-1.3334233474782486,-2.525848690663473,6.110007154732504,1.0156422853469849,-1.9447029272662562
1708435331.605883,-2.1417713165283203,-1.3334484857371827,-2.5258124510394495,6.109991776734152,1.0156333446502686,-1.9447162787066858
1708435331.6079297,-2.1417667865753174,-1.3334409457496186,-2.5257960001574915,6.109988796501913,1.015573263168335,-1.9446805159198206
1708435331.609911,-2.1417667865753174,-1.3334277433208008,-2.5257795492755335,6.109911310463705,1.0155340433120728,-1.9446848074542444
1708435331.6118984,-2.1417713165283203,-1.333444060092308,-2.525705877934591,6.109883057862081,1.0155296325683594,-1.9446185270892542
1708435331.6139028,-2.1417667865753174,-1.3334158223918458,-2.525703016911642,6.109891879349508,1.0154738426208496,-1.9446242491351526
1708435331.6159036,-2.141770362854004,-1.3334321689656754,-2.5257285276996058,6.109888541489401,1.0154739618301392,-1.9445918242083948
1708435331.617909,-2.1417622566223145,-1.3334695261767884,-2.5256622473346155,6.109848487168112,1.015430212020874,-1.9445627371417444
1708435331.6199095,-2.1417958736419678,-1.3334290546229859,-2.5257046858416956,6.109827863961019,1.0153898000717163,-1.9445508162127894
1708435331.6218686,-2.1417713165283203,-1.3333919805339356,-2.5256264845477503,6.10984097698287,1.015398621559143,-1.9445717970477503
1708435331.62392,-2.1417462825775146,-1.3334201288274308,-2.525640074406759,6.109783994942465,1.015353798866272,-1.944536034260885
1708435331.6258996,-2.1417579650878906,-1.3333417487195511,-2.5256474653827112,6.109740721970358,1.0153056383132935,-1.9444697538958948
1708435331.6279511,-2.1417579650878906,-1.3334290546229859,-2.525644604359762,6.109789478569784,1.015252947807312,-1.9444664160357874
1708435331.629894,-2.1417417526245117,-1.3333756637624283,-2.5255544821368616,6.10970817783431,1.0152497291564941,-1.9445179144488733
1708435331.6318913,-2.1417462825775146,-1.333432139163353,-2.5255382696734827,6.109651553421774,1.0151972770690918,-1.9444635550128382
1708435331.6339393,-2.1417789459228516,-1.3333919805339356,-2.525506321583883,6.10965262630538,1.0151928663253784,-1.944451634083883
1708435331.6358864,-2.1417622566223145,-1.3334277433208008,-2.525536600743429,6.109668957978048,1.0151447057724,-1.944427792225973
1708435331.6379175,-2.1417462825775146,-1.3333505404046555,-2.5254855791675013,6.109612571984091,1.0150965452194214,-1.9444153944598597
1708435331.6398997,-2.1417667865753174,-1.3333681386760254,-2.525466267262594,6.10958098152236,1.0150610208511353,-1.9443872610675257
1708435331.6418872,-2.1417293548583984,-1.333372638826706,-2.525457207356588,6.1095361588294885,1.0150364637374878,-1.94435960451235
1708435331.6439056,-2.1417791843414307,-1.3334086400321503,-2.5255125204669397,6.109561192780294,1.015033483505249,-1.9444006125079554
1708435331.64589,-2.1417384147644043,-1.3333711487105866,-2.5254603067981165,6.109538781433859,1.0149974822998047,-1.9443133513080042
1708435331.6479013,-2.1417462825775146,-1.3333636981299897,-2.5254977385150355,6.109504806786337,1.0149686336517334,-1.9443567434894007
1708435331.6498842,-2.1417667865753174,-1.3333470982364197,-2.5254512468921106,6.109469043999471,1.014920711517334,-1.9442909399615687
1708435331.6518996,-2.1417746543884277,-1.3333637428334733,-2.5254223982440394,6.109404909401693,1.0148504972457886,-1.9442909399615687
1708435331.653913,-2.1417417526245117,-1.3333637726357956,-2.525386635457174,6.109389650612631,1.0148519277572632,-1.9443300406085413
1708435331.6559563,-2.1417622566223145,-1.333359346990921,-2.525415007268087,6.1093612788017175,1.0148577690124512,-1.9443028608905237
1708435331.6579375,-2.141737461090088,-1.3333603900722046,-2.525412146245138,6.109279978066244,1.0148454904556274,-1.944214169179098
1708435331.659894,-2.1417462825775146,-1.3333559793284913,-2.5253716150866907,6.109341847687521,1.0148124694824219,-1.944242302571432
1708435331.6618986,-2.1417553424835205,-1.333359346990921,-2.525334183369772,6.10925708988265,1.0147809982299805,-1.9442113081561487
1708435331.6639893,-2.1417508125305176,-1.3333889704993744,-2.525313202534811,6.109298455506124,1.0147483348846436,-1.9441946188556116
1708435331.6658957,-2.1417384147644043,-1.3333024245551606,-2.5253594557391565,6.109226453095236,1.014744758605957,-1.9441750685321253
1708435331.667904,-2.1417713165283203,-1.3333396327546616,-2.5253265539752405,6.1091863987739465,1.0146639347076416,-1.9441631476031702
1708435331.6699107,-2.1417508125305176,-1.3333933812430878,-2.5253191629992884,6.109145867615499,1.0146472454071045,-1.944160286580221
1708435331.6719007,-2.1417171955108643,-1.333332137470581,-2.52531606355776,6.10916684845046,1.0146516561508179,-1.944122616444723
1708435331.6738894,-2.141726016998291,-1.3333440583995362,-2.5252860228167933,6.109130847245016,1.0146160125732422,-1.9441402594195765
1708435331.6758914,-2.1417508125305176,-1.3333158057979126,-2.525325123463766,6.1090712426002405,1.014624834060669,-1.9440606276141565
1708435331.6779282,-2.1417341232299805,-1.3333035570434113,-2.5253008047686976,6.109096157341757,1.0145930051803589,-1.9440668264972132
1708435331.6798809,-2.1417508125305176,-1.3333290678313752,-2.5253174940692347,6.108998048096456,1.014572262763977,-1.9440186659442347
1708435331.681875,-2.1417667865753174,-1.3333123487285157,-2.525266472493307,6.108995902329244,1.0145481824874878,-1.9440425078021448
1708435331.683941,-2.1417667865753174,-1.3333008152297516,-2.525304142628805,6.108962404518881,1.0145437717437744,-1.9440019766436976
1708435331.6858892,-2.1417553424835205,-1.3332351309112092,-2.525259081517355,6.108954775124349,1.0145118236541748,-1.9439781347857874
1708435331.6879158,-2.1417429447174072,-1.3332725328258057,-2.5252636114703577,6.108886229782858,1.0145118236541748,-1.9439557234393519
1708435331.689878,-2.1417429447174072,-1.3333212000182648,-2.5252352396594446,6.1088751433189294,1.0144792795181274,-1.9438894430743616
1708435331.6918917,-2.1417622566223145,-1.3332484525493165,-2.5252724329577845,6.1089080450828455,1.0145207643508911,-1.9438613096820276
1708435331.6939366,-2.1417384147644043,-1.3332395416549225,-2.5252562204944056,6.1088881371314905,1.014546275138855,-1.9438250700580042
1708435331.6958952,-2.1417126655578613,-1.3332484525493165,-2.5252516905414026,6.108864652901449,1.0144970417022705,-1.9437978903399866
1708435331.697928,-2.1417596340179443,-1.3332395267537613,-2.5252562204944056,6.108815657883444,1.0144803524017334,-1.943744961415426
1708435331.6999385,-2.1417126655578613,-1.333264784221985,-2.5252726713763636,6.108743059426107,1.014508843421936,-1.9437406698810022
1708435331.7019825,-2.141726016998291,-1.3332736057094117,-2.5252352396594446,6.108779656677999,1.0145044326782227,-1.9437182585345667
1708435331.703972,-2.1417429447174072,-1.3332291108420868,-2.5251944700824183,6.1087437746818445,1.0144551992416382,-1.9436562697040003
1708435331.7059178,-2.141726016998291,-1.3332187545350571,-2.5252230803119105,6.1087156412895105,1.014508843421936,-1.9436324278460901
1708435331.7079206,-2.1417596340179443,-1.3332498532584687,-2.525199000035421,6.1087156412895105,1.0144881010055542,-1.9436457792865198
1708435331.7098837,-2.141730546951294,-1.3332035404494782,-2.5252109209643763,6.108692633896627,1.0144803524017334,-1.9435723463641565
1708435331.7118864,-2.141747236251831,-1.3332124513438721,-2.525199000035421,6.108619081764974,1.0144881010055542,-1.9435723463641565
1708435331.7139308,-2.1416943073272705,-1.3331801158240815,-2.5252109209643763,6.108647930413046,1.014546275138855,-1.943545166646139
1708435331.7159145,-2.141730308532715,-1.3331961196712037,-2.5252109209643763,6.108660208969869,1.0144715309143066,-1.9435213247882288
1708435331.7179024,-2.1416985988616943,-1.333184541468956,-2.525224510823385,6.108591544419088,1.0144715309143066,-1.9434283415423792
1708435331.719897,-2.141723394393921,-1.3332048517516633,-2.5252516905414026,6.108656632691183,1.0145132541656494,-1.943394962941305
1708435331.7218904,-2.141657829284668,-1.3331725162318726,-2.525215450917379,6.108584034233846,1.0145251750946045,-1.9433921019183558
1708435331.723916,-2.141653537750244,-1.3331977289966126,-2.525182549153463,6.108616578369894,1.0144970417022705,-1.943369213734762
1708435331.7258847,-2.141711950302124,-1.3331768971732636,-2.5252230803119105,6.108616578369894,1.0144596099853516,-1.9433077017413538
1708435331.7278805,-2.141711950302124,-1.333200530414917,-2.5252185503589075,6.108580815583029,1.0144925117492676,-1.9432476202594202
1708435331.729936,-2.1416501998901367,-1.3331725162318726,-2.5252321402179163,6.108548033028402,1.0144551992416382,-1.9431846777545374
1708435331.7318883,-2.141641139984131,-1.3331814122251053,-2.5252321402179163,6.108601438790121,1.0145176649093628,-1.9431198279010218
1708435331.7338772,-2.141662359237671,-1.3331932437470932,-2.5252063910113733,6.10858844497756,1.0145044326782227,-1.943043057118551
1708435331.7358959,-2.1416261196136475,-1.3331948083690186,-2.5252352396594446,6.10858844497756,1.0145163536071777,-1.9429801146136683
1708435331.7379642,-2.1416711807250977,-1.333132104282715,-2.5252109209643763,6.108572113304891,1.0145251750946045,-1.9429643789874476
1708435331.73987,-2.141657829284668,-1.3331498068622132,-2.525215450917379,6.108572113304891,1.0145373344421387,-1.9428299109088343
1708435331.7418995,-2.1416544914245605,-1.3331858080676575,-2.5252681414233606,6.108605730324545,1.0145251750946045,-1.9427545706378382
1708435331.7438786,-2.1416802406311035,-1.3330991131118317,-2.5252814928637903,6.1085524437721155,1.014523983001709,-1.9426401297198694
1708435331.7458906,-2.1416544914245605,-1.333124266271927,-2.5252652804004114,6.108553516655721,1.014508843421936,-1.9425690809832972
1708435331.7479246,-2.141646385192871,-1.3331232380918046,-2.5252442995654505,6.108524548798361,1.0145163536071777,-1.9425261656390589
1708435331.7498991,-2.1416332721710205,-1.333145411019661,-2.5252769629107874,6.1085697291191,1.0144881010055542,-1.9424055258380335
1708435331.751888,-2.141646385192871,-1.3331780594638367,-2.5252681414233606,6.108577358513632,1.0145163536071777,-1.9422715345965784
1708435331.7538853,-2.141606092453003,-1.333157242541649,-2.5252230803119105,6.108556735306539,1.0145330429077148,-1.9421799818622034
1708435331.7558773,-2.1416263580322266,-1.3331439656070252,-2.5252018610583704,6.108544814377584,1.014540672302246,-1.942073170338766
1708435331.7578838,-2.1416375637054443,-1.3331498068622132,-2.5252261797534388,6.108581530838766,1.014573335647583,-1.941927735005514
1708435331.7598796,-2.1416306495666504,-1.3331617277911683,-2.5252185503589075,6.10854052284316,1.0146106481552124,-1.9417994658099573
1708435331.7618725,-2.1415979862213135,-1.3331617277911683,-2.5252726713763636,6.10849283912734,1.0145812034606934,-1.9416611830340784
1708435331.7638924,-2.1416103839874268,-1.3331454259208222,-2.5252636114703577,6.108517634659567,1.0145930051803589,-1.9415167013751429
1708435331.7658875,-2.14158296585083,-1.333152861600258,-2.5252800623523157,6.108512270241537,1.014604926109314,-1.9413321653949183
1708435331.767881,-2.141611099243164,-1.3331528466990967,-2.525287453328268,6.108509051590719,1.014603853225708,-1.9411638418780726
1708435331.7699082,-2.141615629196167,-1.3332226288369675,-2.525304142628805,6.108476507454672,1.0146293640136719,-1.9410646597491663
1708435331.7718756,-2.1416068077087402,-1.33318583786998,-2.5252953211413782,6.108488547592916,1.0146903991699219,-1.9408791700946253
1708435331.7739007,-2.141590118408203,-1.3331365299275895,-2.525311533604757,6.108480918198385,1.0146323442459106,-1.9407199064837855
1708435331.7758906,-2.1416237354278564,-1.3331198555282135,-2.525320593510763,6.108476626663961,1.0146560668945312,-1.9405019919024866
1708435331.7779095,-2.141611337661743,-1.333102287059166,-2.525299612675802,6.108410942345419,1.0147101879119873,-1.9403498808490198
1708435331.7798884,-2.141603469848633,-1.333182455306389,-2.525295082722799,6.108513343125143,1.0147209167480469,-1.940150562916891
1708435331.7819064,-2.141570568084717,-1.3332065802863617,-2.5253282229052942,6.108480918198385,1.014732837677002,-1.9399412314044397
1708435331.7838912,-2.1416077613830566,-1.33315725744281,-2.5253236929522913,6.108468639641561,1.0147660970687866,-1.939753834401266
1708435331.7858994,-2.1416077613830566,-1.3331691783717652,-2.5253236929522913,6.108485209732809,1.0147690773010254,-1.9394963423358362
1708435331.7878983,-2.141561508178711,-1.333169163470604,-2.5253639856921595,6.108497130661764,1.0147440433502197,-1.939300839100973
1708435331.789893,-2.141587495803833,-1.3331439656070252,-2.5254271666156214,6.108468639641561,1.0148214101791382,-1.9390257040606897
1708435331.791892,-2.14158296585083,-1.3331528466990967,-2.5253639856921595,6.10852216461257,1.0148124694824219,-1.938803497944967
1708435331.7939146,-2.1415750980377197,-1.3332181733897706,-2.5253503958331507,6.108533966332235,1.0148651599884033,-1.9385369459735315
1708435331.795905,-2.1415750980377197,-1.3331647676280518,-2.5253880659686487,6.108476626663961,1.0149428844451904,-1.9382317701922815
1708435331.7978988,-2.1415581703186035,-1.3331439358047028,-2.52539569536318,6.108472215920248,1.0149537324905396,-1.9380243460284632
1708435331.7998981,-2.1415491104125977,-1.333204836850502,-2.5253942648517054,6.108489620476522,1.0149669647216797,-1.9377883116351526
1708435331.8020217,-2.1415963172912598,-1.3331602674773713,-2.5254557768451136,6.108468639641561,1.014937400817871,-1.9375007788287562
1708435331.8039043,-2.1415352821350098,-1.3331276339343567,-2.5254603067981165,6.108517753868856,1.0149775743484497,-1.937150780354635
1708435331.8058858,-2.1415627002716064,-1.3331395548633118,-2.5254557768451136,6.108501422196188,1.0150138139724731,-1.9368699232684534
1708435331.8078918,-2.141530752182007,-1.3331858080676575,-2.5255048910724085,6.108485209732809,1.0150049924850464,-1.9366033712970179
1708435331.809887,-2.1415059566497803,-1.3331109446338196,-2.525536600743429,6.108529555588522,1.0150364637374878,-1.936310116444723
1708435331.8118985,-2.141515016555786,-1.3331365299275895,-2.525487009678976,6.108529555588522,1.0151097774505615,-1.9359949270831507
1708435331.813882,-2.1415016651153564,-1.3331484508565445,-2.525489870701925,6.108485209732809,1.0150772333145142,-1.9357178846942347
1708435331.815887,-2.1415016651153564,-1.3332181733897706,-2.525536600743429,6.108517753868856,1.0151088237762451,-1.9353650251971644
1708435331.8180554,-2.1415228843688965,-1.3332154911807557,-2.5255516211139124,6.108501422196188,1.0151088237762451,-1.935014549885885
1708435331.8199127,-2.1414945125579834,-1.3332137626460572,-2.525529209767477,6.108480918198385,1.0151777267456055,-1.9346163908587855
1708435331.8218856,-2.141514778137207,-1.3330902022174378,-2.5255919138537806,6.10849283912734,1.0152599811553955,-1.9343393484698694
1708435331.823896,-2.1414706707000732,-1.3331484359553833,-2.5255873839007776,6.108504760056295,1.015237808227539,-1.9339006582843226
1708435331.825902,-2.1414618492126465,-1.3331647676280518,-2.52561599413027,6.108497130661764,1.0152617692947388,-1.9335277716266077
1708435331.827911,-2.141458511352539,-1.3331602823785325,-2.5255771319018763,6.108598100930013,1.0152814388275146,-1.9331310431109827
1708435331.82991,-2.1415326595306396,-1.3331528466990967,-2.525602404271261,6.108536231308737,1.0153508186340332,-1.9327786604510706
1708435331.8319132,-2.141475200653076,-1.333188847904541,-2.5256548563586634,6.108549105912008,1.0153745412826538,-1.932340447102682
1708435331.833893,-2.1415281295776367,-1.3332137328437348,-2.5256667772876185,6.1085524437721155,1.0154061317443848,-1.9319642225848597
1708435331.835886,-2.1414706707000732,-1.333190218811371,-2.5256758371936243,6.108633982926168,1.0154662132263184,-1.9315584341632288
1708435331.8378956,-2.1414921283721924,-1.333123193388321,-2.5257328192340296,6.1085678217704675,1.015482783317566,-1.931117359791891
1708435331.8398912,-2.141512393951416,-1.3331515353969117,-2.525714937840597,6.10859380939559,1.0155516862869263,-1.9307158629046839
1708435331.8418863,-2.141451358795166,-1.3332704466632386,-2.525752369557516,6.108625280648031,1.0155221223831177,-1.9302666823016565
1708435331.8438792,-2.1414337158203125,-1.333197758798935,-2.5257886091815394,6.1085959551628015,1.0156118869781494,-1.92983323732485
1708435331.8458774,-2.1414716243743896,-1.333176926975586,-2.5257464090930384,6.10867320278243,1.0156389474868774,-1.9293387571917933
1708435331.847875,-2.141484022140503,-1.3331395250609894,-2.5257795492755335,6.1086089489753626,1.0156841278076172,-1.9288786093341272
1708435331.8498878,-2.1414425373077393,-1.3331814271262665,-2.5257914702044886,6.108652341156759,1.015740990638733,-1.9283764998065394
1708435331.8518937,-2.141462802886963,-1.333197758798935,-2.525832001362936,6.10864936092452,1.0157396793365479,-1.9278538862811487
1708435331.853927,-2.141467332839966,-1.3331637543490906,-2.52584416071047,6.108730661659994,1.015750527381897,-1.9274027983294886
1708435331.8558798,-2.1414356231689453,-1.3331471246531983,-2.52586800256838,6.108651506691732,1.0157954692840576,-1.9268758932696741
1708435331.8578777,-2.141439914703369,-1.3331681948951264,-2.52586800256838,6.108680712967672,1.0158809423446655,-1.9263466040240687
1708435331.8598852,-2.141406297683716,-1.3331712049296875,-2.5258799234973353,6.108704554825582,1.0159080028533936,-1.9258015791522425
1708435331.8618817,-2.1414425373077393,-1.3331961196712037,-2.5259280840503138,6.108695852547445,1.0159199237823486,-1.9252389113055628
1708435331.8638735,-2.141427516937256,-1.3332079511931916,-2.5259280840503138,6.108736264496603,1.015918493270874,-1.924694840108053
1708435331.865986,-2.14145565032959,-1.3331932437470932,-2.525935475026266,6.10879813411788,1.0159755945205688,-1.9241159597979944
1708435331.8678844,-2.141448736190796,-1.3331602674773713,-2.5259340445147913,6.108825433045187,1.016007423400879,-1.923619572316305
1708435331.8698838,-2.141427516937256,-1.333225594168045,-2.5259879271136683,6.108788239746847,1.0160974264144897,-1.9231022039996546
1708435331.871896,-2.141423225402832,-1.3332124513438721,-2.5259998480426233,6.108804571419515,1.016100525856018,-1.922528092061178
1708435331.8738952,-2.141399383544922,-1.333220199947693,-2.5260074774371546,6.10881673076705,1.0161601305007935,-1.9219582716571253
1708435331.8758955,-2.1414194107055664,-1.3332246106914063,-2.525972906743185,6.108828651696005,1.016184687614441,-1.9213116804706019
1708435331.8779004,-2.1413867473602295,-1.3332246106914063,-2.526043478642599,6.108880984574117,1.0162205696105957,-1.9207690397845667
1708435331.8798969,-2.1413822174072266,-1.3331426245025177,-2.526034418736593,6.108876573830404,1.0162523984909058,-1.9201543966876429
1708435331.8818989,-2.1414196491241455,-1.333220199947693,-2.52606445947756,6.108883845597067,1.0163012742996216,-1.9195435682879847
1708435331.8839211,-2.1414036750793457,-1.3331872087768097,-2.5260987917529505,6.108940470009603,1.0163451433181763,-1.9189093748675745
1708435331.885884,-2.1413912773132324,-1.3332124513438721,-2.5261152426349085,6.108899223595419,1.0163319110870361,-1.918311897908346
1708435331.8879042,-2.1413698196411133,-1.3332291108420868,-2.5260897318469446,6.108899223595419,1.0164011716842651,-1.9177125136004847
1708435331.8899095,-2.1413698196411133,-1.3332068783095856,-2.5261181036578577,6.108948337822714,1.0164381265640259,-1.9170120398150843
1708435331.891882,-2.1413745880126953,-1.3332365316203614,-2.526200596486227,6.108980881958761,1.016411542892456,-1.916391674672262
1708435331.8938808,-2.1414194107055664,-1.3332661849311371,-2.526187245045797,6.108975398331442,1.0164730548858643,-1.9156959692584437
1708435331.8958797,-2.1413822174072266,-1.3332814437201996,-2.526187245045797,6.108971106797018,1.016480803489685,-1.9150379339801233
1708435331.8978915,-2.1413698196411133,-1.3332933646491547,-2.526224676762716,6.108994948654928,1.016525387763977,-1.9144251982318323
1708435331.8998978,-2.1413745880126953,-1.3332395416549225,-2.5262022654162806,6.109093057900228,1.0165201425552368,-1.9137848059283655
1708435331.9019558,-2.141383171081543,-1.3332888644984742,-2.526221815739767,6.109054672508993,1.0165770053863525,-1.9131000677691858
1708435331.9039745,-2.1413347721099854,-1.3332603734782715,-2.5262637774096888,6.109050380974569,1.0166010856628418,-1.9123595396624964
1708435331.905913,-2.1413745880126953,-1.333352879886963,-2.5263028780566614,6.109087455063619,1.0166457891464233,-1.9116857687579554
1708435331.9078963,-2.1413092613220215,-1.3332963746837159,-2.526344601308004,6.109066951065817,1.016705870628357,-1.9110334555255335
1708435331.909907,-2.1413393020629883,-1.3333453697017212,-2.526344601308004,6.109118926316061,1.016709327697754,-1.9103029409991663
1708435331.9118888,-2.141376256942749,-1.3333365482142945,-2.5263522307025355,6.1091558811958215,1.016737461090088,-1.9096229712115687
1708435331.9139392,-2.1413674354553223,-1.3333440583995362,-2.5263477007495325,6.109114634781637,1.016769289970398,-1.9088600317584437
1708435331.9158978,-2.141364812850952,-1.3332947355559845,-2.526404682789938,6.1091264365013025,1.0167856216430664,-1.9081104437457483
1708435331.9179,-2.141376256942749,-1.3333035570434113,-2.526404921208517,6.109199392586508,1.016862392425537,-1.90739614168276
1708435331.919911,-2.141376256942749,-1.3333365482142945,-2.526383940373556,6.10916684845046,1.016898274421692,-1.9066346327411097
1708435331.921884,-2.1413393020629883,-1.3333113950541993,-2.5264409224139612,6.1091863987739465,1.0169224739074707,-1.9059189001666468
1708435331.9239154,-2.1413605213165283,-1.3333603900722046,-2.5263822714435022,6.109202611237325,1.0169332027435303,-1.905081574116842
1708435331.925883,-2.141408920288086,-1.3333559793284913,-2.52645713487734,6.109199392586508,1.0169165134429932,-1.9043872992144983
1708435331.927889,-2.141322374343872,-1.3333514791778107,-2.5264256636248987,6.109222161560812,1.0169570446014404,-1.903625790272848
1708435331.929887,-2.141378879547119,-1.3333514791778107,-2.5264559427844446,6.109251367836752,1.0169392824172974,-1.9027474562274378
1708435331.9319026,-2.141360282897949,-1.3333514791778107,-2.5264678637133997,6.109217750817098,1.0169919729232788,-1.9019559065448206
1708435331.933865,-2.141343593597412,-1.333363727932312,-2.526479784642355,6.109278666764059,1.0170788764953613,-1.9011505285846155
1708435331.9358795,-2.1413559913635254,-1.3333470982364197,-2.5264573732959192,6.109283077507772,1.0171101093292236,-1.9003823439227503
1708435331.9379125,-2.1413354873657227,-1.3334158223918458,-2.526494805012838,6.109343755036154,1.0170804262161255,-1.8996527830706995
1708435331.9399054,-2.1413347721099854,-1.3333889704993744,-2.5265443960772913,6.109338271408834,1.0171256065368652,-1.8988364378558558
1708435331.941869,-2.1413393020629883,-1.3333889704993744,-2.5265188852893274,6.109366762429037,1.017112374305725,-1.8981097380267542
1708435331.9438725,-2.141364812850952,-1.3333800596049805,-2.5265725294696253,6.1093060849006555,1.017133116722107,-1.8972962538348597
1708435331.9458992,-2.141348123550415,-1.3333756488612671,-2.5265682379352015,6.109378683357992,1.0171856880187988,-1.8965643087970179
1708435331.947891,-2.1413354873657227,-1.3334364754012604,-2.5265637079821985,6.109365689545431,1.0172231197357178,-1.895707909260885
1708435331.949895,-2.141364812850952,-1.3333548170379181,-2.5265710989581507,6.109340655594625,1.017275333404541,-1.8948944250689905
1708435331.9519,-2.141315460205078,-1.3333919805339356,-2.526628319417135,6.109385359078207,1.0172532796859741,-1.8941496054278772
1708435331.9539,-2.141319751739502,-1.3334041398814698,-2.526628319417135,6.109434473305502,1.0172861814498901,-1.8933942953692835
1708435331.9559033,-2.1412858963012695,-1.3333919805339356,-2.526623789464132,6.109453666001119,1.017364263534546,-1.8926189581500452
1708435331.9579008,-2.1413161754608154,-1.3334617179683228,-2.526623789464132,6.109474289208212,1.0173420906066895,-1.8917964140521448
1708435331.959931,-2.1412816047668457,-1.3333711487105866,-2.5266762415515345,6.109507071762838,1.017386555671692,-1.89105731645693
1708435331.9618967,-2.1412949562072754,-1.3333831590465088,-2.5266643206225794,6.109510290413656,1.017386555671692,-1.8902671972857874
1708435331.9639444,-2.141310930252075,-1.3334041398814698,-2.5266671816455286,6.109583961754598,1.0173988342285156,-1.889449421559469
1708435331.9658809,-2.1412792205810547,-1.333338276748993,-2.5267167727099817,6.109505879669943,1.0174274444580078,-1.8887131849872034
1708435331.967925,-2.141263246536255,-1.3334365350059052,-2.5267332235919397,6.109504806786337,1.0174306631088257,-1.88792592683901
1708435331.9698887,-2.1412746906280518,-1.3334041398814698,-2.526707712803976,6.1095462916191,1.0174874067306519,-1.8871143499957483
1708435331.97188,-2.1412835121154785,-1.3334158223918458,-2.526773754750387,6.109537589340963,1.017504096031189,-1.8863704840289515
1708435331.9739082,-2.1412551403045654,-1.3334528070739289,-2.52674371400942,6.109565484314718,1.0175070762634277,-1.8856332937823694
1708435331.9758766,-2.1412906646728516,-1.333407000904419,-2.5267015139209192,6.109492885857382,1.0175517797470093,-1.8848312536822718
1708435331.9778934,-2.1412384510040283,-1.333444045191147,-2.5267093817340296,6.109533417015829,1.0175474882125854,-1.8839991728412073
1708435331.9799016,-2.141202449798584,-1.3333787483027955,-2.5267255941974085,6.10951708534316,1.0175386667251587,-1.8832629362689417
1708435331.981897,-2.141213893890381,-1.333439664249756,-2.5267797152148646,6.109573352127828,1.0175750255584717,-1.8825090567218226
1708435331.9839265,-2.141268491744995,-1.333460734491684,-2.5267661253558558,6.109537589340963,1.0175824165344238,-1.8817747274981897
1708435331.9858997,-2.1412429809570312,-1.3334563237479706,-2.5267706553088587,6.109553563385763,1.0175529718399048,-1.8809602896319788
1708435331.9879134,-2.1412243843078613,-1.3334726852229615,-2.526778046284811,6.109627592354574,1.0176469087600708,-1.8801854292498987
1708435331.9899087,-2.1412384510040283,-1.333496407871582,-2.526789967213766,6.1095982668693445,1.0176798105239868,-1.8794239203082483
1708435331.9918864,-2.1412289142608643,-1.3334919524243851,-2.526811424885885,6.109544980316915,1.0176916122436523,-1.8786299864398401
1708435331.9938986,-2.1412110328674316,-1.3335529130748291,-2.5268545786487024,6.109561192780294,1.0176740884780884,-1.8778818289386194
1708435331.9958882,-2.1411385536193848,-1.3335189384273072,-2.5268996397601526,6.109602558403768,1.0177236795425415,-1.8770268599139612
1708435331.9978852,-2.1412084102630615,-1.3335726720145722,-2.5268664995776575,6.109541880875387,1.0177310705184937,-1.8763039747821253
1708435331.9998896,-2.1411519050598145,-1.3335430187037964,-2.526961151753561,6.1095361588294885,1.0177748203277588,-1.8754547278033655
1708435332.0019298,-2.1411845684051514,-1.3335580241731186,-2.526919190083639,6.109504091530599,1.0177748203277588,-1.8746708075152796
1708435332.0039644,-2.141172170639038,-1.3335386377624054,-2.526926581059591,6.109496223717489,1.0178077220916748,-1.8739069143878382
1708435332.0059388,-2.141122579574585,-1.3335953664830704,-2.5270002524005335,6.109574067383566,1.0178183317184448,-1.873063866292135
1708435332.0079246,-2.1410884857177734,-1.333660603766777,-2.5270002524005335,6.109484302788534,1.0178556442260742,-1.8723152319537562
1708435332.009931,-2.141097068786621,-1.3336683076671143,-2.526977841054098,6.109570848732748,1.0179038047790527,-1.8715317885028284
1708435332.0118887,-2.1410634517669678,-1.3336232167533417,-2.527055803929464,6.109484302788534,1.0179245471954346,-1.8707850615130823
1708435332.0139098,-2.1410272121429443,-1.333659366970398,-2.527088467274801,6.109504806786337,1.0179401636123657,-1.8699539343463343
1708435332.0158944,-2.1409523487091064,-1.3336505752852936,-2.5270796457873743,6.1094481823738,1.0179520845413208,-1.8691390196429651
1708435332.0179129,-2.140961170196533,-1.3336623770049592,-2.5271320978747767,6.109522211342611,1.0179756879806519,-1.8684075514422815
1708435332.0198832,-2.1409409046173096,-1.333702878361084,-2.527118508015768,6.1094655869300745,1.0180164575576782,-1.8676989714251917
1708435332.0218916,-2.1409082412719727,-1.3336984676173707,-2.527159039174215,6.109457957535543,1.0180569887161255,-1.8668878714190882
1708435332.0239325,-2.1408727169036865,-1.3336953830770035,-2.527175490056173,6.109421479492941,1.018034815788269,-1.8661544958697718
1708435332.025909,-2.140845537185669,-1.33367774010215,-2.5271998087512415,6.109348165779867,1.0180633068084717,-1.86538011232485
1708435332.0279286,-2.1407978534698486,-1.3337267202189942,-2.527259413396017,6.109373199730673,1.0180785655975342,-1.8646844069110315
1708435332.0298975,-2.140773057937622,-1.333747462635376,-2.5272792021380823,6.109292971878805,1.0181035995483398,-1.8638933340655726
1708435332.0318995,-2.1407368183135986,-1.3337746274522324,-2.527276341115133,6.109359133034506,1.0181728601455688,-1.863213841115133
1708435332.0339444,-2.140697956085205,-1.3337790232947846,-2.5273240248309534,6.109277593880453,1.018192172050476,-1.8623817602740687
1708435332.035896,-2.1405467987060547,-1.3337821674397965,-2.5273481051074427,6.109253752022543,1.018249273300171,-1.8617404142962855
1708435332.0379252,-2.1405327320098877,-1.3338314604810257,-2.527384106312887,6.109198319702902,1.0182926654815674,-1.8609955946551722
1708435332.039893,-2.140455722808838,-1.3338628274253388,-2.5273945967303675,6.1091744778449915,1.0182795524597168,-1.8602913061725062
1708435332.0418968,-2.14039945602417,-1.3338759702495118,-2.5274019877063196,6.109098064690389,1.0183069705963135,-1.8596060911761683
1708435332.0439088,-2.1403603553771973,-1.3339315217784424,-2.5274561087237757,6.109058367996969,1.0183727741241455,-1.8588970343219202
1708435332.0458946,-2.1402933597564697,-1.3338702333024521,-2.5275116602527063,6.108981835633077,1.0184162855148315,-1.8582237402545374
1708435332.0478957,-2.140187978744507,-1.333938942556717,-2.5275190512286585,6.108897077828207,1.018489956855774,-1.8575056234942835
1708435332.0498805,-2.140129804611206,-1.3339790415814896,-2.52760893503298,6.108948337822714,1.0185543298721313,-1.856868092213766
1708435332.051918,-2.1399972438812256,-1.3340026450208207,-2.5275984446154993,6.108799326210775,1.0185977220535278,-1.8561456839190882
1708435332.0540333,-2.139913320541382,-1.333977760081627,-2.5277138392077845,6.108723270684042,1.0186045169830322,-1.855485741292135
1708435332.055889,-2.1398587226867676,-1.334022195344307,-2.527691427861349,6.1086158631141565,1.0186941623687744,-1.8547785917865198
1708435332.0579093,-2.1397385597229004,-1.3340579581311722,-2.527785841618673,6.108475434571066,1.0187125205993652,-1.8541620413409632
1708435332.059896,-2.1395983695983887,-1.3340817999890824,-2.527749840413229,6.108376252442159,1.0187935829162598,-1.8535121122943323
1708435332.0619116,-2.1394994258880615,-1.3341424626163025,-2.527807060872213,6.108215439110555,1.0188626050949097,-1.8528536001788538
1708435332.0639203,-2.1394031047821045,-1.3341178011945267,-2.5278309027301233,6.108096110611715,1.0189182758331299,-1.8522418181048792
1708435332.0659056,-2.1392600536346436,-1.3341128093055268,-2.527907435094015,6.10800992229537,1.018978476524353,-1.8516419569598597
1708435332.0680315,-2.1391196250915527,-1.334148572092392,-2.527935806904928,6.107846128731527,1.0190383195877075,-1.8510196844684046
1708435332.0698893,-2.139023780822754,-1.3342375618270417,-2.5280121008502405,6.1076851961906335,1.019139051437378,-1.8503974119769495
1708435332.0718837,-2.138827085494995,-1.334281639461853,-2.5280032793628138,6.107526170998373,1.019149899482727,-1.8498509565936487
1708435332.0739202,-2.1387290954589844,-1.3343216341784974,-2.5281248728381556,6.107338297158041,1.0192757844924927,-1.8491900602923792
1708435332.0758958,-2.138535499572754,-1.33432890594516,-2.528189484273092,6.107199895172872,1.0193268060684204,-1.848652187977926
1708435332.077912,-2.1383438110351562,-1.3343572181514283,-2.5281954447375696,6.106967556267538,1.0193990468978882,-1.8480947653399866
1708435332.079897,-2.138148784637451,-1.3343891513398667,-2.528313700352804,6.106665599137106,1.0195116996765137,-1.8475335280047815
1708435332.0818875,-2.1379995346069336,-1.3343964380076905,-2.5283198992358606,6.106609809189596,1.0196573734283447,-1.846952263508932
1708435332.0839171,-2.1378173828125,-1.3344160628369828,-2.528351370488302,6.106357800751486,1.0196994543075562,-1.8463776747332972
1708435332.0858839,-2.137633800506592,-1.334456281071045,-2.528480354939596,6.10610460022048,1.019783854484558,-1.8458378950702112
1708435332.0878901,-2.1373889446258545,-1.334520087843277,-2.5285399595843714,6.105939018517294,1.0199010372161865,-1.845353905354635
1708435332.0898802,-2.1371171474456787,-1.3345722270062943,-2.5286410490619105,6.105695593148031,1.0199718475341797,-1.8448451201068323
1708435332.0918813,-2.136939525604248,-1.3345995855382462,-2.528682533894674,6.105379330902853,1.020117163658142,-1.8443110624896448
1708435332.0938861,-2.136709213256836,-1.334655911927559,-2.5287712256061,6.105160701065817,1.0202243328094482,-1.8438599745379847
1708435332.0958834,-2.1363582611083984,-1.3346800369075318,-2.52885085741152,6.104769456177511,1.02034592628479,-1.8433473745929163
1708435332.097912,-2.136103630065918,-1.3346951615861435,-2.5290170351611536,6.104460823326864,1.0204659700393677,-1.8428710142718714
1708435332.0998843,-2.1358704566955566,-1.3347679835608979,-2.5290635267840784,6.104240047722616,1.0205501317977905,-1.8423360029803675
1708435332.1019194,-2.1355743408203125,-1.3348394942334671,-2.52916390100588,6.103964793473043,1.0207149982452393,-1.8418791929828089
1708435332.1039562,-2.135249614715576,-1.3348635745099564,-2.5292721430407923,6.103632318764486,1.0208070278167725,-1.8414719740497034
1708435332.1058974,-2.134906053543091,-1.3349230897477646,-2.529396359120504,6.103285419731893,1.0209842920303345,-1.841039005910055
1708435332.1079247,-2.1346240043640137,-1.334982992415764,-2.529525343571798,6.102870571404257,1.0210999250411987,-1.840609375630514
1708435332.1099038,-2.1342275142669678,-1.33503049731765,-2.5296574274646204,6.1025158045585535,1.0212597846984863,-1.8402350584613245
1708435332.1120636,-2.133876323699951,-1.3350866001895447,-2.5298014322863978,6.10213719585494,1.0214488506317139,-1.839790169392721
1708435332.1138906,-2.133538007736206,-1.3351180416396637,-2.529961887990133,6.101735102921285,1.0215930938720703,-1.83942157426943
1708435332.1158903,-2.1331593990325928,-1.3351701957038422,-2.53007418314089,6.101263272553243,1.0217642784118652,-1.8390114943133753
1708435332.1178894,-2.1327335834503174,-1.3352500361255188,-2.530189816151754,6.100820052414694,1.0219627618789673,-1.8386719862567347
1708435332.1198924,-2.1324076652526855,-1.335297317509987,-2.5303412119494837,6.100427377014913,1.0220905542373657,-1.8383482138263147
1708435332.1218789,-2.131972312927246,-1.335397870545723,-2.530506197606222,6.099964129715719,1.0223397016525269,-1.8379619757281702
1708435332.123913,-2.1315200328826904,-1.335465447311737,-2.5306246916400355,6.099469411164083,1.0224947929382324,-1.83767015138735
1708435332.125882,-2.131073236465454,-1.3355771613172074,-2.53078800836672,6.098864900856771,1.022731900215149,-1.837428394948141
1708435332.1278918,-2.1305806636810303,-1.33566968262706,-2.5309816042529505,6.098360764771261,1.0229769945144653,-1.8370874563800257
1708435332.129923,-2.130094051361084,-1.33570450664077,-2.5311570803271692,6.097800838738241,1.0231813192367554,-1.836804215108053
1708435332.1318848,-2.129664897918701,-1.3358242821744462,-2.5313294569598597,6.097231137543478,1.023392915725708,-1.8365491072284144
1708435332.1338856,-2.1291167736053467,-1.335896061067917,-2.5315306822406214,6.096689808159628,1.023633599281311,-1.836353603993551
1708435332.1358712,-2.1285386085510254,-1.335991532807686,-2.531705919896261,6.096152770310201,1.023878812789917,-1.8360922972308558
1708435332.1379027,-2.1280884742736816,-1.3360668432763596,-2.53188139597048,6.09556673744277,1.0241401195526123,-1.8359058539019983
1708435332.1399152,-2.127462387084961,-1.3361789596131821,-2.5321393648730677,6.094862329750814,1.0243384838104248,-1.8356922308551233
1708435332.1418843,-2.126920700073242,-1.336282179956772,-2.5323103109942835,6.094228613167562,1.0246206521987915,-1.8355010191546839
1708435332.1438944,-2.1262896060943604,-1.336462841635086,-2.5325501600848597,6.0934780714805505,1.0249006748199463,-1.8353737036334437
1708435332.1458972,-2.1256749629974365,-1.3365254563144227,-2.5327795187579554,6.092768656998434,1.0252267122268677,-1.835212532673971
1708435332.1479063,-2.125061273574829,-1.336625338797905,-2.5329657236682337,6.092051732331075,1.0254700183868408,-1.8350775877581995
1708435332.1498973,-2.124393939971924,-1.336724342112877,-2.5332472960101526,6.091322409897604,1.0257538557052612,-1.834949795399801
1708435332.1519084,-2.123779773712158,-1.3369333308986207,-2.533417050038473,6.090556013375082,1.0260789394378662,-1.8348458448993128
1708435332.153878,-2.1231164932250977,-1.3369841885617753,-2.5336747805224817,6.089774119644918,1.0263807773590088,-1.834724251423971
1708435332.1558814,-2.1224048137664795,-1.3371079427054902,-2.533926788960592,6.088985073357382,1.0266599655151367,-1.8346293608294886
1708435332.1578724,-2.1217291355133057,-1.337231145506241,-2.534154478703634,6.088138210564413,1.0269982814788818,-1.8345349470721644
1708435332.1598742,-2.1209561824798584,-1.3373303425363083,-2.534414354954855,6.087272631912985,1.027309775352478,-1.8345583120929163
1708435332.161875,-2.120185613632202,-1.337527022962906,-2.5347023645984095,6.086357342987814,1.0277073383331299,-1.8345049063311976
1708435332.1639612,-2.1193735599517822,-1.337682695393898,-2.534977976475851,6.085403907089987,1.0280771255493164,-1.8345516363727015
1708435332.1659305,-2.1185834407806396,-1.337769941692688,-2.5353170076953333,6.084417927056112,1.0284538269042969,-1.8344939390765589
1708435332.1678872,-2.117824077606201,-1.3379264634898682,-2.535574976597921,6.083541857987203,1.0287983417510986,-1.8345721403705042
1708435332.1698818,-2.117016315460205,-1.3380580109408875,-2.535879198704855,6.082585322647848,1.0291939973831177,-1.8346036116229456
1708435332.1718736,-2.11613130569458,-1.3382005256465455,-2.536147658024923,6.081550466805258,1.02959144115448,-1.8346546331988733
1708435332.1738737,-2.1152756214141846,-1.3383062344840546,-2.536438528691427,6.080587255745687,1.029943585395813,-1.8347438017474573
1708435332.1758845,-2.114409923553467,-1.3385169071010132,-2.536759678517477,6.079502332001486,1.0303316116333008,-1.83478290239443
1708435332.177881,-2.113455057144165,-1.3386324656060715,-2.5370457808123987,6.078420865326681,1.0308191776275635,-1.8348348776446741
1708435332.1799095,-2.112574577331543,-1.338823364382126,-2.5373743216144007,6.0774303553398035,1.0311821699142456,-1.834928337727682
1708435332.1819146,-2.111647129058838,-1.3389626008323212,-2.5377147833453577,6.076389419823446,1.0316641330718994,-1.8350866476642054
1708435332.1839125,-2.1106655597686768,-1.339171977048256,-2.5380669275866907,6.075216281204977,1.0321166515350342,-1.8352187315570276
1708435332.185873,-2.109670877456665,-1.339298741226532,-2.5383861700641077,6.074096667557516,1.0325044393539429,-1.8353961149798792
1708435332.187879,-2.1086928844451904,-1.339506448512413,-2.538755242024557,6.072899091034689,1.032957911491394,-1.8355806509601038
1708435332.1898754,-2.1077399253845215,-1.339596615438797,-2.5390504042254847,6.071812617569723,1.033411979675293,-1.835736099873678
1708435332.1920884,-2.106745719909668,-1.3398337227157135,-2.5394602457629603,6.070607769280233,1.0338321924209595,-1.8359115759478968
1708435332.1938922,-2.1057519912719727,-1.3399339777282258,-2.5398200193988245,6.069448458939352,1.0343220233917236,-1.836207691823141
1708435332.1958787,-2.1046719551086426,-1.3401016008904953,-2.5401890913592737,6.06823896148757,1.0348154306411743,-1.8364771048175257
1708435332.1978853,-2.103564977645874,-1.3402898174575348,-2.5405471960650843,6.066930043488302,1.0353254079818726,-1.8367703596698206
1708435332.1998827,-2.102491617202759,-1.340473548775055,-2.540919367467062,6.065702545433798,1.0358132123947144,-1.8370497862445276
1708435332.2019231,-2.1013681888580322,-1.340669499044754,-2.5412822405444544,6.06438301780776,1.03633451461792,-1.8373668829547327
1708435332.2039719,-2.100277900695801,-1.3408892762712021,-2.541687075291769,6.063118684082784,1.036876916885376,-1.837684456502096
1708435332.2059925,-2.099125385284424,-1.3410684776357193,-2.542103115712301,6.061769354134359,1.037396788597107,-1.8379886786090296
1708435332.2079232,-2.098017692565918,-1.341283695106842,-2.5424864927874964,6.060551869660177,1.0379143953323364,-1.838337246571676
1708435332.2099183,-2.0968575477600098,-1.341443495159485,-2.542924229298727,6.059259760170736,1.038377285003662,-1.8386848608600062
1708435332.211897,-2.0956995487213135,-1.3417200160077591,-2.5432735125171106,6.057883131295004,1.0389440059661865,-1.83911639848818
1708435332.2139046,-2.0945019721984863,-1.3418862533620377,-2.5437682310687464,6.0564623949821375,1.039469599723816,-1.8394845167743128
1708435332.2158942,-2.093263864517212,-1.3420566034368058,-2.5441482702838343,6.054968941002645,1.0399943590164185,-1.83990985551943
1708435332.2178924,-2.092048168182373,-1.3423132461360474,-2.5445929209338587,6.053534137993612,1.0405921936035156,-1.8403595129596155
1708435332.2198942,-2.0908148288726807,-1.3425122660449524,-2.545077387486593,6.052058446198263,1.0412098169326782,-1.8408163229571741
1708435332.2218838,-2.0895721912384033,-1.3427259784987946,-2.5454872290240687,6.050477969437399,1.0417901277542114,-1.8412845770465296
