Eg3-git/Classifiers/Data Collection/u2/u2xyz4_ur3e_joint_states.csv
time,elbow_joint,shoulder_lift_joint,shoulder_pan_joint,wrist_1_joint,wrist_2_joint,wrist_3_joint
1708435357.6880267,-2.1589179039001465,-1.337573454981186,-2.521085325871603,6.148466098099508,1.0070579051971436,-2.475766960774557
1708435357.6899772,-2.158947467803955,-1.337553323512413,-2.521064583455221,6.148482310562887,1.0070010423660278,-2.4757917563067835
1708435357.6919754,-2.1589221954345703,-1.337553323512413,-2.521097246800558,6.1485400078590295,1.0070010423660278,-2.475767199193136
1708435357.693974,-2.1588993072509766,-1.337516651754715,-2.521032158528463,6.148494589119711,1.0070087909698486,-2.475783173237936
1708435357.695991,-2.158890724182129,-1.3375491958907624,-2.521032158528463,6.148474800377645,1.007042407989502,-2.4757586161242884
1708435357.698037,-2.1589713096618652,-1.3375250560096283,-2.521052662526266,6.1484213946159265,1.0070381164550781,-2.4757800737964075
1708435357.7000227,-2.158930778503418,-1.3375199896148224,-2.521048370991842,6.148417103081503,1.0070096254348755,-2.4758036772357386
1708435357.7019851,-2.1588728427886963,-1.337593824868538,-2.521081034337179,6.1484084008033655,1.0070350170135498,-2.475783173237936
1708435357.7040122,-2.1589221954345703,-1.3375691634467621,-2.5210397879229944,6.148445594101705,1.007042407989502,-2.475762907658712
1708435357.7060134,-2.158935070037842,-1.3375608038953324,-2.521032158528463,6.148466098099508,1.0070306062698364,-2.4757631460772913
1708435357.7079875,-2.158947467803955,-1.3375811588815232,-2.521052662526266,6.148466098099508,1.007041335105896,-2.4757755438434046
1708435357.710029,-2.1588993072509766,-1.3375243705562134,-2.5210941473590296,6.148445594101705,1.00711989402771,-2.4757800737964075
1708435357.7120776,-2.1589598655700684,-1.337593824868538,-2.521052662526266,6.148457395821371,1.007041335105896,-2.475804630910055
1708435357.7140229,-2.158881425857544,-1.33758960783992,-2.521040741597311,6.148494469910421,1.007041335105896,-2.475828472767965
1708435357.7160125,-2.1589221954345703,-1.3375165921500702,-2.521024529133932,6.148424613266744,1.007106900215149,-2.4757993857013147
1708435357.717977,-2.158930778503418,-1.3375769418529053,-2.521024529133932,6.148474800377645,1.0070741176605225,-2.4757755438434046
1708435357.7200294,-2.1589035987854004,-1.3375522804311295,-2.5210288206683558,6.148466098099508,1.007041335105896,-2.4757755438434046
1708435357.7219975,-2.1589431762695312,-1.3374963414720078,-2.521052662526266,6.148483383446493,1.0070666074752808,-2.4757712523089808
1708435357.7239714,-2.1589841842651367,-1.3376179200461884,-2.5210569540606897,6.148429024010458,1.0070828199386597,-2.47575027147402
1708435357.7260227,-2.1588993072509766,-1.3375369024327775,-2.521052662526266,6.148482310562887,1.0070456266403198,-2.4757712523089808
1708435357.7279696,-2.1589064598083496,-1.3375165921500702,-2.521040741597311,6.148470389633932,1.0070860385894775,-2.4757800737964075
1708435357.7300396,-2.1589395999908447,-1.337512419824936,-2.5210700670825403,6.148466098099508,1.0070579051971436,-2.4757874647723597
1708435357.7320108,-2.1589107513427734,-1.3375207346728821,-2.521015707646505,6.148479091912069,1.0070500373840332,-2.4758198896991175
1708435357.7339969,-2.1589388847351074,-1.3375045967153092,-2.5210560003863733,6.148453104286947,1.0070456266403198,-2.4757631460772913
1708435357.7360346,-2.1589431762695312,-1.3375199896148224,-2.5210731665240687,6.148465025215902,1.0070456266403198,-2.4757712523089808
1708435357.7380183,-2.1588571071624756,-1.3375407618335267,-2.521052662526266,6.1484988806541345,1.0070338249206543,-2.475783173237936
1708435357.74,-2.1588993072509766,-1.3375207793763657,-2.521048370991842,6.1484988806541345,1.007054328918457,-2.4758079687701624
1708435357.7419944,-2.1589064598083496,-1.337569148545601,-2.521068874989645,6.14847360828475,1.0070500373840332,-2.475800339375631
1708435357.74402,-2.158930778503418,-1.3375650209239502,-2.5210352579699915,6.148445594101705,1.0070630311965942,-2.475762907658712
1708435357.7460663,-2.158956289291382,-1.337593824868538,-2.5210233370410364,6.148442017823019,1.0070219039916992,-2.4757264296161097
1708435357.7480042,-2.158881425857544,-1.3375250709107895,-2.5210731665240687,6.148454177170553,1.0070586204528809,-2.4758122603045862
1708435357.7499943,-2.158890724182129,-1.3375691783479233,-2.521068874989645,6.1484988806541345,1.0070053339004517,-2.4758079687701624
1708435357.7519855,-2.1589221954345703,-1.3375734698823472,-2.521064583455221,6.148491012841024,1.0070751905441284,-2.4757755438434046
1708435357.7540011,-2.1588950157165527,-1.3375618618777771,-2.521052662526266,6.148442017823019,1.0070621967315674,-2.475722138081686
1708435357.7559772,-2.1588993072509766,-1.3375285130790253,-2.521052662526266,6.148441183357992,1.0070914030075073,-2.4757917563067835
1708435357.7579858,-2.1588950157165527,-1.3375727546266098,-2.521052662526266,6.148494589119711,1.0070666074752808,-2.4757993857013147
1708435357.7599936,-2.158951759338379,-1.337545023565628,-2.5210560003863733,6.148436891823568,1.007054328918457,-2.475766960774557
1708435357.7619739,-2.1588993072509766,-1.3375449788621445,-2.5210071245776575,6.1484213946159265,1.0070946216583252,-2.475722138081686
1708435357.763988,-2.1589064598083496,-1.3375207048705597,-2.521085564290182,6.148437607079305,1.007054328918457,-2.475795094166891
1708435357.7660217,-2.158947467803955,-1.337577686910965,-2.521064583455221,6.148461806565084,1.0070176124572754,-2.4757426420794886
1708435357.7679925,-2.1589431762695312,-1.3375449490598221,-2.521076742802755,6.148449885636129,1.0070381164550781,-2.4757631460772913
1708435357.7700424,-2.1589395999908447,-1.3375852417996903,-2.5210397879229944,6.148457395821371,1.0070586204528809,-2.4757712523089808
1708435357.7719884,-2.1589107513427734,-1.3375327450088044,-2.521076742802755,6.148409592896261,1.0070219039916992,-2.4757755438434046
1708435357.7739894,-2.158926486968994,-1.337545396094658,-2.521064583455221,6.14847360828475,1.0070587396621704,-2.4757962862597864
1708435357.775995,-2.158919334411621,-1.3375250709107895,-2.5210724512683313,6.148474800377645,1.007029414176941,-2.4757586161242884
1708435357.778052,-2.1588950157165527,-1.3375081580928345,-2.521048370991842,6.148470389633932,1.0070219039916992,-2.4757586161242884
1708435357.7800102,-2.1589107513427734,-1.3375285130790253,-2.521048370991842,6.14847360828475,1.0070468187332153,-2.4757545630084437
1708435357.7819803,-2.1589150428771973,-1.3375242513469239,-2.5210440794574183,6.148490178375997,1.0070176124572754,-2.475766960774557
1708435357.7839973,-2.158947467803955,-1.3375691634467621,-2.521064583455221,6.148457395821371,1.007054328918457,-2.47575027147402
1708435357.7859914,-2.1589107513427734,-1.3375334751657029,-2.521081034337179,6.148441183357992,1.0070708990097046,-2.4757800737964075
1708435357.788033,-2.158890724182129,-1.337532715206482,-2.521032158528463,6.148499595909872,1.0070871114730835,-2.4757874647723597
1708435357.7900205,-2.158951759338379,-1.3375861209682007,-2.521092955266134,6.148445594101705,1.0070338249206543,-2.4757917563067835
1708435357.7920148,-2.1588950157165527,-1.3375533384135743,-2.521064583455221,6.148491012841024,1.0070500373840332,-2.4757586161242884
1708435357.7939923,-2.1588728427886963,-1.3375768971494217,-2.521068874989645,6.148433315544882,1.007025122642517,-2.4758079687701624
1708435357.7959833,-2.1589150428771973,-1.3375407469323655,-2.521081034337179,6.148433315544882,1.007041335105896,-2.4757800737964075
1708435357.798021,-2.158923864364624,-1.337549240594246,-2.521064583455221,6.148412811547079,1.0070456266403198,-2.4757545630084437
1708435357.8000002,-2.158926486968994,-1.337593824868538,-2.521052662526266,6.148491012841024,1.0070500373840332,-2.4757960478412073
1708435357.802018,-2.158919334411621,-1.3376214665225525,-2.521076742802755,6.148466098099508,1.007025122642517,-2.475771729146139
1708435357.804004,-2.158935070037842,-1.3374920201352616,-2.521081034337179,6.148442017823019,1.0070708990097046,-2.4757350126849573
1708435357.8059886,-2.158964157104492,-1.33758960783992,-2.521081034337179,6.14842580535964,1.0070089101791382,-2.47581655183901
1708435357.8080328,-2.1588613986968994,-1.3375207793763657,-2.521052662526266,6.148474800377645,1.007029414176941,-2.4757512251483362
1708435357.8100252,-2.1589345932006836,-1.337605671291687,-2.521048370991842,6.148437607079305,1.0070990324020386,-2.4757712523089808
1708435357.8120985,-2.158912420272827,-1.337585301404335,-2.521081034337179,6.148405182152548,1.007025122642517,-2.475788418446676
1708435357.8139858,-2.1588945388793945,-1.3376014542630692,-2.521068874989645,6.148453104286947,1.0070338249206543,-2.4757712523089808
1708435357.8159995,-2.158951759338379,-1.337536872630455,-2.521068874989645,6.14842580535964,1.0070784091949463,-2.4757512251483362
1708435357.8179767,-2.158926486968994,-1.3375576448491593,-2.5211060682879847,6.1484213946159265,1.0070219039916992,-2.4758122603045862
1708435357.8199935,-2.1589221954345703,-1.3375777465156098,-2.521060291920797,6.148466098099508,1.0070751905441284,-2.4757586161242884
1708435357.8219986,-2.1589598655700684,-1.3375576448491593,-2.5210514704333704,6.1484951851661584,1.007042407989502,-2.4757469336139124
1708435357.8240287,-2.158919334411621,-1.337573454981186,-2.521092955266134,6.14842580535964,1.0070621967315674,-2.475788418446676
1708435357.8260183,-2.158902168273926,-1.3375165921500702,-2.521081034337179,6.1483932612235925,1.0070990324020386,-2.4757426420794886
1708435357.8279707,-2.15887713432312,-1.3375811588815232,-2.5210843721972864,6.148458587914266,1.0070381164550781,-2.4757631460772913
1708435357.8299875,-2.1589035987854004,-1.3375407618335267,-2.5210886637317103,6.148442017823019,1.0070338249206543,-2.4757712523089808
1708435357.8320105,-2.158947467803955,-1.3375165623477479,-2.5210724512683313,6.148470389633932,1.007054328918457,-2.4757917563067835
1708435357.8339753,-2.1589388847351074,-1.3375250411084671,-2.5211015383349817,6.14845489242629,1.0070500373840332,-2.4757469336139124
1708435357.8359888,-2.1589431762695312,-1.3375207793763657,-2.521081034337179,6.148388969689169,1.0071285963058472,-2.4757800737964075
1708435357.8380203,-2.15887713432312,-1.3375734400800248,-2.521081034337179,6.148491012841024,1.007042407989502,-2.475766960774557
1708435357.839998,-2.15887713432312,-1.337529258137085,-2.521064583455221,6.148409592896261,1.007013201713562,-2.4757469336139124
1708435357.8420007,-2.1589150428771973,-1.337593824868538,-2.5210724512683313,6.148429024010458,1.0070338249206543,-2.47571832338442
1708435357.843992,-2.1588993072509766,-1.3375250411084671,-2.521076742802755,6.148470389633932,1.0070468187332153,-2.4757631460772913
1708435357.846,-2.158930778503418,-1.3375123751214524,-2.5210440794574183,6.148433315544882,1.0070338249206543,-2.4757264296161097
1708435357.8479843,-2.1588857173919678,-1.3375522506288071,-2.521085325871603,6.14842580535964,1.007054328918457,-2.4757264296161097
1708435357.8499918,-2.1589388847351074,-1.3375081580928345,-2.5211015383349817,6.148503172188558,1.007026195526123,-2.4757140318499964
1708435357.8519742,-2.158951759338379,-1.337573454981186,-2.521064583455221,6.148429024010458,1.007026195526123,-2.4757469336139124
1708435357.8540297,-2.1589395999908447,-1.3375972670367737,-2.521064583455221,6.148479091912069,1.0070501565933228,-2.4757512251483362
1708435357.856055,-2.1588993072509766,-1.337601439361908,-2.5210514704333704,6.148458587914266,1.007026195526123,-2.4757631460772913
1708435357.8580513,-2.1588857173919678,-1.3375727248242875,-2.5210724512683313,6.1484213946159265,1.0070456266403198,-2.475788418446676
1708435357.860012,-2.158902168273926,-1.3375533384135743,-2.5211015383349817,6.148442017823019,1.0070456266403198,-2.475722138081686
1708435357.8619783,-2.1589512825012207,-1.3375576448491593,-2.521060291920797,6.148480164795675,1.0070708990097046,-2.475792948399679
1708435357.864008,-2.158947467803955,-1.3375727248242875,-2.521076742802755,6.148458587914266,1.0070338249206543,-2.4757052103625696
1708435357.866018,-2.158890724182129,-1.3375412088683625,-2.5210560003863733,6.148474800377645,1.0070500373840332,-2.4757841269122522
1708435357.8679852,-2.158928155899048,-1.33756838858638,-2.5210886637317103,6.148418175965109,1.0070666074752808,-2.475743595753805
1708435357.8700173,-2.158935070037842,-1.3375930798104783,-2.521064583455221,6.1484224674995325,1.0070456266403198,-2.4757512251483362
1708435357.87199,-2.1589150428771973,-1.3375565570643921,-2.521064583455221,6.1484343884284876,1.007025122642517,-2.475776020680563
1708435357.8739989,-2.158926486968994,-1.3375650209239502,-2.521060291920797,6.148381101876058,1.0070500373840332,-2.4757140318499964
1708435357.8759875,-2.1589064598083496,-1.3375973266414185,-2.521081034337179,6.148357260018148,1.007041335105896,-2.4757512251483362
1708435357.8779912,-2.158919334411621,-1.337572695021965,-2.5210843721972864,6.148304927140035,1.0070010423660278,-2.475726906453268
1708435357.8800035,-2.158979892730713,-1.3376014095595856,-2.521060291920797,6.148403751641073,1.0070456266403198,-2.4757264296161097
1708435357.8819854,-2.1589064598083496,-1.337585301404335,-2.521130148564474,6.148354756623068,1.0070751905441284,-2.475767437611715
1708435357.8839896,-2.1589107513427734,-1.3376099628261109,-2.521076742802755,6.148321258812704,1.0070456266403198,-2.475743595753805
1708435357.8859756,-2.158919334411621,-1.3375242513469239,-2.5210724512683313,6.148338544159689,1.0070500373840332,-2.475743834172384
1708435357.8879924,-2.1589150428771973,-1.3374800843051453,-2.5210724512683313,6.148365962296285,1.0070219039916992,-2.475743834172384
1708435357.889978,-2.158947467803955,-1.3375691187432786,-2.5210471788989466,6.148358332901754,1.0070666074752808,-2.4756901899920862
1708435357.8919752,-2.158956289291382,-1.3376095455935975,-2.521076742802755,6.14829312542037,1.0070176124572754,-2.475767437611715
1708435357.8939712,-2.1589081287384033,-1.337581143980362,-2.5211051146136683,6.148378956108846,1.007054328918457,-2.475771729146139
1708435357.8959725,-2.158947467803955,-1.3375811588815232,-2.5211127440081995,6.148337471276083,1.0070338249206543,-2.4757640997516077
1708435357.8979735,-2.1588902473449707,-1.3375453811934968,-2.521109406148092,6.148321258812704,1.007054328918457,-2.4757140318499964
1708435357.899998,-2.1589388847351074,-1.3375284683755417,-2.521081034337179,6.148367035179891,1.0070053339004517,-2.475726906453268
1708435357.902035,-2.158890724182129,-1.3375691634467621,-2.5210843721972864,6.148378956108846,1.0069844722747803,-2.475722376500265
1708435357.90398,-2.158964157104492,-1.3375250411084671,-2.521081034337179,6.148378956108846,1.007042407989502,-2.4756816069232386
1708435357.9059987,-2.1589388847351074,-1.3375769418529053,-2.521097246800558,6.148333179741659,1.007054328918457,-2.47575551668276
1708435357.9079826,-2.1589064598083496,-1.337601439361908,-2.521064583455221,6.1483497498329065,1.0070871114730835,-2.4757095018969935
1708435357.9100163,-2.1589150428771973,-1.3375777167132874,-2.5210724512683313,6.148329961090841,1.007042407989502,-2.475771729146139
1708435357.9120536,-2.1589221954345703,-1.337573454981186,-2.521076742802755,6.14834617355422,1.0070338249206543,-2.4757426420794886
1708435357.9139974,-2.158947467803955,-1.337581143980362,-2.5210886637317103,6.148325550347128,1.0070338249206543,-2.475776020680563
1708435357.9159853,-2.1589395999908447,-1.337585301404335,-2.5211008230792444,6.148361670761862,1.0070500373840332,-2.475710693989889
1708435357.9179823,-2.1589395999908447,-1.3375691783479233,-2.521076742802755,6.148354756623068,1.0070708990097046,-2.475739304219381
1708435357.9199777,-2.1588613986968994,-1.3375327301076432,-2.5210397879229944,6.148358332901754,1.0070010423660278,-2.475722376500265
1708435357.9219797,-2.158919334411621,-1.3375691634467621,-2.521076742802755,6.1483590481574915,1.007054328918457,-2.475739304219381
1708435357.9239848,-2.158930778503418,-1.3375691634467621,-2.5210560003863733,6.148367035179891,1.0070666074752808,-2.47571832338442
1708435357.9260178,-2.158930778503418,-1.3376014244607468,-2.521055046712057,6.148354756623068,1.0070219039916992,-2.4757311979876917
1708435357.9279907,-2.158926486968994,-1.337601439361908,-2.521125618611471,6.1483627436454675,1.007013201713562,-2.475678269063131
1708435357.9300218,-2.158935070037842,-1.3375533384135743,-2.521064583455221,6.148395168572225,1.0070018768310547,-2.475739304219381
1708435357.9319837,-2.1588656902313232,-1.3375327450088044,-2.5210886637317103,6.148370253830709,1.0070176124572754,-2.4757235685931605
1708435357.9340446,-2.158881425857544,-1.3375123602202912,-2.5210800806628626,6.148395168572225,1.0070176124572754,-2.475726906453268
1708435357.9360173,-2.1589555740356445,-1.337520719771721,-2.5210886637317103,6.148350465088644,1.0070096254348755,-2.475710693989889
1708435357.938066,-2.1589107513427734,-1.3375491958907624,-2.5210886637317103,6.148370253830709,1.0070456266403198,-2.4756954352008265
1708435357.940012,-2.158890724182129,-1.337573454981186,-2.521076742802755,6.148325550347128,1.007042407989502,-2.4757311979876917
1708435357.9420323,-2.158897876739502,-1.3375607889941712,-2.5210843721972864,6.14834617355422,1.0070381164550781,-2.4757021109210413
1708435357.944016,-2.1589395999908447,-1.3375454258969803,-2.521081034337179,6.14831696727828,1.0070381164550781,-2.475686852131979
1708435357.9460332,-2.158930778503418,-1.3375650358251114,-2.5210724512683313,6.148350465088644,1.007054328918457,-2.475747887288229
1708435357.948053,-2.158881425857544,-1.3375938844731827,-2.5210965315448206,6.148403751641073,1.0070586204528809,-2.475722376500265
1708435357.9500244,-2.1588728427886963,-1.337585301404335,-2.521081034337179,6.14835404136733,1.0070828199386597,-2.4756901899920862
1708435357.9519904,-2.158890724182129,-1.3375207346728821,-2.521076742802755,6.148337471276083,1.0070500373840332,-2.475706402455465
1708435357.9539802,-2.1589035987854004,-1.3375691634467621,-2.5210886637317103,6.148333179741659,1.0070338249206543,-2.475739304219381
1708435357.9559782,-2.158951759338379,-1.337581143980362,-2.521092955266134,6.148373472481527,1.007042407989502,-2.475743834172384
1708435357.9579968,-2.1589438915252686,-1.3375727248242875,-2.5210681597339075,6.14834617355422,1.0070946216583252,-2.475710693989889
1708435357.9599755,-2.1589438915252686,-1.3374920201352616,-2.5210800806628626,6.14834617355422,1.0070586204528809,-2.475706402455465
1708435357.9620304,-2.1589431762695312,-1.3375607889941712,-2.521092955266134,6.1483497498329065,1.0070468187332153,-2.475722376500265
1708435357.9639966,-2.158886432647705,-1.3375533384135743,-2.5211051146136683,6.148324477463522,1.007054328918457,-2.475706402455465
1708435357.9659855,-2.158881425857544,-1.3375607591918488,-2.5210560003863733,6.148415672570028,1.0070456266403198,-2.475682560597555
1708435357.9680467,-2.1588685512542725,-1.3375165623477479,-2.5210560003863733,6.148394095688619,1.0070500373840332,-2.4757021109210413
1708435357.9700215,-2.1588656902313232,-1.3375407469323655,-2.521121327077047,6.148414957314291,1.0069844722747803,-2.475686852131979
1708435357.9719877,-2.1589221954345703,-1.3375491958907624,-2.521097246800558,6.148382174759664,1.0070306062698364,-2.4757073561297815
1708435357.9740448,-2.158951759338379,-1.3375327003053208,-2.5210681597339075,6.148373472481527,1.0070381164550781,-2.4757235685931605
1708435357.9759815,-2.158951759338379,-1.3375492107919236,-2.5210724512683313,6.148382174759664,1.0070096254348755,-2.4757311979876917
1708435357.978017,-2.1589081287384033,-1.337536410694458,-2.521146361027853,6.1483778832252405,1.0070512294769287,-2.475714985524313
1708435357.9799914,-2.158947467803955,-1.3375407618335267,-2.5211051146136683,6.148370253830709,1.0070629119873047,-2.4757073561297815
1708435357.9819925,-2.158919334411621,-1.3375618618777771,-2.521060291920797,6.148357260018148,1.0070708990097046,-2.4757397810565394
1708435357.984021,-2.158919334411621,-1.33754916608844,-2.5210886637317103,6.148382174759664,1.0070219039916992,-2.4757192770587366
1708435357.9859772,-2.1589107513427734,-1.33754117906604,-2.5210755507098597,6.148382174759664,1.0070666074752808,-2.4757311979876917
1708435357.988036,-2.1588857173919678,-1.3375407320312043,-2.521137539540426,6.148398387223043,1.0070708990097046,-2.47569448152651
1708435357.9900398,-2.1588950157165527,-1.337497056727745,-2.521109406148092,6.148406970291891,1.0070219039916992,-2.475714985524313
1708435357.9919877,-2.1588950157165527,-1.3375607889941712,-2.5210800806628626,6.148459303170004,1.0070666074752808,-2.475726906453268
1708435357.9940178,-2.158890724182129,-1.3375250560096283,-2.521130148564474,6.148413884430685,1.0070219039916992,-2.475722376500265
1708435357.996023,-2.1589598655700684,-1.3375776571086426,-2.5211008230792444,6.1484224674995325,1.0070827007293701,-2.4757030645953577
1708435357.9980114,-2.158928155899048,-1.3375691336444397,-2.5210681597339075,6.1484224674995325,1.0070219039916992,-2.475686852131979
1708435358.0000362,-2.158947467803955,-1.3375973117402573,-2.521121327077047,6.148437607079305,1.007054328918457,-2.4757311979876917
1708435358.0019977,-2.1588728427886963,-1.3375411492637177,-2.521142069493429,6.148449885636129,1.0070914030075073,-2.4757192770587366
1708435358.0040169,-2.158890724182129,-1.3375284981778641,-2.521113936101095,6.148461806565084,1.0070176124572754,-2.475682560597555
1708435358.0059924,-2.158902168273926,-1.3374919158271332,-2.521092240010397,6.148531424790182,1.0070096254348755,-2.47569448152651
1708435358.0080028,-2.1588857173919678,-1.3375454109958191,-2.521109406148092,6.148530232697286,1.007054328918457,-2.475686852131979
1708435358.0100334,-2.158919334411621,-1.3375853163054963,-2.5210886637317103,6.148490178375997,1.007054328918457,-2.4756978193866175
1708435358.012018,-2.1588950157165527,-1.3375811737826844,-2.5210965315448206,6.148453104286947,1.0070381164550781,-2.47569448152651
1708435358.0140526,-2.158890724182129,-1.337588832979538,-2.5211008230792444,6.148562657624044,1.007042407989502,-2.4756749312030237
1708435358.015988,-2.1589150428771973,-1.337565006022789,-2.5211215654956263,6.148565995484152,1.0070381164550781,-2.475726906453268
1708435358.0179777,-2.158919334411621,-1.337557629947998,-2.5210560003863733,6.1485259411628626,1.0070338249206543,-2.4756739775287073
1708435358.0200164,-2.158919334411621,-1.337545396094658,-2.5210800806628626,6.148493516236105,1.0070096254348755,-2.475698773060934
1708435358.021996,-2.1589035987854004,-1.3375327450088044,-2.5211084524737757,6.148546802788534,1.007042407989502,-2.475706402455465
1708435358.0239952,-2.1589605808258057,-1.3375811290792008,-2.5211246649371546,6.148521530419149,1.007042407989502,-2.475710693989889
1708435358.0259972,-2.158951759338379,-1.3375368577292939,-2.5210965315448206,6.148538100510397,1.0070176124572754,-2.4756997267352503
1708435358.028032,-2.158968448638916,-1.33756077409301,-2.5211332480060022,6.1484848139579675,1.007054328918457,-2.4757311979876917
1708435358.0300539,-2.158935070037842,-1.3375607889941712,-2.521055046712057,6.148513066559591,1.0070828199386597,-2.475686852131979
1708435358.0319843,-2.158956289291382,-1.3375618916800995,-2.521097246800558,6.148529636650839,1.007042407989502,-2.475714985524313
1708435358.0339916,-2.1589395999908447,-1.3375650209239502,-2.521087948475973,6.1485140202339075,1.0071154832839966,-2.4757116476642054
1708435358.0360167,-2.1588950157165527,-1.3375165623477479,-2.5210800806628626,6.148447859078207,1.0070903301239014,-2.4757235685931605
1708435358.0380306,-2.158930778503418,-1.3375406873277207,-2.5210681597339075,6.148551094322958,1.0070338249206543,-2.475682560597555
1708435358.0402071,-2.1589221954345703,-1.3375853163054963,-2.5210471788989466,6.148541199951925,1.0070338249206543,-2.4757235685931605
1708435358.0419912,-2.1589431762695312,-1.3375369024327775,-2.5211127440081995,6.148557412415304,1.0070784091949463,-2.475748364125387
1708435358.0439863,-2.158930778503418,-1.337528557782509,-2.521092240010397,6.148565995484152,1.0070456266403198,-2.4757073561297815
1708435358.0459836,-2.158947467803955,-1.3375769418529053,-2.521137777959005,6.148553955345907,1.0070751905441284,-2.4756706396686
1708435358.0480123,-2.1589179039001465,-1.3375576746514817,-2.5210428873645228,6.148538100510397,1.007041335105896,-2.475748364125387
1708435358.0499873,-2.158947467803955,-1.3375607889941712,-2.5210965315448206,6.148529636650839,1.0070838928222656,-2.4757192770587366
1708435358.051984,-2.158926486968994,-1.3376014542630692,-2.521137777959005,6.148549783020773,1.0070176124572754,-2.475649658833639
1708435358.0539837,-2.1589388847351074,-1.3375811588815232,-2.5211170355426233,6.148570167809286,1.0069931745529175,-2.4756577650653284
1708435358.0560086,-2.1589841842651367,-1.3375819039395829,-2.5211051146136683,6.148615824967184,1.0070751905441284,-2.475720230733053
1708435358.058035,-2.1588857173919678,-1.3375200939229508,-2.5211051146136683,6.148525345116415,1.007042407989502,-2.4757073561297815
1708435358.060001,-2.1589431762695312,-1.3375368577292939,-2.5211051146136683,6.148545491486349,1.007042407989502,-2.475732151662008
1708435358.061982,-2.1588950157165527,-1.3375691783479233,-2.52108341852297,6.148508775025167,1.0070381164550781,-2.4757278601275843
1708435358.0639744,-2.158886432647705,-1.3375938844731827,-2.521182362233297,6.148504364281454,1.0070381164550781,-2.4757073561297815
1708435358.0659802,-2.1589713096618652,-1.337605745797493,-2.521099630986349,6.14855836608962,1.007054328918457,-2.4757354895221155
1708435358.0680242,-2.158956289291382,-1.337532715206482,-2.5211618582354944,6.148501145630636,1.0070053339004517,-2.4757235685931605
1708435358.0699837,-2.1589345932006836,-1.337588832979538,-2.5211084524737757,6.14854251125411,1.007013201713562,-2.4757311979876917
1708435358.0720258,-2.1588950157165527,-1.337617890243866,-2.5211289564715784,6.148549783020773,1.0070586204528809,-2.4756997267352503
1708435358.0739996,-2.1589221954345703,-1.337557615046837,-2.5211246649371546,6.148548710137167,1.0070871114730835,-2.4756911436664026
1708435358.0759819,-2.158968687057495,-1.3375292879394074,-2.521099630986349,6.148557412415304,1.0070579051971436,-2.4757030645953577
1708435358.078024,-2.158890724182129,-1.337565006022789,-2.5211575667010706,6.148508775025167,1.0070946216583252,-2.4757192770587366
1708435358.0799906,-2.158947467803955,-1.3375845414451142,-2.5211649576770228,6.148529636650839,1.0070784091949463,-2.4757030645953577
1708435358.081988,-2.158951759338379,-1.3375691634467621,-2.521205250416891,6.148574578552999,1.0070860385894775,-2.4757030645953577
1708435358.083987,-2.1589555740356445,-1.337581143980362,-2.5211966673480433,6.1485339281852625,1.0070654153823853,-2.4756997267352503
1708435358.0860422,-2.1588950157165527,-1.3375650209239502,-2.5212162176715296,6.148545491486349,1.0070621967315674,-2.4757030645953577
1708435358.0880303,-2.158930778503418,-1.337593064909317,-2.5212085882769983,6.1485259411628626,1.0070338249206543,-2.475698773060934
1708435358.0900369,-2.158890724182129,-1.3376014691642304,-2.5212205092059534,6.148570167809286,1.0070096254348755,-2.475686852131979
1708435358.0920057,-2.158890724182129,-1.3376179498485108,-2.5212531725512903,6.148545491486349,1.007054328918457,-2.4756537119494837
1708435358.0940232,-2.1589221954345703,-1.3375327003053208,-2.5212042967425745,6.148586499481954,1.0070219039916992,-2.4756749312030237
1708435358.0960348,-2.1588950157165527,-1.337504656319954,-2.521195713673727,6.148508775025167,1.0070630311965942,-2.4756706396686
1708435358.0980337,-2.158890724182129,-1.3375533533147355,-2.521245781575338,6.148562657624044,1.0070096254348755,-2.4757192770587366
1708435358.1000044,-2.1589388847351074,-1.3376014691642304,-2.5212000052081507,6.148553001671591,1.0070794820785522,-2.4757073561297815
1708435358.1020381,-2.1589555740356445,-1.3375734698823472,-2.5212248007403772,6.148606407433309,1.007054328918457,-2.475682560597555
1708435358.1040232,-2.158951759338379,-1.3375363957932969,-2.5211835543261927,6.148557412415304,1.0070338249206543,-2.4757192770587366
1708435358.106023,-2.1589431762695312,-1.3375449192574997,-2.5212205092059534,6.14859019496993,1.007042407989502,-2.4757192770587366
1708435358.1079788,-2.158890724182129,-1.3375777018121262,-2.5212369600879114,6.148650991707601,1.0070586204528809,-2.4757073561297815
1708435358.1099918,-2.1589221954345703,-1.3376014691642304,-2.5211673418628138,6.148622619896688,1.0070338249206543,-2.4757116476642054
1708435358.1120331,-2.1589431762695312,-1.337553323512413,-2.5211761633502405,6.148548710137167,1.0070456266403198,-2.4757116476642054
1708435358.1140718,-2.1589713096618652,-1.3376095604947587,-2.5212205092059534,6.148585784226217,1.0070468187332153,-2.4756622950183313
1708435358.1160915,-2.1589431762695312,-1.3375853312066575,-2.5211804548846644,6.148601996689596,1.0070500373840332,-2.475678269063131
1708435358.1180649,-2.1589388847351074,-1.3375533086112519,-2.521217171345846,6.148520934372701,1.007042407989502,-2.4756911436664026
1708435358.120087,-2.1589388847351074,-1.3375207346728821,-2.5212248007403772,6.148581492691793,1.0070903301239014,-2.475682560597555
1708435358.121999,-2.1589221954345703,-1.3375691634467621,-2.5211923758136194,6.148577916413107,1.0071111917495728,-2.4757073561297815
1708435358.1240275,-2.1589713096618652,-1.337532715206482,-2.521200958882467,6.148564922600546,1.0070536136627197,-2.475741688405172
1708435358.1259868,-2.158926486968994,-1.3375769269517441,-2.521229092274801,6.148638832360067,1.0070579051971436,-2.4757116476642054
1708435358.1280088,-2.158946990966797,-1.3375607889941712,-2.521233383809225,6.148613917618551,1.0070208311080933,-2.4756668249713343
1708435358.1299882,-2.1589107513427734,-1.3376014244607468,-2.52122933069338,6.148609626084127,1.007041335105896,-2.4756954352008265
1708435358.1320217,-2.158947467803955,-1.3375650209239502,-2.5211923758136194,6.148609626084127,1.0070828199386597,-2.4756911436664026
1708435358.133984,-2.158946990966797,-1.337557629947998,-2.521245543156759,6.148572790413656,1.007054328918457,-2.4757030645953577
1708435358.1359925,-2.1589090824127197,-1.3375496727279206,-2.5212369600879114,6.148662912636556,1.007054328918457,-2.4756582419024866
1708435358.1380005,-2.1589431762695312,-1.337549240594246,-2.5211835543261927,6.148629414826193,1.007029414176941,-2.4757030645953577
1708435358.1400042,-2.158897638320923,-1.3375533384135743,-2.5212488810168665,6.148710953980245,1.0070140361785889,-2.475678030644552
1708435358.1420434,-2.158926010131836,-1.3375769269517441,-2.5212042967425745,6.148673045426168,1.0070794820785522,-2.4757073561297815
1708435358.1439946,-2.158987045288086,-1.337532715206482,-2.521229092274801,6.14868592002944,1.007054328918457,-2.4756837526904505
1708435358.1459882,-2.158968687057495,-1.3375811737826844,-2.5211759249316614,6.148661124497213,1.0070708990097046,-2.475720230733053
1708435358.1480212,-2.1588993072509766,-1.3375896674445649,-2.5212248007403772,6.14870976188735,1.0070338249206543,-2.475698773060934
1708435358.15003,-2.158991575241089,-1.337593899374344,-2.5211966673480433,6.148689257889547,1.0070500373840332,-2.4757235685931605
1708435358.1519914,-2.158890724182129,-1.3375449639609833,-2.5212085882769983,6.148677336960592,1.0070784091949463,-2.4757238070117396
1708435358.1539907,-2.158975601196289,-1.337572695021965,-2.5211718718158167,6.14871762970046,1.007041335105896,-2.4756749312030237
1708435358.155998,-2.158930778503418,-1.337532715206482,-2.5212085882769983,6.14870976188735,1.0070946216583252,-2.4756341616259974
1708435358.1579885,-2.1589713096618652,-1.3375650209239502,-2.521205250416891,6.148754465370931,1.0070741176605225,-2.4756668249713343
1708435358.1600013,-2.158897638320923,-1.337515653376915,-2.5212412516223353,6.148668634682455,1.0070708990097046,-2.4757002035724085
1708435358.1619978,-2.158942699432373,-1.337566078906395,-2.521229092274801,6.148696768074789,1.0070654153823853,-2.475732151662008
1708435358.1639998,-2.158975601196289,-1.3375449937633057,-2.5212042967425745,6.1487468359764,1.0070981979370117,-2.4756749312030237
1708435358.1659915,-2.1589555740356445,-1.3375650209239502,-2.5211923758136194,6.148701059609213,1.0070666074752808,-2.475698773060934
1708435358.1679907,-2.1589431762695312,-1.3375691634467621,-2.5212042967425745,6.1487382529075525,1.0070751905441284,-2.4757116476642054
1708435358.170034,-2.158881902694702,-1.3376014840653916,-2.521189037953512,6.148701059609213,1.0070456266403198,-2.475654904042379
1708435358.1719947,-2.1589179039001465,-1.3376014095595856,-2.521212879811422,6.148693549423971,1.0070698261260986,-2.47567326227297
1708435358.174023,-2.1589303016662598,-1.337532715206482,-2.5211759249316614,6.148689257889547,1.0070208311080933,-2.4756622950183313
1708435358.1760223,-2.1589221954345703,-1.3375533384135743,-2.5212000052081507,6.148730742722311,1.0070698261260986,-2.475670401250021
1708435358.178025,-2.1589221954345703,-1.3376057905009766,-2.521184746419088,6.1487090466316126,1.007029414176941,-2.4756534735309046
1708435358.1800303,-2.1589345932006836,-1.3375533384135743,-2.5212205092059534,6.14870976188735,1.007029414176941,-2.4756622950183313
1708435358.1819813,-2.1589345932006836,-1.337572695021965,-2.5211716333972376,6.148665416031637,1.007054328918457,-2.4756749312030237
1708435358.183991,-2.158946990966797,-1.3375691783479233,-2.5211685339557093,6.148693549423971,1.0070621967315674,-2.4756746927844446
1708435358.185987,-2.1589713096618652,-1.3375735145858307,-2.521212879811422,6.148701059609213,1.0070630311965942,-2.4756749312030237
1708435358.1880007,-2.1589784622192383,-1.337593899374344,-2.521212879811422,6.1487183449561975,1.0070621967315674,-2.4757328669177454
1708435358.1900392,-2.158982753753662,-1.3375576895526429,-2.521200958882467,6.148677336960592,1.0070708990097046,-2.4757371584521692
1708435358.1920173,-2.158975601196289,-1.3375888627818604,-2.521200958882467,6.148714053421774,1.0070500373840332,-2.4757116476642054
1708435358.194019,-2.1589179039001465,-1.3375369024327775,-2.5211878458606165,6.148722755699911,1.0070209503173828,-2.4757073561297815
1708435358.1959975,-2.158926010131836,-1.3375769269517441,-2.5211923758136194,6.148693549423971,1.0070500373840332,-2.4756954352008265
1708435358.1979966,-2.1589303016662598,-1.337541164164879,-2.521212879811422,6.148673045426168,1.0070338249206543,-2.4757073561297815
1708435358.1999903,-2.1589670181274414,-1.3375769418529053,-2.521212879811422,6.148705470352926,1.0070903301239014,-2.4757044951068323
1708435358.2020159,-2.1589713096618652,-1.33754117906604,-2.521200958882467,6.1487793801124475,1.0070338249206543,-2.4757238070117396
1708435358.20401,-2.158987045288086,-1.3375769418529053,-2.521237913762228,6.148730623513021,1.007041335105896,-2.4756622950183313
1708435358.2059941,-2.1589713096618652,-1.3375242066434403,-2.521233383809225,6.1487183449561975,1.0070903301239014,-2.4756506125079554
1708435358.208013,-2.158890724182129,-1.3376461279443284,-2.5211966673480433,6.14868055561141,1.0070784091949463,-2.4756882826434534
1708435358.210063,-2.1589179039001465,-1.3376137477210541,-2.5211761633502405,6.148754465370931,1.0070666074752808,-2.4757002035724085
1708435358.212011,-2.1589345932006836,-1.337525026207306,-2.521160666142599,6.148693549423971,1.007041335105896,-2.475725237523214
1708435358.2140832,-2.1589713096618652,-1.3375734847835083,-2.521184746419088,6.148693549423971,1.0070666074752808,-2.4756506125079554
1708435358.2160723,-2.1589555740356445,-1.3376057905009766,-2.5212085882769983,6.148761975556173,1.0070500373840332,-2.4756577650653284
1708435358.217998,-2.1589627265930176,-1.3375973266414185,-2.5211804548846644,6.148661124497213,1.0070903301239014,-2.475671116505758
1708435358.220006,-2.158987045288086,-1.3375576448491593,-2.5211673418628138,6.148751127510824,1.007025122642517,-2.4756746927844446
1708435358.2220294,-2.1589345932006836,-1.3375533384135743,-2.521184746419088,6.14870976188735,1.0070741176605225,-2.4756954352008265
1708435358.224005,-2.1589584350585938,-1.337528483276703,-2.521212879811422,6.148758756905355,1.0070621967315674,-2.4756792227374476
1708435358.2260418,-2.1589431762695312,-1.3375973266414185,-2.5211520830737513,6.148722040444174,1.0070871114730835,-2.4757030645953577
1708435358.2280219,-2.1589388847351074,-1.3375811588815232,-2.5211685339557093,6.148696768074789,1.007106900215149,-2.4756954352008265
1708435358.2300541,-2.1589345932006836,-1.3375242066434403,-2.521193567906515,6.148668634682455,1.0070370435714722,-2.4757357279406946
1708435358.2320125,-2.158942699432373,-1.3375888925841828,-2.5211642424212855,6.148689257889547,1.0070860385894775,-2.4756749312030237
1708435358.234018,-2.1589221954345703,-1.3375896227410813,-2.521172825490133,6.148673045426168,1.0070772171020508,-2.4757044951068323
1708435358.2359855,-2.1589741706848145,-1.337552235727646,-2.5211804548846644,6.148714053421774,1.0070698261260986,-2.4757280985461634
1708435358.2379987,-2.1590049266815186,-1.3375327003053208,-2.5211389700519007,6.148714053421774,1.0070990324020386,-2.4756954352008265
1708435358.2399998,-2.1589303016662598,-1.337613807325699,-2.5211761633502405,6.1486315605934045,1.0070326328277588,-2.4756911436664026
1708435358.242059,-2.1589221954345703,-1.3376014691642304,-2.521221701298849,6.148693549423971,1.0070579051971436,-2.4756622950183313
1708435358.2439969,-2.158926010131836,-1.3375973266414185,-2.521217171345846,6.14877067783431,1.0070456266403198,-2.4756954352008265
1708435358.24603,-2.1589303016662598,-1.3375769418529053,-2.521205250416891,6.148701059609213,1.0070176124572754,-2.4756956736194056
1708435358.2479875,-2.1589512825012207,-1.3375853312066575,-2.521205250416891,6.14870976188735,1.0070784091949463,-2.475682322178976
1708435358.249996,-2.1589670181274414,-1.3375607889941712,-2.5211554209338587,6.148697840958395,1.0070414543151855,-2.4756954352008265
1708435358.2520149,-2.1589136123657227,-1.3375769418529053,-2.5211103598224085,6.148660051613607,1.0070698261260986,-2.475661579762594
1708435358.2539978,-2.158946990966797,-1.337536485200264,-2.5211642424212855,6.148713338166036,1.0070370435714722,-2.4756911436664026
1708435358.2559974,-2.158987045288086,-1.3375734996846695,-2.521177117024557,6.148726331978597,1.0071033239364624,-2.4756954352008265
1708435358.2580009,-2.158926010131836,-1.3375242513469239,-2.521140162144796,6.148693549423971,1.0070536136627197,-2.4756668249713343
1708435358.2599895,-2.158987522125244,-1.3375327748111268,-2.521193567906515,6.148720967560568,1.0071033239364624,-2.4757002035724085
1708435358.2619789,-2.1589670181274414,-1.3375810843757172,-2.521172825490133,6.148681628495016,1.0070784091949463,-2.4756749312030237
1708435358.2639973,-2.158888816833496,-1.337532715206482,-2.5211978594409388,6.148689257889547,1.0070828199386597,-2.4756746927844446
1708435358.2659872,-2.1589136123657227,-1.3375938844731827,-2.5211520830737513,6.148702132492819,1.0070990324020386,-2.4756837526904505
1708435358.2680216,-2.1589136123657227,-1.337617964749672,-2.5211475531207483,6.148726331978597,1.0070500373840332,-2.4757044951068323
1708435358.2700002,-2.158996343612671,-1.3375683587840577,-2.5211358706103724,6.148705470352926,1.007041335105896,-2.475708786641256
1708435358.2720008,-2.1589345932006836,-1.3375930798104783,-2.5212095419513147,6.148684847145834,1.0070579051971436,-2.475666109715597
1708435358.273992,-2.1589303016662598,-1.3375491958907624,-2.521200958882467,6.148729550629415,1.0071234703063965,-2.4756668249713343
1708435358.2764955,-2.158926010131836,-1.3375368577292939,-2.5211804548846644,6.148693549423971,1.0070860385894775,-2.4756749312030237
1708435358.2780628,-2.158987045288086,-1.337585301404335,-2.521172825490133,6.148708927422323,1.0070579051971436,-2.4756534735309046
1708435358.2800248,-2.1589064598083496,-1.3375608038953324,-2.521156374608175,6.148673045426168,1.0070741176605225,-2.4756837526904505
1708435358.2819986,-2.1589713096618652,-1.3375449490598221,-2.521189037953512,6.148689257889547,1.0070536136627197,-2.4756370226489466
1708435358.2839968,-2.158991575241089,-1.3375165921500702,-2.5211902300464075,6.14870976188735,1.0070751905441284,-2.475671116505758
1708435358.285986,-2.1589555740356445,-1.337536872630455,-2.521160666142599,6.148751127510824,1.0070871114730835,-2.4756415526019495
1708435358.2879987,-2.158926010131836,-1.3376178753427048,-2.5211530367480677,6.148706543236532,1.0070500373840332,-2.4756837526904505
1708435358.2900128,-2.1589784622192383,-1.3375607889941712,-2.5211814085589808,6.14868592002944,1.007025122642517,-2.4757238070117396
1708435358.2920308,-2.15893816947937,-1.3375769269517441,-2.5211649576770228,6.148681628495016,1.007041335105896,-2.4757030645953577
1708435358.2940161,-2.159029483795166,-1.337565006022789,-2.52114445367922,6.148726331978597,1.0070784091949463,-2.4756792227374476
1708435358.2960024,-2.158926010131836,-1.337556542163231,-2.521127764378683,6.148701059609213,1.0070456266403198,-2.4756866137133997
1708435358.2980194,-2.1589303016662598,-1.3375777316144486,-2.5211191813098353,6.148652422219076,1.0070666074752808,-2.475657049809591
1708435358.3000116,-2.1589090824127197,-1.3375565570643921,-2.521115843449728,6.148705470352926,1.0070828199386597,-2.475698773060934
1708435358.3020194,-2.1589512825012207,-1.3375364255956192,-2.5211694876300257,6.148673045426168,1.0070828199386597,-2.4756792227374476
1708435358.3040133,-2.1589713096618652,-1.337556542163231,-2.5211203734027308,6.148684847145834,1.0070816278457642,-2.4756911436664026
1708435358.3060012,-2.1589741706848145,-1.337584601049759,-2.5211320559131067,6.148697840958395,1.007044792175293,-2.4757073561297815
1708435358.3080077,-2.158926010131836,-1.3375811737826844,-2.5211573282824915,6.14871512630538,1.0070536136627197,-2.4757118860827845
1708435358.3100152,-2.1589653491973877,-1.337532715206482,-2.5211649576770228,6.148628341942587,1.0070621967315674,-2.475682322178976
1708435358.3120222,-2.1589512825012207,-1.3375607144883652,-2.5211084524737757,6.148693549423971,1.0071154832839966,-2.4757164160357874
1708435358.314069,-2.1589090824127197,-1.3375491958907624,-2.5211496988879603,6.14870976188735,1.0070500373840332,-2.4756580034839075
1708435358.3160615,-2.158953905105591,-1.3375981164029618,-2.5211127440081995,6.148628461151876,1.0070666074752808,-2.4756749312030237
1708435358.3181345,-2.1589345932006836,-1.3375327450088044,-2.521092955266134,6.148636925011434,1.007029414176941,-2.475670401250021
1708435358.320041,-2.158946990966797,-1.3375607889941712,-2.5210724512683313,6.148653137474813,1.0070871114730835,-2.4757445494281214
1708435358.3220634,-2.15893816947937,-1.3375242811492463,-2.521060291920797,6.148702132492819,1.0070741176605225,-2.4756162802325647
1708435358.324009,-2.158926486968994,-1.3376179051450272,-2.5210071245776575,6.148677336960592,1.0070338249206543,-2.4756577650653284
1708435358.3260365,-2.1589136123657227,-1.3375449639609833,-2.521068874989645,6.148681628495016,1.0070946216583252,-2.4756668249713343
1708435358.3280628,-2.1589512825012207,-1.3375691783479233,-2.521052662526266,6.1487468359764,1.0070654153823853,-2.4757445494281214
1708435358.329984,-2.1589179039001465,-1.3375285279801865,-2.521076742802755,6.148697840958395,1.0070456266403198,-2.475678030644552
1708435358.3320045,-2.1589221954345703,-1.3375123304179688,-2.5210886637317103,6.14868592002944,1.007041335105896,-2.4757030645953577
1708435358.334011,-2.158979892730713,-1.337540717130043,-2.521092955266134,6.148697840958395,1.0070370435714722,-2.4756954352008265
1708435358.3360023,-2.1589303016662598,-1.3376053434661408,-2.521048370991842,6.148697840958395,1.0070666074752808,-2.4756370226489466
1708435358.3380294,-2.1589345932006836,-1.3376222562840958,-2.521085325871603,6.148625123291769,1.0070371627807617,-2.4756792227374476
1708435358.3400095,-2.1589303016662598,-1.3375327450088044,-2.5211051146136683,6.148648845940389,1.0070708990097046,-2.4757044951068323
1708435358.3419936,-2.1589555740356445,-1.3375285279801865,-2.5210440794574183,6.148726331978597,1.007123351097107,-2.4756370226489466
1708435358.3439949,-2.1589090824127197,-1.337576912050583,-2.521052662526266,6.148629414826193,1.0070860385894775,-2.4756534735309046
1708435358.3459897,-2.1589388847351074,-1.3375492256930848,-2.5210440794574183,6.148641335755148,1.0070741176605225,-2.475666109715597
1708435358.3479946,-2.158987045288086,-1.3375037622502823,-2.5210440794574183,6.148730504303732,1.0070492029190063,-2.4756792227374476
1708435358.3500156,-2.158982753753662,-1.337552235727646,-2.521081034337179,6.148710834770956,1.0070536136627197,-2.4756534735309046
1708435358.3519793,-2.1589627265930176,-1.3375491809896012,-2.5211060682879847,6.148657548218527,1.0070903301239014,-2.4756668249713343
1708435358.3539996,-2.1590049266815186,-1.3375123900226136,-2.5210898558246058,6.148693549423971,1.0070816278457642,-2.4756792227374476
1708435358.356092,-2.1589670181274414,-1.337532715206482,-2.5210731665240687,6.148681628495016,1.0070784091949463,-2.4756749312030237
1708435358.358015,-2.158987045288086,-1.3375769418529053,-2.521064583455221,6.148706543236532,1.007029414176941,-2.4757044951068323
1708435358.3599856,-2.158987045288086,-1.3375691634467621,-2.521052662526266,6.148654329567709,1.0070500373840332,-2.4756792227374476
1708435358.362016,-2.158991575241089,-1.3375565868667145,-2.5210114161120813,6.148674118309774,1.007025122642517,-2.4757238070117396
1708435358.363981,-2.1589555740356445,-1.3375727248242875,-2.5210731665240687,6.148677336960592,1.0070500373840332,-2.4756792227374476
1708435358.3659797,-2.1589741706848145,-1.337524266248085,-2.5210352579699915,6.148648845940389,1.0070500373840332,-2.4756792227374476
1708435358.3679962,-2.1589388847351074,-1.3375566017678757,-2.5210560003863733,6.148599850922384,1.0070654153823853,-2.475666109715597
1708435358.3699894,-2.1589179039001465,-1.337585301404335,-2.521048370991842,6.148698913842001,1.0070500373840332,-2.475670401250021
1708435358.372019,-2.1588687896728516,-1.3375449788621445,-2.521064583455221,6.148661124497213,1.0070621967315674,-2.475671116505758
1708435358.3739974,-2.1589136123657227,-1.3375937950662156,-2.5210569540606897,6.148665416031637,1.00711989402771,-2.4757400194751185
1708435358.375982,-2.1589303016662598,-1.3375449788621445,-2.5210440794574183,6.148669707566061,1.007106900215149,-2.4756577650653284
1708435358.3779807,-2.1589598655700684,-1.3376057905009766,-2.5210514704333704,6.148682701378622,1.0070981979370117,-2.4756749312030237
1708435358.3799982,-2.1589345932006836,-1.3376014542630692,-2.521085325871603,6.148665416031637,1.0070741176605225,-2.4757090250598353
1708435358.381981,-2.1589784622192383,-1.3375650358251114,-2.521052662526266,6.14866720417098,1.0070370435714722,-2.4757118860827845
1708435358.3839827,-2.158926010131836,-1.3375491958907624,-2.521048370991842,6.148694622307577,1.0070492029190063,-2.4756534735309046
1708435358.3859844,-2.1589696407318115,-1.3375284683755417,-2.5210776964770716,6.148636925011434,1.0070208311080933,-2.4756954352008265
1708435358.387989,-2.1589303016662598,-1.3375607591918488,-2.521064583455221,6.148653137474813,1.0070946216583252,-2.4757030645953577
1708435358.3900115,-2.1590049266815186,-1.3376057159951706,-2.521068874989645,6.148620712548055,1.0070621967315674,-2.4757209459887903
1708435358.3920002,-2.1590049266815186,-1.3375619065812607,-2.5211051146136683,6.148653137474813,1.0070828199386597,-2.475675646458761
1708435358.3939886,-2.158946990966797,-1.3375973415425797,-2.521064583455221,6.148714053421774,1.0070621967315674,-2.4756749312030237
1708435358.3959851,-2.1589555740356445,-1.3375684034875412,-2.521060291920797,6.148608553200521,1.0070666074752808,-2.4757002035724085
1708435358.397999,-2.1589784622192383,-1.3375691634467621,-2.521060291920797,6.148653137474813,1.0070536136627197,-2.4756954352008265
1708435358.3999825,-2.159024953842163,-1.337573454981186,-2.521064583455221,6.148661124497213,1.0070990324020386,-2.475714985524313
1708435358.4019766,-2.158992052078247,-1.3376179051450272,-2.521064583455221,6.148686992913046,1.0070500373840332,-2.4757328669177454
1708435358.4040327,-2.158987045288086,-1.3375207346728821,-2.521064583455221,6.148706543236532,1.0070468187332153,-2.4756668249713343
1708435358.406032,-2.1589512825012207,-1.3375727099231263,-2.5210471788989466,6.148636925011434,1.0070828199386597,-2.4757118860827845
1708435358.4080331,-2.1589784622192383,-1.3375769269517441,-2.5210440794574183,6.148625123291769,1.0070828199386597,-2.4757073561297815
1708435358.4099884,-2.158987045288086,-1.337622196679451,-2.521076742802755,6.148625123291769,1.0070579051971436,-2.4756746927844446
1708435358.4119864,-2.158946990966797,-1.337569148545601,-2.521097246800558,6.148662912636556,1.0070338249206543,-2.4757073561297815
1708435358.4140608,-2.1589303016662598,-1.3375491809896012,-2.5211051146136683,6.14863811710433,1.0070500373840332,-2.4757209459887903
1708435358.4160585,-2.158996343612671,-1.3375407618335267,-2.521109406148092,6.148608553200521,1.0070784091949463,-2.4757073561297815
1708435358.4180532,-2.1589555740356445,-1.3375449490598221,-2.5210776964770716,6.148597705155172,1.0070089101791382,-2.4756749312030237
1708435358.4200413,-2.1589345932006836,-1.3375972968390961,-2.5211015383349817,6.148577916413107,1.0070666074752808,-2.4757311979876917
1708435358.4219956,-2.158926010131836,-1.3375930798104783,-2.521113936101095,6.148561703949728,1.0070456266403198,-2.475678030644552
1708435358.4240425,-2.158888816833496,-1.3375608038953324,-2.5210724512683313,6.148574578552999,1.007041335105896,-2.4756954352008265
1708435358.4260294,-2.1589090824127197,-1.3375491958907624,-2.5210560003863733,6.148521530419149,1.0070828199386597,-2.47571045557131
1708435358.4280243,-2.1589627265930176,-1.33756077409301,-2.5210514704333704,6.148509728699484,1.0070621967315674,-2.4756954352008265
1708435358.4299967,-2.1589627265930176,-1.3375565570643921,-2.5210397879229944,6.148497807770529,1.0070666074752808,-2.4757192770587366
1708435358.4319859,-2.158982753753662,-1.3375888627818604,-2.521076742802755,6.148502099304952,1.0070741176605225,-2.4757002035724085
1708435358.4340224,-2.158982753753662,-1.3375888925841828,-2.521064583455221,6.14853452423171,1.0070654153823853,-2.4757073561297815
1708435358.4360082,-2.1589670181274414,-1.3375853163054963,-2.521036450062887,6.14848159530715,1.0070492029190063,-2.4757073561297815
1708435358.4380152,-2.158926010131836,-1.3375683587840577,-2.5210233370410364,6.148501145630636,1.0070326328277588,-2.4756749312030237
1708435358.4399962,-2.15893816947937,-1.337596834903099,-2.5210681597339075,6.148518311768331,1.0070370435714722,-2.4757400194751185
1708435358.4420347,-2.158921480178833,-1.3375321638635178,-2.521064583455221,6.14858757236556,1.0070414543151855,-2.475670401250021
1708435358.444024,-2.158897876739502,-1.3375769567540665,-2.5210440794574183,6.148509728699484,1.0070621967315674,-2.4757118860827845
1708435358.4459977,-2.1589584350585938,-1.337613807325699,-2.521060291920797,6.1485140202339075,1.0070741176605225,-2.4757192770587366
1708435358.4479887,-2.1589670181274414,-1.337556542163231,-2.521064583455221,6.148469316750326,1.0070666074752808,-2.475666109715597
1708435358.4499884,-2.1589221954345703,-1.3375930798104783,-2.521076742802755,6.148509728699484,1.0070828199386597,-2.475743834172384
1708435358.4519982,-2.158979892730713,-1.3375449788621445,-2.5210560003863733,6.148509728699484,1.0070871114730835,-2.475714985524313
1708435358.4540267,-2.1589345932006836,-1.3376299005797883,-2.521020237599508,6.148509728699484,1.0070698261260986,-2.475698773060934
1708435358.455992,-2.1590006351470947,-1.337601439361908,-2.5210886637317103,6.148578870087423,1.0070500373840332,-2.475689713154928
1708435358.4580297,-2.1589598655700684,-1.3375811588815232,-2.521064583455221,6.1485259411628626,1.007025122642517,-2.475764576588766
1708435358.4599926,-2.15893816947937,-1.3375412237695237,-2.521081034337179,6.1485540745551965,1.0070666074752808,-2.4757073561297815
1708435358.4620311,-2.15893816947937,-1.3375769269517441,-2.521076742802755,6.148489105492391,1.0070176124572754,-2.4756792227374476
1708435358.4640546,-2.1589136123657227,-1.3375608038953324,-2.521076742802755,6.1485832808311365,1.0070956945419312,-2.4757195154773157
1708435358.4659824,-2.1589388847351074,-1.3375811588815232,-2.5210886637317103,6.1485140202339075,1.0070741176605225,-2.4757030645953577
1708435358.468004,-2.1589221954345703,-1.3375576597503205,-2.521113936101095,6.1485259411628626,1.0070828199386597,-2.475714985524313
1708435358.4700184,-2.1589670181274414,-1.3375165623477479,-2.521109406148092,6.14850531795577,1.007042407989502,-2.475698773060934
1708435358.4719944,-2.158942699432373,-1.3375480634025116,-2.5210397879229944,6.148570287018575,1.007054328918457,-2.4757030645953577
1708435358.4739847,-2.1589512825012207,-1.3375769418529053,-2.521068874989645,6.148506390839376,1.007054328918457,-2.475748364125387
1708435358.476018,-2.1589555740356445,-1.3375242960504075,-2.521081034337179,6.148509728699484,1.0070370435714722,-2.4757118860827845
1708435358.477983,-2.1589303016662598,-1.3375285130790253,-2.521076742802755,6.14853452423171,1.0070666074752808,-2.47571045557131
1708435358.480008,-2.1589221954345703,-1.3375522804311295,-2.5210886637317103,6.148509728699484,1.007025122642517,-2.475677792225973
1708435358.4819822,-2.1589136123657227,-1.3375449788621445,-2.5210560003863733,6.148530232697286,1.0070990324020386,-2.475677792225973
1708435358.48401,-2.1589627265930176,-1.3375327450088044,-2.5210278669940394,6.148456322937765,1.007041335105896,-2.47567326227297
1708435358.486018,-2.158942699432373,-1.3375660640052338,-2.521060291920797,6.148530232697286,1.0070456266403198,-2.4757192770587366
1708435358.4879863,-2.1589956283569336,-1.3375565868667145,-2.521076742802755,6.148562657624044,1.007025122642517,-2.4757357279406946
1708435358.4900331,-2.1589598655700684,-1.3375491958907624,-2.521064583455221,6.148538815766134,1.0070456266403198,-2.4757357279406946
1708435358.4920075,-2.1589670181274414,-1.337553323512413,-2.521064583455221,6.14850531795577,1.0070370435714722,-2.475714985524313
1708435358.493978,-2.1589303016662598,-1.3375565868667145,-2.521060291920797,6.148517358094015,1.0070338249206543,-2.475682322178976
1708435358.4960074,-2.1589303016662598,-1.3375641864589234,-2.521109644566671,6.148489105492391,1.0070708990097046,-2.475685183201925
1708435358.497997,-2.1589784622192383,-1.3375407618335267,-2.521097246800558,6.148530232697286,1.0070708990097046,-2.4757192770587366
1708435358.5000129,-2.158926486968994,-1.3375769567540665,-2.521109406148092,6.148518311768331,1.0070338249206543,-2.475743834172384
1708435358.5020318,-2.1589598655700684,-1.3375972968390961,-2.5211051146136683,6.148497807770529,1.007026195526123,-2.475694243107931
1708435358.5040278,-2.158926010131836,-1.337585301404335,-2.521068874989645,6.1484728930290125,1.007013201713562,-2.475694243107931
1708435358.5060003,-2.158921480178833,-1.3375691634467621,-2.521081034337179,6.148497807770529,1.007054328918457,-2.475764576588766
1708435358.5080237,-2.1589627265930176,-1.3375852716020127,-2.521064583455221,6.1485140202339075,1.0070381164550781,-2.475726906453268
1708435358.5100014,-2.1589388847351074,-1.3376053285649796,-2.521081034337179,6.148477303772726,1.0070914030075073,-2.475748364125387
1708435358.5119867,-2.158953905105591,-1.3375242960504075,-2.521092955266134,6.1485259411628626,1.007029414176941,-2.475701634083883
1708435358.514052,-2.1589179039001465,-1.3375242960504075,-2.521109406148092,6.148538100510397,1.0070338249206543,-2.475726906453268
1708435358.5160718,-2.158926010131836,-1.3375650209239502,-2.521097246800558,6.148571240692892,1.0070500373840332,-2.475776497517721
1708435358.5180514,-2.1589512825012207,-1.3375811588815232,-2.5210886637317103,6.148465025215902,1.0070370435714722,-2.4757631460772913
1708435358.5200024,-2.158942699432373,-1.3375565868667145,-2.5210681597339075,6.14853452423171,1.0070579051971436,-2.475726906453268
1708435358.521997,-2.1589512825012207,-1.3375650209239502,-2.5210724512683313,6.14855836608962,1.007025122642517,-2.47569710413088
1708435358.5239959,-2.158926010131836,-1.3375650209239502,-2.521097246800558,6.148509728699484,1.0070621967315674,-2.475713555012838
1708435358.5259876,-2.1589696407318115,-1.3376137626222153,-2.521076742802755,6.1485339281852625,1.0070784091949463,-2.475793425236837
1708435358.5280192,-2.1589431762695312,-1.33758960783992,-2.521085325871603,6.1484858868415735,1.0070338249206543,-2.475717846547262
1708435358.5300398,-2.1590049266815186,-1.3375449788621445,-2.521064583455221,6.148502099304952,1.0070828199386597,-2.4757311979876917
1708435358.5320077,-2.1589388847351074,-1.337560848598816,-2.5210514704333704,6.148452150612631,1.0070621967315674,-2.4757350126849573
1708435358.5340345,-2.1589431762695312,-1.3375811588815232,-2.5211051146136683,6.148518311768331,1.0070708990097046,-2.475717846547262
1708435358.5359926,-2.158926010131836,-1.337585301404335,-2.5210898558246058,6.148469316750326,1.0070456266403198,-2.475743834172384
1708435358.5380454,-2.158946990966797,-1.3375811588815232,-2.521109406148092,6.148530232697286,1.0070586204528809,-2.4757469336139124
1708435358.5400019,-2.158982753753662,-1.3375608038953324,-2.5210886637317103,6.14854251125411,1.0070456266403198,-2.475771967564718
1708435358.5419912,-2.1589555740356445,-1.3375407618335267,-2.5210681597339075,6.148496854096212,1.0070381164550781,-2.4757090250598353
1708435358.5440083,-2.158942699432373,-1.337585301404335,-2.5210886637317103,6.148562657624044,1.0070500373840332,-2.4758053461657923
1708435358.5459988,-2.1589388847351074,-1.337601439361908,-2.521060291920797,6.148502099304952,1.0070381164550781,-2.475722376500265
1708435358.548039,-2.1589956283569336,-1.3375533384135743,-2.5210560003863733,6.14853452423171,1.0070381164550781,-2.4757466951953333
1708435358.550034,-2.1589713096618652,-1.3375811588815232,-2.5210681597339075,6.148551094322958,1.0070468187332153,-2.475743834172384
1708435358.5520315,-2.1589136123657227,-1.3375811588815232,-2.5210724512683313,6.148529636650839,1.007054328918457,-2.475755755101339
1708435358.5539944,-2.1590049266815186,-1.337536872630455,-2.521055046712057,6.14854251125411,1.007054328918457,-2.4757846037494105
1708435358.555998,-2.1589713096618652,-1.3375769418529053,-2.5210843721972864,6.14850531795577,1.0070914030075073,-2.475739304219381
1708435358.5580008,-2.158975601196289,-1.3375845563462754,-2.521060291920797,6.14850531795577,1.0070794820785522,-2.4757965246783655
1708435358.5599961,-2.1589512825012207,-1.3376221370748063,-2.521113936101095,6.148493516236105,1.007054328918457,-2.4757586161242884
1708435358.5620208,-2.1589512825012207,-1.3375242960504075,-2.521092955266134,6.148490178375997,1.0070621967315674,-2.475776497517721
1708435358.5640123,-2.1590049266815186,-1.3375449788621445,-2.521097246800558,6.1485140202339075,1.007026195526123,-2.4757846037494105
1708435358.5659983,-2.1589179039001465,-1.3375199896148224,-2.521101776753561,6.1485259411628626,1.0070828199386597,-2.475809876118795
1708435358.5680034,-2.1589741706848145,-1.3375199896148224,-2.521081034337179,6.148555385857382,1.0070698261260986,-2.4757469336139124
1708435358.5699923,-2.158964157104492,-1.3375727099231263,-2.5210724512683313,6.148513066559591,1.007029414176941,-2.4757800737964075
1708435358.5720265,-2.1589913368225098,-1.3375407618335267,-2.5210514704333704,6.148522603302755,1.0070871114730835,-2.475776497517721
1708435358.5740266,-2.1589555740356445,-1.3375845563462754,-2.5210560003863733,6.148546802788534,1.0070947408676147,-2.475767437611715
1708435358.5759969,-2.1589221954345703,-1.3375608038953324,-2.521118227635519,6.148555385857382,1.0070784091949463,-2.475821558629171
1708435358.5780284,-2.1589303016662598,-1.3376099181226273,-2.521076742802755,6.148493516236105,1.0070500373840332,-2.4757469336139124
1708435358.5800107,-2.158942699432373,-1.3375727248242875,-2.521081034337179,6.148465025215902,1.0070500373840332,-2.475778643284933
1708435358.582016,-2.1589584350585938,-1.3375199896148224,-2.521048370991842,6.148521530419149,1.007054328918457,-2.475778643284933
1708435358.5840063,-2.1589555740356445,-1.33754117906604,-2.5210843721972864,6.148518430977621,1.007029414176941,-2.475701634083883
1708435358.58599,-2.1590092182159424,-1.3375368428281327,-2.521081034337179,6.148509728699484,1.0070914030075073,-2.4757965246783655
1708435358.5879848,-2.158926010131836,-1.3375565868667145,-2.521092955266134,6.148546802788534,1.0070176124572754,-2.4757874647723597
1708435358.5900187,-2.1589584350585938,-1.337601439361908,-2.521060291920797,6.148570167809286,1.0070456266403198,-2.4757378737079065
1708435358.592037,-2.1589388847351074,-1.3375608187964936,-2.5210724512683313,6.148518311768331,1.0070306062698364,-2.4757965246783655
1708435358.5940425,-2.158996343612671,-1.3375449788621445,-2.5210724512683313,6.148493516236105,1.0070500373840332,-2.475771967564718
1708435358.5959868,-2.1589090824127197,-1.337573454981186,-2.5210886637317103,6.148530232697286,1.0070586204528809,-2.4757540861712855
1708435358.5979939,-2.1589696407318115,-1.3375449788621445,-2.5210800806628626,6.148553955345907,1.0070630311965942,-2.4758172670947474
1708435358.6000009,-2.158982753753662,-1.3375973415425797,-2.521081034337179,6.1485140202339075,1.0070500373840332,-2.4757676760302942
1708435358.6019845,-2.1589388847351074,-1.3375608038953324,-2.5210309664355677,6.148513066559591,1.0071033239364624,-2.4758172670947474
1708435358.6039991,-2.1589696407318115,-1.3375650209239502,-2.5210560003863733,6.148578989296713,1.007029414176941,-2.4757631460772913
1708435358.6059892,-2.158926010131836,-1.3375650209239502,-2.5210397879229944,6.148566949158468,1.0070630311965942,-2.4757755438434046
1708435358.608002,-2.1589303016662598,-1.3375691634467621,-2.5210886637317103,6.148496854096212,1.0070500373840332,-2.4757712523089808
1708435358.6099885,-2.1589388847351074,-1.3376057159951706,-2.5210560003863733,6.148549783020773,1.0070828199386597,-2.4758008162127894
1708435358.6119897,-2.159003257751465,-1.3375608038953324,-2.5210397879229944,6.1485540745551965,1.007054328918457,-2.4758082071887415
1708435358.6140401,-2.1589713096618652,-1.33754117906604,-2.5210514704333704,6.14850531795577,1.007041335105896,-2.475766722355978
1708435358.6160429,-2.1589512825012207,-1.3375492107919236,-2.521064583455221,6.148530232697286,1.0070381164550781,-2.4758082071887415
1708435358.6180358,-2.1589345932006836,-1.3375607889941712,-2.521097246800558,6.148574578552999,1.0070381164550781,-2.4758246580706995
1708435358.6200166,-2.158946990966797,-1.3375937354615708,-2.5210886637317103,6.148517358094015,1.007029414176941,-2.4758036772357386
1708435358.622038,-2.15893816947937,-1.3375533384135743,-2.5210886637317103,6.148489224701681,1.0070456266403198,-2.475783173237936
1708435358.62401,-2.158975601196289,-1.337605745797493,-2.5210843721972864,6.148508775025167,1.0070784091949463,-2.475790564213888
1708435358.6259897,-2.1589670181274414,-1.3375972968390961,-2.5210724512683313,6.148557412415304,1.007054328918457,-2.4758275190936487
1708435358.6279945,-2.1590049266815186,-1.3375845563462754,-2.5210886637317103,6.148501145630636,1.007042407989502,-2.4757917563067835
1708435358.6300237,-2.1589598655700684,-1.3375608336976548,-2.5210724512683313,6.1485339281852625,1.0070828199386597,-2.475795094166891
1708435358.6320229,-2.158987045288086,-1.337536872630455,-2.5211408774005335,6.148513066559591,1.0070708990097046,-2.47581130663027
1708435358.634054,-2.1589555740356445,-1.3375769418529053,-2.5210843721972864,6.148562657624044,1.0070053339004517,-2.4757829348193567
1708435358.63605,-2.1589784622192383,-1.337605745797493,-2.521121327077047,6.1485140202339075,1.0070381164550781,-2.4758365789996546
1708435358.6379874,-2.158946990966797,-1.337585301404335,-2.521121327077047,6.148570167809286,1.0070338249206543,-2.4757712523089808
1708435358.640018,-2.1589670181274414,-1.337601439361908,-2.5211451689349573,6.14850531795577,1.0070338249206543,-2.4757917563067835
1708435358.6419916,-2.1589345932006836,-1.3376053434661408,-2.5210843721972864,6.1485339281852625,1.0070338249206543,-2.4758439699756067
1708435358.6440163,-2.158946990966797,-1.3375522804311295,-2.5210681597339075,6.14855836608962,1.0070708990097046,-2.475802485142843
1708435358.6460176,-2.1589784622192383,-1.337573454981186,-2.5211051146136683,6.148565995484152,1.0070751905441284,-2.4758320490466517
1708435358.6480162,-2.1589179039001465,-1.3375090074590226,-2.5210886637317103,6.148538100510397,1.0070381164550781,-2.47581130663027
1708435358.649993,-2.1589713096618652,-1.3376264584115525,-2.5210724512683313,6.148517358094015,1.0070381164550781,-2.4757993857013147
1708435358.6519868,-2.1589345932006836,-1.3375691634467621,-2.521081034337179,6.148517358094015,1.0070621967315674,-2.475823227559225
1708435358.654027,-2.1589555740356445,-1.3375852417996903,-2.5211051146136683,6.148517358094015,1.0070741176605225,-2.4758439699756067
1708435358.656016,-2.1589136123657227,-1.3375691634467621,-2.521146361027853,6.148546802788534,1.0070621967315674,-2.4758155981646937
1708435358.6580002,-2.158946990966797,-1.3376014244607468,-2.521109406148092,6.148530232697286,1.0071024894714355,-2.475839678441183
1708435358.6600041,-2.1589627265930176,-1.3375650209239502,-2.5211246649371546,6.148456322937765,1.0070536136627197,-2.47583514848818
1708435358.6619883,-2.158973217010498,-1.3375930798104783,-2.521092240010397,6.148530232697286,1.0070698261260986,-2.4758201281176966
1708435358.6639957,-2.158982753753662,-1.3376179200461884,-2.521092955266134,6.14854251125411,1.0070946216583252,-2.4758201281176966
1708435358.6660132,-2.158947467803955,-1.3375938546708603,-2.5211332480060022,6.14850531795577,1.0070860385894775,-2.4758527914630335
1708435358.6679993,-2.1589555740356445,-1.3376171302846451,-2.5211170355426233,6.1485259411628626,1.0070741176605225,-2.475795094166891
1708435358.66998,-2.1589431762695312,-1.3375811588815232,-2.5211365858661097,6.148493516236105,1.0070621967315674,-2.475847069417135
1708435358.6720111,-2.1589064598083496,-1.3375327450088044,-2.5211203734027308,6.148522603302755,1.0071191787719727,-2.475807015095846
1708435358.6739879,-2.1589512825012207,-1.337536872630455,-2.521156374608175,6.148538815766134,1.0070981979370117,-2.475830856953756
1708435358.6759825,-2.158946990966797,-1.3375199896148224,-2.521177355443136,6.148538934975424,1.0071309804916382,-2.475851360951559
1708435358.6779935,-2.1589913368225098,-1.3375650209239502,-2.5211718718158167,6.148469316750326,1.007122278213501,-2.475855890904562
1708435358.6799974,-2.1589555740356445,-1.337601439361908,-2.5212248007403772,6.148519265442648,1.0070860385894775,-2.47581130663027
1708435358.6819763,-2.1589107513427734,-1.3376137626222153,-2.5211966673480433,6.148443090706625,1.0071309804916382,-2.475823227559225
1708435358.6840117,-2.1589064598083496,-1.3375407320312043,-2.5212610403644007,6.148446309357443,1.0070937871932983,-2.475847069417135
1708435358.6859722,-2.158886432647705,-1.3375285130790253,-2.5212531725512903,6.148369180947103,1.0070937871932983,-2.4758639971362513
1708435358.6879854,-2.1589608192443848,-1.3375888627818604,-2.5212412516223353,6.148380982666769,1.007106900215149,-2.475868527089254
1708435358.6900322,-2.158890724182129,-1.337601439361908,-2.5212326685534876,6.148378956108846,1.0071017742156982,-2.475826088582174
1708435358.6920106,-2.1588656902313232,-1.3375860762647171,-2.521219555531637,6.148349630623617,1.0071265697479248,-2.475851360951559
1708435358.6939797,-2.15887713432312,-1.3375207048705597,-2.5212610403644007,6.148293840676107,1.0071593523025513,-2.475809876118795
1708435358.6959772,-2.158842086791992,-1.3375491958907624,-2.521231476460592,6.148241627007284,1.0071550607681274,-2.475809876118795
1708435358.6979814,-2.1588945388793945,-1.3375533384135743,-2.521264378224508,6.1482665417488,1.0071625709533691,-2.475838009511129
1708435358.7000177,-2.15885066986084,-1.3374927949956437,-2.521268669758932,6.148173081665792,1.0071550607681274,-2.475851360951559
1708435358.7019694,-2.158871650695801,-1.337529258137085,-2.521296803151266,6.148120867996969,1.0071779489517212,-2.4758639971362513
1708435358.7040176,-2.158867835998535,-1.3375618618777771,-2.521280590687887,6.148125159531393,1.007215142250061,-2.4758713881122034
1708435358.7059793,-2.1587860584259033,-1.3375576597503205,-2.521276299153463,6.1481350539024255,1.0072095394134521,-2.475826088582174
1708435358.7079942,-2.1587860584259033,-1.33754117906604,-2.5212882200824183,6.148049938469686,1.007275104522705,-2.475830856953756
1708435358.709973,-2.1587624549865723,-1.3375491958907624,-2.521353546773092,6.1480586407478235,1.007279634475708,-2.475847069417135
1708435358.7119844,-2.158710241317749,-1.337573454981186,-2.5213244597064417,6.14797471740798,1.007314682006836,-2.4758551756488245
1708435358.7140286,-2.1587514877319336,-1.3375327450088044,-2.521341864262716,6.147901880532064,1.0073268413543701,-2.4758217970477503
1708435358.7160454,-2.1586952209472656,-1.3375576448491593,-2.5213568846331995,6.147825586586752,1.007371187210083,-2.4758172670947474
1708435358.7180212,-2.158679962158203,-1.3375607591918488,-2.5213611761676233,6.147814738541403,1.007407546043396,-2.4758713881122034
1708435358.7199945,-2.1586549282073975,-1.3375618916800995,-2.521402661000387,6.14771448352889,1.007422924041748,-2.4758551756488245
1708435358.7220013,-2.158679962158203,-1.337533490066864,-2.521376673375265,6.147645818978109,1.007454514503479,-2.4758337179767054
1708435358.7239933,-2.158649206161499,-1.3375173670104523,-2.5213809649096888,6.147606479912557,1.007520079612732,-2.475895706807272
1708435358.7259898,-2.1585750579833984,-1.3375454109958191,-2.5213759581195276,6.147506344109335,1.0075560808181763,-2.4758713881122034
1708435358.727995,-2.15858793258667,-1.3375377517989655,-2.5214322249041956,6.147401916771688,1.0075876712799072,-2.4758921305285853
1708435358.7300298,-2.158520221710205,-1.337525026207306,-2.5214527289019983,6.147338616638937,1.0076075792312622,-2.4759283701526087
1708435358.7319934,-2.158524513244629,-1.3375376772931595,-2.5214648882495325,6.147249686508932,1.007615327835083,-2.475886885319845
1708435358.733988,-2.1584811210632324,-1.3375343543342133,-2.5214605967151087,6.1471667168434045,1.0076391696929932,-2.47591215768923
1708435358.7359955,-2.1583755016326904,-1.3374932569316407,-2.5215259234057825,6.147074210434713,1.0077003240585327,-2.475907627736227
1708435358.7380207,-2.1583757400512695,-1.3375215840390702,-2.52150541940798,6.1470281956489465,1.0076909065246582,-2.4759119192706507
1708435358.7400222,-2.1583075523376465,-1.3374727827361603,-2.521492306386129,6.146878945618429,1.0078097581863403,-2.475952212010519
1708435358.7419798,-2.1583075523376465,-1.3374736470035096,-2.521536890660421,6.146771180420675,1.007792353630066,-2.47591215768923
1708435358.744031,-2.158231019973755,-1.337416724567749,-2.5215161482440394,6.14664255359725,1.0078237056732178,-2.475943390523092
1708435358.7459798,-2.158207893371582,-1.3374175292304535,-2.5215161482440394,6.146571743279257,1.0078480243682861,-2.475947682057516
1708435358.7479863,-2.158155918121338,-1.3374132823995133,-2.521597925816671,6.146479117661276,1.0079540014266968,-2.4759402910815638
1708435358.7500563,-2.158108711242676,-1.3373764616302033,-2.5215891043292444,6.146381127625265,1.0079365968704224,-2.4759603182422083
1708435358.7519848,-2.1580426692962646,-1.3374260526946564,-2.521588150654928,6.14625250080184,1.0079768896102905,-2.4759884516345423
1708435358.7540433,-2.157999277114868,-1.3373328012279053,-2.5216363112079065,6.146111953049459,1.0080207586288452,-2.475985590611593
1708435358.7559912,-2.1580052375793457,-1.3373447221568604,-2.5216568152057093,6.146028387337484,1.0080444812774658,-2.475938860570089
1708435358.7580147,-2.1579084396362305,-1.3373135191253205,-2.5216601530658167,6.145942199021139,1.0080764293670654,-2.4760285059558313
1708435358.7599783,-2.1578736305236816,-1.3373218935779114,-2.52168852487673,6.145829069405355,1.0081136226654053,-2.4759588877307337
1708435358.7619765,-2.1578259468078613,-1.3373261106065293,-2.521716896687643,6.14571892002181,1.0081322193145752,-2.4760153929339808
1708435358.76399,-2.1577658653259277,-1.3372655820897599,-2.521756951008932,6.145503270417013,1.0081974267959595,-2.476011101399557
1708435358.765994,-2.1576857566833496,-1.3372491163066407,-2.521830145512716,6.145347821503439,1.008201003074646,-2.4760738054858606
1708435358.7680075,-2.1576380729675293,-1.3372624975493927,-2.5218499342547815,6.145248281746664,1.0082653760910034,-2.475964609776632
1708435358.7699833,-2.1575498580932617,-1.3372421872666855,-2.521832529698507,6.145141589432516,1.0082643032073975,-2.4760759512530726
1708435358.7719784,-2.157465934753418,-1.3372337532094498,-2.5218728224383753,6.144888150482931,1.0083495378494263,-2.4760802427874964
1708435358.773987,-2.1574506759643555,-1.3372030568173905,-2.5219009558307093,6.144850599556722,1.0083858966827393,-2.4760878721820276
1708435358.7780132,-2.1572952270507812,-1.3371543300202866,-2.5219808260547083,6.1445143101509,1.008514642715454,-2.476168696080343
1708435358.780006,-2.157177209854126,-1.3371227842620392,-2.521952454243795,6.144330251007833,1.0085257291793823,-2.4761763254748743
1708435358.7820227,-2.1571459770202637,-1.3370621067336579,-2.5220287481891077,6.144141900330343,1.0085408687591553,-2.4762209097491663
1708435358.784002,-2.1570215225219727,-1.337050126200058,-2.522052590047018,6.14398621299819,1.0085890293121338,-2.4762590567218226
1708435358.7859786,-2.156970262527466,-1.3370056462338944,-2.522048298512594,6.143846380501547,1.0086581707000732,-2.476276938115255
1708435358.787976,-2.15693998336792,-1.337075726394989,-2.5220845381366175,6.143683302193441,1.0087177753448486,-2.4762561956988733
1708435358.7899826,-2.1568236351013184,-1.3369657111218949,-2.5221288839923304,6.143469798355856,1.0087778568267822,-2.4762473742114466
1708435358.7919996,-2.1567440032958984,-1.3369672757438202,-2.522165362034933,6.143307316094198,1.0088587999343872,-2.476337258015768
1708435358.7940807,-2.156655788421631,-1.3369630885175248,-2.522205177937643,6.143196332245626,1.00894296169281,-2.476340119038717
1708435358.795998,-2.156536102294922,-1.3369067323258896,-2.5221923033343714,6.142955767899313,1.009023666381836,-2.4763837496386927
1708435358.797998,-2.1564648151397705,-1.3369116497090836,-2.5221923033343714,6.142710554390707,1.009042501449585,-2.4764261881457728
1708435358.799984,-2.1563854217529297,-1.3368264597705384,-2.5222156683551233,6.1425795433814905,1.0091029405593872,-2.476449791585104
1708435358.8019824,-2.1562604904174805,-1.3368878674558182,-2.52226430574526,6.142404186516561,1.0091760158538818,-2.476424519215719
1708435358.8039954,-2.156168222427368,-1.3368356984904786,-2.522292677556173,6.142201053887167,1.0092476606369019,-2.4764602820025843
1708435358.805987,-2.1561012268066406,-1.3368030798486252,-2.52234918275942,6.142040598183431,1.009295105934143,-2.4764722029315394
1708435358.8080227,-2.1559596061706543,-1.3368277710727234,-2.522376600896017,6.141841399460592,1.0093638896942139,-2.476536575947897
1708435358.8099976,-2.155905246734619,-1.3367837828448792,-2.5223472754107874,6.141666996269979,1.0094151496887207,-2.4765446821795862
1708435358.812007,-2.155769109725952,-1.3368127208999177,-2.522400681172506,6.141401159554281,1.0094668865203857,-2.4766255060779017
1708435358.8140144,-2.1556780338287354,-1.3366948676160355,-2.5224815050708216,6.141152727394857,1.0095356702804565,-2.476649347935812
1708435358.8160558,-2.155625581741333,-1.3367485863021393,-2.5225096384631556,6.140978801041403,1.0095791816711426,-2.476690117512838
1708435358.8180287,-2.155539035797119,-1.3366717410138627,-2.5225041548358362,6.140721905022421,1.009660243988037,-2.4767428080188196
1708435358.8200076,-2.155332088470459,-1.3367094558528443,-2.5225120226489466,6.140510427742758,1.0097442865371704,-2.476790968571798
1708435358.8220277,-2.1552622318267822,-1.3366110634854813,-2.5225847403155726,6.1402379153068445,1.0098413228988647,-2.476831022893087
1708435358.8239932,-2.1551334857940674,-1.3366034042886277,-2.5225959459887903,6.140047180443563,1.009913682937622,-2.476866070424215
1708435358.8259833,-2.1550590991973877,-1.3365880709937592,-2.5226438681231897,6.13974820354537,1.009936809539795,-2.4769182840930384
1708435358.8280165,-2.1549460887908936,-1.3365642887404938,-2.5226646105395716,6.139539706497946,1.0099999904632568,-2.476983133946554
1708435358.8299868,-2.1548397541046143,-1.3365684759667893,-2.522728983555929,6.139295804291525,1.0100486278533936,-2.4769979158984583
1708435358.832018,-2.1547489166259766,-1.3365205538323899,-2.5227487722979944,6.139117824822225,1.0101858377456665,-2.477060143147604
1708435358.834037,-2.1546075344085693,-1.3365443658879776,-2.5227964560138147,6.138796913414755,1.0102418661117554,-2.4770734945880335
1708435358.8360128,-2.154496431350708,-1.3364191961339493,-2.5228126684771937,6.138524877816,1.0102975368499756,-2.4771841208087366
1708435358.838017,-2.1543920040130615,-1.3364771169475098,-2.5228403250323694,6.138382780342855,1.0103651285171509,-2.4772055784808558
1708435358.8400145,-2.154240131378174,-1.336472899918892,-2.5229209105121058,6.138021576195516,1.0104832649230957,-2.477319065724508
1708435358.8420155,-2.1541411876678467,-1.3364453327706833,-2.522944752370016,6.1377566931541345,1.0105303525924683,-2.477330271397726
1708435358.8439999,-2.1540615558624268,-1.3363603514483948,-2.5229690710650843,6.137619364052572,1.0105741024017334,-2.4773858229266565
1708435358.8459923,-2.153942584991455,-1.3364016276649018,-2.523024384175436,6.137364375382223,1.0106220245361328,-2.477470938359396
1708435358.848024,-2.153789758682251,-1.33638151109729,-2.523052755986349,6.13709973075942,1.0106942653656006,-2.47756010690798
1708435358.850001,-2.153686285018921,-1.3363701713136216,-2.5230725447284144,6.136864769249716,1.0107293128967285,-2.4776201883899134
1708435358.8520036,-2.1535539627075195,-1.3363009852221985,-2.523099724446432,6.13660095909194,1.0107982158660889,-2.477692190800802
1708435358.8540206,-2.153446912765503,-1.3363421124270936,-2.523184601460592,6.136368739395895,1.0109028816223145,-2.4777403513537806
1708435358.8559992,-2.153367280960083,-1.336277962928154,-2.5232372919665735,6.136093246727743,1.0109586715698242,-2.4778226057635706
1708435358.8579988,-2.1532552242279053,-1.3362046343139191,-2.52328068414797,6.1358539936836145,1.0110265016555786,-2.4779115358935755
1708435358.8600006,-2.1531686782836914,-1.336196945314743,-2.5233331362353724,6.135622608452596,1.011123776435852,-2.477983538304464
1708435358.8619857,-2.1530284881591797,-1.3361693632653733,-2.523360554371969,6.135325538903036,1.0112035274505615,-2.478051487599508
1708435358.8640025,-2.1528966426849365,-1.3361459386399765,-2.523384396229879,6.135045516281881,1.0112311840057373,-2.4781320730792444
1708435358.8659968,-2.1527934074401855,-1.3361133647016068,-2.5234370867358606,6.134871232300558,1.0113228559494019,-2.4782541433917444
1708435358.8679967,-2.152669668197632,-1.336085246210434,-2.523492161427633,6.134595739632406,1.0113990306854248,-2.478320900593893
1708435358.8699844,-2.1525495052337646,-1.336106390958168,-2.523508612309591,6.134360062866964,1.0114638805389404,-2.478401009236471
1708435358.8719907,-2.1524617671966553,-1.3360627007535477,-2.5235405603991907,6.134136903076925,1.011555552482605,-2.4784982840167444
1708435358.8740258,-2.152284860610962,-1.3360661727241059,-2.523600403462545,6.13384376743392,1.0116081237792969,-2.4786036650287073
1708435358.8759875,-2.152205228805542,-1.336001993422844,-2.523644987736837,6.133592712670126,1.0117335319519043,-2.4786086718188685
1708435358.877985,-2.1521189212799072,-1.335998610859253,-2.5236931482898157,6.133357631951132,1.0118176937103271,-2.4787586371051233
1708435358.88001,-2.151933431625366,-1.3360035431436081,-2.523700777684347,6.133069860726156,1.0118528604507446,-2.4788053671466272
1708435358.8820224,-2.151850938796997,-1.3359832030585785,-2.5237322489367884,6.132842290192404,1.0119085311889648,-2.478889767323629
1708435358.8839877,-2.1517605781555176,-1.3359149408391495,-2.5237889925586146,6.1325957653816126,1.011967658996582,-2.4789989630328577
1708435358.8859842,-2.15163254737854,-1.335902990107872,-2.5238164106952112,6.132262933045187,1.0120443105697632,-2.479074541722433
1708435358.8880076,-2.151512622833252,-1.335822806959488,-2.5238683859454554,6.1320156929786584,1.012162208557129,-2.479187313710348
1708435358.8899908,-2.151338815689087,-1.3358107519200821,-2.5238762537585657,6.13183759430007,1.0122253894805908,-2.479217592869894
1708435358.8920088,-2.151296854019165,-1.3358677488616486,-2.5239198843585413,6.13154815414504,1.0122933387756348,-2.4793556372271937
1708435358.8940434,-2.1511855125427246,-1.3358277541450043,-2.5239439646350306,6.1313445446784876,1.0123118162155151,-2.479464117680685
1708435358.8959835,-2.151057720184326,-1.3358082187226792,-2.5240007082568567,6.131104576378622,1.0124168395996094,-2.4795356432544153
1708435358.8979793,-2.150904655456543,-1.3357679557851334,-2.5240617434131067,6.130902397423544,1.0125099420547485,-2.479651991521017
1708435358.9000196,-2.1508026123046875,-1.3357279312661667,-2.5240562597857874,6.130625712662496,1.0125774145126343,-2.479711357747213
1708435358.9019825,-2.1507272720336914,-1.3357203167727967,-2.5240963141070765,6.130369531899252,1.0126615762710571,-2.479795281087057
1708435358.9040194,-2.1505777835845947,-1.335687742834427,-2.524144474660055,6.130134451180258,1.0127185583114624,-2.4798508326159876
1708435358.9059944,-2.150486707687378,-1.3356485080770035,-2.5241761843310755,6.129875290184774,1.0127938985824585,-2.480020586644308
1708435358.9080157,-2.1504082679748535,-1.3355997216752549,-2.524224106465475,6.1296318648155115,1.0127884149551392,-2.480058495198385
1708435358.9100132,-2.1503496170043945,-1.3355229955962677,-2.524248186741964,6.12939606884078,1.0128650665283203,-2.4801445643054407
1708435358.9120336,-2.150134801864624,-1.3355198514512558,-2.524297300969259,6.129152166634359,1.0129306316375732,-2.4802070299731653
1708435358.9140408,-2.1500606536865234,-1.3354796183160325,-2.5243080298053187,6.128892171173849,1.0129611492156982,-2.4803157488452356
1708435358.9160366,-2.1499857902526855,-1.3354999136975785,-2.524348799382345,6.1286977408225916,1.0130507946014404,-2.480448547993795
1708435358.9180639,-2.1498358249664307,-1.335463897590973,-2.5243714491473597,6.128418075829305,1.0131357908248901,-2.4804959932910364
1708435358.9200344,-2.149695634841919,-1.3354973506978531,-2.5244160334216517,6.128214347153463,1.0131829977035522,-2.4805598894702356
1708435358.921986,-2.1496338844299316,-1.3353924763253708,-2.524480406438009,6.128010618477621,1.0131938457489014,-2.4806399981128138
1708435358.9240181,-2.1495742797851562,-1.3353402328542252,-2.52452522913088,6.127717959671774,1.0132997035980225,-2.4807475248919886
1708435358.926,-2.1494340896606445,-1.335372508769371,-2.524519745503561,6.127558696060934,1.0133798122406006,-2.4808407465564173
1708435358.9280171,-2.1493263244628906,-1.3352969151786347,-2.5245679060565394,6.127331721573629,1.0133458375930786,-2.480949942265646
1708435358.9300005,-2.1491940021514893,-1.3352684688619156,-2.5246079603778284,6.127160894661703,1.0134596824645996,-2.48106295267214
1708435358.93199,-2.149122953414917,-1.3352973473123093,-2.524663750325338,6.126916754036703,1.0135031938552856,-2.481076780949728
1708435358.9340465,-2.1490354537963867,-1.3352036339095612,-2.524700943623678,6.126700866013326,1.0135676860809326,-2.481173102055685
1708435358.935995,-2.148919105529785,-1.335217149262764,-2.5247488657580774,6.126399862557211,1.0136233568191528,-2.4812658468829554
1708435358.9380379,-2.14878249168396,-1.3351932179978867,-2.524747673665182,6.126188742905416,1.0136387348175049,-2.481363598500387
1708435358.940031,-2.148739814758301,-1.3352298152497788,-2.5247674624072474,6.1259955046470544,1.0137109756469727,-2.4814310709582728
1708435358.9419823,-2.148611068725586,-1.3351940375617524,-2.5248239676104944,6.125788914948263,1.0137916803359985,-2.4814541975604456
1708435358.9439971,-2.1485517024993896,-1.3351334643414994,-2.5248435179339808,6.125573980599203,1.0138682126998901,-2.4814890066729944
1708435358.9459836,-2.148489475250244,-1.3351173412850876,-2.5249090830432337,6.1253182766731165,1.0139490365982056,-2.481581989918844
1708435358.9479947,-2.1483564376831055,-1.3350815635970612,-2.524879757558004,6.1251118061836145,1.0139437913894653,-2.4816914240466517
1708435358.9500167,-2.148256778717041,-1.3350497794202347,-2.5249157587634485,6.12493001201705,1.0140124559402466,-2.4816930929767054
1708435358.951988,-2.1481120586395264,-1.335062415604927,-2.5249276796924036,6.124738561898031,1.014063835144043,-2.481762711201803
1708435358.9540262,-2.148097515106201,-1.3350179952434083,-2.5249725023852747,6.1245529530342,1.014100193977356,-2.4818552176104944
1708435358.9560304,-2.1479907035827637,-1.3350301396897812,-2.5250499884234827,6.1243640063102625,1.0141855478286743,-2.481882158909933
1708435358.9580364,-2.1478939056396484,-1.3349944067052384,-2.525053087865011,6.124139535218038,1.014224648475647,-2.4818883577929896
1708435358.9599938,-2.1477973461151123,-1.3349782538465043,-2.5250638167010706,6.1240001795585535,1.0142978429794312,-2.481957737599508
1708435358.9619856,-2.1476941108703613,-1.334933729176857,-2.5250726381884974,6.123754608422079,1.0143122673034668,-2.48197848001589
1708435358.9640052,-2.1476261615753174,-1.3349867773107071,-2.5250704924212855,6.123616802483358,1.0143404006958008,-2.4820223490344446
1708435358.9659953,-2.1475343704223633,-1.3349388551763077,-2.525116507207052,6.123408901482382,1.0143883228302002,-2.482041660939352
1708435358.968022,-2.147498369216919,-1.3349223893931885,-2.525177303944723,6.123286473542013,1.0144530534744263,-2.482086960469381
1708435358.9700506,-2.147414445877075,-1.334951476459839,-2.5251925627337855,6.12304042556838,1.0144728422164917,-2.4820988813983362
1708435358.9719913,-2.1473186016082764,-1.3348781925490876,-2.525163475667135,6.122869598656454,1.014528512954712,-2.4820566813098353
1708435358.97402,-2.147275924682617,-1.3348704886487504,-2.5252047220813196,6.122734415322103,1.014540672302246,-2.4821017424212855
1708435358.9760044,-2.1471877098083496,-1.3349035543254395,-2.525215450917379,6.122545826226034,1.0145928859710693,-2.4820693174945276
1708435358.9779894,-2.147116184234619,-1.334850863819458,-2.525181595479147,6.122369873314657,1.0146499872207642,-2.482065502797262
1708435358.9799929,-2.1470155715942383,-1.334806428556778,-2.525269095097677,6.122223484307089,1.0146640539169312,-2.482053581868307
1708435358.9819894,-2.1469404697418213,-1.334806428556778,-2.525275532399313,6.1220799563224695,1.014783263206482,-2.482016626988546
1708435358.9840364,-2.146919012069702,-1.3347907823375245,-2.5253246466266077,6.121948349266805,1.0147778987884521,-2.481992308293478
1708435358.9860005,-2.146779775619507,-1.3347907823375245,-2.525332276021139,6.121817815094747,1.0147809982299805,-2.4819892088519495
1708435358.988022,-2.146716833114624,-1.33477138102565,-2.5253475348102015,6.1216256497199915,1.0148497819900513,-2.4819372336017054
1708435358.9899924,-2.146697998046875,-1.3347345751575013,-2.5253105799304407,6.121469843178549,1.0149013996124268,-2.4818840662585657
1708435358.9920015,-2.1465439796447754,-1.334788442855217,-2.5253759066211146,6.1213265536125085,1.0149699449539185,-2.4818483034717005
1708435358.994057,-2.1464970111846924,-1.3347150397351761,-2.525411907826559,6.121191131859579,1.0149774551391602,-2.4817870298968714
1708435358.9959822,-2.146453619003296,-1.334698573952057,-2.525407616292135,6.121014702111044,1.0149931907653809,-2.4817894140826624
1708435358.9979913,-2.1463849544525146,-1.334698573952057,-2.525468889866964,6.120888459473409,1.015033483505249,-2.481727425252096
1708435358.9999986,-2.146329164505005,-1.3346305948546906,-2.5253902117358606,6.120740520745077,1.015045404434204,-2.4816680590258997
1708435359.002047,-2.146303176879883,-1.3346873980811615,-2.5254765192614954,6.120621907501974,1.0150575637817383,-2.4816530386554163
1708435359.004026,-2.1462020874023438,-1.3346594137004395,-2.5254603067981165,6.1204566834266565,1.0150892734527588,-2.4816091696368616
1708435359.005988,-2.146183967590332,-1.3346348267844697,-2.5254884401904505,6.120304810791769,1.0151342153549194,-2.48149544397463
1708435359.0080085,-2.146131992340088,-1.3346720796874543,-2.5254676977740687,6.120119201927938,1.0151417255401611,-2.4814189116107386
1708435359.0100467,-2.1460394859313965,-1.3346236509135743,-2.525506560002462,6.120001184731283,1.0151572227478027,-2.4813345114337366
1708435359.0120413,-2.1459782123565674,-1.334672064786293,-2.5254579226123255,6.119960057526388,1.0151852369308472,-2.481246296559469
1708435359.0140522,-2.1459264755249023,-1.3346279573491593,-2.525548044835226,6.119857775955953,1.0152214765548706,-2.481154266987936
1708435359.0160637,-2.1459031105041504,-1.3346080046943207,-2.5256179014789026,6.119677412300863,1.0152618885040283,-2.4810784498797815
1708435359.0180693,-2.145798921585083,-1.334551141863205,-2.525538508092062,6.119536268502035,1.0152902603149414,-2.4809370676623743
1708435359.0200305,-2.145764112472534,-1.3345672947219391,-2.525637451802389,6.1193967936332605,1.0153262615203857,-2.4807642141925257
1708435359.0220127,-2.145658016204834,-1.3345926117948075,-2.5255754629718226,6.1193227646644495,1.015383243560791,-2.4806602636920374
1708435359.0240192,-2.1456756591796875,-1.334490494137146,-2.525566879902975,6.119239198952474,1.0153864622116089,-2.480478827153341
1708435359.0260339,-2.1456408500671387,-1.3345680248788376,-2.5256486574756067,6.119115459709921,1.0154443979263306,-2.480391327534811
1708435359.0280232,-2.1455678939819336,-1.3345357489636918,-2.5256367365466517,6.118970739632406,1.015418291091919,-2.48021108308901
1708435359.0299952,-2.145552635192871,-1.3345722419074555,-2.525635544453756,6.118867623596945,1.0154629945755005,-2.4800708929644983
1708435359.031979,-2.145516872406006,-1.3345280450633545,-2.52563983598818,6.118739354401388,1.015482783317566,-2.479919497166769
1708435359.033977,-2.145415782928467,-1.334531531935074,-2.5256968180285853,6.118665325432577,1.015461802482605,-2.4797335306750696
1708435359.0360436,-2.1454243659973145,-1.3345722717097779,-2.5256431738482874,6.118565547257223,1.0155067443847656,-2.4795213381396692
1708435359.0380218,-2.1453652381896973,-1.3345688444427033,-2.5256550947772425,6.118502127915182,1.0155309438705444,-2.4793532530414026
1708435359.0400336,-2.1453332901000977,-1.3345124882510682,-2.5256550947772425,6.118377196579733,1.0155428647994995,-2.4791575113879603
1708435359.0420156,-2.145268440246582,-1.3344393980554123,-2.5256550947772425,6.118285882263937,1.0155622959136963,-2.478978697453634
1708435359.0440185,-2.1452136039733887,-1.3345089268735428,-2.5256667772876185,6.118185746460714,1.0155779123306274,-2.47872502008547
1708435359.04602,-2.1451480388641357,-1.3344671440175553,-2.5257118383990687,6.118118750839987,1.0156183242797852,-2.47848350206484
1708435359.048058,-2.145108699798584,-1.3344479513219376,-2.5256624857531946,6.118010985642233,1.015622615814209,-2.4782756010638636
1708435359.0500221,-2.1450977325439453,-1.3344648045352479,-2.525687042866842,6.1179672358329675,1.0156257152557373,-2.4780309836017054
1708435359.0519922,-2.1450376510620117,-1.3344317835620423,-2.525703255330221,6.117822754174032,1.0156956911087036,-2.477811400090353
1708435359.0539982,-2.145002603530884,-1.334403322344162,-2.525707546864645,6.11774359920577,1.0157328844070435,-2.4774962107287806
1708435359.0560064,-2.1449618339538574,-1.3344648045352479,-2.525738779698507,6.117668616562643,1.0157033205032349,-2.477264944707052
1708435359.0580616,-2.144918441772461,-1.3344364178231736,-2.525735680256979,6.117637979775228,1.0157320499420166,-2.4770081678973597
1708435359.0599966,-2.1448540687561035,-1.3343879592469712,-2.525710646306173,6.117525088578024,1.0156989097595215,-2.476715151463644
1708435359.061988,-2.1448051929473877,-1.3344406348517914,-2.525764052067892,6.117384660034933,1.0157277584075928,-2.4764395395862024
1708435359.0640316,-2.144765853881836,-1.3344083589366456,-2.5257390181170862,6.117350208550253,1.0157146453857422,-2.476116720830099
1708435359.0659885,-2.144770622253418,-1.3343964380076905,-2.525771681462423,6.1172581789787195,1.0157265663146973,-2.47587496439089
1708435359.0680273,-2.144681930541992,-1.3344083589366456,-2.525727097188131,6.117158281594076,1.0157383680343628,-2.475574318562643
1708435359.0699904,-2.1446423530578613,-1.3343638342669983,-2.5257511774646204,6.1170986769493005,1.0157917737960815,-2.4752522150622767
1708435359.071995,-2.1446595191955566,-1.3343565326980134,-2.5257795492755335,6.117071378021993,1.0157755613327026,-2.474975649510519
1708435359.073994,-2.1445865631103516,-1.3343239289573212,-2.5258165041552942,6.11690520027236,1.0158162117004395,-2.474635187779562
1708435359.0760007,-2.1445627212524414,-1.3343445372632523,-2.5258076826678675,6.116886722832479,1.015795350074768,-2.4743431250201624
1708435359.078055,-2.1445350646972656,-1.3342793446830292,-2.5257957617389124,6.116770612984457,1.0158193111419678,-2.4739604632007044
1708435359.0800014,-2.1445279121398926,-1.334317074423172,-2.5258448759662073,6.116845237999716,1.0158518552780151,-2.473595205937521
1708435359.082035,-2.1444830894470215,-1.3343450290015717,-2.5258448759662073,6.116654383927145,1.0158344507217407,-2.4733172098742884
1708435359.083999,-2.144500255584717,-1.3343170297196885,-2.5258527437793177,6.116632449417867,1.015843152999878,-2.472931448613302
1708435359.0859818,-2.1444482803344727,-1.334287853246071,-2.5258646647082728,6.116556393891134,1.015846610069275,-2.4725785891162317
1708435359.088048,-2.144366979598999,-1.3342683178237458,-2.525872055684225,6.1164965508277795,1.0158838033676147,-2.472189966832296
1708435359.0899985,-2.1443512439727783,-1.3342360419086,-2.5258753935443323,6.1164365885551355,1.0158336162567139,-2.471792999898092
1708435359.0920155,-2.144375801086426,-1.3342563968947907,-2.525855843220846,6.116348612099447,1.0158793926239014,-2.4714751879321497
1708435359.0940294,-2.144336700439453,-1.3342648309520264,-2.5258429686175745,6.11629735210494,1.015894889831543,-2.471010986958639
1708435359.0959983,-2.144319534301758,-1.3342402440360566,-2.525879685078756,6.116228925972738,1.0159196853637695,-2.470681969319479
1708435359.09805,-2.1442790031433105,-1.3342486929944535,-2.525933567677633,6.116250502854147,1.0159196853637695,-2.4702287356006067
1708435359.1000133,-2.1442716121673584,-1.334233285193779,-2.5259080568896692,6.116080271988668,1.015918493270874,-2.4698367754565638
1708435359.1020281,-2.1442198753356934,-1.3342044961503525,-2.5258904139148157,6.11606918552474,1.0159311294555664,-2.469398323689596
1708435359.1040084,-2.1441962718963623,-1.3341753643802186,-2.525869909917013,6.116058337479391,1.0159473419189453,-2.469024721776144
1708435359.1060247,-2.144183397293091,-1.3342290681651612,-2.5259278456317347,6.115945446282186,1.0159592628479004,-2.4685502688037317
1708435359.108014,-2.1441965103149414,-1.3342087131789704,-2.525919262562887,6.115938532143392,1.0159461498260498,-2.4681041876422327
1708435359.1100175,-2.144131660461426,-1.3342452359250565,-2.525907341633932,6.115858542710104,1.0159505605697632,-2.467644993458883
1708435359.1120036,-2.1441330909729004,-1.3342214536717911,-2.5259678999530237,6.115801918297567,1.0159624814987183,-2.4671955744372767
1708435359.1140234,-2.14410400390625,-1.3342256110957642,-2.525959316884176,6.115759241371908,1.0159952640533447,-2.4667466322528284
1708435359.116017,-2.144096851348877,-1.3341564995101471,-2.5259636084186,6.11569510677413,1.0160402059555054,-2.466283146535055
1708435359.1180682,-2.1440563201904297,-1.3341938120177765,-2.5259791056262415,6.11566041687087,1.0160149335861206,-2.4658759276019495
1708435359.1200435,-2.1440324783325195,-1.3341570657542725,-2.5259996096240442,6.115583288460531,1.016006350517273,-2.4653611818896692
1708435359.1220498,-2.144041061401367,-1.3341608059457322,-2.525971237813131,6.115576493531027,1.0160884857177734,-2.4648545424090784
1708435359.124042,-2.143991708755493,-1.3341735315373917,-2.525987688695089,6.115532028466024,1.0160884857177734,-2.464473549519674
1708435359.1260216,-2.143960952758789,-1.3341369491866608,-2.525971237813131,6.115472304611959,1.0160465240478516,-2.4639528433429163
1708435359.1279929,-2.143972396850586,-1.3341896545938035,-2.5259953180896204,6.115428912430563,1.0160959959030151,-2.4634748140918177
1708435359.1300573,-2.1439738273620605,-1.3341607612422486,-2.5260444323169153,6.115401494293966,1.0161319971084595,-2.462921682988302
1708435359.132062,-2.1439404487609863,-1.3341051650098343,-2.5259626547442835,6.115369784622946,1.0161558389663696,-2.4624229113208216
1708435359.134015,-2.1439208984375,-1.3341495555690308,-2.5260193983661097,6.115313517838278,1.01615571975708,-2.461994473134176
1708435359.1359985,-2.1439013481140137,-1.3341412556222458,-2.526055399571554,6.115248310356893,1.016181230545044,-2.4614363352404993
1708435359.138001,-2.1438565254211426,-1.3341292154840012,-2.525994364415304,6.115205037384786,1.0161888599395752,-2.4610043207751673
1708435359.1400063,-2.143836498260498,-1.3341862571290513,-2.5260523001300257,6.11517761924819,1.0161514282226562,-2.460557285939352
1708435359.1420293,-2.1438651084899902,-1.3341369491866608,-2.5260465780841272,6.11512969711379,1.0161468982696533,-2.4600516001330774
1708435359.1439986,-2.1438212394714355,-1.3341127795032044,-2.5260632673846644,6.115089523583212,1.016180157661438,-2.459487263356344
1708435359.1460965,-2.143829822540283,-1.3341169965318223,-2.526022736226217,6.1150503037269495,1.0162038803100586,-2.458970371876852
1708435359.1479952,-2.1437902450561523,-1.3340847057155152,-2.526099983845846,6.1150221703346155,1.0161757469177246,-2.4584458510028284
1708435359.1500437,-2.143777847290039,-1.33411359906707,-2.526076380406515,6.114994990616598,1.0161951780319214,-2.4579299131976526
1708435359.152007,-2.143756866455078,-1.3341178607991715,-2.5260303656207483,6.11495469787673,1.0161951780319214,-2.4573846499072474
1708435359.154032,-2.1437525749206543,-1.3341255199960251,-2.526067558919088,6.114870297699728,1.0162038803100586,-2.456822935734884
1708435359.155997,-2.1437458992004395,-1.3341136139682312,-2.526144568120138,6.114841925888815,1.0162148475646973,-2.4563279787646692
1708435359.1580186,-2.143709182739258,-1.3340572279742737,-2.5261076132403772,6.114854800492086,1.0162279605865479,-2.455773417149679
1708435359.1600008,-2.143693447113037,-1.33405293643985,-2.5260828177081507,6.114762413292684,1.0162642002105713,-2.45516807237734
1708435359.1619995,-2.1437106132507324,-1.3340813231519242,-2.5261645952807825,6.1147711155708215,1.0162837505340576,-2.454660956059591
1708435359.1640148,-2.143698215484619,-1.334064857368805,-2.5261152426349085,6.114723193436422,1.0162793397903442,-2.454148594533102
1708435359.1660006,-2.143674612045288,-1.3340898764184494,-2.5261271635638636,6.114682781487264,1.0162761211395264,-2.4535842577563685
1708435359.1680279,-2.143685817718506,-1.3340812784484406,-2.52614409128298,6.114643800049581,1.016304612159729,-2.4530606905566614
1708435359.1700268,-2.143636465072632,-1.33404857039962,-2.526228729878561,6.114614593773641,1.0163168907165527,-2.452470127736227
1708435359.1720417,-2.143636465072632,-1.3340495389750977,-2.526167694722311,6.114575373917379,1.0163493156433105,-2.451958481465475
1708435359.1740348,-2.1436452865600586,-1.3341179502061387,-2.526179615651266,6.114531981735983,1.0163156986236572,-2.4513397852527063
1708435359.1759994,-2.1436266899108887,-1.334081919198372,-2.5262077490436,6.114561188011923,1.0163404941558838,-2.4508243242846888
1708435359.1780255,-2.1435861587524414,-1.3340537262013932,-2.5261545817004603,6.114472138672628,1.0163354873657227,-2.4502180258380335
1708435359.180003,-2.1435704231262207,-1.3340378564647217,-2.5261829535113733,6.114411461144247,1.0163559913635254,-2.4496684710132044
