Eg3-git/Classifiers/Data Collection/u5/u5abc4_ur3e_joint_states.csv
time,elbow_joint,shoulder_lift_joint,shoulder_pan_joint,wrist_1_joint,wrist_2_joint,wrist_3_joint
1708436890.9205391,-2.1636087894439697,-1.3409621727517624,-2.527418915425436,6.166835772782125,1.0190657377243042,-2.937197987233297
1708436890.922475,-2.1636433601379395,-1.3408881735852738,-2.5274482409106653,6.1668550846870325,1.0190657377243042,-2.937181059514181
1708436890.9245045,-2.1636390686035156,-1.3409123432687302,-2.5274110476123255,6.166796910553732,1.0190657377243042,-2.937214199696676
1708436890.926506,-2.163614273071289,-1.3409166497043152,-2.5274232069598597,6.166825401573934,1.0190372467041016,-2.9371936956988733
1708436890.9284942,-2.163670778274536,-1.3408881735852738,-2.5274277369128626,6.166813599854269,1.0190578699111938,-2.937251154576437
1708436890.9304855,-2.163670539855957,-1.340934009557106,-2.5274232069598597,6.16687165477828,1.0190001726150513,-2.937185589467184
1708436890.932491,-2.1636133193969727,-1.3409371835044404,-2.527426306401388,6.166852104454794,1.019081950187683,-2.937218729649679
1708436890.9344776,-2.163679361343384,-1.3409589690021058,-2.5274065176593226,6.1668550846870325,1.019041657447815,-2.937206808720724
1708436890.9365,-2.1636476516723633,-1.3409740042737504,-2.5274394194232386,6.166818010597982,1.0190491676330566,-2.9372025171863
1708436890.9385095,-2.1636390686035156,-1.340934009557106,-2.5274110476123255,6.166859614640035,1.0190775394439697,-2.937214199696676
1708436890.94051,-2.1636548042297363,-1.3409491342357178,-2.527393404637472,6.1668269512946985,1.0190534591674805,-2.937197987233297
1708436890.9425035,-2.16365909576416,-1.3409131181291123,-2.5274394194232386,6.166793930321493,1.0190285444259644,-2.9371936956988733
1708436890.9445217,-2.16363525390625,-1.34090872228656,-2.5274604002581995,6.1668057320411584,1.0190447568893433,-2.937214199696676
1708436890.9464955,-2.16365909576416,-1.3409080368331452,-2.5274394194232386,6.166834342270651,1.0190491676330566,-2.937218729649679
1708436890.9485152,-2.1636390686035156,-1.3409209710410614,-2.5274439493762415,6.166798341065206,1.0190534591674805,-2.9371936956988733
1708436890.9504943,-2.1636617183685303,-1.340941534643509,-2.5274558703051966,6.166761266976156,1.019070029258728,-2.937214199696676
1708436890.9524946,-2.1636929512023926,-1.3409415197423478,-2.527418915425436,6.166810261994161,1.0190329551696777,-2.937197987233297
1708436890.954499,-2.1636433601379395,-1.3409286004355927,-2.5273857752429407,6.166796910553732,1.0190491676330566,-2.937197987233297
1708436890.9565017,-2.1636266708374023,-1.3409784001163025,-2.5274351278888147,6.166768657952108,1.0190831422805786,-2.937181059514181
1708436890.9584947,-2.1636433601379395,-1.3409621727517624,-2.5274394194232386,6.166822421341696,1.0190285444259644,-2.9371936956988733
1708436890.960497,-2.16365909576416,-1.3409372133067627,-2.527463499699728,6.166830050736227,1.0190447568893433,-2.9371894041644495
1708436890.9624891,-2.163663625717163,-1.340904415850975,-2.5274065176593226,6.166785108834066,1.0190657377243042,-2.9371681849109095
1708436890.964534,-2.163630962371826,-1.3409209710410614,-2.5274110476123255,6.166856515198507,1.0190657377243042,-2.937197987233297
1708436890.9664838,-2.1636390686035156,-1.340957762008049,-2.527458969746725,6.166798341065206,1.0190657377243042,-2.9371851126300257
1708436890.9685166,-2.1636221408843994,-1.3408762526563187,-2.5274394194232386,6.166793930321493,1.0190578699111938,-2.9371936956988733
1708436890.9704874,-2.1636266708374023,-1.3409621727517624,-2.5274232069598597,6.166810261994161,1.019086241722107,-2.937230412160055
1708436890.9725075,-2.163684129714966,-1.3409000796130677,-2.5274110476123255,6.166744577675619,1.0190329551696777,-2.937181059514181
1708436890.974511,-2.1636548042297363,-1.3408957433751603,-2.5274484793292444,6.166753399163046,1.019070029258728,-2.937181059514181
1708436890.9765084,-2.1636433601379395,-1.3409621727517624,-2.5274277369128626,6.166779029160299,1.019041657447815,-2.937185589467184
1708436890.9784873,-2.163630962371826,-1.3409653765014191,-2.5274232069598597,6.1666966555412195,1.0190447568893433,-2.937185589467184
1708436890.9804988,-2.163609743118286,-1.3408957880786438,-2.5274277369128626,6.166668402939596,1.019070029258728,-2.937230412160055
1708436890.9824822,-2.163679361343384,-1.3409577769092103,-2.5274515787707728,6.166706907540121,1.0190447568893433,-2.937214199696676
1708436890.9844923,-2.163663625717163,-1.340934009557106,-2.5273948351489466,6.166632401734152,1.0190447568893433,-2.937226120625631
1708436890.9864924,-2.1636476516723633,-1.3409459304860611,-2.5274320284472864,6.166645633965292,1.0190119743347168,-2.937226120625631
1708436890.9885035,-2.1636548042297363,-1.3409044456532975,-2.5274513403521937,6.16664885261611,1.0190613269805908,-2.937173668538229
1708436890.9904811,-2.1636133193969727,-1.3409080368331452,-2.527414385472433,6.166698086052694,1.0190491676330566,-2.937176767979757
1708436890.9924717,-2.16367506980896,-1.3408676248839875,-2.5274065176593226,6.166666495590963,1.019057035446167,-2.937197987233297
1708436890.9945004,-2.1636390686035156,-1.3409459304860611,-2.5274022261248987,6.16666208484725,1.0190937519073486,-2.937206808720724
1708436890.9964857,-2.1636929512023926,-1.3409459304860611,-2.5274110476123255,6.166656482010641,1.019057035446167,-2.937234942113058
1708436890.9984798,-2.1636881828308105,-1.3408676248839875,-2.5274351278888147,6.166687595635214,1.019081950187683,-2.937214199696676
1708436891.0004718,-2.163670778274536,-1.3409491342357178,-2.5274232069598597,6.166674244194784,1.019081950187683,-2.9372025171863
1708436891.0024683,-2.163667917251587,-1.340957762008049,-2.5274232069598597,6.166632401734152,1.0190372467041016,-2.937197987233297
1708436891.0044959,-2.163670539855957,-1.3409087371877213,-2.527430836354391,6.1666831848915,1.019098162651062,-2.9372025171863
1708436891.006484,-2.16363525390625,-1.3409567338279267,-2.5274558703051966,6.166690575867452,1.0190361738204956,-2.937197987233297
1708436891.008509,-2.16367506980896,-1.3409339797547837,-2.5274110476123255,6.166678654938497,1.019057035446167,-2.937164847050802
1708436891.0105684,-2.163667917251587,-1.340941534643509,-2.5274110476123255,6.166641223221578,1.0190404653549194,-2.9372380415545862
1708436891.0124915,-2.1636884212493896,-1.3409946721843262,-2.5274351278888147,6.166694986611166,1.0190657377243042,-2.937214199696676
1708436891.0144908,-2.1636054515838623,-1.3409610253623505,-2.527442757283346,6.166641223221578,1.0190937519073486,-2.937206808720724
1708436891.0164926,-2.1636505126953125,-1.3408881288817902,-2.5274232069598597,6.166665422707357,1.0190372467041016,-2.9372099081622522
1708436891.0185723,-2.1636433601379395,-1.3409043860486527,-2.5273903051959437,6.166687595635214,1.0190578699111938,-2.9372099081622522
1708436891.0204918,-2.163618564605713,-1.3409372133067627,-2.5274515787707728,6.166703927307882,1.0190285444259644,-2.9372025171863
1708436891.0224707,-2.1636433601379395,-1.3409000796130677,-2.5274394194232386,6.1666831848915,1.0190447568893433,-2.937185589467184
1708436891.02449,-2.163614273071289,-1.3409784001163025,-2.527430597935812,6.166727649956503,1.019081950187683,-2.937218729649679
1708436891.0264764,-2.1636433601379395,-1.3409210604480286,-2.5274766127215784,6.1667024967964075,1.019073247909546,-2.937173668538229
1708436891.0284991,-2.1636011600494385,-1.3409296882203598,-2.527381483708517,6.166698086052694,1.0190404653549194,-2.937197987233297
1708436891.0304778,-2.1636300086975098,-1.34089249492202,-2.5274022261248987,6.166674244194784,1.0190199613571167,-2.937197987233297
1708436891.0325327,-2.1635982990264893,-1.3408806186965485,-2.5273903051959437,6.166617262154379,1.0190657377243042,-2.937185589467184
1708436891.0344853,-2.1636266708374023,-1.340904415850975,-2.5274022261248987,6.166699516564169,1.0190372467041016,-2.937226120625631
1708436891.036486,-2.163609743118286,-1.3408676248839875,-2.52738601366152,6.166686165123739,1.0190534591674805,-2.9371894041644495
1708436891.0385,-2.1636390686035156,-1.340969668035843,-2.5274558703051966,6.166650163918295,1.019070029258728,-2.9372025171863
1708436891.0405402,-2.16361403465271,-1.340937228207924,-2.527397696171896,6.166686165123739,1.019081950187683,-2.9371562639819544
1708436891.0425496,-2.1636390686035156,-1.340953455572464,-2.527430597935812,6.166692006378927,1.0190613269805908,-2.9371724764453333
1708436891.044487,-2.16361403465271,-1.340953455572464,-2.527393404637472,6.166706907540121,1.0190534591674805,-2.937176767979757
1708436891.0465186,-2.1636929512023926,-1.3409578067115326,-2.5274022261248987,6.166698086052694,1.0190613269805908,-2.9371894041644495
1708436891.0484817,-2.1636505126953125,-1.3409296435168763,-2.5274065176593226,6.166678654938497,1.019070029258728,-2.9372111002551478
1708436891.0505066,-2.1636266708374023,-1.3409329068711777,-2.527430597935812,6.166698086052694,1.0190775394439697,-2.9372025171863
1708436891.052503,-2.1636433601379395,-1.3409502518228074,-2.5274232069598597,6.166694986611166,1.0190404653549194,-2.9371681849109095
1708436891.0544798,-2.163630962371826,-1.3409372133067627,-2.5274065176593226,6.166669833451071,1.019086241722107,-2.937251154576437
1708436891.0565364,-2.163663625717163,-1.3408881735852738,-2.5274723211871546,6.166735517769613,1.019098162651062,-2.9371605555163782
1708436891.0584772,-2.163614273071289,-1.3409653765014191,-2.5274558703051966,6.1666531441505334,1.0190404653549194,-2.937197987233297
1708436891.060485,-2.163652181625366,-1.3409405064633866,-2.5274439493762415,6.166703927307882,1.019057035446167,-2.9371894041644495
1708436891.0625305,-2.1636433601379395,-1.3409784001163025,-2.5273857752429407,6.166669833451071,1.019057035446167,-2.937176767979757
1708436891.0644789,-2.163630962371826,-1.3409285855344315,-2.5274558703051966,6.1667024967964075,1.0190613269805908,-2.937197987233297
1708436891.0664835,-2.1636433601379395,-1.3409621727517624,-2.5274110476123255,6.166732179909506,1.019057035446167,-2.9372099081622522
1708436891.068488,-2.16365909576416,-1.3409253072789689,-2.52744704881777,6.166690575867452,1.019086241722107,-2.9372056166278284
1708436891.07047,-2.1636221408843994,-1.340953455572464,-2.5274274984942835,6.16666196563796,1.0190937519073486,-2.9371443430529993
1708436891.072503,-2.1636433601379395,-1.3409371984056015,-2.5274604002581995,6.166681754380026,1.019073247909546,-2.937214199696676
1708436891.0744946,-2.163609743118286,-1.3409502369216462,-2.5274646917926233,6.166699516564169,1.0190329551696777,-2.9371605555163782
1708436891.076506,-2.1636264324188232,-1.3409012121013184,-2.5274677912341517,6.166666495590963,1.0190329551696777,-2.937214199696676
1708436891.0784757,-2.1636433601379395,-1.3409296733191987,-2.5274277369128626,6.166715729027548,1.019070029258728,-2.9371724764453333
1708436891.080493,-2.1636054515838623,-1.34089249492202,-2.5274604002581995,6.166669833451071,1.0190894603729248,-2.937226120625631
1708436891.0825186,-2.1636221408843994,-1.3409252923778077,-2.5274558703051966,6.166681754380026,1.0190492868423462,-2.9372099081622522
1708436891.0844898,-2.1636009216308594,-1.3409459453872223,-2.527430597935812,6.16666196563796,1.0190613269805908,-2.9372392336474817
1708436891.0864992,-2.1636476516723633,-1.3409000945142289,-2.5274232069598597,6.166687595635214,1.0190484523773193,-2.9372218290912073
1708436891.088493,-2.163630962371826,-1.34092532218013,-2.527414385472433,6.166665422707357,1.019081950187683,-2.9371894041644495
1708436891.0905058,-2.163670778274536,-1.3409696829370041,-2.5274439493762415,6.1667024967964075,1.019057035446167,-2.937246624623434
1708436891.09252,-2.163652181625366,-1.3409696829370041,-2.5275049845324915,6.166694986611166,1.0190404653549194,-2.937230412160055
1708436891.0945032,-2.163652181625366,-1.3409372133067627,-2.5274515787707728,6.166669833451071,1.019057035446167,-2.9372099081622522
1708436891.0965269,-2.1636767387390137,-1.3409296882203598,-2.5274677912341517,6.16666196563796,1.0190775394439697,-2.9372218290912073
1708436891.0984995,-2.1635897159576416,-1.3408589971116562,-2.527414385472433,6.166657554894247,1.0190447568893433,-2.937234942113058
1708436891.100482,-2.1636505126953125,-1.340957762008049,-2.527414385472433,6.166645633965292,1.019098162651062,-2.9371443430529993
1708436891.102489,-2.1636228561401367,-1.3408553761294861,-2.527430597935812,6.166717159539022,1.019070029258728,-2.9371936956988733
1708436891.1044753,-2.1636390686035156,-1.3409131181291123,-2.5274277369128626,6.166692006378927,1.0190657377243042,-2.9372025171863
1708436891.1065197,-2.163630962371826,-1.3409296882203598,-2.527414385472433,6.166678654938497,1.0190404653549194,-2.9371724764453333
1708436891.1085036,-2.163663625717163,-1.3409491342357178,-2.5274604002581995,6.166699516564169,1.019086241722107,-2.937197987233297
1708436891.1104763,-2.163679361343384,-1.3409012121013184,-2.527475420628683,6.166694986611166,1.0190613269805908,-2.9372175375567835
1708436891.1124933,-2.1636390686035156,-1.3409209859422226,-2.5274677912341517,6.166654574662008,1.0190613269805908,-2.9371936956988733
1708436891.1144857,-2.1636433601379395,-1.3409415197423478,-2.5274723211871546,6.166657554894247,1.0190613269805908,-2.937181059514181
1708436891.1164875,-2.1636054515838623,-1.340969668035843,-2.5274677912341517,6.166690575867452,1.0190775394439697,-2.937164847050802
1708436891.1185253,-2.1636390686035156,-1.3409174096635361,-2.527381483708517,6.166647183686056,1.0190657377243042,-2.937214199696676
1708436891.120497,-2.163667917251587,-1.3409415495446702,-2.527442757283346,6.166694986611166,1.0190578699111938,-2.9372013250934046
1708436891.1225336,-2.1636221408843994,-1.3409784001163025,-2.5274604002581995,6.1667202589805505,1.0190937519073486,-2.9372099081622522
1708436891.12454,-2.1636433601379395,-1.340937228207924,-2.5274022261248987,6.166636812477865,1.0190657377243042,-2.937148634587423
1708436891.1264994,-2.1636433601379395,-1.3409459304860611,-2.527414385472433,6.166644203453817,1.019085168838501,-2.9372056166278284
1708436891.1284878,-2.1635940074920654,-1.34089249492202,-2.527426306401388,6.16664873340682,1.019073247909546,-2.9371936956988733
1708436891.1304827,-2.16363525390625,-1.3409209561399003,-2.5274677912341517,6.166711318283834,1.0190657377243042,-2.9371898810016077
1708436891.132484,-2.1636433601379395,-1.3409328919700165,-2.527426306401388,6.166690575867452,1.019085168838501,-2.937164847050802
1708436891.134538,-2.1636476516723633,-1.340966449385025,-2.527418915425436,6.1667038080985925,1.0190775394439697,-2.937185589467184
1708436891.1365218,-2.1636476516723633,-1.3409328919700165,-2.5274797121631067,6.166706907540121,1.019068956375122,-2.937230412160055
1708436891.1385183,-2.1635982990264893,-1.340929703121521,-2.5274515787707728,6.166678654938497,1.0190894603729248,-2.9371400515185755
1708436891.1404836,-2.1635982990264893,-1.3409296882203598,-2.527438227330343,6.166645633965292,1.0190937519073486,-2.937176767979757
1708436891.1424973,-2.1636266708374023,-1.3409653765014191,-2.527430597935812,6.16672037818984,1.019068956375122,-2.9372380415545862
1708436891.1444907,-2.163614273071289,-1.3409285855344315,-2.5274558703051966,6.166703927307882,1.0190646648406982,-2.937234942113058
1708436891.1464932,-2.1636266708374023,-1.3409253072789689,-2.52744704881777,6.166580068856039,1.0190613269805908,-2.9371936956988733
1708436891.1485016,-2.163630962371826,-1.3409080368331452,-2.5274723211871546,6.166715848236837,1.0190613269805908,-2.937218729649679
1708436891.150497,-2.163630962371826,-1.340941534643509,-2.527438227330343,6.166657554894247,1.019085168838501,-2.9372056166278284
1708436891.1524832,-2.163609743118286,-1.3409285855344315,-2.527426306401388,6.166698086052694,1.0190613269805908,-2.937197987233297
1708436891.1544962,-2.1636266708374023,-1.3409869980863114,-2.527442757283346,6.166641223221578,1.0190447568893433,-2.937218729649679
1708436891.1564953,-2.1636476516723633,-1.340904415850975,-2.527426306401388,6.166681754380026,1.0190318822860718,-2.9372099081622522
1708436891.1584902,-2.1635940074920654,-1.340929703121521,-2.5274351278888147,6.1667038080985925,1.0190285444259644,-2.937218729649679
1708436891.160499,-2.16367506980896,-1.3409459304860611,-2.5274632612811487,6.166729080467977,1.0190894603729248,-2.937185589467184
1708436891.162486,-2.1636221408843994,-1.3409209859422226,-2.5274677912341517,6.166699516564169,1.0190484523773193,-2.9372218290912073
1708436891.164505,-2.1635940074920654,-1.3409328919700165,-2.527458969746725,6.1666204808051965,1.019068956375122,-2.9371605555163782
1708436891.1664882,-2.1636476516723633,-1.340961055164673,-2.527475420628683,6.166678654938497,1.0190404653549194,-2.937197987233297
1708436891.1684937,-2.163618564605713,-1.34091308832679,-2.5274766127215784,6.1666831848915,1.0190361738204956,-2.937181059514181
1708436891.170481,-2.163618564605713,-1.3409459155849,-2.527414385472433,6.16666196563796,1.019068956375122,-2.937214199696676
1708436891.1724746,-2.163652181625366,-1.3409209859422226,-2.5274723211871546,6.1666831848915,1.019068956375122,-2.937185589467184
1708436891.1744864,-2.1635897159576416,-1.340957762008049,-2.527414385472433,6.16666208484725,1.019097089767456,-2.9371894041644495
1708436891.1764681,-2.163652181625366,-1.3409123581698914,-2.5274515787707728,6.166706907540121,1.0190613269805908,-2.9371936956988733
1708436891.1784983,-2.163609743118286,-1.3409166944077988,-2.527426306401388,6.166720139771261,1.0190404653549194,-2.9371681849109095
1708436891.1804757,-2.163609743118286,-1.3409696829370041,-2.527418915425436,6.166687476425924,1.019057035446167,-2.9372392336474817
1708436891.1824749,-2.1636440753936768,-1.3409080368331452,-2.5274351278888147,6.166686165123739,1.0190763473510742,-2.9372175375567835
1708436891.1845171,-2.1636390686035156,-1.3409209710410614,-2.5274842421161097,6.16666196563796,1.0191099643707275,-2.937230412160055
1708436891.1864727,-2.163639783859253,-1.3409448128989716,-2.527438227330343,6.1666709063346765,1.0191056728363037,-2.9371936956988733
1708436891.1885061,-2.163639783859253,-1.3409209859422226,-2.5274232069598597,6.166690575867452,1.0191099643707275,-2.9372175375567835
1708436891.1904662,-2.163614273071289,-1.340953455572464,-2.527442757283346,6.166711318283834,1.0190775394439697,-2.937169377003805
1708436891.1924725,-2.163609743118286,-1.34096214294944,-2.5274558703051966,6.166686165123739,1.019085168838501,-2.9371562639819544
1708436891.1944842,-2.1635940074920654,-1.3409087371877213,-2.5274515787707728,6.16667531707839,1.0191056728363037,-2.9372099081622522
1708436891.196479,-2.163630962371826,-1.3409000945142289,-2.527442757283346,6.166718828469076,1.0190484523773193,-2.937214199696676
1708436891.1984904,-2.16363525390625,-1.3409328919700165,-2.5274515787707728,6.166669833451071,1.019068956375122,-2.937181059514181
1708436891.2004745,-2.1635940074920654,-1.3409459304860611,-2.52747089067568,6.16666196563796,1.0191013813018799,-2.937164847050802
1708436891.2024763,-2.1635913848876953,-1.3408719462207337,-2.527463499699728,6.166681754380026,1.019057035446167,-2.93724233308901
1708436891.2044842,-2.163618564605713,-1.34096214294944,-2.527430597935812,6.166686165123739,1.0190894603729248,-2.9371936956988733
1708436891.206482,-2.1636266708374023,-1.3409131330302735,-2.5274885336505335,6.16666196563796,1.019085168838501,-2.9372218290912073
1708436891.2085161,-2.163614273071289,-1.3409252923778077,-2.527450148259298,6.166694986611166,1.0190894603729248,-2.937214199696676
1708436891.2105935,-2.1636433601379395,-1.340908707385399,-2.5274677912341517,6.166715848236837,1.0190484523773193,-2.937206808720724
1708436891.2125757,-2.163607120513916,-1.3409372133067627,-2.5274339357959192,6.166669833451071,1.0190527439117432,-2.9371936956988733
1708436891.214478,-2.1635851860046387,-1.3409696829370041,-2.527458969746725,6.166708218842306,1.0190894603729248,-2.9372056166278284
1708436891.216475,-2.163602828979492,-1.340941534643509,-2.5274110476123255,6.166694986611166,1.0191051959991455,-2.9371936956988733
1708436891.2184918,-2.1636266708374023,-1.3409252774766465,-2.5274394194232386,6.166669833451071,1.019085168838501,-2.9372056166278284
1708436891.2205186,-2.1636722087860107,-1.3409296882203598,-2.527442757283346,6.166715729027548,1.0191057920455933,-2.937176767979757
1708436891.2225022,-2.163639783859253,-1.3409296882203598,-2.5274723211871546,6.1666709063346765,1.0190646648406982,-2.9371894041644495
1708436891.2245133,-2.1636440753936768,-1.3409253072789689,-2.5274558703051966,6.16674433925704,1.019085168838501,-2.9372025171863
1708436891.2264907,-2.163639783859253,-1.3409296882203598,-2.5274351278888147,6.166715729027548,1.0191270112991333,-2.9371936956988733
1708436891.228496,-2.163663625717163,-1.3409043860486527,-2.527426306401388,6.166674244194784,1.019085168838501,-2.937214199696676
1708436891.2305024,-2.1636221408843994,-1.340953455572464,-2.527414385472433,6.166690575867452,1.019085168838501,-2.937181059514181
1708436891.2325048,-2.1636440753936768,-1.3409087371877213,-2.527442757283346,6.166609632759847,1.019118309020996,-2.9371936956988733
1708436891.2344766,-2.163639783859253,-1.3409696829370041,-2.52744704881777,6.166669833451071,1.019085168838501,-2.9372111002551478
1708436891.2364733,-2.16363525390625,-1.3409252923778077,-2.527458969746725,6.166625964432516,1.019114375114441,-2.9371936956988733
1708436891.2384782,-2.163652181625366,-1.3409372133067627,-2.52740985551943,6.166678654938497,1.0191056728363037,-2.937258545552389
1708436891.2404923,-2.163667917251587,-1.3409405064633866,-2.527438227330343,6.16664885261611,1.0190763473510742,-2.937263075505392
1708436891.2424755,-2.1635982990264893,-1.3409372133067627,-2.527426306401388,6.166727649956503,1.0190808773040771,-2.9371851126300257
1708436891.2444851,-2.16363525390625,-1.3409209710410614,-2.5274022261248987,6.166645633965292,1.0190808773040771,-2.937218729649679
1708436891.2464826,-2.1636228561401367,-1.3409328919700165,-2.527454439793722,6.166715729027548,1.0190808773040771,-2.9371443430529993
1708436891.248493,-2.16363525390625,-1.3409664791873475,-2.527475420628683,6.166644322663107,1.019081950187683,-2.937197987233297
1708436891.2504737,-2.1636228561401367,-1.3409296882203598,-2.5274174849139612,6.166715848236837,1.019097089767456,-2.9371936956988733
1708436891.2524767,-2.1635868549346924,-1.3408640933087845,-2.52744704881777,6.166654574662008,1.0191013813018799,-2.937246624623434
1708436891.2544746,-2.163663625717163,-1.3409610998681565,-2.5274677912341517,6.166674244194784,1.019085168838501,-2.9372392336474817
1708436891.256487,-2.1636476516723633,-1.3409459304860611,-2.5274558703051966,6.166715729027548,1.019073247909546,-2.937185589467184
1708436891.2584872,-2.1635613441467285,-1.340941534643509,-2.527418915425436,6.166723239212789,1.0190646648406982,-2.9372099081622522
1708436891.2605135,-2.1636440753936768,-1.3409209710410614,-2.5275004545794886,6.1667364714439294,1.0191056728363037,-2.9371894041644495
1708436891.2625017,-2.1635913848876953,-1.3409448128989716,-2.5274677912341517,6.166698086052694,1.019068956375122,-2.937197987233297
1708436891.2644863,-2.1636433601379395,-1.3409740042737504,-2.527414385472433,6.16666196563796,1.019073247909546,-2.937181059514181
1708436891.2664783,-2.163639783859253,-1.3409123134664078,-2.5274351278888147,6.166711318283834,1.0191013813018799,-2.937197987233297
1708436891.2684827,-2.1635982990264893,-1.340904415850975,-2.52740985551943,6.166687595635214,1.019097089767456,-2.9371967951404017
1708436891.2704747,-2.1635940074920654,-1.3409000945142289,-2.52744704881777,6.166666495590963,1.0190925598144531,-2.9371936956988733
1708436891.272479,-2.1636054515838623,-1.3409131479314347,-2.527426306401388,6.166665541916647,1.0191140174865723,-2.937230412160055
1708436891.2744963,-2.1635825634002686,-1.34090872228656,-2.52740985551943,6.166650163918295,1.019118309020996,-2.937197987233297
1708436891.2765105,-2.1635897159576416,-1.3409252923778077,-2.5274797121631067,6.166687595635214,1.019085168838501,-2.937148634587423
1708436891.278513,-2.1635940074920654,-1.3409502518228074,-2.5274885336505335,6.166694986611166,1.0191256999969482,-2.937230412160055
1708436891.2804923,-2.1636221408843994,-1.3409131330302735,-2.527418915425436,6.166653263359823,1.019085168838501,-2.9371936956988733
1708436891.2824974,-2.1636228561401367,-1.340957762008049,-2.5274797121631067,6.166645633965292,1.0190926790237427,-2.9372056166278284
1708436891.2844937,-2.1636440753936768,-1.3409577769092103,-2.5274174849139612,6.1667024967964075,1.0191013813018799,-2.9372056166278284
1708436891.286497,-2.1636228561401367,-1.3409545433572312,-2.5274677912341517,6.166678654938497,1.019085168838501,-2.937230412160055
1708436891.2884862,-2.1635913848876953,-1.3409087371877213,-2.527442757283346,6.166694986611166,1.019085168838501,-2.9372218290912073
1708436891.2904718,-2.1635940074920654,-1.3409491342357178,-2.5274797121631067,6.166645633965292,1.0190894603729248,-2.9371605555163782
1708436891.292487,-2.1636440753936768,-1.3409859252027054,-2.5274394194232386,6.166690575867452,1.0190925598144531,-2.937176767979757
1708436891.2944722,-2.163639783859253,-1.3409210008433838,-2.5274632612811487,6.166723239212789,1.019097089767456,-2.937230412160055
1708436891.2965028,-2.1636316776275635,-1.3409123432687302,-2.527426306401388,6.1667024967964075,1.0191056728363037,-2.937164847050802
1708436891.2984986,-2.16363525390625,-1.3409011375955124,-2.527438227330343,6.166666495590963,1.019073247909546,-2.9372435251819056
1708436891.30047,-2.163618564605713,-1.3409664791873475,-2.527458969746725,6.166687595635214,1.0190937519073486,-2.9372175375567835
1708436891.3025193,-2.1636228561401367,-1.3409415048411866,-2.527454439793722,6.166651594429769,1.019134521484375,-2.937234942113058
1708436891.3044806,-2.163607120513916,-1.340941534643509,-2.5275049845324915,6.166645633965292,1.0190601348876953,-2.9372013250934046
1708436891.3064873,-2.1635825634002686,-1.3409577769092103,-2.5274797121631067,6.166658985405721,1.0191057920455933,-2.9372056166278284
1708436891.3084917,-2.163529396057129,-1.340941534643509,-2.527426306401388,6.166687595635214,1.0191013813018799,-2.9372380415545862
1708436891.3104718,-2.1635913848876953,-1.3409339350513,-2.52743369737734,6.166678654938497,1.019068956375122,-2.937226120625631
1708436891.3124897,-2.1635913848876953,-1.34089249492202,-2.527438227330343,6.166667806893148,1.0191593170166016,-2.937223021184103
1708436891.3144941,-2.163595676422119,-1.3409816485694428,-2.5274515787707728,6.16661416271285,1.0190763473510742,-2.937214199696676
1708436891.3164847,-2.1636159420013428,-1.3409209710410614,-2.527438227330343,6.166633832245626,1.019134521484375,-2.937234942113058
1708436891.3185322,-2.163553237915039,-1.3409131181291123,-2.527487103139059,6.166617142945089,1.019118309020996,-2.9371936956988733
1708436891.3205137,-2.163583278656006,-1.3409459453872223,-2.527450148259298,6.166642653733053,1.0191140174865723,-2.9371894041644495
1708436891.32251,-2.163595676422119,-1.3408676248839875,-2.527442757283346,6.166596281319418,1.0190926790237427,-2.937230412160055
1708436891.3245065,-2.163578987121582,-1.3409329366735,-2.527491633092062,6.166642653733053,1.019097089767456,-2.9371936956988733
1708436891.326526,-2.163525104522705,-1.3409252923778077,-2.5274351278888147,6.166678654938497,1.0191013813018799,-2.9371894041644495
1708436891.3285065,-2.163583278656006,-1.3408676248839875,-2.52743369737734,6.166573631554403,1.0191431045532227,-2.937246624623434
1708436891.330504,-2.1635663509368896,-1.3409242641976853,-2.527466599141256,6.166597831040182,1.0190646648406982,-2.9372099081622522
1708436891.3325226,-2.163546085357666,-1.3409296882203598,-2.527421776448385,6.166647183686056,1.01912260055542,-2.9372099081622522
1708436891.334494,-2.1635594367980957,-1.3409459453872223,-2.527450148259298,6.166557299881735,1.019097089767456,-2.937246624623434
1708436891.3365338,-2.1635663509368896,-1.3409217310002823,-2.5274632612811487,6.166558730393209,1.019073247909546,-2.9371936956988733
1708436891.3384829,-2.1635751724243164,-1.3409174543670197,-2.5274797121631067,6.166460144310751,1.0190882682800293,-2.937214199696676
1708436891.3404846,-2.1635336875915527,-1.340941534643509,-2.527487103139059,6.166455614357748,1.0190925598144531,-2.937176767979757
1708436891.342521,-2.1635708808898926,-1.3409491342357178,-2.52740985551943,6.1664254544074915,1.0191140174865723,-2.9371894041644495
1708436891.3444908,-2.163560152053833,-1.3409131330302735,-2.5274797121631067,6.166450726776876,1.0191302299499512,-2.937181059514181
1708436891.3465207,-2.1635725498199463,-1.3409621727517624,-2.5274515787707728,6.1664312956626794,1.0191258192062378,-2.9372013250934046
1708436891.348494,-2.1635513305664062,-1.34089249492202,-2.5274515787707728,6.166390883713522,1.0191140174865723,-2.937218729649679
1708436891.3504815,-2.1634862422943115,-1.34090872228656,-2.527454439793722,6.1663997052009485,1.0190808773040771,-2.9371443430529993
1708436891.3524985,-2.1635117530822754,-1.340926171546318,-2.52744704881777,6.1663222191627405,1.0190925598144531,-2.937185589467184
1708436891.3544729,-2.1634905338287354,-1.3409000647119065,-2.5274797121631067,6.166298019676962,1.0190808773040771,-2.9372099081622522
1708436891.3564994,-2.1634862422943115,-1.3409131330302735,-2.52743369737734,6.166257965355673,1.019110083580017,-2.9371605555163782
1708436891.358502,-2.163466453552246,-1.3409502816251297,-2.5274632612811487,6.166235196381368,1.0190763473510742,-2.9371779600726526
1708436891.3604825,-2.163466691970825,-1.340916634803154,-2.527426306401388,6.1661651013191126,1.0190925598144531,-2.937108103428976
1708436891.3625016,-2.163458824157715,-1.340839148764946,-2.527466599141256,6.166178452759542,1.01914644241333,-2.9371374289142054
1708436891.3644803,-2.163466691970825,-1.3408957433751603,-2.52747089067568,6.166146862297811,1.019118309020996,-2.9371328989612024
1708436891.3665059,-2.1634435653686523,-1.3409131628325959,-2.5274174849139612,6.166097509651937,1.0190763473510742,-2.9370761553393763
1708436891.3684933,-2.1634392738342285,-1.340880573993065,-2.52744704881777,6.166087019234457,1.019097089767456,-2.9370935598956507
1708436891.3704658,-2.1634435653686523,-1.340941534643509,-2.52747089067568,6.165984022408285,1.019085168838501,-2.9370740095721644
1708436891.372491,-2.1633987426757812,-1.3409415942481537,-2.5274620691882532,6.166015016823568,1.0190925598144531,-2.93697172800173
1708436891.374482,-2.1633870601654053,-1.3409012121013184,-2.527508560811178,6.166012036591329,1.019068956375122,-2.9370577971087855
1708436891.3764942,-2.163379192352295,-1.340921015744545,-2.5274620691882532,6.1659432528312585,1.019118309020996,-2.937009636555807
1708436891.3784897,-2.163351058959961,-1.3408565086177369,-2.527491633092062,6.165923821717062,1.0190808773040771,-2.9369729200946253
1708436891.3804991,-2.1633193492889404,-1.340869427924492,-2.52747089067568,6.165814626007833,1.0190763473510742,-2.936965290700094
1708436891.3824875,-2.1633458137512207,-1.340853513484337,-2.527450148259298,6.165802466660299,1.0190763473510742,-2.9369738737689417
1708436891.3844733,-2.1633119583129883,-1.3408564937165757,-2.52743369737734,6.165718900948324,1.019085168838501,-2.9369095007525843
1708436891.3865013,-2.163316488265991,-1.3407719296268006,-2.527405563985006,6.165678369789877,1.0191140174865723,-2.9368813673602503
1708436891.3885067,-2.1632802486419678,-1.3407727789929886,-2.5274248758899134,6.165675389557638,1.019118309020996,-2.936873737965719
1708436891.390474,-2.163236141204834,-1.3407608431628724,-2.527458969746725,6.165591466217794,1.0191094875335693,-2.93685752550234
1708436891.392476,-2.1632211208343506,-1.3407533478787919,-2.527450148259298,6.165495621948995,1.019068956375122,-2.936821762715475
1708436891.394509,-2.1632087230682373,-1.340724380021431,-2.527475420628683,6.165410268097677,1.0191094875335693,-2.9368348757373255
1708436891.3965,-2.1630983352661133,-1.340733827357628,-2.527438227330343,6.1653950093086145,1.0190601348876953,-2.9368136564837855
1708436891.3986046,-2.1630947589874268,-1.3406927448562165,-2.52747089067568,6.165323245316305,1.0190601348876953,-2.9367569128619593
1708436891.4004831,-2.1630992889404297,-1.340710000400879,-2.527454439793722,6.165222990303793,1.0191268920898438,-2.936741654072897
1708436891.402492,-2.1630427837371826,-1.3406728965095063,-2.527405563985006,6.165176141052999,1.019085168838501,-2.9366892019854944
1708436891.4044936,-2.162994861602783,-1.3406577569297333,-2.527445618306295,6.165059554367819,1.0191013813018799,-2.936653439198629
1708436891.4064844,-2.162964344024658,-1.3406584870866318,-2.527491633092062,6.164935219078817,1.019057035446167,-2.936596457158224
1708436891.4085183,-2.1629085540771484,-1.3406263005784531,-2.527487103139059,6.164870965271749,1.019085168838501,-2.9365771452533167
1708436891.4104824,-2.1628925800323486,-1.3406144094518204,-2.527450148259298,6.164746510773458,1.0191013813018799,-2.9365201632129114
1708436891.4124963,-2.1627981662750244,-1.3406188648990174,-2.5274620691882532,6.164643513947286,1.0190808773040771,-2.936481300984518
1708436891.414497,-2.1628313064575195,-1.3405621659806748,-2.5274620691882532,6.164540159493246,1.0190273523330688,-2.936439816151754
1708436891.4164982,-2.1628007888793945,-1.3405380708030243,-2.527445618306295,6.164444076805868,1.0191094875335693,-2.936388079320089
1708436891.418483,-2.1627731323242188,-1.3405543130687256,-2.527458969746725,6.164339291840353,1.0190763473510742,-2.9363530317889612
1708436891.4204988,-2.162713050842285,-1.3404936355403443,-2.527458969746725,6.164167392044821,1.0191056728363037,-2.936329189931051
1708436891.4225008,-2.1626195907592773,-1.3404784512570878,-2.527466599141256,6.1640310166175745,1.0190318822860718,-2.936239782963888
1708436891.424689,-2.1625895500183105,-1.3404741448215027,-2.5274632612811487,6.163922893791952,1.0191419124603271,-2.9361677805529993
1708436891.426545,-2.1625454425811768,-1.3404543858817597,-2.5274022261248987,6.163834440499105,1.019085168838501,-2.9361494223224085
1708436891.4285254,-2.1625092029571533,-1.340458707218506,-2.527442757283346,6.163632499962606,1.0191094875335693,-2.9360678831683558
1708436891.4304986,-2.1624367237091064,-1.3404348951629181,-2.52747089067568,6.163422930031576,1.0190646648406982,-2.9360206762896937
1708436891.4324896,-2.1623520851135254,-1.3403741729310532,-2.5274515787707728,6.1632999060447595,1.019085168838501,-2.935944143925802
1708436891.4344676,-2.1623213291168213,-1.3403947961381455,-2.527475420628683,6.163128006249227,1.0190937519073486,-2.9358437697040003
1708436891.4364755,-2.1622443199157715,-1.3403828752091904,-2.527520481740133,6.163013922959127,1.019068956375122,-2.935821835194723
1708436891.4384813,-2.162196636199951,-1.3403349232724686,-2.527438227330343,6.162820803910055,1.0190558433532715,-2.9357007185565394
1708436891.4404802,-2.1621694564819336,-1.3403067600778122,-2.527458969746725,6.162657248764791,1.0191140174865723,-2.935607973729269
1708436891.4424696,-2.162071943283081,-1.3403034967235108,-2.527478281651632,6.16246126869277,1.019118309020996,-2.93555719057192
1708436891.4444916,-2.162039279937744,-1.340307892566063,-2.527478281651632,6.1622410891349695,1.0190353393554688,-2.9354689756976526
1708436891.4464672,-2.161937713623047,-1.3402674955180665,-2.52744704881777,6.162043678551473,1.0190646648406982,-2.9353392759906214
1708436891.4485087,-2.16191029548645,-1.3402358305505295,-2.5274632612811487,6.161872851639547,1.019085168838501,-2.9352641741382044
1708436891.4504771,-2.161807060241699,-1.3401905757239838,-2.527491633092062,6.161685573845663,1.0191094875335693,-2.9351771513568323
1708436891.4524968,-2.161698341369629,-1.340228260760643,-2.527458969746725,6.1615562317665,1.0190646648406982,-2.9350512663470667
1708436891.4544752,-2.1616382598876953,-1.340167523627617,-2.527475420628683,6.161305177002706,1.0190613269805908,-2.934948269520895
1708436891.4564905,-2.1615676879882812,-1.3401390475085755,-2.527466599141256,6.161161052971639,1.0190937519073486,-2.934864107762472
1708436891.4584782,-2.161499500274658,-1.3401687306216736,-2.527487103139059,6.160875546723165,1.0190894603729248,-2.934728209172384
1708436891.460489,-2.161383867263794,-1.3400881898454209,-2.527466599141256,6.160646307259359,1.0190808773040771,-2.9345901648150843
1708436891.462485,-2.1612868309020996,-1.3400153529695054,-2.527450148259298,6.160414325981893,1.019073247909546,-2.9344924131976526
1708436891.4646156,-2.1611745357513428,-1.3400074553540726,-2.527482811604635,6.16019235828475,1.019068956375122,-2.9343839327441614
1708436891.4664757,-2.1610827445983887,-1.3400088858655472,-2.5274797121631067,6.159988391190328,1.0190657377243042,-2.9342806974994105
1708436891.4684758,-2.1609997749328613,-1.3399110448411484,-2.5274632612811487,6.159769642144003,1.0190447568893433,-2.934104029332296
1708436891.4704738,-2.160907506942749,-1.3399490279010315,-2.527466599141256,6.159492838173666,1.0191025733947754,-2.933958355580465
1708436891.4724977,-2.1607797145843506,-1.3398956221393128,-2.5274961630450647,6.159326422005453,1.0190613269805908,-2.933891836796896
1708436891.4744756,-2.1607258319854736,-1.3398934465697785,-2.5274632612811487,6.159058201103964,1.0190361738204956,-2.933723751698629
1708436891.476486,-2.160588502883911,-1.339831755762436,-2.527478281651632,6.158818709641256,1.0190657377243042,-2.9335668722735804
1708436891.478487,-2.160475969314575,-1.3398534816554566,-2.52751595178713,6.158484923630514,1.0190937519073486,-2.9334033171283167
1708436891.4805043,-2.160323143005371,-1.3397600513747712,-2.527454439793722,6.1582257626350305,1.019007682800293,-2.9332218805896204
1708436891.482479,-2.1602604389190674,-1.3397696924260636,-2.527422014866964,6.157926547318258,1.0190491676330566,-2.9331167379962366
1708436891.484486,-2.160170316696167,-1.339630739097931,-2.527504030858175,6.15765808799819,1.0190534591674805,-2.9329143206225794
1708436891.4864943,-2.1600210666656494,-1.3396697652390976,-2.5274084250079554,6.157386886864462,1.0190372467041016,-2.9327922503100794
1708436891.4884772,-2.1599502563476562,-1.3396413785270234,-2.527458969746725,6.1569851515586755,1.0190657377243042,-2.9325905481921595
1708436891.4904723,-2.159794330596924,-1.3396630150130768,-2.5274797121631067,6.1567715285118005,1.0190744400024414,-2.9324310461627405
1708436891.4924932,-2.159707546234131,-1.3395655763200303,-2.527491633092062,6.156488525658407,1.019070029258728,-2.932218376790182
1708436891.4944754,-2.1595704555511475,-1.339537189607956,-2.5274086634265345,6.156205403595724,1.0190372467041016,-2.932002846394674
1708436891.4965003,-2.159446954727173,-1.3395053458264847,-2.527421776448385,6.1558406231696985,1.0190447568893433,-2.931859556828634
1708436891.498488,-2.1594009399414062,-1.3394534301808854,-2.527491633092062,6.1555824158485315,1.0190293788909912,-2.931570355092184
1708436891.5004883,-2.1592154502868652,-1.3394097250751038,-2.527438227330343,6.15523241737441,1.0190088748931885,-2.931333605443136
1708436891.5024848,-2.1591286659240723,-1.3393694025329133,-2.5274677912341517,6.154929625778951,1.019004464149475,-2.9311707655536097
1708436891.5044725,-2.1589770317077637,-1.339369462137558,-2.527438227330343,6.154634225159445,1.018992304801941,-2.930823866521017
1708436891.5064704,-2.1588902473449707,-1.3393228960088273,-2.527442757283346,6.1542913792426965,1.0190088748931885,-2.9306379000293177
1708436891.5085192,-2.1587092876434326,-1.3392695647529145,-2.527426306401388,6.153949487000265,1.0189965963363647,-2.9303484598742884
1708436891.5105119,-2.158573627471924,-1.3392630529454728,-2.52747089067568,6.1536399004753015,1.0189685821533203,-2.9301777521716517
1708436891.5125082,-2.1584548950195312,-1.3391858798316498,-2.52747089067568,6.153238880425253,1.0190175771713257,-2.9298725763904017
1708436891.5144708,-2.1583099365234375,-1.3391750317863007,-2.527487103139059,6.152985083847799,1.019004464149475,-2.9295926729785364
1708436891.5164897,-2.158146858215332,-1.3391478967717667,-2.527487341557638,6.1526211378868005,1.0189803838729858,-2.9294069449054163
1708436891.5184987,-2.1580309867858887,-1.339075119500496,-2.527482811604635,6.152266132622518,1.0189965963363647,-2.9290643374072474
1708436891.5205045,-2.1578428745269775,-1.3390109252980729,-2.527466599141256,6.151917564659872,1.0190095901489258,-2.9287567774402063
1708436891.5225472,-2.1577086448669434,-1.3390693080476304,-2.5274294058429163,6.151541936188497,1.0189728736877441,-2.9284804503070276
1708436891.5245209,-2.157554864883423,-1.338971586232521,-2.527454439793722,6.151190745621481,1.018965244293213,-2.9281726519214075
1708436891.526466,-2.1574337482452393,-1.3389120709947129,-2.5274174849139612,6.150855886727133,1.018977165222168,-2.927790705357687
1708436891.5284908,-2.1573002338409424,-1.3388435703567048,-2.527487341557638,6.150427567749777,1.0189814567565918,-2.927450720463888
1708436891.5304704,-2.157170295715332,-1.3388327074101944,-2.527487103139059,6.1500964043434045,1.0189697742462158,-2.927147452031271
1708436891.532479,-2.156952381134033,-1.3387642216733475,-2.527426306401388,6.149733412056722,1.018908143043518,-2.9267588297473353
1708436891.5344837,-2.156825304031372,-1.3387357306531449,-2.52747089067568,6.149322259217062,1.018912434577942,-2.9264639059649866
1708436891.5364728,-2.1566874980926514,-1.3386935007623215,-2.527475420628683,6.1489834664161584,1.0189290046691895,-2.9260790983783167
1708436891.5384905,-2.156526803970337,-1.33861197650943,-2.527475420628683,6.148591267853536,1.0189006328582764,-2.9257357756244105
1708436891.5404994,-2.1563501358032227,-1.3385521185449143,-2.527466599141256,6.1481796381767175,1.0189247131347656,-2.925363365803854
1708436891.5424995,-2.1561954021453857,-1.3385694932988663,-2.527442757283346,6.147819864540853,1.018912434577942,-2.9249466101275843
1708436891.5445414,-2.1560118198394775,-1.3384813529304047,-2.5274351278888147,6.147379982262411,1.0189658403396606,-2.924525562916891
1708436891.5464766,-2.1558761596679688,-1.3384172332337876,-2.5274797121631067,6.1469271061714075,1.0189038515090942,-2.924171272908346
1708436891.548502,-2.15574049949646,-1.338393823509552,-2.527475420628683,6.146496283798971,1.0188844203948975,-2.9237549940692347
1708436891.5504777,-2.1555376052856445,-1.3383782666972657,-2.527450148259298,6.1461291191871545,1.018912434577942,-2.923392359410421
1708436891.5524995,-2.155327320098877,-1.3383260381272812,-2.52747089067568,6.14568721035079,1.0189290046691895,-2.9228931109057825
1708436891.5544798,-2.1552131175994873,-1.3382578653148194,-2.527482811604635,6.145287143975057,1.0189614295959473,-2.9225226084338587
1708436891.5564785,-2.1550631523132324,-1.3381654483130951,-2.5275114218341272,6.144900548249044,1.0189409255981445,-2.9220786730395716
1708436891.55849,-2.154874086380005,-1.3381870847991486,-2.527512852345602,6.144427764206686,1.018912434577942,-2.9216256777392786
1708436891.560493,-2.154686212539673,-1.3381554049304505,-2.5274575392352503,6.144044029503622,1.0189366340637207,-2.921173159276144
1708436891.5625281,-2.1545188426971436,-1.3380662959865113,-2.5275026003467005,6.143629419594564,1.0189409255981445,-2.9207022825824183
1708436891.5644827,-2.1543266773223877,-1.3380793047002335,-2.5274909178363245,6.143138158112325,1.0189366340637207,-2.920241419469015
1708436891.5664742,-2.154123544692993,-1.3379300248673935,-2.5275071302997034,6.142702328949728,1.0189902782440186,-2.9197209517108362
1708436891.568496,-2.1539573669433594,-1.3379803162864228,-2.5275147596942347,6.1422308562095544,1.0189366340637207,-2.9191835562335413
1708436891.5704744,-2.1537814140319824,-1.3379281026175995,-2.527587954198019,6.141808020859518,1.0189483165740967,-2.918682638798849
1708436891.5724845,-2.1535415649414062,-1.3378912073424836,-2.527529541646139,6.141379940300741,1.0189814567565918,-2.918138090764181
1708436891.5744972,-2.1533901691436768,-1.3378520917943497,-2.527611796055929,6.141071069031515,1.0189728736877441,-2.917622152959005
1708436891.576517,-2.153170585632324,-1.3377234500697632,-2.527583662663595,6.140623318939962,1.018977165222168,-2.9171224276172083
1708436891.5784748,-2.152937173843384,-1.337753103380539,-2.5275748411761683,6.140159117966451,1.0190095901489258,-2.9165542761432093
1708436891.5804799,-2.152780055999756,-1.3376847070506592,-2.5276103655444544,6.139674174576559,1.0190010070800781,-2.916013542805807
1708436891.5824904,-2.152535915374756,-1.337648944263794,-2.5276432673083704,6.139288651734152,1.018992304801941,-2.9155026117907923
1708436891.584492,-2.1523525714874268,-1.3375769567540665,-2.5276718775378626,6.138726222306051,1.0190293788909912,-2.9148924986468714
1708436891.5864978,-2.1521499156951904,-1.3375576448491593,-2.5277283827411097,6.138296353607931,1.019020676612854,-2.9143851439105433
1708436891.588482,-2.151925802230835,-1.3374727827361603,-2.5277062098132532,6.1378211853797815,1.0190329551696777,-2.9136956373797815
1708436891.5904696,-2.1516518592834473,-1.3374371391585846,-2.5277603308307093,6.137382018357076,1.0190404653549194,-2.9131200949298304
1708436891.5924816,-2.15151047706604,-1.3373814535192032,-2.5277395884143274,6.136874902039327,1.0190808773040771,-2.912543837224142
1708436891.5944843,-2.151245355606079,-1.3373380464366456,-2.527782980595724,6.1364643452461145,1.0191140174865723,-2.9119237104998987
1708436891.5965247,-2.151026487350464,-1.3372816902450104,-2.52781588235964,6.135964500695028,1.0191704034805298,-2.911299530659811
1708436891.5984976,-2.150810956954956,-1.3373266619494935,-2.527856175099508,6.135546195297994,1.019149899482727,-2.910616938267843
1708436891.6004994,-2.150578737258911,-1.3372348260930558,-2.5278266111956995,6.135062444000997,1.019153118133545,-2.909994427357809
1708436891.602522,-2.1503732204437256,-1.3371865910342713,-2.5278998056994837,6.13463984706954,1.019181489944458,-2.9092965761767786
1708436891.6044917,-2.1501379013061523,-1.3371301305345078,-2.5278895537005823,6.134127962380209,1.0192174911499023,-2.9086487928973597
1708436891.6064897,-2.1499054431915283,-1.3370904487422486,-2.5279386679278772,6.133656251221456,1.019274353981018,-2.9079328219043177
1708436891.6084888,-2.1496682167053223,-1.3370586794665833,-2.5279837290393274,6.133153545647421,1.0192818641662598,-2.907297436391012
1708436891.6104937,-2.1493735313415527,-1.3369940680316468,-2.5280571619616907,6.132628071099081,1.0192973613739014,-2.9066057840930384
1708436891.6124823,-2.1491682529449463,-1.336986930375435,-2.5280306974994105,6.132133829384603,1.019309163093567,-2.9058433214770716
1708436891.6144898,-2.148843288421631,-1.3369953793338318,-2.5280795733081263,6.131715762406149,1.0193334817886353,-2.9051883856402796
1708436891.6165335,-2.1486001014709473,-1.336984322672226,-2.5280783812152308,6.131166445999899,1.0194228887557983,-2.904519859944479
1708436891.6184685,-2.1484227180480957,-1.3369151663831254,-2.528135363255636,6.13069103935317,1.01946222782135,-2.9037967363940638
1708436891.6204896,-2.1481223106384277,-1.336899758582451,-2.5281878153430384,6.130253660469808,1.0195189714431763,-2.9030678907977503
1708436891.6225133,-2.1478092670440674,-1.3368064922145386,-2.5282443205462855,6.129695045738973,1.0195635557174683,-2.9022904078113
1708436891.6245453,-2.147587776184082,-1.3368192327073594,-2.528247658406393,6.129150974541464,1.0195577144622803,-2.901583496724264
1708436891.626566,-2.1472549438476562,-1.3367754381946106,-2.5282629171954554,6.128586876183309,1.019699215888977,-2.900797430668966
1708436891.6285193,-2.1469597816467285,-1.3367350113442917,-2.528310839329855,6.128109800606527,1.0197521448135376,-2.9000209013568323
1708436891.6305363,-2.146656036376953,-1.3367428344539185,-2.528384033833639,6.127544748574056,1.0197627544403076,-2.8992629686938685
1708436891.6325033,-2.1463522911071777,-1.3367194098285218,-2.5284157435046595,6.127079236298361,1.0198559761047363,-2.898433510457174
1708436891.6344743,-2.1460704803466797,-1.3366874021342774,-2.52840239206423,6.126547443657675,1.0199124813079834,-2.8976572195636194
1708436891.6364937,-2.1457622051239014,-1.3366916638663788,-2.528475586568014,6.125969517021932,1.0199717283248901,-2.8968616167651575
1708436891.6384807,-2.1455254554748535,-1.3366798025420685,-2.5285354296313685,6.125352728157797,1.0200730562210083,-2.8960254828082483
1708436891.6404808,-2.1452221870422363,-1.3366145354560395,-2.528562847767965,6.124766933708944,1.0201091766357422,-2.8951531092273157
1708436891.6425061,-2.144805669784546,-1.3366759580424805,-2.5286148230182093,6.124217140465536,1.0201847553253174,-2.894315544758932
1708436891.6444895,-2.144453287124634,-1.3366725456765671,-2.528719965611593,6.123629915505209,1.0202808380126953,-2.8934765497790735
1708436891.6465032,-2.1441397666931152,-1.3366725456765671,-2.5287590662585657,6.123021709709921,1.0203617811203003,-2.892616097127096
1708436891.6484895,-2.1437723636627197,-1.3366683435491105,-2.528848473225729,6.122376191407003,1.0204163789749146,-2.8917623201953333
1708436891.650496,-2.143472671508789,-1.3366683286479493,-2.5288670698748987,6.121856081276693,1.0204929113388062,-2.8909876982318323
1708436891.6524918,-2.14313006401062,-1.3366768521121521,-2.52889854112734,6.121228444367208,1.02056086063385,-2.8900864760028284
1708436891.6544964,-2.142787218093872,-1.336692990069725,-2.529011313115255,6.1206315634544275,1.0206403732299805,-2.8892348448382776
1708436891.6564782,-2.1423580646514893,-1.3366479736617585,-2.5291040579425257,6.120015847473898,1.0207213163375854,-2.8883608023272913
1708436891.6584823,-2.141946315765381,-1.3366725605777283,-2.529147450123922,6.119313347130575,1.020837426185608,-2.8874781767474573
1708436891.6604896,-2.1415674686431885,-1.3367094856551667,-2.5292239824878138,6.118697511940756,1.0209991931915283,-2.8865607420550745
1708436891.6624787,-2.1411807537078857,-1.3366641116193314,-2.5293074289904993,6.118028151779928,1.0210579633712769,-2.8856692949878138
1708436891.6645315,-2.1408140659332275,-1.3367255938104172,-2.5293872992144983,6.11744378784255,1.0211870670318604,-2.884805981312887
1708436891.6664827,-2.1403727531433105,-1.3367085617831727,-2.52952486673464,6.116756307869711,1.021323561668396,-2.883874479924337
1708436891.668523,-2.1399784088134766,-1.3366675835898896,-2.529571835194723,6.116089689522543,1.0214526653289795,-2.882960383092062
1708436891.6704752,-2.1396615505218506,-1.3366924089244385,-2.529658619557516,6.115441071778097,1.0215641260147095,-2.8819919268237513
1708436891.6724875,-2.1391453742980957,-1.3366802495769043,-2.5297232309924524,6.114678370743551,1.0216426849365234,-2.8810797373401087
1708436891.6744866,-2.1387388706207275,-1.3367032271674653,-2.5298553148852747,6.114000427513876,1.0218404531478882,-2.88003117242922
1708436891.676486,-2.13826060295105,-1.3367236268571396,-2.5299599806415003,6.113217818527975,1.0219684839248657,-2.8790631929980677
1708436891.6784825,-2.1378653049468994,-1.3367928129485627,-2.530064884816305,6.112489568978109,1.0221540927886963,-2.878022019063131
1708436891.6804929,-2.137415885925293,-1.3368084889701386,-2.530177418385641,6.111739623337545,1.0222690105438232,-2.8770812193499964
1708436891.6824841,-2.1369309425354004,-1.3367872399142762,-2.530304733906881,6.111033308296957,1.022433876991272,-2.8760982195483606
1708436891.6844952,-2.136509418487549,-1.3368116182139893,-2.5303636232959192,6.110317456513204,1.0225414037704468,-2.87502366701235
1708436891.6864796,-2.1359939575195312,-1.3368149858764191,-2.530480448399679,6.109558093338766,1.0226986408233643,-2.874091450368063
1708436891.6884792,-2.135608434677124,-1.3368186813643952,-2.5305541197406214,6.108891474991598,1.022850751876831,-2.873023573552267
1708436891.690533,-2.135145902633667,-1.336883620624878,-2.530724827443258,6.10819028595046,1.023006796836853,-2.872067991887228
1708436891.6924694,-2.1346871852874756,-1.3369236153415223,-2.5308359305011194,6.107393967896261,1.0231391191482544,-2.871084753667013
1708436891.6945713,-2.1341917514801025,-1.3369151514819642,-2.5309768358813685,6.106633174210348,1.0233074426651,-2.870080296193258
1708436891.6964748,-2.133704900741577,-1.336934672003128,-2.5311206022845667,6.105879533081808,1.0235084295272827,-2.8690272013293665
1708436891.6985142,-2.1331429481506348,-1.3369792264750977,-2.531219784413473,6.105041610985555,1.0237007141113281,-2.8680039087878626
1708436891.7004747,-2.1326444149017334,-1.3370081645301362,-2.5314043203936976,6.1041616080100916,1.0239182710647583,-2.8669844309436243
1708436891.7024932,-2.132162570953369,-1.3370430630496521,-2.5315077940570276,6.103489506035604,1.0240826606750488,-2.8659542242633265
1708436891.7044768,-2.1316475868225098,-1.3370544475368042,-2.5316439310656946,6.102692949562826,1.0242300033569336,-2.8649354616748255
1708436891.7064726,-2.1310877799987793,-1.3370832961848755,-2.531808678303854,6.101900684624471,1.0244265794754028,-2.863835159932272
1708436891.7084947,-2.130507707595825,-1.33711592972789,-2.5319231192218226,6.101090657501974,1.0245620012283325,-2.862802569066183
1708436891.710472,-2.130075454711914,-1.337131218319275,-2.5321298281299036,6.100286233216085,1.0248202085494995,-2.861746851597921
1708436891.7124732,-2.1294758319854736,-1.3371592921069642,-2.532297674809591,6.0995415327842615,1.024979829788208,-2.860783640538351
1708436891.714483,-2.128913164138794,-1.3371908229640503,-2.532428566609518,6.098700153618612,1.0251556634902954,-2.859666172658102
1708436891.7164774,-2.1283068656921387,-1.3372022372535248,-2.5326126257525843,6.097829925804891,1.0254170894622803,-2.858642641698019
1708436891.7184732,-2.1277639865875244,-1.3372422021678467,-2.5327685515033167,6.096976744919576,1.0256081819534302,-2.857600752507345
1708436891.7204905,-2.12719988822937,-1.3372541230968018,-2.532924477254049,6.096135604172506,1.0258501768112183,-2.856628481541769
1708436891.722497,-2.1266024112701416,-1.3373020452312012,-2.5330522696124476,6.095345604210653,1.026017189025879,-2.85549241701235
1708436891.724499,-2.1260485649108887,-1.3373538714698334,-2.533220116292135,6.094522464066305,1.0263034105300903,-2.8544438521014612
1708436891.726491,-2.125441074371338,-1.3373616498759766,-2.5333879629718226,6.093631970673361,1.0264784097671509,-2.853473965321676
1708436891.7284887,-2.12481951713562,-1.337406114940979,-2.5336008707629603,6.0927700875099084,1.0266945362091064,-2.852398459111349
1708436891.730486,-2.124203681945801,-1.337409572010376,-2.533768955861227,6.091828691750326,1.0269931554794312,-2.851358715687887
1708436891.732506,-2.1235568523406982,-1.3375059527209778,-2.5339070002185267,6.090914952545919,1.027200698852539,-2.850236717854635
1708436891.7345114,-2.122927188873291,-1.3374969822219391,-2.534124199544088,6.090067732125082,1.0274982452392578,-2.849217955266134
1708436891.7364833,-2.1222383975982666,-1.3375853163054963,-2.534349028264181,6.089151727944174,1.0277056694030762,-2.8480828444110315
1708436891.7384927,-2.1215927600860596,-1.3376010221293946,-2.534553114567892,6.088179576187887,1.0279911756515503,-2.847057644520895
1708436891.7404737,-2.120983123779297,-1.337680922155716,-2.5347328821765345,6.087304818421163,1.0282552242279053,-2.845950428639547
1708436891.7424712,-2.1203572750091553,-1.3377008599093934,-2.5349252859698694,6.086352574616232,1.0284663438796997,-2.8448570410357874
1708436891.744484,-2.119662284851074,-1.3377247017673035,-2.535107676182882,6.085402476578512,1.0287814140319824,-2.8437164465533655
1708436891.7464814,-2.1189470291137695,-1.3378290695003052,-2.5353077093707483,6.084511983185568,1.0290477275848389,-2.8426457087146204
1708436891.748497,-2.118252754211426,-1.3378888231566926,-2.535515848790304,6.083441126137533,1.0292752981185913,-2.8415826002704065
1708436891.7504768,-2.117525577545166,-1.3379979592612763,-2.53573185602297,6.082392561226644,1.029579520225525,-2.8404722849475306
1708436891.752478,-2.116767168045044,-1.3379674863866349,-2.535985294972555,6.081363069802084,1.0298969745635986,-2.83940560022463
1708436891.7544837,-2.1161015033721924,-1.338064194922783,-2.536119047795431,6.080429184227743,1.0301367044448853,-2.8382235209094446
1708436891.7564843,-2.115387201309204,-1.33811608076606,-2.5363436380969446,6.07932065704421,1.030458688735962,-2.837182585393087
1708436891.7584825,-2.1147189140319824,-1.3381586533835907,-2.5365684668170374,6.078423487931051,1.0307183265686035,-2.8360746542560022
1708436891.7604823,-2.1139590740203857,-1.3382629317096253,-2.5368128458606165,6.077385294228353,1.0310108661651611,-2.834959332142965
1708436891.762473,-2.1132166385650635,-1.3384044033339997,-2.537009064351217,6.076360928803243,1.0313235521316528,-2.833820168172018
1708436891.764491,-2.1124260425567627,-1.338471696977951,-2.5372355620013636,6.075312006264486,1.031632661819458,-2.832639280949728
1708436891.7664793,-2.111658811569214,-1.3385673028281708,-2.537442986165182,6.074228036194601,1.0320061445236206,-2.831524435673849
1708436891.7684991,-2.110873222351074,-1.3386510473540802,-2.537720266972677,6.07315086105422,1.0323102474212646,-2.8304012457477015
1708436891.770481,-2.1101038455963135,-1.338677243595459,-2.537948195134298,6.0721106407936,1.0326510667800903,-2.829318348561422
1708436891.7724833,-2.109358072280884,-1.3387978088906785,-2.538204018269674,6.071060049324789,1.0329484939575195,-2.8282762209521692
1708436891.7745025,-2.1085479259490967,-1.3389182549766083,-2.538441006337301,6.069982635765829,1.0332436561584473,-2.8271639982806605
1708436891.7765036,-2.10776424407959,-1.3390303564122696,-2.5386019388781946,6.068958866387167,1.0335766077041626,-2.826099697743551
1708436891.7784889,-2.106977939605713,-1.3391173642924805,-2.5389464537249964,6.067883479386129,1.03388512134552,-2.8250487486468714
1708436891.7804935,-2.1061673164367676,-1.339184821849205,-2.539201323186056,6.066776382714071,1.0342884063720703,-2.8239570299731653
1708436891.7824826,-2.1053130626678467,-1.3392998588136216,-2.539392058049337,6.0657092211540125,1.0346354246139526,-2.822857681904928
1708436891.7845116,-2.104536533355713,-1.3394563061049958,-2.5396934191333216,6.064632165222921,1.035004734992981,-2.8217602411853235
1708436891.7864852,-2.103656768798828,-1.3395227503827591,-2.539912287388937,6.0635074255760095,1.0353496074676514,-2.8207178751574915
1708436891.7885377,-2.1028311252593994,-1.3396543574384232,-2.5401509443866175,6.062456118851461,1.035710334777832,-2.819572989140646
1708436891.790474,-2.101947784423828,-1.339823917751648,-2.540427271519796,6.061343180924215,1.0360220670700073,-2.818490807210104
1708436891.7924767,-2.1011404991149902,-1.3399076175740738,-2.54072076479067,6.060144889145651,1.0364028215408325,-2.8174310366259974
1708436891.794479,-2.10029673576355,-1.340039314036705,-2.5409558455096644,6.059052693634786,1.036789059638977,-2.8163281122790735
1708436891.7965002,-2.099423408508301,-1.340202347641327,-2.541243855153219,6.058005559235372,1.0371698141098022,-2.8151474634753626
1708436891.7984953,-2.098536491394043,-1.3402806383422394,-2.5415168444262903,6.056847798615255,1.0375183820724487,-2.814018789921896
1708436891.8004901,-2.097618579864502,-1.3404209327748795,-2.541759792958395,6.0556678650672815,1.0379151105880737,-2.812887493764059
1708436891.8024764,-2.0967319011688232,-1.3405728203109284,-2.542129103337423,6.05448745468215,1.0383031368255615,-2.811740223561422
1708436891.8044858,-2.0957398414611816,-1.3407280457070847,-2.5423596541034144,6.053262579232015,1.038684368133545,-2.810676161442892
1708436891.8064818,-2.0948972702026367,-1.3408883225968857,-2.542610470448629,6.052111613541403,1.0391020774841309,-2.8095062414752405
1708436891.8085248,-2.093987464904785,-1.3410152804902573,-2.5428949038134974,6.05094991901473,1.0394498109817505,-2.8084378878222864
1708436891.8105018,-2.0931272506713867,-1.3412078779986878,-2.543199602757589,6.049711572914877,1.039801836013794,-2.807356659566061
1708436891.8125103,-2.092176675796509,-1.341334806089737,-2.543466631566183,6.04849539974288,1.0401384830474854,-2.806309763585226
1708436891.8144774,-2.091282606124878,-1.3414325577071686,-2.543755833302633,6.047405111580648,1.0405230522155762,-2.805206362401144
1708436891.8164802,-2.090353012084961,-1.3416294616511841,-2.544039312993185,6.046239959984579,1.040945291519165,-2.8041556517230433
1708436891.8184788,-2.0894343852996826,-1.3418124330094834,-2.5443316141711634,6.045072185784139,1.0413179397583008,-2.8030641714679163
1708436891.8204763,-2.0885262489318848,-1.3419274699739,-2.5446224848376673,6.043850290566244,1.0417391061782837,-2.8018975893603724
1708436891.8225396,-2.0875277519226074,-1.3421870183995743,-2.5449510256396692,6.042574155121603,1.0421594381332397,-2.800877873097555
1708436891.8244963,-2.086512565612793,-1.3423634481481095,-2.545263115559713,6.041313636093893,1.042588233947754,-2.7997265497790735
1708436891.8265193,-2.085578680038452,-1.3425011795810242,-2.545583788548605,6.040071832924642,1.0430164337158203,-2.7986891905414026
1708436891.8284922,-2.0846424102783203,-1.34272953987632,-2.545882527028219,6.038827407151022,1.0434221029281616,-2.7977610270129603
1708436891.8304708,-2.083660364151001,-1.3429283511689682,-2.5462616125689905,6.037656056671896,1.0437804460525513,-2.796659533177511
1708436891.832507,-2.082693338394165,-1.34317700684581,-2.5464866797076624,6.0365203497703455,1.0441783666610718,-2.795648161564962
1708436891.8344934,-2.0817320346832275,-1.343343735938408,-2.5467997233020228,6.035334098130026,1.0446078777313232,-2.7946742216693323
1708436891.8365197,-2.080734968185425,-1.3436045956662674,-2.5471258799182337,6.0340895531471155,1.04500150680542,-2.7936978975879114
1708436891.8384945,-2.07973313331604,-1.3437860024026413,-2.5474746862994593,6.032909261971273,1.0454341173171997,-2.792614523564474
1708436891.8405037,-2.078718662261963,-1.344021038418152,-2.5478528181659144,6.031739461212911,1.0459083318710327,-2.791528288518087
1708436891.842532,-2.0777063369750977,-1.344252572660782,-2.5481465498553675,6.030477273255148,1.0463447570800781,-2.7905569712268274
1708436891.8445258,-2.076653003692627,-1.3445080679706116,-2.5484629313098353,6.029187786370077,1.0467360019683838,-2.7895897070514124
1708436891.8464813,-2.0755953788757324,-1.3447233599475403,-2.5488019625293177,6.027985203057089,1.047173261642456,-2.7885716597186487
1708436891.8484712,-2.0745849609375,-1.344954566364624,-2.5491555372821253,6.026774990349569,1.0475704669952393,-2.787558380757467
1708436891.8504739,-2.073537826538086,-1.345145047908165,-2.549483839665548,6.025508749275961,1.0479708909988403,-2.786544148121969
1708436891.852492,-2.0724687576293945,-1.3454419088414689,-2.5498228708850306,6.024253117829122,1.048383355140686,-2.7854984442340296
1708436891.8544679,-2.071367025375366,-1.3456721615842362,-2.5500977675067347,6.02296398857192,1.0488169193267822,-2.7844844500171106
1708436891.856475,-2.070301055908203,-1.3459437650493165,-2.5504916349994105,6.021652090340414,1.0491646528244019,-2.7834435145007532
1708436891.858467,-2.069155693054199,-1.346174271111824,-2.550800863896505,6.020326602249899,1.0496138334274292,-2.782361094151632
1708436891.860464,-2.0680668354034424,-1.3464255642941971,-2.5511918703662317,6.018986689835348,1.0501117706298828,-2.781327549611227
1708436891.862496,-2.0669450759887695,-1.3466795992902298,-2.55151874223818,6.0176628706748865,1.050585150718689,-2.7802913824664515
1708436891.8644695,-2.0657496452331543,-1.3469644647887726,-2.551887337361471,6.016349780350485,1.0510292053222656,-2.7792990843402308
1708436891.8664749,-2.0646612644195557,-1.3471625012210389,-2.552254025136129,6.015066373139181,1.0515220165252686,-2.7782371679889124
1708436891.8684793,-2.063589096069336,-1.347425476913788,-2.552591149006979,6.013765918999471,1.0519341230392456,-2.777285877858297
1708436891.8704932,-2.0624499320983887,-1.347724364405014,-2.552939001713888,6.012381541519918,1.0524160861968994,-2.7762466112719935
1708436891.872513,-2.061251401901245,-1.3480331611684342,-2.5533514658557337,6.011029708176412,1.0529210567474365,-2.775247875844137
1708436891.8744884,-2.0601048469543457,-1.3482744556716462,-2.5536654631244105,6.009592997818746,1.053463101387024,-2.77425724664797
1708436891.8765106,-2.0589253902435303,-1.3486668777516861,-2.554014031087057,6.008147942810812,1.053971290588379,-2.7731545607196253
1708436891.8784888,-2.0576484203338623,-1.3489657801440735,-2.5544350782977503,6.0067739365394495,1.0544350147247314,-2.772165838872091
1708436891.8804858,-2.0565240383148193,-1.3492147785476227,-2.554769817982809,6.005418526917257,1.0548802614212036,-2.7711122671710413
1708436891.8824918,-2.0553090572357178,-1.3495699775270005,-2.55512506166567,6.004054295807638,1.0553861856460571,-2.7700913588153284
1708436891.8844852,-2.054126262664795,-1.349922315483429,-2.5555132071124476,6.002660023957052,1.0558310747146606,-2.769050900136129
1708436891.8864822,-2.052880048751831,-1.3502332133105774,-2.555905882512228,6.001269328385153,1.056283712387085,-2.7680488268481653
1708436891.888507,-2.0515964031219482,-1.3506169778159638,-2.556342426930563,5.999822127610006,1.0567433834075928,-2.767074171696798
1708436891.8904824,-2.050265073776245,-1.3509950053742905,-2.5567098299609583,5.998380648880758,1.0572857856750488,-2.7660771051989954
1708436891.8925002,-2.0490078926086426,-1.3513939839652558,-2.557052199040548,5.996881353646078,1.0577589273452759,-2.765137497578756
1708436891.8944829,-2.047675609588623,-1.351769046192505,-2.5574517885791224,5.995439398079672,1.058211326599121,-2.7640751043902796
1708436891.8964953,-2.046422243118286,-1.3521549117616196,-2.557884756718771,5.994001376419821,1.0586519241333008,-2.7631388346301478
1708436891.8984916,-2.0450778007507324,-1.3525256526521225,-2.5582969824420374,5.992516743927755,1.0591249465942383,-2.7621501127826136
1708436891.9004972,-2.043774127960205,-1.3528921616128464,-2.5587006250964563,5.991123902588644,1.059643268585205,-2.761153523121969
1708436891.9024804,-2.0424771308898926,-1.3533072930625458,-2.559080187474386,5.98959897735671,1.0601110458374023,-2.7601566950427454
1708436891.9044857,-2.0410945415496826,-1.3536855590394516,-2.5595079104052942,5.988076078682699,1.0605835914611816,-2.759148422871725
1708436891.9064894,-2.0397262573242188,-1.3540390145829697,-2.5598960558520716,5.986463534622946,1.0610851049423218,-2.7581666151629847
1708436891.9084752,-2.0382962226867676,-1.3545345675996323,-2.5603113810168665,5.984835135727682,1.061537504196167,-2.7571609655963343
1708436891.9105046,-2.0369417667388916,-1.354966015820839,-2.5606992880450647,5.983240949898519,1.0621037483215332,-2.7561243216144007
1708436891.9124653,-2.0355348587036133,-1.3553836655667801,-2.5611968676196497,5.98168562629775,1.0626130104064941,-2.755094591771261
1708436891.9144707,-2.0341336727142334,-1.3558350217393418,-2.5615692774402063,5.980115878372946,1.0630524158477783,-2.754108254109518
1708436891.916494,-2.0327024459838867,-1.3562532228282471,-2.5619636217700403,5.978471743851461,1.0635485649108887,-2.7530298868762415
1708436891.9184654,-2.0313050746917725,-1.3566586089185257,-2.562392536793844,5.976897585182943,1.064128041267395,-2.751998249684469
1708436891.9204795,-2.0298755168914795,-1.3571257454207917,-2.5627928415881556,5.975347149163046,1.0646328926086426,-2.7509267965899866
1708436891.922506,-2.0284276008605957,-1.3575518888286133,-2.5632453600512903,5.973701584130087,1.0650362968444824,-2.7499271074878138
1708436891.9245214,-2.0270016193389893,-1.3580585432103653,-2.563702646886007,5.97206066825942,1.0655815601348877,-2.7488117853747767
1708436891.9265456,-2.0254294872283936,-1.358536810880043,-2.5640841166125696,5.970404970436849,1.066123604774475,-2.7478347460376185
1708436891.9285216,-2.023922920227051,-1.3590712708285828,-2.5645323435412806,5.968835103302755,1.0666768550872803,-2.746718708668844
1708436891.930474,-2.0223968029022217,-1.3595282596400757,-2.5650132338153284,5.967133271485128,1.0672334432601929,-2.7457736174212855
1708436891.9324734,-2.02091908454895,-1.3600286406329651,-2.565441433583395,5.965458738594808,1.0677129030227661,-2.744664732609884
1708436891.934491,-2.019373893737793,-1.3605507773211976,-2.565896813069479,5.96384476402358,1.0681766271591187,-2.7436838785754603
1708436891.936498,-2.017827033996582,-1.3610282850316544,-2.566308085118429,5.962216484337606,1.0687270164489746,-2.742634121571676
1708436891.9384797,-2.016226291656494,-1.361468569641449,-2.56681734720339,5.9605798600013635,1.0691529512405396,-2.7416062990771692
1708436891.940514,-2.0146756172180176,-1.361996979718544,-2.56722861925234,5.958905684738912,1.0696953535079956,-2.7406752745257776
1708436891.9424903,-2.0131022930145264,-1.3625690054944535,-2.5676406065570276,5.957217561989584,1.0701464414596558,-2.7395957151996058
1708436891.9444866,-2.011441469192505,-1.3631143134883423,-2.56809646288027,5.95553611496047,1.0706106424331665,-2.7385221163379114
1708436891.9464746,-2.009871006011963,-1.3635514688542862,-2.5684452692614954,5.953736054688253,1.07109534740448,-2.7375505606280726
1708436891.948486,-2.0082106590270996,-1.364110217695572,-2.568984333668844,5.951927292137899,1.0715476274490356,-2.7364895979510706
1708436891.9504733,-2.006558656692505,-1.3646731090596695,-2.5694075266467493,5.950184213906088,1.0721383094787598,-2.7354610602008265
1708436891.9524877,-2.0048933029174805,-1.3651822966388245,-2.5699382464038294,5.948404061585226,1.0726178884506226,-2.7345100084887903
1708436891.9544706,-2.003316879272461,-1.3657573473504563,-2.5703521410571497,5.946621882706442,1.0731345415115356,-2.733495299016134
1708436891.956504,-2.0017197132110596,-1.3662789028934021,-2.5707393328296106,5.944962131768026,1.0736058950424194,-2.7325525919543665
1708436891.9584913,-2.000112533569336,-1.3668329280665894,-2.571223322545187,5.943179833679952,1.074087142944336,-2.7315552870379847
1708436891.9604685,-1.9984571933746338,-1.3673919153264542,-2.5717044512378138,5.941412675171652,1.0744789838790894,-2.7305858770953577
1708436891.962489,-1.9968183040618896,-1.367974416618683,-2.572082821522848,5.939625608711996,1.0749799013137817,-2.729588333760397
1708436891.9644783,-1.9951425790786743,-1.3685361754945298,-2.5725553671466272,5.937881219177999,1.075479507446289,-2.7285805384265345
1708436891.9675016,-1.993424892425537,-1.3691444259933014,-2.5730109850512903,5.936034428864279,1.076043725013733,-2.7275734583484095
1708436891.9684696,-1.9917323589324951,-1.3697312486222764,-2.5734952131854456,5.934117066651144,1.0766141414642334,-2.726605478917257
1708436891.9704645,-1.9900157451629639,-1.3703619998744507,-2.57389742532839,5.932321178704061,1.0771291255950928,-2.725600306187765
1708436891.9724822,-1.9883146286010742,-1.3709077101996918,-2.574354950581686,5.930524098664083,1.077614188194275,-2.72450834909548
1708436891.974472,-1.9866206645965576,-1.3715258997729798,-2.57477313676943,5.92873631694869,1.0780370235443115,-2.7235494295703333
1708436891.97648,-1.9848793745040894,-1.372079537515976,-2.5752561728106897,5.926815616875448,1.0785064697265625,-2.722544018422262
1708436891.978489,-1.9831165075302124,-1.372706801896431,-2.5756338278399866,5.924968588143148,1.078925371170044,-2.7215448061572474
1708436891.9804955,-1.9813356399536133,-1.3733032804778595,-2.57607347169985,5.923029053002157,1.0794563293457031,-2.720473353062765
1708436891.982487,-1.9795228242874146,-1.3739936363748093,-2.5765214602099817,5.921078789025106,1.0799438953399658,-2.7194700876819056
1708436891.9845002,-1.9776692390441895,-1.3746038538268586,-2.5769971052752894,5.919148790627279,1.0803909301757812,-2.7184434572802942
1708436891.9864879,-1.9758979082107544,-1.3752712321332474,-2.5775020758258265,5.917247164040365,1.0809158086776733,-2.717387024556295
1708436891.9885318,-1.9741257429122925,-1.3759357941201706,-2.5779221693622034,5.915350544243612,1.0813112258911133,-2.71639854112734
1708436891.9905136,-1.972348928451538,-1.3765042436173935,-2.5783451239215296,5.9134288904960535,1.0817391872406006,-2.7153127829181116
1708436891.992505,-1.9704954624176025,-1.3771702510169526,-2.578836981450216,5.911502468376913,1.0821484327316284,-2.7143593470202845
1708436891.9945035,-1.9686808586120605,-1.3778541547111054,-2.5793376604663294,5.909680473595419,1.0826014280319214,-2.7133072058307093
1708436891.9964795,-1.9668679237365723,-1.378553957944252,-2.5798099676715296,5.907716142922201,1.0831235647201538,-2.7122727076159876
1708436891.9985142,-1.965003252029419,-1.3792212915471573,-2.5803149382220667,5.905814397125997,1.0835952758789062,-2.7112274805652063
1708436892.0004811,-1.963126301765442,-1.3798879247954865,-2.5807250181781214,5.903821575432577,1.0840630531311035,-2.7101500670062464
1708436892.002476,-1.9611998796463013,-1.380566121344902,-2.5811808745013636,5.901869046479025,1.0845566987991333,-2.709193531666891
1708436892.0044897,-1.95933997631073,-1.3811908823302765,-2.581660811101095,5.899909961014547,1.0849549770355225,-2.708144489918844
1708436892.0064766,-1.9574016332626343,-1.3819270592978974,-2.582071606312887,5.89789758899764,1.0854201316833496,-2.707007710133688
1708436892.0085154,-1.9554939270019531,-1.3825869274190445,-2.582571331654684,5.8959472058113,1.0858852863311768,-2.7060115973102015
1708436892.0104718,-1.9536244869232178,-1.3832495373538514,-2.5830722490893763,5.893947589188375,1.0863776206970215,-2.7050283590899866
1708436892.012466,-1.9516805410385132,-1.3839764308980484,-2.5835605303393763,5.8919386742408655,1.0868176221847534,-2.7040463129626673
1708436892.0144732,-1.949750542640686,-1.3846984666636963,-2.583994213734762,5.889879691391744,1.0872818231582642,-2.7030625979052942
1708436892.01649,-1.947730302810669,-1.385437936787941,-2.584461514149801,5.887837159424581,1.0877587795257568,-2.702005688344137
1708436892.0184863,-1.94577956199646,-1.3862122905305405,-2.5848711172686976,5.885740744858541,1.0882151126861572,-2.7010017077075403
1708436892.0205023,-1.943832278251648,-1.386894093160965,-2.5854044596301478,5.883620011597433,1.0886762142181396,-2.7000868956195276
1708436892.0225024,-1.941833734512329,-1.3876659584096451,-2.585851256047384,5.88160656669692,1.089066982269287,-2.6990862528430384
1708436892.0245006,-1.939846158027649,-1.3884049516967316,-2.586379353200094,5.87963222244338,1.0895246267318726,-2.698017660771505
1708436892.0264964,-1.9378656148910522,-1.3891599637321015,-2.5868094603167933,5.8775521395500085,1.0898467302322388,-2.697040621434347
1708436892.0285187,-1.9359112977981567,-1.389825166468956,-2.587269131337301,5.875539409905233,1.0902756452560425,-2.696064535771505
1708436892.0304728,-1.933866262435913,-1.3906906706145783,-2.5877812544452112,5.873506176262655,1.090712547302246,-2.6951337496386927
1708436892.0325124,-1.931888222694397,-1.3913868230632325,-2.5882235209094446,5.871466028481283,1.091185212135315,-2.6940787474261683
1708436892.0344832,-1.9298131465911865,-1.3922066402486344,-2.5886626879321497,5.869396436005392,1.091636300086975,-2.6930554548846644
1708436892.0364742,-1.9277839660644531,-1.3929644089988251,-2.589186493550436,5.86723946312026,1.0921006202697754,-2.692012135182516
1708436892.0385013,-1.925735592842102,-1.3937301349690934,-2.5896628538714808,5.865082728653707,1.0924720764160156,-2.691031519566671
1708436892.0405076,-1.923673391342163,-1.3945333075574418,-2.590158526097433,5.8630151627357385,1.0928839445114136,-2.689974371586935
1708436892.0424824,-1.921663522720337,-1.395311788921692,-2.590609614049093,5.860879051476278,1.0933042764663696,-2.688999954854147
1708436892.044515,-1.919592022895813,-1.3961314421943207,-2.5910757223712366,5.858776438027181,1.093753695487976,-2.6879523436175745
1708436892.0464933,-1.9175856113433838,-1.3968670231154938,-2.591553036366598,5.856705295830526,1.0941740274429321,-2.686934773121969
1708436892.0485265,-1.9155827760696411,-1.3976088923266907,-2.5920282045947474,5.85459445694045,1.0945173501968384,-2.6860042254077356
1708436892.0505025,-1.9135890007019043,-1.3984452945045014,-2.5924533049212855,5.852436053543844,1.0949095487594604,-2.6849845091449183
1708436892.0524848,-1.9115538597106934,-1.3992240142873307,-2.5929327646838587,5.850453126221456,1.0953468084335327,-2.6839850584613245
1708436892.054496,-1.9095793962478638,-1.4000535619309922,-2.5934417883502405,5.848336803704061,1.0957472324371338,-2.6830273310290735
1708436892.0564766,-1.907531499862671,-1.4008678209832688,-2.593867365513937,5.846234428673544,1.096152424812317,-2.682060782109396
1708436892.058515,-1.9054975509643555,-1.4017330569079895,-2.594350878392355,5.844134437828817,1.0965684652328491,-2.681143585835592
1708436892.060514,-1.9034713506698608,-1.4024898719838639,-2.594847027455465,5.84216188171462,1.0969398021697998,-2.6801884810077112
1708436892.0624933,-1.901448369026184,-1.4032960844090958,-2.595327679310934,5.84011327007369,1.0973761081695557,-2.679221216832296
1708436892.0644753,-1.8994332551956177,-1.4040422302535553,-2.59575325647463,5.838150369911947,1.0977314710617065,-2.6782315413104456
1708436892.0664656,-1.8973535299301147,-1.404905380015709,-2.596229616795675,5.836081731110372,1.0981618165969849,-2.6773114840136927
1708436892.068506,-1.8952735662460327,-1.4056869757226487,-2.59663969675173,5.834061014443197,1.0985502004623413,-2.676250998173849
1708436892.0704887,-1.893149971961975,-1.4065010410598298,-2.59712797800173,5.832005965500631,1.098950982093811,-2.6752994696246546
1708436892.072468,-1.8910773992538452,-1.4074179989150544,-2.59754187265505,5.829877841263571,1.0993555784225464,-2.6743698755847376
1708436892.0745049,-1.8888766765594482,-1.4081823837808152,-2.5980497042285364,5.827744114189901,1.0997965335845947,-2.6733816305743616
1708436892.0764613,-1.8868422508239746,-1.409045086508133,-2.5985170046435755,5.825663554459371,1.1001958847045898,-2.6725404898272913
1708436892.078475,-1.884764313697815,-1.409904958014824,-2.598992888127462,5.823589074402609,1.1005957126617432,-2.671701733266012
1708436892.0804832,-1.8827179670333862,-1.4107687336257477,-2.5993948618518274,5.821459996491232,1.1009770631790161,-2.6707573572741907
1708436892.0824962,-1.8805962800979614,-1.4115095448544999,-2.5998500029193323,5.819416391640463,1.1013286113739014,-2.669885222111837
1708436892.0844853,-1.8785866498947144,-1.4123052519610901,-2.6003828684436243,5.817414152413168,1.1016528606414795,-2.6689472834216517
1708436892.0865114,-1.8765138387680054,-1.4131639313748856,-2.6008458773242396,5.81535433509902,1.1020411252975464,-2.668083969746725
1708436892.0884867,-1.8744083642959595,-1.4139822882464905,-2.6013413111316126,5.813329803734579,1.1023812294006348,-2.667208973561422
1708436892.0904965,-1.8722782135009766,-1.414835737352707,-2.6018040815936487,5.8113112328346155,1.102793574333191,-2.6662498156176966
1708436892.0924928,-1.8701772689819336,-1.4157479864409943,-2.602295462285177,5.809213149338522,1.1031136512756348,-2.665438238774435
1708436892.0944707,-1.8680473566055298,-1.4165667009404679,-2.602759663258688,5.807132828026571,1.1034536361694336,-2.6645572821246546
1708436892.0965064,-1.8659749031066895,-1.417424203162529,-2.6032336393939417,5.805175769120016,1.1038388013839722,-2.6636818091021937
1708436892.098479,-1.8638527393341064,-1.4183032524636765,-2.6037140528308313,5.803111898690023,1.1042190790176392,-2.6628595034228724
1708436892.1004946,-1.8617174625396729,-1.41910873473201,-2.604271475468771,5.801177131920614,1.104599952697754,-2.6619487444507044
1708436892.1025121,-1.8595950603485107,-1.4199837458184739,-2.604696814213888,5.79906581619338,1.1049436330795288,-2.6611302534686487
1708436892.1044908,-1.857517123222351,-1.4208542716554184,-2.6051555315600794,5.796977865486898,1.1052919626235962,-2.6602144877063196
1708436892.1064963,-1.8553563356399536,-1.4217208486846467,-2.6056554953204554,5.795001613884725,1.105631947517395,-2.6593790690051478
1708436892.1085248,-1.8532124757766724,-1.4225898397019883,-2.6061554590808313,5.7929104445274255,1.1060945987701416,-2.6584468523608606
1708436892.1104822,-1.8511096239089966,-1.4234935504249115,-2.606593195592062,5.790846693306722,1.1064255237579346,-2.6576622168170374
1708436892.1125057,-1.8490320444107056,-1.42437198877845,-2.6071129480945032,5.788810241013326,1.1068304777145386,-2.656804625188009
1708436892.114491,-1.8469455242156982,-1.4252010893872757,-2.6076446215258997,5.786747920304098,1.107206106185913,-2.655870024357931
1708436892.1164887,-1.8448296785354614,-1.4260851454785843,-2.6080833117114466,5.784809696465292,1.107602596282959,-2.6551078001605433
1708436892.1185458,-1.8427499532699585,-1.4269964408925553,-2.608628575001852,5.782851445465841,1.1079180240631104,-2.6542864481555384
1708436892.1205173,-1.840611457824707,-1.4278693211129685,-2.6090779940234583,5.780839669495382,1.1083474159240723,-2.6534653345691126
1708436892.1225011,-1.8385173082351685,-1.428817794924118,-2.6096232573138636,5.778997289925375,1.108756422996521,-2.6526172796832483
1708436892.1245272,-1.836342215538025,-1.4297480595162888,-2.610097948704855,5.777025806694784,1.1091125011444092,-2.6518166700946253
1708436892.1265862,-1.8341957330703735,-1.4306625139764328,-2.6106253306018274,5.775004374771871,1.1095372438430786,-2.650959555302755
1708436892.1285396,-1.8320198059082031,-1.4315598172000428,-2.6111062208758753,5.773004042893209,1.1099618673324585,-2.6501546541797083
1708436892.130517,-1.8298133611679077,-1.4324974429658432,-2.6116750876056116,5.771063434868612,1.1103529930114746,-2.649346415196554
1708436892.1325026,-1.8276896476745605,-1.4334414464286347,-2.61216646829714,5.769024359970846,1.1107250452041626,-2.648562256489889
1708436892.1345167,-1.8255717754364014,-1.4342978161624451,-2.6127267519580286,5.767081248551168,1.1110317707061768,-2.647780958806173
1708436892.136548,-1.8234755992889404,-1.4351842564395447,-2.6132176558123987,5.765101539879598,1.1113685369491577,-2.6469767729388636
1708436892.1384907,-1.8212957382202148,-1.4361888480237504,-2.613676134740011,5.763161885529318,1.1116806268692017,-2.6462281386004847
1708436892.1405091,-1.8191382884979248,-1.437131868009903,-2.61419922510256,5.761155354767599,1.1120868921279907,-2.645464007054464
1708436892.1425335,-1.8170042037963867,-1.4380614471486588,-2.6148112455951136,5.759163725167074,1.1124908924102783,-2.644669834767477
1708436892.144475,-1.8148119449615479,-1.4390534472516556,-2.6154120604144495,5.75719033458785,1.1129724979400635,-2.6438782850848597
1708436892.1464896,-1.8126485347747803,-1.4399828773787995,-2.615924898778097,5.755309450417318,1.1134439706802368,-2.6430681387530726
1708436892.1484807,-1.8105312585830688,-1.4409541350654145,-2.6165173689471644,5.753287064820089,1.113949179649353,-2.642418448125021
1708436892.150467,-1.808337926864624,-1.44186124325309,-2.617046896611349,5.751393067627706,1.1142604351043701,-2.64172608057131
1708436892.152481,-1.8062806129455566,-1.4427007597735901,-2.6175580660449427,5.749485480576315,1.1146284341812134,-2.6409691015826624
1708436892.1544755,-1.8041412830352783,-1.4436910164407273,-2.618167225514547,5.747649299889364,1.1149039268493652,-2.640299383793966
1708436892.1564796,-1.8019357919692993,-1.444654331808426,-2.618697706853048,5.7456750748451135,1.1153616905212402,-2.6395862738238733
1708436892.1584835,-1.799721360206604,-1.4455719006112595,-2.6192734877215784,5.743861901551046,1.1159000396728516,-2.638926092778341
1708436892.160475,-1.7974621057510376,-1.446653590803482,-2.6199069658862513,5.741929995804586,1.1164194345474243,-2.638291899357931
1708436892.162493,-1.7952616214752197,-1.4476265248707314,-2.620474878941671,5.740043628006735,1.1170334815979004,-2.6376028696643274
1708436892.1644678,-1.793025255203247,-1.4486135479858895,-2.621077839528219,5.738164889603414,1.1174763441085815,-2.63688832918276
1708436892.1664698,-1.7908565998077393,-1.4495919880322,-2.621657435094015,5.7362712500389,1.1178759336471558,-2.636252228413717
1708436892.1684892,-1.7886619567871094,-1.4505432483604928,-2.6222031752215784,5.734410154610433,1.1182726621627808,-2.635575596486227
1708436892.1704915,-1.7865020036697388,-1.4514629182270546,-2.622763220463888,5.732546436577596,1.1186611652374268,-2.6349387804614466
1708436892.1724834,-1.784391164779663,-1.4524105873754998,-2.623389784489767,5.730677711754598,1.1191579103469849,-2.6343489328967493
1708436892.1744857,-1.7822322845458984,-1.45339951038871,-2.623944107686178,5.728883969574728,1.119590163230896,-2.6336615721331995
1708436892.1765,-1.780129313468933,-1.4543487963131447,-2.6245713869677942,5.727076756745138,1.1200752258300781,-2.6329968611346644
1708436892.178475,-1.777989387512207,-1.4553147715381165,-2.625145498906271,5.725276100426473,1.120453953742981,-2.6324709097491663
1708436892.1804771,-1.7758466005325317,-1.4563091409257432,-2.625810209904806,5.723463284760275,1.1209059953689575,-2.6318469683276575
1708436892.1824732,-1.7736711502075195,-1.4573335734060784,-2.6264036337481897,5.721619355469503,1.1214276552200317,-2.6312368551837366
1708436892.1844907,-1.7715301513671875,-1.4583291348866005,-2.627105776463644,5.719861018448629,1.1219544410705566,-2.630608860646383
1708436892.1864882,-1.7693345546722412,-1.4592833903482934,-2.6276827494250696,5.718108284264364,1.122446060180664,-2.630008045827047
1708436892.1884851,-1.767202615737915,-1.4602628287724038,-2.628317896519796,5.716403353005209,1.1229299306869507,-2.629439894353048
1708436892.1904798,-1.7650516033172607,-1.46124982953582,-2.628986422215597,5.714688885002889,1.1234630346298218,-2.628831450139181
1708436892.1924725,-1.762916088104248,-1.4621998977712174,-2.6296520868884485,5.712980258255758,1.123897910118103,-2.6282251516925257
1708436892.1944852,-1.76072096824646,-1.463248112504818,-2.63027531305422,5.711329746037283,1.1243870258331299,-2.627702776585714
1708436892.196505,-1.7585731744766235,-1.464233585899212,-2.63090163866152,5.709581959038534,1.1248586177825928,-2.627129618321554
1708436892.1984842,-1.7563978433609009,-1.4651622411659737,-2.631627623234884,5.7078478811080835,1.1253957748413086,-2.626666847859518
1708436892.2005136,-1.754250407218933,-1.4661729645780106,-2.632261101399557,5.706064808159628,1.1259779930114746,-2.6260984579669397
1708436892.20248,-1.752043604850769,-1.467253917162754,-2.632944170628683,5.704324412136831,1.1265052556991577,-2.625550095235006
1708436892.2044828,-1.7499778270721436,-1.4682561171105881,-2.6335814634906214,5.7026216862495325,1.1270294189453125,-2.625000778828756
1708436892.2065141,-1.7478433847427368,-1.4692673620632668,-2.6343310515033167,5.700870919018545,1.127575159072876,-2.624476496373312
1708436892.208493,-1.7457268238067627,-1.4702333745411416,-2.6349812189685267,5.699233996659078,1.1280503273010254,-2.623951021824972
1708436892.2104986,-1.7435803413391113,-1.4711503621986886,-2.6356077829944056,5.697618591576376,1.1286348104476929,-2.623538080845968
1708436892.2124674,-1.7414072751998901,-1.4722656917623063,-2.6363356749164026,5.695883798390188,1.129184365272522,-2.6230247656451624
1708436892.2144742,-1.7392281293869019,-1.473274589782097,-2.6370230356799524,5.694165575295248,1.1298136711120605,-2.62258488336672
1708436892.216496,-1.7369972467422485,-1.4742980983904381,-2.6376975218402308,5.692430186062612,1.1303852796554565,-2.6221521536456507
1708436892.2184913,-1.7347922325134277,-1.4752830576947709,-2.6384084860431116,5.690785395890035,1.1310354471206665,-2.621697489415304
1708436892.220503,-1.732611060142517,-1.4763143074563523,-2.6391051451312464,5.689214038639822,1.1316394805908203,-2.621227804814474
1708436892.222514,-1.7304743528366089,-1.477385738199093,-2.6397832075702112,5.687586951046743,1.1322636604309082,-2.6208553949939173
1708436892.2244964,-1.7283203601837158,-1.4784089785865326,-2.640526358281271,5.685985314636984,1.132856845855713,-2.6204081217395228
1708436892.2265387,-1.7261334657669067,-1.4794309449246903,-2.641184393559591,5.684458064823904,1.1334930658340454,-2.6199918429004114
1708436892.2284927,-1.723946452140808,-1.4804653015783806,-2.641961399708883,5.682798552304067,1.134168028831482,-2.619598690663473
1708436892.230489,-1.721777081489563,-1.48150888205085,-2.6427269617663782,5.6811991212661646,1.1348280906677246,-2.619180981312887
1708436892.2324817,-1.7196104526519775,-1.4825739201954384,-2.6435237566577356,5.679635333805837,1.135529637336731,-2.6187852064715784
1708436892.2344995,-1.7173314094543457,-1.483648919766285,-2.644301954899923,5.677910971432485,1.1362258195877075,-2.6184051672564905
1708436892.2365317,-1.715187430381775,-1.4846432966044922,-2.645064655934469,5.676291751652517,1.1368286609649658,-2.6180647055255335
1708436892.238475,-1.7129865884780884,-1.4857701298645516,-2.6458562056170862,5.6746147749717615,1.1374521255493164,-2.617737356816427
1708436892.2404819,-1.7107938528060913,-1.4868382525495072,-2.646634642277853,5.6730127213294885,1.1381261348724365,-2.6173482576953333
1708436892.2424924,-1.708616018295288,-1.4878523734262963,-2.647442642842428,5.671422052174368,1.1387593746185303,-2.6170204321490687
1708436892.2444794,-1.7064988613128662,-1.4888462659767647,-2.6482377688037317,5.669856774597921,1.1394529342651367,-2.616704765950338
1708436892.2465143,-1.7042913436889648,-1.4899058204940339,-2.64905554453005,5.668236481934347,1.1401337385177612,-2.616396967564718
1708436892.2484834,-1.7020339965820312,-1.490919553940632,-2.649879042302267,5.666625368386068,1.1407928466796875,-2.616068188344137
1708436892.2504816,-1.6997551918029785,-1.4920478549650689,-2.6507392565356653,5.665034878044882,1.1414982080459595,-2.615824524556295
1708436892.2525067,-1.6975290775299072,-1.4931178551963349,-2.651536528264181,5.663478123932638,1.1422522068023682,-2.615505043660299
1708436892.2544754,-1.6953023672103882,-1.4941880863955994,-2.6523998419391077,5.6620041010673425,1.142972707748413,-2.615232531224386
1708436892.2564902,-1.6931072473526,-1.4952765640667458,-2.653283659611837,5.660509633808889,1.1437302827835083,-2.6149473826037806
1708436892.2584963,-1.6909099817276,-1.4963233184865494,-2.6541107336627405,5.658877956658163,1.1443934440612793,-2.614798609410421
1708436892.2604704,-1.6887633800506592,-1.4973694768599053,-2.654874388371603,5.657369482308187,1.1451630592346191,-2.6144805590258997
1708436892.262474,-1.6865630149841309,-1.4983815488270302,-2.6557889620410364,5.655885863095083,1.1459213495254517,-2.614243809376852
1708436892.2644925,-1.684394121170044,-1.4994922292283555,-2.656647268925802,5.654471266060629,1.1466752290725708,-2.614091698323385
1708436892.2664874,-1.6822439432144165,-1.500630648141243,-2.657566849385397,5.652850734978475,1.1474390029907227,-2.6138740221606653
1708436892.2684855,-1.6800318956375122,-1.501706452374794,-2.6584773699389856,5.651369857579031,1.148248314857483,-2.613655392323629
1708436892.270503,-1.6778664588928223,-1.5026658934405823,-2.6593356768237513,5.649870204716482,1.1490651369094849,-2.6134234110461634
1708436892.2724807,-1.6756561994552612,-1.503833496277668,-2.660196844731466,5.648293304234304,1.1498570442199707,-2.6132691542254847
1708436892.2745082,-1.6734215021133423,-1.50490244597707,-2.6611619631396692,5.646755206375875,1.15064537525177,-2.613155190144674
1708436892.2764802,-1.6712568998336792,-1.5059648615172883,-2.6620305220233362,5.645212459355154,1.1514183282852173,-2.6129897276507776
1708436892.2784774,-1.6690469980239868,-1.5070541513017197,-2.6629300753222864,5.643715905934133,1.1522687673568726,-2.612866465245382
1708436892.28047,-1.6668707132339478,-1.5080961149981995,-2.6638365427600306,5.6421446082885645,1.1529954671859741,-2.612710777913229
1708436892.2825086,-1.6646525859832764,-1.5091777083328743,-2.664724651967184,5.640621053963461,1.153831124305725,-2.612605396901266
1708436892.2845082,-1.662459135055542,-1.5103029769710083,-2.6656342188464563,5.63911263921813,1.154671549797058,-2.61255127588381
1708436892.28648,-1.6602102518081665,-1.5113872376135369,-2.6665576140033167,5.637609290867605,1.1554429531097412,-2.612464491521017
1708436892.288502,-1.6580159664154053,-1.5124844399145623,-2.66750938097109,5.636207151203909,1.1563702821731567,-2.612354580556051
1708436892.2904918,-1.6558729410171509,-1.5135861833444615,-2.6683931986438196,5.63467817285613,1.1571539640426636,-2.6122618357287806
1708436892.2925045,-1.6537201404571533,-1.5146105226925393,-2.669337336217062,5.633210766106405,1.1580339670181274,-2.612244192753927
1708436892.2945037,-1.6514798402786255,-1.5156590093723317,-2.670276705418722,5.631614494114675,1.1588784456253052,-2.6122117678271692
1708436892.2964823,-1.6492438316345215,-1.5167813834599038,-2.6712527910815638,5.630189466267385,1.1596993207931519,-2.612135950719015
1708436892.298498,-1.6470708847045898,-1.51785026237879,-2.672199551259176,5.628662574082174,1.1605275869369507,-2.6121373812304896
1708436892.300506,-1.644875407218933,-1.518918865626194,-2.673215452824728,5.627186286240377,1.1613824367523193,-2.6120920817004603
1708436892.3024895,-1.6426658630371094,-1.520009161239006,-2.6741555372821253,5.625772642880239,1.162298560142517,-2.612113062535421
1708436892.3045168,-1.6404476165771484,-1.5210934032550831,-2.675089184437887,5.624316561013021,1.1632355451583862,-2.6121583620654505
1708436892.318046,-1.6382192373275757,-1.5221335564604779,-2.6761136690722864,5.622869002610006,1.1640889644622803,-2.6121910254107874
1708436892.3185296,-1.624942660331726,-1.5286019530943413,-2.6820183436023157,5.614297556668081,1.1693476438522339,-2.6124611536609095
1708436892.320511,-1.6228080987930298,-1.5297132183662434,-2.68300444284548,5.612764763623037,1.170166254043579,-2.612608019505636
1708436892.322521,-1.6206200122833252,-1.5307373826256772,-2.684026543294088,5.6113425371940515,1.171035647392273,-2.612622086201803
1708436892.3245158,-1.6183799505233765,-1.531810351913311,-2.6850152651416224,5.609899627953329,1.1719375848770142,-2.6127036253558558
1708436892.3264933,-1.6162030696868896,-1.5328063455275078,-2.6860409418689173,5.6083470461662195,1.1727864742279053,-2.6128650347339075
1708436892.3285813,-1.6139614582061768,-1.5338734363070508,-2.6870930830584925,5.606933343201437,1.1737031936645508,-2.612922493611471
1708436892.3305433,-1.6117850542068481,-1.5349835355630894,-2.688066069279806,5.605501162796774,1.17462956905365,-2.6130180994616907
1708436892.3325028,-1.6096396446228027,-1.5359682527235528,-2.6890831629382532,5.60404525974349,1.1755375862121582,-2.6131883303271692
1708436892.3344755,-1.6074013710021973,-1.537049987619259,-2.6901302973376673,5.602536546974935,1.1763819456100464,-2.6134191195117396
1708436892.3364985,-1.6051416397094727,-1.538108756100275,-2.6911540667163294,5.601141261845388,1.1772440671920776,-2.613504234944479
1708436892.3384738,-1.6029753684997559,-1.539177769129612,-2.6922135988818567,5.599694895535269,1.1780685186386108,-2.6136844793902796
1708436892.3405032,-1.6008244752883911,-1.5402308844826003,-2.6932995955096644,5.59829609373168,1.178941249847412,-2.6139429251300257
1708436892.3425262,-1.5985736846923828,-1.541309318771102,-2.694329563771383,5.596833514958181,1.1798627376556396,-2.614112679158346
1708436892.3444967,-1.5963691473007202,-1.542358250623085,-2.6953561941729944,5.595477092057028,1.1807832717895508,-2.614396397267477
1708436892.346521,-1.594175100326538,-1.5433993761292477,-2.6964317003833216,5.594087767391958,1.1817452907562256,-2.6146605650531214
1708436892.348482,-1.5919666290283203,-1.5444600985250254,-2.697493855153219,5.592652308731832,1.1826704740524292,-2.614896599446432
1708436892.3504837,-1.5898176431655884,-1.5454856746694823,-2.698491636906759,5.591338562756338,1.183547019958496,-2.6151488463031214
1708436892.3525388,-1.5875686407089233,-1.546563859363534,-2.699580256138937,5.589908826142111,1.1844146251678467,-2.615396563206808
1708436892.3544881,-1.5854496955871582,-1.54762100361798,-2.700613800679342,5.588438677578726,1.1853077411651611,-2.6157267729388636
1708436892.3565087,-1.5831630229949951,-1.5486581039479752,-2.701660935078756,5.5870298621948145,1.1862202882766724,-2.6159735361682337
1708436892.358481,-1.581024408340454,-1.5497196961990376,-2.702698294316427,5.585632192879476,1.1871298551559448,-2.616291109715597
1708436892.360505,-1.578842043876648,-1.5507984825274725,-2.7037251631366175,5.584174501686849,1.1881111860275269,-2.616581980382101
1708436892.3625169,-1.5766714811325073,-1.5518360820463677,-2.704824749623434,5.58272414186553,1.1890288591384888,-2.6169024149524134
1708436892.3644776,-1.5744431018829346,-1.5528778706542035,-2.705907408391134,5.581288623600759,1.189885139465332,-2.617281977330343
1708436892.3665025,-1.5721580982208252,-1.5539543864182015,-2.70691425005068,5.579807030945577,1.1908138990402222,-2.6176136175738733
1708436892.3684828,-1.5699434280395508,-1.55497985825453,-2.7079816500293177,5.578373002796926,1.1916985511779785,-2.6180103460894983
1708436892.3704722,-1.567736029624939,-1.5561188573813816,-2.709043327962057,5.576913046627798,1.1925891637802124,-2.6184104124652308
1708436892.3724968,-1.5655348300933838,-1.5570583439296861,-2.710188690816061,5.575535285263815,1.193501591682434,-2.6187904516803187
1708436892.3744931,-1.5633786916732788,-1.5581326524591823,-2.711224381123678,5.574188935547628,1.1943895816802979,-2.6192598978625696
1708436892.3765,-1.5612421035766602,-1.5591619352674861,-2.7123242060290735,5.572731244355001,1.195346474647522,-2.619688336049215
1708436892.378493,-1.5589848756790161,-1.560305049908795,-2.713414971028463,5.571324872761526,1.1962512731552124,-2.6201401392566126
1708436892.3804815,-1.5568056106567383,-1.5612068244120856,-2.714438501988546,5.569847690850057,1.197135329246521,-2.620610062276022
1708436892.3825023,-1.5547103881835938,-1.5622636054507275,-2.715532366429464,5.568505811482229,1.1980397701263428,-2.6210668722735804
1708436892.3844752,-1.5524663925170898,-1.563307902575918,-2.7166271845446985,5.566982078343191,1.198870301246643,-2.6214707533465784
1708436892.386503,-1.5503063201904297,-1.56440499870617,-2.7176924387561243,5.565618264466085,1.1998075246810913,-2.621906105672018
1708436892.3884778,-1.5480995178222656,-1.565457418361195,-2.7187915484057825,5.564156281739034,1.2007237672805786,-2.622458283101217
1708436892.390492,-1.5459083318710327,-1.5664199788919468,-2.7198928038226526,5.562791573792257,1.2016035318374634,-2.622862164174215
1708436892.3924952,-1.543653130531311,-1.5674804887133469,-2.720938507710592,5.561434674053945,1.2024511098861694,-2.6233390013324183
1708436892.3945003,-1.5414501428604126,-1.5684609010680397,-2.7220447699176233,5.560047316342153,1.2032705545425415,-2.6238277594195765
1708436892.3964992,-1.5392407178878784,-1.5694478432745491,-2.7231314818011683,5.558700728207388,1.2041149139404297,-2.6244495550738733
1708436892.3984754,-1.5370293855667114,-1.5704891405515191,-2.7242334524737757,5.557239222317495,1.205004334449768,-2.6249638239489954
1708436892.4004831,-1.5348345041275024,-1.571505685845846,-2.7253177801715296,5.555848526745596,1.2058149576187134,-2.6254480520831507
1708436892.4024992,-1.5326135158538818,-1.5725099049010218,-2.7264328638659876,5.554525244026937,1.2067081928253174,-2.6258819738971155
1708436892.4045072,-1.530476689338684,-1.5735250912108363,-2.7274892965899866,5.553142952709951,1.2075960636138916,-2.62631065050234
1708436892.4064713,-1.5282808542251587,-1.5745817623534144,-2.7286537329303187,5.551754045277395,1.208355188369751,-2.626828734074728
1708436892.408474,-1.5260530710220337,-1.5756336651244105,-2.7297185103045862,5.5502840159233,1.2091970443725586,-2.627364460621969
1708436892.4104981,-1.523888111114502,-1.5766140423216761,-2.730722729359762,5.548887240677633,1.2100648880004883,-2.62785250345339
1708436892.4125085,-1.5216529369354248,-1.5776621303954066,-2.7318125406848353,5.5474822399909876,1.2109287977218628,-2.6282787958728235
1708436892.414488,-1.5194382667541504,-1.5786806545653285,-2.7329168955432337,5.546066689282217,1.211814045906067,-2.6288579146014612
1708436892.41649,-1.5172522068023682,-1.57963289837026,-2.733980957661764,5.544580149441519,1.2126377820968628,-2.6293206850634974
1708436892.4185023,-1.5150399208068848,-1.5806695423521937,-2.7350929419146937,5.543212282448568,1.2134767770767212,-2.62985068956484
1708436892.420497,-1.5128509998321533,-1.5817133388915003,-2.736185614262716,5.541843044548788,1.214377522468567,-2.630350653325216
1708436892.4225044,-1.5106104612350464,-1.5826565227904261,-2.737286631261007,5.540465938835897,1.2152544260025024,-2.6307862440692347
