Eg3-git/Classifiers/Data Collection/u5/u5abc1_ur3e_joint_states.csv
time,elbow_joint,shoulder_lift_joint,shoulder_pan_joint,wrist_1_joint,wrist_2_joint,wrist_3_joint
1708436820.9905639,-2.143179416656494,-1.3344083589366456,-2.5280588308917444,6.115334379463949,1.0199923515319824,-2.237826649342672
1708436820.992524,-2.143150806427002,-1.3343757551959534,-2.528106991444723,6.11534212806777,1.0199377536773682,-2.2377775351153772
1708436820.9945424,-2.143105983734131,-1.3344364178231736,-2.528069559727804,6.11540316322402,1.0199140310287476,-2.237847630177633
1708436820.996525,-2.143155097961426,-1.334388018851616,-2.528069559727804,6.115346658020773,1.0199836492538452,-2.2377851645099085
1708436820.9985178,-2.1431422233581543,-1.3344083589366456,-2.5280500094043177,6.115312087326803,1.019974946975708,-2.2378223578082483
1708436821.0005076,-2.1431708335876465,-1.3343922209790726,-2.528074089680807,6.1153554795081995,1.0199346542358398,-2.2378671805011194
1708436821.0027566,-2.143101692199707,-1.3344406348517914,-2.5280783812152308,6.1153015969093225,1.0199674367904663,-2.237826649342672
1708436821.004513,-2.1431307792663574,-1.3344448667815705,-2.528135363255636,6.115304457932272,1.019963026046753,-2.2378433386432093
1708436821.0065095,-2.1431832313537598,-1.3344083589366456,-2.5280993620501917,6.11534212806777,1.019976019859314,-2.2378018538104456
1708436821.0085354,-2.143155097961426,-1.3344406348517914,-2.5280783812152308,6.115329849510946,1.0199464559555054,-2.2378509680377405
1708436821.0105023,-2.143155097961426,-1.3344322007945557,-2.528111521397726,6.115317928581991,1.0199346542358398,-2.2378152052508753
1708436821.0125234,-2.143146514892578,-1.3344448667815705,-2.5280662218676966,6.115309107094564,1.0199508666992188,-2.2378347555743616
1708436821.0145342,-2.143153667449951,-1.3344322007945557,-2.5280707518206995,6.115367519646444,1.0199508666992188,-2.2378762404071253
1708436821.0165358,-2.1431350708007812,-1.3344210994294663,-2.5281322638141077,6.115358578949728,1.0199792385101318,-2.2378132979022425
1708436821.0185587,-2.1431660652160645,-1.3343799722245713,-2.5280619303332728,6.115313517838278,1.019963026046753,-2.2378552595721644
1708436821.0205555,-2.1431708335876465,-1.3343922209790726,-2.5280829111682337,6.115313517838278,1.019918441772461,-2.2378552595721644
1708436821.0225234,-2.143199920654297,-1.3344278943589707,-2.5280619303332728,6.115313517838278,1.0199508666992188,-2.237826649342672
1708436821.0245092,-2.143179416656494,-1.3344083589366456,-2.5280993620501917,6.115325438767233,1.0199464559555054,-2.2378018538104456
1708436821.026533,-2.143155097961426,-1.3344083589366456,-2.5281322638141077,6.115295636444845,1.0199346542358398,-2.2378109137164515
1708436821.0285199,-2.1431665420532227,-1.3344210994294663,-2.5280829111682337,6.115329968720236,1.019963026046753,-2.2378347555743616
1708436821.0305045,-2.1431097984313965,-1.3344160628369828,-2.5280948320971888,6.115292656212606,1.0199543237686157,-2.2378390471087855
1708436821.032534,-2.1431479454040527,-1.3344041419080277,-2.5280662218676966,6.115395414620199,1.0199302434921265,-2.2378552595721644
1708436821.0345078,-2.143122673034668,-1.3343842786601563,-2.5280543009387415,6.115304457932272,1.0199674367904663,-2.2378509680377405
1708436821.036529,-2.1431140899658203,-1.3344202798656006,-2.5280874411212366,6.115374552994528,1.0199508666992188,-2.2378347555743616
1708436821.038535,-2.1432042121887207,-1.3343880039504548,-2.528053108845846,6.115361201554098,1.0200207233428955,-2.2378552595721644
1708436821.0405316,-2.1431221961975098,-1.3343964380076905,-2.528123442326681,6.115374552994528,1.0199674367904663,-2.2378390471087855
1708436821.0425186,-2.1431682109832764,-1.3344007444432755,-2.5280829111682337,6.115291225701132,1.0200088024139404,-2.237859551106588
1708436821.0445344,-2.143146514892578,-1.3344083589366456,-2.5280619303332728,6.115325438767233,1.0199717283248901,-2.237859551106588
1708436821.046509,-2.143139362335205,-1.3344007444432755,-2.5280948320971888,6.115349519043722,1.0199674367904663,-2.2378018538104456
1708436821.0485303,-2.1431493759155273,-1.3343837720206757,-2.5280917326556605,6.1153567908103845,1.0199922323226929,-2.2378509680377405
1708436821.050508,-2.143155097961426,-1.3343837720206757,-2.5280993620501917,6.11532090881423,1.0199140310287476,-2.237826649342672
1708436821.052527,-2.143162250518799,-1.3343880039504548,-2.5281036535846155,6.115374552994528,1.0199508666992188,-2.2378066221820276
1708436821.054514,-2.1431636810302734,-1.3344083589366456,-2.528086010609762,6.115353929787435,1.019963026046753,-2.2378833929644983
1708436821.0565603,-2.143150806427002,-1.3343884956887742,-2.528090302144186,6.115349519043722,1.019963026046753,-2.2378347555743616
1708436821.0585148,-2.143155097961426,-1.3343673211387177,-2.5280874411212366,6.115319716721334,1.0199915170669556,-2.2378223578082483
1708436821.0605621,-2.1432042121887207,-1.3344007444432755,-2.5280543009387415,6.1153790829475305,1.0199464559555054,-2.2378628889666956
1708436821.0625122,-2.1431832313537598,-1.3343842786601563,-2.528074089680807,6.115391003876486,1.019963026046753,-2.237830464039938
1708436821.0645232,-2.143150806427002,-1.3344287139228364,-2.5280993620501917,6.1153331873710535,1.0199464559555054,-2.2378714720355433
1708436821.0665107,-2.1431870460510254,-1.3343523156693955,-2.5280783812152308,6.115386473923483,1.0199464559555054,-2.2378390471087855
1708436821.0685213,-2.1431350708007812,-1.3344041419080277,-2.5280874411212366,6.115349519043722,1.0199551582336426,-2.2378347555743616
1708436821.0705037,-2.143199920654297,-1.3344125759652634,-2.5280993620501917,6.1153567908103845,1.019987940788269,-2.2378833929644983
1708436821.0725584,-2.143143653869629,-1.3344491583159943,-2.5281487146960657,6.1153451083000085,1.0199958086013794,-2.2378762404071253
1708436821.0745351,-2.1431350708007812,-1.3343715381673356,-2.528074089680807,6.115394341736593,1.0199717283248901,-2.2377689520465296
1708436821.0765116,-2.1431140899658203,-1.3344322007945557,-2.52813965479006,6.1153567908103845,1.0199717283248901,-2.2378466765033167
1708436821.0785134,-2.1431961059570312,-1.3344049614718934,-2.5281081835376185,6.115414964943685,1.0199227333068848,-2.2378390471087855
1708436821.0805352,-2.143178939819336,-1.3343799722245713,-2.528106991444723,6.1153451083000085,1.0200207233428955,-2.2378223578082483
1708436821.0825124,-2.1431665420532227,-1.3344049614718934,-2.5280991236316126,6.115415084152975,1.0199421644210815,-2.2378552595721644
1708436821.084537,-2.143143653869629,-1.3343673211387177,-2.528074089680807,6.115340697556295,1.0199508666992188,-2.2378390471087855
1708436821.0864966,-2.143155097961426,-1.3343964380076905,-2.528144184743063,6.11532877662734,1.0199346542358398,-2.2378223578082483
1708436821.0885367,-2.143118381500244,-1.3344406199506302,-2.52812630334963,6.11538194397048,1.019918441772461,-2.2378390471087855
1708436821.09052,-2.1431140899658203,-1.3344244968942185,-2.5280874411212366,6.115353929787435,1.0199544429779053,-2.2378433386432093
1708436821.092514,-2.143150806427002,-1.334421069627144,-2.5281367937671106,6.115349519043722,1.0199464559555054,-2.237842384968893
1708436821.0945299,-2.143143653869629,-1.3344202798656006,-2.5280662218676966,6.115347730904379,1.0199389457702637,-2.2378433386432093
1708436821.096526,-2.1431665420532227,-1.3343838167241593,-2.528118912373678,6.115361201554098,1.0199389457702637,-2.2378552595721644
1708436821.0985174,-2.1431593894958496,-1.3343964380076905,-2.5280993620501917,6.115397202759542,1.0199674367904663,-2.237826649342672
1708436821.1005225,-2.1431140899658203,-1.3344007444432755,-2.5280783812152308,6.115377533226766,1.019987940788269,-2.2378347555743616
1708436821.1025026,-2.1431918144226074,-1.3344533306411286,-2.5281036535846155,6.1154106734092615,1.0199259519577026,-2.2378066221820276
1708436821.1045177,-2.143097400665283,-1.334416077738144,-2.528090302144186,6.115406262665548,1.0199674367904663,-2.23786431947817
1708436821.1065156,-2.143146514892578,-1.3344364029220124,-2.52807861963381,6.115394341736593,1.0199508666992188,-2.2378180662738245
1708436821.1085305,-2.1431379318237305,-1.3343837720206757,-2.528074089680807,6.115407693177023,1.0199594497680664,-2.2378018538104456
1708436821.1105092,-2.1431636810302734,-1.334416077738144,-2.5280874411212366,6.115392672806539,1.0199508666992188,-2.2378628889666956
1708436821.1125185,-2.143162250518799,-1.334404156809189,-2.52807861963381,6.1154106734092615,1.0199792385101318,-2.2378509680377405
1708436821.114505,-2.143146514892578,-1.3343838167241593,-2.528111521397726,6.115392672806539,1.0199674367904663,-2.2378433386432093
1708436821.1165388,-2.1431350708007812,-1.3343838167241593,-2.5280783812152308,6.115406262665548,1.0199792385101318,-2.237852398549215
1708436821.1185362,-2.1431593894958496,-1.3344083589366456,-2.528106991444723,6.1154225943382166,1.019963026046753,-2.237859551106588
1708436821.1205485,-2.1431493759155273,-1.3344041419080277,-2.5280662218676966,6.115413534432211,1.019958734512329,-2.2378180662738245
1708436821.1225698,-2.1431708335876465,-1.3344041419080277,-2.5281036535846155,6.115463125496664,1.019958734512329,-2.2378347555743616
1708436821.1245394,-2.143118381500244,-1.334371567969658,-2.5280993620501917,6.11546145656661,1.0199508666992188,-2.2378132979022425
1708436821.1265068,-2.1431708335876465,-1.3343999248794098,-2.528098169957296,6.115486848145284,1.019963026046753,-2.237830464039938
1708436821.128554,-2.143146514892578,-1.3343673211387177,-2.528086010609762,6.115489828377523,1.0199464559555054,-2.2378223578082483
1708436821.1305196,-2.143122673034668,-1.334404931669571,-2.5280874411212366,6.1155303595359705,1.0199792385101318,-2.237830940877096
1708436821.132512,-2.1431307792663574,-1.3343964380076905,-2.5280948320971888,6.115504729538717,1.0199674367904663,-2.2378833929644983
1708436821.1345248,-2.143150806427002,-1.334404156809189,-2.528074089680807,6.115516888886251,1.0199346542358398,-2.2378390471087855
1708436821.1365008,-2.143122673034668,-1.3343964380076905,-2.5280993620501917,6.115488278656759,1.0199508666992188,-2.2378671805011194
1708436821.1385078,-2.143162250518799,-1.3344202798656006,-2.528106991444723,6.11555706241683,1.0199594497680664,-2.2378748098956507
1708436821.1405277,-2.143178939819336,-1.3344210994294663,-2.5280874411212366,6.11551986911849,1.0199140310287476,-2.2378390471087855
1708436821.1425622,-2.1431221961975098,-1.3344330203584214,-2.5281203428851526,6.1155316708381555,1.0199674367904663,-2.2378671805011194
1708436821.144518,-2.1431264877319336,-1.3343842935613175,-2.5281203428851526,6.115582692414083,1.0199097394943237,-2.2378132979022425
1708436821.1465192,-2.143174648284912,-1.3344528538039704,-2.52807861963381,6.11547480800704,1.0199594497680664,-2.2378509680377405
1708436821.148512,-2.143117904663086,-1.3344168824008484,-2.528102699910299,6.115524279862203,1.0199464559555054,-2.2378552595721644
1708436821.1505005,-2.143139362335205,-1.3343964380076905,-2.5281410853015345,6.115540730744161,1.0199227333068848,-2.237830464039938
1708436821.1525187,-2.1431422233581543,-1.3344448667815705,-2.5281203428851526,6.11557828167037,1.0199432373046875,-2.2378066221820276
1708436821.1545072,-2.1431479454040527,-1.3344371926835557,-2.5281532446490687,6.115536320000448,1.0199464559555054,-2.237842384968893
1708436821.1565359,-2.143150806427002,-1.3343922358802338,-2.528127733861105,6.11555706241683,1.019963026046753,-2.2378347555743616
1708436821.158544,-2.143155097961426,-1.334371567969658,-2.5280948320971888,6.1155481217201135,1.0199836492538452,-2.2378671805011194
1708436821.1604977,-2.1431593894958496,-1.334348053937294,-2.5281410853015345,6.1155526516731165,1.0199140310287476,-2.2378714720355433
1708436821.1624947,-2.1431312561035156,-1.334404931669571,-2.52804404893984,6.115522849350729,1.0199346542358398,-2.2378018538104456
1708436821.1645284,-2.143153667449951,-1.334421069627144,-2.52805740038027,6.115576493531027,1.0199717283248901,-2.2378714720355433
1708436821.1665082,-2.1431832313537598,-1.3344287139228364,-2.5280948320971888,6.115585434227743,1.0199508666992188,-2.2378347555743616
1708436821.1685288,-2.1431593894958496,-1.3343799722245713,-2.528106991444723,6.115613925247946,1.0199421644210815,-2.2378552595721644
1708436821.1705117,-2.1431827545166016,-1.3344371926835557,-2.5280962626086634,6.115551459580221,1.0199717283248901,-2.2378347555743616
1708436821.1725485,-2.1431832313537598,-1.334399939780571,-2.5280993620501917,6.115582692414083,1.019910454750061,-2.2378090063678187
1708436821.1745126,-2.143118381500244,-1.3343512278846283,-2.528123442326681,6.115560400276937,1.0199389457702637,-2.2378509680377405
1708436821.176514,-2.14322829246521,-1.3344364029220124,-2.5280948320971888,6.115534651070394,1.019976019859314,-2.2378223578082483
1708436821.178548,-2.143191337585449,-1.3344244968942185,-2.5280948320971888,6.115540730744161,1.0199551582336426,-2.2378390471087855
1708436821.1805112,-2.1431875228881836,-1.3343715381673356,-2.52807861963381,6.115510928421774,1.0199346542358398,-2.237847630177633
1708436821.1825302,-2.143195629119873,-1.3343673211387177,-2.5281081835376185,6.115564811020651,1.019963026046753,-2.2377808729754847
1708436821.1845045,-2.143150806427002,-1.3344202798656006,-2.5281203428851526,6.115536320000448,1.0199140310287476,-2.2378180662738245
1708436821.18653,-2.143153667449951,-1.3343638640693207,-2.5280917326556605,6.115585434227743,1.0199215412139893,-2.2378152052508753
1708436821.18852,-2.143202781677246,-1.3344202798656006,-2.5280454794513147,6.115571963578024,1.0199792385101318,-2.2378132979022425
1708436821.1905162,-2.1431379318237305,-1.3343799722245713,-2.528111521397726,6.115536320000448,1.019958734512329,-2.2378714720355433
1708436821.192569,-2.143191337585449,-1.3343395751765748,-2.5281246344195765,6.1155526516731165,1.019976019859314,-2.237826649342672
1708436821.194506,-2.1431832313537598,-1.3343880039504548,-2.5281081835376185,6.115564811020651,1.019963026046753,-2.2377775351153772
1708436821.1965122,-2.143191337585449,-1.334416077738144,-2.528111521397726,6.115527379303732,1.0199302434921265,-2.2378223578082483
1708436821.1985128,-2.143153667449951,-1.3344372373870392,-2.528127733861105,6.115630376129904,1.0199508666992188,-2.237859551106588
1708436821.2004995,-2.1431660652160645,-1.334416077738144,-2.528111521397726,6.115588414459982,1.0199717283248901,-2.2378109137164515
1708436821.2025268,-2.1431264877319336,-1.3343964380076905,-2.52807861963381,6.115572082787313,1.019958734512329,-2.237852398549215
1708436821.2045047,-2.1431665420532227,-1.3343838167241593,-2.5280783812152308,6.115564811020651,1.0199674367904663,-2.2378223578082483
1708436821.20651,-2.143150806427002,-1.3344083589366456,-2.5280991236316126,6.115576493531027,1.019974946975708,-2.2378433386432093
1708436821.2085238,-2.1431703567504883,-1.334416852598526,-2.52805740038027,6.115592825203695,1.0199227333068848,-2.2378066221820276
1708436821.2104971,-2.1431665420532227,-1.3344364178231736,-2.528086010609762,6.115613925247946,1.0199227333068848,-2.237859551106588
1708436821.2125065,-2.14320707321167,-1.3343880039504548,-2.5280948320971888,6.115564811020651,1.019910454750061,-2.2378833929644983
1708436821.2145112,-2.143195629119873,-1.3344372820905228,-2.5281158129321497,6.115555989533224,1.0199389457702637,-2.2378347555743616
1708436821.216504,-2.143195629119873,-1.3344202798656006,-2.5280948320971888,6.115601765900411,1.0199346542358398,-2.237884823475973
1708436821.2185185,-2.1431493759155273,-1.3343681556037446,-2.5281158129321497,6.115646707802572,1.0199922323226929,-2.2378152052508753
1708436821.2205377,-2.143162250518799,-1.334404156809189,-2.5281036535846155,6.115592944412985,1.0199227333068848,-2.237859551106588
1708436821.2225354,-2.1431875228881836,-1.334371567969658,-2.52807861963381,6.1155972359474084,1.0199389457702637,-2.2377851645099085
1708436821.2245343,-2.1431379318237305,-1.3344286990216752,-2.528074089680807,6.115600573807516,1.0199302434921265,-2.237797562276022
1708436821.2265108,-2.1431870460510254,-1.3343757551959534,-2.5280948320971888,6.115600573807516,1.0199389457702637,-2.2378714720355433
1708436821.2285223,-2.143153667449951,-1.3344083589366456,-2.5280993620501917,6.115588414459982,1.0199061632156372,-2.237826649342672
1708436821.2305043,-2.143153667449951,-1.3344448667815705,-2.528069559727804,6.115646827011862,1.0199520587921143,-2.2378390471087855
1708436821.2325208,-2.1432113647460938,-1.3344125759652634,-2.5280454794513147,6.115616905480184,1.0199389457702637,-2.237847630177633
1708436821.2344985,-2.1431572437286377,-1.3343511682799836,-2.528069559727804,6.115608083992758,1.019918441772461,-2.237830940877096
1708436821.2365282,-2.1432321071624756,-1.334432990556099,-2.528123442326681,6.115612494736471,1.0199346542358398,-2.2378109137164515
1708436821.2385092,-2.1432156562805176,-1.3344160628369828,-2.5280454794513147,6.115642416268148,1.0199061632156372,-2.237802807484762
1708436821.2405121,-2.1431379318237305,-1.3344125759652634,-2.528111521397726,6.1155916331108,1.0199594497680664,-2.237826649342672
1708436821.2425013,-2.1431660652160645,-1.334399939780571,-2.528048578892843,6.115613925247946,1.0199508666992188,-2.237802807484762
1708436821.2444944,-2.1431870460510254,-1.3343468618443985,-2.528111521397726,6.115592825203695,1.0199551582336426,-2.237798515950338
1708436821.2465007,-2.1431572437286377,-1.3344125759652634,-2.528090302144186,6.115649688034811,1.0199346542358398,-2.2377613226519983
1708436821.2485094,-2.1431870460510254,-1.3343922358802338,-2.5280500094043177,6.115603554039755,1.019931435585022,-2.237748924885885
1708436821.2505052,-2.1431493759155273,-1.3343837720206757,-2.528086010609762,6.115603554039755,1.0199192762374878,-2.2378152052508753
1708436821.252515,-2.143199920654297,-1.334371567969658,-2.5280783812152308,6.115636336594381,1.0199638605117798,-2.2378152052508753
1708436821.254502,-2.1431493759155273,-1.3344533306411286,-2.5280993620501917,6.115637886315145,1.0199346542358398,-2.2378042379962366
1708436821.2565129,-2.1431660652160645,-1.334404931669571,-2.5281158129321497,6.115658747940817,1.0199346542358398,-2.237770382558004
1708436821.2585,-2.1432197093963623,-1.3344406348517914,-2.5281158129321497,6.115620004921713,1.0199346542358398,-2.237737480794088
1708436821.2605033,-2.1432065963745117,-1.3344083589366456,-2.5280874411212366,6.115657555847921,1.019963026046753,-2.237778965626852
1708436821.262507,-2.1432321071624756,-1.3344202798656006,-2.5281410853015345,6.115633475571432,1.0199389457702637,-2.237765614186422
1708436821.2644997,-2.1431984901428223,-1.3344406199506302,-2.528086010609762,6.115664946823873,1.0199464559555054,-2.2377551237689417
1708436821.2665253,-2.1432108879089355,-1.3344287139228364,-2.5280662218676966,6.115628826409139,1.019958734512329,-2.2377751509295862
1708436821.2684996,-2.1432275772094727,-1.3344570708325882,-2.5280874411212366,6.115582573204794,1.0199464559555054,-2.237746540700094
1708436821.2705402,-2.1431493759155273,-1.3344286990216752,-2.528069559727804,6.115657555847921,1.0199551582336426,-2.2377427260028284
1708436821.272511,-2.1431827545166016,-1.3344406199506302,-2.528111521397726,6.115635144501486,1.019963026046753,-2.237680260335104
1708436821.274514,-2.1431870460510254,-1.3344406199506302,-2.5281158129321497,6.115620004921713,1.0199464559555054,-2.23771316209902
1708436821.2765007,-2.1431827545166016,-1.3344448667815705,-2.528127733861105,6.115718591004171,1.0199638605117798,-2.2377174536334437
1708436821.2785027,-2.1431782245635986,-1.3344041419080277,-2.5280752817737024,6.115648495941915,1.0199674367904663,-2.237748448048727
1708436821.2804976,-2.143195629119873,-1.3344322007945557,-2.5280829111682337,6.115655886917867,1.0199508666992188,-2.2376773993121546
1708436821.2824934,-2.1432065963745117,-1.3344117564013978,-2.5280783812152308,6.115675318032064,1.0199638605117798,-2.2377188841449183
1708436821.2845001,-2.1432321071624756,-1.3344330203584214,-2.5280993620501917,6.115672337799825,1.0199508666992188,-2.237682644520895
1708436821.286497,-2.1432065963745117,-1.3343922209790726,-2.5280783812152308,6.115700590401449,1.0199259519577026,-2.2376650015460413
1708436821.2885277,-2.1432065963745117,-1.334399939780571,-2.5280707518206995,6.115656006127157,1.0199674367904663,-2.237704102193014
1708436821.2904952,-2.1432065963745117,-1.3344244819930573,-2.5281322638141077,6.11566041687087,1.0199346542358398,-2.2377150694476526
1708436821.2924924,-2.143202781677246,-1.3344125759652634,-2.5281036535846155,6.115642535477438,1.0199717283248901,-2.2376487890826624
1708436821.294497,-2.1432607173919678,-1.3344571006349106,-2.5280783812152308,6.115691768914022,1.0199346542358398,-2.2376330534564417
1708436821.2965138,-2.1431870460510254,-1.3343999248794098,-2.5280917326556605,6.115693199425497,1.0199227333068848,-2.2376912275897425
1708436821.298507,-2.1432671546936035,-1.3343438369086762,-2.52807861963381,6.115702140122213,1.0198931694030762,-2.237654511128561
1708436821.3004963,-2.1432363986968994,-1.334404156809189,-2.528106991444723,6.115717041283407,1.0199508666992188,-2.2376840750323694
1708436821.3025298,-2.1431853771209717,-1.3344041419080277,-2.528069559727804,6.115654456406393,1.0199674367904663,-2.237654511128561
1708436821.3045275,-2.1431896686553955,-1.3344125759652634,-2.528118912373678,6.115714061051168,1.0199508666992188,-2.2375810782061976
1708436821.3065166,-2.1431782245635986,-1.334424467091896,-2.5280783812152308,6.115656006127157,1.0199259519577026,-2.2376182715045374
1708436821.308539,-2.1431853771209717,-1.334404156809189,-2.528114382420675,6.115644085198202,1.0199476480484009,-2.2376225630389612
1708436821.3105261,-2.143263578414917,-1.3344125908664246,-2.5280991236316126,6.115672337799825,1.0199508666992188,-2.2376793066607874
1708436821.3125234,-2.143223285675049,-1.3344168376973649,-2.528102699910299,6.115648495941915,1.0199389457702637,-2.2376306692706507
1708436821.314507,-2.1431853771209717,-1.334424467091896,-2.5280872027026575,6.115651476174154,1.019976019859314,-2.237654987965719
1708436821.3165276,-2.1432347297668457,-1.3343596172383805,-2.528074089680807,6.115672337799825,1.0199421644210815,-2.2376182715045374
1708436821.3185325,-2.1431984901428223,-1.3343554449132462,-2.528127733861105,6.11569761016921,1.0199508666992188,-2.2376225630389612
1708436821.3205411,-2.1431896686553955,-1.334432990556099,-2.528135363255636,6.11572145202712,1.0199915170669556,-2.237610642110006
1708436821.3225417,-2.1431853771209717,-1.3344117116979142,-2.52805740038027,6.115702259331503,1.0199836492538452,-2.237589661275045
1708436821.3245668,-2.1432504653930664,-1.3343837720206757,-2.5281322638141077,6.115688669472494,1.0199792385101318,-2.237626854573385
1708436821.3265014,-2.1431782245635986,-1.3344364029220124,-2.528102699910299,6.115705120354452,1.0199421644210815,-2.237598721181051
1708436821.3285418,-2.1432390213012695,-1.3344083589366456,-2.5281649271594446,6.115700590401449,1.0199421644210815,-2.237586800252096
1708436821.3305018,-2.1432108879089355,-1.334388018851616,-2.5281484762774866,6.1156678078468225,1.019963026046753,-2.237589661275045
1708436821.332536,-2.1432321071624756,-1.3344406199506302,-2.528106991444723,6.115667927056112,1.0199259519577026,-2.237598721181051
1708436821.334552,-2.1432363986968994,-1.3344202798656006,-2.528102699910299,6.1157007096107385,1.019974946975708,-2.2375615278827112
1708436821.3365166,-2.1432275772094727,-1.3344244819930573,-2.5280993620501917,6.115687238961019,1.0200077295303345,-2.2376163641559046
1708436821.3385208,-2.1432547569274902,-1.3343757551959534,-2.528069559727804,6.115700590401449,1.019958734512329,-2.23753005663027
1708436821.3405137,-2.1431984901428223,-1.3344533306411286,-2.528127733861105,6.1156678078468225,1.0199543237686157,-2.237549130116598
1708436821.3425102,-2.1432104110717773,-1.334343896513321,-2.52805740038027,6.115724432259359,1.0199792385101318,-2.2375505606280726
1708436821.3444986,-2.1432478427886963,-1.3343999546817322,-2.5281322638141077,6.11575864532546,1.0199662446975708,-2.23759109178652
1708436821.3465133,-2.1431782245635986,-1.3344160628369828,-2.528098169957296,6.1156842587287805,1.0199674367904663,-2.2375662962542933
1708436821.348517,-2.143218994140625,-1.334448681478836,-2.5280874411212366,6.11572157123641,1.019950032234192,-2.237553421651022
1708436821.3505108,-2.1432321071624756,-1.3343872737935563,-2.528156105672018,6.115635144501486,1.019974946975708,-2.2375624815570276
1708436821.3525033,-2.1431984901428223,-1.3344007146409531,-2.5280993620501917,6.115653025894918,1.0200154781341553,-2.2375505606280726
1708436821.3545086,-2.1432347297668457,-1.3344656091979523,-2.528102699910299,6.115688669472494,1.0199705362319946,-2.237541977559225
1708436821.3565037,-2.1431896686553955,-1.3343922209790726,-2.528130833302633,6.115639555245199,1.019974946975708,-2.2375386396991175
1708436821.3585258,-2.1432390213012695,-1.3343922209790726,-2.528123442326681,6.11569761016921,1.019978404045105,-2.2375224272357386
1708436821.3605242,-2.1432504653930664,-1.3343964678100129,-2.5280948320971888,6.115672337799825,1.0199915170669556,-2.2375105063067835
1708436821.362505,-2.1432547569274902,-1.3344083738378067,-2.528076950703756,6.115643965988912,1.0199871063232422,-2.23749810854067
1708436821.3645048,-2.1432108879089355,-1.3344083738378067,-2.52813965479006,6.115714061051168,1.0200273990631104,-2.237544361745016
1708436821.3665197,-2.143198013305664,-1.3343511682799836,-2.528118912373678,6.115696179657736,1.0199663639068604,-2.237523380910055
1708436821.3685157,-2.143218994140625,-1.3344364178231736,-2.528069559727804,6.115653025894918,1.0200273990631104,-2.2375147978412073
1708436821.3704996,-2.1431939601898193,-1.3344491136125107,-2.528109852467672,6.115639555245199,1.0200361013412476,-2.237502400075094
1708436821.3725088,-2.1432547569274902,-1.3344406199506302,-2.528144184743063,6.115664827614584,1.0199990272521973,-2.237551991139547
1708436821.3745003,-2.1432321071624756,-1.3343922358802338,-2.528098169957296,6.115647065430441,1.0200155973434448,-2.2374938170062464
1708436821.3765137,-2.143181085586548,-1.334449128513672,-2.5281158129321497,6.115675318032064,1.0200481414794922,-2.237458054219381
1708436821.3785121,-2.1431782245635986,-1.334453360443451,-2.528106991444723,6.115712511330404,1.0199915170669556,-2.2374489943133753
1708436821.3805268,-2.1432504653930664,-1.3344287139228364,-2.528151575719015,6.115644085198202,1.0200231075286865,-2.2374699751483362
1708436821.382532,-2.1432065963745117,-1.3343880337527771,-2.528114382420675,6.115687238961019,1.0200318098068237,-2.2375128904925745
1708436821.3845327,-2.1432275772094727,-1.334421069627144,-2.528111521397726,6.115664946823873,1.0199697017669678,-2.237478558217184
1708436821.3865144,-2.143169641494751,-1.3344533902457734,-2.528160635625021,6.115635144501486,1.0200273990631104,-2.237462345753805
1708436821.3885248,-2.1432547569274902,-1.3344007444432755,-2.528098169957296,6.115644085198202,1.0200436115264893,-2.237523380910055
1708436821.3905222,-2.1432065963745117,-1.3344244819930573,-2.52812630334963,6.115672337799825,1.0200681686401367,-2.23745042482485
1708436821.3925455,-2.143202304840088,-1.3343964380076905,-2.528102699910299,6.115664827614584,1.0200188159942627,-2.2374752203570765
1708436821.3945017,-2.1432275772094727,-1.3343673658422013,-2.5280726591693323,6.115651476174154,1.0200469493865967,-2.237446133290426
1708436821.3965218,-2.1432275772094727,-1.3344202798656006,-2.528127733861105,6.1156842587287805,1.0200843811035156,-2.2374919096576136
1708436821.398533,-2.143259048461914,-1.3344125610641022,-2.528106991444723,6.115705120354452,1.0200669765472412,-2.2374962011920374
1708436821.400521,-2.143173933029175,-1.334421069627144,-2.528074089680807,6.115681278496542,1.020072340965271,-2.2374423185931605
1708436821.402493,-2.143230438232422,-1.3344160628369828,-2.528102699910299,6.115676748543539,1.0200755596160889,-2.237446133290426
1708436821.4045415,-2.1432478427886963,-1.334416077738144,-2.528118912373678,6.115670907288351,1.0201125144958496,-2.237504307423727
1708436821.406556,-2.1431572437286377,-1.334371642475464,-2.528135363255636,6.115709531098165,1.0200464725494385,-2.237422291432516
1708436821.4085104,-2.143275737762451,-1.3344690960696717,-2.528118912373678,6.115679847985067,1.0200669765472412,-2.237462345753805
1708436821.4105155,-2.1432418823242188,-1.3344210994294663,-2.528160635625021,6.115606415062704,1.0200788974761963,-2.2374141852008265
1708436821.4125257,-2.1432321071624756,-1.3344689470580597,-2.5281322638141077,6.115667927056112,1.020086407661438,-2.237466637288229
1708436821.4145164,-2.1431939601898193,-1.3344083440354844,-2.52812630334963,6.115690338402548,1.020087480545044,-2.2373979727374476
1708436821.4165075,-2.1432478427886963,-1.334464819436409,-2.528151575719015,6.115681278496542,1.0201364755630493,-2.2374022642718714
1708436821.4185283,-2.1432547569274902,-1.3343752485564728,-2.528074089680807,6.115705120354452,1.0201116800308228,-2.2374265829669397
1708436821.4205623,-2.1432433128356934,-1.3344647747329255,-2.528168026600973,6.115718591004171,1.020099401473999,-2.2373812834369105
1708436821.422542,-2.1432433128356934,-1.3344244819930573,-2.528090302144186,6.115693199425497,1.0200951099395752,-2.2374265829669397
1708436821.4245706,-2.1432108879089355,-1.3344322007945557,-2.528114382420675,6.115730392723837,1.0200906991958618,-2.237368885670797
1708436821.426516,-2.143218994140625,-1.3344202798656006,-2.528118912373678,6.115693199425497,1.0201116800308228,-2.237415138875143
1708436821.4285169,-2.143218994140625,-1.3344322007945557,-2.5281322638141077,6.115693199425497,1.0201029777526855,-2.237406555806295
1708436821.4304998,-2.14320707321167,-1.3344160330346604,-2.528130833302633,6.115672337799825,1.0201191902160645,-2.237382237111227
1708436821.4325206,-2.1431782245635986,-1.3344491136125107,-2.52816349664797,6.115700590401449,1.0201072692871094,-2.237340752278463
1708436821.434522,-2.1432433128356934,-1.334404156809189,-2.5281010309802454,6.115656006127157,1.0200906991958618,-2.237328831349508
1708436821.4365005,-2.1432275772094727,-1.3344202947667618,-2.5281670729266565,6.115702140122213,1.0201396942138672,-2.2373178640948694
1708436821.4385107,-2.143169641494751,-1.3344033819488068,-2.5281336943255823,6.115635144501486,1.020086407661438,-2.2373178640948694
1708436821.4405005,-2.1432363986968994,-1.3344406199506302,-2.5281835238086146,6.11569761016921,1.0201029777526855,-2.2373345533954065
1708436821.442515,-2.1431572437286377,-1.334368110900261,-2.5281100908862513,6.115664827614584,1.0201354026794434,-2.2372687498675745
1708436821.444526,-2.1432108879089355,-1.3343799722245713,-2.52816349664797,6.11569761016921,1.0201396942138672,-2.2372849623309534
1708436821.4465125,-2.1432108879089355,-1.3344202947667618,-2.5281878153430384,6.115672337799825,1.0201234817504883,-2.2373159567462366
1708436821.448527,-2.143202781677246,-1.3344364029220124,-2.5281294027911585,6.115702140122213,1.0201103687286377,-2.237258259450094
1708436821.4505124,-2.1432108879089355,-1.334396408205368,-2.5281413237201136,6.115667927056112,1.0201354026794434,-2.2372263113604944
1708436821.4525037,-2.1432197093963623,-1.3344244819930573,-2.5281716028796595,6.115705120354452,1.0201311111450195,-2.2372100988971155
1708436821.454519,-2.143198013305664,-1.3344202947667618,-2.5281909147845667,6.115644085198202,1.0200821161270142,-2.2371891180621546
1708436821.4565177,-2.1432363986968994,-1.3344083738378067,-2.52815825143923,6.115648495941915,1.0201396942138672,-2.237162415181295
1708436821.4584987,-2.143230438232422,-1.3343922656825562,-2.52821928659548,6.115635025292196,1.0201891660690308,-2.2371423880206507
1708436821.4605207,-2.1432154178619385,-1.3344322007945557,-2.5282161871539515,6.1156842587287805,1.020139217376709,-2.2371047178851526
1708436821.4625418,-2.143223285675049,-1.3344405901483078,-2.528202835713522,6.115681278496542,1.020167350769043,-2.2371066252337855
1708436821.4645169,-2.143218994140625,-1.3343964380076905,-2.528173271809713,6.115648495941915,1.0201222896575928,-2.2370808760272425
1708436821.4665062,-2.1431896686553955,-1.3343673211387177,-2.528255287800924,6.115610945015707,1.0201716423034668,-2.237013641987936
1708436821.4685094,-2.1432197093963623,-1.3344364178231736,-2.5282586256610315,6.115644085198202,1.0201305150985718,-2.2370222250567835
1708436821.4705005,-2.1432108879089355,-1.3344041419080277,-2.528259579335348,6.1156842587287805,1.0201349258422852,-2.2369936148272913
1708436821.4725192,-2.1431939601898193,-1.3344125759652634,-2.5282674471484583,6.115630614548483,1.0201958417892456,-2.2369821707354944
1708436821.4745462,-2.1432275772094727,-1.3344529134086152,-2.5282374064074915,6.11561535575942,1.020151138305664,-2.236880127583639
1708436821.4765315,-2.1431984901428223,-1.3344041419080277,-2.5282419363604944,6.115627276688375,1.0201921463012695,-2.2369306723224085
1708436821.4785154,-2.1432478427886963,-1.3343956035426636,-2.5283029715167444,6.115627276688375,1.020167350769043,-2.236878220235006
1708436821.4805014,-2.1432347297668457,-1.3343794804862519,-2.528283659611837,6.115669476776876,1.0201716423034668,-2.23688251176943
1708436821.4825013,-2.143256425857544,-1.3343672913363953,-2.5282300154315394,6.115636336594381,1.020151138305664,-2.2367971579181116
1708436821.4845123,-2.143202781677246,-1.3344852489284058,-2.5282867590533655,6.115648495941915,1.0201760530471802,-2.236819569264547
1708436821.4865007,-2.1431448459625244,-1.3344041121057053,-2.5282791296588343,6.115616905480184,1.020151138305664,-2.23676568666567
1708436821.488531,-2.1431615352630615,-1.334461362367012,-2.5282660166369837,6.115608083992758,1.020126223564148,-2.236725155507223
1708436821.4905078,-2.143223285675049,-1.3344406348517914,-2.5282538572894495,6.115565883904257,1.0202076435089111,-2.2367470900165003
1708436821.4925017,-2.1431870460510254,-1.3344083738378067,-2.5283165613757532,6.115648495941915,1.0201661586761475,-2.2366650740252894
1708436821.4945161,-2.1431827545166016,-1.3344448667815705,-2.5283029715167444,6.1156619665916345,1.020167350769043,-2.2366202513324183
1708436821.496555,-2.1431984901428223,-1.3344160628369828,-2.5283029715167444,6.115628826409139,1.0202155113220215,-2.2366259733783167
1708436821.4985056,-2.143223285675049,-1.3344160479358216,-2.5282462278949183,6.11561535575942,1.0201499462127686,-2.2365735212909144
1708436821.500549,-2.1432113647460938,-1.3343922209790726,-2.5282254854785364,6.115608083992758,1.0202120542526245,-2.236504856740133
1708436821.5024974,-2.143263578414917,-1.3343715232661744,-2.5282793680774134,6.115620004921713,1.0202155113220215,-2.2364895979510706
1708436821.5045035,-2.143162250518799,-1.3344656390002747,-2.528283659611837,6.1155584929283044,1.0202033519744873,-2.236486260090963
1708436821.5065017,-2.1431660652160645,-1.3344041419080277,-2.5282791296588343,6.115583884506979,1.0202242136001587,-2.23635179201235
1708436821.508545,-2.1432113647460938,-1.3344160628369828,-2.5282629171954554,6.1155437109764,1.0202199220657349,-2.2363484541522425
1708436821.5105119,-2.143162250518799,-1.3344287139228364,-2.5282791296588343,6.1155526516731165,1.0202274322509766,-2.236260239277975
1708436821.512532,-2.1432197093963623,-1.3344491136125107,-2.5282462278949183,6.115598904877462,1.02019464969635,-2.2362197081195276
1708436821.5145237,-2.143195629119873,-1.3343596023372193,-2.5282583872424524,6.11551986911849,1.0202199220657349,-2.2361725012408655
1708436821.516531,-2.1431703567504883,-1.3344287437251587,-2.5283165613757532,6.115513670235433,1.0202033519744873,-2.236091915761129
1708436821.518523,-2.143191337585449,-1.3344287139228364,-2.5282941500293177,6.11548529842452,1.020232915878296,-2.2360571066485804
1708436821.5205355,-2.1431870460510254,-1.33440753937278,-2.5283315817462366,6.1155303595359705,1.0202001333236694,-2.235968891774313
1708436821.52252,-2.143191337585449,-1.3344490689090271,-2.5283196608172815,6.115471946984091,1.0202076435089111,-2.235904041920797
1708436821.5245142,-2.1431703567504883,-1.3344322007945557,-2.5282629171954554,6.1154764769370935,1.0202033519744873,-2.2358201185809534
1708436821.5265417,-2.1431939601898193,-1.3344491583159943,-2.5283077398883265,6.115471946984091,1.0202242136001587,-2.235731903706686
1708436821.5285623,-2.143173933029175,-1.3344648343375702,-2.5282586256610315,6.115427243500509,1.0201661586761475,-2.235696617756979
1708436821.530509,-2.1432154178619385,-1.3344571006349106,-2.5282822291003626,6.115476357727804,1.0201871395111084,-2.235584561024801
1708436821.5325186,-2.143157958984375,-1.334371567969658,-2.528283659611837,6.11548529842452,1.02019464969635,-2.2354705969439905
1708436821.5345309,-2.1432156562805176,-1.3344125610641022,-2.5282703081714075,6.115464556008138,1.0201871395111084,-2.2353628317462366
1708436821.5365193,-2.1431870460510254,-1.3344405901483078,-2.5282660166369837,6.115464556008138,1.020198941230774,-2.2352989355670374
1708436821.5385036,-2.143195629119873,-1.334384263758995,-2.5282867590533655,6.115497219353475,1.0202033519744873,-2.2352002302752894
1708436821.540523,-2.1432154178619385,-1.3344117415002366,-2.528255049382345,6.115473377495565,1.0202076435089111,-2.2350948492633265
1708436821.5425048,-2.1431984901428223,-1.334404156809189,-2.528250757847921,6.115445124893942,1.0202112197875977,-2.234978977833883
1708436821.5445035,-2.1431703567504883,-1.334489406352379,-2.528271738682882,6.115480887680807,1.0202033519744873,-2.2348464171039026
1708436821.5465317,-2.1431827545166016,-1.334416077738144,-2.5282133261310022,6.115470397263326,1.0202274322509766,-2.234751049672262
1708436821.548515,-2.1431896686553955,-1.3344322007945557,-2.5282629171954554,6.115374791413107,1.0202155113220215,-2.2346022764789026
1708436821.5505033,-2.1431984901428223,-1.3344237220338364,-2.5282629171954554,6.11542426326827,1.0202155113220215,-2.2344797293292444
1708436821.552521,-2.1431291103363037,-1.3344364327243348,-2.5282374064074915,6.1154376147087,1.02019464969635,-2.234269444142477
1708436821.5544925,-2.143202781677246,-1.3344118011048813,-2.528313461934225,6.115425812989034,1.0202076435089111,-2.234138313923971
1708436821.5564997,-2.143191337585449,-1.334388018851616,-2.5282793680774134,6.115397202759542,1.0201871395111084,-2.234047238026754
1708436821.5584984,-2.143162250518799,-1.334411771302559,-2.528247658406393,6.115388142853536,1.0201705694198608,-2.233821217213766
1708436821.560501,-2.1431708335876465,-1.3344202947667618,-2.528304640446798,6.115409123688497,1.0201914310455322,-2.233746353779928
1708436821.5625324,-2.1431350708007812,-1.3344244968942185,-2.5282586256610315,6.115334260254659,1.020182728767395,-2.2335780302630823
1708436821.564534,-2.1431703567504883,-1.3343837571195145,-2.528283659611837,6.115418064385214,1.0201914310455322,-2.233405415211813
1708436821.5665145,-2.143153667449951,-1.3343921613744278,-2.5282955805407923,6.115364062577047,1.020167350769043,-2.2331603209124964
1708436821.5685449,-2.1432113647460938,-1.3344329756549378,-2.5282133261310022,6.115292656212606,1.020167350769043,-2.2330783049212855
1708436821.5705433,-2.143162250518799,-1.334396393304207,-2.5282912890063685,6.115343439369955,1.0201716423034668,-2.2329090277301233
1708436821.5725522,-2.1431307792663574,-1.3343511682799836,-2.5282462278949183,6.115316378861227,1.020167350769043,-2.2326839605914515
1708436821.574527,-2.143174648284912,-1.3344168674996872,-2.528238836918966,6.115317928581991,1.0201716423034668,-2.2325246969806116
1708436821.5765536,-2.1431708335876465,-1.3344287437251587,-2.5282674471484583,6.115297186165609,1.0200986862182617,-2.232344452534811
1708436821.5785224,-2.1430845260620117,-1.334416852598526,-2.5282629171954554,6.115334379463949,1.0201348066329956,-2.2321928183185022
1708436821.580541,-2.143153667449951,-1.3344007295421143,-2.5282791296588343,6.115292656212606,1.0201148986816406,-2.231988255177633
1708436821.5825272,-2.14320707321167,-1.3343757849982758,-2.528238836918966,6.115252125054159,1.0201148986816406,-2.2317965666400355
1708436821.5845203,-2.143153667449951,-1.3344571602395554,-2.528297011052267,6.115272867470541,1.0201265811920166,-2.2315595785724085
1708436821.586547,-2.1431379318237305,-1.334396393304207,-2.528210465108053,6.115290868073263,1.0201354026794434,-2.2312987486468714
1708436821.5885541,-2.143153667449951,-1.3344570708325882,-2.528201405202047,6.1153075573738,1.020070195198059,-2.2311185042010706
1708436821.5905058,-2.143146514892578,-1.3343837720206757,-2.5282300154315394,6.115277516632833,1.0200669765472412,-2.230893913899557
1708436821.5925252,-2.143162250518799,-1.3344279092601319,-2.5282257238971155,6.11527298667983,1.0201116800308228,-2.2307398954974573
1708436821.594513,-2.143155097961426,-1.3344287288239975,-2.528238836918966,6.115231144219198,1.0201116800308228,-2.230433766041891
1708436821.5965397,-2.1431832313537598,-1.334408388738968,-2.528280560170309,6.115262615471639,1.0200626850128174,-2.2302053610431116
1708436821.5985198,-2.143162250518799,-1.3343999695828934,-2.528201405202047,6.115229832917013,1.020087480545044,-2.2299450079547327
1708436821.6005447,-2.143146514892578,-1.3344202798656006,-2.528217856084005,6.115267026215353,1.0200626850128174,-2.229647938405172
1708436821.6025686,-2.1431140899658203,-1.3343715083650132,-2.528214756642477,6.115278947144308,1.0200626850128174,-2.229440514241354
1708436821.6045659,-2.1431307792663574,-1.3343838167241593,-2.528280560170309,6.115238773613729,1.0200550556182861,-2.229192558919088
1708436821.606546,-2.1431751251220703,-1.3344125312617798,-2.52820593515505,6.115270125656881,1.0200917720794678,-2.228907887135641
1708436821.6085255,-2.143146514892578,-1.3343638342669983,-2.528247658406393,6.115271556168356,1.0200681686401367,-2.228676144276754
1708436821.6105387,-2.143146514892578,-1.3344083589366456,-2.5282309691058558,6.115175831108846,1.020021915435791,-2.2283952871905726
1708436821.6125543,-2.143105983734131,-1.3343672913363953,-2.528247658406393,6.115205991059103,1.0200350284576416,-2.228185002003805
1708436821.6145184,-2.143155097961426,-1.3344659519246598,-2.52821928659548,6.115193831711569,1.0200512409210205,-2.2278431097613733
1708436821.6165915,-2.1431593894958496,-1.3344251823476334,-2.5282235781299036,6.1151699898536584,1.0200436115264893,-2.227546993886129
1708436821.6185122,-2.1431233882904053,-1.3344090741923829,-2.5282235781299036,6.115165579109945,1.0200318098068237,-2.227307144795553
1708436821.6205559,-2.143139362335205,-1.3343922060779114,-2.5282443205462855,6.115124928742208,1.019978404045105,-2.226945702229635
1708436821.6225371,-2.1430864334106445,-1.3343438071063538,-2.528202835713522,6.115120517998495,1.0199828147888184,-2.226711098347799
1708436821.6245108,-2.1431357860565186,-1.3343681556037446,-2.528186623250143,6.115120517998495,1.0199334621429443,-2.226356808339254
1708436821.62655,-2.143094301223755,-1.3343799722245713,-2.52821928659548,6.115150439530172,1.0199464559555054,-2.2260239760028284
1708436821.6285367,-2.1431357860565186,-1.3343403351357956,-2.5281835238086146,6.115099775582113,1.0199096202850342,-2.2256949583636683
1708436821.6305122,-2.1430776119232178,-1.3344330352595826,-2.5281501452075403,6.115086304932394,1.0199346542358398,-2.225429360066549
1708436821.6325517,-2.143131971359253,-1.3343964678100129,-2.5281339327441614,6.115099775582113,1.0198819637298584,-2.225100819264547
1708436821.6345272,-2.1430697441101074,-1.3344083589366456,-2.52813965479006,6.115099775582113,1.0199027061462402,-2.2247594038592737
1708436821.6365407,-2.1431190967559814,-1.3343396794847031,-2.5280936400042933,6.11501299121932,1.0198864936828613,-2.2243951002704065
1708436821.6385078,-2.1430907249450684,-1.3343681407025834,-2.5280829111682337,6.114981639176168,1.0198907852172852,-2.2240827719317835
1708436821.6405106,-2.1430864334106445,-1.3343880486539383,-2.5280500094043177,6.115017521172323,1.0199192762374878,-2.223750893269674
1708436821.6425302,-2.1430540084838867,-1.3344126653722306,-2.5280993620501917,6.1149847386176965,1.0198622941970825,-2.2233575026141565
1708436821.6445415,-2.1430540084838867,-1.3344372373870392,-2.5281127134906214,6.115023839264669,1.0198709964752197,-2.2229931990252894
1708436821.646564,-2.1430625915527344,-1.3344049465707322,-2.5280752817737024,6.114966618805685,1.0198709964752197,-2.222649399434225
1708436821.6485412,-2.143082618713379,-1.3344413948110123,-2.5280588308917444,6.114992248802938,1.019850492477417,-2.222219769154684
1708436821.6505334,-2.1430740356445312,-1.3344041419080277,-2.5279930273639124,6.114918696671285,1.0198590755462646,-2.221917454396383
1708436821.6525474,-2.1430583000183105,-1.3343757700971146,-2.528060261403219,6.114883172302999,1.0198185443878174,-2.221508328114645
1708436821.6545196,-2.143095016479492,-1.3344244819930573,-2.528084103261129,6.114817249565878,1.0197904109954834,-2.221102539693014
1708436821.6565435,-2.1430554389953613,-1.3344169122031708,-2.528010908757345,6.114790308266439,1.0197827816009521,-2.220678154622213
1708436821.658503,-2.14310359954834,-1.334449203019478,-2.528043810521261,6.1147873280342,1.019749641418457,-2.2203190962420862
1708436821.660796,-2.1430797576904297,-1.3343723577312012,-2.5279975573169153,6.114775407105245,1.0197216272354126,-2.219889465962545
1708436821.6625197,-2.143031597137451,-1.334355430012085,-2.528064791356222,6.114775407105245,1.0197465419769287,-2.2195022741900843
1708436821.6644967,-2.1430273056030273,-1.3344090443900605,-2.5279975573169153,6.114723074227133,1.0196974277496338,-2.2190821806537073
1708436821.666522,-2.143068313598633,-1.3343926233104249,-2.5279913584338587,6.114727484970846,1.0196774005889893,-2.2186034361468714
1708436821.6685486,-2.143003463745117,-1.3343681407025834,-2.528052870427267,6.114724623947897,1.0196948051452637,-2.2181671301471155
1708436821.6705341,-2.1429946422576904,-1.3343638640693207,-2.5279913584338587,6.11463354805068,1.019674301147461,-2.217820469533102
1708436821.6725307,-2.1430447101593018,-1.3343404245427628,-2.5279703775988978,6.114630329399862,1.0196382999420166,-2.2173689047442835
1708436821.6745534,-2.142974376678467,-1.3343480092338105,-2.527961556111471,6.114652740746298,1.0196055173873901,-2.216879669819967
1708436821.6765225,-2.143036365509033,-1.3343806874803086,-2.527982536946432,6.114607798844137,1.019630789756775,-2.2164114157306116
1708436821.6785157,-2.1429953575134277,-1.3343361926129838,-2.527954165135519,6.1145750162895105,1.019590139389038,-2.215921703969137
1708436821.6805205,-2.1429390907287598,-1.3343638342669983,-2.5279675165759485,6.114583956986227,1.019578218460083,-2.21546441713442
1708436821.6825316,-2.1429758071899414,-1.3343891960433503,-2.5279465357409876,6.114531862526693,1.019553303718567,-2.2149675528155726
1708436821.6845374,-2.1429686546325684,-1.334388480787613,-2.5279176870929163,6.114495861321249,1.019516944885254,-2.214496437703268
1708436821.6865475,-2.1429600715637207,-1.3343681556037446,-2.5279179255114954,6.114446270256796,1.0195879936218262,-2.214048210774557
1708436821.6885295,-2.14290714263916,-1.3343196374228974,-2.5278776327716272,6.114389645844259,1.0195419788360596,-2.2135594526873987
1708436821.6905208,-2.1429238319396973,-1.3343523454717179,-2.52796441713442,6.114383804589071,1.0195138454437256,-2.2130382696734827
1708436821.6925056,-2.142928123474121,-1.3343692284873505,-2.527914826069967,6.114345061569967,1.0195181369781494,-2.2126005331622522
1708436821.694562,-2.142855167388916,-1.33437234283004,-2.5278998056994837,6.114345061569967,1.019497275352478,-2.212057892476217
1708436821.6965258,-2.1429033279418945,-1.334401087169983,-2.5279608408557337,6.11432837226943,1.019482135772705,-2.211561981831686
1708436821.6985245,-2.1428961753845215,-1.3343723577312012,-2.527886454259054,6.1142804501350305,1.01944899559021,-2.2110207716571253
1708436821.7005463,-2.1428182125091553,-1.334320456986763,-2.527907435094015,6.114249217301168,1.0194501876831055,-2.210438076649801
1708436821.7025046,-2.1428186893463135,-1.3343450141004105,-2.5278623739825647,6.114168512612142,1.0194458961486816,-2.2099836508380335
1708436821.7045283,-2.1428020000457764,-1.3343085509589692,-2.52789551416506,6.114118921547689,1.019389271736145,-2.2094548384295862
1708436821.7065237,-2.1428186893463135,-1.3342921149781723,-2.5278549830066126,6.114084708481588,1.0193696022033691,-2.208958927785055
1708436821.708517,-2.1428236961364746,-1.334268332724907,-2.5278878847705286,6.11406825759963,1.0193573236465454,-2.208400551472799
1708436821.7105272,-2.1428232192993164,-1.3342444908669968,-2.5278011004077356,6.114001142769613,1.0193498134613037,-2.2078612486468714
1708436821.7125232,-2.1427950859069824,-1.3342970621636887,-2.5278309027301233,6.113980281143942,1.019358515739441,-2.2073448340045374
1708436821.7145019,-2.14280366897583,-1.334183858042099,-2.5278220812426966,6.113912570267477,1.0193257331848145,-2.2067702452289026
1708436821.7165143,-2.14277982711792,-1.3342452061227341,-2.527851645146505,6.113902318268575,1.019264578819275,-2.206320587788717
1708436821.7185216,-2.142775535583496,-1.33421644688163,-2.5278101603137415,6.113895165711202,1.0192569494247437,-2.205775562916891
1708436821.7205634,-2.1427841186523438,-1.3342298579267045,-2.527836863194601,6.11377643325881,1.019249439239502,-2.205238644276754
1708436821.7225342,-2.1427197456359863,-1.3342129451087494,-2.527823273335592,6.113750088005819,1.0192371606826782,-2.2047022024737757
1708436821.7246015,-2.14272403717041,-1.3341845285943528,-2.527832333241598,6.113664495735922,1.0192205905914307,-2.2041857878314417
1708436821.7265215,-2.1427154541015625,-1.3342256408980866,-2.527754608784811,6.113628852158346,1.0192502737045288,-2.2036660353290003
1708436821.7285535,-2.1427001953125,-1.3341896396926423,-2.5277424494372767,6.113589751511373,1.0192055702209473,-2.2031243483172815
1708436821.7305129,-2.1426877975463867,-1.3341653955033799,-2.527782980595724,6.113570558815756,1.0191901922225952,-2.202613178883688
1708436821.7325268,-2.1426353454589844,-1.3340925884297867,-2.5277543703662317,6.113584029465475,1.0191574096679688,-2.202076260243551
1708436821.7344992,-2.1426358222961426,-1.3341735166362305,-2.5277231375323694,6.113494264870443,1.0191411972045898,-2.2015393416034144
1708436821.7365222,-2.1425962448120117,-1.3341495853713532,-2.527781073247091,6.113406169205465,1.0191333293914795,-2.2009709517108362
1708436821.7384932,-2.1426048278808594,-1.3340932589820405,-2.527694288884298,6.113362657814779,1.0190882682800293,-2.2003477255450647
1708436821.7404962,-2.142551898956299,-1.3340890419534226,-2.5277019182788294,6.113385069161215,1.0190926790237427,-2.19985276857485
1708436821.7424898,-2.142585515975952,-1.3340771210244675,-2.527682367955343,6.113325583725729,1.019057035446167,-2.1993001143084925
1708436821.744495,-2.1424994468688965,-1.3341213029674073,-2.5276675860034388,6.113244521408834,1.019070029258728,-2.1987531820880335
1708436821.746504,-2.1425464153289795,-1.3340974611094971,-2.527637783681051,6.11320577838973,1.0190001726150513,-2.1981681028949183
1708436821.7485244,-2.1424672603607178,-1.3341016632369538,-2.527613703404562,6.11304138877944,1.018976092338562,-2.1975467840777796
1708436821.7505178,-2.1424927711486816,-1.3340487492135544,-2.527613703404562,6.113089310913839,1.0189440250396729,-2.1970060507403772
1708436821.7525399,-2.1424074172973633,-1.3340733808330079,-2.5275941530810755,6.112966763764181,1.0189440250396729,-2.1964014212237757
1708436821.7545094,-2.142456531524658,-1.3341016632369538,-2.527619187031881,6.11292456367568,1.0189158916473389,-2.195772949849264
1708436821.7565007,-2.1423799991607666,-1.3340733659318467,-2.5275896231280726,6.1128859398658655,1.018896222114563,-2.195164505635397
1708436821.7585106,-2.142381191253662,-1.334069089298584,-2.5275703112231653,6.112788426667013,1.0188930034637451,-2.194580380116598
1708436821.7605379,-2.1423768997192383,-1.3340213608792801,-2.5275281111346644,6.112780082016744,1.0188567638397217,-2.193991009389059
1708436821.762511,-2.1423568725585938,-1.3340452921441575,-2.527562443410055,6.112652289658346,1.0188524723052979,-2.1933983008014124
1708436821.764532,-2.142279624938965,-1.3340571981719513,-2.527583662663595,6.1126136658485315,1.018783688545227,-2.1928027311908167
1708436821.7665682,-2.142317771911621,-1.3340256971171875,-2.527583662663595,6.1125045893485925,1.0188294649124146,-2.1922557989703577
1708436821.7684977,-2.142268419265747,-1.3340010058930893,-2.5275428930865687,6.1124000428016565,1.0187922716140747,-2.1916001478778284
1708436821.7705123,-2.14227294921875,-1.3340010058930893,-2.5275102297412317,6.112386452942648,1.0187476873397827,-2.191049400960104
1708436821.772496,-2.142245292663574,-1.334029958849289,-2.5274818579303187,6.112294184952535,1.0187770128250122,-2.190403763447897
1708436821.7745025,-2.1422252655029297,-1.3339649152806778,-2.5275397936450403,6.112278926163473,1.0187321901321411,-2.1897786299334925
1708436821.7765431,-2.142148494720459,-1.3339814257672806,-2.5275114218341272,6.112190830498495,1.018675446510315,-2.1892269293414515
1708436821.7785354,-2.142165184020996,-1.3340147149613877,-2.527478281651632,6.112081753998556,1.018688440322876,-2.188582245503561
1708436821.7805138,-2.142137050628662,-1.333965854053833,-2.52744704881777,6.112039792328634,1.0186524391174316,-2.1879528204547327
1708436821.7825065,-2.1420936584472656,-1.333974452023842,-2.527458969746725,6.111999261170187,1.0186152458190918,-2.1872876326190394
1708436821.7845242,-2.1421093940734863,-1.3340027940324326,-2.527458969746725,6.1118812439735315,1.018594741821289,-2.1866992155658167
1708436821.7865007,-2.1420936584472656,-1.3339215827039261,-2.5273857752429407,6.111860739975729,1.0186078548431396,-2.1861403624164026
1708436821.7885373,-2.1419923305511475,-1.333953933124878,-2.5274110476123255,6.111800420075216,1.018543004989624,-2.185465637837545
1708436821.7905047,-2.142042398452759,-1.3339139086059113,-2.5273824373828333,6.111724364548483,1.0185726881027222,-2.18488580385317
1708436821.7925067,-2.1419849395751953,-1.333889753823616,-2.5273869673358362,6.111652362137594,1.0185236930847168,-2.184230152760641
1708436821.7944977,-2.1419620513916016,-1.3338940900615235,-2.527358595524923,6.1115153906639,1.0185291767120361,-2.1836140791522425
1708436821.7965038,-2.141908884048462,-1.333889753823616,-2.527367655430929,6.111530053406515,1.0184470415115356,-2.182936493550436
1708436821.7985268,-2.141880989074707,-1.333898351793625,-2.52733022371401,6.1114046452339075,1.0184556245803833,-2.1823323408709925
1708436821.800537,-2.1418216228485107,-1.333910585646965,-2.527339045201437,6.111370193749227,1.0184721946716309,-2.18168288866152
1708436821.8025024,-2.141805648803711,-1.3338659864715119,-2.5273435751544397,6.111295449524679,1.0184612274169922,-2.1810429731952112
1708436821.804536,-2.141740560531616,-1.3338504296592255,-2.5273104349719446,6.111196386605062,1.018375039100647,-2.1804431120501917
1708436821.8065183,-2.1417834758758545,-1.3338183921626587,-2.5272985140429896,6.111163842469015,1.0183967351913452,-2.1797903219806116
1708436821.8085475,-2.1417508125305176,-1.3338426661542435,-2.5273478666888636,6.111059295922079,1.0183509588241577,-2.179162327443258
1708436821.8105054,-2.141707420349121,-1.3338277798942109,-2.5272985140429896,6.110997783928671,1.0183517932891846,-2.178439442311422
1708436821.8125582,-2.141645669937134,-1.333789886241295,-2.5272327105151575,6.110903489380636,1.0182908773422241,-2.177836243306295
1708436821.8145,-2.1416220664978027,-1.3338069927743454,-2.5272703806506556,6.110830533295431,1.018336296081543,-2.1771672407733362
1708436821.8165026,-2.141634941101074,-1.3337215346148987,-2.527259174977438,6.110718476563253,1.0182876586914062,-2.1764987150775355
1708436821.8185153,-2.1415700912475586,-1.3337505620769043,-2.5272637049304407,6.110671865731039,1.0182514190673828,-2.1758697668658655
1708436821.8205452,-2.1415581703186035,-1.3337300431779404,-2.527259413396017,6.110600220948019,1.0182762145996094,-2.175241295491354
1708436821.8225312,-2.141531467437744,-1.3337267202189942,-2.5272398630725306,6.110534655838766,1.0182403326034546,-2.1745813528644007
1708436821.8245387,-2.1414413452148438,-1.3337071400931855,-2.527226511632101,6.110437142639913,1.0181782245635986,-2.173976246510641
1708436821.8265207,-2.141458511352539,-1.333714799290039,-2.527160946522848,6.110386597901144,1.018195629119873,-2.173352066670553
1708436821.828549,-2.1414108276367188,-1.3336301755956192,-2.5272398630725306,6.110277640610494,1.0182043313980103,-2.1727078596698206
1708436821.8305156,-2.1414194107055664,-1.3336668771556397,-2.5271742979632776,6.110144364624777,1.0181553363800049,-2.172105137501852
1708436821.8325133,-2.1413700580596924,-1.3336668771556397,-2.5271785894977015,6.11007701137618,1.018089771270752,-2.1714442412005823
1708436821.8345017,-2.1413393020629883,-1.33360609531913,-2.5271621386157435,6.109993326454916,1.018127679824829,-2.1707995573626917
1708436821.8365111,-2.1412532329559326,-1.333696113233902,-2.5271218458758753,6.109888541489401,1.018112301826477,-2.170243565236227
1708436821.8385227,-2.1412906646728516,-1.3336516332677384,-2.5271175543414515,6.109826075821676,1.0180305242538452,-2.1695779005633753
1708436821.8405008,-2.141235828399658,-1.3336103719523926,-2.527105156575338,6.10971091964797,1.0180633068084717,-2.1689823309527796
1708436821.8424916,-2.1412243843078613,-1.333550752406456,-2.527123037968771,6.109631645470419,1.0180068016052246,-2.168323342000143
1708436821.844508,-2.1411995887756348,-1.3336072725108643,-2.5271111170398157,6.109588134079733,1.0180197954177856,-2.1677234808551233
1708436821.846491,-2.141167640686035,-1.3335707497647782,-2.527172390614645,6.10948799827651,1.017942190170288,-2.1670988241778772
1708436821.8485093,-2.141118288040161,-1.3336157363704224,-2.5270662943469446,6.1093671200569055,1.0179791450500488,-2.1665027777301233
1708436821.8505204,-2.1410632133483887,-1.33357127130542,-2.5270827452289026,6.1093580601509,1.0179463624954224,-2.1658857504474085
1708436821.8525133,-2.141059398651123,-1.3335749220899125,-2.5271123091327112,6.1092415926750085,1.0179593563079834,-2.16526967683901
1708436821.854554,-2.1410186290740967,-1.3335105043700715,-2.5270751158343714,6.109153377800741,1.0179357528686523,-2.164652172719137
1708436821.8565328,-2.140958070755005,-1.3335474294475098,-2.526989761983053,6.109069692879476,1.017910122871399,-2.163987461720602
1708436821.8584929,-2.140984058380127,-1.3335352700999756,-2.5270424524890345,6.109009849816122,1.0179026126861572,-2.163381878529684
1708436821.8605251,-2.1409316062927246,-1.3335233491710206,-2.5270589033709925,6.108906495362081,1.0178664922714233,-2.1627710501300257
1708436821.862493,-2.1409449577331543,-1.3335352700999756,-2.527043883000509,6.108764397888937,1.0178664922714233,-2.1621702353106897
1708436821.8645377,-2.1408886909484863,-1.3334955734065552,-2.526994291936056,6.108725654869833,1.017797827720642,-2.1615379492389124
1708436821.8664935,-2.140864372253418,-1.3335241985372086,-2.527069155369894,6.108637559204855,1.0178227424621582,-2.160929505025045
1708436821.868529,-2.140852451324463,-1.3334670674851914,-2.527039353047506,6.10859106758193,1.0177946090698242,-2.1602986494647425
1708436821.8705196,-2.140798807144165,-1.3334918481162568,-2.5270074049579065,6.108533131867208,1.0177618265151978,-2.159689728413717
1708436821.8724992,-2.1407482624053955,-1.3334552359632035,-2.5270031134234827,6.108402836113729,1.0177167654037476,-2.159109894429342
1708436821.8745344,-2.1407315731048584,-1.3334552359632035,-2.5270031134234827,6.108422505646505,1.0176974534988403,-2.1584747473346155
1708436821.8765283,-2.1407079696655273,-1.3334680062583466,-2.5269296805011194,6.1082520363624475,1.017717957496643,-2.157825771962301
1708436821.8785052,-2.140702247619629,-1.3334268045476456,-2.5269671122180384,6.108189213066854,1.01768159866333,-2.1572545210467737
1708436821.880502,-2.1406326293945312,-1.3334481728127976,-2.52696401277651,6.108108389168539,1.0176773071289062,-2.1566370169269007
1708436821.8825076,-2.1406407356262207,-1.3334041398814698,-2.5269222895251673,6.108057486801901,1.017669677734375,-2.1559880415545862
1708436821.8845503,-2.1406211853027344,-1.3333749634078522,-2.526919190083639,6.107921349793234,1.0176416635513306,-2.155407253895895
1708436821.8864956,-2.1405937671661377,-1.3334084761193772,-2.526931111012594,6.107812273293295,1.0177119970321655,-2.1547773520099085
1708436821.888498,-2.1405529975891113,-1.3333552789739151,-2.526919190083639,6.1078154919441126,1.0176546573638916,-2.1541808287249964
1708436821.8905063,-2.1405344009399414,-1.3333757829717179,-2.52690297762026,6.10768078544692,1.0176262855529785,-2.1535633246051233
1708436821.892537,-2.140493869781494,-1.333343119626381,-2.526870075856344,6.107671963959493,1.0176262855529785,-2.1529348532306116
1708436821.8945138,-2.1404290199279785,-1.3333644580892106,-2.5268622080432337,6.107637512474813,1.0176271200180054,-2.1523292700396937
1708436821.8965352,-2.1404576301574707,-1.333299459224083,-2.5268877188311976,6.107532965927877,1.0176151990890503,-2.1517465750323694
1708436821.898525,-2.1404013633728027,-1.3333440583995362,-2.5268545786487024,6.107416498451986,1.0176194906234741,-2.1510518232928675
1708436821.9005256,-2.140385150909424,-1.3333159250072022,-2.5268548170672815,6.107352125435629,1.0175539255142212,-2.1505163351642054
1708436821.902544,-2.140328884124756,-1.3333122295192261,-2.5268383661853235,6.10725616195754,1.0175504684448242,-2.1498778502093714
1708436821.904532,-2.140293598175049,-1.3332963746837159,-2.5268383661853235,6.107172834664144,1.017497181892395,-2.1492398420916956
1708436821.906514,-2.140256881713867,-1.3332194250873108,-2.5268219153033655,6.10703061798171,1.0175057649612427,-2.1486242453204554
1708436821.9085178,-2.1402249336242676,-1.3332768690637131,-2.5268636385547083,6.106976496964254,1.0174939632415771,-2.1480353514300745
1708436821.9105191,-2.1402509212493896,-1.3332390052131196,-2.526818815861837,6.106896149903097,1.017432689666748,-2.1473692099200647
1708436821.9125507,-2.140170097351074,-1.3332896393588562,-2.526872460042135,6.1067988751228235,1.0174697637557983,-2.1467650572406214
1708436821.91451,-2.1401705741882324,-1.3332038533738633,-2.52682334581484,6.106744873314657,1.0174663066864014,-2.146123711262838
1708436821.916539,-2.140108823776245,-1.3331919324449082,-2.526818815861837,6.106715190201559,1.0174294710159302,-2.145534340535299
1708436821.9185317,-2.140134334564209,-1.3332124513438721,-2.526773754750387,6.106626975327291,1.0174381732940674,-2.144958798085348
1708436821.9205227,-2.1400299072265625,-1.3332493913224717,-2.526811424885885,6.106562602310934,1.0174227952957153,-2.1443522612201136
1708436821.9225354,-2.140042781829834,-1.3331433993628998,-2.52677828470339,6.10642825344161,1.017385721206665,-2.143715206776754
1708436821.9245312,-2.1400065422058105,-1.3331804287484665,-2.5267871061908167,6.106419193535604,1.0173864364624023,-2.143191639577047
1708436821.9265466,-2.1400070190429688,-1.3331442487290879,-2.526733462010519,6.106294977455892,1.0173702239990234,-2.142599407826559
1708436821.9285588,-2.1399338245391846,-1.3331485849669953,-2.5267916361438196,6.1062848446662805,1.0173335075378418,-2.1419857184039515
1708436821.9305282,-2.139890432357788,-1.3331442487290879,-2.52675444284548,6.1062084315116785,1.0173702239990234,-2.1413725058185022
1708436821.9325485,-2.139890670776367,-1.3331244301847,-2.5267751852618616,6.1060382006462,1.0173377990722656,-2.140848938618795
1708436821.9345217,-2.139920234680176,-1.3331324172071,-2.5267303625689905,6.106056201248922,1.0173089504241943,-2.140238110219137
1708436821.9365566,-2.1398677825927734,-1.3330878180316468,-2.5267916361438196,6.105915534287252,1.0172852277755737,-2.139665428792135
1708436821.9385173,-2.1398234367370605,-1.3331049245646973,-2.5267184416400355,6.105820047646322,1.0172532796859741,-2.1391409079181116
1708436821.9405134,-2.139786720275879,-1.3331006628325959,-2.526727263127462,6.105769145279684,1.0172576904296875,-2.1386120955096644
1708436821.942518,-2.1397433280944824,-1.3330887419036408,-2.526710573826925,6.105733382492819,1.0172532796859741,-2.1380680243121546
1708436821.94454,-2.139774799346924,-1.3331305396607895,-2.5267062822925013,6.105670320778646,1.0172655582427979,-2.137465302144186
1708436821.9465268,-2.139707088470459,-1.3330572259477158,-2.526694361363546,6.105549204140463,1.0172587633132935,-2.13694936433901
1708436821.9485075,-2.139711380004883,-1.3330895912698288,-2.526731793080465,6.1054656384284876,1.0172621011734009,-2.1363685766803187
1708436821.95052,-2.1396381855010986,-1.3330496561578293,-2.526677910481588,6.105393874436178,1.0172706842422485,-2.1357420126544397
1708436821.9525363,-2.1396031379699707,-1.3330212247422715,-2.526682440434591,6.105293381005087,1.0172216892242432,-2.1352675596820276
1708436821.9544902,-2.1396403312683105,-1.3330539178899308,-2.526682440434591,6.105263817101278,1.0171931982040405,-2.134686295186178
1708436821.956529,-2.1396167278289795,-1.332993136053421,-2.5267120043383997,6.1051920531089685,1.0171889066696167,-2.1341093222247522
1708436821.958513,-2.1395435333251953,-1.3330093187144776,-2.526658360158102,6.105115759163656,1.0172063112258911,-2.1335275808917444
1708436821.9605157,-2.139516592025757,-1.3329964590123673,-2.526679340993063,6.105024683266439,1.0171648263931274,-2.132995907460348
1708436821.9625447,-2.139479875564575,-1.3329479408315201,-2.5266626516925257,6.104967701226034,1.017166018486023,-2.132395092641012
1708436821.9645038,-2.139500141143799,-1.332972378735878,-2.5267000834094446,6.1049245474632166,1.0171691179275513,-2.1318581740008753
1708436821.9665074,-2.139439582824707,-1.3329607856324692,-2.5266268889056605,6.104812371521749,1.017145037651062,-2.1313212553607386
1708436821.9685276,-2.1393792629241943,-1.3329532158425828,-2.5266223589526575,6.104738938599386,1.0171375274658203,-2.1307600180255335
1708436821.970495,-2.1393792629241943,-1.3329778474620362,-2.5266597906695765,6.104676115303793,1.0171093940734863,-2.130162541066305
1708436821.972529,-2.139388084411621,-1.3329085272601624,-2.5266385714160364,6.104611861496725,1.0171136856079102,-2.1296704451190394
1708436821.9745083,-2.139340400695801,-1.3329451394132157,-2.526651922856466,6.104516255646505,1.0171136856079102,-2.129117790852682
1708436821.976554,-2.1393163204193115,-1.332990662460663,-2.5266640822040003,6.104489552765646,1.0170924663543701,-2.1285555998431605
1708436821.978507,-2.1393041610717773,-1.3328800958446045,-2.526684824620382,6.104429590493002,1.0171055793762207,-2.128012005482809
1708436821.9805224,-2.139284610748291,-1.3329290461591263,-2.5266552607165735,6.104374158173361,1.017073154449463,-2.127507034932272
1708436821.982548,-2.1392369270324707,-1.3328967106393357,-2.526635710393087,6.104293453484335,1.0171024799346924,-2.126937214528219
1708436821.9845197,-2.139277458190918,-1.3329137426665802,-2.5266597906695765,6.104300963669576,1.0170905590057373,-2.1264169851886194
1708436821.9865139,-2.139216423034668,-1.3329298955253144,-2.526656452809469,6.104182708054342,1.0170533657073975,-2.1258681456195276
1708436821.9885163,-2.1391849517822266,-1.3328810346177598,-2.5266640822040003,6.1041637537773035,1.017069935798645,-2.125282112752096
1708436821.9904952,-2.139197826385498,-1.3328130108169098,-2.5266030470477503,6.104087102204122,1.017004370689392,-2.124790970479147
1708436821.992539,-2.139103889465332,-1.3328576397946854,-2.526623789464132,6.104090559273519,1.0170458555221558,-2.124225918446676
1708436821.9945304,-2.139129161834717,-1.33289389431987,-2.526607338582174,6.103930580406942,1.0169965028762817,-2.1237333456622522
1708436821.9965231,-2.139118194580078,-1.332894728784897,-2.5265665690051478,6.103903400688925,1.0170379877090454,-2.1232360045062464
1708436821.9985173,-2.1390647888183594,-1.3328462106040497,-2.526590887700216,6.103823053627767,1.0169975757598877,-2.122585121785299
1708436822.0005085,-2.139069080352783,-1.3328333509019394,-2.526550356541769,6.103783714562216,1.016977071762085,-2.122082058583395
1708436822.0025086,-2.139049530029297,-1.33278542876754,-2.5266030470477503,6.103735792427816,1.0170226097106934,-2.1215737501727503
1708436822.0045137,-2.138988971710205,-1.3328257662108918,-2.5265665690051478,6.103725659638204,1.0169647932052612,-2.121033016835348
1708436822.006496,-2.1390018463134766,-1.3328428727439423,-2.526562277470724,6.103588092118063,1.0169202089309692,-2.1205032507525843
1708436822.0085733,-2.1390018463134766,-1.3328181070140381,-2.5265472571002405,6.103598463326254,1.0169320106506348,-2.119978729878561
1708436822.010507,-2.138948917388916,-1.332773597245552,-2.5265756289111536,6.103510367661276,1.0169779062271118,-2.1194542090045374
1708436822.0125241,-2.138974189758301,-1.3328666400960465,-2.526505772267477,6.103396522789755,1.0169123411178589,-2.1189125219928187
1708436822.014537,-2.138885498046875,-1.3328394901803513,-2.5265472571002405,6.103356349259176,1.0168797969818115,-2.118420426045553
1708436822.016532,-2.138847589492798,-1.332826704984047,-2.5265920797931116,6.103387701302328,1.0169613361358643,-2.1179001967059534
1708436822.0185106,-2.138882875442505,-1.3327940267375489,-2.526576821004049,6.103332268982687,1.0169376134872437,-2.1173537413226526
1708436822.0205317,-2.138795852661133,-1.332749755387642,-2.5265308062182825,6.103266703873434,1.0169538259506226,-2.116862122212545
1708436822.022525,-2.138862133026123,-1.3327335727265854,-2.526564900075094,6.103150117188253,1.0169419050216675,-2.1163371245013636
1708436822.0245368,-2.1387929916381836,-1.3327454936555405,-2.526532236729757,6.103151547699728,1.0169178247451782,-2.1158531347857874
1708436822.0265036,-2.138821601867676,-1.3327570867589493,-2.5265191237079065,6.103042590409078,1.01689612865448,-2.115311924611227
1708436822.0285244,-2.138749599456787,-1.3327548962882538,-2.5265279451953333,6.1030722735221765,1.016892910003662,-2.114786450062887
1708436822.0305088,-2.1387341022491455,-1.332730160360672,-2.526499334965841,6.103024351387777,1.0168640613555908,-2.1143019835101526
1708436822.0325375,-2.138789653778076,-1.3326813590577622,-2.5265472571002405,6.102931725769796,1.0168894529342651,-2.113776508961813
1708436822.034535,-2.138763904571533,-1.3327008944800873,-2.5265234152423304,6.102846491127767,1.0168728828430176,-2.1132925192462366
1708436822.0365062,-2.1387035846710205,-1.3327103567174454,-2.5264905134784144,6.102819788246908,1.0168566703796387,-2.1128156820880335
1708436822.0385141,-2.138685703277588,-1.3327265244773407,-2.526532236729757,6.10275553443984,1.0168806314468384,-2.1123607794391077
1708436822.040516,-2.1386942863464355,-1.3327430200627823,-2.526508156453268,6.1027331230934045,1.01680326461792,-2.111871067677633
1708436822.0425055,-2.138650417327881,-1.332714558844902,-2.526487175618307,6.102688061981954,1.0169146060943604,-2.1113560835467737
1708436822.044522,-2.1386497020721436,-1.3326864850572129,-2.526503864918844,6.102600085526266,1.0168161392211914,-2.110912624989645
1708436822.0465174,-2.1386380195617676,-1.332686499958374,-2.526511255894796,6.102613436966696,1.0167996883392334,-2.110403839741842
1708436822.0485454,-2.1386423110961914,-1.3327026826194306,-2.52645451227297,6.102577435761251,1.0168328285217285,-2.109950367604391
1708436822.050512,-2.1386265754699707,-1.33267434061084,-2.526475254689352,6.1025744555290125,1.0168404579162598,-2.1094687620746058
1708436822.0525649,-2.1385815143585205,-1.3326822233251114,-2.526499334965841,6.102517592697897,1.0168490409851074,-2.1089757124530237
1708436822.0545344,-2.1385412216186523,-1.3326786023429413,-2.526470963154928,6.1024443981941126,1.0168249607086182,-2.108516041432516
1708436822.0565062,-2.1385498046875,-1.332653821711876,-2.526417080556051,6.10235475280837,1.0168083906173706,-2.1080105940448206
1708436822.0585256,-2.138554096221924,-1.3326743704131623,-2.526470963154928,6.1023669121559045,1.0168293714523315,-2.1075175444232386
1708436822.060518,-2.1385412216186523,-1.332653821711876,-2.526442591344015,6.1023833630378626,1.0168039798736572,-2.107105557118551
1708436822.0625427,-2.1385269165039062,-1.33267434061084,-2.526479784642355,6.102335440903463,1.0167800188064575,-2.106673542653219
1708436822.0644999,-2.138546943664551,-1.3326423180154343,-2.526479784642355,6.102217185288229,1.0167843103408813,-2.1061771551715296
1708436822.0665274,-2.138540029525757,-1.332637996678688,-2.5264347235309046,6.102176773339071,1.0167518854141235,-2.105729881917135
1708436822.0685337,-2.13848614692688,-1.332593486910202,-2.526458803807394,6.102223145752706,1.016800880432129,-2.1052849928485315
1708436822.070563,-2.138540506362915,-1.332659290438034,-2.52645451227297,6.102108227997579,1.0168083906173706,-2.1048534552203577
1708436822.0725486,-2.1384458541870117,-1.3326223504594346,-2.526417080556051,6.102076756745138,1.016796588897705,-2.1043666044818323
1708436822.0744984,-2.138434410095215,-1.3326388162425538,-2.5264886061297815,6.102094638138571,1.0167810916900635,-2.103898827229635
1708436822.076502,-2.1384544372558594,-1.332630918627121,-2.5264468828784388,6.102056014328756,1.0167887210845947,-2.1034820715533655
1708436822.0784974,-2.1384177207946777,-1.3325773638537903,-2.5264559427844446,6.102039325028219,1.0167529582977295,-2.1029723326312464
1708436822.080526,-2.138409376144409,-1.3326309335282822,-2.526475254689352,6.101982342987814,1.0167853832244873,-2.102577511464254
1708436822.0824995,-2.138495445251465,-1.3326061379960557,-2.526449982319967,6.101986872940817,1.0167973041534424,-2.1021278540240687
1708436822.0844986,-2.138463020324707,-1.3326602441123505,-2.5264559427844446,6.101955640106954,1.0167725086212158,-2.101691548024313
1708436822.0864942,-2.1384761333465576,-1.3326394718936463,-2.526513640080587,6.101910936623373,1.0167810916900635,-2.1011927763568323
1708436822.0885262,-2.1384437084198,-1.3326431524804612,-2.526458803807394,6.101910936623373,1.0167529582977295,-2.1007936636554163
1708436822.090489,-2.1384479999542236,-1.3325820577195664,-2.5264304319964808,6.101867425232687,1.016756296157837,-2.100344483052389
1708436822.0925224,-2.138439416885376,-1.332610474233963,-2.5264514128314417,6.101900326996603,1.0168061256408691,-2.099891487752096
1708436822.0944963,-2.138460397720337,-1.3326223206571122,-2.5264347235309046,6.101838815003195,1.0167853832244873,-2.0995033423053187
1708436822.096506,-2.1384687423706055,-1.3325497072986145,-2.5264273325549524,6.1018597958381555,1.0167648792266846,-2.099058453236715
1708436822.0985322,-2.1384353637695312,-1.3325583052686234,-2.526447121297018,6.1018197415168665,1.0167529582977295,-2.098659340535299
1708436822.1005037,-2.138394355773926,-1.332610474233963,-2.5264392534839075,6.101827370911398,1.0167691707611084,-2.0982096830951136
1708436822.1025252,-2.138456106185913,-1.3326147359660645,-2.5264318625079554,6.101819860726156,1.0167529582977295,-2.0978310743915003
1708436822.1044867,-2.1383986473083496,-1.3325615686229249,-2.5264139811145228,6.101815449982443,1.0167486667633057,-2.097443405781881
1708436822.1064985,-2.138390064239502,-1.3325857085040589,-2.5264435450183313,6.101856696396627,1.0167399644851685,-2.0969489256488245
1708436822.1085398,-2.1383986473083496,-1.332610474233963,-2.5264304319964808,6.101840722351827,1.0167855024337769,-2.096532646809713
1708436822.1104875,-2.1384153366088867,-1.3326678437045594,-2.526409689580099,6.101840722351827,1.0167360305786133,-2.096173111592428
1708436822.112507,-2.138361930847168,-1.332631842499115,-2.5264676252948206,6.101815449982443,1.0167529582977295,-2.0957234541522425
1708436822.1144907,-2.1384353637695312,-1.3326105189374466,-2.5264230410205286,6.101833331375875,1.0167605876922607,-2.0953434149371546
1708436822.1165133,-2.1384522914886475,-1.3325734597495575,-2.5264602343188685,6.101874696999349,1.0167486667633057,-2.094919506703512
1708436822.1185224,-2.138373374938965,-1.332622305755951,-2.5264273325549524,6.10187195518569,1.0167443752288818,-2.094494644795553
1708436822.120498,-2.1383819580078125,-1.3326233488372345,-2.5264435450183313,6.101877677231588,1.0167198181152344,-2.0941136519061487
1708436822.1224957,-2.1383986473083496,-1.3325863194516678,-2.5264273325549524,6.101803052216329,1.0167360305786133,-2.093665901814596
1708436822.1245472,-2.1384153366088867,-1.3326028150371094,-2.5264273325549524,6.1018433449561975,1.0167486667633057,-2.0932496229754847
1708436822.1265323,-2.1384029388427734,-1.3326233339360734,-2.5264230410205286,6.101822840958395,1.0167691707611084,-2.092869583760397
1708436822.1285336,-2.1383776664733887,-1.3325668585351487,-2.5264392534839075,6.101843464165487,1.0167198181152344,-2.0924556891070765
1708436822.1305416,-2.1384196281433105,-1.3326147359660645,-2.5264392534839075,6.101849782257833,1.0167486667633057,-2.092038933430807
1708436822.132512,-2.1384353637695312,-1.3326351654580613,-2.5264063517199915,6.101838815003195,1.0167605876922607,-2.091675106679098
1708436822.1345148,-2.1384029388427734,-1.3326560121825715,-2.5264018217669886,6.101918208390035,1.0167198181152344,-2.09129506746401
1708436822.1365516,-2.138406753540039,-1.3325829964927216,-2.5264437834369105,6.101855265885153,1.0167399644851685,-2.090924088154928
1708436822.1385155,-2.138390064239502,-1.3326028150371094,-2.5264347235309046,6.101904737740316,1.0167853832244873,-2.090466324483053
1708436822.140514,-2.1383986473083496,-1.3325292778066178,-2.5264559427844446,6.101892936020651,1.0167648792266846,-2.0900853315936487
1708436822.1425228,-2.1384310722351074,-1.332618997698166,-2.526438061391012,6.101870286255636,1.0167853832244873,-2.089661423360006
1708436822.144542,-2.138368844985962,-1.3326560121825715,-2.5264559427844446,6.101933467179098,1.0167810916900635,-2.0892890135394495
1708436822.146509,-2.1384224891662598,-1.3326351356557389,-2.5264185110675257,6.101936328202047,1.0167486667633057,-2.0889137426959437
1708436822.1485252,-2.138411045074463,-1.3326190125993271,-2.5264435450183313,6.101948249131002,1.0167605876922607,-2.088519875203268
1708436822.1505036,-2.138373374938965,-1.3326189827970047,-2.5264347235309046,6.101948249131002,1.0167399644851685,-2.0881198088275355
1708436822.1525092,-2.138411045074463,-1.3326147359660645,-2.5264230410205286,6.101988422661581,1.0167486667633057,-2.087731663380758
1708436822.1545348,-2.1384267807006836,-1.3326028299382706,-2.526479784642355,6.101970422058859,1.0167274475097656,-2.0873106161700647
1708436822.1565065,-2.138460159301758,-1.3325906705907364,-2.5264721552478235,6.102040993958273,1.0167648792266846,-2.0869463125811976
1708436822.1585104,-2.138411045074463,-1.3326388162425538,-2.5264139811145228,6.10204695442275,1.0167605876922607,-2.0865543524371546
1708436822.1605432,-2.1384310722351074,-1.332557351594307,-2.5264185110675257,6.102117049485006,1.0167810916900635,-2.086137119923727
1708436822.1625152,-2.1384224891662598,-1.3325906556895752,-2.5264886061297815,6.102096187859335,1.0167725086212158,-2.085757080708639
1708436822.1645067,-2.138402223587036,-1.332618997698166,-2.5264514128314417,6.102061497956075,1.0167930126190186,-2.0854337851153772
1708436822.166496,-2.138402223587036,-1.332618997698166,-2.5264721552478235,6.102144229203024,1.0167800188064575,-2.0850451628314417
1708436822.1685212,-2.138417959213257,-1.3326233339360734,-2.5263972918139856,6.102163541107931,1.016812801361084,-2.084672753010885
1708436822.1705046,-2.138402223587036,-1.332651675944664,-2.5264392534839075,6.102147090225973,1.0168259143829346,-2.0842960516559046
1708436822.172525,-2.138456106185913,-1.3326645207456131,-2.5264721552478235,6.102199303894796,1.016796588897705,-2.083895508443014
1708436822.1745005,-2.138458728790283,-1.332639531498291,-2.5264514128314417,6.1022095558936975,1.0167800188064575,-2.083498779927389
1708436822.1765013,-2.138458728790283,-1.3326147508672257,-2.5264468828784388,6.102259146958151,1.016812801361084,-2.0831592718707483
1708436822.1784914,-2.138491153717041,-1.3326351803592225,-2.526449982319967,6.102303850441732,1.016850233078003,-2.082761589680807
1708436822.1805115,-2.138463020324707,-1.3326189678958436,-2.5264843145953577,6.102288710861959,1.016816258430481,-2.082377258931295
1708436822.1825428,-2.138474464416504,-1.332577795987465,-2.5264514128314417,6.102362382202902,1.0168328285217285,-2.0820496718036097
1708436822.1845286,-2.1384787559509277,-1.3326303970864792,-2.526438061391012,6.102374303131857,1.016874074935913,-2.0816801230060022
1708436822.1865268,-2.1385035514831543,-1.3326635372689744,-2.526421610509054,6.102392065316,1.016893744468689,-2.081369225178854
1708436822.1885068,-2.13847017288208,-1.3326189678958436,-2.5265005270587366,6.102438437729635,1.0168894529342651,-2.0810535589801233
1708436822.190551,-2.138564348220825,-1.332630918627121,-2.526470963154928,6.10257767417983,1.0169060230255127,-2.0806973616229456
1708436822.1925428,-2.1385018825531006,-1.3325899553349991,-2.52649170557131,6.102551805763998,1.0168806314468384,-2.0802882353412073
1708436822.1944919,-2.1385269165039062,-1.3326351505569,-2.52645451227297,6.1025744555290125,1.0169538259506226,-2.079996411000387
1708436822.1965115,-2.1385064125061035,-1.3326309037259598,-2.526466433201925,6.102631437569418,1.0169494152069092,-2.0796449820147913
1708436822.1984954,-2.138493299484253,-1.332630918627121,-2.5264840761767786,6.102633940964498,1.0169451236724854,-2.079275910054342
1708436822.20055,-2.1385269165039062,-1.3326678735068818,-2.5264959971057337,6.102748143463888,1.0169538259506226,-2.0789111296283167
1708436822.2025201,-2.138554096221924,-1.33265075207267,-2.5264959971057337,6.102743732720175,1.0169538259506226,-2.078587357197897
1708436822.2045326,-2.1385788917541504,-1.3326223355582734,-2.526499334965841,6.102764475136556,1.016970157623291,-2.0781896750079554
1708436822.2065558,-2.1385412216186523,-1.3326466095498581,-2.526470963154928,6.10279272773818,1.016973614692688,-2.07784873643984
1708436822.2085445,-2.1385703086853027,-1.3326624196818848,-2.526479784642355,6.10283778884963,1.0169692039489746,-2.0775578657733362
1708436822.2105122,-2.138601779937744,-1.3326549989036103,-2.526466433201925,6.102876412659445,1.0169932842254639,-2.077205006276266
1708436822.212548,-2.13861083984375,-1.3326870214990159,-2.526438061391012,6.102945196419515,1.017001986503601,-2.076893154774801
1708436822.2145224,-2.138615131378174,-1.33267434061084,-2.5264914671527308,6.103049862175741,1.0170226097106934,-2.076510731373922
1708436822.216556,-2.13862943649292,-1.3326786023429413,-2.526499334965841,6.103040802269735,1.0170130729675293,-2.0762651602374476
1708436822.2185113,-2.138617992401123,-1.332633690243103,-2.526520077382223,6.103079783707418,1.0170173645019531,-2.0759080092059534
1708436822.2205207,-2.138716459274292,-1.332682729964592,-2.52653676668276,6.1031367657478235,1.0170501470565796,-2.075571362172262
1708436822.2225568,-2.1387364864349365,-1.3326009970954438,-2.52651554742922,6.103150117188253,1.0170161724090576,-2.0752103964435022
1708436822.2245455,-2.1386990547180176,-1.3326581579497834,-2.5265279451953333,6.1032066223915,1.0170817375183105,-2.0749152342425745
1708436822.226548,-2.1387147903442383,-1.3327393692782898,-2.5264905134784144,6.103315937310018,1.0170774459838867,-2.07459527650942
1708436822.228546,-2.138648271560669,-1.3327273738435288,-2.5265279451953333,6.1033774493034265,1.0171267986297607,-2.074221913014547
1708436822.2305052,-2.1387176513671875,-1.33267434061084,-2.526572291051046,6.103408682137289,1.017118215560913,-2.073913876210348
1708436822.2325747,-2.138746738433838,-1.3326699894717713,-2.526544157658712,6.103459584503927,1.0171550512313843,-2.0735862890826624
1708436822.2345076,-2.138730049133301,-1.3327307564071198,-2.5265384356128138,6.103499996453085,1.017080545425415,-2.073233429585592
1708436822.2365773,-2.1387739181518555,-1.3327265095761796,-2.5265265146838587,6.103555190354147,1.0171711444854736,-2.072941605244772
1708436822.238513,-2.138760805130005,-1.332738758330681,-2.5265679995166224,6.103550541191854,1.017177939414978,-2.0725768248187464
1708436822.2405381,-2.138765335083008,-1.3326899123242875,-2.5265665690051478,6.103692757874288,1.0171822309494019,-2.0722692648517054
1708436822.2425363,-2.138767957687378,-1.332718850379326,-2.526607338582174,6.103691208153524,1.0171778202056885,-2.0719478766070765
1708436822.2445312,-2.1388015747070312,-1.332644374375679,-2.526557747517721,6.103737580567159,1.017197608947754,-2.0716283957110804
1708436822.2465334,-2.138805866241455,-1.3327146184495469,-2.526640001927511,6.1038105366523645,1.017225980758667,-2.0713208357440394
1708436822.2485125,-2.1388297080993652,-1.3327463281205674,-2.5266311804400843,6.103818404465475,1.01719331741333,-2.070975128804342
1708436822.2505002,-2.1388211250305176,-1.3327463430217286,-2.526635710393087,6.103910910874166,1.0171966552734375,-2.0706713835345667
1708436822.2525492,-2.1388778686523438,-1.33275060475383,-2.5266686121570032,6.103922951012411,1.0172619819641113,-2.070338551198141
1708436822.254511,-2.1388492584228516,-1.3327017736485978,-2.5265939871417444,6.10393654087142,1.017274260520935,-2.0700672308551233
1708436822.2565482,-2.138874053955078,-1.332766817217209,-2.5266431013690394,6.10398422458724,1.0172576904296875,-2.069644276295797
1708436822.2585075,-2.138892650604248,-1.3327343326858063,-2.5266597906695765,6.103979694634237,1.0173026323318481,-2.069406334553854
1708436822.2605183,-2.138937473297119,-1.3327463430217286,-2.5266760031329554,6.1040066359336755,1.0172860622406006,-2.069052044545309
1708436822.2625294,-2.1389260292053223,-1.3327634048512955,-2.526684824620382,6.10413812378005,1.0173263549804688,-2.0687902609454554
1708436822.2645552,-2.138969898223877,-1.3328026098063965,-2.5267253557788294,6.104144084244528,1.0173134803771973,-2.068451229725973
1708436822.26651,-2.1389288902282715,-1.3327741038850327,-2.5266509691821497,6.104212868004598,1.0173702239990234,-2.068155590687887
1708436822.268522,-2.138993978500366,-1.3327378344586869,-2.5266626516925257,6.104232179909506,1.0173944234848022,-2.0678070227252405
1708436822.2705142,-2.1389613151550293,-1.3327656549266358,-2.526691261922018,6.104244100838461,1.0174357891082764,-2.067572895680563
1708436822.27252,-2.139009952545166,-1.3327812117389222,-2.526665989552633,6.104324805527487,1.0174140930175781,-2.067239586506979
1708436822.2745047,-2.138988971710205,-1.332798258667328,-2.526682440434591,6.104311454087057,1.0173975229263306,-2.066913906727926
1708436822.2765055,-2.139021396636963,-1.3328266602805634,-2.5266955534564417,6.1043609259422205,1.0174262523651123,-2.0666430632220667
1708436822.2785087,-2.139050006866455,-1.3327845346978684,-2.526694361363546,6.104416358261862,1.0174140930175781,-2.0663188139544886
1708436822.280522,-2.139070749282837,-1.3328623634627839,-2.5266853014575403,6.104456412583151,1.0174543857574463,-2.0660060087787073
1708436822.2825184,-2.139044761657715,-1.3328300279429932,-2.526740614567892,6.104475843697347,1.0174219608306885,-2.0657222906695765
1708436822.2845566,-2.139040470123291,-1.3328376871398468,-2.526745144520895,6.104535686760702,1.0174620151519775,-2.0654500166522425
1708436822.2865279,-2.139101028442383,-1.332862378363945,-2.5267348925219935,6.104554998665609,1.0174741744995117,-2.0651171843158167
1708436822.2885144,-2.139072895050049,-1.3328548085740586,-2.5267062822925013,6.104611980706014,1.0174741744995117,-2.0648744742022913
1708436822.2905002,-2.139096736907959,-1.3328538698009034,-2.5267601648913782,6.104627001076498,1.017523169517517,-2.064573589955465
1708436822.2925198,-2.1391334533691406,-1.3328746271184464,-2.5267601648913782,6.104749667435446,1.0174939632415771,-2.0643227736102503
1708436822.2945313,-2.13914155960083,-1.3328660291484375,-2.5267470518695276,6.104677784233846,1.0175057649612427,-2.0640247503863733
1708436822.2965455,-2.1391162872314453,-1.3328938645175477,-2.526743475590841,6.104742038040914,1.0175180435180664,-2.063725296651022
1708436822.2985182,-2.1391372680664062,-1.3328660738519211,-2.5267797152148646,6.104770290642538,1.0175504684448242,-2.063464943562643
1708436822.3005254,-2.1391444206237793,-1.332837702041008,-2.5267558733569544,6.10482274272994,1.017562747001648,-2.063090149556295
1708436822.3025172,-2.1391892433166504,-1.3328862202218552,-2.526820246373312,6.104830252915182,1.0175461769104004,-2.0629246870623987
1708436822.304518,-2.1391682624816895,-1.33283685267482,-2.526766363774435,6.10491834858016,1.0175583362579346,-2.0626114050494593
1708436822.3065076,-2.139171838760376,-1.3328533482602616,-2.5268078486071985,6.104925858765402,1.0176194906234741,-2.0623024145709437
1708436822.3085327,-2.1392416954040527,-1.3328494739583512,-2.5268071333514612,6.105006444245138,1.017573595046997,-2.0620420614825647
1708436822.310509,-2.139216423034668,-1.332905800347664,-2.526799027119772,6.104954468994894,1.0176109075546265,-2.06177789369692
1708436822.3125148,-2.139299154281616,-1.332914264207222,-2.526835266743795,6.105008232384481,1.017622709274292,-2.0615180174456995
1708436822.3145146,-2.139260768890381,-1.3329667013934632,-2.5268636385547083,6.105057465821066,1.0176184177398682,-2.061277691517965
1708436822.316515,-2.139260768890381,-1.3328411442092438,-2.526835266743795,6.105102050095358,1.0176262855529785,-2.0610087553607386
1708436822.3185234,-2.139228343963623,-1.3329058152488251,-2.526872460042135,6.1051381705100916,1.0176424980163574,-2.060733143483297
1708436822.3205547,-2.139284610748291,-1.332905800347664,-2.526835266743795,6.105157482414999,1.0176959037780762,-2.0604522863971155
1708436822.322539,-2.1393582820892334,-1.332897202377655,-2.5268755594836634,6.1051517603691,1.0176795721054077,-2.06020433107485
1708436822.324534,-2.139256000518799,-1.3329665672830124,-2.526879851018087,6.105184542923727,1.017654538154602,-2.059977356587545
1708436822.3265414,-2.1393041610717773,-1.3328886193088074,-2.526835266743795,6.105183112412252,1.017707347869873,-2.059737030659811
1708436822.3285325,-2.139291763305664,-1.3329418313554307,-2.5268831888781946,6.10526071765975,1.0177559852600098,-2.0594242254840296
1708436822.3305314,-2.1393120288848877,-1.332953767185547,-2.526836935673849,6.105292308121481,1.0177428722381592,-2.059199635182516
1708436822.332503,-2.1393120288848877,-1.33291711032901,-2.5268831888781946,6.105369913368978,1.0177515745162964,-2.0589802900897425
1708436822.3344991,-2.1393771171569824,-1.3329342615655442,-2.5268920103656214,6.105363833695211,1.0177266597747803,-2.0587356726275843
1708436822.3364997,-2.139392852783203,-1.3328882169774552,-2.5268502871142786,6.105453479080953,1.017706036567688,-2.0584715048419397
1708436822.3385048,-2.139357089996338,-1.3329702329686661,-2.5268786589251917,6.105420696526327,1.0177748203277588,-2.0582149664508265
1708436822.3405073,-2.1393799781799316,-1.3329744947007676,-2.526939932500021,6.105485069542684,1.0177958011627197,-2.0580161253558558
1708436822.3424976,-2.139409065246582,-1.3329494458488007,-2.526893917714254,6.10548351982192,1.0178120136260986,-2.0577519575702112
1708436822.3445292,-2.139388084411621,-1.3330017191222687,-2.5269487539874476,6.105495440750875,1.0177661180496216,-2.05751878419985
1708436822.3465252,-2.1393749713897705,-1.3329724681428452,-2.52690297762026,6.105524050980367,1.0177618265151978,-2.057270352040426
1708436822.3485243,-2.1394243240356445,-1.3330059212497254,-2.5269058386432093,6.1055266735847376,1.0178313255310059,-2.057037655507223
1708436822.35051,-2.139441728591919,-1.333010123377182,-2.526910368596212,6.105580675392904,1.017802119255066,-2.0567811171161097
1708436822.3525672,-2.1394200325012207,-1.3330179017833252,-2.526910368596212,6.105619656830587,1.0178598165512085,-2.056554142628805
1708436822.3545318,-2.1394243240356445,-1.3329973828843613,-2.52692681947817,6.105594265251913,1.0178970098495483,-2.056312386189596
1708436822.3565335,-2.139411449432373,-1.3330059212497254,-2.5269625822650355,6.105635988503256,1.0178511142730713,-2.0561421553241175
1708436822.3585334,-2.139432907104492,-1.333013580446579,-2.5269551912890833,6.105635988503256,1.0178546905517578,-2.0558889547931116
1708436822.3605216,-2.1395015716552734,-1.3329724085382004,-2.5269671122180384,6.105670320778646,1.0178468227386475,-2.0556486288653772
1708436822.362524,-2.139436721801758,-1.3330093336156388,-2.5269880930529993,6.105742084770956,1.0179154872894287,-2.055457417164938
1708436822.3645327,-2.139407157897949,-1.3330453348210831,-2.5269838015185755,6.105734574585714,1.017891764640808,-2.05519944826235
1708436822.3665118,-2.1394553184509277,-1.3330288541368027,-2.52693754831423,6.105788218766012,1.017919898033142,-2.055000607167379
1708436822.3685439,-2.1394805908203125,-1.333028794532158,-2.5270031134234827,6.105774748116293,1.0179154872894287,-2.0547803084002894
1708436822.3705359,-2.1394848823547363,-1.3330452901175995,-2.5270074049579065,6.1057870266731165,1.0179154872894287,-2.054502789174215
1708436822.3724952,-2.1394762992858887,-1.3330649000457306,-2.5269911924945276,6.105774748116293,1.0179188251495361,-2.054347817097799
1708436822.3745084,-2.1394972801208496,-1.3330895912698288,-2.5270348230945032,6.105794417649069,1.01792311668396,-2.0541356245623987
1708436822.3765213,-2.1394596099853516,-1.3330529791167756,-2.527092997227804,6.105806338578024,1.0179755687713623,-2.0539639631854456
1708436822.3785083,-2.1394596099853516,-1.3330938828042527,-2.527043883000509,6.105790006905355,1.0179431438446045,-2.053739372883932
1708436822.3805091,-2.1394243240356445,-1.3331058335355301,-2.527072016392843,6.105797278672018,1.0179953575134277,-2.053502384816305
1708436822.3825283,-2.1394553184509277,-1.3330972653678437,-2.527088467274801,6.105867731362142,1.0179625749588013,-2.05327016512026
1708436822.38455,-2.1394481658935547,-1.3331134778312226,-2.527083937321798,6.105863201409139,1.0179791450500488,-2.0530360380755823
1708436822.386522,-2.139443874359131,-1.3331006181291123,-2.527088467274801,6.105830418854513,1.0180119276046753,-2.0528581778155726
1708436822.388519,-2.1394410133361816,-1.3330972504666825,-2.5271244684802454,6.105790006905355,1.0179945230484009,-2.052677933369772
1708436822.3905468,-2.1394200325012207,-1.3331244748881836,-2.5270989576922815,6.105851399689474,1.0180197954177856,-2.052457634602682
1708436822.3925252,-2.139432430267334,-1.33313304305587,-2.5270825068103235,6.105770337372579,1.0180511474609375,-2.052285973225729
1708436822.394547,-2.13938307762146,-1.333189846282341,-2.527106825505392,6.105855810433187,1.0180588960647583,-2.0520766417132776
1708436822.3965662,-2.139404773712158,-1.3331366640380402,-2.527130905781881,6.105806338578024,1.018071174621582,-2.0519331137286585
1708436822.3985243,-2.1394243240356445,-1.3331898611835022,-2.5271547476397913,6.105780946999349,1.0180786848068237,-2.0516637007342737
1708436822.4005296,-2.1394460201263428,-1.333176926975586,-2.5271382967578333,6.105843889504232,1.0181114673614502,-2.0515335241900843
1708436822.4025192,-2.1393842697143555,-1.3332337153008957,-2.52717096010317,6.105780946999349,1.0181114673614502,-2.0513041655169886
1708436822.404523,-2.1393966674804688,-1.3332005155137558,-2.5271831194507044,6.105807888298788,1.018130898475647,-2.0511167685138147
1708436822.406513,-2.139357089996338,-1.3332494658282776,-2.5272398630725306,6.105742323189535,1.0181920528411865,-2.0509522596942347
1708436822.4085042,-2.1393535137176514,-1.3332246106914063,-2.527259174977438,6.105659711151876,1.0182130336761475,-2.050756279622213
1708436822.4105175,-2.1393251419067383,-1.3332768690637131,-2.527238670979635,6.1056628105934045,1.0182359218597412,-2.050612751637594
1708436822.4125073,-2.1393256187438965,-1.333256022339203,-2.527308766041891,6.105577575951376,1.018273115158081,-2.0504687468158167
1708436822.4145346,-2.1392483711242676,-1.333309219484665,-2.5272956530200403,6.105540382653036,1.0182881355285645,-2.050300423298971
1708436822.4165444,-2.1392245292663574,-1.3333207827857514,-2.527339045201437,6.105583536415853,1.0183007717132568,-2.05012017885317
1708436822.418516,-2.1391472816467285,-1.3333407950452347,-2.527371946965353,6.105571734696188,1.018320083618164,-2.049938980733053
1708436822.4205325,-2.1391444206237793,-1.3333363992026825,-2.527384106312887,6.105498420983114,1.0183604955673218,-2.0497830549823206
1708436822.4225564,-2.139108180999756,-1.3333559793284913,-2.5273736158954065,6.105491030007162,1.0184011459350586,-2.049631420766012
1708436822.4245152,-2.139051914215088,-1.333384321337082,-2.5274558703051966,6.105480658798971,1.0183923244476318,-2.0494311491595667
1708436822.4265351,-2.139049530029297,-1.3333758127740403,-2.5274558703051966,6.105393874436178,1.018416166305542,-2.049290482197897
1708436822.4285395,-2.138944149017334,-1.333439679150917,-2.5274952093707483,6.105383503227987,1.0184940099716187,-2.049166981373922
1708436822.4305089,-2.138888359069824,-1.3334481430104752,-2.5275278727160853,6.105351912766256,1.0184438228607178,-2.0489781538592737
1708436822.4325318,-2.1387994289398193,-1.3334475767663498,-2.5275636355029505,6.105221974640646,1.0184884071350098,-2.048809830342428
1708436822.434506,-2.13875675201416,-1.3334842038205643,-2.5276086966144007,6.105159270554342,1.01853346824646,-2.0487025419818323
1708436822.4364996,-2.138648271560669,-1.3334918183139344,-2.5275865236865442,6.105132210045614,1.0185441970825195,-2.0485380331622522
1708436822.4385335,-2.138580083847046,-1.3335560274175187,-2.5276270548449915,6.105002271920004,1.018588900566101,-2.0483983198748987
1708436822.4405403,-2.1384973526000977,-1.3335883778384705,-2.5276764074908655,6.1049349186714075,1.0185517072677612,-2.0482333342181605
1708436822.4425297,-2.138380765914917,-1.3336316359094162,-2.527703348790304,6.104893076210775,1.0186045169830322,-2.0480850378619593
1708436822.4445133,-2.1382856369018555,-1.3336360466531296,-2.527731959019796,6.104727017670431,1.0186326503753662,-2.047957722340719
1708436822.446511,-2.138176918029785,-1.33360310018573,-2.5277722517596644,6.104680645256796,1.0186982154846191,-2.047854725514547
1708436822.4485202,-2.138078451156616,-1.333655745988228,-2.527766291295187,6.104495274811544,1.0187005996704102,-2.0476654211627405
1708436822.4505317,-2.1378865242004395,-1.3337113869241257,-2.527860705052511,6.1044009802635095,1.018769383430481,-2.0475285688983362
1708436822.45252,-2.13777494430542,-1.3337028932622452,-2.5278382937060755,6.104265200882711,1.0188175439834595,-2.047457996998922
1708436822.4545028,-2.137639284133911,-1.333759070639946,-2.5279489199267786,6.1040676710899255,1.018837332725525,-2.047309700642721
1708436822.456505,-2.1374387741088867,-1.3338320565274735,-2.527923647557394,6.103989946633138,1.0189061164855957,-2.047206226979391
1708436822.4584906,-2.137307643890381,-1.3338631850532074,-2.5279465357409876,6.103794562607565,1.018921136856079,-2.0471423308001917
1708436822.4604962,-2.1371240615844727,-1.3338375997594376,-2.527994219456808,6.103704798012533,1.0189571380615234,-2.0469492117511194
1708436822.4625018,-2.136953115463257,-1.333837480550148,-2.5280514399157923,6.103493916779318,1.0190293788909912,-2.0469144026385706
1708436822.4645,-2.1367573738098145,-1.3339309853366395,-2.5281036535846155,6.10338174083785,1.0190937519073486,-2.0468180815326136
1708436822.466503,-2.1365292072296143,-1.3339710098556061,-2.52812630334963,6.10311113575057,1.01914644241333,-2.0467103163348597
1708436822.468498,-2.1362900733947754,-1.3339820367148896,-2.5281804243670862,6.102886903076925,1.0192229747772217,-2.0466631094561976
1708436822.4704926,-2.1360745429992676,-1.334051014190056,-2.528214756642477,6.102750885277548,1.0192337036132812,-2.0464757124530237
1708436822.472512,-2.1358182430267334,-1.3340341311744233,-2.5282867590533655,6.102484452515402,1.0193016529083252,-2.0463889280902308
1708436822.4745018,-2.135589838027954,-1.334049553876259,-2.5283270517932337,6.102339970856466,1.0193748474121094,-2.046321694050924
1708436822.4765506,-2.1353871822357178,-1.3341059994748612,-2.528404776250021,6.10208414772109,1.0194556713104248,-2.046270195637838
1708436822.4785247,-2.1351418495178223,-1.3341094267419358,-2.5284395853625696,6.101793873101034,1.0194940567016602,-2.0461328665362757
1708436822.4805288,-2.1348941326141357,-1.3341937971166153,-2.5285161177264612,6.101555096894064,1.0195631980895996,-2.0460813681231897
