Eg3-git/Classifiers/Data Collection/u5/u5abc3_ur3e_joint_states.csv
time,elbow_joint,shoulder_lift_joint,shoulder_pan_joint,wrist_1_joint,wrist_2_joint,wrist_3_joint
1708436865.1704931,-2.1419758796691895,-1.3335365814021607,-2.526447121297018,6.110763299256124,1.016921043395996,-2.857427183781759
1708436865.1725285,-2.1420300006866455,-1.3334963780692597,-2.5264273325549524,6.11080943325118,1.0169451236724854,-2.8573809305774134
1708436865.1745043,-2.141989231109619,-1.3335233491710206,-2.52645451227297,6.110772239952841,1.0169376134872437,-2.8574183622943323
1708436865.1764932,-2.142037868499756,-1.3334997755340119,-2.5264557043658655,6.110800611763754,1.0169332027435303,-2.8573809305774134
1708436865.1784906,-2.1420557498931885,-1.3335157495788117,-2.5264349619494837,6.110763299256124,1.0169332027435303,-2.8574345747577112
1708436865.180492,-2.1420061588287354,-1.3334997457316895,-2.5264676252948206,6.110813963204183,1.0168884992599487,-2.857410732899801
1708436865.1824841,-2.1420254707336426,-1.3334667545608063,-2.5264719168292444,6.1107767699058435,1.016921043395996,-2.857403580342428
1708436865.1845205,-2.142010450363159,-1.3335130673697968,-2.5264392534839075,6.110818373947897,1.0169289112091064,-2.8573735396014612
1708436865.1864996,-2.1419970989227295,-1.3335529130748291,-2.5264359156238,6.110772239952841,1.0168960094451904,-2.8573899904834192
1708436865.1885037,-2.1420388221740723,-1.333539680843689,-2.526447836552755,6.11078559139327,1.0169625282287598,-2.8573809305774134
1708436865.190492,-2.1419928073883057,-1.3334997457316895,-2.5264020601855677,6.110793101578512,1.0169048309326172,-2.857422653828756
1708436865.192488,-2.1420300006866455,-1.3334681552699585,-2.5264273325549524,6.110793101578512,1.0169289112091064,-2.8573854605304163
1708436865.1944768,-2.1420185565948486,-1.3334997457316895,-2.5264349619494837,6.110736477165975,1.016970157623291,-2.8573735396014612
1708436865.196496,-2.1419835090637207,-1.3334699434093018,-2.526418749486105,6.110818373947897,1.0169289112091064,-2.857378069554464
1708436865.1985092,-2.1419970989227295,-1.3334743541530152,-2.526409927998678,6.110727655678549,1.0168884992599487,-2.857361618672506
1708436865.2004714,-2.1420094966888428,-1.3334712547114869,-2.5264392534839075,6.1106780646140955,1.016921043395996,-2.8574019114123743
1708436865.2024643,-2.1420209407806396,-1.3335144382766266,-2.5264108816729944,6.110793101578512,1.0169332027435303,-2.8574183622943323
1708436865.2044923,-2.1420185565948486,-1.3335739833167572,-2.5264151732074183,6.110797512322225,1.016909122467041,-2.8574138323413294
1708436865.206473,-2.1420342922210693,-1.3334954243949433,-2.5264316240893763,6.110818373947897,1.016953945159912,-2.8573809305774134
1708436865.2084901,-2.1420016288757324,-1.3334549230388184,-2.5264349619494837,6.11074839809493,1.0169494152069092,-2.8573690096484583
1708436865.2105076,-2.1420514583587646,-1.3335233491710206,-2.526458803807394,6.110818373947897,1.016924500465393,-2.8574019114123743
1708436865.2124777,-2.1420209407806396,-1.3334830415299912,-2.5264273325549524,6.110793101578512,1.016953945159912,-2.857410732899801
1708436865.2144763,-2.1420228481292725,-1.3334830862334748,-2.5264435450183313,6.110772239952841,1.016953945159912,-2.8573809305774134
1708436865.2164752,-2.1420094966888428,-1.333507017498352,-2.526442591344015,6.110825884133138,1.0169376134872437,-2.857422653828756
1708436865.2184658,-2.142042636871338,-1.3334787648967286,-2.526447836552755,6.110773670464315,1.016892910003662,-2.8573854605304163
1708436865.2204766,-2.1419928073883057,-1.3335246604732056,-2.5264230410205286,6.11080943325118,1.016942024230957,-2.8574019114123743
1708436865.2224846,-2.1419804096221924,-1.3334580224803467,-2.5264063517199915,6.1107767699058435,1.016942024230957,-2.8574345747577112
1708436865.2245057,-2.141984701156616,-1.3334681552699585,-2.5264349619494837,6.110743987351217,1.0168719291687012,-2.8573766390429896
1708436865.2265053,-2.1419970989227295,-1.3335770827582856,-2.5264599959002894,6.1107767699058435,1.0169494152069092,-2.8573525587665003
1708436865.2285,-2.1419928073883057,-1.3335320812514802,-2.5264392534839075,6.110772239952841,1.0169376134872437,-2.8573735396014612
1708436865.2305443,-2.141984701156616,-1.3334536117366333,-2.5264435450183313,6.110739576607504,1.0169867277145386,-2.8573690096484583
1708436865.2325158,-2.14200496673584,-1.3335320812514802,-2.5264514128314417,6.11078559139327,1.0169451236724854,-2.857394282017843
1708436865.2344851,-2.1420185565948486,-1.3334549230388184,-2.5264230410205286,6.110813963204183,1.0169332027435303,-2.8573647181140345
1708436865.2365096,-2.1419970989227295,-1.33350424588237,-2.5264392534839075,6.1107767699058435,1.0169332027435303,-2.8573721090899866
1708436865.238494,-2.1419970989227295,-1.3334919971278687,-2.5264273325549524,6.11076174953536,1.0168960094451904,-2.857378069554464
1708436865.240496,-2.1420300006866455,-1.3334549230388184,-2.5264020601855677,6.11078559139327,1.016921043395996,-2.8573721090899866
1708436865.2425184,-2.1420185565948486,-1.333507017498352,-2.5264316240893763,6.110781180649557,1.0169122219085693,-2.8573854605304163
1708436865.244498,-2.1420140266418457,-1.333507017498352,-2.526440445576803,6.110755908280172,1.0169376134872437,-2.857422653828756
1708436865.246513,-2.1419758796691895,-1.3334875863841553,-2.5264230410205286,6.1107603190238855,1.0169451236724854,-2.857406202946798
1708436865.2485042,-2.1419599056243896,-1.3334997457316895,-2.526418749486105,6.110769259720602,1.0169376134872437,-2.8573854605304163
1708436865.2504873,-2.1420140266418457,-1.333495394592621,-2.5264151732074183,6.110721337586202,1.0169744491577148,-2.8573973814593714
1708436865.2525327,-2.14200496673584,-1.333508626823761,-2.5264480749713343,6.110778200417318,1.016970157623291,-2.8573809305774134
1708436865.2544796,-2.1420140266418457,-1.3335157495788117,-2.5264480749713343,6.110810863762655,1.0169657468795776,-2.8573392073260706
1708436865.256518,-2.1420140266418457,-1.3334712547114869,-2.5264108816729944,6.1107767699058435,1.0169408321380615,-2.8573690096484583
1708436865.2585337,-2.142059326171875,-1.3335157197764893,-2.5264273325549524,6.110781180649557,1.0169408321380615,-2.8573854605304163
1708436865.2604828,-2.142037868499756,-1.3334667545608063,-2.5264392534839075,6.110830294876852,1.0169451236724854,-2.8573735396014612
1708436865.2625098,-2.1419880390167236,-1.3334386211684723,-2.5264349619494837,6.110739576607504,1.0169494152069092,-2.8574019114123743
1708436865.2644782,-2.1419758796691895,-1.333475650554039,-2.526447836552755,6.110855924874105,1.0169122219085693,-2.8573735396014612
1708436865.2665222,-2.1419777870178223,-1.3334997457316895,-2.5264020601855677,6.110773670464315,1.0169494152069092,-2.8573482672320765
1708436865.268516,-2.1419758796691895,-1.3335130971721192,-2.526447121297018,6.110797512322225,1.0169122219085693,-2.8573690096484583
1708436865.2704787,-2.14194393157959,-1.3335352402976532,-2.5264108816729944,6.110727655678549,1.0169289112091064,-2.857410732899801
1708436865.272512,-2.1420016288757324,-1.3334593784860154,-2.5264316240893763,6.110802042275228,1.0169332027435303,-2.8573766390429896
1708436865.2744825,-2.1419713497161865,-1.3334624034217377,-2.5264151732074183,6.110719787865438,1.0169451236724854,-2.8573601881610315
1708436865.276514,-2.14200496673584,-1.3335352700999756,-2.5264359156238,6.110836255341329,1.0169408321380615,-2.8573482672320765
1708436865.2784867,-2.1420228481292725,-1.3334461015513916,-2.5264273325549524,6.110773670464315,1.0169451236724854,-2.8573392073260706
1708436865.2804935,-2.1420300006866455,-1.333462418322899,-2.526447836552755,6.110743987351217,1.0169613361358643,-2.8574166933642786
1708436865.2825062,-2.1420230865478516,-1.3335202497294922,-2.5264316240893763,6.11074839809493,1.016994595527649,-2.857406202946798
1708436865.284522,-2.1420388221740723,-1.3334866029075165,-2.5264602343188685,6.110790121346273,1.0169200897216797,-2.8573885599719446
1708436865.2865348,-2.1420469284057617,-1.3335291010192414,-2.526447836552755,6.110810863762655,1.0169408321380615,-2.8573527971850794
1708436865.288512,-2.1420016288757324,-1.3334667843631287,-2.526418749486105,6.110773670464315,1.0169408321380615,-2.8573809305774134
1708436865.2904985,-2.1420094966888428,-1.3334712547114869,-2.5264304319964808,6.110818373947897,1.0169692039489746,-2.8574019114123743
1708436865.292496,-2.1419529914855957,-1.3334756803563614,-2.5264762083636683,6.11070345619277,1.0169780254364014,-2.8573973814593714
1708436865.2945094,-2.1420388221740723,-1.3335497987321396,-2.5264063517199915,6.110736477165975,1.0169780254364014,-2.8573854605304163
1708436865.29651,-2.142010450363159,-1.3334830862334748,-2.5264108816729944,6.1107332585151575,1.0170108079910278,-2.8573482672320765
1708436865.2984905,-2.1420300006866455,-1.33349101365123,-2.5264645258532923,6.110755908280172,1.0169901847839355,-2.8573899904834192
1708436865.300482,-2.1419689655303955,-1.333527759914734,-2.5264514128314417,6.110813963204183,1.0169823169708252,-2.8573854605304163
1708436865.302509,-2.142000436782837,-1.3334788096002121,-2.526480738316671,6.11074839809493,1.0169657468795776,-2.8573885599719446
1708436865.3044968,-2.1419804096221924,-1.3334830862334748,-2.526447836552755,6.110781180649557,1.0169813632965088,-2.8574181238757532
1708436865.3065314,-2.142059326171875,-1.33350424588237,-2.5264108816729944,6.110810863762655,1.0169275999069214,-2.8573928515063685
1708436865.3085167,-2.1419804096221924,-1.3335157644799729,-2.5264645258532923,6.110794532089987,1.0169692039489746,-2.8573840300189417
1708436865.3105338,-2.1420469284057617,-1.3335440915874024,-2.526436154042379,6.110810863762655,1.0170150995254517,-2.8574093023883265
1708436865.3125281,-2.1420140266418457,-1.333495409493782,-2.5264349619494837,6.11078559139327,1.0169603824615479,-2.8573601881610315
1708436865.314486,-2.1420140266418457,-1.3334787648967286,-2.5264392534839075,6.110743987351217,1.016952633857727,-2.8574138323413294
1708436865.3165069,-2.142063856124878,-1.3334830862334748,-2.5264108816729944,6.110745417862692,1.0170108079910278,-2.8573840300189417
1708436865.3184927,-2.1420388221740723,-1.3334997308305283,-2.5264316240893763,6.110752928047933,1.0170021057128906,-2.8573809305774134
1708436865.3204985,-2.1420254707336426,-1.333508626823761,-2.5264392534839075,6.110741007118978,1.0170108079910278,-2.8573973814593714
1708436865.3225374,-2.1420185565948486,-1.3334756654552002,-2.5264108816729944,6.11078559139327,1.0169975757598877,-2.8574183622943323
1708436865.3245187,-2.1420228481292725,-1.3335202944329758,-2.5264273325549524,6.11076174953536,1.0169813632965088,-2.8573840300189417
1708436865.3265138,-2.1420886516571045,-1.3335334968617936,-2.5264316240893763,6.110790121346273,1.016956090927124,-2.8574257532702845
1708436865.3285077,-2.1419711112976074,-1.3334875863841553,-2.5264273325549524,6.110778200417318,1.0169613361358643,-2.8574510256396692
1708436865.3304892,-2.1420061588287354,-1.333540902738907,-2.5264273325549524,6.110752928047933,1.0169408321380615,-2.8574019114123743
1708436865.332511,-2.14200496673584,-1.333508626823761,-2.5264230410205286,6.110732066422262,1.0170094966888428,-2.8574376741992396
1708436865.3344889,-2.1420094966888428,-1.333495394592621,-2.5264557043658655,6.110810982971945,1.0169363021850586,-2.8574345747577112
1708436865.3365319,-2.1419928073883057,-1.3334504824927826,-2.5264349619494837,6.110793101578512,1.0170183181762695,-2.8574093023883265
1708436865.3384936,-2.1420388221740723,-1.3334756803563614,-2.5264514128314417,6.110766279488363,1.0169647932052612,-2.8573928515063685
1708436865.340507,-2.1420300006866455,-1.333478720193245,-2.5264185110675257,6.110715377121725,1.0169975757598877,-2.8573644796954554
1708436865.3425052,-2.1420185565948486,-1.333475650554039,-2.5264273325549524,6.110787141114034,1.0169726610183716,-2.8574093023883265
1708436865.3445015,-2.1420209407806396,-1.33346243322406,-2.526418749486105,6.110741007118978,1.01698899269104,-2.8574004809008997
1708436865.346521,-2.142063856124878,-1.3335333925536652,-2.5264435450183313,6.110797512322225,1.0169975757598877,-2.8573854605304163
1708436865.348496,-2.141984701156616,-1.3334712547114869,-2.5264273325549524,6.110741007118978,1.0170139074325562,-2.8574464956866663
1708436865.3505123,-2.142063856124878,-1.3334997457316895,-2.5264316240893763,6.110773670464315,1.016956090927124,-2.8574047724353235
1708436865.3525143,-2.14200496673584,-1.333459348683693,-2.5264108816729944,6.1107767699058435,1.017005205154419,-2.8573885599719446
1708436865.3545008,-2.1419970989227295,-1.333507002597191,-2.5264514128314417,6.110764848976888,1.017005205154419,-2.8574636618243616
1708436865.356503,-2.1419732570648193,-1.3334624034217377,-2.5264020601855677,6.110773670464315,1.0169639587402344,-2.8573883215533655
1708436865.3585079,-2.1420016288757324,-1.3334830564311524,-2.5264108816729944,6.110769259720602,1.017005205154419,-2.8574257532702845
1708436865.360496,-2.1420094966888428,-1.3335157346776505,-2.5264230410205286,6.110743987351217,1.0169975757598877,-2.8574002424823206
1708436865.362489,-2.1420388221740723,-1.333540992145874,-2.526403252278463,6.110781180649557,1.0169963836669922,-2.8573883215533655
1708436865.3644917,-2.1419880390167236,-1.3335246604732056,-2.5264557043658655,6.110778200417318,1.0169813632965088,-2.8573957125293177
1708436865.3664954,-2.1419970989227295,-1.3335069876960297,-2.526447836552755,6.110742437630453,1.01698899269104,-2.8574121634112757
1708436865.3685203,-2.1419711112976074,-1.33349201202903,-2.5264304319964808,6.110782730370321,1.0169975757598877,-2.857457462941305
1708436865.3705292,-2.142042398452759,-1.3335246604732056,-2.5264764467822474,6.110794532089987,1.016977071762085,-2.8573840300189417
1708436865.372502,-2.1420016288757324,-1.333495409493782,-2.5264273325549524,6.110797512322225,1.01698899269104,-2.8574257532702845
1708436865.374487,-2.1420342922210693,-1.3335202497294922,-2.5264273325549524,6.110698926239767,1.0169813632965088,-2.8574546019183558
1708436865.376525,-2.1420254707336426,-1.33350424588237,-2.5263903776751917,6.11078559139327,1.017033576965332,-2.8574591318713587
1708436865.3784847,-2.1420016288757324,-1.3335246604732056,-2.526426140462057,6.110736477165975,1.01698899269104,-2.8573911825763147
1708436865.3804908,-2.1419928073883057,-1.33350424588237,-2.526463333760397,6.110773670464315,1.0170261859893799,-2.857436482106344
1708436865.382478,-2.1420061588287354,-1.3334876012853165,-2.5264392534839075,6.110797512322225,1.0169801712036133,-2.8573766390429896
1708436865.3844936,-2.1419970989227295,-1.3334830862334748,-2.5264480749713343,6.110712396889486,1.0170217752456665,-2.8574121634112757
1708436865.3864915,-2.1419553756713867,-1.333524615769722,-2.5264676252948206,6.110749947815695,1.0169963836669922,-2.8574076334582728
1708436865.3884962,-2.1420273780822754,-1.3334875863841553,-2.526452366505758,6.110773670464315,1.0170261859893799,-2.857441012059347
1708436865.3904798,-2.1420016288757324,-1.3334712547114869,-2.5264392534839075,6.110802042275228,1.0170261859893799,-2.8574286142932337
1708436865.3924804,-2.1420094966888428,-1.33349101365123,-2.5264151732074183,6.110732066422262,1.017005205154419,-2.85744554201235
1708436865.394507,-2.1419758796691895,-1.333495409493782,-2.5264435450183313,6.110712396889486,1.0170173645019531,-2.857466522847311
1708436865.3965182,-2.1419668197631836,-1.3334712547114869,-2.5264230410205286,6.110781180649557,1.0170217752456665,-2.8574240843402308
1708436865.398504,-2.1419804096221924,-1.3335365814021607,-2.5264676252948206,6.11074839809493,1.0170007944107056,-2.857450071965353
1708436865.4004998,-2.1420300006866455,-1.3335320812514802,-2.5264273325549524,6.110732066422262,1.0170173645019531,-2.8574240843402308
1708436865.402485,-2.1420094966888428,-1.333507017498352,-2.5264645258532923,6.11078559139327,1.0170085430145264,-2.857487503682272
1708436865.4044874,-2.1420094966888428,-1.3335365963033219,-2.5264599959002894,6.110794532089987,1.0170217752456665,-2.85744554201235
1708436865.4064872,-2.1420140266418457,-1.3335157495788117,-2.5264645258532923,6.110724317818441,1.0170502662658691,-2.857473913823263
1708436865.4085078,-2.1420185565948486,-1.3334624928287049,-2.5264599959002894,6.110769259720602,1.017005205154419,-2.857441012059347
1708436865.4105172,-2.1420185565948486,-1.333540917640068,-2.5264349619494837,6.110772239952841,1.0170708894729614,-2.857481304799215
1708436865.412518,-2.1420185565948486,-1.3334297102740784,-2.5264392534839075,6.11078559139327,1.01698899269104,-2.8574276606189173
1708436865.4145703,-2.1420514583587646,-1.333478794699051,-2.526480738316671,6.1108271954353235,1.0170217752456665,-2.857453171406881
1708436865.4164953,-2.142033338546753,-1.3334910434535523,-2.5263858477221888,6.1107603190238855,1.0170546770095825,-2.85746938387026
1708436865.418514,-2.1419732570648193,-1.3334624034217377,-2.5264273325549524,6.110757338791647,1.0170130729675293,-2.857481304799215
1708436865.4204726,-2.1420254707336426,-1.3334549230388184,-2.5264514128314417,6.110793101578512,1.0169726610183716,-2.85749322572817
1708436865.4224768,-2.142037868499756,-1.3334919971278687,-2.5264392534839075,6.110764848976888,1.0170204639434814,-2.857485834752218
1708436865.4244905,-2.142037868499756,-1.3334997606328507,-2.5264230410205286,6.110736477165975,1.0170085430145264,-2.857473913823263
1708436865.426491,-2.1419880390167236,-1.3335130375674744,-2.5264108816729944,6.1107603190238855,1.0170204639434814,-2.857513968144552
1708436865.4284816,-2.1419804096221924,-1.333527759914734,-2.5264316240893763,6.110757338791647,1.017038106918335,-2.8574605623828333
1708436865.4304888,-2.1419880390167236,-1.3334787648967286,-2.5264230410205286,6.110752928047933,1.0170130729675293,-2.857525889073507
1708436865.4324834,-2.1420185565948486,-1.3335440021804352,-2.5264676252948206,6.110769259720602,1.0170502662658691,-2.857497755681173
1708436865.4345076,-2.1420140266418457,-1.3335365814021607,-2.5264316240893763,6.110749947815695,1.0169963836669922,-2.857481304799215
1708436865.4365025,-2.1420388221740723,-1.3334997457316895,-2.526447121297018,6.1107064364250085,1.017033576965332,-2.8574798742877405
1708436865.438492,-2.1420300006866455,-1.333483101134636,-2.5264435450183313,6.110741007118978,1.0170458555221558,-2.8575215975390833
1708436865.440486,-2.1420185565948486,-1.333536536698677,-2.5264435450183313,6.1107603190238855,1.0170292854309082,-2.857568327580587
1708436865.4424946,-2.1420300006866455,-1.3334830862334748,-2.5264151732074183,6.110749947815695,1.0170708894729614,-2.8574679533587855
1708436865.444493,-2.1419758796691895,-1.3335086566260834,-2.526463333760397,6.110767829209127,1.0170663595199585,-2.8574679533587855
1708436865.4464743,-2.1420140266418457,-1.3335157495788117,-2.5264435450183313,6.110757338791647,1.017033576965332,-2.8575125376330774
1708436865.4484656,-2.14200496673584,-1.3335157942822953,-2.526447836552755,6.110715377121725,1.0169919729232788,-2.8574798742877405
1708436865.45047,-2.1420300006866455,-1.3334919971278687,-2.5264065901385706,6.11078559139327,1.0170458555221558,-2.8575459162341517
1708436865.4524603,-2.141944169998169,-1.3335042756846924,-2.5264020601855677,6.110739576607504,1.0170007944107056,-2.857542339955465
1708436865.4544985,-2.142037868499756,-1.3334699136069794,-2.526397768651144,6.110769259720602,1.0169963836669922,-2.8575215975390833
1708436865.456487,-2.1420016288757324,-1.3335246604732056,-2.526426140462057,6.110764848976888,1.0169963836669922,-2.8575549761401575
1708436865.4584794,-2.1420388221740723,-1.3334549230388184,-2.5264721552478235,6.110806453018942,1.0169919729232788,-2.8575335184680384
1708436865.4604857,-2.1420342922210693,-1.3334919822267075,-2.5264435450183313,6.110769259720602,1.0170458555221558,-2.8575170675860804
1708436865.4624765,-2.1419880390167236,-1.3335130673697968,-2.5264557043658655,6.110727655678549,1.0170379877090454,-2.8575335184680384
1708436865.464469,-2.1420094966888428,-1.3335052591613312,-2.5264349619494837,6.1107767699058435,1.0170546770095825,-2.8575413862811487
1708436865.4664862,-2.141989231109619,-1.33350424588237,-2.5264273325549524,6.1107767699058435,1.0170217752456665,-2.8575244585620325
1708436865.4684644,-2.1420140266418457,-1.333454967742302,-2.5264762083636683,6.110769259720602,1.0170042514801025,-2.8574963251696985
1708436865.470489,-2.141984701156616,-1.3334593337825318,-2.526442591344015,6.110790121346273,1.0170007944107056,-2.8575668970691126
1708436865.472487,-2.1419711112976074,-1.3335607212832947,-2.5264108816729944,6.11076174953536,1.0170217752456665,-2.8575623671161097
1708436865.4744763,-2.141989231109619,-1.3335202497294922,-2.5264230410205286,6.110802042275228,1.0170261859893799,-2.857532326375143
1708436865.4764812,-2.1419711112976074,-1.3335189384273072,-2.5264557043658655,6.110764848976888,1.0170248746871948,-2.8575413862811487
1708436865.4784682,-2.1420061588287354,-1.3335086566260834,-2.5264392534839075,6.110803472786703,1.0170292854309082,-2.8575740496264856
1708436865.48047,-2.1420094966888428,-1.3335042011788865,-2.5264185110675257,6.110757338791647,1.016971468925476,-2.8575289885150355
1708436865.4824753,-2.1420016288757324,-1.333540992145874,-2.526393238698141,6.110773670464315,1.0170130729675293,-2.8575125376330774
1708436865.4844716,-2.141989231109619,-1.3335650575212021,-2.526458803807394,6.110736477165975,1.0170173645019531,-2.8575578371631067
1708436865.4864748,-2.1420342922210693,-1.3335334372571488,-2.5264151732074183,6.110802042275228,1.0170458555221558,-2.8575413862811487
1708436865.4884682,-2.1419529914855957,-1.3334491115859528,-2.5264349619494837,6.110714185028829,1.0170546770095825,-2.8575289885150355
1708436865.4904628,-2.1419804096221924,-1.3335440021804352,-2.5264392534839075,6.1107332585151575,1.0170423984527588,-2.857528034840719
1708436865.4924881,-2.1419880390167236,-1.3334997457316895,-2.5264392534839075,6.110764848976888,1.0170173645019531,-2.8575623671161097
1708436865.494468,-2.1420300006866455,-1.3335157495788117,-2.5264599959002894,6.110752928047933,1.0170292854309082,-2.857581679021017
1708436865.4964783,-2.1420388221740723,-1.3334997308305283,-2.5264065901385706,6.110794532089987,1.0170173645019531,-2.8575289885150355
1708436865.4984884,-2.1420514583587646,-1.3335484278253098,-2.5264557043658655,6.110743987351217,1.0170292854309082,-2.857548777257101
1708436865.500478,-2.1420514583587646,-1.3334743243506928,-2.5264065901385706,6.11074839809493,1.0170204639434814,-2.857544485722677
1708436865.502474,-2.1419689655303955,-1.3334667694619675,-2.5264795462237757,6.110802042275228,1.0170204639434814,-2.8575289885150355
1708436865.5044627,-2.1420185565948486,-1.3334743690541764,-2.5264480749713343,6.110723244934835,1.0170708894729614,-2.857572619115011
1708436865.506466,-2.1420514583587646,-1.3334919673255463,-2.526409927998678,6.110766279488363,1.0170458555221558,-2.857553307210104
1708436865.5085003,-2.1420061588287354,-1.333508626823761,-2.5264559427844446,6.110802042275228,1.0170458555221558,-2.8575859705554407
1708436865.5104856,-2.141984701156616,-1.3335453134826203,-2.526447121297018,6.1108213541801355,1.0170130729675293,-2.857619587575094
1708436865.5125265,-2.141984701156616,-1.3335454028895875,-2.526414219533102,6.1107767699058435,1.0170458555221558,-2.857565228139059
1708436865.514482,-2.1420228481292725,-1.3335246753743668,-2.5264599959002894,6.110769259720602,1.017016053199768,-2.857572619115011
1708436865.5165038,-2.1419529914855957,-1.3334712547114869,-2.526414219533102,6.110732066422262,1.0170502662658691,-2.857612196599142
1708436865.518483,-2.1420016288757324,-1.333536611204483,-2.526389185582296,6.110743987351217,1.017020583152771,-2.857548777257101
1708436865.5204823,-2.1420094966888428,-1.3334963780692597,-2.5264514128314417,6.110818373947897,1.0170371532440186,-2.857572619115011
1708436865.5225024,-2.1420061588287354,-1.33350424588237,-2.526480738316671,6.110769259720602,1.017048954963684,-2.857607666646139
1708436865.5244906,-2.142042398452759,-1.3335114282420655,-2.5264762083636683,6.110788690834799,1.0170905590057373,-2.8574989477740687
1708436865.5264773,-2.1420388221740723,-1.3334712845138093,-2.5264392534839075,6.110732066422262,1.0170576572418213,-2.857544485722677
1708436865.5284977,-2.1419804096221924,-1.333475650554039,-2.5264230410205286,6.110715377121725,1.0170533657073975,-2.85759407678713
1708436865.5304663,-2.1420016288757324,-1.3334954392961045,-2.5264645258532923,6.11074839809493,1.0170655250549316,-2.857544485722677
1708436865.5324745,-2.1419928073883057,-1.3335157346776505,-2.5264230410205286,6.110764848976888,1.017048954963684,-2.857598606740133
1708436865.5344672,-2.1419928073883057,-1.3334875863841553,-2.5264676252948206,6.110757338791647,1.0170327425003052,-2.8576393763171595
1708436865.5364776,-2.1420559883117676,-1.3335042011788865,-2.5264435450183313,6.110790121346273,1.0170742273330688,-2.857598606740133
1708436865.5384696,-2.1419970989227295,-1.3335042607835312,-2.52649695078005,6.110773670464315,1.0170655250549316,-2.8575859705554407
1708436865.540469,-2.142010450363159,-1.3335246008685608,-2.5264230410205286,6.110727655678549,1.017048954963684,-2.857603136693136
1708436865.5424871,-2.1419928073883057,-1.3334954392961045,-2.5264273325549524,6.110773670464315,1.0170905590057373,-2.857577149068014
1708436865.5444875,-2.1420140266418457,-1.333471269612648,-2.526442591344015,6.110805022507467,1.017024040222168,-2.857598606740133
1708436865.546479,-2.1419970989227295,-1.3334787648967286,-2.526447121297018,6.11078559139327,1.0170612335205078,-2.857553307210104
1708436865.5485153,-2.1420140266418457,-1.3335453134826203,-2.5264273325549524,6.110773670464315,1.0170568227767944,-2.857615057622091
1708436865.5504663,-2.1420514583587646,-1.333528996711113,-2.5263989607440394,6.110736477165975,1.0170568227767944,-2.857619349156515
1708436865.5525126,-2.1420016288757324,-1.333491028552391,-2.526388947163717,6.110723244934835,1.017098069190979,-2.85759407678713
1708436865.5544932,-2.1419804096221924,-1.3334954690984269,-2.5264349619494837,6.110790121346273,1.017069935798645,-2.857577149068014
1708436865.5564716,-2.1420185565948486,-1.3335157346776505,-2.5264914671527308,6.110781180649557,1.017069935798645,-2.8575895468341272
1708436865.5584676,-2.1419711112976074,-1.3334997457316895,-2.5264151732074183,6.110781180649557,1.0170774459838867,-2.857626978551046
1708436865.5604677,-2.1420228481292725,-1.33350424588237,-2.526414457951681,6.110802042275228,1.0170612335205078,-2.8576224485980433
1708436865.562468,-2.1420469284057617,-1.333413065677025,-2.5264645258532923,6.1107332585151575,1.0170936584472656,-2.857572619115011
1708436865.5644794,-2.1420469284057617,-1.3334830415299912,-2.5264392534839075,6.11080943325118,1.017073154449463,-2.8576043287860315
1708436865.5664718,-2.1419970989227295,-1.3335202497294922,-2.5264435450183313,6.110766279488363,1.0170612335205078,-2.8576179186450403
1708436865.56849,-2.1420140266418457,-1.3335202199271698,-2.526421848927633,6.110794532089987,1.0171024799346924,-2.857626978551046
1708436865.5704648,-2.1420061588287354,-1.333483101134636,-2.5264392534839075,6.1107603190238855,1.0170611143112183,-2.8575878779040735
1708436865.5725152,-2.1420094966888428,-1.3334954243949433,-2.5264764467822474,6.110755908280172,1.0170403718948364,-2.8576512972461146
1708436865.5745006,-2.14200496673584,-1.3334963780692597,-2.526508871709005,6.110764848976888,1.0170360803604126,-2.8576603571521204
1708436865.5764766,-2.1419928073883057,-1.3334876161864777,-2.526426140462057,6.1107603190238855,1.0171226263046265,-2.8576257864581507
1708436865.5784757,-2.1420254707336426,-1.3334919971278687,-2.5264349619494837,6.110749947815695,1.0170774459838867,-2.8576677481280726
1708436865.5804687,-2.1420140266418457,-1.333527759914734,-2.5264514128314417,6.110781180649557,1.0170446634292603,-2.8576377073871058
1708436865.5824618,-2.1420388221740723,-1.333495409493782,-2.5264676252948206,6.110745417862692,1.017086148262024,-2.8576305548297327
1708436865.584468,-2.1419801712036133,-1.3334997457316895,-2.526418749486105,6.110802042275228,1.0170774459838867,-2.8576541582690638
1708436865.5864625,-2.1419970989227295,-1.3335441064885636,-2.5264514128314417,6.110818373947897,1.0170936584472656,-2.8576422373401087
1708436865.5884938,-2.1420514583587646,-1.3335320514491578,-2.5264392534839075,6.110797512322225,1.0171267986297607,-2.8576584498034876
1708436865.5904613,-2.142042636871338,-1.333540992145874,-2.526414219533102,6.110764848976888,1.0170893669128418,-2.857694212590353
1708436865.5924764,-2.1420016288757324,-1.3334743541530152,-2.5264599959002894,6.110769259720602,1.0171067714691162,-2.8576749006854456
1708436865.594475,-2.1420016288757324,-1.3334830564311524,-2.5264883677112024,6.110743987351217,1.017109990119934,-2.8576822916613978
1708436865.5965145,-2.1420469284057617,-1.3334699434093018,-2.526447836552755,6.11082278469161,1.0171055793762207,-2.8576377073871058
1708436865.5984738,-2.1420140266418457,-1.3335409325412293,-2.526414457951681,6.110764848976888,1.0171012878417969,-2.857657019292013
1708436865.6004758,-2.141984701156616,-1.333496333365776,-2.526409927998678,6.110764848976888,1.017073154449463,-2.857619825993673
1708436865.6024668,-2.1420140266418457,-1.3335114282420655,-2.526442591344015,6.110802042275228,1.0170774459838867,-2.857710663472311
1708436865.6044762,-2.1420209407806396,-1.3334623736194153,-2.5264719168292444,6.110764848976888,1.0170818567276,-2.857619825993673
1708436865.606507,-2.1419801712036133,-1.333529071216919,-2.526414219533102,6.110769259720602,1.0170936584472656,-2.857668940220968
1708436865.6085246,-2.1420185565948486,-1.3335157346776505,-2.5264230410205286,6.110778200417318,1.0170817375183105,-2.857678000126974
1708436865.6105204,-2.142037868499756,-1.3334830713323136,-2.526458803807394,6.110810863762655,1.0171055793762207,-2.857652727757589
1708436865.6125202,-2.1420300006866455,-1.3334756356528779,-2.5264883677112024,6.110797512322225,1.0171012878417969,-2.857661549245016
1708436865.6145132,-2.1420094966888428,-1.3334743988564988,-2.5264676252948206,6.110724317818441,1.0171055793762207,-2.857722584401266
1708436865.6165287,-2.1420209407806396,-1.3335277301124115,-2.5264435450183313,6.1107603190238855,1.0170817375183105,-2.8576765696154993
1708436865.6184983,-2.1420016288757324,-1.3335409623435517,-2.5264273325549524,6.110769259720602,1.017073154449463,-2.8577314058886927
1708436865.6205177,-2.1420300006866455,-1.3335483980229874,-2.526405636464254,6.110764848976888,1.017096757888794,-2.8577092329608362
1708436865.6224997,-2.1419758796691895,-1.3334637594274064,-2.5264719168292444,6.11074839809493,1.0170893669128418,-2.857689921055929
1708436865.6245143,-2.14200496673584,-1.3335233491710206,-2.5264349619494837,6.110834705620565,1.017109990119934,-2.857710663472311
1708436865.626523,-2.1419758796691895,-1.3334580820849915,-2.5264645258532923,6.11082278469161,1.017080545425415,-2.857701841984884
1708436865.6285443,-2.1420140266418457,-1.3334667545608063,-2.526418749486105,6.110745417862692,1.0171387195587158,-2.857706133519308
1708436865.630478,-2.1420342922210693,-1.3335026067546387,-2.5264316240893763,6.110772239952841,1.0170687437057495,-2.857718054448263
1708436865.6324873,-2.142047643661499,-1.3335320812514802,-2.5264959971057337,6.110754358559408,1.0170480012893677,-2.8577216307269495
1708436865.6345105,-2.1420209407806396,-1.3334787648967286,-2.5264645258532923,6.110775220185079,1.0170687437057495,-2.8576927820788782
1708436865.636504,-2.1420016288757324,-1.3335320961526413,-2.5264514128314417,6.110719787865438,1.0171012878417969,-2.8577047030078333
1708436865.6384838,-2.1419880390167236,-1.33350424588237,-2.526426140462057,6.110806453018942,1.0170568227767944,-2.8576927820788782
1708436865.6404784,-2.142054796218872,-1.3334919673255463,-2.526409927998678,6.11080943325118,1.017122507095337,-2.857697312031881
1708436865.642488,-2.1420140266418457,-1.3335202497294922,-2.5264230410205286,6.110797512322225,1.017085075378418,-2.8576927820788782
1708436865.6444843,-2.1420185565948486,-1.3335544627955933,-2.5264719168292444,6.110773670464315,1.0171269178390503,-2.8577306906329554
1708436865.6465116,-2.141984701156616,-1.333450437789299,-2.5264795462237757,6.1107603190238855,1.0170893669128418,-2.857722584401266
1708436865.6485026,-2.1420469284057617,-1.3334919971278687,-2.526409927998678,6.110781180649557,1.017085075378418,-2.8577542940722864
1708436865.650504,-2.1420185565948486,-1.3335042011788865,-2.5264340082751673,6.110757338791647,1.0170893669128418,-2.8576675097094935
1708436865.6525283,-2.1420140266418457,-1.33348003149543,-2.526487175618307,6.110830294876852,1.0170480012893677,-2.8577590624438685
1708436865.6544895,-2.141989231109619,-1.333529071216919,-2.5264959971057337,6.110769259720602,1.017118215560913,-2.8577306906329554
1708436865.6565022,-2.1420185565948486,-1.3335114282420655,-2.5264557043658655,6.110769259720602,1.0170936584472656,-2.8577261606799524
1708436865.6585183,-2.1420140266418457,-1.333507017498352,-2.526426140462057,6.110741007118978,1.0170893669128418,-2.8577306906329554
1708436865.6604998,-2.14200496673584,-1.3334580075791855,-2.52649695078005,6.11074839809493,1.0171256065368652,-2.8576927820788782
1708436865.662491,-2.1420254707336426,-1.333474339251854,-2.5264230410205286,6.110793101578512,1.017080545425415,-2.8577171007739466
1708436865.6645007,-2.1419970989227295,-1.333483101134636,-2.5264719168292444,6.1107767699058435,1.017129898071289,-2.857685391102926
1708436865.6664908,-2.1420185565948486,-1.3335483384183426,-2.5264762083636683,6.11078559139327,1.017073154449463,-2.8577128092395228
1708436865.6685107,-2.1419687271118164,-1.3334919822267075,-2.526426140462057,6.110773670464315,1.017085075378418,-2.8577306906329554
1708436865.6705098,-2.1419644355773926,-1.3335130971721192,-2.5264392534839075,6.110779630928793,1.0171093940734863,-2.8576956431018274
1708436865.6725104,-2.1420185565948486,-1.3334875863841553,-2.526442591344015,6.110755908280172,1.017080545425415,-2.8577590624438685
1708436865.6744864,-2.1419880390167236,-1.3335114282420655,-2.5265124479876917,6.110794532089987,1.0171012878417969,-2.8577261606799524
1708436865.6765213,-2.1420300006866455,-1.333515779381134,-2.52649695078005,6.110839116364279,1.0171012878417969,-2.8577216307269495
1708436865.6785116,-2.1420185565948486,-1.333475650554039,-2.526475254689352,6.110743987351217,1.017134428024292,-2.8577128092395228
1708436865.680485,-2.1419668197631836,-1.333540992145874,-2.5264557043658655,6.11078559139327,1.017122507095337,-2.8577335516559046
1708436865.6825182,-2.1420602798461914,-1.3335070323995133,-2.526442591344015,6.11074839809493,1.017129898071289,-2.8577171007739466
1708436865.6844904,-2.1420094966888428,-1.3334919822267075,-2.526438299809591,6.1107603190238855,1.0171055793762207,-2.8577306906329554
1708436865.6864746,-2.1419970989227295,-1.3334624630263825,-2.526426140462057,6.110806453018942,1.017118215560913,-2.8577216307269495
1708436865.6885092,-2.1420140266418457,-1.333573879008629,-2.5264719168292444,6.110743987351217,1.017080545425415,-2.8577047030078333
1708436865.6904871,-2.1419970989227295,-1.3335026216558,-2.5264676252948206,6.110818373947897,1.0171012878417969,-2.8577662150012415
1708436865.6925128,-2.1419758796691895,-1.3335483831218262,-2.5264392534839075,6.11080943325118,1.017129898071289,-2.8577500025378626
1708436865.6944842,-2.1419970989227295,-1.3334876012853165,-2.526463333760397,6.110788690834799,1.0171055793762207,-2.8577500025378626
1708436865.696505,-2.1419758796691895,-1.3335008037141343,-2.5264514128314417,6.110800611763754,1.017122507095337,-2.8577426115619105
1708436865.6984935,-2.1420254707336426,-1.3335157346776505,-2.5264883677112024,6.1107603190238855,1.017122507095337,-2.85770827928652
1708436865.7005005,-2.1419880390167236,-1.333532066350319,-2.5264795462237757,6.110825884133138,1.017096757888794,-2.8577707449542444
1708436865.7025218,-2.1419758796691895,-1.3335202497294922,-2.526414457951681,6.110751497536459,1.017109990119934,-2.8577662150012415
1708436865.7044687,-2.1420559883117676,-1.3335320514491578,-2.526447121297018,6.110800611763754,1.017129898071289,-2.8577662150012415
1708436865.7064915,-2.1419928073883057,-1.3334580820849915,-2.5264599959002894,6.110838043480673,1.0170762538909912,-2.8577500025378626
1708436865.708494,-2.1420469284057617,-1.3335042309812088,-2.5264840761767786,6.110755908280172,1.0170924663543701,-2.85776931444277
1708436865.710488,-2.141995906829834,-1.3334954392961045,-2.526438299809591,6.11078559139327,1.0170881748199463,-2.8577619234668177
1708436865.7125232,-2.1419928073883057,-1.3334580671838303,-2.526442591344015,6.110805022507467,1.017134428024292,-2.8577662150012415
1708436865.7145057,-2.1420273780822754,-1.3335114580443879,-2.526414219533102,6.110796081810751,1.0170631408691406,-2.8577001730548304
1708436865.7164981,-2.1419880390167236,-1.3334954243949433,-2.526442591344015,6.110870826035299,1.017150640487671,-2.8577216307269495
1708436865.7184763,-2.141984701156616,-1.3334997457316895,-2.5264514128314417,6.110784160881796,1.0170643329620361,-2.8577335516559046
1708436865.72047,-2.1420094966888428,-1.3335070323995133,-2.5264349619494837,6.110781180649557,1.017096757888794,-2.8577573935138147
1708436865.722477,-2.1419599056243896,-1.3334756654552002,-2.5264392534839075,6.110764848976888,1.0171012878417969,-2.8577619234668177
1708436865.7244756,-2.141979217529297,-1.3334919971278687,-2.5264795462237757,6.1107603190238855,1.017122507095337,-2.8577619234668177
1708436865.7264822,-2.14200496673584,-1.3334580224803467,-2.5264719168292444,6.110813963204183,1.0170924663543701,-2.8577335516559046
1708436865.728508,-2.1420140266418457,-1.3334594082883378,-2.5264392534839075,6.110813963204183,1.0171256065368652,-2.857724730168478
1708436865.7304862,-2.1420140266418457,-1.3335397106460114,-2.5264514128314417,6.110805022507467,1.0170762538909912,-2.857736651097433
1708436865.732492,-2.141984701156616,-1.3334875714829941,-2.5264514128314417,6.110802042275228,1.0170804262161255,-2.8577619234668177
1708436865.7345304,-2.1420300006866455,-1.3335660558990021,-2.5264514128314417,6.110797512322225,1.0171256065368652,-2.857736651097433
1708436865.736484,-2.1420228481292725,-1.3334743541530152,-2.5264349619494837,6.1108425734336755,1.0170924663543701,-2.857785765324728
1708436865.7384782,-2.1419970989227295,-1.3335070473006745,-2.526447121297018,6.110767829209127,1.0171388387680054,-2.857748572026388
1708436865.7404814,-2.1420300006866455,-1.3335070323995133,-2.526447121297018,6.1107603190238855,1.017134428024292,-2.85776931444277
1708436865.7424877,-2.1419928073883057,-1.333449126487114,-2.526447121297018,6.1107603190238855,1.0171136856079102,-2.8578019777881067
1708436865.7445264,-2.1420300006866455,-1.3335042011788865,-2.5264719168292444,6.1107767699058435,1.0171136856079102,-2.857772175465719
1708436865.746512,-2.1419928073883057,-1.3335528683713456,-2.52643067041506,6.110805022507467,1.0171462297439575,-2.8578019777881067
1708436865.7485175,-2.1420388221740723,-1.333478794699051,-2.526447121297018,6.110825884133138,1.017104983329773,-2.8578220049487513
1708436865.7504833,-2.1419758796691895,-1.3334800612977524,-2.526463333760397,6.110805022507467,1.0171093940734863,-2.85779315630068
1708436865.752513,-2.1419599056243896,-1.3335052740624924,-2.5264514128314417,6.1107603190238855,1.0170643329620361,-2.85779315630068
1708436865.7544813,-2.1419711112976074,-1.3334624630263825,-2.526447121297018,6.110806453018942,1.017104983329773,-2.85776931444277
1708436865.756489,-2.1420228481292725,-1.333478794699051,-2.5265167395221155,6.110788690834799,1.0171300172805786,-2.857810084019796
1708436865.7584827,-2.1420300006866455,-1.3335246306708832,-2.526470963154928,6.110781180649557,1.0171256065368652,-2.85779315630068
1708436865.7604845,-2.1420254707336426,-1.3334997606328507,-2.5264514128314417,6.110793101578512,1.017104983329773,-2.857842985783712
1708436865.7624927,-2.1419804096221924,-1.3335042309812088,-2.5264676252948206,6.110802042275228,1.0171136856079102,-2.8578010241137903
1708436865.7644722,-2.1420342922210693,-1.3335144978812714,-2.526470963154928,6.110796081810751,1.0171462297439575,-2.85779315630068
1708436865.7664986,-2.1420094966888428,-1.3334788096002121,-2.526459042225973,6.110818373947897,1.0171093940734863,-2.857826534901754
1708436865.768489,-2.141984701156616,-1.3335352700999756,-2.526470963154928,6.110849964409628,1.0171136856079102,-2.857784096394674
1708436865.7704625,-2.1419711112976074,-1.333471269612648,-2.526442829762594,6.110812413483419,1.017096757888794,-2.8577707449542444
1708436865.772488,-2.1420209407806396,-1.3335320812514802,-2.526447121297018,6.110755908280172,1.017122507095337,-2.857814613972799
1708436865.7744913,-2.1420388221740723,-1.3334756654552002,-2.5264514128314417,6.110746967583456,1.0171462297439575,-2.857814613972799
1708436865.7764888,-2.1419711112976074,-1.333483101134636,-2.5264676252948206,6.110816943436422,1.017096757888794,-2.857784096394674
1708436865.7784967,-2.1420300006866455,-1.3335483831218262,-2.5264230410205286,6.110742437630453,1.017129898071289,-2.8578041235553187
1708436865.7804844,-2.1420514583587646,-1.333524615769722,-2.5264514128314417,6.110813963204183,1.0171006917953491,-2.8577707449542444
1708436865.782478,-2.141989231109619,-1.3335277450135727,-2.526397768651144,6.110813963204183,1.0171093940734863,-2.857744042073385
1708436865.7844708,-2.1419758796691895,-1.3335070323995133,-2.5264883677112024,6.110846984177389,1.0171462297439575,-2.8578010241137903
1708436865.7865098,-2.1420140266418457,-1.3334997457316895,-2.526459042225973,6.110810982971945,1.0170881748199463,-2.8578339258777063
1708436865.788494,-2.142068386077881,-1.333527759914734,-2.526447121297018,6.110793101578512,1.0171431303024292,-2.85779315630068
1708436865.7904813,-2.1420342922210693,-1.3335528683713456,-2.526459042225973,6.110816943436422,1.017055630683899,-2.8578339258777063
1708436865.7924838,-2.1420140266418457,-1.3334919822267075,-2.526447121297018,6.1108213541801355,1.0171093940734863,-2.8578129450427454
1708436865.7945068,-2.142063856124878,-1.3334504526904603,-2.5264719168292444,6.110797512322225,1.017150640487671,-2.857826534901754
1708436865.7964919,-2.142043352127075,-1.3334667843631287,-2.5264392534839075,6.110800611763754,1.0171012878417969,-2.8577633539782923
1708436865.7984836,-2.1420559883117676,-1.3335233491710206,-2.5264676252948206,6.110793101578512,1.017118215560913,-2.857835356389181
1708436865.8005016,-2.1420342922210693,-1.3335202199271698,-2.5264020601855677,6.110805022507467,1.017122507095337,-2.857831064854757
1708436865.802478,-2.1419758796691895,-1.3334756654552002,-2.526442591344015,6.110739576607504,1.0171093940734863,-2.857788626347677
1708436865.804518,-2.1419804096221924,-1.3335042607835312,-2.5264883677112024,6.110793101578512,1.0171006917953491,-2.8578055540667933
1708436865.8064718,-2.1420469284057617,-1.3335278046182175,-2.526442591344015,6.1108425734336755,1.017129898071289,-2.8578339258777063
1708436865.8085225,-2.1419711112976074,-1.3334667843631287,-2.5264795462237757,6.1108213541801355,1.0171256065368652,-2.857767645512716
1708436865.8105133,-2.1419880390167236,-1.3334954392961045,-2.5264514128314417,6.110779630928793,1.0171093940734863,-2.857788626347677
1708436865.8125374,-2.141984701156616,-1.3335396659425278,-2.5264795462237757,6.110764848976888,1.0171213150024414,-2.8578174749957483
1708436865.8145008,-2.1419880390167236,-1.3335114282420655,-2.5265045801745813,6.11080943325118,1.0170924663543701,-2.8578620592700403
1708436865.8165226,-2.1419928073883057,-1.3335070323995133,-2.526442591344015,6.110805022507467,1.0171300172805786,-2.8578174749957483
1708436865.8185184,-2.1419835090637207,-1.3335157495788117,-2.5264676252948206,6.110846984177389,1.017116904258728,-2.8578665892230433
1708436865.8205035,-2.1420342922210693,-1.3334743839553376,-2.526438299809591,6.110818373947897,1.017150640487671,-2.857810084019796
1708436865.8224952,-2.1420061588287354,-1.333514468078949,-2.5264676252948206,6.110755908280172,1.017096757888794,-2.857788626347677
1708436865.8245122,-2.1419928073883057,-1.3334919822267075,-2.526442591344015,6.110772239952841,1.0171093940734863,-2.85779315630068
1708436865.8265,-2.1419970989227295,-1.3334699881127854,-2.526447121297018,6.110788690834799,1.0171006917953491,-2.8578293959247034
1708436865.82863,-2.1420140266418457,-1.3334624630263825,-2.5264340082751673,6.110816943436422,1.0171093940734863,-2.8578339258777063
1708436865.8304868,-2.1419644355773926,-1.3335277450135727,-2.526479784642355,6.110784160881796,1.0171462297439575,-2.8578205744372767
1708436865.8324966,-2.1420061588287354,-1.3334386211684723,-2.5264676252948206,6.110805022507467,1.0171093940734863,-2.8577876726733606
1708436865.8344953,-2.1420300006866455,-1.3335157346776505,-2.5264676252948206,6.110855924874105,1.0171747207641602,-2.8578055540667933
1708436865.8364868,-2.1420185565948486,-1.3335246306708832,-2.5264914671527308,6.1107603190238855,1.0171256065368652,-2.8578129450427454
1708436865.838489,-2.1420342922210693,-1.3335365515998383,-2.526459042225973,6.110800611763754,1.017116904258728,-2.8578220049487513
1708436865.8405058,-2.1420254707336426,-1.333478794699051,-2.526475254689352,6.110825884133138,1.017096757888794,-2.857784096394674
1708436865.842493,-2.1420300006866455,-1.3334875863841553,-2.5265045801745813,6.110805022507467,1.0171418190002441,-2.857842985783712
1708436865.8444912,-2.1419928073883057,-1.3335042309812088,-2.5264676252948206,6.110838162689962,1.0171093940734863,-2.8578010241137903
1708436865.8464992,-2.1420094966888428,-1.333483101134636,-2.526447121297018,6.110773670464315,1.0171375274658203,-2.857870880757467
1708436865.8485003,-2.1420342922210693,-1.3334910434535523,-2.526447121297018,6.110772239952841,1.0171213150024414,-2.8578665892230433
1708436865.850498,-2.1420342922210693,-1.3335529130748291,-2.5264719168292444,6.110846984177389,1.0171256065368652,-2.8578220049487513
1708436865.8524878,-2.1420300006866455,-1.3335042309812088,-2.5264914671527308,6.1107603190238855,1.0171375274658203,-2.857826534901754
1708436865.854473,-2.1420094966888428,-1.3334667843631287,-2.526458803807394,6.110767829209127,1.0171136856079102,-2.8578665892230433
1708436865.856506,-2.1420140266418457,-1.3335189384273072,-2.52645451227297,6.110784160881796,1.017083764076233,-2.85783821741213
1708436865.858478,-2.1420185565948486,-1.333483101134636,-2.52645451227297,6.11080943325118,1.0171213150024414,-2.8578293959247034
1708436865.8604934,-2.1420140266418457,-1.3335157346776505,-2.5264349619494837,6.110735046654501,1.0171375274658203,-2.8578010241137903
1708436865.862485,-2.1420140266418457,-1.3334580671838303,-2.526426140462057,6.110767829209127,1.017104983329773,-2.8578293959247034
1708436865.8645124,-2.1420342922210693,-1.3334997457316895,-2.5264676252948206,6.110805022507467,1.017129898071289,-2.857779566441671
1708436865.8665128,-2.1419668197631836,-1.3334875863841553,-2.5265045801745813,6.110791551857748,1.017179012298584,-2.8578293959247034
1708436865.8684947,-2.1419689655303955,-1.3335528683713456,-2.5264795462237757,6.11080943325118,1.0171581506729126,-2.8578010241137903
1708436865.870466,-2.1420469284057617,-1.3334504526904603,-2.526450220738546,6.110751497536459,1.0171332359313965,-2.8577707449542444
1708436865.8724844,-2.1420094966888428,-1.3335202199271698,-2.5264914671527308,6.110846984177389,1.0171006917953491,-2.8577664534198206
1708436865.8744721,-2.1419928073883057,-1.3334954392961045,-2.526487175618307,6.11080943325118,1.0171256065368652,-2.8578696886645716
1708436865.8764765,-2.1420140266418457,-1.3335157346776505,-2.526499334965841,6.110833632736959,1.0171332359313965,-2.8578174749957483
1708436865.878492,-2.141984701156616,-1.333514468078949,-2.526487175618307,6.110818373947897,1.0171418190002441,-2.857887331639425
1708436865.8804748,-2.14194393157959,-1.333491028552391,-2.5265124479876917,6.110739576607504,1.0171136856079102,-2.8578785101519983
1708436865.8824918,-2.142043352127075,-1.3334910434535523,-2.526458803807394,6.110797512322225,1.017166018486023,-2.857842985783712
1708436865.8844817,-2.1420469284057617,-1.3335233491710206,-2.526442591344015,6.110825884133138,1.017145037651062,-2.857799832020895
1708436865.8864746,-2.1420140266418457,-1.3335694384625931,-2.526458803807394,6.110793101578512,1.0171332359313965,-2.8578620592700403
1708436865.8885233,-2.14200496673584,-1.3334997457316895,-2.526470963154928,6.110849964409628,1.0171703100204468,-2.8578160444842737
1708436865.8904862,-2.1420094966888428,-1.3334830862334748,-2.5264621416675013,6.1107767699058435,1.0171616077423096,-2.8578205744372767
1708436865.892478,-2.1420094966888428,-1.3335070323995133,-2.526499334965841,6.110779630928793,1.017145037651062,-2.857783381138937
1708436865.8944764,-2.1420185565948486,-1.3335528683713456,-2.526487175618307,6.110812413483419,1.017166018486023,-2.8578041235553187
1708436865.8964803,-2.1420388221740723,-1.3334875863841553,-2.526466671620504,6.1108425734336755,1.0170962810516357,-2.8578205744372767
1708436865.898491,-2.1419928073883057,-1.3334964227727433,-2.526463333760397,6.110825884133138,1.0171244144439697,-2.857783381138937
1708436865.9004948,-2.1420273780822754,-1.3334997457316895,-2.526503626500265,6.110829102783956,1.0171703100204468,-2.8578620592700403
1708436865.9024842,-2.1420061588287354,-1.333569512968399,-2.526475254689352,6.110797512322225,1.0171573162078857,-2.857915703450338
1708436865.9045286,-2.1419880390167236,-1.333514468078949,-2.526470963154928,6.110746967583456,1.0171537399291992,-2.8578010241137903
1708436865.9064703,-2.1420061588287354,-1.3335157346776505,-2.526475254689352,6.110805022507467,1.0171213150024414,-2.857891861592428
1708436865.908517,-2.1420140266418457,-1.3334997457316895,-2.526475254689352,6.1107603190238855,1.0171778202056885,-2.857882801686422
1708436865.9105039,-2.1419928073883057,-1.3335233491710206,-2.5265079180346888,6.110772239952841,1.017128825187683,-2.8578129450427454
1708436865.9125285,-2.1419644355773926,-1.333478794699051,-2.526470963154928,6.110739576607504,1.0171573162078857,-2.857783381138937
1708436865.914513,-2.1419970989227295,-1.3335042309812088,-2.5265002886401575,6.110791551857748,1.017166018486023,-2.8578339258777063
1708436865.9165125,-2.1420726776123047,-1.3334997457316895,-2.526475254689352,6.11080943325118,1.017128825187683,-2.8578160444842737
1708436865.918534,-2.141984701156616,-1.3335233491710206,-2.5265079180346888,6.110784160881796,1.017145037651062,-2.8578293959247034
1708436865.920532,-2.1420016288757324,-1.3335320514491578,-2.526475254689352,6.110850083618917,1.0171616077423096,-2.8577664534198206
1708436865.9225101,-2.1420094966888428,-1.33349101365123,-2.526470963154928,6.110793101578512,1.0171616077423096,-2.857887331639425
1708436865.92452,-2.1420228481292725,-1.3335483831218262,-2.526519838963644,6.110743987351217,1.017145037651062,-2.8578859011279505
1708436865.926508,-2.1420559883117676,-1.3335189384273072,-2.526470963154928,6.110788690834799,1.0171529054641724,-2.8578532377826136
1708436865.9285116,-2.1419928073883057,-1.333532066350319,-2.5264959971057337,6.1107603190238855,1.0171778202056885,-2.8578785101519983
1708436865.9305022,-2.1419928073883057,-1.3334866029075165,-2.526450220738546,6.110824572830953,1.0171616077423096,-2.857799832020895
1708436865.9325185,-2.1420140266418457,-1.3334667545608063,-2.5264862219439905,6.110800611763754,1.0171735286712646,-2.8577879110919397
1708436865.9345028,-2.1420140266418457,-1.3334831160357972,-2.526450220738546,6.110742437630453,1.0171616077423096,-2.8578293959247034
1708436865.93648,-2.1419880390167236,-1.3334830862334748,-2.5265002886401575,6.110800611763754,1.0171691179275513,-2.8579023520099085
1708436865.9385023,-2.1420185565948486,-1.3335202497294922,-2.5265079180346888,6.110797512322225,1.0171735286712646,-2.8578830401050013
1708436865.940506,-2.141989231109619,-1.3335320812514802,-2.526475254689352,6.110784160881796,1.0172107219696045,-2.8578160444842737
1708436865.942522,-2.1420094966888428,-1.3335070323995133,-2.5265124479876917,6.110825884133138,1.0171900987625122,-2.8578665892230433
1708436865.9444735,-2.142072916030884,-1.3335365665009995,-2.526470963154928,6.110793101578512,1.017160415649414,-2.8578665892230433
1708436865.946509,-2.1420016288757324,-1.3334954392961045,-2.526470963154928,6.110784160881796,1.0171856880187988,-2.8578696886645716
1708436865.948476,-2.1419880390167236,-1.3334954392961045,-2.526499334965841,6.110796081810751,1.0172019004821777,-2.85781175294985
1708436865.950473,-2.142000436782837,-1.3335233342698594,-2.526503626500265,6.11080943325118,1.0171778202056885,-2.8578606287585657
1708436865.9525023,-2.1420342922210693,-1.3334787648967286,-2.526487175618307,6.11080943325118,1.0171691179275513,-2.85789925256838
1708436865.954477,-2.1420185565948486,-1.3335484129241486,-2.526466671620504,6.110805022507467,1.0171778202056885,-2.8578041235553187
1708436865.956512,-2.1420342922210693,-1.3335396659425278,-2.526503626500265,6.1107767699058435,1.0171573162078857,-2.8578606287585657
1708436865.9584823,-2.141984701156616,-1.3335157346776505,-2.52655274072756,6.110813963204183,1.0172184705734253,-2.8578293959247034
1708436865.9604914,-2.1420061588287354,-1.3334997457316895,-2.526450220738546,6.1108425734336755,1.0171573162078857,-2.8578770796405237
1708436865.9624982,-2.1419928073883057,-1.3335365814021607,-2.526487175618307,6.110808002739706,1.0172019004821777,-2.857927385960714
1708436865.9644914,-2.1419970989227295,-1.3334536117366333,-2.5265079180346888,6.110797512322225,1.0171856880187988,-2.8578696886645716
1708436865.966512,-2.1420388221740723,-1.3334963780692597,-2.5264959971057337,6.110743987351217,1.0172184705734253,-2.857872549687521
1708436865.9684787,-2.1420254707336426,-1.3335114133409043,-2.5265167395221155,6.1108425734336755,1.0171691179275513,-2.857860867177145
1708436865.9704788,-2.1419928073883057,-1.3334875863841553,-2.526531998311178,6.1108213541801355,1.0171856880187988,-2.8578770796405237
1708436865.9725182,-2.1420300006866455,-1.3334831309369584,-2.5264416376696985,6.11080943325118,1.017210602760315,-2.8578816095935267
1708436865.9745011,-2.142043352127075,-1.333540917640068,-2.526531998311178,6.1108752367790125,1.0171931982040405,-2.857879702244894
1708436865.9765437,-2.1419928073883057,-1.3335026067546387,-2.5264740625964563,6.110839116364279,1.0171691179275513,-2.857910935078756
1708436865.9785135,-2.1420094966888428,-1.3335070323995133,-2.526482884083883,6.110791551857748,1.0171363353729248,-2.857910935078756
1708436865.9805114,-2.1420094966888428,-1.3335365665009995,-2.526470963154928,6.110779630928793,1.017197608947754,-2.857931915913717
1708436865.9825127,-2.142063856124878,-1.33350424588237,-2.5265079180346888,6.110793101578512,1.0171691179275513,-2.857931915913717
1708436865.9844997,-2.1419928073883057,-1.3335484129241486,-2.5265069643603724,6.110851514130392,1.0172141790390015,-2.8578978220569056
1708436865.9865346,-2.1420469284057617,-1.3335070323995133,-2.526503626500265,6.110763299256124,1.0172392129898071,-2.857860867177145
1708436865.9885058,-2.1420094966888428,-1.33354406178508,-2.5264907518969935,6.110863315850057,1.0172063112258911,-2.857872549687521
1708436865.9905097,-2.1420300006866455,-1.3334743839553376,-2.5264950434314173,6.110805022507467,1.0172184705734253,-2.8578651587115687
1708436865.9924896,-2.1419970989227295,-1.3335352700999756,-2.526487175618307,6.110861885338583,1.0171769857406616,-2.8579393068896692
1708436865.9945064,-2.1420228481292725,-1.3335277450135727,-2.52651554742922,6.110858905106344,1.0171648263931274,-2.857872549687521
1708436865.9965236,-2.1419689655303955,-1.3335528683713456,-2.526511255894796,6.110772239952841,1.0172141790390015,-2.8578973452197474
1708436865.9984837,-2.1420342922210693,-1.3335246604732056,-2.52651554742922,6.110846984177389,1.0171691179275513,-2.857889000569479
1708436866.0004933,-2.1420016288757324,-1.3335246604732056,-2.5264907518969935,6.110812413483419,1.0171769857406616,-2.857931915913717
1708436866.002498,-2.1420185565948486,-1.3335277450135727,-2.526511255894796,6.11080943325118,1.0172063112258911,-2.8579230944262903
1708436866.00451,-2.1420300006866455,-1.33350424588237,-2.5264740625964563,6.110797512322225,1.0172141790390015,-2.8578816095935267
1708436866.0065026,-2.1420164108276367,-1.333459348683693,-2.526511255894796,6.1108425734336755,1.0171769857406616,-2.8578770796405237
1708436866.0085182,-2.1420185565948486,-1.3334866029075165,-2.5265310446368616,6.110788690834799,1.0172271728515625,-2.8579302469836634
1708436866.0104873,-2.1420300006866455,-1.3334997457316895,-2.526560370122091,6.110793101578512,1.0172303915023804,-2.8579230944262903
1708436866.0125308,-2.1419880390167236,-1.333527759914734,-2.5264862219439905,6.110764848976888,1.017197608947754,-2.8578770796405237
1708436866.01453,-2.1419928073883057,-1.3335246604732056,-2.526482884083883,6.110806453018942,1.017197608947754,-2.8578677813159388
1708436866.016494,-2.1419880390167236,-1.3335233491710206,-2.526543919240133,6.110797512322225,1.0171846151351929,-2.8578816095935267
1708436866.0184896,-2.1420228481292725,-1.3335114282420655,-2.5265396277057093,6.1108213541801355,1.017197608947754,-2.857863489781515
1708436866.020487,-2.1420319080352783,-1.3335529130748291,-2.5265353361712855,6.110849964409628,1.017181396484375,-2.8578770796405237
1708436866.022491,-2.1419880390167236,-1.3334954243949433,-2.526527706776754,6.110755908280172,1.0172423124313354,-2.8578973452197474
1708436866.0244908,-2.1420016288757324,-1.3335086566260834,-2.526527706776754,6.110838043480673,1.017225980758667,-2.8579066435443323
1708436866.026476,-2.142010450363159,-1.33349101365123,-2.5265429655658167,6.110779630928793,1.0172019004821777,-2.857879702244894
1708436866.0284925,-2.1420094966888428,-1.3335202497294922,-2.5265310446368616,6.110824692040243,1.017197608947754,-2.857872549687521
1708436866.030483,-2.1420140266418457,-1.3335650724223633,-2.526543919240133,6.110772239952841,1.017209768295288,-2.857889000569479
1708436866.0324893,-2.1419644355773926,-1.3335114282420655,-2.526572291051046,6.110751497536459,1.0172184705734253,-2.857927385960714
1708436866.0344865,-2.141989231109619,-1.3335144382766266,-2.526555840169088,6.110805022507467,1.0172054767608643,-2.8578606287585657
1708436866.0364902,-2.1420016288757324,-1.3335290116122742,-2.5265472571002405,6.110763299256124,1.017209768295288,-2.8579066435443323
1708436866.0384862,-2.1420140266418457,-1.3334699285081406,-2.526506010686056,6.110838043480673,1.0172019004821777,-2.8579137961017054
1708436866.0405166,-2.1420514583587646,-1.3334743541530152,-2.52657658258547,6.110793101578512,1.017209768295288,-2.8578770796405237
1708436866.0424757,-2.1419758796691895,-1.3335365515998383,-2.5265515486346644,6.110830294876852,1.0172141790390015,-2.857960049306051
1708436866.0444822,-2.1420016288757324,-1.3334504228881379,-2.5265234152423304,6.11080943325118,1.0171856880187988,-2.857889000569479
1708436866.0464883,-2.1420342922210693,-1.3334919971278687,-2.5265310446368616,6.110755908280172,1.0171769857406616,-2.857879702244894
1708436866.0485,-2.1419970989227295,-1.3334954690984269,-2.5265069643603724,6.110788690834799,1.0172141790390015,-2.8578816095935267
1708436866.0504866,-2.1420300006866455,-1.3334830862334748,-2.5265353361712855,6.110755908280172,1.017197608947754,-2.857872549687521
1708436866.0524974,-2.1419804096221924,-1.3335130673697968,-2.52651030222048,6.110796081810751,1.017225980758667,-2.8579183260547083
1708436866.0544891,-2.1420514583587646,-1.3334624928287049,-2.5265026728259485,6.11080943325118,1.0172184705734253,-2.8579183260547083
1708436866.0564842,-2.1420300006866455,-1.33350424588237,-2.5265234152423304,6.110751497536459,1.0171931982040405,-2.857884232197897
1708436866.058496,-2.1420514583587646,-1.3334787648967286,-2.5265310446368616,6.110818373947897,1.0171931982040405,-2.8579092661487024
1708436866.0605333,-2.1419970989227295,-1.3335114282420655,-2.5264981428729456,6.1107767699058435,1.0171931982040405,-2.857915465031759
1708436866.062489,-2.141950845718384,-1.3334536713412781,-2.5265148321734827,6.110805022507467,1.0171844959259033,-2.857872549687521
1708436866.064491,-2.1419880390167236,-1.3335320365479966,-2.5265069643603724,6.110825884133138,1.017197608947754,-2.857870880757467
1708436866.066474,-2.1420094966888428,-1.3334580224803467,-2.5265191237079065,6.110787141114034,1.017209768295288,-2.857931915913717
1708436866.0684905,-2.1420140266418457,-1.3335114282420655,-2.5265396277057093,6.110793101578512,1.0171769857406616,-2.857927385960714
1708436866.0704865,-2.142037868499756,-1.3335202497294922,-2.5264907518969935,6.11080943325118,1.017160415649414,-2.857863489781515
1708436866.0725205,-2.141984701156616,-1.3335157495788117,-2.5264981428729456,6.110816943436422,1.0171691179275513,-2.8579018751727503
1708436866.074501,-2.1419970989227295,-1.3335396510413666,-2.526506010686056,6.110797512322225,1.0171931982040405,-2.8578677813159388
1708436866.0764751,-2.1420140266418457,-1.333539680843689,-2.5265026728259485,6.110833632736959,1.0172348022460938,-2.8578973452197474
1708436866.0784664,-2.1420140266418457,-1.333492026930191,-2.5265026728259485,6.110755908280172,1.017209768295288,-2.8579066435443323
1708436866.080486,-2.142042398452759,-1.3335026067546387,-2.5265353361712855,6.110788690834799,1.0172019004821777,-2.8579111734973353
1708436866.0824769,-2.1420342922210693,-1.3335246604732056,-2.526572052632467,6.110788690834799,1.0171726942062378,-2.8579018751727503
1708436866.0844705,-2.1420185565948486,-1.3335114282420655,-2.5265148321734827,6.110830294876852,1.0171846151351929,-2.857943836842672
1708436866.0864756,-2.1419668197631836,-1.333507017498352,-2.5265515486346644,6.110779630928793,1.0172184705734253,-2.8578973452197474
1708436866.0884857,-2.142043352127075,-1.3334997457316895,-2.5265472571002405,6.110797512322225,1.0172141790390015,-2.857854668294088
1708436866.0904784,-2.1420300006866455,-1.33349101365123,-2.5265265146838587,6.110796081810751,1.017160415649414,-2.857872549687521
1708436866.092464,-2.1420342922210693,-1.33346679926429,-2.5265396277057093,6.110830294876852,1.017209768295288,-2.857943836842672
1708436866.0944972,-2.1420061588287354,-1.3335365515998383,-2.5265191237079065,6.1108425734336755,1.0171844959259033,-2.8579066435443323
1708436866.0964823,-2.1420164108276367,-1.3335233491710206,-2.5265515486346644,6.110772239952841,1.0171529054641724,-2.857854668294088
1708436866.098481,-2.1420185565948486,-1.333539680843689,-2.5265265146838587,6.11080943325118,1.017197608947754,-2.857863489781515
1708436866.1004908,-2.1420016288757324,-1.33349101365123,-2.5265234152423304,6.110772239952841,1.0171486139297485,-2.8579230944262903
1708436866.1024816,-2.1420094966888428,-1.3335277152112504,-2.5265353361712855,6.110791551857748,1.0172063112258911,-2.8578606287585657
1708436866.1044812,-2.1419575214385986,-1.3335246753743668,-2.526555840169088,6.110784160881796,1.0171931982040405,-2.857927385960714
1708436866.106478,-2.14200496673584,-1.3334981066039582,-2.5265396277057093,6.110825884133138,1.0171931982040405,-2.857927385960714
1708436866.1084836,-2.1420273780822754,-1.3335365814021607,-2.526555840169088,6.110830294876852,1.0172019004821777,-2.8579066435443323
1708436866.1104815,-2.1420185565948486,-1.333540992145874,-2.5265234152423304,6.1107767699058435,1.017181396484375,-2.8579092661487024
1708436866.1124923,-2.1420016288757324,-1.3334997308305283,-2.5265234152423304,6.1108425734336755,1.0171778202056885,-2.857889000569479
1708436866.1145024,-2.1419711112976074,-1.3335114282420655,-2.5264907518969935,6.110854494362631,1.017181396484375,-2.857915465031759
1708436866.116509,-2.14200496673584,-1.3335440915874024,-2.526555840169088,6.110806453018942,1.0171725749969482,-2.85785156885256
1708436866.1184754,-2.1420185565948486,-1.3335233342698594,-2.5265310446368616,6.110813963204183,1.017181396484375,-2.857884232197897
1708436866.1204846,-2.1420300006866455,-1.3335042756846924,-2.526544157658712,6.110805022507467,1.0172019004821777,-2.8578487078296106
1708436866.1224608,-2.1420514583587646,-1.3335277450135727,-2.526548449193136,6.110775220185079,1.017197608947754,-2.8578973452197474
1708436866.1244812,-2.141993761062622,-1.3335233491710206,-2.5265145937549036,6.110802042275228,1.0171691179275513,-2.8578677813159388
1708436866.1264586,-2.142010450363159,-1.3335518848947068,-2.52651554742922,6.110818373947897,1.0171778202056885,-2.857931915913717
1708436866.1284716,-2.1420388221740723,-1.3334830862334748,-2.5265191237079065,6.110858905106344,1.0171889066696167,-2.8578651587115687
1708436866.1304717,-2.1419804096221924,-1.3335607510856171,-2.526555840169088,6.11080943325118,1.0171900987625122,-2.857856337224142
1708436866.1324706,-2.1419711112976074,-1.3334954243949433,-2.5265191237079065,6.11073516586379,1.0171486139297485,-2.857872549687521
1708436866.1344864,-2.14200496673584,-1.3335365814021607,-2.526543919240133,6.110788690834799,1.0171726942062378,-2.8578932921039026
1708436866.1365,-2.1420254707336426,-1.3335233640721817,-2.526511255894796,6.110855924874105,1.0171856880187988,-2.8578160444842737
1708436866.1384728,-2.142068386077881,-1.3334909838489075,-2.526555840169088,6.110813963204183,1.0171889066696167,-2.8579228560077112
1708436866.1404781,-2.1420016288757324,-1.3334830862334748,-2.526511255894796,6.110797512322225,1.0172019004821777,-2.857915465031759
1708436866.1424634,-2.1419970989227295,-1.3335440915874024,-2.526543919240133,6.1108213541801355,1.0171691179275513,-2.857795540486471
1708436866.1445034,-2.1420140266418457,-1.3334580224803467,-2.5265234152423304,6.110784160881796,1.0172019004821777,-2.8579111734973353
1708436866.1464653,-2.1420016288757324,-1.33346243322406,-2.526543919240133,6.1108425734336755,1.0171945095062256,-2.8578489462481897
1708436866.148474,-2.1420061588287354,-1.3335114282420655,-2.5264950434314173,6.1108213541801355,1.0171486139297485,-2.85789925256838
1708436866.1504922,-2.1419928073883057,-1.33349101365123,-2.526503626500265,6.110784160881796,1.0171778202056885,-2.857860867177145
1708436866.15247,-2.1420514583587646,-1.333483101134636,-2.526543919240133,6.110816943436422,1.0171778202056885,-2.8578813711749476
1708436866.1545131,-2.1419644355773926,-1.3335114282420655,-2.526511255894796,6.110802042275228,1.0171855688095093,-2.8578785101519983
1708436866.156485,-2.1420209407806396,-1.3335277450135727,-2.526536528264181,6.110784160881796,1.0171856880187988,-2.857816282902853
1708436866.1584628,-2.1419928073883057,-1.3335277450135727,-2.526511255894796,6.110816943436422,1.0171529054641724,-2.8578606287585657
1708436866.1605031,-2.1419804096221924,-1.3335365515998383,-2.5264907518969935,6.11080943325118,1.017194390296936,-2.85789925256838
1708436866.1624694,-2.14200496673584,-1.333540917640068,-2.526503626500265,6.110781180649557,1.0171735286712646,-2.8578651587115687
1708436866.1644797,-2.1420185565948486,-1.333507017498352,-2.526466671620504,6.110806453018942,1.0171648263931274,-2.857866350804464
1708436866.1664913,-2.1419804096221924,-1.3335114282420655,-2.5265234152423304,6.110784160881796,1.0171407461166382,-2.8578665892230433
1708436866.1684935,-2.1420388221740723,-1.3335099977305909,-2.526540819798605,6.110863315850057,1.0171529054641724,-2.8578174749957483
1708436866.1704726,-2.1419668197631836,-1.3335573238185425,-2.5265353361712855,6.110784160881796,1.0171747207641602,-2.8577879110919397
1708436866.1725168,-2.142000436782837,-1.3335189384273072,-2.526482884083883,6.110793101578512,1.017133116722107,-2.8578174749957483
1708436866.1744978,-2.1420300006866455,-1.3335086566260834,-2.526527706776754,6.110825884133138,1.0171527862548828,-2.8578293959247034
1708436866.1764863,-2.1419970989227295,-1.3335086566260834,-2.526499334965841,6.110788690834799,1.017145037651062,-2.8578041235553187
1708436866.178521,-2.141984701156616,-1.3335114282420655,-2.5264907518969935,6.110793101578512,1.017129898071289,-2.8578532377826136
1708436866.1805124,-2.1419880390167236,-1.333507017498352,-2.52651554742922,6.110878217011251,1.0171051025390625,-2.8577967325793665
1708436866.1825023,-2.1420185565948486,-1.3334909838489075,-2.526519838963644,6.110805022507467,1.0171082019805908,-2.8578174749957483
1708436866.1844995,-2.1420185565948486,-1.333540992145874,-2.5264950434314173,6.110767829209127,1.0171213150024414,-2.85779315630068
1708436866.186496,-2.1419804096221924,-1.3335202497294922,-2.5265191237079065,6.110788690834799,1.0171418190002441,-2.857784096394674
1708436866.1884968,-2.1420209407806396,-1.3334654134562989,-2.526503626500265,6.110772239952841,1.017104983329773,-2.857779566441671
1708436866.1904838,-2.141984701156616,-1.3335114282420655,-2.52651554742922,6.110793101578512,1.0171213150024414,-2.8577633539782923
1708436866.192511,-2.1420185565948486,-1.333449126487114,-2.5265124479876917,6.1107767699058435,1.0171136856079102,-2.857739512120382
1708436866.1944776,-2.1419880390167236,-1.3335130673697968,-2.526531998311178,6.110791551857748,1.0170718431472778,-2.857724730168478
1708436866.1965241,-2.1419835090637207,-1.3335114282420655,-2.5264905134784144,6.110812413483419,1.0171375274658203,-2.8577573935138147
1708436866.1984875,-2.1419880390167236,-1.333507017498352,-2.526508156453268,6.110800611763754,1.0171006917953491,-2.8577826658831995
1708436866.2004845,-2.1420469284057617,-1.3334667545608063,-2.5264950434314173,6.1108425734336755,1.017129898071289,-2.8577216307269495
1708436866.202495,-2.1420514583587646,-1.3334830862334748,-2.526503626500265,6.110846984177389,1.0171256065368652,-2.857670609151022
1708436866.2044904,-2.1419928073883057,-1.3335157495788117,-2.52655274072756,6.110755908280172,1.0170643329620361,-2.857680861149923
1708436866.2065082,-2.141984701156616,-1.33349101365123,-2.5265002886401575,6.110825884133138,1.017096757888794,-2.8577216307269495
1708436866.2085125,-2.14200496673584,-1.3335440170815964,-2.52651554742922,6.110800611763754,1.017080545425415,-2.8576882521258753
1708436866.2104902,-2.1419732570648193,-1.3334504079869767,-2.5265069643603724,6.110763299256124,1.017129898071289,-2.8576765696154993
1708436866.2125096,-2.1419732570648193,-1.333507017498352,-2.526548449193136,6.110784160881796,1.0171430110931396,-2.8577588240252894
1708436866.2145255,-2.1420016288757324,-1.3335650724223633,-2.526499334965841,6.110816943436422,1.017073154449463,-2.8576481978045862
1708436866.2166238,-2.1419758796691895,-1.3334787648967286,-2.526532236729757,6.110825884133138,1.017085075378418,-2.857718054448263
1708436866.2185247,-2.1420185565948486,-1.333536536698677,-2.5264959971057337,6.110797512322225,1.0170774459838867,-2.857713762913839
1708436866.2205045,-2.1420273780822754,-1.3334712547114869,-2.526466433201925,6.110796081810751,1.017056941986084,-2.85768968263735
1708436866.2224913,-2.142042398452759,-1.3335114282420655,-2.526499334965841,6.1107767699058435,1.0171024799346924,-2.85771352449526
1708436866.224499,-2.141989231109619,-1.3334743541530152,-2.526458803807394,6.110813963204183,1.0170655250549316,-2.857739512120382
1708436866.2264884,-2.1420094966888428,-1.333496407871582,-2.526487175618307,6.11080943325118,1.017086148262024,-2.8576720396624964
1708436866.2285056,-2.1419529914855957,-1.3335352551988144,-2.52651554742922,6.1107767699058435,1.017086148262024,-2.8577216307269495
1708436866.2305295,-2.1419804096221924,-1.3335157495788117,-2.526540819798605,6.11078559139327,1.0170533657073975,-2.8576765696154993
1708436866.2325184,-2.1420140266418457,-1.3335498136333008,-2.526482884083883,6.110788690834799,1.0170284509658813,-2.857713762913839
1708436866.234488,-2.1420557498931885,-1.3335157197764893,-2.526475254689352,6.110790121346273,1.0170817375183105,-2.8576930204974573
1708436866.2364895,-2.1419758796691895,-1.3334830862334748,-2.526466671620504,6.11086784580306,1.0170414447784424,-2.857697312031881
1708436866.2384706,-2.1420388221740723,-1.3334997457316895,-2.526458803807394,6.110781180649557,1.0170533657073975,-2.857685391102926
1708436866.2404838,-2.1419970989227295,-1.33349101365123,-2.52645451227297,6.110763299256124,1.0169748067855835,-2.8576765696154993
1708436866.2425117,-2.142059326171875,-1.3334954541972657,-2.526487175618307,6.110727655678549,1.0170502662658691,-2.8577216307269495
1708436866.2444768,-2.1419758796691895,-1.3335099679282685,-2.5264914671527308,6.110834705620565,1.0170292854309082,-2.8576720396624964
1708436866.2464826,-2.1419928073883057,-1.3334830862334748,-2.526482884083883,6.1107603190238855,1.0170248746871948,-2.8576393763171595
1708436866.248488,-2.142063856124878,-1.3334787648967286,-2.526470963154928,6.110830294876852,1.0170007944107056,-2.857689921055929
1708436866.250471,-2.1420061588287354,-1.3334954243949433,-2.526458803807394,6.110802042275228,1.017005205154419,-2.857678000126974
1708436866.2524784,-2.1419599056243896,-1.3334910434535523,-2.5264914671527308,6.11082278469161,1.01698899269104,-2.857718054448263
1708436866.2544792,-2.1419804096221924,-1.3335365814021607,-2.526475254689352,6.110797512322225,1.017005205154419,-2.857657257710592
1708436866.256493,-2.1420094966888428,-1.3335484129241486,-2.5264676252948206,6.110755908280172,1.0169475078582764,-2.8577104250537317
1708436866.2584765,-2.1420061588287354,-1.3334743839553376,-2.5265167395221155,6.110797512322225,1.0169975757598877,-2.8576765696154993
1708436866.2605014,-2.1419880390167236,-1.33349101365123,-2.526482884083883,6.11078559139327,1.016977071762085,-2.857701603566305
1708436866.2624674,-2.14200496673584,-1.3335202497294922,-2.5264959971057337,6.110846984177389,1.016977071762085,-2.8576720396624964
1708436866.2644787,-2.141984701156616,-1.333540902738907,-2.5265124479876917,6.110833632736959,1.0170106887817383,-2.857685391102926
1708436866.2664933,-2.1419758796691895,-1.33349101365123,-2.526470963154928,6.110806453018942,1.0170106887817383,-2.8576632181750696
1708436866.2684944,-2.1419970989227295,-1.333540992145874,-2.5264719168292444,6.110788690834799,1.0169726610183716,-2.8577128092395228
1708436866.2704866,-2.1419804096221924,-1.3334580671838303,-2.526466671620504,6.110802042275228,1.0169975757598877,-2.8577335516559046
1708436866.2725031,-2.1420228481292725,-1.3335114282420655,-2.526479784642355,6.110801923065939,1.016952633857727,-2.8577290217029017
1708436866.2744694,-2.1419689655303955,-1.3334743541530152,-2.526475254689352,6.110767829209127,1.016952633857727,-2.8577616850482386
1708436866.2764857,-2.1419618129730225,-1.3335365814021607,-2.52647835413088,6.110788690834799,1.0169570446014404,-2.8577738443957728
1708436866.2784739,-2.1419758796691895,-1.3334919971278687,-2.526459042225973,6.1108213541801355,1.0169332027435303,-2.8577900568591517
1708436866.2804725,-2.1419970989227295,-1.3335202497294922,-2.526458803807394,6.110797512322225,1.0169570446014404,-2.857764784489767
1708436866.2824695,-2.1420061588287354,-1.3334460866502305,-2.526447121297018,6.110764848976888,1.016970157623291,-2.8578665892230433
1708436866.2844772,-2.1419880390167236,-1.33350424588237,-2.5264762083636683,6.11078559139327,1.0169657468795776,-2.857882801686422
1708436866.2864876,-2.14200496673584,-1.33350424588237,-2.526442591344015,6.110813963204183,1.0169289112091064,-2.8578696886645716
1708436866.288506,-2.141984701156616,-1.3335202944329758,-2.5264676252948206,6.11076174953536,1.0169821977615356,-2.8579066435443323
1708436866.2905083,-2.1420185565948486,-1.3334830862334748,-2.526447121297018,6.110773670464315,1.016921043395996,-2.857934538518087
1708436866.2924986,-2.1420254707336426,-1.3335157495788117,-2.526475254689352,6.110715377121725,1.0169419050216675,-2.8579540888415735
1708436866.2944741,-2.1420388221740723,-1.3334580224803467,-2.5264557043658655,6.11074839809493,1.0169332027435303,-2.857985798512594
1708436866.2964842,-2.1420016288757324,-1.3334712547114869,-2.526480738316671,6.110727536469259,1.0168960094451904,-2.8580482641803187
1708436866.2985034,-2.1419804096221924,-1.3335114133409043,-2.52643067041506,6.11069022396163,1.0169048309326172,-2.8580408732043665
1708436866.3005068,-2.1420185565948486,-1.3334580075791855,-2.5264273325549524,6.110773670464315,1.016921043395996,-2.8581188360797327
1708436866.3024797,-2.1420886516571045,-1.3334919822267075,-2.5264392534839075,6.110700595169821,1.0168806314468384,-2.858117405568258
1708436866.3044803,-2.1419970989227295,-1.3334667545608063,-2.526447121297018,6.1107287285621545,1.016921043395996,-2.858205858861105
1708436866.306494,-2.1420342922210693,-1.3334787648967286,-2.5264273325549524,6.110763299256124,1.0168720483779907,-2.8582916895495813
1708436866.3084931,-2.142009735107422,-1.3334875863841553,-2.5264883677112024,6.110724198609152,1.016926646232605,-2.8583183924304407
1708436866.3104925,-2.141984701156616,-1.3334997457316895,-2.5264108816729944,6.110712396889486,1.0169341564178467,-2.8584306875811976
1708436866.3124983,-2.1419732570648193,-1.3334580820849915,-2.5264230410205286,6.110737669258871,1.0168684720993042,-2.85853082338442
1708436866.314514,-2.1420300006866455,-1.3335086417249222,-2.5264230410205286,6.110651004105367,1.0168522596359253,-2.8585780302630823
1708436866.3164835,-2.1419970989227295,-1.333491937523224,-2.5264480749713343,6.110697495728292,1.0168640613555908,-2.8586695829974573
1708436866.3185015,-2.142043352127075,-1.3335086715272446,-2.526403252278463,6.1106454012687585,1.016831636428833,-2.85880691209902
1708436866.3205132,-2.1419644355773926,-1.333540992145874,-2.5263989607440394,6.110609400063314,1.0168652534484863,-2.858837429677145
1708436866.322511,-2.1420300006866455,-1.3335130375674744,-2.526423756276266,6.110658752709188,1.0168328285217285,-2.85899526277651
1708436866.3245096,-2.1420469284057617,-1.3334756654552002,-2.526379410420553,6.110576259880819,1.016862154006958,-2.8590830008136194
1708436866.3265157,-2.1420061588287354,-1.3335174781135102,-2.5263224283801478,6.1106228707130334,1.0167921781539917,-2.859220329915182
1708436866.3285058,-2.141989231109619,-1.3334919971278687,-2.5263150374041956,6.110609400063314,1.016812801361084,-2.859311644230978
1708436866.3304715,-2.1419970989227295,-1.3334592592767258,-2.5263150374041956,6.110597479134359,1.0168503522872925,-2.8594237009631556
1708436866.3324738,-2.1420140266418457,-1.3335114282420655,-2.52635628381838,6.1106018898780725,1.0168039798736572,-2.859572950993673
1708436866.3344789,-2.1420228481292725,-1.3334667843631287,-2.5263105074511927,6.1106018898780725,1.0168083906173706,-2.8597422281848353
1708436866.3364925,-2.1420319080352783,-1.3335174781135102,-2.5262911955462855,6.1106018898780725,1.016862154006958,-2.8597987333880823
1708436866.338461,-2.141993761062622,-1.3334536862424393,-2.5263312498675745,6.110500442772665,1.0168083906173706,-2.8599849382983606
1708436866.3404856,-2.1420185565948486,-1.3334624481252213,-2.526254955922262,6.110544669419088,1.0167800188064575,-2.8601036707507532
1708436866.3424768,-2.1420016288757324,-1.333484486942627,-2.5262954870807093,6.110542046814718,1.0167887210845947,-2.8602927366839808
1708436866.344478,-2.1420185565948486,-1.3334919822267075,-2.526287619267599,6.110534536629476,1.0167887210845947,-2.860382620488302
1708436866.3464959,-2.1420228481292725,-1.333532066350319,-2.52627140680422,6.11051224449233,1.0167843103408813,-2.8605926672564905
1708436866.3485043,-2.1419601440429688,-1.3334624034217377,-2.526249710713522,6.110521304398336,1.0167800188064575,-2.860769335423605
1708436866.350462,-2.1419484615325928,-1.333529071216919,-2.5262747446643274,6.110510575562277,1.0168215036392212,-2.860952679310934
1708436866.3524668,-2.1420061588287354,-1.3335008782199402,-2.526250425969259,6.1104822037513635,1.016756296157837,-2.861156765614645
1708436866.3544724,-2.1419689655303955,-1.3334876012853165,-2.526287619267599,6.110458123474874,1.0167737007141113,-2.861361567174093
1708436866.3564785,-2.1420016288757324,-1.3334756356528779,-2.526250425969259,6.110409366875448,1.0167768001556396,-2.861575190220968
1708436866.3585024,-2.1419970989227295,-1.33349201202903,-2.5262625853167933,6.110379087715902,1.0167737007141113,-2.861703697835104
1708436866.360491,-2.141998052597046,-1.333447442655899,-2.526267115269796,6.1103941080863855,1.0167373418807983,-2.861929480229513
1708436866.3624773,-2.1420061588287354,-1.3334549528411408,-2.5262461344348353,6.1103941080863855,1.0167330503463745,-2.8621793429004114
1708436866.364479,-2.1419687271118164,-1.3334844571403046,-2.526311699544088,6.110379206925192,1.0167254209518433,-2.8622997442828577
1708436866.366467,-2.141993761062622,-1.3334712100080033,-2.5262461344348353,6.110400068550863,1.0166839361190796,-2.8626025358783167
1708436866.3684776,-2.1419074535369873,-1.3334474128535767,-2.526275698338644,6.110346185951986,1.0166926383972168,-2.8628621737109583
1708436866.370487,-2.1419575214385986,-1.3334770214608689,-2.5262919108020228,6.110343205719747,1.0166598558425903,-2.863142792378561
1708436866.3724892,-2.1419689655303955,-1.333430753355362,-2.5262308756457728,6.1102415201957605,1.0166926383972168,-2.863427702580587
1708436866.374476,-2.1420364379882812,-1.3334563386491318,-2.5262919108020228,6.110314833908834,1.0166610479354858,-2.863715712224142
1708436866.3765018,-2.1419448852539062,-1.3333937388709565,-2.5262473265277308,6.110264050751486,1.0166566371917725,-2.8639755884753626
1708436866.378489,-2.1419405937194824,-1.3334351193955918,-2.5262561480151575,6.110210048943319,1.0166313648223877,-2.864283625279562
1708436866.380468,-2.1419405937194824,-1.333395318394043,-2.5262473265277308,6.110137092858114,1.016648769378662,-2.864554468785421
1708436866.3824816,-2.141921043395996,-1.3334277433208008,-2.526275698338644,6.110166775971212,1.0166313648223877,-2.864882532750265
1708436866.3844767,-2.141937017440796,-1.3334726256183167,-2.526243034993307,6.11015938499526,1.016635775566101,-2.86525804201235
1708436866.3864791,-2.1419222354888916,-1.3334651452353974,-2.526181761418478,6.110105502396383,1.016607642173767,-2.8655973116504114
1708436866.3884857,-2.141921043395996,-1.3333831888488312,-2.5262234846698206,6.110103952675619,1.0165997743606567,-2.8658912817584437
1708436866.3904924,-2.1419222354888916,-1.3334246438792725,-2.5261860529529017,6.110054838448324,1.0166206359863281,-2.8663347403155726
1708436866.392497,-2.141934633255005,-1.3334440749934693,-2.526236597691671,6.11008762100295,1.016592264175415,-2.8667216936694544
1708436866.39448,-2.141866683959961,-1.3333787483027955,-2.5261948744403284,6.110009896546163,1.0165799856185913,-2.8670859972583216
1708436866.3965242,-2.141862154006958,-1.3333711338094254,-2.5262396971331995,6.110002386360922,1.0165843963623047,-2.8674829641925257
1708436866.398477,-2.1419026851654053,-1.3333756488612671,-2.5262027422534388,6.11000822761611,1.0165441036224365,-2.8679283300982874
1708436866.4004772,-2.1419026851654053,-1.333359346990921,-2.5261741320239466,6.109976756363668,1.0165321826934814,-2.8683434168445032
1708436866.4024916,-2.1418867111206055,-1.3333069843104859,-2.5261710325824183,6.109935152321615,1.016568899154663,-2.8687942663775843
1708436866.4044807,-2.1418983936309814,-1.3333726537278672,-2.526159111653463,6.109882700234213,1.0165245532989502,-2.869296375905172
1708436866.4064798,-2.1418302059173584,-1.3333559793284913,-2.5261786619769495,6.109842526703634,1.0165376663208008,-2.869730536137716
1708436866.4084842,-2.1418416500091553,-1.3333396476558228,-2.5261710325824183,6.10988866069869,1.016484022140503,-2.8702238241778772
1708436866.4104798,-2.1418347358703613,-1.3334021431258698,-2.5261417070971888,6.10980652549819,1.016467809677124,-2.8707097212420862
1708436866.4125085,-2.1418135166168213,-1.333341048364975,-2.526167694722311,6.109779345780172,1.016479730606079,-2.8711209932910364
1708436866.4144905,-2.1418099403381348,-1.3333202463439484,-2.5261884371386927,6.109845626145162,1.0164850950241089,-2.8715224901782435
1708436866.4164805,-2.1418232917785645,-1.3333247166923066,-2.526142660771505,6.109763014107504,1.0164029598236084,-2.872053925191061
1708436866.4185734,-2.141787052154541,-1.3333396476558228,-2.52614409128298,6.109806167870321,1.0164152383804321,-2.872537914906637
1708436866.4204838,-2.1417534351348877,-1.3333035719445725,-2.5261314550982874,6.109715330391683,1.0164282321929932,-2.8730095068561
1708436866.4225156,-2.1417460441589355,-1.3333440583995362,-2.52613073984255,6.109670388489523,1.0164488554000854,-2.8735724131213587
1708436866.4244916,-2.1417429447174072,-1.333287553196289,-2.5261152426349085,6.10963915565566,1.016416072845459,-2.874110523854391
1708436866.4265332,-2.1417508125305176,-1.3332963746837159,-2.5260663668261927,6.1096242544944666,1.0164369344711304,-2.874659840260641
1708436866.4285185,-2.1417055130004883,-1.3333247613957901,-2.5260990301715296,6.109606134682455,1.0163428783416748,-2.875183884297506
1708436866.4304912,-2.1417076587677,-1.333305225973465,-2.526111904774801,6.109540211945333,1.016350507736206,-2.8757060209857386
1708436866.4325008,-2.1417031288146973,-1.3332307499698182,-2.5260706583606165,6.109521257668295,1.0163590908050537,-2.87630802789797
1708436866.4345117,-2.141669511795044,-1.3333467257073899,-2.526055399571554,6.109489667206564,1.0163559913635254,-2.8768866697894495
1708436866.4365025,-2.141695261001587,-1.3332307052663346,-2.5260589758502405,6.109421241074362,1.0162994861602783,-2.877484146748678
1708436866.4385033,-2.1416544914245605,-1.3332844537547608,-2.5260751883136194,6.109389650612631,1.0163275003433228,-2.878075663243429
1708436866.4405098,-2.1416714191436768,-1.3332528632930298,-2.526083771382467,6.109328257828512,1.0162994861602783,-2.8786948362933558
1708436866.4425077,-2.14164400100708,-1.3332558882287522,-2.526067558919088,6.109243023186483,1.0162793397903442,-2.8793614546405237
1708436866.4444835,-2.1415741443634033,-1.3332365316203614,-2.5260139147387903,6.1092907069023035,1.0162761211395264,-2.8800256888019007
1708436866.4465475,-2.141594409942627,-1.3332187992385407,-2.526059691105978,6.109189259796896,1.0162599086761475,-2.88062030473818
1708436866.4485202,-2.141589879989624,-1.3332365316203614,-2.526010576878683,6.109165417938986,1.016261100769043,-2.8811877409564417
1708436866.4504962,-2.141570568084717,-1.33319607496772,-2.5260074774371546,6.109174358635702,1.0161951780319214,-2.881829802189962
1708436866.4525366,-2.1415445804595947,-1.3332291108420868,-2.5260728041278284,6.109053361206808,1.0161789655685425,-2.882519308720724
1708436866.4545128,-2.1415512561798096,-1.3332365614226838,-2.5260029474841517,6.108993279724874,1.0161833763122559,-2.8831992785083216
1708436866.456549,-2.1415014266967773,-1.3332365316203614,-2.5260608831988733,6.108997690468588,1.0161627531051636,-2.883784834538595
1708436866.4585,-2.141510486602783,-1.3331872087768097,-2.526003901158468,6.108959066658773,1.0161426067352295,-2.884559218083517
1708436866.4604983,-2.1414921283721924,-1.3332005155137558,-2.5259550253497522,6.108902084618368,1.0161595344543457,-2.885226313267843
1708436866.4625177,-2.1414220333099365,-1.3331515353969117,-2.5259507338153284,6.108855831414022,1.0161352157592773,-2.885958973561422
1708436866.4644985,-2.14144229888916,-1.333163784151413,-2.525979820881979,6.10884855964736,1.0160828828811646,-2.886667553578512
1708436866.4665112,-2.141414165496826,-1.3331845265677948,-2.525931183491842,6.108751523285665,1.0161113739013672,-2.88745886484255
1708436866.468507,-2.141448736190796,-1.3332048964551468,-2.5259388128863733,6.108654010086813,1.0160588026046753,-2.8880777994738978
1708436866.4705079,-2.1413776874542236,-1.3331602674773713,-2.525980059300558,6.108733403473654,1.0160675048828125,-2.8888397852527063
1708436866.4725084,-2.1413629055023193,-1.3332065802863617,-2.525931183491842,6.108655559807577,1.0160465240478516,-2.8895180861102503
1708436866.4744966,-2.141374349594116,-1.3331454259208222,-2.5258784929858606,6.108579265862264,1.0160434246063232,-2.890317742024557
1708436866.4765112,-2.141317844390869,-1.333145411019661,-2.5258830229388636,6.108470308571615,1.016006350517273,-2.8910730520831507
1708436866.478479,-2.14129376411438,-1.3331454408219834,-2.5258904139148157,6.1084807989890955,1.0159865617752075,-2.89186674753298
1708436866.4804816,-2.14125394821167,-1.3331124198487778,-2.5259035269366663,6.10840009430007,1.0160281658172607,-2.8925679365741175
1708436866.4824977,-2.1413252353668213,-1.3331168454936524,-2.5258947054492396,6.108413445740499,1.0160082578659058,-2.8932960669146937
1708436866.4844816,-2.1412179470062256,-1.3330930036357422,-2.5258916060077112,6.1083655236061,1.0159833431243896,-2.894120756779806
1708436866.4865026,-2.1412267684936523,-1.3330974143794556,-2.525867764149801,6.108272778778829,1.015966773033142,-2.8949974218951624
1708436866.4884927,-2.141195058822632,-1.333101825123169,-2.5258472601519983,6.108199584275045,1.015923023223877,-2.8957346121417444
1708436866.4905105,-2.141190528869629,-1.3330974143794556,-2.5258384386645716,6.108181822090902,1.0159142017364502,-2.8965147177325647
1708436866.4925356,-2.1411678791046143,-1.333076686864235,-2.525802199040548,6.108124840050497,1.015923023223877,-2.8973260561572474
1708436866.49448,-2.1411385536193848,-1.3330409091762085,-2.525827471409933,6.108050215035238,1.015878677368164,-2.8982542196856897
1708436866.4965181,-2.1411449909210205,-1.333057240848877,-2.525848452244894,6.108002173691549,1.0158872604370117,-2.899052445088522
1708436866.4985032,-2.1410906314849854,-1.3330242496779938,-2.525839630757467,6.107995855599203,1.0158631801605225,-2.899888579045431
1708436866.5004873,-2.1410839557647705,-1.332963005905487,-2.525778357182638,6.107906687050619,1.0158510208129883,-2.9008103052722376
1708436866.5024881,-2.1410634517669678,-1.33303456128154,-2.525766436253683,6.107800590782919,1.0158064365386963,-2.9016647974597376
1708436866.5045218,-2.14103627204895,-1.3330463928035279,-2.5258196035968226,6.107724296837606,1.0158597230911255,-2.9025455156909388
1708436866.50649,-2.1410112380981445,-1.3329719317010422,-2.5257795492755335,6.1077273962791345,1.015826940536499,-2.9033940474139612
1708436866.5084763,-2.1410043239593506,-1.333013729458191,-2.5257630983935755,6.107658612519064,1.015799641609192,-2.9042380491839808
1708436866.5104876,-2.140974998474121,-1.332957224254944,-2.525776211415426,6.1076077101524255,1.0158040523529053,-2.9051345030414026
1708436866.5125153,-2.1409354209899902,-1.3329779666713257,-2.525759760533468,6.107529866486349,1.0157755613327026,-2.9060304800616663
1708436866.5145168,-2.140953302383423,-1.332993970518448,-2.52574330965151,6.107414710312643,1.0157221555709839,-2.9069233576404017
1708436866.516583,-2.1408956050872803,-1.3329868775657197,-2.5256901423083704,6.1073834774787805,1.015669584274292,-2.9078474680529993
1708436866.5184906,-2.1408841609954834,-1.3329616349986573,-2.5257399717914026,6.107352244644918,1.0156902074813843,-2.908705774937765
1708436866.5204954,-2.1408469676971436,-1.3329168123057862,-2.525674883519308,6.107292282372274,1.0156707763671875,-2.9095853010760706
1708436866.522477,-2.1408603191375732,-1.3329449755004426,-2.5256837050067347,6.1072250483329675,1.0156502723693848,-2.910433832799093
1708436866.524477,-2.1408658027648926,-1.3329538863948365,-2.525658194218771,6.107130872994222,1.0156632661819458,-2.911335055028097
1708436866.5264606,-2.14082407951355,-1.3329123121551056,-2.5257087389575403,6.107121693878927,1.0156301259994507,-2.912290398274557
1708436866.5285022,-2.1407957077026367,-1.3329300594380875,-2.5256713072406214,6.107012617378988,1.015548586845398,-2.9132233301745813
1708436866.5305004,-2.1407763957977295,-1.3328362268260499,-2.525635544453756,6.106957661896505,1.0156147480010986,-2.9141741434680384
1708436866.532468,-2.1407570838928223,-1.332905964260437,-2.5256474653827112,6.106985914498129,1.0155823230743408,-2.915135447178976
1708436866.534497,-2.1407322883605957,-1.3328865331462403,-2.5256193319903772,6.1068259356315515,1.0155534744262695,-2.9159839789019983
1708436866.5364718,-2.140720844268799,-1.3328820329955597,-2.525635544453756,6.106773483544149,1.0155298709869385,-2.916892115269796
1708436866.5384715,-2.140690326690674,-1.3328450483134766,-2.52557880083193,6.106685387879171,1.0155471563339233,-2.917783562337057
1708436866.5404985,-2.1406641006469727,-1.3328493696502228,-2.525644365941183,6.106695878296652,1.0155222415924072,-2.9187689463244837
1708436866.5424864,-2.1405985355377197,-1.3328181070140381,-2.525627915059225,6.106586801796713,1.0154696702957153,-2.9197166601764124
1708436866.5444837,-2.1406538486480713,-1.33279703677211,-2.5255699793445032,6.106506216316976,1.0154531002044678,-2.9206376711474817
1708436866.5464694,-2.140580177307129,-1.3328314286521454,-2.525611464177267,6.106446254044332,1.0154705047607422,-2.9216190020190638
1708436866.5484695,-2.140592575073242,-1.3328314286521454,-2.5255916754352015,6.1063328860099695,1.0154423713684082,-2.922541681920187
1708436866.550467,-2.1405484676361084,-1.3327521246722718,-2.5255711714373987,6.10633550861434,1.0154095888137817,-2.923504892979757
1708436866.5524595,-2.140496253967285,-1.3327212792686005,-2.5255754629718226,6.1062670824821375,1.0153570175170898,-2.924462620412008
1708436866.5545042,-2.140463352203369,-1.3327331107905884,-2.5255473295794886,6.106184828072347,1.0153658390045166,-2.925406519566671
1708436866.5565078,-2.140446424484253,-1.3327699464610596,-2.525588575993673,6.10608600357131,1.0153613090515137,-2.9263950029956263
1708436866.558581,-2.140481472015381,-1.3327419322780152,-2.5255394617663782,6.105999338417806,1.0153744220733643,-2.9273651281939905
1708436866.5604851,-2.140432834625244,-1.3327552539161225,-2.525543753300802,6.105936515122213,1.015341877937317,-2.928366009389059
1708436866.5624695,-2.1404011249542236,-1.332771585588791,-2.5255232493029993,6.105921613961019,1.0153381824493408,-2.929422203694479
1708436866.564486,-2.1403884887695312,-1.3327477437308808,-2.5254784266101282,6.105840909271993,1.0152894258499146,-2.9304922262774866
1708436866.5664723,-2.1403896808624268,-1.3327222627452393,-2.52549916902651,6.105807888298788,1.0152697563171387,-2.931577984486715
1708436866.5684824,-2.1403825283050537,-1.332738922243454,-2.5255077520953577,6.1056885597999475,1.0152772665023804,-2.9326239267932337
1708436866.5704634,-2.1403632164001465,-1.3327147525599976,-2.5255406538592737,6.105592953949728,1.0152322053909302,-2.9337342421161097
1708436866.5725124,-2.1402764320373535,-1.33271478236232,-2.525438372288839,6.105528461724081,1.0152653455734253,-2.9348045031176966
1708436866.5745091,-2.1402738094329834,-1.33267434061084,-2.5254557768451136,6.105404245644369,1.0152497291564941,-2.9357169310199183
1708436866.5765004,-2.1402499675750732,-1.332707331781723,-2.5254796187030237,6.105398404389181,1.0152662992477417,-2.9365981260882776
1708436866.5784886,-2.140209197998047,-1.33267434061084,-2.5254514853106897,6.105314361840048,1.0152465105056763,-2.9376726786242884
1708436866.5804927,-2.140183448791504,-1.3326375049403687,-2.525446955357687,6.105256306916036,1.0151931047439575,-2.938732926045553
1708436866.582483,-2.140169620513916,-1.332655133014061,-2.5254433790790003,6.1051920531089685,1.0152390003204346,-2.939697567616598
1708436866.5844834,-2.1401572227478027,-1.3326344054988404,-2.525435749684469,6.105111229210653,1.0152227878570557,-2.940702501927511
1708436866.586485,-2.140153646469116,-1.3326134246638794,-2.5253987948047083,6.104966270714559,1.0151808261871338,-2.941651169453756
1708436866.5884976,-2.140179395675659,-1.3326388162425538,-2.5254603067981165,6.104914176255026,1.0151658058166504,-2.9426539579974573
1708436866.5905004,-2.140094518661499,-1.3326566380313416,-2.525407616292135,6.104975211411276,1.0151374340057373,-2.9436660448657435
1708436866.5924952,-2.140077829360962,-1.3325861555388947,-2.525423828755514,6.104873406677999,1.015146017074585,-2.944632593785421
1708436866.5944922,-2.1400513648986816,-1.3325534921935578,-2.52541953722109,6.1048093912895105,1.015092372894287,-2.9456003347979944
1708436866.5964823,-2.1400105953216553,-1.3326236468604584,-2.525363032017843,6.104742038040914,1.0151010751724243,-2.9466496149646204
1708436866.5985022,-2.1400468349456787,-1.33262054741893,-2.5254088083850306,6.1046732542808435,1.015065312385559,-2.9476118723498743
1708436866.6004863,-2.1399948596954346,-1.3325743240169068,-2.525383536015646,6.104547965317526,1.0150903463363647,-2.9486401716815394
1708436866.602505,-2.1399495601654053,-1.3325579923442383,-2.52535850206484,6.104550587921896,1.015033483505249,-2.9496193567859095
1708436866.6044781,-2.1399426460266113,-1.3325756353190918,-2.5253594557391565,6.104456889420309,1.0150213241577148,-2.9506614843951624
1708436866.6064775,-2.139910936355591,-1.3325593036464234,-2.5253759066211146,6.104368674546041,1.0150465965270996,-2.9516473452197474
1708436866.608493,-2.1399118900299072,-1.3326038879207154,-2.5253594557391565,6.104343044548788,1.0150094032287598,-2.952610794697897
1708436866.6104932,-2.1398720741271973,-1.332542971973755,-2.5253356138812464,6.104330765991964,1.0150225162506104,-2.953608576451437
1708436866.6124904,-2.139881134033203,-1.3325593036464234,-2.5253387133227747,6.104205477028646,1.015005111694336,-2.9546237627612513
1708436866.6144862,-2.1398427486419678,-1.3325398725322266,-2.5253432432757776,6.104187238007345,1.0150107145309448,-2.9556413332568567
1708436866.616558,-2.1397907733917236,-1.3325235408595582,-2.5253151098834437,6.104099142342367,1.0149974822998047,-2.9566121737109583
1708436866.6184995,-2.1398086547851562,-1.332532451753952,-2.5253072420703333,6.10405586937026,1.0149855613708496,-2.957648579274313
1708436866.6205013,-2.139763355255127,-1.3324950498393555,-2.5252984205829065,6.103991615563192,1.0149987936019897,-2.958688561116354
1708436866.622504,-2.139763355255127,-1.3324623864940186,-2.525315825139181,6.103955614357748,1.0149612426757812,-2.9596834818469446
1708436866.62449,-2.1396830081939697,-1.3324558597854157,-2.525348726903097,6.103940951615133,1.0149286985397339,-2.9607542196856897
1708436866.6264794,-2.1397223472595215,-1.3324787032655259,-2.5252917448626917,6.103791582375326,1.0149046182632446,-2.961759392415182
1708436866.6285295,-2.1396634578704834,-1.3324514490417023,-2.5252462069140833,6.103715407639303,1.0149165391921997,-2.962853733693258
1708436866.63048,-2.1396477222442627,-1.3323939603618165,-2.5252917448626917,6.103664386063375,1.014897108078003,-2.9639182726489466
1708436866.632484,-2.13960337638855,-1.3324801188758393,-2.5252743403064173,6.103641736298361,1.014897108078003,-2.9649651686297815
1708436866.6344712,-2.1395413875579834,-1.3324398559382935,-2.525247399006979,6.103561031609335,1.0149176120758057,-2.9660163561450403
1708436866.6364882,-2.1395184993743896,-1.3324279350093384,-2.525275532399313,6.103431212693014,1.0149102210998535,-2.9670050779925745
1708436866.638466,-2.1395184993743896,-1.3324279350093384,-2.5252311865436,6.103407370835104,1.0148489475250244,-2.9680569807635706
1708436866.6404855,-2.139508008956909,-1.3324487668326874,-2.525271240864889,6.1033609984214685,1.014890193939209,-2.969166103993551
1708436866.6424642,-2.139458417892456,-1.3323994439891358,-2.5252516905414026,6.10335789897994,1.0148248672485352,-2.970210138951437
1708436866.6445065,-2.1395134925842285,-1.3324082654765625,-2.5252679030047815,6.1033233282859705,1.0148422718048096,-2.9713168779956263
1708436866.6464555,-2.1394762992858887,-1.3323456209949036,-2.5252233187304896,6.103201019554891,1.014779806137085,-2.9722862879382532
1708436866.6484637,-2.139432191848755,-1.3323831123164673,-2.5252605120288294,6.103105532913961,1.0147604942321777,-2.9731887022601526
1708436866.650474,-2.1393957138061523,-1.3323801022819062,-2.5252679030047815,6.103171217232504,1.0147680044174194,-2.974269215260641
1708436866.6524777,-2.1394002437591553,-1.332420514231064,-2.5251992384540003,6.103017437248983,1.0147885084152222,-2.9752610365497034
1708436866.6544714,-2.139383316040039,-1.332391933803894,-2.525219742451803,6.10299168804244,1.0148093700408936,-2.9763696829425257
1708436866.6564674,-2.1393754482269287,-1.332412765627243,-2.525219742451803,6.102960097580709,1.0147690773010254,-2.9774301687823694
1708436866.6584861,-2.1393401622772217,-1.3323263090899964,-2.525219742451803,6.1028960821922205,1.0147603750228882,-2.97845966020693
