Eg3-git/Classifiers/Data Collection/u5/u5abc2_ur3e_joint_states.csv
time,elbow_joint,shoulder_lift_joint,shoulder_pan_joint,wrist_1_joint,wrist_2_joint,wrist_3_joint
1708436844.4404886,-2.1542820930480957,-1.3375034195235749,-2.5269597212420862,6.142442095070638,1.0178743600845337,-2.520024124776022
1708436844.4425144,-2.154322862625122,-1.3375448447516938,-2.526919190083639,6.142431366234579,1.017919898033142,-2.519963804875509
1708436844.4444938,-2.154320478439331,-1.3375682544759293,-2.526902739201681,6.142442095070638,1.0178744792938232,-2.5200005213366907
1708436844.4465168,-2.1542413234710693,-1.3375812482884903,-2.526919190083639,6.1424269554908655,1.0178744792938232,-2.519968096409933
1708436844.4485204,-2.1542775630950928,-1.3376010221293946,-2.526947561894552,6.142413484841146,1.017936110496521,-2.519968096409933
1708436844.4504876,-2.154315948486328,-1.3375898462584992,-2.526902739201681,6.142460095673361,1.017894983291626,-2.5200286547290247
1708436844.4525528,-2.1542866230010986,-1.3375206750682374,-2.526944700871603,6.142474877625265,1.0179400444030762,-2.519926134740011
1708436844.4544926,-2.1542820930480957,-1.3375844669393082,-2.526907269154684,6.142446625023641,1.0178906917572021,-2.520012442265646
1708436844.4565334,-2.1542775630950928,-1.3375854653171082,-2.526931111012594,6.142451035767355,1.0178502798080444,-2.520007912312643
1708436844.4585183,-2.15427303314209,-1.337572620516159,-2.526947561894552,6.142472016602316,1.0179036855697632,-2.5199506918536585
1708436844.4604943,-2.1543045043945312,-1.3375564080527802,-2.526977841054098,6.142451035767355,1.017891764640808,-2.5199788252459925
1708436844.4625075,-2.1542866230010986,-1.3375845116427918,-2.526961151753561,6.14241503456191,1.017906904220581,-2.519991699849264
1708436844.464486,-2.154309034347534,-1.3375448149493714,-2.526923720036642,6.142413484841146,1.017883062362671,-2.5199788252459925
1708436844.4665132,-2.154327154159546,-1.3375769418529053,-2.526952091847555,6.142431366234579,1.0178864002227783,-2.520007912312643
1708436844.468593,-2.15427303314209,-1.3375769418529053,-2.526914660130636,6.1424269554908655,1.0179026126861572,-2.5199785868274134
1708436844.4704835,-2.1542999744415283,-1.337565006022789,-2.526935640965597,6.142468917160787,1.0178744792938232,-2.5199089686023157
1708436844.472489,-2.1542820930480957,-1.3375974905541916,-2.526935640965597,6.14245222786025,1.017919898033142,-2.519991699849264
1708436844.474475,-2.1543619632720947,-1.3375163537314911,-2.526919190083639,6.142447817116537,1.0179036855697632,-2.519959274922506
1708436844.476483,-2.154353141784668,-1.3375801307014008,-2.526931111012594,6.142485368042745,1.0178337097167969,-2.520012442265646
1708436844.478504,-2.1542999744415283,-1.3376182329705735,-2.5269401709186,6.142372953682699,1.0178992748260498,-2.5199464003192347
1708436844.4804907,-2.154250383377075,-1.3376097095063706,-2.526911799107687,6.142361032753744,1.0178906917572021,-2.519942585621969
1708436844.4824789,-2.154322862625122,-1.3375726503184815,-2.526935640965597,6.142332660942831,1.017878770828247,-2.5200005213366907
1708436844.4844875,-2.1542775630950928,-1.3376269352487107,-2.5269327799426478,6.142398702889242,1.0178579092025757,-2.5199294726001185
1708436844.4864821,-2.1542911529541016,-1.3375736486962815,-2.5269401709186,6.1423953650291345,1.0178709030151367,-2.5200048128711146
1708436844.4884863,-2.154270648956299,-1.3376054179719468,-2.526938501988546,6.14241503456191,1.0178664922714233,-2.51994234720339
1708436844.490523,-2.1542909145355225,-1.3375931692174454,-2.526922051106588,6.142332660942831,1.0178709030151367,-2.519918743764059
1708436844.492473,-2.1542866230010986,-1.3375607144883652,-2.526902739201681,6.142398702889242,1.0178622007369995,-2.5199292341815394
1708436844.4944837,-2.154324769973755,-1.3375607144883652,-2.526935640965597,6.142456877022543,1.017891764640808,-2.519996229802267
1708436844.496477,-2.1542413234710693,-1.3375405085137864,-2.526881519948141,6.142408954888143,1.0178664922714233,-2.519914452229635
1708436844.4984934,-2.1542820930480957,-1.3375726354173203,-2.526928249989645,6.142394172936239,1.0178992748260498,-2.519959274922506
1708436844.5005417,-2.1542909145355225,-1.3375650209239502,-2.526935640965597,6.14234625080184,1.017878770828247,-2.519959274922506
1708436844.502483,-2.1542909145355225,-1.3375520271113892,-2.526935640965597,6.142362582474508,1.0178874731063843,-2.519934956227438
1708436844.5045013,-2.154254674911499,-1.3376016479781647,-2.526935640965597,6.142355191498556,1.017907977104187,-2.519996229802267
1708436844.506487,-2.1543045043945312,-1.337569223051407,-2.526907269154684,6.1423250315483,1.0178743600845337,-2.519926134740011
1708436844.5085232,-2.154261589050293,-1.3375844818404694,-2.526952091847555,6.142317640572347,1.0178664922714233,-2.519934956227438
1708436844.5105095,-2.1542954444885254,-1.3375639778426667,-2.526914660130636,6.142343032151022,1.017883062362671,-2.519934956227438
1708436844.512496,-2.1542820930480957,-1.3375650209239502,-2.526911799107687,6.142355191498556,1.017842411994934,-2.5199392477618616
1708436844.5144813,-2.15427303314209,-1.3375448447516938,-2.526943031941549,6.142295348435201,1.0179123878479004,-2.5199511686908167
1708436844.5165565,-2.154270648956299,-1.3375854653171082,-2.526943031941549,6.142262565880575,1.0178709030151367,-2.5199554602252405
1708436844.5184875,-2.15427303314209,-1.3375361275723954,-2.526919190083639,6.1423014281089685,1.0178381204605103,-2.519930664693014
1708436844.520508,-2.1543407440185547,-1.3375325959971924,-2.526952091847555,6.142238366394796,1.0178546905517578,-2.5199230352984827
1708436844.522499,-2.15427303314209,-1.3375240129283448,-2.526952091847555,6.142256366997518,1.017866611480713,-2.5199175516711634
1708436844.5245793,-2.1542820930480957,-1.3376054030707856,-2.526961151753561,6.142251837044515,1.017907977104187,-2.519963804875509
1708436844.5265543,-2.154261589050293,-1.3375769418529053,-2.526907269154684,6.142271506577291,1.0178546905517578,-2.519926134740011
1708436844.5285168,-2.1542820930480957,-1.3376378279975434,-2.526902739201681,6.142256366997518,1.0178874731063843,-2.519914452229635
1708436844.530499,-2.154233455657959,-1.3375120919993897,-2.526947561894552,6.142277347832479,1.017842411994934,-2.5199230352984827
1708436844.5324984,-2.15425705909729,-1.3375931692174454,-2.526902739201681,6.1422698376472376,1.0178709030151367,-2.5198944250689905
1708436844.5345068,-2.154320478439331,-1.3375282746604462,-2.526935640965597,6.142228114395895,1.0178546905517578,-2.5199480692492884
1708436844.5365336,-2.154263734817505,-1.3375607293895264,-2.526910130177633,6.1422191736991785,1.0178511142730713,-2.519918743764059
1708436844.5384967,-2.1542911529541016,-1.3375448447516938,-2.526923720036642,6.142219054489889,1.0178546905517578,-2.5199361483203333
1708436844.540492,-2.154309034347534,-1.3376096946052094,-2.526931111012594,6.142237055092611,1.0178217887878418,-2.5199149290667933
1708436844.5424836,-2.1543002128601074,-1.3375239682248612,-2.526886049901144,6.142129170685568,1.0178751945495605,-2.519919220601217
1708436844.544495,-2.154228925704956,-1.3375650209239502,-2.526931111012594,6.142266976624288,1.0178468227386475,-2.5198867956744593
1708436844.5465448,-2.1542775630950928,-1.3375448149493714,-2.526914660130636,6.142145502358236,1.0178664922714233,-2.519903008137838
1708436844.5484927,-2.154315948486328,-1.33751534045253,-2.526907269154684,6.14219211319045,1.0178381204605103,-2.5199361483203333
1708436844.5504751,-2.1543068885803223,-1.3375533384135743,-2.526919190083639,6.142145502358236,1.0178425312042236,-2.519919220601217
1708436844.5524967,-2.1542775630950928,-1.3376096946052094,-2.526919190083639,6.142196643143453,1.0178751945495605,-2.519911591206686
1708436844.5545142,-2.154309034347534,-1.3375163835338135,-2.5269401709186,6.142196643143453,1.017879605293274,-2.5198586622821253
1708436844.5564873,-2.154259204864502,-1.3375898164561768,-2.526926581059591,6.142184722214498,1.0178720951080322,-2.519818131123678
1708436844.5584877,-2.154315948486328,-1.33754055321727,-2.526931111012594,6.142201053887167,1.0178838968276978,-2.5198586622821253
1708436844.560502,-2.154237985610962,-1.3375564378551026,-2.526910130177633,6.1421053288276575,1.0178349018096924,-2.519829813634054
1708436844.562478,-2.1542794704437256,-1.3375607293895264,-2.526964251195089,6.142168032913961,1.017842411994934,-2.519829813634054
1708436844.5645115,-2.154237985610962,-1.33754055321727,-2.526898209248678,6.14214717128829,1.0178219079971313,-2.51982552209963
1708436844.5665371,-2.154259204864502,-1.3375405085137864,-2.526919190083639,6.142151582032003,1.0178381204605103,-2.51982552209963
1708436844.5684958,-2.154270648956299,-1.33754055321727,-2.526931111012594,6.142147052079,1.017879605293274,-2.5198472181903284
1708436844.5705016,-2.154259204864502,-1.3375533384135743,-2.526935640965597,6.142121660500326,1.0178349018096924,-2.5197985808001917
1708436844.5725124,-2.15425705909729,-1.3375726503184815,-2.526947561894552,6.1421172497566126,1.0178349018096924,-2.5198515097247522
1708436844.5744896,-2.154308795928955,-1.33754055321727,-2.526919190083639,6.142165052681722,1.0178349018096924,-2.519867722188131
1708436844.5764754,-2.1542751789093018,-1.3375564378551026,-2.526926581059591,6.142196643143453,1.0178436040878296,-2.5198386351214808
1708436844.5785172,-2.154259204864502,-1.3376344603351136,-2.526919190083639,6.1421440718467615,1.017814040184021,-2.519797388707296
1708436844.580523,-2.154261589050293,-1.3376139861396332,-2.526876989995138,6.142110931664266,1.0178393125534058,-2.5198028723346155
1708436844.5825057,-2.1542909145355225,-1.3375682693770905,-2.526914660130636,6.142115580826559,1.0178349018096924,-2.5198028723346155
1708436844.584537,-2.1542794704437256,-1.3375983995250245,-2.526926581059591,6.142165052681722,1.0178393125534058,-2.519773546849386
1708436844.5864878,-2.154324769973755,-1.3375769418529053,-2.526919190083639,6.142119991570272,1.0178022384643555,-2.5197575728045862
1708436844.5885117,-2.154250383377075,-1.33761818826709,-2.526919190083639,6.142132270127096,1.0177946090698242,-2.519810501729147
1708436844.5904922,-2.154245615005493,-1.3375283044627686,-2.526961151753561,6.142103659897604,1.0178096294403076,-2.519782368336813
1708436844.592499,-2.1542954444885254,-1.3376216304353257,-2.526928249989645,6.142103659897604,1.0178393125534058,-2.519789997731344
1708436844.5945516,-2.154261589050293,-1.3375520569137116,-2.526935640965597,6.142114269524374,1.0178183317184448,-2.5197866598712366
1708436844.5965245,-2.154270648956299,-1.33754055321727,-2.526923720036642,6.142119991570272,1.017802119255066,-2.5197909514056605
1708436844.5984929,-2.154261589050293,-1.3375533384135743,-2.526919190083639,6.142051327019491,1.0178436040878296,-2.5198028723346155
1708436844.600502,-2.1542909145355225,-1.3375726503184815,-2.526931111012594,6.142105209618368,1.0178511142730713,-2.5197492281543177
1708436844.6024919,-2.154313325881958,-1.3375620257905503,-2.526931111012594,6.1420888779456995,1.0178306102752686,-2.5197747389422815
1708436844.6044888,-2.154270648956299,-1.3375405085137864,-2.526898209248678,6.142022597580709,1.0178064107894897,-2.5198233763324183
1708436844.6064801,-2.154266119003296,-1.3375931543162842,-2.526935640965597,6.142097937851705,1.0178065299987793,-2.5198147932635706
1708436844.6085117,-2.154245615005493,-1.3375682693770905,-2.526914660130636,6.1420888779456995,1.0177741050720215,-2.519799772893087
1708436844.610494,-2.154263734817505,-1.3376225692084809,-2.52686053911318,6.142031657486715,1.0178641080856323,-2.5197790304767054
1708436844.6124945,-2.154250383377075,-1.3376060289195557,-2.526947561894552,6.142045008927145,1.0178349018096924,-2.5197952429400843
1708436844.6144862,-2.1542909145355225,-1.3375163537314911,-2.526952091847555,6.142060267716207,1.0178313255310059,-2.5197866598712366
1708436844.6165507,-2.154259204864502,-1.3375078004649659,-2.526902739201681,6.142081129341879,1.017802119255066,-2.5197909514056605
1708436844.6184957,-2.154254674911499,-1.337536798124649,-2.526919190083639,6.141977894097128,1.0178227424621582,-2.5197835604297083
1708436844.6204998,-2.1542751789093018,-1.3375491362861176,-2.5269401709186,6.142069208412924,1.017802119255066,-2.5197578112231653
1708436844.622528,-2.1542680263519287,-1.337597445850708,-2.526902739201681,6.141985404282369,1.017802119255066,-2.519792381917135
1708436844.6245513,-2.1542999744415283,-1.337536172275879,-2.526869599019186,6.142060148506918,1.017785906791687,-2.5197835604297083
1708436844.6265328,-2.154237985610962,-1.3375650209239502,-2.5269492308246058,6.142024266510763,1.0177654027938843,-2.519792143498556
1708436844.6300588,-2.1542954444885254,-1.3375854653171082,-2.526902739201681,6.142031657486715,1.017785906791687,-2.519766632710592
1708436844.6304984,-2.154263734817505,-1.3375736337951203,-2.526961151753561,6.142043816834249,1.0177903175354004,-2.5197117964373987
1708436844.6324985,-2.154216766357422,-1.3375607293895264,-2.526919190083639,6.142024147301473,1.0178183317184448,-2.519749704991476
1708436844.6344838,-2.154266119003296,-1.337597445850708,-2.526886049901144,6.142036187439718,1.0177741050720215,-2.5197952429400843
1708436844.6365154,-2.154254674911499,-1.337543473844864,-2.526947561894552,6.1420360682304285,1.0178393125534058,-2.519775454198019
1708436844.6385126,-2.154311418533325,-1.3375812333873291,-2.526968781148092,6.142049538880148,1.0177901983261108,-2.51972467104067
1708436844.6404877,-2.154237985610962,-1.33761818826709,-2.526907269154684,6.142052876740255,1.017786979675293,-2.5197880903827112
1708436844.642509,-2.1542866230010986,-1.3375448149493714,-2.526928249989645,6.14207814910964,1.017815113067627,-2.5197790304767054
1708436844.6444793,-2.1542751789093018,-1.33754055321727,-2.5269537607776087,6.142064678459921,1.017827033996582,-2.5197909514056605
1708436844.6465342,-2.154237985610962,-1.3375607293895264,-2.526923720036642,6.142093407898702,1.0178183317184448,-2.5197952429400843
1708436844.6484795,-2.1542954444885254,-1.3375405085137864,-2.526919190083639,6.142039406090536,1.0178436040878296,-2.519717280064718
1708436844.6504977,-2.1542909145355225,-1.337536783223488,-2.526893679295675,6.142064678459921,1.0178227424621582,-2.519762102757589
1708436844.6525419,-2.1542866230010986,-1.3376096946052094,-2.5268951098071497,6.142045008927145,1.0178065299987793,-2.519775454198019
1708436844.6544926,-2.1542751789093018,-1.3375726354173203,-2.526956621800558,6.142081129341879,1.0177946090698242,-2.5197835604297083
1708436844.6565375,-2.154270648956299,-1.337562010889389,-2.5268951098071497,6.1419763443763635,1.0177783966064453,-2.519740883504049
1708436844.6584992,-2.154261589050293,-1.337597445850708,-2.526886049901144,6.142027127533712,1.0177903175354004,-2.519712750111715
1708436844.6605308,-2.154252767562866,-1.3375282746604462,-2.526923720036642,6.142010795861044,1.017815113067627,-2.519728962575094
1708436844.6625426,-2.154266119003296,-1.337597445850708,-2.526898209248678,6.142061698227682,1.017785906791687,-2.519799772893087
1708436844.6644888,-2.154309034347534,-1.3375620257905503,-2.5269401709186,6.142015325814047,1.0177783966064453,-2.519792381917135
1708436844.666518,-2.1542866230010986,-1.3375607293895264,-2.526869599019186,6.142039406090536,1.0178065299987793,-2.5197880903827112
1708436844.6684968,-2.1542866230010986,-1.3375898164561768,-2.526886049901144,6.142039406090536,1.0178393125534058,-2.519733492528097
1708436844.67052,-2.1542999744415283,-1.3375564378551026,-2.526881519948141,6.142064678459921,1.0177946090698242,-2.5197790304767054
1708436844.672527,-2.154266119003296,-1.3375854355147858,-2.526886049901144,6.142043816834249,1.017827033996582,-2.519820515309469
1708436844.6745212,-2.1542751789093018,-1.3375650209239502,-2.5268951098071497,6.142027008324423,1.017802119255066,-2.519733492528097
1708436844.6765332,-2.154254913330078,-1.3375607293895264,-2.526944700871603,6.14203034618453,1.017798900604248,-2.519792381917135
1708436844.6785152,-2.154242515563965,-1.3376182329705735,-2.5269327799426478,6.1420466778571985,1.0178065299987793,-2.519766632710592
1708436844.6805096,-2.1542999744415283,-1.3376054179719468,-2.5268786589251917,6.142069208412924,1.0178227424621582,-2.519775454198019
1708436844.6825,-2.154324769973755,-1.3376259070685883,-2.526919190083639,6.142085659294882,1.0178183317184448,-2.5197628180133265
1708436844.6845026,-2.1542751789093018,-1.337569223051407,-2.526931111012594,6.142097818642416,1.0178096294403076,-2.519820515309469
1708436844.6865125,-2.1542165279388428,-1.3375682693770905,-2.526923720036642,6.142043816834249,1.017802119255066,-2.5197323004352015
1708436844.688494,-2.154304265975952,-1.3375448149493714,-2.526919190083639,6.142085659294882,1.0178391933441162,-2.519754234944479
1708436844.6905007,-2.154270648956299,-1.3375078004649659,-2.526902739201681,6.1420360682304285,1.0178227424621582,-2.519733492528097
1708436844.6925123,-2.1542422771453857,-1.3375607293895264,-2.5268951098071497,6.142085659294882,1.0178313255310059,-2.519745175038473
1708436844.69448,-2.1543045043945312,-1.3376344007304688,-2.526928249989645,6.142060148506918,1.0178108215332031,-2.519808594380514
1708436844.696495,-2.1542820930480957,-1.3375854653171082,-2.5268951098071497,6.1420466778571985,1.0178227424621582,-2.519728962575094
1708436844.6985092,-2.1542797088623047,-1.3375812482884903,-2.526952091847555,6.142034876137533,1.0177531242370605,-2.519745175038473
1708436844.7004812,-2.1542751789093018,-1.3375491362861176,-2.526923720036642,6.142043816834249,1.0178108215332031,-2.5197790304767054
1708436844.7025135,-2.1542751789093018,-1.3375607293895264,-2.526919190083639,6.142043816834249,1.017785906791687,-2.5197380224811
1708436844.704482,-2.154270648956299,-1.3375607293895264,-2.52690560022463,6.142010676651754,1.0178183317184448,-2.5197578112231653
1708436844.7064981,-2.154254674911499,-1.337536172275879,-2.526907269154684,6.142076599388876,1.0178065299987793,-2.519766632710592
1708436844.7085268,-2.1542909145355225,-1.3375898164561768,-2.526935640965597,6.14203034618453,1.0178436040878296,-2.5197797457324427
1708436844.7104814,-2.1542820930480957,-1.3375283044627686,-2.5269401709186,6.14211260059432,1.017785906791687,-2.519749704991476
1708436844.7125337,-2.1542885303497314,-1.3375564080527802,-2.526928249989645,6.141994344979086,1.0178096294403076,-2.519754234944479
1708436844.714501,-2.1542954444885254,-1.3376139861396332,-2.5268741289721888,6.142052876740255,1.017815113067627,-2.519749704991476
1708436844.7164989,-2.1542820930480957,-1.337536798124649,-2.526914660130636,6.142042267113485,1.017827033996582,-2.519775454198019
1708436844.7185256,-2.1543450355529785,-1.3375898164561768,-2.526956621800558,6.142097818642416,1.0177903175354004,-2.519792381917135
1708436844.720477,-2.1542820930480957,-1.337573603992798,-2.526952091847555,6.142118680268087,1.0178065299987793,-2.5197423140155237
1708436844.7225015,-2.1542751789093018,-1.3376054179719468,-2.526910130177633,6.142079818039694,1.0178349018096924,-2.5197880903827112
1708436844.7245188,-2.154266119003296,-1.3375163537314911,-2.526944700871603,6.142081129341879,1.0178393125534058,-2.519812885914938
1708436844.7265463,-2.154266119003296,-1.3375325959971924,-2.526881519948141,6.142096268921652,1.0178065299987793,-2.5198233763324183
1708436844.728544,-2.154266119003296,-1.3376060736230393,-2.526928249989645,6.142091738968649,1.0178511142730713,-2.519754234944479
1708436844.730489,-2.154250383377075,-1.337569237952568,-2.526947561894552,6.142039406090536,1.0178349018096924,-2.519762102757589
1708436844.7324932,-2.154266119003296,-1.3375607144883652,-2.526935640965597,6.14200912693099,1.0178227424621582,-2.519749704991476
1708436844.7345011,-2.154329299926758,-1.3375607144883652,-2.526890579854147,6.142093288689413,1.0178598165512085,-2.5197866598712366
1708436844.7364926,-2.154309034347534,-1.3376097095063706,-2.526944700871603,6.1421007988746545,1.0178642272949219,-2.519766632710592
1708436844.7384803,-2.154263734817505,-1.337569237952568,-2.526923720036642,6.142055737763204,1.0178555250167847,-2.5197535196887415
1708436844.7405312,-2.154270648956299,-1.3375577342561265,-2.526919190083639,6.142067658692159,1.0178349018096924,-2.5197880903827112
1708436844.7424924,-2.1542413234710693,-1.3375812482884903,-2.526898209248678,6.14211260059432,1.0178349018096924,-2.5197985808001917
1708436844.7445228,-2.154270648956299,-1.3375607144883652,-2.526886049901144,6.142174112587728,1.0178676843643188,-2.5197952429400843
1708436844.746496,-2.154266119003296,-1.3376016926816483,-2.526944700871603,6.142141210823812,1.0178511142730713,-2.5198028723346155
1708436844.748501,-2.1542954444885254,-1.3375888627818604,-2.526919190083639,6.142103659897604,1.0178838968276978,-2.519740883504049
1708436844.750486,-2.1542954444885254,-1.3376140159419556,-2.526931111012594,6.142103659897604,1.0178794860839844,-2.519799772893087
1708436844.752493,-2.1542911529541016,-1.3375564080527802,-2.5269761721240442,6.142061817436971,1.0178306102752686,-2.5198190847979944
1708436844.7544904,-2.1542413234710693,-1.3376097095063706,-2.526938501988546,6.142173993378439,1.017863392829895,-2.5198147932635706
1708436844.756531,-2.1542866230010986,-1.3375769418529053,-2.526935640965597,6.142153131752767,1.0178874731063843,-2.5197704474078577
1708436844.758478,-2.1542866230010986,-1.3375801754048844,-2.526952091847555,6.142169582634725,1.017814040184021,-2.5198429266559046
1708436844.7605083,-2.1542954444885254,-1.3376182329705735,-2.526943031941549,6.142165052681722,1.0178546905517578,-2.5198147932635706
1708436844.7624962,-2.154254913330078,-1.3375533384135743,-2.526926581059591,6.14208875873641,1.017863392829895,-2.5198310057269495
1708436844.764518,-2.154266119003296,-1.3375607144883652,-2.526919190083639,6.142171251564779,1.017842411994934,-2.5198634306537073
1708436844.766522,-2.1542422771453857,-1.3375726354173203,-2.526910130177633,6.142199504166403,1.017863392829895,-2.5198548475848597
1708436844.7685058,-2.1542866230010986,-1.3375769418529053,-2.526956621800558,6.1422040341194055,1.017879605293274,-2.519841734563009
1708436844.7704964,-2.154250383377075,-1.3375769418529053,-2.526914660130636,6.142260896950521,1.0178709030151367,-2.519895378743307
1708436844.7724872,-2.1542820930480957,-1.3375769418529053,-2.526928249989645,6.142260896950521,1.0178546905517578,-2.519871775303976
1708436844.7744882,-2.1542909145355225,-1.3375361275723954,-2.526935640965597,6.142232644348898,1.0178838968276978,-2.5198591391192835
1708436844.7765112,-2.1542468070983887,-1.337597445850708,-2.526893679295675,6.142251956253805,1.0178459882736206,-2.519818131123678
1708436844.7784946,-2.154242515563965,-1.3375769418529053,-2.526944700871603,6.142165171891012,1.0178502798080444,-2.519829813634054
1708436844.7805014,-2.1542866230010986,-1.3375282746604462,-2.526889149342672,6.142256366997518,1.0178709030151367,-2.5198586622821253
1708436844.7824917,-2.1542751789093018,-1.3375812482884903,-2.526968781148092,6.14218150356368,1.017883062362671,-2.519841734563009
1708436844.7844992,-2.154233455657959,-1.33753256619487,-2.526910130177633,6.1422191736991785,1.017894983291626,-2.5198374430285853
1708436844.7864923,-2.1542866230010986,-1.337503345017769,-2.526914660130636,6.142268287926473,1.0179156064987183,-2.519841734563009
1708436844.78851,-2.154254913330078,-1.3375812482884903,-2.526968781148092,6.142243015557089,1.017878770828247,-2.519891087208883
1708436844.7904973,-2.154320478439331,-1.337503345017769,-2.526944700871603,6.142205703049459,1.0178874731063843,-2.519907299672262
1708436844.7924976,-2.1543045043945312,-1.3375844669393082,-2.526935640965597,6.142230975418844,1.017894983291626,-2.5199580828296106
1708436844.7944915,-2.154320478439331,-1.3375491213849564,-2.526935640965597,6.1422146437461755,1.0178709030151367,-2.519841734563009
1708436844.796518,-2.154245615005493,-1.3376140159419556,-2.526926581059591,6.142233955651083,1.017906904220581,-2.5198705832110804
1708436844.7984977,-2.154254674911499,-1.3375448149493714,-2.526935640965597,6.1423120377357385,1.0179144144058228,-2.5199392477618616
1708436844.8005013,-2.1542413234710693,-1.3375682544759293,-2.526943031941549,6.142296898155966,1.0179188251495361,-2.5199061075793665
1708436844.802512,-2.154324769973755,-1.3376016926816483,-2.526919190083639,6.142325627594747,1.0179188251495361,-2.519952360783712
1708436844.8045204,-2.1542820930480957,-1.3375812482884903,-2.526964251195089,6.142213213234701,1.0179026126861572,-2.5199480692492884
1708436844.8064978,-2.154270648956299,-1.3375564080527802,-2.526914660130636,6.142271506577291,1.0178894996643066,-2.519892994557516
1708436844.8085263,-2.154250383377075,-1.3375448149493714,-2.526919190083639,6.142233955651083,1.017956256866455,-2.519918743764059
1708436844.8104985,-2.154233455657959,-1.3375491213849564,-2.526964251195089,6.142271506577291,1.0179100036621094,-2.5199554602252405
1708436844.812517,-2.1542954444885254,-1.3376010221293946,-2.5269401709186,6.14233289936141,1.0178937911987305,-2.519930664693014
1708436844.8144932,-2.154254674911499,-1.3376097095063706,-2.526931111012594,6.142304289131918,1.017956256866455,-2.5199723879443567
1708436844.816509,-2.154254674911499,-1.3375974756530304,-2.526943031941549,6.142341959267416,1.0179100036621094,-2.519991699849264
1708436844.8184922,-2.1542751789093018,-1.3375726354173203,-2.526931111012594,6.142320978432455,1.0179100036621094,-2.519991699849264
1708436844.8205016,-2.1542909145355225,-1.3376097095063706,-2.526910130177633,6.142262565880575,1.0179474353790283,-2.519968096409933
1708436844.822525,-2.154216766357422,-1.3375607144883652,-2.5269838015185755,6.142236816674032,1.0179100036621094,-2.519996229802267
1708436844.8245173,-2.1542999744415283,-1.3375639778426667,-2.5269551912890833,6.142319428711691,1.0179681777954102,-2.51994234720339
1708436844.8265643,-2.154315948486328,-1.3375974756530304,-2.5269551912890833,6.142283427506246,1.0179388523101807,-2.519946877156393
1708436844.8286057,-2.1542775630950928,-1.3375564080527802,-2.526943031941549,6.142304289131918,1.0179507732391357,-2.519968096409933
1708436844.8305335,-2.154315948486328,-1.3375726354173203,-2.5269883314715784,6.142398464470663,1.0179593563079834,-2.519946877156393
1708436844.8325274,-2.154233455657959,-1.3375564080527802,-2.5269702116595667,6.142307507782736,1.0179791450500488,-2.5199506918536585
1708436844.8345153,-2.1543045043945312,-1.3375888627818604,-2.526973072682516,6.142298686295309,1.0179226398468018,-2.519999329243795
1708436844.8364956,-2.154270648956299,-1.3375682544759293,-2.527060333882467,6.142298686295309,1.0179669857025146,-2.5199950377093714
1708436844.8385024,-2.154261589050293,-1.3375239682248612,-2.527026955281393,6.142365443497457,1.0179582834243774,-2.5199745337115687
1708436844.840527,-2.1542775630950928,-1.3375758689692994,-2.5270677248584192,6.142331111222067,1.0179431438446045,-2.5199950377093714
1708436844.842506,-2.1542866230010986,-1.337569237952568,-2.5270796457873743,6.1423776028449915,1.0179755687713623,-2.5199506918536585
1708436844.8445132,-2.154233455657959,-1.3376054179719468,-2.5270302931415003,6.142310607224264,1.0179507732391357,-2.5200069586383265
1708436844.8464794,-2.1542999744415283,-1.3376096946052094,-2.5270541349994105,6.142350661545553,1.0179431438446045,-2.5200188795672815
1708436844.848531,-2.1543023586273193,-1.3375888627818604,-2.527055803929464,6.142355191498556,1.0179301500320435,-2.5200725237475794
1708436844.850484,-2.154315948486328,-1.3375812482884903,-2.5270260016070765,6.1423834441001794,1.0179625749588013,-2.5200350920306605
1708436844.8525207,-2.154320478439331,-1.3375844669393082,-2.5270043055163782,6.142383563309469,1.017974853515625,-2.5200026671039026
1708436844.854518,-2.1542954444885254,-1.3375888627818604,-2.5270422140704554,6.1423998949821375,1.0179582834243774,-2.5200188795672815
1708436844.8564856,-2.15427303314209,-1.3376172494939347,-2.5270677248584192,6.142506110459127,1.017953872680664,-2.5200188795672815
1708436844.8584845,-2.154266357421875,-1.3375812482884903,-2.527008835469381,6.142460095673361,1.018004059791565,-2.520010296498434
1708436844.860483,-2.154216766357422,-1.3375282746604462,-2.527072254811422,6.142389762192526,1.0179625749588013,-2.5200350920306605
1708436844.8624845,-2.1542909145355225,-1.3376217049411316,-2.5270841757403772,6.142491566925802,1.0180119276046753,-2.520055596028463
1708436844.8644974,-2.1542775630950928,-1.3375520271113892,-2.527105156575338,6.142483818321981,1.0179669857025146,-2.519998375569479
1708436844.8664806,-2.1542422771453857,-1.3375888627818604,-2.5270422140704554,6.142476427346029,1.0180076360702515,-2.5200639406787317
1708436844.868518,-2.154254674911499,-1.3376016926816483,-2.5270348230945032,6.142441975861349,1.0179822444915771,-2.5200470129596155
1708436844.8705087,-2.154259204864502,-1.3375726801208039,-2.527043883000509,6.14241789558486,1.017987847328186,-2.5200470129596155
1708436844.872543,-2.15425705909729,-1.3375361275723954,-2.527026955281393,6.14246295669631,1.0180153846740723,-2.5200639406787317
1708436844.8744874,-2.154270648956299,-1.3375639480403443,-2.5270796457873743,6.142483818321981,1.017991065979004,-2.520059649144308
1708436844.876519,-2.154261589050293,-1.3375564080527802,-2.5270422140704554,6.142413484841146,1.018003225326538,-2.520017687474386
1708436844.8784928,-2.15427303314209,-1.3375520271113892,-2.5270348230945032,6.142438876419821,1.0180315971374512,-2.520005766545431
1708436844.8805044,-2.154261589050293,-1.3375520271113892,-2.5270677248584192,6.142474877625265,1.0180197954177856,-2.5200381914721888
1708436844.882536,-2.154270648956299,-1.3375931692174454,-2.5270751158343714,6.142471897393026,1.018003225326538,-2.520017687474386
1708436844.8845136,-2.1542794704437256,-1.3375967156938096,-2.5270260016070765,6.142413484841146,1.018024206161499,-2.5200465361224573
1708436844.886484,-2.1542820930480957,-1.3376172494939347,-2.5270677248584192,6.14246295669631,1.0179988145828247,-2.520071331654684
1708436844.8885236,-2.154311418533325,-1.3376421642354508,-2.5270751158343714,6.142446505814352,1.0180447101593018,-2.5200627485858362
1708436844.8905065,-2.1542820930480957,-1.3376259368709107,-2.5270841757403772,6.142483818321981,1.018003225326538,-2.52006704012026
1708436844.8925176,-2.1542820930480957,-1.3376140159419556,-2.5270467440234583,6.142467367440023,1.0180197954177856,-2.520087544118063
1708436844.8945205,-2.15427303314209,-1.3375405085137864,-2.5270677248584192,6.142467367440023,1.018003225326538,-2.5201132933246058
1708436844.896594,-2.1542820930480957,-1.3376010221293946,-2.5270512739764612,6.142474877625265,1.018024206161499,-2.5199971834765833
1708436844.8985207,-2.154270648956299,-1.3375650209239502,-2.5270348230945032,6.142446625023641,1.018003225326538,-2.520050827656881
1708436844.9005353,-2.154320478439331,-1.3375639480403443,-2.5270348230945032,6.142491566925802,1.0180283784866333,-2.5200420061694544
1708436844.9025126,-2.154311418533325,-1.3376140159419556,-2.5270631949054163,6.142483818321981,1.0180360078811646,-2.520055119191305
1708436844.9045079,-2.154324769973755,-1.3375596416047593,-2.527039353047506,6.142488348274984,1.0179945230484009,-2.5200381914721888
1708436844.9065504,-2.154311418533325,-1.3376097095063706,-2.52702242532839,6.142438876419821,1.0180360078811646,-2.5200381914721888
1708436844.9084938,-2.154315948486328,-1.3375726354173203,-2.526984993611471,6.142488348274984,1.0179988145828247,-2.5200582186328333
1708436844.910493,-2.154268503189087,-1.3376216304353257,-2.527013365422384,6.142479407578268,1.018003225326538,-2.520087544118063
1708436844.9124968,-2.154315948486328,-1.3376182329705735,-2.5270302931415003,6.142451035767355,1.0180360078811646,-2.520087544118063
1708436844.9144847,-2.154259204864502,-1.3376140159419556,-2.5270257631884974,6.142442095070638,1.018040418624878,-2.520109001790182
1708436844.9165003,-2.154311418533325,-1.3375931692174454,-2.527013365422384,6.142460095673361,1.0180435180664062,-2.52006704012026
1708436844.918485,-2.1542820930480957,-1.3375812482884903,-2.527085844670431,6.142455565720358,1.018040418624878,-2.520109001790182
1708436844.9204848,-2.1542775630950928,-1.3376140159419556,-2.5270512739764612,6.142413365631857,1.0180360078811646,-2.5200801531421106
1708436844.9225202,-2.1542775630950928,-1.3375564080527802,-2.526989523564474,6.14240442493514,1.0180522203445435,-2.520071331654684
1708436844.924514,-2.1542911529541016,-1.3376259368709107,-2.52702242532839,6.142442095070638,1.018064022064209,-2.520071331654684
1708436844.926582,-2.1543023586273193,-1.3376302433064957,-2.527039353047506,6.142451035767355,1.018003225326538,-2.520087544118063
1708436844.928527,-2.1543045043945312,-1.3375639480403443,-2.5270031134234827,6.142483818321981,1.0180197954177856,-2.52006704012026
1708436844.9305344,-2.15425705909729,-1.3375888627818604,-2.5270214716540735,6.142512547760763,1.0180273056030273,-2.520055119191305
1708436844.9325209,-2.154266119003296,-1.3375844669393082,-2.527105156575338,6.142488348274984,1.0180315971374512,-2.520116392766134
1708436844.9344854,-2.154266119003296,-1.3375682544759293,-2.5270214716540735,6.142467367440023,1.0179988145828247,-2.520078961049215
1708436844.9365036,-2.1542954444885254,-1.3375844669393082,-2.527104918156759,6.142455565720358,1.0180197954177856,-2.5200381914721888
1708436844.9384913,-2.154250383377075,-1.3375682544759293,-2.5270586649524134,6.142458426743307,1.0180153846740723,-2.5200627485858362
1708436844.9404898,-2.154315948486328,-1.3376054179719468,-2.527043883000509,6.142483818321981,1.0180273056030273,-2.520083252583639
1708436844.9425282,-2.1542866230010986,-1.3376016926816483,-2.5270260016070765,6.142483818321981,1.0180076360702515,-2.520033899937765
1708436844.944477,-2.1542820930480957,-1.3375888627818604,-2.5271006266223353,6.142496096878805,1.0180511474609375,-2.5200427214251917
1708436844.9464948,-2.1542866230010986,-1.3375361275723954,-2.527008835469381,6.142425405770101,1.0180435180664062,-2.520104471837179
1708436844.9484887,-2.15427303314209,-1.3375931692174454,-2.5270512739764612,6.14245234706954,1.0180273056030273,-2.520071331654684
1708436844.9505336,-2.154254674911499,-1.3376009923270722,-2.527076784764425,6.142395484238424,1.0180153846740723,-2.520083252583639
1708436844.9525177,-2.1542820930480957,-1.3375888627818604,-2.5270302931415003,6.14246295669631,1.0180230140686035,-2.52006704012026
1708436844.9544857,-2.15427303314209,-1.3376054179719468,-2.526977841054098,6.142434346466818,1.0179945230484009,-2.520017687474386
1708436844.9565182,-2.1543045043945312,-1.3376054030707856,-2.527017895375387,6.142451035767355,1.0180153846740723,-2.520087544118063
1708436844.9585054,-2.1542866230010986,-1.3375844669393082,-2.527072254811422,6.14250801780776,1.0179988145828247,-2.5200381914721888
1708436844.9605079,-2.1542820930480957,-1.3375812482884903,-2.5270512739764612,6.1424224255378626,1.0180360078811646,-2.5200465361224573
1708436844.9624949,-2.1542820930480957,-1.3376204681447526,-2.5270045439349573,6.142472016602316,1.0180153846740723,-2.520087544118063
1708436844.964511,-2.1543068885803223,-1.3376344603351136,-2.527043883000509,6.14245222786025,1.017990231513977,-2.520104471837179
1708436844.9664893,-2.1542820930480957,-1.3376500171474,-2.527069393788473,6.142385113030233,1.0180763006210327,-2.520078961049215
1708436844.968471,-2.154250383377075,-1.3375726354173203,-2.527039353047506,6.142488348274984,1.0180315971374512,-2.5200465361224573
1708436844.9704952,-2.154266119003296,-1.3375682544759293,-2.527013365422384,6.142549741059103,1.0179791450500488,-2.5200420061694544
1708436844.9724917,-2.1543068885803223,-1.3375596416047593,-2.5270376841174524,6.142438876419821,1.0179988145828247,-2.520033899937765
1708436844.9744802,-2.15427303314209,-1.3376302433064957,-2.527043883000509,6.142483818321981,1.0180360078811646,-2.5200539270984095
1708436844.976515,-2.1542954444885254,-1.3376054179719468,-2.5270348230945032,6.142483818321981,1.0180273056030273,-2.5200963656054896
1708436844.9784718,-2.154254913330078,-1.3376054179719468,-2.527039353047506,6.142474877625265,1.0180315971374512,-2.520071331654684
1708436844.9805117,-2.1542999744415283,-1.3375682544759293,-2.527013365422384,6.142483818321981,1.0180315971374512,-2.520050827656881
1708436844.982495,-2.15427303314209,-1.3375769418529053,-2.5270302931415003,6.142468917160787,1.01804780960083,-2.5200844446765345
1708436844.9844818,-2.154309034347534,-1.3375434142402192,-2.526984993611471,6.142455565720358,1.0180684328079224,-2.520055119191305
1708436844.9864736,-2.1542775630950928,-1.3375533384135743,-2.5270631949054163,6.14246295669631,1.0180522203445435,-2.520083252583639
1708436844.9884772,-2.1542775630950928,-1.3375967156938096,-2.5271111170398157,6.142512428551473,1.0180435180664062,-2.52006704012026
1708436844.9904828,-2.1542909145355225,-1.3376010221293946,-2.5270512739764612,6.142434346466818,1.0180025100708008,-2.5200088659869593
1708436844.992505,-2.154309034347534,-1.3376140159419556,-2.5270512739764612,6.142431485443868,1.018068552017212,-2.52002197900881
1708436844.9944835,-2.1543023586273193,-1.3375801754048844,-2.5270751158343714,6.142451035767355,1.0179980993270874,-2.5200627485858362
1708436844.9964976,-2.1543362140655518,-1.3376097095063706,-2.527085606251852,6.142453896790304,1.0180273056030273,-2.5200582186328333
1708436844.9984972,-2.1543002128601074,-1.3376010221293946,-2.5270302931415003,6.142451035767355,1.0180597305297852,-2.520059649144308
1708436845.000507,-2.1542775630950928,-1.3376334768584748,-2.5270467440234583,6.142451035767355,1.01804780960083,-2.520078961049215
1708436845.0024946,-2.154270648956299,-1.3376139861396332,-2.5270422140704554,6.142453896790304,1.0180522203445435,-2.5200963656054896
1708436845.004494,-2.1542820930480957,-1.3376054179719468,-2.527039353047506,6.142467367440023,1.0180360078811646,-2.520104471837179
1708436845.0064857,-2.1542954444885254,-1.3375974309495469,-2.5270512739764612,6.142451035767355,1.0180315971374512,-2.5200801531421106
1708436845.0085013,-2.154309034347534,-1.3375318062356492,-2.5270302931415003,6.142467367440023,1.0180230140686035,-2.520087544118063
1708436845.0104923,-2.1542413234710693,-1.3375974756530304,-2.527072254811422,6.142376172333517,1.0180230140686035,-2.520075861607687
1708436845.0125163,-2.154320478439331,-1.3375649911216279,-2.527072254811422,6.142480957299032,1.0180230140686035,-2.5200844446765345
1708436845.0144932,-2.1542413234710693,-1.3375283044627686,-2.5270796457873743,6.142483818321981,1.0180511474609375,-2.520029608403341
1708436845.0164814,-2.1542820930480957,-1.3375769418529053,-2.5270302931415003,6.142455565720358,1.0180025100708008,-2.520109001790182
1708436845.018489,-2.154261589050293,-1.3376053881696244,-2.527076784764425,6.142472016602316,1.0180763006210327,-2.520075861607687
1708436845.0204902,-2.15427303314209,-1.3376054179719468,-2.5270348230945032,6.142409074097433,1.0180230140686035,-2.520059649144308
1708436845.0224855,-2.154266119003296,-1.3375726503184815,-2.5270512739764612,6.142435896187582,1.0180187225341797,-2.520029608403341
1708436845.024501,-2.1542775630950928,-1.3375844669393082,-2.5270422140704554,6.142460095673361,1.0180511474609375,-2.520055119191305
1708436845.026571,-2.154318332672119,-1.337547705774643,-2.527017895375387,6.14238058307723,1.0180435180664062,-2.5200381914721888
1708436845.028524,-2.1542820930480957,-1.337568299179413,-2.527039353047506,6.142455684929647,1.018067717552185,-2.5200682322131556
1708436845.0304792,-2.154268503189087,-1.3375812333873291,-2.5270512739764612,6.142394172936239,1.0180720090866089,-2.5200470129596155
1708436845.0325265,-2.154309034347534,-1.3376378279975434,-2.5270677248584192,6.142455565720358,1.0180305242538452,-2.520059649144308
1708436845.0344844,-2.154270648956299,-1.3375844967416306,-2.527013365422384,6.142434346466818,1.0180349349975586,-2.5200470129596155
1708436845.0364826,-2.15427303314209,-1.3375769716552277,-2.5270260016070765,6.142386305123129,1.0180511474609375,-2.5200308004962366
1708436845.0384834,-2.154320478439331,-1.3376096946052094,-2.5270467440234583,6.14241503456191,1.0180392265319824,-2.52006704012026
1708436845.0404859,-2.1542413234710693,-1.337543473844864,-2.5270422140704554,6.142412054329672,1.0180720090866089,-2.520055119191305
1708436845.0424793,-2.15427303314209,-1.337565006022789,-2.526980702077047,6.142444956093588,1.0180928707122803,-2.52006704012026
1708436845.0444942,-2.1542954444885254,-1.3376291406205674,-2.5270586649524134,6.142443287163534,1.0180261135101318,-2.520010296498434
1708436845.0464733,-2.1542775630950928,-1.3376097542098542,-2.526947800313131,6.142435896187582,1.018071174621582,-2.520071331654684
1708436845.0484905,-2.15425705909729,-1.3376054030707856,-2.5270403067218226,6.142480957299032,1.0180885791778564,-2.520050827656881
1708436845.0504863,-2.1543045043945312,-1.3375967156938096,-2.5270751158343714,6.14241789558486,1.0180720090866089,-2.520075861607687
1708436845.0525193,-2.154259204864502,-1.337592439060547,-2.526980463658468,6.142410623818197,1.0180842876434326,-2.5200470129596155
1708436845.0545218,-2.154309034347534,-1.337568224673607,-2.527060333882467,6.142406093865194,1.0180588960647583,-2.5200350920306605
1708436845.0564876,-2.154259204864502,-1.3376053881696244,-2.527017895375387,6.142410623818197,1.0181078910827637,-2.5200801531421106
1708436845.0584745,-2.154315948486328,-1.3375931245139618,-2.527060333882467,6.142440545349874,1.018087387084961,-2.5200427214251917
1708436845.0604908,-2.154315948486328,-1.3376010370305558,-2.527088467274801,6.142431485443868,1.018083095550537,-2.5200427214251917
1708436845.0624866,-2.1542954444885254,-1.3375768971494217,-2.527085606251852,6.142407643585958,1.018087387084961,-2.5200513044940394
1708436845.0644891,-2.154261589050293,-1.3375640225461503,-2.527060333882467,6.142469036370077,1.0180960893630981,-2.520059649144308
1708436845.0664806,-2.15425705909729,-1.3376054030707856,-2.527116839085714,6.142438876419821,1.0180624723434448,-2.520026508961813
1708436845.0684962,-2.154261589050293,-1.3375318062356492,-2.526989523564474,6.142401563912191,1.0181078910827637,-2.5200308004962366
1708436845.0704746,-2.154270648956299,-1.3375692677548905,-2.526980702077047,6.1423953650291345,1.0181201696395874,-2.5200639406787317
1708436845.0724926,-2.154254674911499,-1.337576912050583,-2.527060333882467,6.142412173538961,1.018083095550537,-2.520055119191305
1708436845.0745249,-2.154315948486328,-1.3376172345927735,-2.5270348230945032,6.1423953650291345,1.0180754661560059,-2.5200381914721888
1708436845.0764875,-2.154237747192383,-1.3376259070685883,-2.527072254811422,6.142386424332418,1.018071174621582,-2.5200145880328577
1708436845.078492,-2.154270648956299,-1.337581218486168,-2.5270631949054163,6.142374503403463,1.0180916786193848,-2.5200513044940394
1708436845.0805,-2.154329299926758,-1.3375801605037232,-2.5270045439349573,6.142379033356466,1.018087387084961,-2.520029608403341
1708436845.0824761,-2.154250383377075,-1.3376053732684632,-2.5270348230945032,6.142407643585958,1.0180668830871582,-2.520026508961813
1708436845.084489,-2.1542775630950928,-1.3375931841186066,-2.5270841757403772,6.142371523171224,1.0180546045303345,-2.520026508961813
1708436845.0865238,-2.1542909145355225,-1.33754055321727,-2.527013365422384,6.142379033356466,1.0181035995483398,-2.5200026671039026
1708436845.0884907,-2.154254913330078,-1.337613971238472,-2.5270260016070765,6.142355191498556,1.0181035995483398,-2.5200308004962366
1708436845.090491,-2.1542999744415283,-1.3375405830195923,-2.527072254811422,6.142310607224264,1.0180743932724,-2.520001475011007
1708436845.092516,-2.1542999744415283,-1.3376387071660538,-2.527060333882467,6.142269956856527,1.0181035995483398,-2.520055596028463
1708436845.0944893,-2.1542866230010986,-1.337576912050583,-2.527039353047506,6.142322051316061,1.0181289911270142,-2.5200393835650843
1708436845.0964966,-2.154233455657959,-1.3376096499017258,-2.5270751158343714,6.1422637579734705,1.0181690454483032,-2.5200639406787317
1708436845.0985014,-2.154216766357422,-1.3375931543162842,-2.5270376841174524,6.142268287926473,1.018099308013916,-2.520059887562887
1708436845.1004922,-2.1542210578918457,-1.3375726652196427,-2.527055803929464,6.14223991611556,1.0180743932724,-2.520055596028463
1708436845.1024926,-2.154309034347534,-1.3375683289817353,-2.5270348230945032,6.142260896950521,1.0181035995483398,-2.520010296498434
1708436845.104494,-2.1542954444885254,-1.3375564378551026,-2.527013365422384,6.142238366394796,1.0180906057357788,-2.5200112501727503
1708436845.106489,-2.1542820930480957,-1.337593139415123,-2.527039353047506,6.142250287323751,1.0180786848068237,-2.5200069586383265
1708436845.1085231,-2.1542794704437256,-1.3376096946052094,-2.527088467274801,6.142206895142355,1.0181407928466797,-2.5200393835650843
1708436845.1105042,-2.154250383377075,-1.337646336560585,-2.52702242532839,6.142186033516683,1.0181201696395874,-2.520048205052511
1708436845.112527,-2.154254674911499,-1.337556467657425,-2.5270348230945032,6.142166721611776,1.018058180809021,-2.5200026671039026
1708436845.1145027,-2.154263734817505,-1.3375640225461503,-2.527039353047506,6.142199504166403,1.0180948972702026,-2.5200350920306605
1708436845.1164901,-2.154299736022949,-1.3375802052072068,-2.5270677248584192,6.142262446671285,1.0180624723434448,-2.520024124776022
1708436845.118486,-2.1542794704437256,-1.3375727099231263,-2.5270348230945032,6.142186033516683,1.018083095550537,-2.5199831167804163
1708436845.1204832,-2.1542513370513916,-1.3375639629415055,-2.5270260016070765,6.142138111382284,1.0181158781051636,-2.519965950642721
1708436845.1225133,-2.1542909145355225,-1.3376054030707856,-2.527026955281393,6.142129170685568,1.0181035995483398,-2.5199337641345423
1708436845.1244855,-2.1542775630950928,-1.3375844967416306,-2.5270512739764612,6.142138111382284,1.018083095550537,-2.519996229802267
1708436845.1265516,-2.154250383377075,-1.337609664802887,-2.5270260016070765,6.142163502960958,1.0181035995483398,-2.519942108784811
1708436845.1285322,-2.154237985610962,-1.3375607442906876,-2.527043883000509,6.142212974816122,1.0181071758270264,-2.519946877156393
1708436845.130539,-2.1542210578918457,-1.3375888627818604,-2.527008835469381,6.142118799477377,1.0180916786193848,-2.5199723879443567
1708436845.1325207,-2.154254674911499,-1.337563933139183,-2.527088467274801,6.142180192261495,1.0180906057357788,-2.5199511686908167
1708436845.1344893,-2.154270648956299,-1.3376053881696244,-2.5270045439349573,6.14212332943038,1.018070101737976,-2.519930664693014
1708436845.1364982,-2.154237985610962,-1.3375888627818604,-2.527055803929464,6.142127740174093,1.0181158781051636,-2.519918743764059
1708436845.138486,-2.154193878173828,-1.337581218486168,-2.527017895375387,6.142087328224935,1.018087387084961,-2.519968096409933
1708436845.140493,-2.154209613800049,-1.3375726503184815,-2.526977841054098,6.142051327019491,1.0181406736373901,-2.519952360783712
1708436845.1425056,-2.154184579849243,-1.337593139415123,-2.527123037968771,6.142015325814047,1.0180788040161133,-2.5199318567859095
1708436845.1444898,-2.1542513370513916,-1.3376182478717347,-2.5270348230945032,6.141994344979086,1.0181201696395874,-2.5199437777148646
1708436845.146485,-2.1542229652404785,-1.3375682842782517,-2.5270512739764612,6.141946422844686,1.0181320905685425,-2.519934956227438
1708436845.1484993,-2.154243230819702,-1.3375079047730942,-2.5270467440234583,6.141896950989523,1.018099308013916,-2.51988131204714
1708436845.1504953,-2.1542115211486816,-1.337536798124649,-2.5270631949054163,6.141891109734335,1.0181114673614502,-2.519907299672262
1708436845.152489,-2.154202699661255,-1.337544859652855,-2.527076784764425,6.141919481545248,1.0181035995483398,-2.519903008137838
1708436845.1544888,-2.1542274951934814,-1.3375282448581238,-2.527069393788473,6.141887891083517,1.0181035995483398,-2.5198987166034144
1708436845.1565073,-2.1542294025421143,-1.3375844818404694,-2.527055803929464,6.14185510852889,1.0181114673614502,-2.519923512135641
1708436845.1584918,-2.154177665710449,-1.337568224673607,-2.527052942906515,6.141823637276449,1.0181035995483398,-2.519923512135641
1708436845.1604848,-2.154179811477661,-1.3375650209239502,-2.527072254811422,6.141759383469381,1.018071174621582,-2.5199278036700647
1708436845.1625168,-2.154154062271118,-1.3375735890916367,-2.5269761721240442,6.141784655838766,1.0181035995483398,-2.5198548475848597
1708436845.1645007,-2.154141664505005,-1.3375577342561265,-2.527060333882467,6.141706931381979,1.0180754661560059,-2.519879166279928
1708436845.1665192,-2.1541550159454346,-1.3375325512937088,-2.5270677248584192,6.141670810967245,1.018087387084961,-2.519874874745504
1708436845.1684945,-2.154101848602295,-1.337569237952568,-2.527055803929464,6.141642200737753,1.0180916786193848,-2.519822422658102
1708436845.1704867,-2.154132127761841,-1.3376097095063706,-2.5270512739764612,6.1416348097618005,1.018083095550537,-2.5198760668383997
1708436845.172523,-2.1540982723236084,-1.3375412088683625,-2.527043883000509,6.141595828324117,1.0180588960647583,-2.5198267141925257
1708436845.1744897,-2.1541287899017334,-1.3375931543162842,-2.5270348230945032,6.14153157451705,1.018071174621582,-2.5198267141925257
1708436845.1765118,-2.154062032699585,-1.3375491213849564,-2.5269761721240442,6.1415806887443445,1.0181201696395874,-2.519839588795797
1708436845.1784856,-2.154087781906128,-1.3375283193639298,-2.52702242532839,6.141495573311605,1.0180668830871582,-2.5197747389422815
1708436845.180519,-2.154071092605591,-1.3375898909619828,-2.527052942906515,6.1414387104804895,1.018112301826477,-2.519815985356466
1708436845.182519,-2.154052734375,-1.337529258137085,-2.526984993611471,6.141465651779928,1.018071174621582,-2.51980430284609
1708436845.1844802,-2.153974771499634,-1.337566302423813,-2.527060333882467,6.141362178116598,1.0181124210357666,-2.519799772893087
1708436845.1864984,-2.15397047996521,-1.3375455153039475,-2.527039353047506,6.141291725426473,1.0180633068084717,-2.519733492528097
1708436845.1885204,-2.1540234088897705,-1.3375215840390702,-2.526994053517477,6.141251194268026,1.0180588960647583,-2.519766632710592
1708436845.1905043,-2.153887987136841,-1.3375249666026612,-2.52702242532839,6.141215431481161,1.018067717552185,-2.519749704991476
1708436845.1924999,-2.1539270877838135,-1.337529258137085,-2.527052942906515,6.141155349999227,1.0180349349975586,-2.519726101552145
1708436845.1944973,-2.153918981552124,-1.3375422221473237,-2.5270302931415003,6.1411944506462,1.0180423259735107,-2.519681755696432
1708436845.1965256,-2.1538872718811035,-1.3375497621348877,-2.5270512739764612,6.1409939406211755,1.0180305242538452,-2.519677225743429
1708436845.1985035,-2.153859853744507,-1.3375097972205658,-2.527055803929464,6.141011822014608,1.0181288719177246,-2.5196946302997034
1708436845.2005033,-2.1538259983062744,-1.3374532026103516,-2.527052942906515,6.140940177231588,1.0180511474609375,-2.519719664250509
1708436845.2025142,-2.1538033485412598,-1.3374899190715333,-2.5270257631884974,6.140909778862753,1.0180764198303223,-2.5196831862079065
1708436845.20449,-2.15372896194458,-1.3374737066081543,-2.527039353047506,6.1407885430152795,1.0180798768997192,-2.519630257283346
1708436845.2065024,-2.1537182331085205,-1.3374694150737305,-2.527013365422384,6.14070342758254,1.0180720090866089,-2.5196388403521937
1708436845.208519,-2.1537487506866455,-1.3374261122993012,-2.526994053517477,6.140619623451986,1.0180273056030273,-2.5196388403521937
1708436845.2104912,-2.153716802597046,-1.3374174249223252,-2.527052942906515,6.140551912575521,1.0180273056030273,-2.5195944944964808
1708436845.212523,-2.1536309719085693,-1.337405191068985,-2.5270031134234827,6.14047538021163,1.0179945230484009,-2.519569698964254
1708436845.214487,-2.1536266803741455,-1.3374019426158448,-2.527043883000509,6.140379535942831,1.0180315971374512,-2.5195487181292933
1708436845.216491,-2.153588056564331,-1.3374138635447999,-2.5270348230945032,6.140324222832479,1.0180119276046753,-2.5195134321795862
1708436845.2184885,-2.1535675525665283,-1.3373281818679352,-2.527052942906515,6.140204298287191,1.018003225326538,-2.51951772371401
1708436845.2205215,-2.153496026992798,-1.337374435072281,-2.527090136204855,6.140117513924398,1.017974853515625,-2.5194855372058313
1708436845.2224941,-2.1534719467163086,-1.337329552774765,-2.527060333882467,6.140015589981832,1.0179582834243774,-2.5194488207446497
1708436845.2244835,-2.153442621231079,-1.337296800022461,-2.527093235646383,6.139871823578634,1.0179791450500488,-2.5194576422320765
1708436845.226533,-2.153416395187378,-1.337370143537857,-2.5270360151873987,6.139809357910909,1.0179507732391357,-2.5194338003741663
1708436845.2285593,-2.1534175872802734,-1.3372858327678223,-2.526973072682516,6.1396758435066126,1.0179463624954224,-2.51943809190859
1708436845.2305045,-2.1533539295196533,-1.3373520535281678,-2.5270403067218226,6.139542567520895,1.0179345607757568,-2.5193732420550745
1708436845.232491,-2.1533043384552,-1.3371882301620026,-2.5270031134234827,6.139505135803976,1.0179400444030762,-2.5193405787097376
1708436845.234522,-2.1532814502716064,-1.3372220259955903,-2.5269535223590296,6.139352309494772,1.0178980827331543,-2.5193124453174036
1708436845.2364898,-2.1531832218170166,-1.3372305047563096,-2.5269866625415247,6.139260995178976,1.0178864002227783,-2.519317928944723
1708436845.2385254,-2.153172731399536,-1.3372349005988617,-2.5269866625415247,6.139154541283407,1.01792311668396,-2.519329849873678
1708436845.240514,-2.1531364917755127,-1.3371902269176026,-2.5269535223590296,6.138992893486776,1.01786208152771,-2.5192859808551233
1708436845.2425263,-2.1530816555023193,-1.3371988993934174,-2.5269416014300745,6.13890157917098,1.0178622007369995,-2.5192697683917444
1708436845.2444975,-2.1530206203460693,-1.3371337217143555,-2.5269370714770716,6.13881133773879,1.017879605293274,-2.519207779561178
1708436845.2464797,-2.1530251502990723,-1.3371214729598542,-2.5269461313830774,6.138637769013204,1.0178589820861816,-2.5192208925830286
1708436845.2484953,-2.1529526710510254,-1.337162808781006,-2.5269249121295374,6.13850616195754,1.017863392829895,-2.5191691557513636
1708436845.250516,-2.152864456176758,-1.3370979589274903,-2.526931111012594,6.138374316483297,1.0178393125534058,-2.5191648642169397
1708436845.2525275,-2.152827739715576,-1.3370946210673829,-2.526876989995138,6.1382096884544275,1.0178349018096924,-2.5191410223590296
1708436845.2545211,-2.1528186798095703,-1.337034450178482,-2.526938501988546,6.138082372933187,1.0177946090698242,-2.5191295782672327
1708436845.2565231,-2.1527504920959473,-1.337075875406601,-2.5268831888781946,6.137974250107565,1.017827033996582,-2.5190845171557825
1708436845.2584848,-2.1526567935943604,-1.3370258820107956,-2.5268741289721888,6.137799012451925,1.017773985862732,-2.5190158526050013
1708436845.26049,-2.1526472568511963,-1.3370354932597657,-2.5268293062793177,6.1376224634941,1.0178076028823853,-2.519040648137228
1708436845.2624807,-2.1525497436523438,-1.3370030683330079,-2.5269208590136927,6.137489068299093,1.017786979675293,-2.5190094153033655
1708436845.2644894,-2.1525235176086426,-1.3369997304729004,-2.5268664995776575,6.137351143151083,1.0177748203277588,-2.5189812819110315
1708436845.266505,-2.152421712875366,-1.3368773323348542,-2.5268755594836634,6.137252676277914,1.017737627029419,-2.518923584614889
1708436845.2685142,-2.152385711669922,-1.3368859154037018,-2.5268262068377894,6.137072789459982,1.0177582502365112,-2.5188730398761194
1708436845.2705016,-2.152301788330078,-1.3369108003428956,-2.5268471876727503,6.136904942780294,1.0177792310714722,-2.5188398996936243
1708436845.272503,-2.1522955894470215,-1.3368588250926514,-2.5268755594836634,6.136710393219747,1.0177594423294067,-2.518796745930807
1708436845.2744997,-2.1522161960601807,-1.336850867872574,-2.5268545786487024,6.13655315616683,1.017689824104309,-2.518731657658712
1708436845.2764845,-2.1520743370056152,-1.3368422848037262,-2.5268471876727503,6.1363762495811365,1.0177223682403564,-2.5187199751483362
1708436845.2785013,-2.152071237564087,-1.3368105751327057,-2.5268545786487024,6.136193620949545,1.0177104473114014,-2.5187132994281214
1708436845.2805164,-2.1519789695739746,-1.3368278306773682,-2.526872698460714,6.136057483940878,1.0176904201507568,-2.518637005482809
1708436845.2824955,-2.1519064903259277,-1.336775855427124,-2.5268097559558313,6.135849106102743,1.017674207687378,-2.5185676256762903
1708436845.2845128,-2.151827096939087,-1.336752013569214,-2.5268426577197474,6.135668146401205,1.017657995223999,-2.5184910933123987
1708436845.2864983,-2.151759147644043,-1.3367390495589753,-2.5268967787372034,6.13551818111495,1.0176665782928467,-2.518500630055563
1708436845.288517,-2.1517090797424316,-1.3367160123637696,-2.5268307367907923,6.135366666107931,1.017613172531128,-2.5184031168567103
1708436845.290494,-2.151566505432129,-1.3366924089244385,-2.5268591086017054,6.135208117752828,1.0176424980163574,-2.5183756987201136
1708436845.2924888,-2.151556968688965,-1.33672450602565,-2.5268591086017054,6.134990799217977,1.017609715461731,-2.5182746092425745
1708436845.2945096,-2.151468515396118,-1.3366478246501465,-2.526818815861837,6.134818661003866,1.0175856351852417,-2.51825982729067
1708436845.2964947,-2.1514008045196533,-1.3366150718978425,-2.526835266743795,6.134618031769552,1.0176140069961548,-2.518146816884176
1708436845.2984838,-2.151298999786377,-1.3365263801864167,-2.5268517176257532,6.134421813278951,1.017566204071045,-2.5181267897235315
1708436845.300497,-2.1512577533721924,-1.336527095442154,-2.52682334581484,6.134251105576315,1.0175408124923706,-2.5180795828448694
1708436845.3024902,-2.1511645317077637,-1.3365393441966553,-2.526789967213766,6.134096610337057,1.0175583362579346,-2.5180400053607386
1708436845.3045158,-2.151089668273926,-1.3365324300578614,-2.5268035570727747,6.133888590126791,1.017591118812561,-2.517923180256979
1708436845.306494,-2.151012659072876,-1.3365496408990403,-2.526815954838888,6.133643257408895,1.017562747001648,-2.517811123524801
1708436845.3084996,-2.1509172916412354,-1.3364686232856293,-2.526839796696798,6.133436786919393,1.0175583362579346,-2.517738644276754
1708436845.3104837,-2.150874137878418,-1.3365062934211274,-2.526806894932882,6.133245098381796,1.017566204071045,-2.517629686986105
1708436845.312488,-2.150757312774658,-1.336411939268448,-2.5267661253558558,6.133045661240377,1.0175386667251587,-2.517545286809103
1708436845.3144891,-2.150692939758301,-1.3363921505263825,-2.526865307484762,6.13280879238204,1.0175386667251587,-2.51740008989443
1708436845.3164897,-2.150656223297119,-1.33638151109729,-2.526789967213766,6.13264690616683,1.0175180435180664,-2.517320696507589
1708436845.3185196,-2.1505792140960693,-1.3363617223552247,-2.526820484791891,6.132433163910665,1.0175223350524902,-2.5172537008868616
1708436845.3204901,-2.1504433155059814,-1.3363498014262696,-2.526773516331808,6.132177340775289,1.0175310373306274,-2.517149035130636
1708436845.322523,-2.150383949279785,-1.3362856668284913,-2.5268035570727747,6.131986963539877,1.0175014734268188,-2.5170896689044397
1708436845.3245041,-2.1502525806427,-1.3362608712962647,-2.5268035570727747,6.131766545563497,1.0174776315689087,-2.5169768969165247
1708436845.3265243,-2.1501598358154297,-1.336249904041626,-2.5267825762378138,6.131624448090353,1.0175144672393799,-2.5168448130237024
1708436845.3285608,-2.150139331817627,-1.336193398838379,-2.526841465626852,6.131382810860433,1.0174531936645508,-2.5167117754565638
1708436845.330576,-2.1500608921051025,-1.3362019819072266,-2.5268035570727747,6.131240594177999,1.0175025463104248,-2.5166078249560755
1708436845.332518,-2.149934768676758,-1.3361606460860749,-2.5267916361438196,6.1309924004371545,1.0175397396087646,-2.5164502302752894
1708436845.3345263,-2.149916648864746,-1.3361259263804932,-2.5268214384662073,6.130796062737264,1.0174741744995117,-2.516331736241476
1708436845.3365247,-2.149796485900879,-1.336146430378296,-2.5267661253558558,6.130587923317709,1.0174500942230225,-2.516239945088522
1708436845.3385186,-2.1496992111206055,-1.3360650402358552,-2.5267706553088587,6.130410659104147,1.0174620151519775,-2.5161028544055384
1708436845.340499,-2.149625301361084,-1.3360822957805176,-2.5267255941974085,6.130177604943075,1.0174458026885986,-2.515925470982687
1708436845.3425162,-2.1495537757873535,-1.3360422414592286,-2.5267255941974085,6.130003320961752,1.0174620151519775,-2.515773121510641
1708436845.3445013,-2.1494810581207275,-1.3359856468490143,-2.5267468134509485,6.1297597763831995,1.0174707174301147,-2.515637222920553
1708436845.3464954,-2.149369955062866,-1.3359489303878327,-2.5267723242389124,6.1295742867286584,1.0174871683120728,-2.5154364744769495
1708436845.3485036,-2.149308681488037,-1.3359294694713135,-2.5268052260028284,6.12935088852004,1.0174663066864014,-2.5153337160693567
1708436845.3504844,-2.1491851806640625,-1.3359711033156891,-2.5267391840564173,6.129131066590109,1.0174338817596436,-2.515132729207174
1708436845.3524897,-2.1491315364837646,-1.3359833520701905,-2.5267587343799036,6.128976571350851,1.0174176692962646,-2.5149524847613733
1708436845.354485,-2.1490793228149414,-1.3359228086522599,-2.5267842451678675,6.128760802536764,1.0174262523651123,-2.514815632496969
1708436845.356482,-2.1489663124084473,-1.335895375614502,-2.5267632643329065,6.12853633144454,1.017405390739441,-2.514627520238058
1708436845.3585231,-2.148861885070801,-1.3358477813056489,-2.5267887751208704,6.128399717598715,1.0173888206481934,-2.5144594351397913
1708436845.360501,-2.1488025188446045,-1.3358312410167237,-2.5267377535449427,6.128169286042013,1.0174750089645386,-2.5142555872546595
1708436845.362523,-2.1487154960632324,-1.3357703548720856,-2.5267227331744593,6.127950536995687,1.0174381732940674,-2.5140298048602503
1708436845.364487,-2.148650646209717,-1.3357671064189454,-2.5267632643329065,6.12768434265212,1.0174381732940674,-2.5138500372516077
1708436845.366512,-2.148534059524536,-1.335776613359787,-2.5267391840564173,6.127489316254415,1.0174219608306885,-2.5136452356921595
1708436845.368535,-2.1484920978546143,-1.335691289310791,-2.5267723242389124,6.127327430039205,1.0174185037612915,-2.513420645390646
1708436845.370504,-2.1483988761901855,-1.3356833320907135,-2.5267422834979456,6.127131330757894,1.0174140930175781,-2.513271156941549
1708436845.3725355,-2.148353338241577,-1.335672454243042,-2.5267346541034144,6.126870739250936,1.0173813104629517,-2.513012711201803
1708436845.374488,-2.148240089416504,-1.3356238168529053,-2.5267723242389124,6.1266997931297205,1.0173691511154175,-2.512780491505758
1708436845.376495,-2.1481809616088867,-1.3355910641006012,-2.5267677942859095,6.126537668495931,1.017401933670044,-2.51251465479006
1708436845.3784995,-2.1480519771575928,-1.335534469490387,-2.5267255941974085,6.12630449512557,1.0173900127410889,-2.512271229420797
1708436845.3804934,-2.1480255126953125,-1.3355682653239747,-2.5267136732684534,6.126136767655172,1.0173944234848022,-2.512034002934591
1708436845.3824968,-2.147960901260376,-1.3355283004096528,-2.5267391840564173,6.125965463906088,1.0173691511154175,-2.5117860476123255
1708436845.384479,-2.1478452682495117,-1.3354759973338624,-2.5267391840564173,6.1257362244422815,1.0174314975738525,-2.5115366617785853
1708436845.3865378,-2.1477229595184326,-1.3355018359473725,-2.5267558733569544,6.125594007759847,1.0173529386520386,-2.51130181947817
1708436845.3885145,-2.147702217102051,-1.3355137568763276,-2.5267604033099573,6.1254262802894495,1.0173864364624023,-2.5109806696521204
1708436845.390496,-2.1476352214813232,-1.335428075199463,-2.5267391840564173,6.125164019852438,1.017398715019226,-2.5106669108020228
1708436845.392529,-2.1475512981414795,-1.3354204458049317,-2.5267649332629603,6.125059234886923,1.0173944234848022,-2.510423008595602
1708436845.3944738,-2.1474673748016357,-1.3353933554938813,-2.526752773915426,6.12476264217452,1.0173572301864624,-2.510127607976095
1708436845.3965156,-2.147423267364502,-1.3353572648814698,-2.5267391840564173,6.124662387162008,1.0173616409301758,-2.5098252932177942
1708436845.3985128,-2.147294044494629,-1.3353172105601807,-2.5267513434039515,6.124491560250082,1.0173900127410889,-2.5095630327807825
1708436845.4004877,-2.147218942642212,-1.335308627491333,-2.5268052260028284,6.124326813011923,1.017401933670044,-2.509160105382101
1708436845.402513,-2.1471784114837646,-1.33525204778228,-2.5267887751208704,6.124193417816915,1.0173572301864624,-2.508899752293722
1708436845.4045131,-2.1471035480499268,-1.3352487844279786,-2.5267887751208704,6.123976337700643,1.0173572301864624,-2.5085962454425257
1708436845.4065104,-2.147010564804077,-1.335240827207901,-2.5267513434039515,6.1237995503242395,1.0173900127410889,-2.508296553288595
1708436845.408529,-2.147021532058716,-1.3352011901191254,-2.526745382939474,6.123599159508505,1.0173691511154175,-2.507902208958761
1708436845.4105086,-2.1469013690948486,-1.3352461618236084,-2.52674371400942,6.123442995339193,1.0173778533935547,-2.507516686116354
1708436845.412546,-2.1468312740325928,-1.335148887043335,-2.5267391840564173,6.123291957169332,1.0173616409301758,-2.5072296301471155
1708436845.414508,-2.146792411804199,-1.3351009649089356,-2.5267391840564173,6.123107659607687,1.0173616409301758,-2.506864611302511
1708436845.4165266,-2.146712064743042,-1.335105226641037,-2.5267227331744593,6.1229368326957605,1.0174063444137573,-2.506540838872091
1708436845.418496,-2.146660804748535,-1.3351171773723145,-2.5267301241504114,6.122797715454855,1.0173944234848022,-2.5061071554767054
1708436845.4205077,-2.1466267108917236,-1.335073785190918,-2.526706043873922,6.122620808869161,1.0174140930175781,-2.505714003239767
1708436845.4225252,-2.1465203762054443,-1.3350609105876465,-2.5267768541919153,6.122502314835348,1.0173975229263306,-2.505333487187521
1708436845.4245105,-2.1464860439300537,-1.335073785190918,-2.5267558733569544,6.122396695404806,1.0174227952957153,-2.504960362111227
1708436845.4265454,-2.146388530731201,-1.3350539964488526,-2.5267677942859095,6.122190940171041,1.017364740371704,-2.5045717398272913
1708436845.4285927,-2.1463828086853027,-1.3350007396987458,-2.52674371400942,6.122068393021383,1.0174185037612915,-2.5042367617236536
1708436845.4305458,-2.1462900638580322,-1.334972934131958,-2.5267391840564173,6.121970045357504,1.017385721206665,-2.5037291685687464
1708436845.4325225,-2.1462717056274414,-1.3350345355323334,-2.5267513434039515,6.121733772545614,1.0173691511154175,-2.503334347401754
1708436845.4345098,-2.146186590194702,-1.3349659156850358,-2.5267391840564173,6.121615874558248,1.0173944234848022,-2.5029011408435267
1708436845.4365177,-2.146101713180542,-1.3349702817252656,-2.5267513434039515,6.121427285462179,1.017385721206665,-2.502451244984762
1708436845.438499,-2.14599609375,-1.334986851816513,-2.5267813841449183,6.121385681420126,1.0174062252044678,-2.502011839543478
1708436845.44051,-2.1460072994232178,-1.3349334460547944,-2.5267604033099573,6.121271955757894,1.0173768997192383,-2.501521412526266
1708436845.4425077,-2.1458964347839355,-1.3349626821330567,-2.5267961660968226,6.12112723568038,1.0173768997192383,-2.5011170546161097
1708436845.4445035,-2.1458940505981445,-1.3349583905986329,-2.5268142859088343,6.120905506401815,1.0173975229263306,-2.5006402174579065
1708436845.4464955,-2.1458067893981934,-1.3348899644664307,-2.5267301241504114,6.120861041336813,1.017435073852539,-2.500162426625387
1708436845.4485219,-2.145787239074707,-1.3348737222007294,-2.5267649332629603,6.120711314469137,1.0174140930175781,-2.49965745607485
1708436845.4505084,-2.145793914794922,-1.3348737520030518,-2.5267604033099573,6.1205975888069055,1.0174185037612915,-2.4992106596576136
1708436845.4524987,-2.1456918716430664,-1.3348780435374756,-2.5267513434039515,6.120424258499899,1.017435073852539,-2.4986687342273157
1708436845.454485,-2.1456716060638428,-1.3348542016795655,-2.5267766157733362,6.120307910233297,1.0174381732940674,-2.4981194178210657
1708436845.456506,-2.1456079483032227,-1.3348465722850342,-2.5267723242389124,6.120223986893453,1.0174306631088257,-2.497626845036642
1708436845.4584925,-2.145596742630005,-1.334895209675171,-2.5267301241504114,6.120095598488607,1.017435073852539,-2.4971051851855677
1708436845.4605157,-2.1454834938049316,-1.334850863819458,-2.5268126169787806,6.119971382408895,1.0173975229263306,-2.496568743382589
1708436845.462477,-2.1455013751983643,-1.3348472875407715,-2.5267768541919153,6.119889247208395,1.0173968076705933,-2.496039692555563
1708436845.4645016,-2.145418643951416,-1.3348387044719239,-2.5267677942859095,6.119756209641256,1.0174381732940674,-2.4955270926104944
1708436845.4665139,-2.145392417907715,-1.334832028751709,-2.5267468134509485,6.119669425278463,1.0174338817596436,-2.4949832598315638
1708436845.4685214,-2.14530873298645,-1.3348073226264496,-2.5267751852618616,6.1194872734840295,1.0174132585525513,-2.494425598775045
1708436845.470523,-2.145319700241089,-1.3348191541484375,-2.5267961660968226,6.119433390885153,1.0174424648284912,-2.493847433720724
1708436845.4724913,-2.1452291011810303,-1.3347301346114655,-2.5267558733569544,6.119351255684652,1.0174543857574463,-2.493302885686056
1708436845.4744837,-2.145183801651001,-1.3347268861583252,-2.5267842451678675,6.119259822159567,1.0174741744995117,-2.4926560560809534
1708436845.476489,-2.1451497077941895,-1.3347387176803132,-2.5267468134509485,6.1190611002738855,1.0174697637557983,-2.4921627680407923
1708436845.4784837,-2.1450681686401367,-1.3347552579692383,-2.5267255941974085,6.118981826096334,1.0174531936645508,-2.491499725972311
1708436845.4804947,-2.1450374126434326,-1.334747390156128,-2.5267842451678675,6.118914592057028,1.0174531936645508,-2.4909427801715296
1708436845.4824846,-2.1450090408325195,-1.3347070676139374,-2.5268052260028284,6.118856179505148,1.017498254776001,-2.4903836886035364
1708436845.4845073,-2.144961357116699,-1.334731177692749,-2.5267496744738978,6.118718731194296,1.0175353288650513,-2.4898350874530237
1708436845.4864888,-2.1448888778686523,-1.3347725582173844,-2.5267797152148646,6.118660557060995,1.0174733400344849,-2.489188257847921
1708436845.4885185,-2.1448819637298584,-1.3347070974162598,-2.5267468134509485,6.118572103768148,1.017510175704956,-2.4886203447925013
1708436845.4905212,-2.1448140144348145,-1.3347364229014893,-2.5268035570727747,6.118522751122274,1.0175472497940063,-2.4879851976977747
1708436845.4925125,-2.144784450531006,-1.3347156953862687,-2.5267961660968226,6.118343221932211,1.017554759979248,-2.4873855749713343
1708436845.494508,-2.144766330718994,-1.334670291548111,-2.5268006960498255,6.118280875473776,1.0175137519836426,-2.4867592493640345
1708436845.4965127,-2.1447231769561768,-1.3346951764873047,-2.5267513434039515,6.118230092316427,1.0175342559814453,-2.4861961046801966
1708436845.4984949,-2.144685745239258,-1.3346594137004395,-2.5267182032214563,6.118162739067831,1.0175539255142212,-2.48560601869692
1708436845.5005267,-2.1446664333343506,-1.3346550327590485,-2.5267468134509485,6.11804889419631,1.0175749063491821,-2.4849980513202112
1708436845.5024996,-2.1446564197540283,-1.3346517843059083,-2.5267542044269007,6.118002879410543,1.017591118812561,-2.4844046274768274
1708436845.5045176,-2.14457368850708,-1.3346508306315918,-2.5267513434039515,6.117893445282736,1.017566204071045,-2.4837427775012415
1708436845.5064964,-2.144566535949707,-1.3346961301616211,-2.5267165342914026,6.1178802130515955,1.017578125,-2.4831975142108362
1708436845.5085092,-2.1445484161376953,-1.3345618110946198,-2.5267587343799036,6.117754804878988,1.017578125,-2.482518974934713
1708436845.5104952,-2.1444852352142334,-1.3346442443183442,-2.5268006960498255,6.1176960346992395,1.0176151990890503,-2.481992785130636
1708436845.512508,-2.144498586654663,-1.3345866066268464,-2.5267871061908167,6.117598998337545,1.0176314115524292,-2.4813225905047815
1708436845.5144992,-2.14444637298584,-1.3345952791026612,-2.526728932057516,6.117560374527731,1.0176109075546265,-2.4807217756854456
1708436845.5164945,-2.1444058418273926,-1.3345790666392823,-2.5267825762378138,6.117489802628317,1.017606496810913,-2.4800599257098597
1708436845.5184932,-2.1444122791290283,-1.33458764970813,-2.5268035570727747,6.1173672554786584,1.0175737142562866,-2.479405228291647
1708436845.5205073,-2.144360065460205,-1.3345185083201905,-2.526789967213766,6.1173122999961755,1.0175737142562866,-2.4787407557116907
1708436845.5225003,-2.144312620162964,-1.3346081388047715,-2.5267916361438196,6.117240059166708,1.0176109075546265,-2.4780920187579554
1708436845.5245094,-2.144303560256958,-1.334543303852417,-2.526806894932882,6.117204654007711,1.0176271200180054,-2.4773975054370325
1708436845.5264971,-2.1442999839782715,-1.3345680993846436,-2.5267706553088587,6.11713873127059,1.0176467895507812,-2.476731840764181
1708436845.528581,-2.144228935241699,-1.3345638078502198,-2.5268080870257776,6.11707757690505,1.0176392793655396,-2.4761479536639612
1708436845.5305307,-2.1442196369171143,-1.3345680993846436,-2.526806894932882,6.117026316910543,1.017593502998352,-2.475421730672018
1708436845.532507,-2.1441831588745117,-1.3345072132400055,-2.526778046284811,6.116992103844442,1.0176467895507812,-2.4747641722308558
1708436845.5345025,-2.144200086593628,-1.3344910007766266,-2.526860777531759,6.11684142330245,1.0176665782928467,-2.474107090626852
1708436845.5365033,-2.1441335678100586,-1.3344790798476716,-2.526811424885885,6.116856086045065,1.017687201499939,-2.473466459904806
1708436845.5384939,-2.144160509109497,-1.334524468784668,-2.526806894932882,6.116729247360983,1.0176947116851807,-2.472785774861471
1708436845.5405045,-2.1441330909729004,-1.334524468784668,-2.526844326649801,6.116714226990499,1.0176622867584229,-2.47209602991213
1708436845.542526,-2.144005537033081,-1.3344920438579102,-2.526836935673849,6.116716968804159,1.0177034139633179,-2.4714277426349085
1708436845.544496,-2.1440799236297607,-1.3344639998725434,-2.526835266743795,6.116603481560507,1.0176904201507568,-2.4707019964801233
1708436845.5464876,-2.1440606117248535,-1.334479884510376,-2.5268517176257532,6.116576421051779,1.017685890197754,-2.4699764887439173
1708436845.548506,-2.143986940383911,-1.3345006269267579,-2.5268636385547083,6.116573679238119,1.0176568031311035,-2.4693413416491907
1708436845.550496,-2.144030809402466,-1.3344278198531647,-2.5268517176257532,6.116397130280294,1.0177266597747803,-2.468639914189474
1708436845.5525014,-2.144037961959839,-1.334479884510376,-2.5268922487842005,6.11635838726119,1.0177223682403564,-2.4679346720324915
1708436845.5545053,-2.143965244293213,-1.3344444346478959,-2.5268245379077356,6.116373288422384,1.0177464485168457,-2.4672098795520228
1708436845.5564964,-2.1439528465270996,-1.3344278198531647,-2.5268500486956995,6.116250979691305,1.0177669525146484,-2.4666157404529017
1708436845.5585356,-2.14389967918396,-1.3343878549388428,-2.5268996397601526,6.11620448806838,1.0177713632583618,-2.465869728718893
1708436845.5605135,-2.143929958343506,-1.3344649535468598,-2.526869599019186,6.116222369461813,1.0177385807037354,-2.4651408831225794
1708436845.5625188,-2.1438724994659424,-1.3344083589366456,-2.5268619696246546,6.116178977280416,1.0177713632583618,-2.4645045439349573
1708436845.564513,-2.143901824951172,-1.3344245714000245,-2.526902739201681,6.1160985110099695,1.0177669525146484,-2.4637885729419153
1708436845.5664833,-2.1438655853271484,-1.3343964231065293,-2.526935640965597,6.116011369019308,1.0177669525146484,-2.463123623524801
1708436845.5685186,-2.1438000202178955,-1.334437535410263,-2.526928249989645,6.115999686508932,1.0177538394927979,-2.462353293095724
1708436845.5705013,-2.1437885761260986,-1.3343964380076905,-2.526907269154684,6.115921842842855,1.017783522605896,-2.461611811314718
1708436845.5725684,-2.1437973976135254,-1.3343636852553864,-2.526968781148092,6.115860688477316,1.0177748203277588,-2.460965696965353
1708436845.5744884,-2.143728256225586,-1.3344255250743409,-2.526919190083639,6.1158156273658655,1.017815113067627,-2.460264031087057
1708436845.5764978,-2.1437203884124756,-1.334375650887825,-2.526902739201681,6.115792023926534,1.0177946090698242,-2.4595471064196985
1708436845.5785403,-2.1436684131622314,-1.3343885701945801,-2.526931111012594,6.115727412491598,1.0178227424621582,-2.4588709513293665
1708436845.580497,-2.143702983856201,-1.3343315881541749,-2.526902739201681,6.115658867150106,1.017827033996582,-2.4581626097308558
1708436845.5825315,-2.1436634063720703,-1.334409312610962,-2.526935640965597,6.115594494133749,1.0178227424621582,-2.4574278036700647
1708436845.5846112,-2.1436057090759277,-1.3343885701945801,-2.526952091847555,6.115560519486227,1.0178589820861816,-2.4567247072802942
1708436845.586539,-2.1435933113098145,-1.3343680661967774,-2.5269010702716272,6.11550914028243,1.017891764640808,-2.4560678640948694
1708436845.588515,-2.143552541732788,-1.3343723577312012,-2.5269625822650355,6.115464436798849,1.0178874731063843,-2.4553995768176478
1708436845.5905063,-2.1435658931732178,-1.3342870038798829,-2.5269625822650355,6.115371811180868,1.0178874731063843,-2.4548168818103235
1708436845.5925465,-2.143543004989624,-1.3343808513930817,-2.5269339720355433,6.115319716721334,1.017894983291626,-2.4541190306292933
1708436845.5944955,-2.143497943878174,-1.334336594944336,-2.5270076433764856,6.115240204125204,1.0179144144058228,-2.453494373952047
1708436845.5965352,-2.1434457302093506,-1.3343765598586579,-2.5269866625415247,6.115204441338339,1.0178818702697754,-2.4528821150409144
1708436845.59849,-2.1433849334716797,-1.33436934769664,-2.5270031134234827,6.115118968277731,1.017894983291626,-2.452171866093771
1708436845.6004884,-2.143364191055298,-1.3343765598586579,-2.527026955281393,6.115150320320883,1.0178937911987305,-2.451580826436178
1708436845.6025202,-2.143359422683716,-1.3343075078776856,-2.5270360151873987,6.115066993027487,1.0179551839828491,-2.450939957295553
1708436845.6045218,-2.1433072090148926,-1.3343723577312012,-2.5270467440234583,6.1150070307548425,1.0179593563079834,-2.4502764383899134
1708436845.6065261,-2.143266439437866,-1.3343289655498047,-2.5270467440234583,6.114868271141805,1.0179345607757568,-2.4495442549334925
1708436845.6084888,-2.1432301998138428,-1.334320382480957,-2.5270631949054163,6.11490415313796,1.0179226398468018,-2.449005190526144
1708436845.6104782,-2.1431870460510254,-1.3343765598586579,-2.5270751158343714,6.114741194039144,1.0179921388626099,-2.448376003895895
1708436845.6125045,-2.143109083175659,-1.3343938154033204,-2.5270751158343714,6.114722955017843,1.0179142951965332,-2.4476922194110315
1708436845.614484,-2.1430580615997314,-1.334357426767685,-2.5270944277392786,6.114626037865438,1.0179463624954224,-2.4470794836627405
1708436845.6164985,-2.1429784297943115,-1.334373639231064,-2.52714711824526,6.114488470345297,1.0179712772369385,-2.44641882578005
1708436845.6184778,-2.1429147720336914,-1.334357426767685,-2.52717096010317,6.114467489510336,1.0180110931396484,-2.4458075205432337
1708436845.6204844,-2.1428334712982178,-1.3343617183021088,-2.52714711824526,6.11437605598525,1.0180315971374512,-2.445125166569845
1708436845.6224883,-2.1428184509277344,-1.334364966755249,-2.527163569127218,6.114268529206075,1.0180511474609375,-2.4445748964892786
1708436845.6245081,-2.142692804336548,-1.3344057363322754,-2.5271876494037073,6.114146101265707,1.018067717552185,-2.443880621586935
1708436845.6264937,-2.142622470855713,-1.334316001539566,-2.5272071997271937,6.114063966065206,1.0180588960647583,-2.4432926813708704
1708436845.6285522,-2.1425588130950928,-1.3343322289041062,-2.5271862188922327,6.113911378174581,1.018087387084961,-2.4426518122302454
1708436845.6305325,-2.1424295902252197,-1.3343531352332612,-2.527231041585104,6.113805043488302,1.018083095550537,-2.4420750776873987
1708436845.632543,-2.1423749923706055,-1.334364966755249,-2.52726394334902,6.113676416664877,1.0181102752685547,-2.441474739705221
1708436845.634491,-2.142259120941162,-1.3343808513930817,-2.527259413396017,6.113549220352926,1.0181684494018555,-2.440856997166769
1708436845.6364892,-2.142150640487671,-1.3343852323344727,-2.5272837320910853,6.113377797394552,1.0181920528411865,-2.440298144017355
1708436845.6384797,-2.1421003341674805,-1.3344014447978516,-2.5273149649249476,6.113217580109396,1.0182031393051147,-2.4396234194384974
1708436845.6404903,-2.141939401626587,-1.3343444776586075,-2.5273104349719446,6.113029467850485,1.0182524919509888,-2.439040247594015
1708436845.6425202,-2.141803503036499,-1.3343444627574463,-2.5273600260363978,6.112902152329244,1.0182600021362305,-2.438468043004171
1708436845.644501,-2.1417160034179688,-1.334320382480957,-2.527358595524923,6.112721550255575,1.0183007717132568,-2.437857453023092
1708436845.6464815,-2.1415517330169678,-1.3343852323344727,-2.5273824373828333,6.11253439167098,1.0183320045471191,-2.437322441731588
1708436845.6485245,-2.141415596008301,-1.33437234283004,-2.5274277369128626,6.1123236296470544,1.0183277130126953,-2.4367292563067835
1708436845.6505015,-2.141263484954834,-1.3343680959990998,-2.527463499699728,6.112172949105062,1.0183849334716797,-2.43618089357485
1708436845.6524787,-2.141040325164795,-1.3343636852553864,-2.527491871510641,6.111917364388265,1.0183473825454712,-2.4356301466571253
1708436845.654469,-2.1408913135528564,-1.3344092977098008,-2.5275309721576136,6.1115983603294275,1.0183837413787842,-2.4350162188159388
1708436845.6564713,-2.140699625015259,-1.3344212633422394,-2.527545754109518,6.111382233887472,1.0183967351913452,-2.4345408121692103
1708436845.6584878,-2.1405160427093506,-1.334428848033287,-2.527550284062521,6.111143100052633,1.0184446573257446,-2.43398887315859
1708436845.6604724,-2.140300989151001,-1.3344487410834809,-2.5276451746570032,6.110881435662069,1.0184153318405151,-2.433411184941427
1708436845.6624782,-2.1400978565216064,-1.3344193261912842,-2.5277212301837366,6.110688435822286,1.018467903137207,-2.4329076449023646
1708436845.6644738,-2.139909505844116,-1.3344357770732422,-2.527707878743307,6.11037157753066,1.018479824066162,-2.4323912302600306
1708436845.6664855,-2.1396827697753906,-1.3345415157130738,-2.5277186075793665,6.110081302910604,1.018561601638794,-2.431882445012228
1708436845.6684773,-2.1394083499908447,-1.334484027033188,-2.5277965704547327,6.109728920250692,1.0185322761535645,-2.4313305060016077
1708436845.670501,-2.1390883922576904,-1.3345082265189667,-2.527808491383688,6.109358417778768,1.0186176300048828,-2.4307895342456263
1708436845.6724803,-2.1388001441955566,-1.3345028471997757,-2.5278518835650843,6.108994948654928,1.018635869026184,-2.4303420225726526
1708436845.6744795,-2.1385042667388916,-1.3345475953868409,-2.527890984212057,6.108616459160604,1.0186734199523926,-2.429833714162008
1708436845.6765099,-2.1382217407226562,-1.3345475953868409,-2.527928415928976,6.108233916550436,1.0186970233917236,-2.4293366114245813
1708436845.67848,-2.137939929962158,-1.3345757138780137,-2.5279646555529993,6.1078364727790735,1.0187287330627441,-2.4288607279406946
1708436845.6804686,-2.1375911235809326,-1.3346365851214905,-2.5279465357409876,6.107408749848165,1.0187321901321411,-2.4283393065081995
1708436845.6824856,-2.137225389480591,-1.3346270632794877,-2.527994219456808,6.106847035675802,1.0187891721725464,-2.427859131489889
1708436845.68452,-2.1368072032928467,-1.3346388351968308,-2.5280633608447474,6.106339800148763,1.0188697576522827,-2.4273996988879603
1708436845.6864798,-2.136432409286499,-1.3346673262170334,-2.528111521397726,6.1058844206626794,1.0189464092254639,-2.426922384892599
1708436845.6884823,-2.1360104084014893,-1.3347441417029877,-2.5281806627856653,6.105353343277731,1.0189614295959473,-2.4264448324786585
1708436845.6904826,-2.135622501373291,-1.334723637705185,-2.5281670729266565,6.104794370919027,1.0190337896347046,-2.426037851964132
1708436845.6924756,-2.1351959705352783,-1.3347387176803132,-2.528243366871969,6.104308712273397,1.0190372467041016,-2.4256368319140833
1708436845.6945,-2.1347811222076416,-1.334738702779152,-2.5283213297473353,6.1037388918693445,1.0191056728363037,-2.42519718805422
1708436845.6964724,-2.134321689605713,-1.3347821098617096,-2.52834397951235,6.103098141938009,1.0191823244094849,-2.4247854391681116
1708436845.6985216,-2.133838653564453,-1.3348515790751954,-2.5284131209002894,6.102520692139425,1.0192229747772217,-2.4243736902820032
1708436845.700491,-2.1333463191986084,-1.3348627847484131,-2.5284608046161097,6.101832973748007,1.0192337036132812,-2.4239402453051966
1708436845.7024813,-2.1328041553497314,-1.3348832440427323,-2.5285163561450403,6.101077544480123,1.0192984342575073,-2.4235721270190638
1708436845.7044818,-2.1322176456451416,-1.334938959484436,-2.528538767491476,6.100351559906759,1.0192973613739014,-2.423178497944967
1708436845.7065098,-2.131711721420288,-1.3349584204009552,-2.528618399296896,6.099611866265096,1.0193660259246826,-2.422762934361593
1708436845.708522,-2.1311423778533936,-1.3349507015994568,-2.528703753148214,6.098903286248007,1.019435167312622,-2.4224398771869105
1708436845.710491,-2.1305956840515137,-1.3350473058274765,-2.5287728945361536,6.09821509101943,1.0194339752197266,-2.422046963368551
1708436845.712484,-2.1299965381622314,-1.335038812165596,-2.528799835835592,6.097430455475607,1.019547462463379,-2.4216702620135706
1708436845.714489,-2.129359245300293,-1.3350824129632493,-2.528912130986349,6.096613037377157,1.0195636749267578,-2.4213669935809534
1708436845.716496,-2.128796339035034,-1.3351266545108338,-2.5289648214923304,6.095856296807089,1.0196030139923096,-2.421023670827047
1708436845.7185237,-2.128122568130493,-1.3351223927787323,-2.528954092656271,6.095002281456747,1.0196229219436646,-2.4206960836993616
1708436845.720485,-2.127497673034668,-1.3352027845433732,-2.5290799776660364,6.094140755921163,1.019720435142517,-2.4203835169421595
1708436845.7224774,-2.1268463134765625,-1.335250349049904,-2.5291505495654505,6.09323416927413,1.0197508335113525,-2.4200144449817103
1708436845.7244964,-2.1261098384857178,-1.3352788102677842,-2.529186550770895,6.092365848809042,1.0197827816009521,-2.419689718876974
1708436845.7264774,-2.12536358833313,-1.3352322739413758,-2.5292630831347864,6.091307747154989,1.0198394060134888,-2.419406000767843
1708436845.7285085,-2.1246449947357178,-1.3353301298669358,-2.5293424765216272,6.0903392908866785,1.0198994874954224,-2.4191346804248255
1708436845.7305484,-2.123920202255249,-1.3353258681348343,-2.529452149068014,6.089408027916708,1.0199551582336426,-2.418777052556173
1708436845.7325706,-2.1231658458709717,-1.3354504716447373,-2.5295406023608606,6.088390099793234,1.019974946975708,-2.4184888044940394
1708436845.7345192,-2.122378349304199,-1.3353966039470215,-2.5295658747302454,6.087282287865438,1.020064353942871,-2.418232504521505
1708436845.736499,-2.1215803623199463,-1.3354605001262208,-2.529689137135641,6.086247074394979,1.0201081037521362,-2.418001715336935
1708436845.7385242,-2.120769500732422,-1.3355367493680497,-2.5297911802874964,6.085158574372091,1.0201728343963623,-2.417725149785177
1708436845.740507,-2.119915246963501,-1.3356177818826218,-2.529837433491842,6.083985078125753,1.0202044248580933,-2.417492930089132
1708436845.74254,-2.119081735610962,-1.3355758798173447,-2.529917065297262,6.0828226683433435,1.0202361345291138,-2.4172266165362757
1708436845.744489,-2.1182124614715576,-1.3356919896653672,-2.5299797693835657,6.081528889923849,1.0203008651733398,-2.417028013859884
1708436845.7464833,-2.1173040866851807,-1.3357690882733841,-2.5300517717944544,6.080402600556173,1.0203324556350708,-2.4167307058917444
1708436845.7484913,-2.116356372833252,-1.335787595515587,-2.530137602482931,6.079096305161276,1.0203676223754883,-2.4165802637683313
1708436845.750484,-2.115450859069824,-1.3358722788146515,-2.530207697545187,6.077761757164755,1.0203356742858887,-2.4163227717029017
1708436845.7525032,-2.114455223083496,-1.3359235239079972,-2.5302842299090784,6.0766135332878015,1.0203633308410645,-2.416074339543478
1708436845.7544928,-2.1135096549987793,-1.3360114854625245,-2.5303850809680384,6.075339901238241,1.0204319953918457,-2.415947977696554
1708436845.7564814,-2.112529754638672,-1.3360594373992463,-2.530431095753805,6.073908674507894,1.0205410718917847,-2.4157353083239954
1708436845.7585044,-2.1114838123321533,-1.3361473840526124,-2.530527416859762,6.072545516281881,1.0204830169677734,-2.4155595938311976
1708436845.760486,-2.1104464530944824,-1.3361748468926926,-2.5306530634509485,6.0712013123329065,1.0205323696136475,-2.4153996149646204
1708436845.7624924,-2.109407424926758,-1.3362506043962021,-2.530680481587545,6.069735872536459,1.0205434560775757,-2.4151700178729456
1708436845.7645025,-2.108304977416992,-1.3362942647985,-2.530767265950338,6.068177449494161,1.0206371545791626,-2.4150474707232874
1708436845.7664876,-2.10723876953125,-1.3363944304040452,-2.5308812300311487,6.066812383919515,1.0206573009490967,-2.4149606863604944
1708436845.7685063,-2.106096029281616,-1.3364976358464737,-2.5309322516070765,6.065280544548788,1.0207170248031616,-2.414816204701559
1708436845.7704985,-2.104964256286621,-1.3365614873221894,-2.5310025850879114,6.06378339508132,1.0207202434539795,-2.41465932527651
1708436845.7725012,-2.1038637161254883,-1.3365932416966935,-2.5310745874988,6.06222819068984,1.020756483078003,-2.414506498967306
1708436845.7745192,-2.102665901184082,-1.3367097538760682,-2.5311527887927454,6.060610520630636,1.0207892656326294,-2.414431397114889
1708436845.7765324,-2.101473808288574,-1.336793066268303,-2.5312276522265833,6.059110986977377,1.020837426185608,-2.4142490069018763
1708436845.7784972,-2.1002938747406006,-1.3368400645307084,-2.531307045613424,6.057480561524191,1.020849347114563,-2.414215389882223
1708436845.780487,-2.0991108417510986,-1.3369322282126923,-2.53137451807131,6.055822717934408,1.020885705947876,-2.414163414631979
1708436845.7825072,-2.0978310108184814,-1.3370497089675446,-2.5314887205706995,6.054075825005331,1.0208512544631958,-2.4140587488757532
1708436845.7845037,-2.096517562866211,-1.33706387997184,-2.5315304438220423,6.052298891335287,1.0209498405456543,-2.414011065159933
1708436845.786537,-2.095231056213379,-1.3371313077262421,-2.531623427067892,6.050560104637899,1.0209367275238037,-2.4139023462878626
1708436845.7885005,-2.0939524173736572,-1.3372150671533127,-2.5317421595202845,6.048705684929647,1.0209729671478271,-2.4138711134540003
1708436845.7904797,-2.092594861984253,-1.3372868460467835,-2.5317867437945765,6.046934234886923,1.0208789110183716,-2.413852039967672
1708436845.7925036,-2.0912768840789795,-1.3374070984176178,-2.531884495412008,6.0450793383415125,1.020927906036377,-2.413868252431051
1708436845.7944775,-2.0899252891540527,-1.3374832731536408,-2.532013479863302,6.0432907221610925,1.020961046218872,-2.413774553929464
1708436845.7964957,-2.0885608196258545,-1.3375387799790879,-2.532055441533224,6.041334140091696,1.0209323167800903,-2.413783375416891
1708436845.798494,-2.0870957374572754,-1.3376301240972062,-2.5321078936206263,6.039458024292745,1.0209453105926514,-2.4138200918780726
1708436845.8004909,-2.085704803466797,-1.3377257150462647,-2.5322113672839563,6.037450659066,1.0208715200424194,-2.4138243834124964
1708436845.8025165,-2.0842478275299072,-1.3378096234849473,-2.532254997883932,6.035480487137594,1.0208637714385986,-2.413844410573141
1708436845.804489,-2.0827579498291016,-1.337909774189331,-2.532362763081686,6.03347538688735,1.020897626876831,-2.41390568414797
1708436845.806521,-2.0812816619873047,-1.3379966181567688,-2.5324512163745325,6.0314910290534876,1.020859956741333,-2.413887325917379
1708436845.8085072,-2.079822063446045,-1.338083640938141,-2.532490317021505,6.029496419220724,1.0208406448364258,-2.4139390627490442
1708436845.8104942,-2.0782761573791504,-1.3381959062865754,-2.5326207319842737,6.027474987297811,1.0208568572998047,-2.4140411059008997
1708436845.8125122,-2.076756477355957,-1.3383566451123734,-2.5326672236071985,6.0253944275672815,1.0208121538162231,-2.4140611330615442
1708436845.8144736,-2.0751595497131348,-1.3384478849223633,-2.532764736806051,6.02328239658431,1.0208046436309814,-2.414145056401388
1708436845.8165019,-2.0735790729522705,-1.338583843117096,-2.5328038374530237,6.021157371788778,1.020756483078003,-2.4142325560199183
1708436845.8185067,-2.071967124938965,-1.3386217814734955,-2.5328667799579065,6.018941271096029,1.020707130432129,-2.414309326802389
1708436845.8204746,-2.070309638977051,-1.338827521806099,-2.5329342524157923,6.016745912819662,1.0207040309906006,-2.414405171071188
1708436845.8225555,-2.068706750869751,-1.3388978701880951,-2.5330243746386927,6.014510142594137,1.0206143856048584,-2.41457444826235
1708436845.8245027,-2.0670197010040283,-1.339026392703392,-2.5330706278430384,6.012294995575704,1.020599126815796,-2.4146581331836146
1708436845.8265076,-2.0653274059295654,-1.339162440305092,-2.533135000859396,6.010015356331625,1.0206241607666016,-2.414807144795553
1708436845.8285656,-2.0636143684387207,-1.3392568242600937,-2.5332401434527796,6.007656681328573,1.0205762386322021,-2.414987627659933
1708436845.8306127,-2.0619900226593018,-1.3394131523421784,-2.533271614705221,6.005343067436971,1.0205150842666626,-2.415147844945089
1708436845.8326209,-2.060171365737915,-1.3395239871791382,-2.533292595540182,6.002977239876547,1.0204999446868896,-2.4153485933886927
1708436845.8345516,-2.058476209640503,-1.3396839213422318,-2.5333991686450403,6.000624286919393,1.0204918384552002,-2.4155245463000696
1708436845.836519,-2.056725263595581,-1.3398244988969346,-2.533471171055929,5.9982268688972376,1.020439624786377,-2.415781084691183
1708436845.83851,-2.0549559593200684,-1.3399799180081864,-2.5335145632373255,5.9958605644996545,1.0203752517700195,-2.416022841130392
1708436845.8404837,-2.0532355308532715,-1.3400830042413254,-2.533590857182638,5.99355303028182,1.020338773727417,-2.416241709386007
1708436845.8425221,-2.051408290863037,-1.3402665716460724,-2.5336344877826136,5.991099107056417,1.0202909708023071,-2.416440788899557
1708436845.844522,-2.0496416091918945,-1.3403818917325516,-2.533719841633932,5.9886770127113245,1.0202503204345703,-2.416741911564962
1708436845.846503,-2.0478391647338867,-1.340463103061058,-2.5337680021869105,5.98620234706954,1.020235300064087,-2.417023007069723
1708436845.8485484,-2.046027660369873,-1.3407046806863328,-2.533778492604391,5.983652579575338,1.0201305150985718,-2.417323176060812
1708436845.8504744,-2.0441272258758545,-1.3408681166223069,-2.5338385740863245,5.981127130776205,1.0201234817504883,-2.4175666014300745
1708436845.8524861,-2.042243480682373,-1.3410439801267167,-2.533872667943136,5.978602993279257,1.019977331161499,-2.4178629557238978
1708436845.8545554,-2.0403990745544434,-1.3412473064712067,-2.5339704195605677,5.976042139321127,1.0199871063232422,-2.4182284514056605
1708436845.8564887,-2.038562774658203,-1.3413864535144349,-2.534039322529928,5.973521458893575,1.0198613405227661,-2.418511215840475
1708436845.8584855,-2.0366370677948,-1.3415775460055848,-2.5340920130359095,5.970999824791708,1.019773006439209,-2.4189370314227503
1708436845.8605037,-2.034824848175049,-1.3417883974364777,-2.5341263453113,5.9685377953346155,1.0196726322174072,-2.41923696199526
1708436845.8624935,-2.0328996181488037,-1.3419676286033173,-2.5341833273517054,5.966096627503195,1.0195882320404053,-2.419600788746969
1708436845.864495,-2.030984878540039,-1.3421680194190522,-2.534189287816183,5.963501918106832,1.01951265335083,-2.420002285634176
1708436845.866489,-2.0290660858154297,-1.342322127228119,-2.5342746416675013,5.9609248516853235,1.019407868385315,-2.4203665892230433
1708436845.8685117,-2.0271289348602295,-1.3425656867078324,-2.5343108812915247,5.958321678429403,1.0193127393722534,-2.4207187334643763
1708436845.8704748,-2.0251870155334473,-1.342806027536728,-2.5343497435199183,5.95570586898879,1.0191632509231567,-2.4211183230029505
1708436845.872491,-2.023214817047119,-1.343021349315979,-2.5343692938434046,5.953062402993002,1.0190833806991577,-2.421622339879171
1708436845.8744812,-2.021291494369507,-1.3432379376939316,-2.534438435231344,5.9504145262535,1.0190001726150513,-2.4220474402057093
1708436845.8764713,-2.0193710327148438,-1.3434028041413804,-2.5344696680652063,5.94787477233962,1.0188745260238647,-2.422439161931173
1708436845.8785005,-2.0173726081848145,-1.3436520111611863,-2.534522358571188,5.94526098945693,1.0188361406326294,-2.4229117075549524
1708436845.8804917,-2.015425682067871,-1.3438672733357926,-2.53455359140505,5.942626702576437,1.0186864137649536,-2.4234138170825403
1708436845.8825026,-2.013399124145508,-1.344106064443924,-2.5346346537219446,5.94002519825057,1.018599033355713,-2.4238715807544153
1708436845.8845046,-2.01139497756958,-1.3443289560130616,-2.534628693257467,5.9373137829597376,1.0184786319732666,-2.4243620077716272
1708436845.88648,-2.0093445777893066,-1.3445029717734833,-2.534670893345968,5.934610593109884,1.018363118171692,-2.4247759024249476
1708436845.8885071,-2.007319688796997,-1.3447789263776322,-2.5347381273852747,5.931977379112997,1.0181695222854614,-2.425326410924093
1708436845.890568,-2.005314588546753,-1.3451099556735535,-2.534786049519674,5.929416048317709,1.0180524587631226,-2.4258559385882776
1708436845.8924859,-2.0032968521118164,-1.3452778470567246,-2.5348432699786585,5.926775562554159,1.0179530382156372,-2.4263561407672327
1708436845.8944957,-2.001354217529297,-1.345512644653656,-2.53485352197756,5.924183952599325,1.0178416967391968,-2.426880184804098
1708436845.8964705,-1.9992523193359375,-1.3457442832044144,-2.5349300543414515,5.921347486763754,1.0177048444747925,-2.4274209181415003
1708436845.8984816,-1.9972478151321411,-1.3459839832833786,-2.5349541346179407,5.918788420944967,1.0175682306289673,-2.427993361149923
1708436845.9005015,-1.9951624870300293,-1.3462511462024231,-2.5350516478167933,5.916126239090719,1.0174646377563477,-2.4285388628589075
1708436845.902494,-1.993094563484192,-1.3464889091304322,-2.5350967089282435,5.913459765702047,1.0173366069793701,-2.4291468302356165
1708436845.9045558,-1.9910576343536377,-1.346715272670128,-2.5351432005511683,5.910771596222677,1.0171759128570557,-2.4297199884997767
1708436845.9064953,-1.9889863729476929,-1.347043366437294,-2.5351160208331507,5.908169376641073,1.0170438289642334,-2.430304829274313
1708436845.908512,-1.9869227409362793,-1.3473261010697861,-2.53521973291506,5.905561315804281,1.016923427581787,-2.430901829396383
1708436845.9105089,-1.984873652458191,-1.3475739669850846,-2.5352631250964563,5.902951109200277,1.016816258430481,-2.431530777608053
1708436845.9125352,-1.982871174812317,-1.3478640478900452,-2.535264555607931,5.900385725289144,1.0166336297988892,-2.4321280161487024
1708436845.9144912,-1.9807372093200684,-1.3481969696334382,-2.5352957884417933,5.8978274939353845,1.0165060758590698,-2.432749334965841
1708436845.9164968,-1.9786419868469238,-1.3484721940806885,-2.5353530089007776,5.895213830261984,1.0163954496383667,-2.433422629033224
1708436845.918527,-1.9764854907989502,-1.3488184672645112,-2.53536039987673,5.892487633019247,1.0162261724472046,-2.43407112756838
1708436845.9205258,-1.9743969440460205,-1.3491100531867524,-2.535483423863546,5.889752852707662,1.0161100625991821,-2.4347713629352015
1708436845.922485,-1.9723432064056396,-1.3494536590627213,-2.5355151335345667,5.887158858567037,1.0159492492675781,-2.435394350682394
1708436845.924507,-1.970312237739563,-1.3497057420066376,-2.5355752150165003,5.8845605728919885,1.015845775604248,-2.4360058943377894
1708436845.9264812,-1.9682726860046387,-1.3500176084092637,-2.5355480352984827,5.881957757263937,1.0156683921813965,-2.4367142359363
1708436845.9285462,-1.9662426710128784,-1.3503034573844452,-2.535654608403341,5.879411566048422,1.0155529975891113,-2.4374271074878138
1708436845.9305782,-1.9641345739364624,-1.3506962221911927,-2.5356364885913294,5.876785623818197,1.0154039859771729,-2.4381840864764612
1708436845.9325726,-1.9620623588562012,-1.3510427337935944,-2.53575045267214,5.874214756279745,1.015256643295288,-2.438798729573385
1708436845.9344916,-1.9599826335906982,-1.351419137125351,-2.535790983830587,5.87170563915328,1.0151528120040894,-2.4395201841937464
