Eg3-git/Classifiers/Data Collection/u5/u5abc5_ur3e_joint_states.csv
time,elbow_joint,shoulder_lift_joint,shoulder_pan_joint,wrist_1_joint,wrist_2_joint,wrist_3_joint
1708436915.6684904,-2.1454172134399414,-1.3336416345885773,-2.523377243672506,6.1160656092460535,1.0112876892089844,-2.8036819140063685
1708436915.6704884,-2.145392894744873,-1.333712951546051,-2.5233891646014612,6.115997302323141,1.0112255811691284,-2.8037267366992396
1708436915.6725073,-2.145369052886963,-1.3336536300233384,-2.5233472029315394,6.116029608040609,1.0112124681472778,-2.803696934376852
1708436915.6745193,-2.145437240600586,-1.33371755600486,-2.523339573537008,6.116059529572286,1.011254906654358,-2.803685013447897
1708436915.676512,-2.1454172134399414,-1.3336505603841324,-2.52330190340151,6.116047251015463,1.0112375020980835,-2.8037028948413294
1708436915.6784756,-2.145397186279297,-1.333696724181511,-2.523315493260519,6.115986335068502,1.0112048387527466,-2.8036730925189417
1708436915.6804917,-2.145432949066162,-1.3336908978274842,-2.523360792790548,6.1160528538520715,1.011237382888794,-2.8037636915790003
1708436915.6824806,-2.1453988552093506,-1.3336505752852936,-2.5233891646014612,6.1159942028816126,1.0112537145614624,-2.8037222067462366
1708436915.6845043,-2.145453929901123,-1.33363729835067,-2.523339573537008,6.116020548134603,1.0112537145614624,-2.8037102858172815
1708436915.6864693,-2.1454243659973145,-1.3336624068072815,-2.5234220663653772,6.115987646370687,1.0112581253051758,-2.803746048604147
1708436915.6885145,-2.145381450653076,-1.3336668771556397,-2.5233636538134974,6.115954625397482,1.0112833976745605,-2.8037102858172815
1708436915.6905081,-2.145385980606079,-1.333650605087616,-2.5233591238604944,6.115999567299642,1.01127028465271,-2.803701464329855
1708436915.6925216,-2.145369052886963,-1.3336342883161088,-2.5233681837665003,6.115942823677816,1.011266827583313,-2.8037622610675257
1708436915.69447,-2.1453652381896973,-1.333643065100052,-2.5233517328845423,6.115996467858114,1.0112746953964233,-2.8036895434008997
1708436915.6964848,-2.1453943252563477,-1.3336746555617829,-2.5233381430255335,6.115910279541769,1.0112581253051758,-2.8037594000445765
1708436915.6984863,-2.145414352416992,-1.3336342883161088,-2.52332312265505,6.1159647581870935,1.0112286806106567,-2.803668800984518
1708436915.7005422,-2.1453564167022705,-1.3337249618819733,-2.5233517328845423,6.115923392563619,1.0112624168395996,-2.8037341276751917
1708436915.7024794,-2.1453943252563477,-1.3336790365031739,-2.523335043584005,6.115930902748861,1.0113074779510498,-2.8037222067462366
1708436915.7045038,-2.1453943252563477,-1.3336909872344513,-2.5233472029315394,6.115911233216085,1.01127028465271,-2.8037057558642786
1708436915.706482,-2.1453537940979004,-1.333704174762108,-2.5233681837665003,6.115956055908956,1.0112450122833252,-2.8037148157702845
1708436915.7085152,-2.1453733444213867,-1.333678976898529,-2.523360792790548,6.115959155350485,1.0113074779510498,-2.8037267366992396
1708436915.7104788,-2.1453449726104736,-1.3336474311402817,-2.5233305136310022,6.1159353134925745,1.0112375020980835,-2.80371338525881
1708436915.712476,-2.145352363586426,-1.3336756837419053,-2.5234056154834192,6.115918981819906,1.0112342834472656,-2.8037222067462366
1708436915.7144988,-2.1453652381896973,-1.3336505752852936,-2.5233681837665003,6.115923392563619,1.0112615823745728,-2.803701464329855
1708436915.7164824,-2.145358085632324,-1.3336922538331528,-2.5233727137195032,6.115862715035238,1.0112900733947754,-2.803696934376852
1708436915.7184722,-2.1453537940979004,-1.3337042194655915,-2.5233846346484583,6.115917193680563,1.0113105773925781,-2.8036895434008997
1708436915.7204828,-2.145358085632324,-1.333704174762108,-2.5233636538134974,6.115883219033041,1.0113030672073364,-2.80371338525881
1708436915.7224941,-2.1453046798706055,-1.3336505752852936,-2.5233381430255335,6.115915524750509,1.0112943649291992,-2.8037310282336634
1708436915.7244835,-2.145362377166748,-1.3335969162038346,-2.5233727137195032,6.115899550705709,1.011252760887146,-2.8037341276751917
1708436915.726516,-2.1453495025634766,-1.3337205064347764,-2.5233500639544886,6.1158920405204675,1.0112417936325073,-2.8037429491626185
1708436915.728524,-2.145328998565674,-1.3336593073657532,-2.5233636538134974,6.115866887360372,1.0112943649291992,-2.8037429491626185
1708436915.7304883,-2.145358085632324,-1.3336342883161088,-2.5233874956714075,6.115880238800802,1.0113271474838257,-2.8037548700915735
1708436915.7324867,-2.1453001499176025,-1.3336878430894394,-2.5233801046954554,6.115863549500265,1.011236310005188,-2.8037505785571497
1708436915.7345135,-2.145328998565674,-1.3336593371680756,-2.5233681837665003,6.115859019547262,1.0113118886947632,-2.8037102858172815
1708436915.7364755,-2.1452932357788086,-1.3336505752852936,-2.5233846346484583,6.115871298104086,1.0113105773925781,-2.8037222067462366
1708436915.7385058,-2.145345687866211,-1.3336756539395829,-2.5234175364123743,6.11583839634017,1.0113390684127808,-2.8037267366992396
1708436915.7404852,-2.1453089714050293,-1.3336756241372605,-2.5234130064593714,6.1158591387565515,1.0113271474838257,-2.8037057558642786
1708436915.7424774,-2.145313262939453,-1.3337042045644303,-2.5234056154834192,6.115847217827596,1.011285662651062,-2.803751770650045
1708436915.7445097,-2.145317554473877,-1.3336834919503708,-2.5233681837665003,6.1158145544822595,1.0113228559494019,-2.8037267366992396
1708436915.746495,-2.1453304290771484,-1.3336593371680756,-2.5233710447894495,6.115818965225973,1.011297583580017,-2.803701464329855
1708436915.7484972,-2.145321846008301,-1.3336756241372605,-2.5234175364123743,6.115847217827596,1.0113228559494019,-2.8037565390216272
1708436915.7504687,-2.1453375816345215,-1.3336267334273835,-2.5234220663653772,6.115842807083883,1.0113465785980225,-2.803687874470846
1708436915.7524743,-2.14532470703125,-1.3336536598256608,-2.5233891646014612,6.115823375969686,1.0113228559494019,-2.8036819140063685
1708436915.7544687,-2.145317554473877,-1.3336922836354752,-2.5233681837665003,6.115818965225973,1.0113584995269775,-2.8036938349353235
1708436915.7564876,-2.145345687866211,-1.3336835366538544,-2.5233965555774134,6.11584089973525,1.011378526687622,-2.8037341276751917
1708436915.7584975,-2.145328998565674,-1.333604709511139,-2.5233259836779993,6.115857231407919,1.0113171339035034,-2.8036895434008997
1708436915.7605076,-2.1453089714050293,-1.3336681735566636,-2.5233801046954554,6.115802395134725,1.0113904476165771,-2.8037636915790003
1708436915.762463,-2.145285129547119,-1.3336668771556397,-2.5233591238604944,6.115823375969686,1.0113496780395508,-2.8037148157702845
1708436915.7644768,-2.1452808380126953,-1.3336997640183945,-2.523410145436422,6.1158660528953455,1.0113496780395508,-2.803725306187765
1708436915.7664657,-2.1453418731689453,-1.3336549562266846,-2.5233545939074915,6.115800845413961,1.011378526687622,-2.8037102858172815
1708436915.7685287,-2.1453089714050293,-1.333616630440094,-2.5234010855304163,6.115734088211813,1.0113410949707031,-2.8037505785571497
1708436915.7704697,-2.145317554473877,-1.3336756539395829,-2.5233965555774134,6.115799295693197,1.0113334655761719,-2.8037295977221888
1708436915.7725198,-2.1452770233154297,-1.3336179864457627,-2.5233829657184046,6.115714180260458,1.0113334655761719,-2.8037028948413294
1708436915.7744715,-2.145268440246582,-1.3336681735566636,-2.523318592702047,6.115738379746237,1.0114035606384277,-2.8037474791156214
1708436915.776504,-2.1453146934509277,-1.3336579960635682,-2.5234251658069056,6.11574279048995,1.0113797187805176,-2.8036938349353235
1708436915.7784839,-2.145256757736206,-1.3336386543563385,-2.5233500639544886,6.115814077645101,1.0113623142242432,-2.8037386576281946
1708436915.7805066,-2.14530611038208,-1.3336179864457627,-2.5233500639544886,6.1157604334648035,1.011378526687622,-2.8037222067462366
1708436915.7825122,-2.1452980041503906,-1.3336505752852936,-2.5233426729785364,6.115689265518942,1.0113698244094849,-2.8036819140063685
1708436915.7845001,-2.145272731781006,-1.3336386245540162,-2.5234296957599085,6.1157723543937585,1.0113990306854248,-2.8037148157702845
1708436915.786515,-2.145285129547119,-1.3336461049369355,-2.5233591238604944,6.115718710213461,1.0113623142242432,-2.8037429491626185
1708436915.7884998,-2.145256757736206,-1.333675668840744,-2.5233383814441126,6.115730869560995,1.0113710165023804,-2.8037057558642786
1708436915.790487,-2.1453192234039307,-1.3336505752852936,-2.5233874956714075,6.115785586624899,1.011378526687622,-2.803685013447897
1708436915.7925048,-2.1453146934509277,-1.3336355698159714,-2.5233801046954554,6.115727412491598,1.011329174041748,-2.803680483494894
1708436915.7944689,-2.1453025341033936,-1.3336580109647294,-2.5233891646014612,6.115767943650045,1.011378526687622,-2.8036938349353235
1708436915.7964752,-2.1452653408050537,-1.333658055668213,-2.5233846346484583,6.11575602272109,1.01137113571167,-2.8037520090686243
1708436915.7984831,-2.1453146934509277,-1.3336254519275208,-2.5233846346484583,6.115751611977377,1.01137113571167,-2.8037386576281946
1708436915.8005035,-2.1452486515045166,-1.3336967390826722,-2.523409907017843,6.115767943650045,1.0113410949707031,-2.803708855305807
1708436915.8025444,-2.1453025341033936,-1.333683506851532,-2.5233727137195032,6.115706789284506,1.0113410949707031,-2.8037057558642786
1708436915.8045018,-2.1452407836914062,-1.3336878728917618,-2.523356262837545,6.115781175881185,1.0113410949707031,-2.8036730925189417
1708436915.806483,-2.1452901363372803,-1.3336298179677506,-2.5233891646014612,6.115702378540792,1.0113904476165771,-2.8037176767932337
1708436915.8085253,-2.1452858448028564,-1.3336800348809739,-2.5233829657184046,6.115723120957174,1.0113873481750488,-2.8037057558642786
1708436915.8104856,-2.1452901363372803,-1.3336267334273835,-2.5233338514911097,6.115751611977377,1.011378526687622,-2.8037267366992396
1708436915.812518,-2.1453192234039307,-1.3336712580970307,-2.5234130064593714,6.115706789284506,1.0113904476165771,-2.8036819140063685
1708436915.8144968,-2.1452531814575195,-1.3336189550212403,-2.5234251658069056,6.115771400719442,1.0113623142242432,-2.8037102858172815
1708436915.8168814,-2.14526104927063,-1.3336518567851563,-2.5233710447894495,6.115785586624899,1.0114156007766724,-2.8037148157702845
1708436915.8184755,-2.1453146934509277,-1.3336922538331528,-2.5233636538134974,6.115751611977377,1.0113410949707031,-2.8037222067462366
1708436915.8204806,-2.145240068435669,-1.3336593371680756,-2.5233801046954554,6.115767943650045,1.01137113571167,-2.8037102858172815
1708436915.8225322,-2.1452858448028564,-1.3336790365031739,-2.5233903566943567,6.115744101792135,1.0113742351531982,-2.8037267366992396
1708436915.824542,-2.1452698707580566,-1.3336254519275208,-2.5233636538134974,6.115776645928182,1.0113542079925537,-2.8036819140063685
1708436915.8265185,-2.1452770233154297,-1.3336712580970307,-2.5233517328845423,6.115709888726034,1.011366605758667,-2.803685013447897
1708436915.8285406,-2.1452813148498535,-1.3336386543563385,-2.5233305136310022,6.115802156716146,1.0113379955291748,-2.8037057558642786
1708436915.8305235,-2.145294427871704,-1.3336461198380967,-2.5233681837665003,6.115785586624899,1.0113623142242432,-2.8037057558642786
1708436915.832504,-2.1452574729919434,-1.3335968416980286,-2.5233801046954554,6.115767943650045,1.011378526687622,-2.8036983648883265
1708436915.8344874,-2.145294427871704,-1.3336298179677506,-2.5233874956714075,6.115830170899191,1.011394739151001,-2.8037474791156214
1708436915.836483,-2.1452741622924805,-1.3336998236230393,-2.5233829657184046,6.115748512535848,1.0113542079925537,-2.8037295977221888
1708436915.8384826,-2.1452741622924805,-1.3336461198380967,-2.5233681837665003,6.115775692253866,1.011382818222046,-2.8036485354052942
1708436915.8404737,-2.1452653408050537,-1.3336298179677506,-2.5233965555774134,6.115739691048422,1.011345386505127,-2.80371338525881
1708436915.8424945,-2.1452784538269043,-1.3336549562266846,-2.5234039465533655,6.115730869560995,1.0113623142242432,-2.8037222067462366
1708436915.8444748,-2.14524507522583,-1.3336474162391205,-2.5233710447894495,6.115735280304708,1.0113873481750488,-2.8037474791156214
1708436915.8464963,-2.1452741622924805,-1.3336519014886399,-2.5233426729785364,6.115711200028219,1.0113742351531982,-2.8037295977221888
1708436915.8485088,-2.145261764526367,-1.3336342585137864,-2.5233665148364466,6.115727412491598,1.0113904476165771,-2.8037222067462366
1708436915.8504677,-2.1452698707580566,-1.3336549562266846,-2.5233801046954554,6.11575602272109,1.0113496780395508,-2.803692404423849
1708436915.8524973,-2.1452653408050537,-1.3336668771556397,-2.5233846346484583,6.115727412491598,1.011378526687622,-2.8036895434008997
1708436915.854461,-2.14524507522583,-1.3336518716863175,-2.5234220663653772,6.115727412491598,1.0113623142242432,-2.8037429491626185
1708436915.8565245,-2.145195960998535,-1.3336548966220398,-2.5233305136310022,6.115735280304708,1.0113334655761719,-2.8037267366992396
1708436915.858486,-2.1452293395996094,-1.3336430352977295,-2.523356262837545,6.1157110808189294,1.011378526687622,-2.8037176767932337
1708436915.8604896,-2.1452741622924805,-1.3336549562266846,-2.5233472029315394,6.115726578026571,1.011366605758667,-2.8037222067462366
1708436915.8624794,-2.1452207565307617,-1.3336593371680756,-2.5234296957599085,6.115764844208517,1.011329174041748,-2.8037191073047083
1708436915.8644884,-2.145261764526367,-1.3336712580970307,-2.5233965555774134,6.115767943650045,1.011382818222046,-2.8037222067462366
1708436915.866502,-2.1452319622039795,-1.3336593371680756,-2.5233472029315394,6.115739691048422,1.0113542079925537,-2.8037505785571497
1708436915.8685105,-2.1452574729919434,-1.333699793820717,-2.5233846346484583,6.115764844208517,1.0113873481750488,-2.8037386576281946
1708436915.870465,-2.145261764526367,-1.3337129813483735,-2.5233426729785364,6.115764844208517,1.0113379955291748,-2.8037429491626185
1708436915.8724985,-2.1452207565307617,-1.3336223375848313,-2.5233517328845423,6.115781175881185,1.0113496780395508,-2.803696934376852
1708436915.8744748,-2.145205497741699,-1.3336430352977295,-2.5233710447894495,6.115730869560995,1.0113334655761719,-2.8036819140063685
1708436915.876506,-2.1452531814575195,-1.3336342883161088,-2.523335043584005,6.11575602272109,1.0113379955291748,-2.803717915211813
1708436915.8784893,-2.1452698707580566,-1.3336637330106278,-2.523339573537008,6.1157110808189294,1.0113379955291748,-2.8037148157702845
1708436915.8804975,-2.14524507522583,-1.3336430352977295,-2.5233846346484583,6.115752923279562,1.011366605758667,-2.803696934376852
1708436915.88249,-2.145233631134033,-1.333601326947548,-2.5233429113971155,6.115711200028219,1.0113379955291748,-2.8036938349353235
1708436915.8844755,-2.1452784538269043,-1.3336519014886399,-2.5233472029315394,6.115800845413961,1.0113379955291748,-2.8037310282336634
1708436915.886478,-2.1452858448028564,-1.3336311143687745,-2.5233426729785364,6.1157723543937585,1.0114121437072754,-2.8037264982806605
1708436915.8884919,-2.145249366760254,-1.333601326947548,-2.523356262837545,6.1157264588172815,1.0113496780395508,-2.8037267366992396
1708436915.890498,-2.1452741622924805,-1.3336922538331528,-2.5233846346484583,6.115773546486654,1.0113542079925537,-2.8037102858172815
1708436915.8924804,-2.14524507522583,-1.3336342883161088,-2.5233846346484583,6.115784513741293,1.0113840103149414,-2.8037102858172815
1708436915.8944812,-2.1452364921569824,-1.3335968416980286,-2.5233259836779993,6.1157723543937585,1.0113098621368408,-2.803701464329855
1708436915.896509,-2.1452741622924805,-1.3335969162038346,-2.5234251658069056,6.115814077645101,1.0113496780395508,-2.8037176767932337
1708436915.8984714,-2.1452901363372803,-1.3336461198380967,-2.5233874956714075,6.115723120957174,1.0113627910614014,-2.8037341276751917
1708436915.9004884,-2.1452486515045166,-1.3336966198733826,-2.5234084765063685,6.115754830628195,1.0113334655761719,-2.8037636915790003
1708436915.9024727,-2.1452901363372803,-1.3337085855058213,-2.5233636538134974,6.115783440857687,1.0113627910614014,-2.803701464329855
1708436915.9044929,-2.145211935043335,-1.3336922836354752,-2.5233517328845423,6.115776765137472,1.011321783065796,-2.8037102858172815
1708436915.9064653,-2.145266056060791,-1.3336223375848313,-2.5233755747424524,6.115796434670248,1.0113584995269775,-2.8037341276751917
1708436915.9084902,-2.1452319622039795,-1.3336668771556397,-2.5233727137195032,6.115784632950582,1.011321783065796,-2.8037310282336634
1708436915.9105015,-2.1452741622924805,-1.3336144995740433,-2.5233710447894495,6.1157723543937585,1.0113422870635986,-2.8036516348468226
1708436915.912491,-2.145249366760254,-1.3337174218944092,-2.523356262837545,6.115787732392111,1.0113542079925537,-2.8037176767932337
1708436915.9144826,-2.145266056060791,-1.33363430321727,-2.5233381430255335,6.115814077645101,1.0113542079925537,-2.803664271031515
1708436915.9164903,-2.1452653408050537,-1.3335866642049332,-2.5233727137195032,6.115739691048422,1.0113873481750488,-2.8037145773517054
1708436915.9184914,-2.1452319622039795,-1.3336430203965683,-2.5233591238604944,6.115763413697042,1.0113627910614014,-2.8037057558642786
1708436915.9204853,-2.145311117172241,-1.3336800050786515,-2.523332182561056,6.115744101792135,1.0113542079925537,-2.8037310282336634
1708436915.9224756,-2.14524507522583,-1.3335969013026734,-2.5233891646014612,6.115723120957174,1.0113584995269775,-2.8037310282336634
1708436915.9244928,-2.1452407836914062,-1.3336013716510315,-2.523335043584005,6.115825640946188,1.0113334655761719,-2.803701464329855
1708436915.9264917,-2.145294427871704,-1.3336724501899262,-2.5233681837665003,6.115780102997579,1.0113141536712646,-2.8037148157702845
1708436915.9285002,-2.1452250480651855,-1.3336519014886399,-2.523356262837545,6.115754830628195,1.0113260746002197,-2.803751770650045
1708436915.9304829,-2.1452813148498535,-1.3336549562266846,-2.5233727137195032,6.115796434670248,1.0113379955291748,-2.8037222067462366
1708436915.9324753,-2.1453278064727783,-1.3336966198733826,-2.5233846346484583,6.115800845413961,1.0113303661346436,-2.8037310282336634
1708436915.9344885,-2.145233631134033,-1.3336474162391205,-2.5233846346484583,6.115776765137472,1.0113542079925537,-2.8037565390216272
1708436915.9364827,-2.1452741622924805,-1.3336593371680756,-2.5234130064593714,6.115819918900289,1.0113379955291748,-2.8037429491626185
1708436915.9384766,-2.1452653408050537,-1.3335853976062317,-2.5233681837665003,6.115738498955526,1.0113260746002197,-2.8037148157702845
1708436915.9404724,-2.1452250480651855,-1.3336800348809739,-2.5233727137195032,6.115771400719442,1.0113797187805176,-2.80371338525881
1708436915.942509,-2.1452653408050537,-1.3336637032083054,-2.5233801046954554,6.115750419884481,1.0113141536712646,-2.8037222067462366
1708436915.9444788,-2.1452741622924805,-1.3336101186326523,-2.5233381430255335,6.1157723543937585,1.0112932920455933,-2.8036354223834437
1708436915.9464746,-2.1452980041503906,-1.3336505752852936,-2.523377243672506,6.115807997971334,1.0113465785980225,-2.803668800984518
1708436915.948524,-2.1452364921569824,-1.333699793820717,-2.523360792790548,6.115788924485006,1.0113260746002197,-2.803701464329855
1708436915.9504712,-2.1453068256378174,-1.3336505752852936,-2.523335043584005,6.115800845413961,1.0113595724105835,-2.8037176767932337
1708436915.9524713,-2.1452364921569824,-1.3336549562266846,-2.52342659631838,6.115799295693197,1.0113271474838257,-2.8036776224719446
1708436915.9544644,-2.1452574729919434,-1.3336505752852936,-2.5233874956714075,6.115792023926534,1.0113184452056885,-2.8036730925189417
1708436915.956491,-2.14526104927063,-1.3336637032083054,-2.5233891646014612,6.11580370643691,1.0113346576690674,-2.803751770650045
1708436915.9584599,-2.1452741622924805,-1.3336505752852936,-2.5233710447894495,6.115794884949484,1.0113228559494019,-2.8037756125079554
1708436915.960475,-2.1452901363372803,-1.3336430352977295,-2.5234010855304163,6.115820038109579,1.0113390684127808,-2.8037264982806605
1708436915.9624667,-2.1452531814575195,-1.3336844605258484,-2.523339573537008,6.115771400719442,1.0112943649291992,-2.8037310282336634
1708436915.9644675,-2.1452531814575195,-1.3336668771556397,-2.5234220663653772,6.115852939873495,1.0112581253051758,-2.8037505785571497
1708436915.966473,-2.14524507522583,-1.3336461198380967,-2.523386303578512,6.115800964623251,1.011283278465271,-2.8036895434008997
1708436915.9684799,-2.1453068256378174,-1.3336267334273835,-2.5233517328845423,6.115783321648397,1.0112504959106445,-2.803685013447897
1708436915.9704747,-2.1452486515045166,-1.3336386543563385,-2.5233891646014612,6.1158485291297815,1.0112431049346924,-2.8037295977221888
1708436915.9724548,-2.1452784538269043,-1.3336505752852936,-2.523356262837545,6.1158277867134,1.0112223625183105,-2.8037341276751917
1708436915.9744554,-2.145294427871704,-1.3336505752852936,-2.5233727137195032,6.115778910904684,1.0112054347991943,-2.803717915211813
1708436915.976453,-2.14524507522583,-1.3336461198380967,-2.5233710447894495,6.115869271546163,1.0112299919128418,-2.8037429491626185
1708436915.9784548,-2.1452901363372803,-1.3336254072240372,-2.523356262837545,6.11585162857131,1.0112504959106445,-2.803701464329855
1708436915.9804742,-2.14524507522583,-1.3336430352977295,-2.5233381430255335,6.115850317269125,1.0112385749816895,-2.8037429491626185
1708436915.9824796,-2.1452858448028564,-1.3336593371680756,-2.5233891646014612,6.115823375969686,1.0112011432647705,-2.8036895434008997
1708436915.9845076,-2.1452813148498535,-1.3336298179677506,-2.5233517328845423,6.115900862007894,1.0112547874450684,-2.8036893049823206
1708436915.9864657,-2.1452858448028564,-1.3336386543563385,-2.5233517328845423,6.115887629776754,1.0112299919128418,-2.8037057558642786
1708436915.988516,-2.1452741622924805,-1.3336624068072815,-2.5233801046954554,6.115883219033041,1.0112011432647705,-2.8036685625659388
1708436915.990469,-2.1452653408050537,-1.3336311143687745,-2.5233801046954554,6.1158907292182825,1.0112011432647705,-2.8037295977221888
1708436915.9924974,-2.145211935043335,-1.3337216687253495,-2.5234010855304163,6.1159353134925745,1.0112462043762207,-2.803659741078512
1708436915.9944677,-2.1452858448028564,-1.3336800348809739,-2.5234010855304163,6.115926492005148,1.0112342834472656,-2.803680483494894
1708436915.996465,-2.1452858448028564,-1.3336505752852936,-2.5233801046954554,6.115975844651022,1.0112011432647705,-2.8037386576281946
1708436915.9984906,-2.145237922668457,-1.3336549562266846,-2.5233846346484583,6.115987527161398,1.0112593173980713,-2.8037505785571497
1708436916.0005014,-2.1452698707580566,-1.3337204617312928,-2.5233636538134974,6.11596046665267,1.0112011432647705,-2.803757969533102
1708436916.0024877,-2.1452741622924805,-1.3336144995740433,-2.5233097712146204,6.115976679116049,1.0112099647521973,-2.8036983648883265
1708436916.0044599,-2.145261764526367,-1.3336505752852936,-2.5233591238604944,6.115942823677816,1.0112504959106445,-2.8037548700915735
1708436916.0064776,-2.1452901363372803,-1.3336386543563385,-2.5233517328845423,6.115971314698019,1.0112255811691284,-2.8037295977221888
1708436916.0084927,-2.1452858448028564,-1.3336593371680756,-2.52340537706484,6.115948426514425,1.011213779449463,-2.8037267366992396
1708436916.0104675,-2.1452276706695557,-1.3336355698159714,-2.5233262220965784,6.115966903954305,1.0112299919128418,-2.8037222067462366
1708436916.012503,-2.1452746391296387,-1.3336223375848313,-2.523398224507467,6.1159459231193445,1.0112462043762207,-2.8037667910205286
1708436916.01448,-2.1452813148498535,-1.3336800348809739,-2.5233755747424524,6.115959155350485,1.0112504959106445,-2.803708855305807
1708436916.0164669,-2.1452741622924805,-1.3336342585137864,-2.5233545939074915,6.115967857628622,1.0112099647521973,-2.8037505785571497
1708436916.0184703,-2.1452858448028564,-1.3336756539395829,-2.5234130064593714,6.115967976837911,1.0112504959106445,-2.8037758509265345
1708436916.020474,-2.145216226577759,-1.3336800050786515,-2.5233846346484583,6.115984546929159,1.0112385749816895,-2.803753439580099
1708436916.0224652,-2.1452319622039795,-1.3336223673871537,-2.5233801046954554,6.115951645165243,1.0112547874450684,-2.8037713209735315
1708436916.0244875,-2.1452364921569824,-1.3335809421590348,-2.5233500639544886,6.1159459231193445,1.0112375020980835,-2.8037176767932337
1708436916.026521,-2.1452653408050537,-1.3336712580970307,-2.5233801046954554,6.115917670517721,1.011225700378418,-2.80371600786318
1708436916.0284915,-2.1452858448028564,-1.333716095691063,-2.5233727137195032,6.115922081261434,1.0112342834472656,-2.803716246281759
1708436916.0304654,-2.1452250480651855,-1.3336386543563385,-2.5234010855304163,6.115942823677816,1.0112581253051758,-2.803741518651144
1708436916.0324702,-2.1452741622924805,-1.3337085855058213,-2.5233472029315394,6.115976798325338,1.0112287998199463,-2.803775135670797
1708436916.0344775,-2.1452741622924805,-1.3336189550212403,-2.5233801046954554,6.115963566094198,1.01127028465271,-2.803741518651144
1708436916.036489,-2.1452741622924805,-1.3336386543563385,-2.5233545939074915,6.116003858834066,1.0112624168395996,-2.803725306187765
1708436916.0384822,-2.145294427871704,-1.3336430352977295,-2.5233681837665003,6.115938293724813,1.0113030672073364,-2.803716246281759
1708436916.0404737,-2.1452741622924805,-1.3336878728917618,-2.5234010855304163,6.115959155350485,1.011283278465271,-2.803732458745138
1708436916.0424619,-2.1452407836914062,-1.3336057376912613,-2.5233846346484583,6.115962612419882,1.0112450122833252,-2.8037341276751917
1708436916.044491,-2.145261764526367,-1.3336746555617829,-2.523421827946798,6.1160127995307825,1.0112299919128418,-2.803748909627096
1708436916.0464811,-2.1452813148498535,-1.3336430352977295,-2.5234010855304163,6.115996467858114,1.0112919807434082,-2.8037295977221888
1708436916.048511,-2.145293712615967,-1.3336505752852936,-2.5233801046954554,6.115942942887106,1.0112419128417969,-2.803741518651144
1708436916.0504837,-2.14524507522583,-1.3336790365031739,-2.5233472029315394,6.115913378983297,1.0112299919128418,-2.803774897252218
1708436916.052466,-2.1452858448028564,-1.3336724501899262,-2.5233801046954554,6.1160127995307825,1.0113204717636108,-2.803748909627096
1708436916.0544653,-2.1452443599700928,-1.333605707888939,-2.5233052412616175,6.115975725441732,1.0112581253051758,-2.8038106600390833
1708436916.056508,-2.1452784538269043,-1.3337042045644303,-2.5234039465533655,6.115926492005148,1.0112900733947754,-2.803803030644552
1708436916.0584996,-2.1452813148498535,-1.3336549562266846,-2.5233591238604944,6.116017091065206,1.0112407207489014,-2.803824011479513
1708436916.0604813,-2.1452407836914062,-1.3336593371680756,-2.5233755747424524,6.116003978043356,1.0112537145614624,-2.8037942091571253
1708436916.0624764,-2.1452531814575195,-1.3337085855058213,-2.5233636538134974,6.115950333863058,1.0112615823745728,-2.803786818181173
1708436916.0644896,-2.1452698707580566,-1.3336091500571747,-2.5234161059008997,6.115999567299642,1.0112943649291992,-2.8037615458117884
1708436916.066495,-2.1452784538269043,-1.3336712580970307,-2.5234342257129114,6.11601613739089,1.0113228559494019,-2.803753439580099
1708436916.0684884,-2.1452698707580566,-1.3336179566434403,-2.5234294573413294,6.115995156555929,1.0112813711166382,-2.8038180510150355
1708436916.070495,-2.1452741622924805,-1.3336790365031739,-2.5233965555774134,6.115986335068502,1.0113062858581543,-2.803840462361471
1708436916.0724819,-2.1452858448028564,-1.33361008883033,-2.5233517328845423,6.115970003395834,1.0113346576690674,-2.8037601153003138
1708436916.0745146,-2.145294427871704,-1.3336624068072815,-2.5234296957599085,6.115958082466879,1.0113542079925537,-2.8038106600390833
1708436916.0764778,-2.1452364921569824,-1.3336430352977295,-2.5233874956714075,6.115971314698019,1.0113303661346436,-2.8038254419909876
1708436916.0784967,-2.1452784538269043,-1.3336386543563385,-2.523410145436422,6.115941512375631,1.0113496780395508,-2.8038345018969935
1708436916.0804925,-2.1452741622924805,-1.3336386543563385,-2.5234342257129114,6.115969884186544,1.011378526687622,-2.8037853876696985
1708436916.0824957,-2.1452784538269043,-1.3336179566434403,-2.5234342257129114,6.115958082466879,1.0113410949707031,-2.803875986729757
1708436916.0844808,-2.1452531814575195,-1.3336800050786515,-2.5233874956714075,6.115983235626974,1.0113496780395508,-2.8038716951953333
1708436916.0864923,-2.1452741622924805,-1.333683506851532,-2.5234130064593714,6.116032469063558,1.0113497972488403,-2.80387527147402
1708436916.0884879,-2.145294427871704,-1.3336505752852936,-2.5233994166003626,6.1159613011176965,1.0114035606384277,-2.8038418928729456
1708436916.0904727,-2.1452770233154297,-1.3336746555617829,-2.5233829657184046,6.116048443108358,1.0113742351531982,-2.8038843313800257
1708436916.0925062,-2.1452698707580566,-1.3336549562266846,-2.5233965555774134,6.116007315903463,1.011366605758667,-2.803882662449972
1708436916.0944812,-2.1452653408050537,-1.3336430352977295,-2.5234373251544397,6.115974414139547,1.0113873481750488,-2.8038418928729456
1708436916.0965137,-2.1452770233154297,-1.3336922836354752,-2.5233574549304407,6.11600290515975,1.0113580226898193,-2.803882662449972
1708436916.0984695,-2.1452319622039795,-1.3336712580970307,-2.523411575947897,6.116030919342794,1.0113904476165771,-2.803898874913351
1708436916.1004763,-2.1452698707580566,-1.3336355698159714,-2.5234130064593714,6.116041290550985,1.0114070177078247,-2.803857390080587
1708436916.1024907,-2.1452829837799072,-1.3336624068072815,-2.5234463850604456,6.116032469063558,1.0114232301712036,-2.8038602511035364
1708436916.1044788,-2.1452784538269043,-1.3335897785476227,-2.5234373251544397,6.116044032364645,1.01138174533844,-2.803866211568014
1708436916.106489,-2.145272731781006,-1.3336834919503708,-2.5234206358539026,6.116047251015463,1.0113742351531982,-2.8038767019854944
1708436916.1085708,-2.14524507522583,-1.3336549562266846,-2.5234206358539026,6.11601613739089,1.0114026069641113,-2.803840462361471
1708436916.110491,-2.14526104927063,-1.3336966198733826,-2.5234161059008997,6.116036760597982,1.011394739151001,-2.803890053425924
1708436916.1124988,-2.1453146934509277,-1.3336417090943833,-2.5233710447894495,6.115982043534078,1.0113449096679688,-2.803906504307882
1708436916.114479,-2.145282745361328,-1.3337085408023377,-2.5234130064593714,6.115983116417684,1.0114319324493408,-2.803861681615011
1708436916.1165338,-2.145311117172241,-1.3336549562266846,-2.5233994166003626,6.116023647576132,1.011427640914917,-2.803894583378927
1708436916.1184886,-2.1452858448028564,-1.3336790365031739,-2.5233994166003626,6.115995156555929,1.0114516019821167,-2.803882662449972
1708436916.1204653,-2.1453192234039307,-1.3336461198380967,-2.5233994166003626,6.116023647576132,1.0114188194274902,-2.803882662449972
1708436916.1224895,-2.1452858448028564,-1.3336668771556397,-2.523432795201437,6.116035210877218,1.0114264488220215,-2.803840223942892
1708436916.1244771,-2.145282745361328,-1.3336746555617829,-2.5234537760363978,6.116080152779379,1.0114394426345825,-2.803844753895895
1708436916.1265094,-2.1452698707580566,-1.333683506851532,-2.5234206358539026,6.116072523384847,1.0113818645477295,-2.803894583378927
1708436916.1284952,-2.1452784538269043,-1.3336593371680756,-2.52346116701235,6.1160340187843225,1.0114232301712036,-2.8038440386401575
1708436916.130478,-2.1452698707580566,-1.3336624068072815,-2.5233948866473597,6.115973102837362,1.011460304260254,-2.803873602543966
1708436916.1324592,-2.1452574729919434,-1.3336712580970307,-2.523432795201437,6.116039621620931,1.0113904476165771,-2.803882662449972
1708436916.1344786,-2.1452407836914062,-1.333684505229332,-2.523444716130392,6.116030919342794,1.0114232301712036,-2.803857390080587
1708436916.1364598,-2.1452486515045166,-1.3337173771909256,-2.523449246083395,6.116006123810568,1.011443018913269,-2.803878132496969
1708436916.1384864,-2.1452698707580566,-1.3336549562266846,-2.523428265248434,6.116030919342794,1.0114307403564453,-2.8038483301745813
1708436916.140467,-2.1452364921569824,-1.3336800050786515,-2.5234161059008997,6.116035210877218,1.011397123336792,-2.803910795842306
1708436916.142488,-2.1452443599700928,-1.3336580109647294,-2.523369614277975,6.116022097855367,1.0114102363586426,-2.803927246724264
1708436916.1444728,-2.1452741622924805,-1.3336297881654282,-2.523411575947897,6.116017687111654,1.0114473104476929,-2.8039422670947474
1708436916.1465156,-2.1452486515045166,-1.3336505752852936,-2.523477617894308,6.116112816124716,1.0114341974258423,-2.8038693110095423
1708436916.148483,-2.1452486515045166,-1.3336342585137864,-2.523407045994894,6.116078960686483,1.0114176273345947,-2.803878132496969
1708436916.1504848,-2.1452276706695557,-1.3336549562266846,-2.523456637059347,6.116096365242758,1.0114386081695557,-2.803878132496969
1708436916.152499,-2.1452276706695557,-1.3336668771556397,-2.523482147847311,6.116047251015463,1.0114386081695557,-2.803918425236837
1708436916.1552384,-2.1452813148498535,-1.3336355847171326,-2.523444716130392,6.115989792137899,1.0114507675170898,-2.8038931528674524
1708436916.156506,-2.145261764526367,-1.3336593371680756,-2.523494068776266,6.116096484452047,1.0114713907241821,-2.803947989140646
1708436916.1584892,-2.1452531814575195,-1.3336756539395829,-2.52346116701235,6.116042840271749,1.0114551782608032,-2.8038974444018763
1708436916.1604826,-2.1452319622039795,-1.3336342585137864,-2.523423735295431,6.116026508599081,1.0114669799804688,-2.8038886229144495
1708436916.162495,-2.1452770233154297,-1.3336474162391205,-2.523428265248434,6.116075742035665,1.0114299058914185,-2.803890053425924
1708436916.1644862,-2.1452698707580566,-1.3336966198733826,-2.523444716130392,6.116001713066854,1.011446475982666,-2.8038647810565394
1708436916.1664872,-2.1452531814575195,-1.3336879026940842,-2.523468557988302,6.116030919342794,1.0114758014678955,-2.803857390080587
1708436916.1684847,-2.145311117172241,-1.3336549562266846,-2.523423735295431,6.116083252220907,1.0114789009094238,-2.803927246724264
1708436916.170478,-2.1452276706695557,-1.3337086153081437,-2.523432795201437,6.1160549996192834,1.0114421844482422,-2.803922716771261
1708436916.1724856,-2.1452813148498535,-1.3336549562266846,-2.523411575947897,6.116017687111654,1.0114341974258423,-2.803951088582174
1708436916.1744666,-2.1452784538269043,-1.3336386543563385,-2.523435656224386,6.116099464684286,1.0114669799804688,-2.803890053425924
1708436916.1765049,-2.1452813148498535,-1.3336593371680756,-2.523423735295431,6.1160549996192834,1.0114341974258423,-2.803890053425924
1708436916.178494,-2.1453192234039307,-1.3336746555617829,-2.523444716130392,6.116070019989767,1.0114421844482422,-2.8038767019854944
1708436916.1804972,-2.145256757736206,-1.3336561930230637,-2.523473087941305,6.1160669205482385,1.0114713907241821,-2.803934637700216
1708436916.1824787,-2.145311117172241,-1.3336386543563385,-2.523431126271383,6.116102921753683,1.0114341974258423,-2.8039138952838343
1708436916.184487,-2.1452813148498535,-1.3336966645768662,-2.523435656224386,6.116083252220907,1.0114995241165161,-2.803922716771261
1708436916.186477,-2.1452813148498535,-1.3336702597192307,-2.523423735295431,6.116083252220907,1.011462688446045,-2.8038812319384974
1708436916.1884897,-2.1452574729919434,-1.3336756539395829,-2.5234223047839563,6.116041886597433,1.0114299058914185,-2.803901974354879
1708436916.1904771,-2.145272731781006,-1.3336342585137864,-2.523419205342428,6.116099464684286,1.0114551782608032,-2.8038812319384974
1708436916.1924677,-2.1452901363372803,-1.3336756539395829,-2.523473087941305,6.11605058887557,1.0114551782608032,-2.8038511911975306
1708436916.1944983,-2.1452980041503906,-1.3336879026940842,-2.523431126271383,6.116107451706686,1.0114551782608032,-2.8039212862597864
1708436916.196484,-2.1452858448028564,-1.3336311292699357,-2.5234819094287317,6.116103875427999,1.011446475982666,-2.8039093653308313
1708436916.198482,-2.1452784538269043,-1.3336430352977295,-2.523407045994894,6.116103040962972,1.0114831924438477,-2.8039093653308313
1708436916.2004755,-2.145240068435669,-1.3336505752852936,-2.523432795201437,6.11606131771163,1.0114595890045166,-2.8038693110095423
1708436916.2024925,-2.1453192234039307,-1.3336297881654282,-2.523419205342428,6.116116153984823,1.0114703178405762,-2.8038647810565394
1708436916.2044866,-2.145268440246582,-1.3336460900357743,-2.523435656224386,6.116049396782675,1.0114213228225708,-2.8038767019854944
1708436916.2064924,-2.145293712615967,-1.3336549562266846,-2.523398224507467,6.116123664170065,1.01150381565094,-2.8038976828204554
1708436916.2084818,-2.1452784538269043,-1.333683506851532,-2.523407045994894,6.11607443073348,1.0114341974258423,-2.8038840929614466
1708436916.2104623,-2.1452858448028564,-1.3336790365031739,-2.5234864393817347,6.116075742035665,1.011462688446045,-2.8039422670947474
1708436916.2124865,-2.1453280448913574,-1.3336790365031739,-2.523423735295431,6.116058099060812,1.011474609375,-2.803918425236837
1708436916.2144675,-2.1452276706695557,-1.3336879026940842,-2.523473087941305,6.116095173149862,1.0114541053771973,-2.8039725462542933
1708436916.2164583,-2.145272731781006,-1.333684505229332,-2.523428265248434,6.11605058887557,1.011462688446045,-2.8039258162127894
1708436916.218477,-2.1452653408050537,-1.3336549562266846,-2.523473087941305,6.116128074913778,1.0114703178405762,-2.8038974444018763
1708436916.2204762,-2.145289421081543,-1.3337174516967316,-2.523449246083395,6.116089808731832,1.011458396911621,-2.8038886229144495
1708436916.222474,-2.1453025341033936,-1.3336342585137864,-2.523449246083395,6.1160985110099695,1.011458396911621,-2.8038721720324915
1708436916.2244937,-2.145256757736206,-1.3336790216020127,-2.523423735295431,6.116119253426351,1.0114420652389526,-2.8039303461657923
1708436916.2265003,-2.1452653408050537,-1.3336966645768662,-2.523428265248434,6.116107451706686,1.0114507675170898,-2.8039258162127894
1708436916.228506,-2.1452980041503906,-1.33363430321727,-2.523435656224386,6.116053688317098,1.0114831924438477,-2.8039258162127894
1708436916.2304738,-2.1452486515045166,-1.3336593371680756,-2.523473087941305,6.1160669205482385,1.0114758014678955,-2.8038840929614466
1708436916.2325108,-2.1452813148498535,-1.3336790365031739,-2.523473087941305,6.116102921753683,1.0114669799804688,-2.8038676420794886
1708436916.2344797,-2.1452486515045166,-1.3336134862950821,-2.523473087941305,6.116068708687582,1.0114212036132812,-2.8039050737964075
1708436916.2364898,-2.14530611038208,-1.3336953085711976,-2.523419205342428,6.116119253426351,1.011462688446045,-2.803906504307882
1708436916.2384818,-2.1452980041503906,-1.3336668622544785,-2.523414913808004,6.116107451706686,1.011490821838379,-2.8038886229144495
1708436916.2404783,-2.1452524662017822,-1.3336549264243622,-2.523449246083395,6.11615155914382,1.0114176273345947,-2.803922716771261
1708436916.2424881,-2.1452698707580566,-1.3336922836354752,-2.5234161059008997,6.1161725399787805,1.011458396911621,-2.8038931528674524
1708436916.244511,-2.14526104927063,-1.3336879026940842,-2.523444716130392,6.116179930954733,1.0114638805389404,-2.803918425236837
1708436916.2464812,-2.1452653408050537,-1.3336593371680756,-2.523393694554464,6.116102921753683,1.0114421844482422,-2.8039212862597864
1708436916.248505,-2.1452741622924805,-1.3336637330106278,-2.523447577153341,6.116126763611593,1.0114789009094238,-2.803946558629171
1708436916.250479,-2.1453192234039307,-1.3336800348809739,-2.523431126271383,6.116086232453146,1.011462688446045,-2.8039637247668665
1708436916.25272,-2.1452980041503906,-1.333683506851532,-2.523423735295431,6.116110431938925,1.011487603187561,-2.8039756456958216
1708436916.2545872,-2.1453304290771484,-1.3336460900357743,-2.523411575947897,6.116094219475546,1.0114507675170898,-2.8039212862597864
1708436916.2564926,-2.1452486515045166,-1.3336223375848313,-2.523398224507467,6.116085397988119,1.0114299058914185,-2.8039212862597864
1708436916.2584748,-2.1452770233154297,-1.3336549562266846,-2.523444716130392,6.116119253426351,1.0114789009094238,-2.8038957754718226
1708436916.2604692,-2.1453146934509277,-1.3336756539395829,-2.52346116701235,6.116102921753683,1.0114669799804688,-2.8038886229144495
1708436916.262478,-2.145256757736206,-1.3336549562266846,-2.523423735295431,6.1161876795585535,1.0114421844482422,-2.8039212862597864
1708436916.264483,-2.1452813148498535,-1.3336267334273835,-2.523440186177389,6.116114842682638,1.0114758014678955,-2.8038795630084437
1708436916.2665217,-2.14526104927063,-1.3336756241372605,-2.523456637059347,6.116094100266256,1.011458396911621,-2.8039093653308313
1708436916.2684958,-2.145293712615967,-1.3336624217084427,-2.5234983603106897,6.11614869812087,1.0114256143569946,-2.803918425236837
1708436916.2705038,-2.14530611038208,-1.3336593371680756,-2.523449246083395,6.116123664170065,1.0114341974258423,-2.8038631121264856
1708436916.2724924,-2.1452653408050537,-1.3336746555617829,-2.523419205342428,6.11606119850234,1.0114669799804688,-2.8039637247668665
1708436916.2744756,-2.145310401916504,-1.3337042194655915,-2.523456637059347,6.116114842682638,1.0114551782608032,-2.8039377371417444
1708436916.2764864,-2.1452653408050537,-1.333704174762108,-2.523428265248434,6.116089808731832,1.0114341974258423,-2.8039377371417444
1708436916.278468,-2.145268440246582,-1.3336952936700364,-2.523428265248434,6.1160985110099695,1.0114758014678955,-2.8039549032794397
1708436916.2804902,-2.145256757736206,-1.3336637032083054,-2.523376766835348,6.116094100266256,1.0114507675170898,-2.8039377371417444
1708436916.2824728,-2.145289421081543,-1.3336179864457627,-2.523477379475729,6.116102921753683,1.0114299058914185,-2.8039332071887415
1708436916.284487,-2.145272731781006,-1.3336922538331528,-2.52338153520693,6.116155135422506,1.011422038078308,-2.8039093653308313
1708436916.286459,-2.145310401916504,-1.3336624217084427,-2.523464028035299,6.116110431938925,1.011462688446045,-2.8038974444018763
1708436916.2884703,-2.1453261375427246,-1.3336417090943833,-2.523444716130392,6.116113650589742,1.011462688446045,-2.803934637700216
1708436916.290468,-2.145310401916504,-1.3336474162391205,-2.523435656224386,6.116110431938925,1.0114421844482422,-2.803939167653219
1708436916.2925067,-2.1453375816345215,-1.3336790365031739,-2.523440186177389,6.116107451706686,1.0114386081695557,-2.8039591948138636
1708436916.2944665,-2.1452813148498535,-1.3336966645768662,-2.523482147847311,6.116119253426351,1.011443018913269,-2.8039303461657923
1708436916.2964847,-2.145293712615967,-1.3336712580970307,-2.523411575947897,6.116122472077169,1.0114014148712158,-2.8038840929614466
1708436916.298482,-2.145293712615967,-1.3336386543563385,-2.523449246083395,6.116077410965719,1.0114264488220215,-2.8039422670947474
1708436916.3005245,-2.1452980041503906,-1.3336297881654282,-2.523402516041891,6.1160950539405725,1.0114176273345947,-2.8039258162127894
1708436916.3025067,-2.145289421081543,-1.3336624068072815,-2.523428265248434,6.116073238640585,1.011443018913269,-2.803934637700216
1708436916.3044791,-2.1452653408050537,-1.3336505752852936,-2.523444716130392,6.116089927941122,1.0114551782608032,-2.8039003054248255
1708436916.3064678,-2.14530611038208,-1.3336373728564759,-2.523440186177389,6.116131174355306,1.0114595890045166,-2.803946558629171
1708436916.3084896,-2.1453304290771484,-1.3336580407670517,-2.5234864393817347,6.1160775301750085,1.0114058256149292,-2.803885523472921
1708436916.3104925,-2.145310401916504,-1.3336834919503708,-2.523428265248434,6.116122472077169,1.0114394426345825,-2.8039050737964075
1708436916.3124726,-2.145310401916504,-1.3336297881654282,-2.523432795201437,6.116102921753683,1.0114102363586426,-2.8038840929614466
1708436916.314479,-2.1453192234039307,-1.3336668771556397,-2.523411575947897,6.1160985110099695,1.0114264488220215,-2.8039422670947474
1708436916.3164785,-2.1453192234039307,-1.3336624068072815,-2.5233948866473597,6.116086232453146,1.0113896131515503,-2.8039377371417444
1708436916.3184798,-2.145268440246582,-1.3336549562266846,-2.5234161059008997,6.1160985110099695,1.0114264488220215,-2.8039258162127894
1708436916.3204758,-2.1452813148498535,-1.3336580407670517,-2.523432795201437,6.116123664170065,1.011443018913269,-2.8039138952838343
1708436916.322469,-2.1452813148498535,-1.3336549562266846,-2.52346116701235,6.116073119431295,1.0114394426345825,-2.8039377371417444
1708436916.3244984,-2.14530611038208,-1.3336298179677506,-2.5234084765063685,6.116147148400106,1.011443018913269,-2.8039377371417444
1708436916.326498,-2.145310401916504,-1.3336505752852936,-2.523411575947897,6.116168129235067,1.0114264488220215,-2.8039167563067835
1708436916.3285604,-2.1453018188476562,-1.3336746555617829,-2.523435656224386,6.116147148400106,1.0113904476165771,-2.8039377371417444
1708436916.3304794,-2.145310401916504,-1.333704174762108,-2.523419205342428,6.116126763611593,1.0114264488220215,-2.8039422670947474
1708436916.3324828,-2.1452901363372803,-1.333605782394745,-2.523411575947897,6.116180050164022,1.01138174533844,-2.8039501349078577
1708436916.3344827,-2.1453304290771484,-1.333716095691063,-2.52335769334902,6.116085397988119,1.0114232301712036,-2.803951088582174
1708436916.336478,-2.145293712615967,-1.3337173175862809,-2.5233994166003626,6.116102921753683,1.0113366842269897,-2.8039258162127894
1708436916.3384752,-2.1453375816345215,-1.333683506851532,-2.5234161059008997,6.116081940918722,1.0114070177078247,-2.8039212862597864
1708436916.3404949,-2.1453146934509277,-1.333704174762108,-2.5234583059894007,6.11618326881484,1.0114026069641113,-2.8039303461657923
1708436916.3424883,-2.1452975273132324,-1.3336342883161088,-2.523432795201437,6.116086232453146,1.0113698244094849,-2.8039711157428187
1708436916.344496,-2.14530611038208,-1.3336536300233384,-2.5234039465533655,6.116139876633444,1.0114035606384277,-2.803934637700216
1708436916.346464,-2.145268440246582,-1.3336474162391205,-2.5234418551074427,6.116119253426351,1.0113904476165771,-2.8039889971362513
1708436916.3484778,-2.1453304290771484,-1.3336593371680756,-2.523428265248434,6.11615155914382,1.011366605758667,-2.8039665857898157
1708436916.350468,-2.1452596187591553,-1.3336878728917618,-2.5233829657184046,6.116147148400106,1.0113580226898193,-2.8039377371417444
1708436916.3525293,-2.14530611038208,-1.3337116253427048,-2.523444716130392,6.116114842682638,1.0113542079925537,-2.8039663473712366
1708436916.3544724,-2.1453025341033936,-1.3336461198380967,-2.5234084765063685,6.116142737656393,1.0113303661346436,-2.803946558629171
1708436916.3564909,-2.145321846008301,-1.3336549562266846,-2.5234206358539026,6.1160985110099695,1.0113496780395508,-2.8039329687701624
1708436916.3584821,-2.145263910293579,-1.3336536598256608,-2.523428265248434,6.116090762406149,1.0113303661346436,-2.8039258162127894
1708436916.3604965,-2.145272731781006,-1.3336668771556397,-2.523444716130392,6.116110431938925,1.0113097429275513,-2.803934637700216
1708436916.3624985,-2.1453018188476562,-1.3336417090943833,-2.5233829657184046,6.1161770699317834,1.0113670825958252,-2.8038974444018763
1708436916.3644745,-2.1453261375427246,-1.3336461198380967,-2.5234206358539026,6.116139995842733,1.011297583580017,-2.803934637700216
1708436916.36647,-2.145321846008301,-1.333668203358986,-2.5234039465533655,6.116114842682638,1.0113260746002197,-2.8039682547198694
1708436916.3684936,-2.1453304290771484,-1.333699808721878,-2.5234161059008997,6.11615942695693,1.0113465785980225,-2.8038812319384974
1708436916.3704848,-2.1453375816345215,-1.3336505901864548,-2.5234463850604456,6.116078722267904,1.0113754272460938,-2.803934637700216
1708436916.3725045,-2.145310401916504,-1.3336505752852936,-2.523432795201437,6.116106140404501,1.0113508701324463,-2.803918425236837
1708436916.3744845,-2.145313262939453,-1.3336879026940842,-2.5233920256244105,6.116163837700643,1.0113098621368408,-2.803951088582174
1708436916.3765082,-2.1453585624694824,-1.3336756539395829,-2.5234039465533655,6.116147148400106,1.0113228559494019,-2.8039258162127894
1708436916.3784926,-2.145285129547119,-1.3336342585137864,-2.5234039465533655,6.116168010025778,1.0113141536712646,-2.8039303461657923
1708436916.38046,-2.1452524662017822,-1.3336298179677506,-2.5234206358539026,6.116114842682638,1.0113184452056885,-2.8039050737964075
1708436916.3824902,-2.145317554473877,-1.3336668622544785,-2.5233920256244105,6.1160985110099695,1.0113141536712646,-2.8038767019854944
1708436916.3844886,-2.1452932357788086,-1.3336756539395829,-2.5233619848834437,6.116147148400106,1.011301875114441,-2.803934637700216
1708436916.3864806,-2.1453418731689453,-1.3336712580970307,-2.5233994166003626,6.116114842682638,1.0112528800964355,-2.8039093653308313
1708436916.3884778,-2.14530611038208,-1.333659366970398,-2.5234161059008997,6.116114842682638,1.0112943649291992,-2.803890053425924
1708436916.390477,-2.1452975273132324,-1.333683506851532,-2.5233874956714075,6.116076576500692,1.0112615823745728,-2.8039138952838343
1708436916.3924766,-2.1453375816345215,-1.3336505752852936,-2.523411575947897,6.116139995842733,1.0112789869308472,-2.8039138952838343
1708436916.3944771,-2.1453332901000977,-1.333671287899353,-2.5233710447894495,6.116086232453146,1.0112615823745728,-2.8039303461657923
1708436916.3964965,-2.1452975273132324,-1.3336712580970307,-2.5233426729785364,6.116070019989767,1.0111963748931885,-2.8038886229144495
1708436916.3984714,-2.1453044414520264,-1.3336668771556397,-2.5233710447894495,6.116142737656393,1.0112833976745605,-2.8039138952838343
1708436916.400456,-2.1453418731689453,-1.3337160658887406,-2.5234130064593714,6.116138446121969,1.0112755298614502,-2.8038602511035364
1708436916.402486,-2.1453306674957275,-1.3336430352977295,-2.5234251658069056,6.116102921753683,1.0112547874450684,-2.803939167653219
1708436916.4044666,-2.1452932357788086,-1.33361008883033,-2.5233619848834437,6.116094100266256,1.011225700378418,-2.803906504307882
1708436916.4064734,-2.1452932357788086,-1.3336297285607834,-2.5233965555774134,6.116107451706686,1.0112419128417969,-2.803885523472921
1708436916.4084697,-2.145366668701172,-1.3336505901864548,-2.5233710447894495,6.116114842682638,1.0112419128417969,-2.803901974354879
1708436916.4104526,-2.14532470703125,-1.3337204617312928,-2.5233755747424524,6.1160656092460535,1.0112342834472656,-2.8038974444018763
1708436916.4124553,-2.145317554473877,-1.3336505752852936,-2.5234206358539026,6.116139995842733,1.0112431049346924,-2.803943697606222
1708436916.4144766,-2.145285129547119,-1.3337129217437287,-2.5233591238604944,6.116107332497396,1.0112504959106445,-2.803901974354879
1708436916.4165041,-2.1452932357788086,-1.3337247532657166,-2.5233920256244105,6.116142737656393,1.0111968517303467,-2.803873602543966
1708436916.4184628,-2.1452808380126953,-1.33366812885318,-2.5233710447894495,6.116168129235067,1.0112342834472656,-2.8038528601275843
1708436916.420469,-2.145285129547119,-1.3336668771556397,-2.5233846346484583,6.116102921753683,1.0112299919128418,-2.803866211568014
1708436916.4225333,-2.145317554473877,-1.3336790365031739,-2.5233874956714075,6.116131174355306,1.0112011432647705,-2.80396014848818
1708436916.4244714,-2.145366907119751,-1.3336536449244996,-2.5233965555774134,6.116089927941122,1.0112054347991943,-2.8038528601275843
1708436916.4265034,-2.1453537940979004,-1.3336668771556397,-2.5233710447894495,6.11614869812087,1.0112299919128418,-2.803918425236837
1708436916.4284863,-2.1452763080596924,-1.33369533837352,-2.5234175364123743,6.116126763611593,1.0112299919128418,-2.803878132496969
1708436916.430478,-2.145328998565674,-1.333638684158661,-2.5234206358539026,6.116086351662435,1.0112299919128418,-2.8038767019854944
1708436916.4325013,-2.14532470703125,-1.3336712729981919,-2.5234130064593714,6.116053688317098,1.0112342834472656,-2.803857151662008
1708436916.4344814,-2.14532470703125,-1.333665908580162,-2.5234175364123743,6.116106140404501,1.0112268924713135,-2.803870741521017
1708436916.4364927,-2.1453332901000977,-1.3336505901864548,-2.5233636538134974,6.116094219475546,1.0112473964691162,-2.8038328329669397
1708436916.4384763,-2.145366668701172,-1.3336624068072815,-2.5233891646014612,6.11613546588973,1.0112385749816895,-2.8038528601275843
1708436916.4404633,-2.145313262939453,-1.333683506851532,-2.5233965555774134,6.116119253426351,1.0112473964691162,-2.8038492838488978
1708436916.442461,-2.1453607082366943,-1.3336834770492096,-2.5233681837665003,6.116094219475546,1.011213779449463,-2.8038960138904017
1708436916.4445064,-2.145341396331787,-1.333683506851532,-2.5233636538134974,6.116106140404501,1.0112011432647705,-2.803828303013937
1708436916.44648,-2.1453652381896973,-1.3336998236230393,-2.5233472029315394,6.116191971092977,1.0112011432647705,-2.803866211568014
1708436916.4484959,-2.145395040512085,-1.3336430203965683,-2.5233801046954554,6.116089808731832,1.0112547874450684,-2.8038583437549036
1708436916.450493,-2.1453499794006348,-1.3336579960635682,-2.5233636538134974,6.116138446121969,1.0112547874450684,-2.8038538138019007
1708436916.4525044,-2.1453495025634766,-1.333683506851532,-2.52332312265505,6.116122472077169,1.0112011432647705,-2.8038583437549036
1708436916.4544897,-2.1454074382781982,-1.3336580109647294,-2.5233305136310022,6.116147148400106,1.0112055540084839,-2.8038507143603724
1708436916.4564729,-2.1453282833099365,-1.33369533837352,-2.523306433354513,6.116178858071127,1.0112268924713135,-2.8038345018969935
1708436916.4585073,-2.1453821659088135,-1.3336800050786515,-2.523365322743551,6.116118061333456,1.0112268924713135,-2.8038225809680384
1708436916.4605012,-2.145358085632324,-1.3337161254933854,-2.5233681837665003,6.11614619472579,1.0112099647521973,-2.8038106600390833
1708436916.4624817,-2.145414352416992,-1.333683506851532,-2.523336712514059,6.1161876795585535,1.0111849308013916,-2.8038106600390833
1708436916.4644868,-2.1454100608825684,-1.3336878728917618,-2.5233245531665247,6.116150605469503,1.0112099647521973,-2.8038387934314173
1708436916.4664803,-2.1453988552093506,-1.333604873423912,-2.523299042378561,6.116155135422506,1.0111980438232422,-2.803852144871847
1708436916.468471,-2.1453564167022705,-1.3337129217437287,-2.5232721010791224,6.1161876795585535,1.0111937522888184,-2.8037896792041224
1708436916.4704785,-2.145418643951416,-1.3336179864457627,-2.5232961813556116,6.116162526398458,1.0111937522888184,-2.8037777582751673
1708436916.4724832,-2.145414352416992,-1.3337247532657166,-2.5232811609851282,6.116182195931234,1.0112272500991821,-2.8037734667407435
1708436916.474491,-2.145352363586426,-1.3337204617312928,-2.5232554117785853,6.116162526398458,1.0112229585647583,-2.8037896792041224
1708436916.4764872,-2.1453816890716553,-1.333686576490738,-2.5232794920550745,6.116219150810995,1.011218547821045,-2.80381948152651
1708436916.4784613,-2.1454014778137207,-1.333650605087616,-2.5232225100146692,6.116158115654745,1.0111937522888184,-2.8037646452533167
1708436916.4804642,-2.145348072052002,-1.33369533837352,-2.5232389608966272,6.116174447327413,1.0112431049346924,-2.803786818181173
1708436916.4824715,-2.1454172134399414,-1.3336834919503708,-2.523264471684591,6.116206037789144,1.0111818313598633,-2.80378228822817
1708436916.4844754,-2.1453771591186523,-1.3337042045644303,-2.5232508818255823,6.116248833924093,1.0112099647521973,-2.803803030644552
1708436916.4864728,-2.1454014778137207,-1.3336922836354752,-2.5232508818255823,6.116149294167318,1.0112054347991943,-2.803824249898092
1708436916.4884686,-2.145392894744873,-1.3336702597192307,-2.523259941731588,6.116240012436666,1.0111775398254395,-2.8037896792041224
1708436916.4904783,-2.1454129219055176,-1.3336702597192307,-2.523302141820089,6.116222369461813,1.01125168800354,-2.803765837346212
1708436916.4924765,-2.145397186279297,-1.3336580109647294,-2.5232346693622034,6.116222369461813,1.011214256286621,-2.803791348134176
1708436916.4944766,-2.1454215049743652,-1.3337116551450272,-2.5232389608966272,6.11623905876235,1.0111892223358154,-2.803770367299215
1708436916.496487,-2.14540433883667,-1.3336746555617829,-2.523248020802633,6.11623893955306,1.0111980438232422,-2.803786818181173
1708436916.4984827,-2.1454172134399414,-1.333683506851532,-2.5232721010791224,6.11623893955306,1.0111818313598633,-2.803791348134176
1708436916.5004685,-2.145432949066162,-1.3336342585137864,-2.5232721010791224,6.116214859276571,1.0111775398254395,-2.8038061300860804
1708436916.502465,-2.145432949066162,-1.333690957432129,-2.5233007113086146,6.116217958718099,1.0111620426177979,-2.803744379674093
1708436916.5044804,-2.1453816890716553,-1.333646075134613,-2.5232930819140833,6.11621783950881,1.0111818313598633,-2.80381948152651
1708436916.5064712,-2.1454172134399414,-1.333670274620392,-2.5233140627490442,6.116296398430624,1.0111695528030396,-2.803803030644552
1708436916.5084696,-2.1454055309295654,-1.333702878361084,-2.523259941731588,6.116221415787496,1.0111980438232422,-2.803795878087179
1708436916.5104725,-2.1454453468322754,-1.3336668771556397,-2.523259941731588,6.116230237274923,1.011156439781189,-2.803807799016134
1708436916.5124881,-2.1453816890716553,-1.3336297881654282,-2.5232675711261194,6.116243350296774,1.011186122894287,-2.80378228822817
1708436916.514466,-2.1454200744628906,-1.3336702448180695,-2.5232675711261194,6.116197335511007,1.0112229585647583,-2.803774897252218
1708436916.5164733,-2.1454200744628906,-1.3337161254933854,-2.5232225100146692,6.116291034012594,1.0112603902816772,-2.803807799016134
1708436916.5184703,-2.145388603210449,-1.3336712580970307,-2.5232766310321253,6.116217005043783,1.0112272500991821,-2.803807799016134
1708436916.5204601,-2.1454243659973145,-1.3336386692574997,-2.5232721010791224,6.116262542992391,1.0111652612686157,-2.803828541432516
1708436916.5224712,-2.1454367637634277,-1.3337279570153733,-2.5232508818255823,6.116237389832296,1.0111905336380005,-2.803779427205221
1708436916.524466,-2.145415782928467,-1.3336474162391205,-2.5232721010791224,6.116253721504965,1.0111905336380005,-2.803741518651144
1708436916.5264852,-2.1454577445983887,-1.3336013418487092,-2.5232766310321253,6.11625491359786,1.0111533403396606,-2.803786818181173
1708436916.5284867,-2.145432949066162,-1.333690957432129,-2.5232885519610804,6.116262542992391,1.0111620426177979,-2.8037667910205286
1708436916.5304575,-2.1454200744628906,-1.3336417090943833,-2.5232766310321253,6.116287576943197,1.0111948251724243,-2.8037615458117884
1708436916.5324628,-2.145415782928467,-1.333707259302475,-2.5232766310321253,6.116283166199484,1.011173963546753,-2.803753439580099
1708436916.5344658,-2.145437240600586,-1.3336998236230393,-2.523285690938131,6.116250502854147,1.0112067461013794,-2.803774897252218
1708436916.5364623,-2.145432472229004,-1.3337235760739823,-2.5232840220080774,6.116266834526815,1.0111415386199951,-2.8037987391101282
1708436916.5384703,-2.145453453063965,-1.3336922538331528,-2.5232508818255823,6.116222369461813,1.011186122894287,-2.803791348134176
1708436916.5404816,-2.1454200744628906,-1.3336536300233384,-2.5232389608966272,6.116221534996786,1.0111695528030396,-2.803814951573507
1708436916.5424633,-2.145397186279297,-1.3336461049369355,-2.5232766310321253,6.116295325547018,1.0111652612686157,-2.803807799016134
1708436916.544476,-2.145415782928467,-1.333683506851532,-2.5232225100146692,6.116253721504965,1.0111905336380005,-2.803720776234762
1708436916.5464756,-2.145415782928467,-1.333683506851532,-2.5232930819140833,6.116291034012594,1.0111905336380005,-2.803753439580099
1708436916.548471,-2.1454577445983887,-1.3337205064347764,-2.523259941731588,6.116287576943197,1.0111905336380005,-2.803795878087179
1708436916.5504591,-2.1454367637634277,-1.3336953681758423,-2.5232766310321253,6.116230237274923,1.0111937522888184,-2.8037942091571253
1708436916.5524662,-2.1454780101776123,-1.3336746555617829,-2.523259941731588,6.116298544197836,1.0111905336380005,-2.80378228822817
1708436916.554466,-2.145444631576538,-1.3337085855058213,-2.5232508818255823,6.116250502854147,1.0111533403396606,-2.803791348134176
1708436916.5564764,-2.1454243659973145,-1.3336790216020127,-2.523269001637594,6.116253721504965,1.0111782550811768,-2.803748909627096
1708436916.5584757,-2.145411252975464,-1.3337072295001526,-2.5233097712146204,6.116258132248678,1.0111825466156006,-2.803736988698141
1708436916.5604827,-2.145427942276001,-1.3336668771556397,-2.5232346693622034,6.116228568344869,1.0111905336380005,-2.803728167210714
1708436916.5624745,-2.145460605621338,-1.333670289521553,-2.5232930819140833,6.116246092110433,1.0112272500991821,-2.803736988698141
1708436916.5645068,-2.1454172134399414,-1.3336879026940842,-2.5232811609851282,6.11627875545577,1.0112067461013794,-2.8037777582751673
1708436916.566472,-2.1454286575317383,-1.333690957432129,-2.523297373448507,6.116237509041586,1.0111695528030396,-2.803748909627096
1708436916.5684872,-2.145444631576538,-1.333679051404335,-2.5232554117785853,6.116237389832296,1.0111663341522217,-2.803783957158224
1708436916.5704675,-2.1454410552978516,-1.3336505752852936,-2.5232630411731165,6.1162418005760095,1.0111948251724243,-2.8037236372577112
1708436916.572478,-2.1454620361328125,-1.3336624068072815,-2.5232721010791224,6.11627875545577,1.011202335357666,-2.803753439580099
1708436916.5744877,-2.145415782928467,-1.3337161254933854,-2.5232675711261194,6.116249310761251,1.0111782550811768,-2.803770367299215
1708436916.576468,-2.145399808883667,-1.3336790365031739,-2.52324349084963,6.11627875545577,1.0112228393554688,-2.803786818181173
1708436916.5784676,-2.1454410552978516,-1.3336448532393952,-2.52324349084963,6.116291034012594,1.011186122894287,-2.8037400881396692
1708436916.580468,-2.1454200744628906,-1.33369533837352,-2.5232539812671106,6.11628674247817,1.0111371278762817,-2.803748909627096
1708436916.582459,-2.145400047302246,-1.3336536300233384,-2.5233052412616175,6.116277801781454,1.0111948251724243,-2.803736988698141
1708436916.5844753,-2.145388603210449,-1.333707259302475,-2.5232675711261194,6.116282212525167,1.0111695528030396,-2.803732458745138
1708436916.5864637,-2.1454200744628906,-1.3336342585137864,-2.5232930819140833,6.11627887466506,1.0112110376358032,-2.8037570158587855
1708436916.5884752,-2.1454243659973145,-1.3337205064347764,-2.5232930819140833,6.116253721504965,1.0111948251724243,-2.8037942091571253
1708436916.5905156,-2.14540433883667,-1.3336702597192307,-2.5233171621905726,6.116217005043783,1.0111980438232422,-2.803779427205221
1708436916.592482,-2.1454367637634277,-1.3337249022773285,-2.5232871214496058,6.116228568344869,1.0111533403396606,-2.8037777582751673
1708436916.5944774,-2.1454410552978516,-1.3336417090943833,-2.5232508818255823,6.116261231690206,1.0111652612686157,-2.803812328969137
1708436916.5964804,-2.1454172134399414,-1.3336505752852936,-2.5232344309436243,6.11626564243392,1.011186122894287,-2.803770367299215
1708436916.5984683,-2.1454694271087646,-1.3337085855058213,-2.5233007113086146,6.116262542992391,1.0111533403396606,-2.803753439580099
1708436916.600476,-2.14540433883667,-1.3336756539395829,-2.5232554117785853,6.116274463921346,1.011186122894287,-2.803807799016134
1708436916.6024678,-2.145395517349243,-1.3336668771556397,-2.5233381430255335,6.116228568344869,1.011173963546753,-2.8037956396686
1708436916.6044877,-2.145453453063965,-1.3336668771556397,-2.5232766310321253,6.116294133454122,1.0111991167068481,-2.803748909627096
1708436916.606471,-2.1454577445983887,-1.3336342585137864,-2.5232463518725794,6.116270053177633,1.011160969734192,-2.803736988698141
1708436916.608481,-2.145399808883667,-1.3336800348809739,-2.5233097712146204,6.116274463921346,1.0112229585647583,-2.803774897252218
1708436916.6104648,-2.145395517349243,-1.3336179566434403,-2.5232794920550745,6.11627887466506,1.0111651420593262,-2.803770367299215
1708436916.612513,-2.1454200744628906,-1.333686576490738,-2.5232930819140833,6.116261231690206,1.0112268924713135,-2.80381948152651
1708436916.614471,-2.1454410552978516,-1.333658055668213,-2.5232840220080774,6.116253721504965,1.011202335357666,-2.803770367299215
1708436916.6164718,-2.145388603210449,-1.3336790365031739,-2.5232916514026087,6.116277801781454,1.0111818313598633,-2.803748909627096
1708436916.6184745,-2.1453607082366943,-1.3336298030665894,-2.5233126322375696,6.11628674247817,1.011214256286621,-2.803807799016134
1708436916.6204767,-2.1454410552978516,-1.3336505603841324,-2.5232885519610804,6.116253721504965,1.0111775398254395,-2.803753439580099
1708436916.622497,-2.1454286575317383,-1.3336580407670517,-2.5232794920550745,6.116253721504965,1.0112229585647583,-2.803803030644552
1708436916.6244707,-2.145415782928467,-1.3337248873761673,-2.5233336130725306,6.116228568344869,1.0112268924713135,-2.803807799016134
1708436916.626466,-2.1454410552978516,-1.33369533837352,-2.5232961813556116,6.1162418005760095,1.011202335357666,-2.803757969533102
1708436916.6285028,-2.145400047302246,-1.3336790216020127,-2.5232871214496058,6.116327988892355,1.0111937522888184,-2.803765837346212
1708436916.6305451,-2.1454129219055176,-1.333716095691063,-2.5232961813556116,6.116232979088583,1.0111937522888184,-2.803803030644552
1708436916.6324975,-2.1454200744628906,-1.3337204468301316,-2.5232961813556116,6.1162418005760095,1.0112229585647583,-2.8037896792041224
1708436916.6344736,-2.145427942276001,-1.3336417836001893,-2.5232840220080774,6.116200315743246,1.011189341545105,-2.803765837346212
1708436916.636499,-2.1453816890716553,-1.3337161105922242,-2.5232961813556116,6.116291034012594,1.0112431049346924,-2.803753439580099
1708436916.638464,-2.145453453063965,-1.3337085855058213,-2.5232885519610804,6.116295444756307,1.0112180709838867,-2.803786818181173
1708436916.6404712,-2.1454172134399414,-1.333690957432129,-2.5232961813556116,6.116261231690206,1.011218547821045,-2.8037896792041224
1708436916.6425025,-2.1454086303710938,-1.333683506851532,-2.5233290831195276,6.1162569401557825,1.011214256286621,-2.8037734667407435
1708436916.644477,-2.1454243659973145,-1.3337116253427048,-2.5233171621905726,6.116253721504965,1.0112011432647705,-2.803831402455465
1708436916.6464858,-2.1453771591186523,-1.3336460900357743,-2.5232930819140833,6.116262542992391,1.0112011432647705,-2.803831402455465
1708436916.6484702,-2.1454200744628906,-1.3336624217084427,-2.5233290831195276,6.1162418005760095,1.0112354755401611,-2.803744379674093
1708436916.650469,-2.1453771591186523,-1.3336418134025116,-2.5232418219195765,6.116262542992391,1.0112099647521973,-2.80378228822817
1708436916.6524997,-2.1454200744628906,-1.3336624217084427,-2.5232794920550745,6.116270053177633,1.0112223625183105,-2.803791348134176
1708436916.6544697,-2.145397186279297,-1.3336580705693741,-2.5232961813556116,6.116274463921346,1.0112547874450684,-2.8037777582751673
1708436916.6564991,-2.145449638366699,-1.3336746555617829,-2.5232585112201136,6.116295444756307,1.0112547874450684,-2.80378228822817
1708436916.6584752,-2.1454453468322754,-1.333687887792923,-2.5232554117785853,6.116274463921346,1.0112223625183105,-2.8037896792041224
1708436916.6604738,-2.1454200744628906,-1.3336702448180695,-2.5232871214496058,6.116291034012594,1.0112591981887817,-2.8037524859057825
1708436916.6624649,-2.145392894744873,-1.3336537045291443,-2.523348633443014,6.116230237274923,1.0112385749816895,-2.8037734667407435
1708436916.6644769,-2.1454410552978516,-1.3336374175599595,-2.523332182561056,6.11622582653121,1.0112180709838867,-2.803775135670797
1708436916.6664765,-2.1454200744628906,-1.333670289521553,-2.5233290831195276,6.116234528809347,1.0112667083740234,-2.8037942091571253
1708436916.668462,-2.1454367637634277,-1.3336092096618195,-2.523369852696554,6.116249310761251,1.0112624168395996,-2.8037777582751673
1708436916.6704698,-2.145388603210449,-1.3336790365031739,-2.523353163396017,6.116287576943197,1.0112667083740234,-2.8037896792041224
1708436916.6724985,-2.145397186279297,-1.333679051404335,-2.523332182561056,6.11622582653121,1.0112462043762207,-2.8037896792041224
1708436916.6744738,-2.1454086303710938,-1.333666892056801,-2.523327652608053,6.116266834526815,1.0112789869308472,-2.8038016001330774
1708436916.6764796,-2.145453929901123,-1.3336505752852936,-2.523374382649557,6.116213547974386,1.0112746953964233,-2.803814951573507
1708436916.678457,-2.1454286575317383,-1.3337084960988541,-2.523365322743551,6.11622582653121,1.0113235712051392,-2.803791348134176
1708436916.6804543,-2.145432949066162,-1.3336549562266846,-2.523356262837545,6.1162418005760095,1.0113105773925781,-2.8037570158587855
1708436916.6824777,-2.1453604698181152,-1.3336536896279831,-2.5233681837665003,6.11629198768691,1.01127028465271,-2.8038106600390833
1708436916.6844726,-2.1454286575317383,-1.3336878728917618,-2.523360792790548,6.116266834526815,1.0113184452056885,-2.8037524859057825
1708436916.6865015,-2.1454129219055176,-1.3336998236230393,-2.5233965555774134,6.116271245270529,1.0113433599472046,-2.8037853876696985
1708436916.6884658,-2.1454014778137207,-1.3336537045291443,-2.523411575947897,6.11622582653121,1.0113228559494019,-2.80378228822817
1708436916.6904655,-2.145397186279297,-1.3336746555617829,-2.5233965555774134,6.116204964905538,1.0112932920455933,-2.80378228822817
1708436916.6924775,-2.1454215049743652,-1.333641768699028,-2.523411575947897,6.116204845696249,1.0113379955291748,-2.803770367299215
1708436916.6944635,-2.1453561782836914,-1.3336712580970307,-2.523456637059347,6.116226780205526,1.0113422870635986,-2.803814951573507
1708436916.6965113,-2.1453816890716553,-1.3336580705693741,-2.523477617894308,6.116222369461813,1.0113422870635986,-2.8037777582751673
1708436916.6984723,-2.1454172134399414,-1.33363430321727,-2.52346116701235,6.116222369461813,1.0113552808761597,-2.80378228822817
1708436916.7004733,-2.145369052886963,-1.3336461198380967,-2.523452107106344,6.11615680435256,1.0113627910614014,-2.8037987391101282
1708436916.7025068,-2.14540433883667,-1.3337041300586243,-2.523456637059347,6.11623905876235,1.0113627910614014,-2.803795878087179
1708436916.7044976,-2.1454145908355713,-1.3336624217084427,-2.523447577153341,6.11621783950881,1.0113303661346436,-2.803748909627096
1708436916.7064893,-2.1453771591186523,-1.3337085408023377,-2.523489538823263,6.11623893955306,1.0113627910614014,-2.803741518651144
1708436916.7084882,-2.1454055309295654,-1.3336790365031739,-2.523482147847311,6.116206037789144,1.0114156007766724,-2.803736988698141
1708436916.710473,-2.1454100608825684,-1.3336549711278458,-2.523435656224386,6.116222369461813,1.011382818222046,-2.803725306187765
1708436916.7124765,-2.1453943252563477,-1.3336387288621445,-2.523480478917257,6.116222369461813,1.011394739151001,-2.803725306187765
1708436916.7144804,-2.145385980606079,-1.333666892056801,-2.523449246083395,6.1162521717842,1.0114145278930664,-2.803696934376852
1708436916.716487,-2.145392894744873,-1.3337368381074448,-2.523475948964254,6.11621783950881,1.0114275217056274,-2.803696934376852
1708436916.718474,-2.1454055309295654,-1.3336668622544785,-2.523397986088888,6.11623905876235,1.0114188194274902,-2.8036320845233362
1708436916.7205043,-2.145369052886963,-1.3336668771556397,-2.52346116701235,6.11621783950881,1.0114307403564453,-2.803629461918966
1708436916.7224836,-2.1453776359558105,-1.3336549562266846,-2.523435656224386,6.116219150810995,1.0114507675170898,-2.803605620061056
1708436916.724506,-2.1453607082366943,-1.3337084960988541,-2.523428265248434,6.1162311909492395,1.0114378929138184,-2.80357271829714
1708436916.7264793,-2.1453733444213867,-1.3336659681848069,-2.523431126271383,6.116216170578756,1.011462688446045,-2.803593699132101
1708436916.7285252,-2.1453449726104736,-1.333735467200615,-2.523468557988302,6.116198527603903,1.011446475982666,-2.803587023411886
1708436916.7305076,-2.145430088043213,-1.333641768699028,-2.52348500887026,6.116207349091329,1.0114551782608032,-2.8035336176501673
1708436916.7324865,-2.1453943252563477,-1.3336878728917618,-2.52342659631838,6.116174447327413,1.0114551782608032,-2.803521696721212
1708436916.7344875,-2.1453652381896973,-1.333674670462944,-2.523431126271383,6.1161866066749475,1.011490821838379,-2.8034451643573206
1708436916.7365055,-2.1453821659088135,-1.333716095691063,-2.5234833399402063,6.116141783982076,1.011458396911621,-2.803448263798849
1708436916.7384813,-2.145341396331787,-1.3336790365031739,-2.5235090891467493,6.116162526398458,1.011458396911621,-2.8033722082721155
1708436916.7404797,-2.1453607082366943,-1.3336790365031739,-2.523464028035299,6.11618326881484,1.011490821838379,-2.803338352833883
1708436916.7424717,-2.145358085632324,-1.33369533837352,-2.5235045591937464,6.116129624634542,1.0115280151367188,-2.8032737413989466
1708436916.744494,-2.1453821659088135,-1.3336449724486847,-2.5235000292407435,6.116138446121969,1.0114986896514893,-2.8032589594470423
1708436916.7465086,-2.145328998565674,-1.3336668771556397,-2.5235000292407435,6.116102921753683,1.0115031003952026,-2.803136173878805
1708436916.748494,-2.1453115940093994,-1.3336580407670517,-2.5234833399402063,6.116073238640585,1.0115031003952026,-2.80308968225588
1708436916.7504783,-2.145369529724121,-1.3336865615895768,-2.5234878698932093,6.116058099060812,1.0114943981170654,-2.8029964605914515
1708436916.7524893,-2.1453652381896973,-1.3335969311049958,-2.5235541502581995,6.116070019989767,1.0115512609481812,-2.802937094365255
1708436916.7545173,-2.145362377166748,-1.3336536598256608,-2.5235076586352747,6.11607443073348,1.0115468502044678,-2.802836243306295
1708436916.7565851,-2.14532470703125,-1.3337204617312928,-2.5235331694232386,6.116058099060812,1.011542558670044,-2.8027692476855677
1708436916.75847,-2.1453607082366943,-1.33363430321727,-2.5235045591937464,6.116026508599081,1.0115630626678467,-2.8025992552386683
1708436916.760486,-2.145358085632324,-1.333690957432129,-2.52351957956423,6.116129386215963,1.0115749835968018,-2.8025735060321253
1708436916.7624907,-2.145341396331787,-1.3337041300586243,-2.52351957956423,6.116042840271749,1.011603832244873,-2.8024240175830286
1708436916.7644882,-2.145317554473877,-1.3336537045291443,-2.5235241095172327,6.1160515425498865,1.011574149131775,-2.8023296038257044
1708436916.7664683,-2.145345687866211,-1.333690957432129,-2.523531500493185,6.11600290515975,1.0116397142410278,-2.8021915594684046
1708436916.7684822,-2.14532470703125,-1.33372354627166,-2.5235541502581995,6.11595247963027,1.0116440057754517,-2.8020523230182093
1708436916.770479,-2.145317554473877,-1.3336712580970307,-2.523552481328146,6.116014945297994,1.011614441871643,-2.801936213170187
1708436916.772476,-2.1453499794006348,-1.3336668771556397,-2.523489538823263,6.115998613625326,1.0116058588027954,-2.8018019835101526
1708436916.7744727,-2.1453375816345215,-1.3337235313704987,-2.523531500493185,6.116030919342794,1.0116626024246216,-2.8016396204577845
1708436916.7764626,-2.145321846008301,-1.3336298626712342,-2.523531500493185,6.11600290515975,1.011622428894043,-2.801480833684103
1708436916.77846,-2.1452975273132324,-1.3336703193238755,-2.523581091557638,6.1159413931663416,1.0116835832595825,-2.801275078450338
1708436916.7804785,-2.1453304290771484,-1.3336746555617829,-2.523555580769674,6.116073596268453,1.0116583108901978,-2.801131788884298
1708436916.7824645,-2.145268201828003,-1.3337323826602479,-2.523602310811178,6.116008388787069,1.0117204189300537,-2.8009968439685267
1708436916.7844832,-2.1453018188476562,-1.333702878361084,-2.52354342142214,6.115974414139547,1.0116461515426636,-2.80080491701235
1708436916.7864685,-2.1453261375427246,-1.3336703044227143,-2.523567501698629,6.115995156555929,1.011711597442627,-2.800579849873678
1708436916.7884803,-2.145321846008301,-1.3337160509875794,-2.523567501698629,6.115974414139547,1.0116868019104004,-2.8003621737109583
1708436916.7904775,-2.14530611038208,-1.3336580705693741,-2.523572031651632,6.115983235626974,1.0117149353027344,-2.8001750151263636
1708436916.7924755,-2.1452980041503906,-1.3336790365031739,-2.5235841909991663,6.115962493210592,1.0117357969284058,-2.7999590078936976
1708436916.7944705,-2.14530611038208,-1.333716095691063,-2.5236051718341272,6.115950333863058,1.011734962463379,-2.7997522989856165
1708436916.7964787,-2.14530611038208,-1.3336668771556397,-2.5235629717456263,6.115956055908956,1.0117436647415161,-2.7995083967791956
1708436916.7984784,-2.1453146934509277,-1.3336373728564759,-2.5235887209521692,6.115984427719869,1.0117392539978027,-2.7992473284350794
1708436916.8004625,-2.145272731781006,-1.3336330515197297,-2.5235841909991663,6.115922081261434,1.011746883392334,-2.7990272680865687
1708436916.8024933,-2.1453192234039307,-1.3336790365031739,-2.5235841909991663,6.115917670517721,1.01174795627594,-2.7987704912768763
1708436916.804485,-2.1452524662017822,-1.3336953085711976,-2.5235887209521692,6.115980136185446,1.011804461479187,-2.7985647360431116
1708436916.8065114,-2.1452980041503906,-1.3336865913918992,-2.5236454645739954,6.1159472344215295,1.0117673873901367,-2.7982519308673304
1708436916.8085337,-2.145240068435669,-1.3336624217084427,-2.5236035029040735,6.1159353134925745,1.0117381811141968,-2.797971550618307
1708436916.8104777,-2.1452741622924805,-1.3336865913918992,-2.5236454645739954,6.1159472344215295,1.0117958784103394,-2.7977331320392054
1708436916.8125398,-2.1452901363372803,-1.3336865913918992,-2.5236080328570765,6.115951645165243,1.011775255203247,-2.7974064985858362
1708436916.8144689,-2.1453235149383545,-1.3337028932622452,-2.5236576239215296,6.115893590241232,1.0118159055709839,-2.797136370335714
1708436916.816481,-2.14526104927063,-1.333707259302475,-2.5235989729510706,6.115926611214437,1.0118321180343628,-2.7968111673938196
1708436916.8184943,-2.1452207565307617,-1.3336659532836457,-2.52370268503298,6.1159353134925745,1.0118234157562256,-2.7964792887317103
1708436916.8204772,-2.1452486515045166,-1.3336790216020127,-2.523663584386007,6.1159024117286584,1.0118396282196045,-2.7960873285876673
1708436916.8224776,-2.1452741622924805,-1.333702878361084,-2.5236228148089808,6.115918981819906,1.0118353366851807,-2.795751158391134
1708436916.8245168,-2.1452250480651855,-1.333702878361084,-2.523677174245016,6.115906703263082,1.0118353366851807,-2.795401159917013
1708436916.8264918,-2.1452178955078125,-1.3336537045291443,-2.523660723363058,6.1158907292182825,1.011871337890625,-2.7950239817248743
1708436916.8285067,-2.1452531814575195,-1.333702878361084,-2.523680035267965,6.1159353134925745,1.0118756294250488,-2.794636074696676
1708436916.8304884,-2.145249366760254,-1.3336878728917618,-2.52366811433901,6.115874516754904,1.0118669271469116,-2.7942586580859583
1708436916.832562,-2.1451969146728516,-1.3336659532836457,-2.523712937031881,6.115899550705709,1.0119324922561646,-2.793774668370382
1708436916.8345087,-2.1451802253723145,-1.3336537045291443,-2.5236545244800013,6.115883219033041,1.0118910074234009,-2.7934253851519983
1708436916.8365097,-2.145237922668457,-1.3336878728917618,-2.5237038771258753,6.115862715035238,1.0119444131851196,-2.7930052916156214
1708436916.83847,-2.145249366760254,-1.3336790365031739,-2.5236664454089563,6.115896332054891,1.0119237899780273,-2.79265004793276
1708436916.8405035,-2.145193099975586,-1.33372354627166,-2.5236993471728724,6.115903961449423,1.0119075775146484,-2.7921975294696253
1708436916.8424594,-2.1452536582946777,-1.3336536151221772,-2.523675505314962,6.115863549500265,1.0119152069091797,-2.79179555574526
1708436916.8444757,-2.1452229022979736,-1.3336746555617829,-2.5236948172198694,6.115917193680563,1.0119314193725586,-2.7913506666766565
1708436916.8464737,-2.1452178955078125,-1.3336329919150849,-2.5236948172198694,6.1158920405204675,1.011967658996582,-2.7908621470080774
1708436916.8484628,-2.14518141746521,-1.333716095691063,-2.5237205664264124,6.115871298104086,1.011967658996582,-2.79041296640505
1708436916.8504512,-2.1452229022979736,-1.3336966198733826,-2.5237610975848597,6.115850317269125,1.0119719505310059,-2.789934221898214
1708436916.8524637,-2.14516544342041,-1.3336615872434159,-2.5237234274493616,6.115842807083883,1.0120166540145874,-2.7894700209247034
1708436916.8544924,-2.1451778411865234,-1.3336822253516694,-2.5237024466144007,6.115884530335226,1.0119961500167847,-2.788981024418966
1708436916.8564613,-2.1451821327209473,-1.3337028932622452,-2.5237234274493616,6.115856039315023,1.0119874477386475,-2.788518730794088
1708436916.858491,-2.1451172828674316,-1.3336329919150849,-2.523775879536764,6.11585162857131,1.0119831562042236,-2.7879815737353724
1708436916.8604984,-2.14510440826416,-1.3336909723332901,-2.523768488560812,6.115807997971334,1.0120198726654053,-2.7874985376941126
1708436916.8624525,-2.1451339721679688,-1.3336746555617829,-2.523792568837301,6.115832316666403,1.012011170387268,-2.786975685750143
1708436916.864479,-2.1451215744018555,-1.3336734187654038,-2.523763958607809,6.115766989975729,1.0120680332183838,-2.786419693623678
1708436916.8664658,-2.145112991333008,-1.3336879324964066,-2.52378493944277,6.11580370643691,1.0120561122894287,-2.7858505884753626
1708436916.868466,-2.145109176635742,-1.333690957432129,-2.523763958607809,6.115754830628195,1.0121127367019653,-2.7852750460254114
1708436916.8704686,-2.145109176635742,-1.3336658638766785,-2.523754898701803,6.115747201233663,1.0120594501495361,-2.784677569066183
1708436916.8724802,-2.145113468170166,-1.3337278825095673,-2.523788038884298,6.115711200028219,1.0120878219604492,-2.7840922514544886
1708436916.8744571,-2.145085096359253,-1.33369533837352,-2.5237789789782923,6.115706789284506,1.0121206045150757,-2.783562246953146
1708436916.8764558,-2.1450977325439453,-1.3336624217084427,-2.5238660017596644,6.115778076439657,1.012172818183899,-2.782923761998312
1708436916.878494,-2.1450977325439453,-1.3337116253427048,-2.5238240400897425,6.115691888123312,1.0121238231658936,-2.7823155562030237
1708436916.8804922,-2.145085096359253,-1.333686576490738,-2.5238404909717005,6.11567114570693,1.0121359825134277,-2.7816367785083216
1708436916.8824837,-2.145110845565796,-1.3336897057345887,-2.5238688627826136,6.115674245148458,1.0121684074401855,-2.780992094670431
1708436916.884476,-2.1450657844543457,-1.3336897504380723,-2.5238240400897425,6.115691768914022,1.0121554136276245,-2.780442539845602
1708436916.8864524,-2.1450657844543457,-1.333670274620392,-2.5238598028766077,6.115669715195455,1.0122003555297852,-2.7798176447497767
1708436916.8885026,-2.1450743675231934,-1.3337116253427048,-2.5238855520831507,6.115736353188314,1.0122407674789429,-2.77917725244631
1708436916.8904653,-2.145016670227051,-1.333702878361084,-2.5238643328296106,6.115679847985067,1.0122450590133667,-2.7784624735461634
1708436916.8925004,-2.145033836364746,-1.333704174762108,-2.5238433519946497,6.115705001145162,1.0122612714767456,-2.7777584234820765
1708436916.8944757,-2.1450462341308594,-1.3337116253427048,-2.523855272923605,6.115667927056112,1.0122114419937134,-2.7770164648639124
1708436916.8964834,-2.1450066566467285,-1.3336746555617829,-2.523900572453634,6.115693080216207,1.012269139289856,-2.776283327733175
1708436916.898469,-2.1450066566467285,-1.3336580705693741,-2.5239034334765833,6.115676748543539,1.0122474431991577,-2.775541130696432
1708436916.9004798,-2.1449942588806152,-1.333690957432129,-2.5238869825946253,6.115701901703634,1.012268304824829,-2.774857823048727
1708436916.902524,-2.1449460983276367,-1.333699793820717,-2.523961846028463,6.115590441017904,1.0122759342193604,-2.774130884801046
1708436916.9044747,-2.144958972930908,-1.3336746555617829,-2.5239649454699915,6.115608083992758,1.012332797050476,-2.7733116785632532
1708436916.9064853,-2.144918441772461,-1.33369533837352,-2.52393347421755,6.115658390312948,1.0123116970062256,-2.772614065800802
1708436916.9084842,-2.1449384689331055,-1.333649293785431,-2.5239694754229944,6.115618216782369,1.0123611688613892,-2.7718170324908655
1708436916.910485,-2.1449508666992188,-1.3336790663054963,-2.5239558855639856,6.115583884506979,1.0123893022537231,-2.7710750738727015
1708436916.9125435,-2.144946575164795,-1.333670289521553,-2.5239349047290247,6.115597116738119,1.012380599975586,-2.7703304926501673
1708436916.9144645,-2.1448936462402344,-1.3336505752852936,-2.523979965840475,6.115560519486227,1.012376308441162,-2.7694786230670374
1708436916.9164996,-2.1448779106140137,-1.3337028932622452,-2.5240054766284388,6.115486252098837,1.0123720169067383,-2.768761936818258
1708436916.9184556,-2.1448750495910645,-1.333739848142006,-2.523979965840475,6.115531909256735,1.0124406814575195,-2.7679460684405726
1708436916.9204636,-2.1448864936828613,-1.333658130174019,-2.524029556904928,6.115549552231588,1.0124082565307617,-2.767142359410421
1708436916.9225094,-2.144871234893799,-1.333707259302475,-2.523970905934469,6.11553322055892,1.0124485492706299,-2.7663822809802454
1708436916.9244797,-2.1448187828063965,-1.3337115806392212,-2.5240491072284144,6.115488397866049,1.0124647617340088,-2.765595022832052
1708436916.9264882,-2.144843101501465,-1.3336822104505082,-2.523982826863424,6.115386116295614,1.012526035308838,-2.764723602925436
1708436916.9285014,-2.1448633670806885,-1.33369533837352,-2.52403694788088,6.115489589958944,1.0125000476837158,-2.7639430204974573
1708436916.9305375,-2.144827365875244,-1.3336702448180695,-2.5240142981158655,6.115446436196127,1.0125291347503662,-2.7629898230182093
1708436916.9325068,-2.144831895828247,-1.3336865466884156,-2.5240491072284144,6.1154212830360315,1.0125610828399658,-2.762197558079855
1708436916.934506,-2.1447911262512207,-1.3337354522994538,-2.5240684191333216,6.115406024246969,1.0125362873077393,-2.7612739245044153
1708436916.9364812,-2.1447701454162598,-1.333686576490738,-2.524071280156271,6.11532889583663,1.012568712234497,-2.76038366953005
1708436916.9384944,-2.1447830200195312,-1.333727927213051,-2.524071280156271,6.115283953934469,1.0125852823257446,-2.759482208882467
1708436916.9404645,-2.144770622253418,-1.33369533837352,-2.524133030568258,6.115309107094564,1.0126298666000366,-2.7586143652545374
1708436916.942477,-2.144709825515747,-1.333727927213051,-2.524062220250265,6.115272033005514,1.0125958919525146,-2.7576850096331995
1708436916.9444573,-2.1447479724884033,-1.333714799290039,-2.524112049733297,6.11526249626235,1.012677788734436,-2.7567723433123987
1708436916.9464793,-2.144747495651245,-1.333739848142006,-2.5241194407092493,6.115237343102255,1.0126571655273438,-2.755819861088888
1708436916.9484792,-2.144751787185669,-1.3336778295091172,-2.5241687933551233,6.11523865440444,1.0126726627349854,-2.754930082951681
1708436916.9504623,-2.1446738243103027,-1.3336822253516694,-2.5241687933551233,6.115156757622518,1.0126967430114746,-2.753960434590475
1708436916.9524753,-2.144646644592285,-1.3336690825274964,-2.524205032979147,6.115156757622518,1.0127042531967163,-2.7529850641833704
1708436916.9544613,-2.144699811935425,-1.333670274620392,-2.5241506735431116,6.115211474686422,1.0127575397491455,-2.7520692984210413
1708436916.9564962,-2.144684076309204,-1.333690957432129,-2.524207894002096,6.115129577904501,1.0127698183059692,-2.751077953969137
1708436916.9585826,-2.1446189880371094,-1.3337323826602479,-2.524224344884054,6.115154611855306,1.012805700302124,-2.7501443068133753
1708436916.9604723,-2.1446144580841064,-1.3336536151221772,-2.524203364049093,6.115093695908346,1.0128417015075684,-2.7491613070117396
1708436916.9624622,-2.144595146179199,-1.3336997789195557,-2.52427846590151,6.115074384003439,1.012853980064392,-2.748197380696432
1708436916.9644809,-2.1445670127868652,-1.333739848142006,-2.5242484251605433,6.115098225861349,1.0128824710845947,-2.7472801844226282
1708436916.9664772,-2.144559860229492,-1.33372354627166,-2.5242393652545374,6.115065562516012,1.0128408670425415,-2.746307675038473
1708436916.9685085,-2.1445236206054688,-1.333686576490738,-2.5242305437671106,6.115029561310568,1.0128488540649414,-2.7452364603625696
1708436916.9704733,-2.1444902420043945,-1.3336778444102784,-2.5243054072009485,6.115022051125326,1.0129140615463257,-2.744312349949972
1708436916.972477,-2.1444873809814453,-1.333673433666565,-2.5242753664599817,6.1149775860603235,1.0129460096359253,-2.7432401815997522
1708436916.9744728,-2.144463062286377,-1.3337474477342148,-2.524278227482931,6.115014779358663,1.012904405593872,-2.7421892325030726
1708436916.976482,-2.144493341445923,-1.333702878361084,-2.524353567753927,6.114962088852682,1.013002872467041,-2.7412214914904993
1708436916.978493,-2.144467830657959,-1.333707259302475,-2.524386469517843,6.114971029549398,1.0129728317260742,-2.740262810383932
1708436916.980455,-2.144435167312622,-1.3337116253427048,-2.5243893305407923,6.114918696671285,1.0129854679107666,-2.739243809376852
1708436916.9824703,-2.1443920135498047,-1.333702878361084,-2.5243728796588343,6.114833938866415,1.0130211114883423,-2.7382429281817835
1708436916.9844842,-2.1443753242492676,-1.3336998236230393,-2.5243967215167444,6.1149529097373865,1.013046383857727,-2.7372472921954554
1708436916.98646,-2.144339084625244,-1.333699793820717,-2.5244043509112757,6.1147979376609705,1.0130902528762817,-2.736246411000387
1708436916.988486,-2.1443583965301514,-1.333670289521553,-2.5244043509112757,6.114855992584982,1.0131020545959473,-2.735267941151754
1708436916.9904737,-2.144326686859131,-1.3336536598256608,-2.52439529100527,6.114729630738058,1.0131471157073975,-2.734253470097677
1708436916.9924803,-2.1443352699279785,-1.333735467200615,-2.5244222323047083,6.114709841995992,1.0131129026412964,-2.733310047780172
1708436916.994461,-2.144308090209961,-1.3337115806392212,-2.5244718233691614,6.114714252739706,1.013157844543457,-2.7322374025927942
1708436916.996473,-2.1443123817443848,-1.333727927213051,-2.5244885126696985,6.114662277489462,1.01322340965271,-2.731248203908102
1708436916.9984627,-2.1442296504974365,-1.333699793820717,-2.5244839827166956,6.114666688233175,1.0132462978363037,-2.730140988026754
1708436917.0004656,-2.144228458404541,-1.3336702299169083,-2.5245049635516565,6.114602315216818,1.0132582187652588,-2.7292068640338343
1708436917.0024786,-2.1441962718963623,-1.333702878361084,-2.5245452562915247,6.114578354149618,1.0132867097854614,-2.728138271962301
1708436917.0044963,-2.1441917419433594,-1.333699793820717,-2.5245452562915247,6.1145068285758875,1.0133142471313477,-2.727070395146505
1708436917.0064635,-2.144225835800171,-1.333731086259224,-2.5245559851275843,6.114512192993917,1.0133099555969238,-2.7260897795306605
1708436917.0085003,-2.1441597938537598,-1.333612324004509,-2.524581495915548,6.114487039833822,1.0133546590805054,-2.72504693666567
1708436917.0104854,-2.1441402435302734,-1.3336778295091172,-2.5246008078204554,6.114418732910909,1.0133249759674072,-2.7239742914782923
1708436917.0124655,-2.1441330909729004,-1.333686576490738,-2.5246246496783655,6.114456999092855,1.0133941173553467,-2.7229040304767054
1708436917.0144598,-2.1441121101379395,-1.3336615425399323,-2.5246201197253626,6.114364254265585,1.0134178400039673,-2.7218497435199183
1708436917.016463,-2.144054651260376,-1.3336536598256608,-2.524656359349386,6.114356744080343,1.0134671926498413,-2.72076923051943
1708436917.018464,-2.1440887451171875,-1.3336834919503708,-2.524614159260885,6.114345061569967,1.013486623764038,-2.7196903864489954
1708436917.020467,-2.144076347351074,-1.3337116253427048,-2.524684731160299,6.114337312966146,1.013571858406067,-2.718606774006979
1708436917.0224662,-2.144012928009033,-1.333707259302475,-2.5246923605548304,6.114244806557455,1.0135383605957031,-2.7175233999835413
1708436917.024496,-2.143983840942383,-1.3337041300586243,-2.5247042814837855,6.114176142006674,1.0135962963104248,-2.716449562703268
1708436917.0264633,-2.1440091133117676,-1.3336953234723588,-2.5247283617602747,6.114168751030721,1.013627529144287,-2.7152915636645716
1708436917.0284731,-2.1439034938812256,-1.3336659532836457,-2.5247493425952356,6.114109146385946,1.0136387348175049,-2.7142210642444056
1708436917.0305192,-2.1439571380615234,-1.33372354627166,-2.524747673665182,6.114098179131307,1.0136793851852417,-2.713043753300802
1708436917.0324714,-2.1439247131347656,-1.333714799290039,-2.524734083806173,6.114025103836813,1.013728380203247,-2.7119672934161585
1708436917.0344653,-2.1439294815063477,-1.3336778295091172,-2.5247839132892054,6.113985049515524,1.0137678384780884,-2.7108524481402796
1708436917.03647,-2.1438727378845215,-1.3337235313704987,-2.5247839132892054,6.113920676499166,1.01377534866333,-2.7096634546863
1708436917.0384655,-2.1437954902648926,-1.3336822253516694,-2.5248332659350794,6.1138696549232385,1.0137991905212402,-2.7085638681994837
1708436917.0404644,-2.143840789794922,-1.3336865913918992,-2.5248196760760706,6.113808500557699,1.0138639211654663,-2.707477394734518
1708436917.042464,-2.143773078918457,-1.3336712580970307,-2.5248315970050257,6.113802301674642,1.0138837099075317,-2.7064030806170862
1708436917.0444622,-2.143768787384033,-1.333670289521553,-2.524855677281515,6.113785731583395,1.0138837099075317,-2.705292526875631
1708436917.0464716,-2.143801689147949,-1.3336536598256608,-2.524867836629049,6.113767850189962,1.013952374458313,-2.7042086760150355
1708436917.0484633,-2.143765449523926,-1.3337116253427048,-2.524867836629049,6.113695728569784,1.013983964920044,-2.7031596342669886
1708436917.050464,-2.143754243850708,-1.3336790365031739,-2.52491265932192,6.113602030068197,1.0140037536621094,-2.702014986668722
1708436917.0524583,-2.1437106132507324,-1.3336953234723588,-2.5249322096454065,6.1135750887687585,1.014032244682312,-2.700897757207052
1708436917.0544856,-2.1436729431152344,-1.333674670462944,-2.524930779133932,6.113481271057882,1.0140681266784668,-2.699761215840475
1708436917.0565066,-2.143698215484619,-1.33372354627166,-2.524975601826803,6.113442170410909,1.0141088962554932,-2.6986382643329065
1708436917.0584629,-2.143629550933838,-1.3337104332498093,-2.5250328222857874,6.113419639855184,1.0141491889953613,-2.6975234190570276
1708436917.060469,-2.143571615219116,-1.3336615425399323,-2.5250282923327845,6.113362896233358,1.014159917831421,-2.69642144838442
1708436917.0624878,-2.143601894378662,-1.3336922538331528,-2.5250447432147425,6.11335979679183,1.0141961574554443,-2.69523531595339
1708436917.0645022,-2.1435325145721436,-1.333686576490738,-2.525059525166647,6.113283502846517,1.014224648475647,-2.6941824595080774
1708436917.066487,-2.1435210704803467,-1.33369533837352,-2.525034014378683,6.1132476208503626,1.0142728090286255,-2.693080250416891
1708436917.0684972,-2.143542766571045,-1.3336668771556397,-2.525097195302145,6.113183724671163,1.014304518699646,-2.6920161882983606
1708436917.0704687,-2.143490791320801,-1.3336373728564759,-2.525116745625631,6.113156425743856,1.014319896697998,-2.6908772627459925
1708436917.0724754,-2.1434953212738037,-1.3336746555617829,-2.5251646677600306,6.113096821099081,1.0144013166427612,-2.6897342840777796
1708436917.0745277,-2.14341402053833,-1.3336580407670517,-2.5251196066485804,6.113053309708395,1.0143883228302002,-2.6885960737811487
1708436917.0765069,-2.1433982849121094,-1.3336790365031739,-2.52518874803652,6.112980592041769,1.014404058456421,-2.687442127858297
1708436917.0784898,-2.14336895942688,-1.3336746555617829,-2.525163237248556,6.112962114601888,1.014447569847107,-2.6863186995135706
1708436917.0804734,-2.143350601196289,-1.3336790365031739,-2.525208059941427,6.112909781723776,1.0144890546798706,-2.685171906148092
1708436917.0825067,-2.1433749198913574,-1.33369533837352,-2.525229040776388,6.112787711411276,1.014602780342102,-2.6839945952044886
1708436917.0844586,-2.1433229446411133,-1.3336624217084427,-2.5252185503589075,6.1127768633659265,1.0145395994186401,-2.6829007307635706
1708436917.086501,-2.1432578563690186,-1.3336536598256608,-2.5252516905414026,6.112705457001486,1.014621376991272,-2.6817787329303187
1708436917.088454,-2.143230438232422,-1.3336668771556397,-2.5252965132342737,6.112652647286215,1.014664888381958,-2.6806216875659388
1708436917.0904746,-2.1432363986968994,-1.333690957432129,-2.525341812764303,6.112617361336508,1.0146636962890625,-2.6795297304736536
1708436917.092463,-2.1431660652160645,-1.3336329919150849,-2.525295082722799,6.112570273667135,1.0147576332092285,-2.678376022969381
1708436917.0944815,-2.143150806427002,-1.333704174762108,-2.52531606355776,6.112472402840414,1.0147895812988281,-2.67721134821047
1708436917.096461,-2.1431102752685547,-1.3336536598256608,-2.5253639856921595,6.112458455353536,1.0148299932479858,-2.6760838667498987
1708436917.098493,-2.1430583000183105,-1.3336712580970307,-2.5253971258746546,6.112393367081442,1.014845371246338,-2.675005022679464
1708436917.1004694,-2.1430511474609375,-1.3336223673871537,-2.525391165410177,6.112370359688558,1.0149145126342773,-2.6738413015948694
1708436917.1024876,-2.1430234909057617,-1.3336254519275208,-2.525440518056051,6.112266051560201,1.014941930770874,-2.6727924982654017
1708436917.104472,-2.1429953575134277,-1.3336549562266846,-2.525452438985006,6.1122299311454675,1.0149493217468262,-2.6717332045184534
1708436917.1064887,-2.1429600715637207,-1.3336756241372605,-2.5254223982440394,6.112244474678793,1.0149986743927002,-2.6705766359912317
1708436917.1084716,-2.1429150104522705,-1.3336834919503708,-2.5254557768451136,6.112176048546591,1.0150583982467651,-2.66956073442568
1708436917.1104686,-2.142911434173584,-1.3336474162391205,-2.525541130696432,6.112140047341146,1.015045404434204,-2.6683831850634974
1708436917.1124716,-2.1427977085113525,-1.3336549562266846,-2.5255289713488978,6.112101304322042,1.0151097774505615,-2.667280975972311
1708436917.11447,-2.1428725719451904,-1.3336834919503708,-2.525527540837423,6.112027871399679,1.01515793800354,-2.666135374699728
1708436917.116474,-2.1427993774414062,-1.3336505752852936,-2.52552301088442,6.111968266754904,1.0151820182800293,-2.665004555379049
1708436917.11847,-2.1427500247955322,-1.3336179864457627,-2.5256086031543177,6.11194001415328,1.0152148008346558,-2.6639140287982386
1708436917.1204767,-2.142751693725586,-1.3336518716863175,-2.5255680719958704,6.111918198853292,1.0152662992477417,-2.6628175417529505
1708436917.1224608,-2.1427125930786133,-1.3336844605258484,-2.5255873839007776,6.111739742546835,1.015331745147705,-2.661701265965597
1708436917.1244628,-2.1426520347595215,-1.3336189550212403,-2.525677506123678,6.111748683243551,1.0153462886810303,-2.6605873743640345
1708436917.1264787,-2.14267635345459,-1.3336681735566636,-2.5256593863116663,6.111721622734823,1.015407681465149,-2.659503761922018
1708436917.128508,-2.142612934112549,-1.3336800050786515,-2.5257092157946985,6.111669051438131,1.0154227018356323,-2.6583779493915003
1708436917.1305432,-2.1425881385803223,-1.3336057376912613,-2.5256972948657435,6.111548292427816,1.0155079364776611,-2.657224957142965
1708436917.1325712,-2.1425230503082275,-1.3336593371680756,-2.5257166067706507,6.111500727921285,1.0155400037765503,-2.656152073537008
1708436917.13452,-2.1424994468688965,-1.3336756241372605,-2.525714937840597,6.111408221512594,1.0155751705169678,-2.654983107243673
1708436917.1365178,-2.142495632171631,-1.3336267334273835,-2.5257509390460413,6.111441719322958,1.015579104423523,-2.653848711644308
1708436917.1384711,-2.1424479484558105,-1.3336223673871537,-2.5258095900165003,6.11137472370223,1.015622615814209,-2.652719322835104
1708436917.1404614,-2.1424407958984375,-1.333623246555664,-2.5258124510394495,6.1113518355186365,1.0156869888305664,-2.6516080538379114
1708436917.1424735,-2.1423845291137695,-1.3336057376912613,-2.5258124510394495,6.11126588562087,1.0157074928283691,-2.6503804365741175
1708436917.1444685,-2.1424131393432617,-1.3336430352977295,-2.525865141545431,6.1112475273902795,1.0157636404037476,-2.649273697529928
1708436917.1464617,-2.1423795223236084,-1.3336189550212403,-2.525872532521383,6.111248719483175,1.0157830715179443,-2.6481016317950647
1708436917.1485078,-2.142332077026367,-1.3336398315480729,-2.5258992354022425,6.111130821495809,1.0158030986785889,-2.646972958241598
1708436917.1504679,-2.1422924995422363,-1.333611638551094,-2.5258901754962366,6.1110713360603235,1.0158929824829102,-2.6458430925952356
1708436917.152508,-2.1422529220581055,-1.3335997474244614,-2.525940004979269,6.11097406128005,1.0159196853637695,-2.6447113196002405
1708436917.1544898,-2.1422786712646484,-1.3335712415030976,-2.52592641512026,6.110902654915609,1.015906810760498,-2.643538300191061
1708436917.156476,-2.142249584197998,-1.3335834455541153,-2.525975767766134,6.110915887146749,1.015987753868103,-2.642491881047384
