Eg3-git/Classifiers/Data Collection/u5/u5cir1_ur3e_joint_states.csv
time,elbow_joint,shoulder_lift_joint,shoulder_pan_joint,wrist_1_joint,wrist_2_joint,wrist_3_joint
1708437203.5529563,-1.1056876182556152,-1.681728025475973,-2.5256550947772425,2.2809132772633056,-1.0154722372638147,0.1573745459318161
1708437203.5550013,-1.1056876182556152,-1.681692739526266,-2.5256593863116663,2.280855341548584,-1.0154836813556116,0.15736261010169983
1708437203.557033,-1.1056430339813232,-1.68168367962026,-2.5256593863116663,2.280888004893921,-1.0154922644244593,0.1573641300201416
1708437203.5589547,-1.1056681871414185,-1.681765695611471,-2.5256429354297083,2.280908985728882,-1.0155285040484827,0.15732507407665253
1708437203.5609086,-1.105663776397705,-1.6817132435240687,-2.525675598775045,2.280904455775879,-1.0154922644244593,0.15736261010169983
1708437203.562957,-1.1056593656539917,-1.6817251644530238,-2.5256102720843714,2.28093330442395,-1.015496079121725,0.15736261010169983
1708437203.5649328,-1.1056920289993286,-1.681758543054098,-2.5256341139422815,2.280843420619629,-1.0154836813556116,0.15736716985702515
1708437203.5669665,-1.1057051420211792,-1.681699892083639,-2.525701347981588,2.2808760839649658,-1.0155370871173304,0.15728941559791565
1708437203.5689137,-1.105712652206421,-1.6817699871458949,-2.525635544453756,2.280912323588989,-1.015463654194967,0.15736263990402222
1708437203.5709221,-1.1056920289993286,-1.681666990319723,-2.5256312529193323,2.2809347349354248,-1.0154879728900355,0.15737609565258026
1708437203.5729244,-1.105712652206421,-1.681687971154684,-2.5256593863116663,2.280942364329956,-1.0154836813556116,0.15729832649230957
1708437203.5749028,-1.10565185546875,-1.6817208729186,-2.5256474653827112,2.280937834376953,-1.0155046621905726,0.15738509595394135
1708437203.5769145,-1.1056832075119019,-1.681760927239889,-2.52566367784609,2.280916853541992,-1.0154879728900355,0.15731924772262573
1708437203.5789251,-1.1056668758392334,-1.6817208729186,-2.5256925264941614,2.280937834376953,-1.0155046621905726,0.1573687195777893
1708437203.5809138,-1.1056712865829468,-1.6817542515196742,-2.5256550947772425,2.280942364329956,-1.0154879728900355,0.1573057919740677
1708437203.5829747,-1.1056474447250366,-1.681687971154684,-2.5256639162646692,2.280895395869873,-1.0155003706561487,0.15726232528686523
1708437203.5849106,-1.1057008504867554,-1.681765695611471,-2.525597159062521,2.2809502321430664,-1.0154879728900355,0.15724149346351624
1708437203.5869176,-1.1057007312774658,-1.681728025475973,-2.5256474653827112,2.280904455775879,-1.0154593626605433,0.15725494921207428
1708437203.5889218,-1.1056995391845703,-1.681732793847555,-2.5256713072406214,2.280930443401001,-1.0155413786517542,0.15725040435791016
1708437203.5909808,-1.1056712865829468,-1.681758543054098,-2.5256295839892786,2.280857964152954,-1.0154765287982386,0.15725493431091309
1708437203.5930047,-1.1056712865829468,-1.68168367962026,-2.5256474653827112,2.280921383494995,-1.0154836813556116,0.15723371505737305
1708437203.5949435,-1.1056430339813232,-1.6817251644530238,-2.5256429354297083,2.2809013563343505,-1.0155046621905726,0.15718455612659454
1708437203.5969355,-1.1056801080703735,-1.6817299328246058,-2.525651995335714,2.280928774470947,-1.0155003706561487,0.1572561264038086
1708437203.59898,-1.1056876182556152,-1.6817208729186,-2.5256505648242396,2.280959292049072,-1.0155165831195276,0.15728767216205597
1708437203.6009734,-1.1056832075119019,-1.6817790470519007,-2.5256639162646692,2.2809828954884033,-1.0155208746539515,0.1572054922580719
1708437203.6029522,-1.1056681871414185,-1.6817790470519007,-2.525660578404562,2.28093330442395,-1.0154836813556116,0.15725938975811005
1708437203.6049814,-1.1056876182556152,-1.68168367962026,-2.525675598775045,2.280895395869873,-1.0155370871173304,0.15723076462745667
1708437203.6069505,-1.1056995391845703,-1.6817251644530238,-2.5256593863116663,2.280888004893921,-1.0155242125140589,0.1572263240814209
1708437203.608936,-1.1057039499282837,-1.681732793847555,-2.5256429354297083,2.280937834376953,-1.0154874960528772,0.15720093250274658
1708437203.6109428,-1.1056756973266602,-1.6817251644530238,-2.5256593863116663,2.280946894282959,-1.0155165831195276,0.15719358623027802
1708437203.6129332,-1.1056950092315674,-1.6817451916136683,-2.525651756917135,2.2809757429310302,-1.0155003706561487,0.15721732378005981
1708437203.614933,-1.1056832075119019,-1.6816956005492152,-2.525668207799093,2.2808760839649658,-1.0155285040484827,0.15721732378005981
1708437203.6169345,-1.1056876182556152,-1.6816803417601527,-2.525623623524801,2.2809502321430664,-1.0155089537249964,0.15723523497581482
1708437203.618933,-1.1057039499282837,-1.681732793847555,-2.5256224314319056,2.280908985728882,-1.0155122915851038,0.1571757197380066
1708437203.6209764,-1.105712652206421,-1.6817370853819789,-2.5256267229663294,2.280904455775879,-1.01550800005068,0.15720100700855255
1708437203.6229348,-1.105684518814087,-1.6818005047240199,-2.5256312529193323,2.2809457021900634,-1.0155122915851038,0.15720994770526886
1708437203.6249197,-1.1056430339813232,-1.6817165813841761,-2.5256667772876185,2.280928774470947,-1.0155819098102015,0.1572055071592331
1708437203.626924,-1.1056876182556152,-1.681732793847555,-2.5255895296679896,2.2809197145649414,-1.015496079121725,0.15718579292297363
1708437203.6289558,-1.1057039499282837,-1.681699892083639,-2.5256341139422815,2.2809712129780273,-1.0155003706561487,0.15723970532417297
1708437203.6309137,-1.105728268623352,-1.681704660455221,-2.5256713072406214,2.280895395869873,-1.015496079121725,0.15724270045757294
1708437203.6329372,-1.1056623458862305,-1.681687971154684,-2.525672737752096,2.2809666830250244,-1.015496079121725,0.15719357132911682
1708437203.6349351,-1.105657935142517,-1.681687971154684,-2.525675598775045,2.2809242445179443,-1.0155046621905726,0.1572188436985016
1708437203.636927,-1.1057039499282837,-1.6817299328246058,-2.5256429354297083,2.280878944987915,-1.01550800005068,0.15725165605545044
1708437203.638938,-1.1057372093200684,-1.6817132435240687,-2.5256593863116663,2.2809323507496337,-1.0155046621905726,0.15725617110729218
1708437203.6409552,-1.1057119369506836,-1.681699892083639,-2.5256837050067347,2.2809831339069824,-1.015496079121725,0.15721440315246582
1708437203.6429152,-1.1056623458862305,-1.6817089519896449,-2.5256624857531946,2.280944271678589,-1.01550800005068,0.15720996260643005
1708437203.6449494,-1.1057214736938477,-1.681692739526266,-2.5256593863116663,2.2809197145649414,-1.0155003706561487,0.15719358623027802
1708437203.6469138,-1.1057252883911133,-1.681704660455221,-2.525668207799093,2.2809695440479736,-1.0155742804156702,0.15723979473114014
1708437203.6489437,-1.1057164669036865,-1.6817790470519007,-2.5256474653827112,2.280944271678589,-1.0155242125140589,0.15720248222351074
1708437203.6509235,-1.1056549549102783,-1.6816970310606898,-2.525680128728048,2.280984325999878,-1.0155165831195276,0.15717685222625732
1708437203.6529303,-1.1056623458862305,-1.6817165813841761,-2.525680128728048,2.280991955394409,-1.0155242125140589,0.15722337365150452
1708437203.6549408,-1.105646014213562,-1.6817299328246058,-2.5256639162646692,2.281024618739746,-1.015491787587301,0.15719802677631378
1708437203.6569328,-1.1057039499282837,-1.681711813012594,-2.525668207799093,2.281012697810791,-1.0154793898211878,0.15720702707767487
1708437203.6589425,-1.1056668758392334,-1.681666990319723,-2.5256639162646692,2.280980034465454,-1.0155037085162562,0.15717841684818268
1708437203.6609316,-1.1057007312774658,-1.681704660455221,-2.5256429354297083,2.281033440227173,-1.0155003706561487,0.15720248222351074
1708437203.6629307,-1.1056549549102783,-1.6817299328246058,-2.525672737752096,2.281008167857788,-1.0155447165118616,0.1571783870458603
1708437203.6649656,-1.1057491302490234,-1.6817461452879847,-2.525656286870138,2.2810370165058593,-1.0155285040484827,0.15719032287597656
1708437203.6669269,-1.1057372093200684,-1.681704660455221,-2.525668207799093,2.2810415464588623,-1.0155490080462855,0.15711288154125214
1708437203.6689427,-1.105678677558899,-1.6817089519896449,-2.525675598775045,2.281050606364868,-1.0155566374408167,0.1571679562330246
1708437203.6709156,-1.1056623458862305,-1.6817017994322718,-2.5256593863116663,2.2810324865528564,-1.0155156294452112,0.15712176263332367
1708437203.6729157,-1.1057075262069702,-1.681728025475973,-2.5256267229663294,2.281020088786743,-1.0155122915851038,0.1571020781993866
1708437203.674916,-1.105708360671997,-1.681671758691305,-2.5256505648242396,2.281008167857788,-1.0155165831195276,0.1570783406496048
1708437203.6769216,-1.1057372093200684,-1.6817299328246058,-2.5256639162646692,2.281024618739746,-1.01550800005068,0.15712334215641022
1708437203.6789386,-1.1057119369506836,-1.6816970310606898,-2.525668207799093,2.281067057246826,-1.0155037085162562,0.1570991426706314
1708437203.68092,-1.1057698726654053,-1.6817509136595667,-2.525684658681051,2.280999107951782,-1.015496079121725,0.15711109340190887
1708437203.6829307,-1.1057119369506836,-1.6816956005492152,-2.5256312529193323,2.2809783655354003,-1.015491787587301,0.15710663795471191
1708437203.6849165,-1.1057238578796387,-1.68168367962026,-2.525680128728048,2.2810415464588623,-1.01550800005068,0.15716047585010529
1708437203.6869073,-1.1057164669036865,-1.681671758691305,-2.5256550947772425,2.2810324865528564,-1.0155728499041956,0.1570664346218109
1708437203.6889303,-1.1057238578796387,-1.681666990319723,-2.525675598775045,2.2809738355823974,-1.0155242125140589,0.15710210800170898
1708437203.6909385,-1.1057031154632568,-1.6817342243590296,-2.5256593863116663,2.281059427852295,-1.0155490080462855,0.15707388520240784
1708437203.6929293,-1.105728268623352,-1.6817017994322718,-2.5256429354297083,2.281020088786743,-1.0155037085162562,0.15709473192691803
1708437203.6950235,-1.1057119369506836,-1.6817251644530238,-2.5256639162646692,2.280980034465454,-1.015536133443014,0.15711554884910583
1708437203.6969407,-1.1057164669036865,-1.6817299328246058,-2.5257087389575403,2.280980034465454,-1.0155566374408167,0.15702888369560242
1708437203.6989665,-1.1056950092315674,-1.6817223034300746,-2.5256386438952845,2.281024618739746,-1.0154832045184534,0.157120019197464
1708437203.7009628,-1.1057119369506836,-1.6816970310606898,-2.5256474653827112,2.2810489374348144,-1.0155242125140589,0.15710359811782837
1708437203.702954,-1.1057119369506836,-1.6816636524596156,-2.52566367784609,2.281024618739746,-1.01550800005068,0.1570081114768982
1708437203.7049305,-1.1056832075119019,-1.681711813012594,-2.5256593863116663,2.281012697810791,-1.0155037085162562,0.15716947615146637
1708437203.7069433,-1.1057119369506836,-1.6817594967284144,-2.525675598775045,2.281020088786743,-1.01550800005068,0.1570664495229721
1708437203.7090292,-1.1057075262069702,-1.681666990319723,-2.5256298224078577,2.2810110288807373,-1.0155437628375452,0.15708723664283752
1708437203.7109246,-1.1057164669036865,-1.6817299328246058,-2.5256550947772425,2.2810370165058593,-1.0155285040484827,0.15707086026668549
1708437203.7129757,-1.1057164669036865,-1.6817251644530238,-2.5256267229663294,2.2810415464588623,-1.015491787587301,0.15706641972064972
1708437203.714946,-1.1057119369506836,-1.681678911248678,-2.525651756917135,2.281008167857788,-1.015475098286764,0.15708281099796295
1708437203.7169833,-1.1056920289993286,-1.6817208729186,-2.5256105105029505,2.281050606364868,-1.0155242125140589,0.1570872813463211
1708437203.7189596,-1.1057119369506836,-1.6817017994322718,-2.525651756917135,2.280963583583496,-1.0154874960528772,0.15707984566688538
1708437203.7209227,-1.105698823928833,-1.6816636524596156,-2.5256925264941614,2.280987187022827,-1.0155404249774378,0.15706199407577515
1708437203.7229464,-1.1057357788085938,-1.6816522083678187,-2.5256386438952845,2.2810370165058593,-1.015491787587301,0.15706197917461395
1708437203.7249515,-1.1057252883911133,-1.681692739526266,-2.5256224314319056,2.280991955394409,-1.0154836813556116,0.1570574790239334
1708437203.726933,-1.105732798576355,-1.681671758691305,-2.5256593863116663,2.281012697810791,-1.015491787587301,0.15707089006900787
1708437203.7289548,-1.1057459115982056,-1.6816851101317347,-2.525675598775045,2.28107134878125,-1.0155122915851038,0.15704971551895142
1708437203.7309232,-1.105715036392212,-1.6816593609251917,-2.5256593863116663,2.281046076411865,-1.015496079121725,0.1570708453655243
1708437203.7329488,-1.1057401895523071,-1.6816803417601527,-2.5256474653827112,2.2810444074818115,-1.0155728499041956,0.15705420076847076
1708437203.7349286,-1.1056950092315674,-1.6816941700377406,-2.5256474653827112,2.281008167857788,-1.0155566374408167,0.15703332424163818
1708437203.7369325,-1.1057238578796387,-1.6816941700377406,-2.525680128728048,2.2810534673878173,-1.0155523459063929,0.15711109340190887
1708437203.7389767,-1.1057119369506836,-1.681692739526266,-2.5256312529193323,2.2809828954884033,-1.0155242125140589,0.15702137351036072
1708437203.7409852,-1.1057357788085938,-1.6816851101317347,-2.5256550947772425,2.281029148692749,-1.0155242125140589,0.1570783257484436
1708437203.7429466,-1.1057119369506836,-1.6817060909666957,-2.5256593863116663,2.281012697810791,-1.015519920979635,0.15704968571662903
1708437203.7449293,-1.1057119369506836,-1.6816727123656214,-2.5256925264941614,2.2810444074818115,-1.0155523459063929,0.15707984566688538
1708437203.7469232,-1.1057164669036865,-1.6817313633360804,-2.525635544453756,2.28101555883374,-1.015548054371969,0.1570289134979248
1708437203.7489476,-1.1057401895523071,-1.6816636524596156,-2.525684420262472,2.281003637904785,-1.0155404249774378,0.1570468246936798
1708437203.7509317,-1.1057031154632568,-1.681626935998434,-2.525651756917135,2.2810489374348144,-1.015548054371969,0.15708273649215698
1708437203.752936,-1.1057119369506836,-1.6816479168333949,-2.525656286870138,2.281012697810791,-1.0155437628375452,0.15702593326568604
1708437203.754941,-1.1057075262069702,-1.6816851101317347,-2.5256312529193323,2.281012697810791,-1.0155318419085901,0.1570214480161667
1708437203.7569609,-1.105708360671997,-1.6816803417601527,-2.5256341139422815,2.281055136317871,-1.0155437628375452,0.15703043341636658
1708437203.758941,-1.1056742668151855,-1.6816374264159144,-2.5256639162646692,2.281029148692749,-1.015519920979635,0.15707986056804657
1708437203.7609382,-1.1057357788085938,-1.6816250286498011,-2.5256224314319056,2.281033440227173,-1.0155804792987269,0.15707087516784668
1708437203.7629154,-1.1057491302490234,-1.681596418420309,-2.525668207799093,2.2810444074818115,-1.0155318419085901,0.1570754051208496
1708437203.7649524,-1.105738878250122,-1.6815186939635218,-2.5256639162646692,2.281017227763794,-1.0155718962298792,0.15707539021968842
1708437203.7669406,-1.1057772636413574,-1.6816116772093714,-2.5256014505969446,2.2809664446064453,-1.0155599753009241,0.15703780949115753
1708437203.768928,-1.1057476997375488,-1.6814948521056117,-2.5257132689105433,2.281024618739746,-1.0155804792987269,0.1570664346218109
1708437203.7709157,-1.1057476997375488,-1.6815453968443812,-2.5256639162646692,2.2810215192982177,-1.0155394713031214,0.15704679489135742
1708437203.7729154,-1.1057684421539307,-1.6814872227110804,-2.5256639162646692,2.280982657069824,-1.0155676046954554,0.15700961649417877
1708437203.7749202,-1.105728268623352,-1.6814753017821253,-2.5256593863116663,2.281008167857788,-1.0155513922320765,0.15704235434532166
1708437203.7769291,-1.1057194471359253,-1.681514402429098,-2.5257132689105433,2.2810579973408203,-1.015597168599264,0.15704524517059326
1708437203.7789557,-1.105690598487854,-1.6815129719176234,-2.525680128728048,2.2810534673878173,-1.015548054371969,0.15709622204303741
1708437203.7809253,-1.1056861877441406,-1.6815277538695277,-2.5256837050067347,2.2810415464588623,-1.0155156294452112,0.15703782439231873
1708437203.7829266,-1.105728268623352,-1.6814772091307582,-2.525679413472311,2.2809948164173584,-1.0155523459063929,0.15704679489135742
1708437203.7849157,-1.1056876182556152,-1.6814524135985316,-2.5256593863116663,2.2810579973408203,-1.015496079121725,0.15707087516784668
1708437203.786949,-1.1057164669036865,-1.681460519830221,-2.5256505648242396,2.280947132701538,-1.01550800005068,0.15708279609680176
1708437203.7889354,-1.1057401895523071,-1.6814772091307582,-2.5256593863116663,2.28102891027417,-1.0155404249774378,0.15704679489135742
1708437203.790947,-1.105728268623352,-1.681469579736227,-2.5257208983050745,2.2810215192982177,-1.0155327955829065,0.15707087516784668
1708437203.7929418,-1.1056950092315674,-1.681493421594137,-2.5257132689105433,2.2810847002216796,-1.0155003706561487,0.15703780949115753
1708437203.794957,-1.1056832075119019,-1.681439062158102,-2.5256386438952845,2.281008167857788,-1.015496079121725,0.15707986056804657
1708437203.7969866,-1.105657935142517,-1.681481500665182,-2.5256925264941614,2.2810653883167724,-1.0155437628375452,0.15700063109397888
1708437203.7989573,-1.105728268623352,-1.681432386437887,-2.525675598775045,2.2810370165058593,-1.0155804792987269,0.1570754051208496
1708437203.8009331,-1.1057608127593994,-1.681443830529684,-2.5256882349597376,2.2810534673878173,-1.015536133443014,0.15707986056804657
1708437203.8029373,-1.1057119369506836,-1.6814614735045375,-2.5256267229663294,2.281050606364868,-1.0155242125140589,0.15707087516784668
1708437203.804962,-1.105728268623352,-1.6814524135985316,-2.5256474653827112,2.2809945779987792,-1.0155718962298792,0.15704235434532166
1708437203.8069432,-1.1057238578796387,-1.6815206013121546,-2.525675598775045,2.281033440227173,-1.0155599753009241,0.15705418586730957
1708437203.8089592,-1.1057119369506836,-1.681530614892477,-2.5256639162646692,2.281046076411865,-1.0155437628375452,0.15706761181354523
1708437203.810912,-1.1057608127593994,-1.681497713128561,-2.525672737752096,2.28102891027417,-1.015564266835348,0.15708723664283752
1708437203.8129346,-1.1057164669036865,-1.6814857921996058,-2.5256505648242396,2.2810579973408203,-1.015548054371969,0.15705125033855438
1708437203.8149061,-1.1057031154632568,-1.6815625629820765,-2.5256593863116663,2.281059427852295,-1.0155437628375452,0.15704679489135742
1708437203.8169367,-1.1057521104812622,-1.6814843616881312,-2.525679413472311,2.280980034465454,-1.0155804792987269,0.15707659721374512
1708437203.8189237,-1.1057401895523071,-1.6815253696837367,-2.525675598775045,2.281024618739746,-1.0155804792987269,0.15701405704021454
1708437203.8209066,-1.1057476997375488,-1.68150057415151,-2.5256429354297083,2.281050606364868,-1.0155566374408167,0.1570887565612793
1708437203.8229258,-1.1057313680648804,-1.6815387211241664,-2.5256386438952845,2.2810425001331787,-1.0155351797686976,0.15703780949115753
1708437203.824929,-1.1057194471359253,-1.681509634057516,-2.5256639162646692,2.281029148692749,-1.0155804792987269,0.15706762671470642
1708437203.8269658,-1.1057476997375488,-1.6815296612181605,-2.5256667772876185,2.2810489374348144,-1.015548054371969,0.1570497304201126
1708437203.82894,-1.105726957321167,-1.6815082035460414,-2.525675598775045,2.281033440227173,-1.015576187764303,0.1570754200220108
1708437203.8308966,-1.1057401895523071,-1.681526323358053,-2.5256970564471644,2.2810415464588623,-1.0155633131610315,0.15708103775978088
1708437203.8329353,-1.1057432889938354,-1.6814891300597132,-2.5256550947772425,2.2809948164173584,-1.0155718962298792,0.1570512354373932
1708437203.8349135,-1.1057031154632568,-1.6814633808531703,-2.525668207799093,2.281033440227173,-1.0155800024615687,0.15707986056804657
1708437203.8370936,-1.1057357788085938,-1.6815172634520472,-2.5256386438952845,2.280996246928833,-1.0156047979937952,0.15705418586730957
1708437203.838949,-1.1057727336883545,-1.6815053425230921,-2.5256713072406214,2.2809902864643554,-1.0155718962298792,0.15704233944416046
1708437203.8409815,-1.105732798576355,-1.6815129719176234,-2.5256579558001917,2.281017227763794,-1.0155633131610315,0.15703780949115753
1708437203.8429472,-1.105715036392212,-1.6814891300597132,-2.5256429354297083,2.281055136317871,-1.015576187764303,0.15712155401706696
1708437203.844977,-1.1057208776474,-1.6815220318236292,-2.5256386438952845,2.281003637904785,-1.0155394713031214,0.15708430111408234
1708437203.8469741,-1.1057031154632568,-1.6815172634520472,-2.525680128728048,2.28107134878125,-1.015564266835348,0.15708725154399872
1708437203.8489802,-1.1057075262069702,-1.6815396747984828,-2.5256429354297083,2.2810370165058593,-1.0156210104571741,0.15700507164001465
1708437203.8509386,-1.1057194471359253,-1.6815172634520472,-2.5256474653827112,2.2810370165058593,-1.015625301991598,0.15706641972064972
1708437203.8529701,-1.1057119369506836,-1.6814724407591761,-2.5256593863116663,2.281008167857788,-1.0155885855304163,0.15704233944416046
1708437203.8549404,-1.1057039499282837,-1.681493421594137,-2.5256593863116663,2.281012697810791,-1.0156047979937952,0.15704679489135742
1708437203.8569853,-1.1057372093200684,-1.681493421594137,-2.5256550947772425,2.281029148692749,-1.0156167189227503,0.1570587158203125
1708437203.8589556,-1.1057535409927368,-1.68150057415151,-2.5256593863116663,2.281046076411865,-1.0156047979937952,0.15703487396240234
1708437203.8610244,-1.1057119369506836,-1.681526323358053,-2.525684420262472,2.281029148692749,-1.0156210104571741,0.1570214480161667
1708437203.8629887,-1.1056950092315674,-1.6815477810301722,-2.5256593863116663,2.281008167857788,-1.0156210104571741,0.15698988735675812
1708437203.8649507,-1.105678677558899,-1.6815477810301722,-2.5256882349597376,2.2810579973408203,-1.0155633131610315,0.1570587158203125
1708437203.8670154,-1.1056995391845703,-1.6815172634520472,-2.5256505648242396,2.280996246928833,-1.0156124273883265,0.15704385936260223
1708437203.8689535,-1.1057238578796387,-1.681526323358053,-2.5256505648242396,2.280980034465454,-1.0155804792987269,0.15706641972064972
1708437203.870922,-1.1057446002960205,-1.6815253696837367,-2.5256550947772425,2.2810379701801757,-1.0156005064593714,0.1570512354373932
1708437203.872953,-1.1057446002960205,-1.6815339527525843,-2.5257044474231165,2.281066818828247,-1.015564266835348,0.1570512354373932
1708437203.874916,-1.1057608127593994,-1.6815053425230921,-2.5257044474231165,2.281029148692749,-1.015564266835348,0.15710964798927307
1708437203.8769517,-1.1057401895523071,-1.6815668545165003,-2.5256505648242396,2.280999107951782,-1.0155275503741663,0.15703487396240234
1708437203.878942,-1.105715036392212,-1.6815387211241664,-2.5256667772876185,2.281008167857788,-1.015576187764303,0.1570274829864502
1708437203.8809335,-1.1056950092315674,-1.6815501652159632,-2.5257194677936,2.281000776881836,-1.0156047979937952,0.15705569088459015
1708437203.8829806,-1.1057357788085938,-1.6815864048399867,-2.525653664265768,2.2810355859943847,-1.0155633131610315,0.1570512354373932
1708437203.8849828,-1.1057476997375488,-1.6816369495787562,-2.525680128728048,2.281062527293823,-1.0155556837665003,0.1570512354373932
1708437203.886985,-1.1057357788085938,-1.6815864048399867,-2.5256667772876185,2.281008167857788,-1.0156047979937952,0.15701079368591309
1708437203.8889558,-1.105698823928833,-1.6815206013121546,-2.5256925264941614,2.281008167857788,-1.0156210104571741,0.1570754051208496
1708437203.89097,-1.1056861877441406,-1.6815577946104945,-2.5256624857531946,2.28101555883374,-1.0155919233905237,0.1570393294095993
1708437203.8929915,-1.1057194471359253,-1.6815535030760707,-2.5257120768176478,2.28107134878125,-1.0156005064593714,0.15704233944416046
1708437203.8949404,-1.1057075262069702,-1.6815759144225062,-2.5256550947772425,2.281012697810791,-1.0156658331500452,0.15699291229248047
1708437203.896986,-1.1057401895523071,-1.6814948521056117,-2.5256460348712366,2.2810425001331787,-1.0156038443194788,0.1570754051208496
1708437203.898935,-1.105715036392212,-1.6815453968443812,-2.525680128728048,2.281017227763794,-1.0156157652484339,0.15706315636634827
1708437203.900912,-1.1057401895523071,-1.6815387211241664,-2.52572209039797,2.280996246928833,-1.0156405607806605,0.15706641972064972
1708437203.9029121,-1.105732798576355,-1.6815220318236292,-2.5256429354297083,2.281024618739746,-1.0156157652484339,0.15709175169467926
1708437203.9049513,-1.1057031154632568,-1.6815220318236292,-2.5256837050067347,2.2810260492512207,-1.0156319777118128,0.15705417096614838
1708437203.9069407,-1.105728268623352,-1.6815296612181605,-2.5256593863116663,2.281029148692749,-1.0156319777118128,0.15711559355258942
1708437203.9089475,-1.1056668758392334,-1.6815053425230921,-2.525705877934591,2.280996246928833,-1.0156481901751917,0.1570708304643631
1708437203.910909,-1.105728268623352,-1.6815339527525843,-2.5256548563586634,2.281012697810791,-1.015627686177389,0.15713976323604584
1708437203.912912,-1.105732798576355,-1.6814843616881312,-2.5256713072406214,2.281024618739746,-1.01561147371401,0.15713970363140106
1708437203.9149384,-1.1057446002960205,-1.681554456750387,-2.5256970564471644,2.280996246928833,-1.0156038443194788,0.1571187973022461
1708437203.9169528,-1.1057194471359253,-1.6815668545165003,-2.525680128728048,2.280963583583496,-1.0156310240374964,0.15708871185779572
1708437203.9189365,-1.1057608127593994,-1.6815220318236292,-2.5257297197925013,2.280999107951782,-1.01561147371401,0.15708431601524353
1708437203.9209163,-1.1056623458862305,-1.6815339527525843,-2.5257163683520716,2.280959053630493,-1.0155699888812464,0.15721262991428375
1708437203.9229295,-1.1057252883911133,-1.6815053425230921,-2.5256624857531946,2.281020088786743,-1.0156524817096155,0.157215878367424
1708437203.9249437,-1.105690598487854,-1.6815220318236292,-2.5257163683520716,2.281020088786743,-1.0156233946429651,0.15724723041057587
1708437203.926909,-1.1057119369506836,-1.6814962826170863,-2.5256713072406214,2.281087799663208,-1.0156524817096155,0.15720097720623016
1708437203.9289289,-1.105698823928833,-1.6814753017821253,-2.525707546864645,2.280991955394409,-1.0156157652484339,0.15725040435791016
1708437203.9309225,-1.1057446002960205,-1.6815339527525843,-2.5257194677936,2.281029148692749,-1.0156481901751917,0.15730851888656616
1708437203.9329455,-1.105678677558899,-1.6815296612181605,-2.525735918675558,2.280996246928833,-1.0156515280352991,0.15733559429645538
1708437203.9349396,-1.1057119369506836,-1.6815716228880824,-2.525714937840597,2.2810534673878173,-1.015667740498678,0.15733106434345245
1708437203.9369369,-1.1057238578796387,-1.6815039120116175,-2.52574330965151,2.281062527293823,-1.015679661427633,0.1573745310306549
1708437203.9389167,-1.1057357788085938,-1.6815082035460414,-2.525735918675558,2.2810415464588623,-1.0157139937030237,0.1574031263589859
1708437203.940922,-1.1057491302490234,-1.681589265862936,-2.5257750193225306,2.281024618739746,-1.0156920591937464,0.15750493109226227
1708437203.9429471,-1.1057476997375488,-1.681540151635641,-2.5257707277881067,2.281020088786743,-1.0156710783587855,0.15749000012874603
1708437203.944936,-1.1057357788085938,-1.6814738712706507,-2.5257299582110804,2.2809993463703613,-1.0157244841205042,0.1575048714876175
1708437203.9469383,-1.1057313680648804,-1.6815453968443812,-2.5257540384875696,2.2810110288807373,-1.0156882444964808,0.15759453177452087
1708437203.9489462,-1.1057031154632568,-1.6815368137755335,-2.5257750193225306,2.280984325999878,-1.015667740498678,0.15767234563827515
1708437203.9509146,-1.1057194471359253,-1.6815339527525843,-2.52579909959902,2.280991955394409,-1.0156720320331019,0.15764091908931732
1708437203.9529092,-1.1057521104812622,-1.6815577946104945,-2.5258737246142786,2.2810579973408203,-1.015683952962057,0.15772645175457
1708437203.9549496,-1.1057357788085938,-1.681507249871725,-2.525860373173849,2.281024618739746,-1.015679661427633,0.15781481564044952
1708437203.9569848,-1.1057565212249756,-1.6815954647459925,-2.5258153120623987,2.2810415464588623,-1.0156920591937464,0.15790437161922455
1708437203.9589257,-1.105698823928833,-1.6815906963744105,-2.5258241335498255,2.280991955394409,-1.0156963507281702,0.15793152153491974
1708437203.9609125,-1.1057075262069702,-1.6815206013121546,-2.525827471409933,2.281046076411865,-1.0157082716571253,0.15802402794361115
1708437203.9629352,-1.1057031154632568,-1.6815906963744105,-2.525851551686422,2.280970736140869,-1.0157330671893519,0.15808269381523132
1708437203.964922,-1.1057357788085938,-1.6815864048399867,-2.5258317629443567,2.281020088786743,-1.015667740498678,0.15818001329898834
1708437203.9669647,-1.1056817770004272,-1.6815253696837367,-2.5258353392230433,2.28095452367749,-1.0156591574298304,0.15813542902469635
1708437203.9689357,-1.1057238578796387,-1.6815220318236292,-2.5258262793170374,2.281008167857788,-1.015740696583883,0.15831761062145233
1708437203.970917,-1.105690598487854,-1.6816116772093714,-2.52584416071047,2.281033440227173,-1.0157397429095667,0.15840156376361847
1708437203.9729164,-1.1056995391845703,-1.6815229854979457,-2.52586800256838,2.281046076411865,-1.0157516638385218,0.15846432745456696
1708437203.9749186,-1.1057164669036865,-1.6815411053099574,-2.5258308092700403,2.280987187022827,-1.0157073179828089,0.15861400961875916
1708437203.9769328,-1.1057491302490234,-1.6815864048399867,-2.525827471409933,2.2810579973408203,-1.0158169905291956,0.15872301161289215
1708437203.9792666,-1.105698823928833,-1.6814948521056117,-2.525839630757467,2.2809993463703613,-1.0157716909991663,0.15873107314109802
1708437203.9809465,-1.1057238578796387,-1.6815535030760707,-2.525839630757467,2.281003637904785,-1.0157955328570765,0.15890184044837952
1708437203.9829242,-1.1057238578796387,-1.681589265862936,-2.525856081639425,2.281024618739746,-1.015832249318258,0.1589885950088501
1708437203.9849167,-1.1057535409927368,-1.6815625629820765,-2.525851551686422,2.2810067373463134,-1.01585561433901,0.15909607708454132
1708437203.9869547,-1.105728268623352,-1.6815453968443812,-2.525843922291891,2.281020088786743,-1.015838925038473,0.15928199887275696
1708437203.9889388,-1.1057565212249756,-1.6815864048399867,-2.52586800256838,2.2810579973408203,-1.015862766896383,0.159343421459198
1708437203.9909644,-1.1057031154632568,-1.6815206013121546,-2.525893036519186,2.281024618739746,-1.0159485975848597,0.1595289558172226
1708437203.9930139,-1.1057031154632568,-1.6816235981383265,-2.525848452244894,2.281012697810791,-1.015923802052633,0.15966039896011353
1708437203.9949517,-1.1057491302490234,-1.6815444431700648,-2.5258634726153772,2.281012697810791,-1.0159595648394983,0.159808948636055
1708437203.9969666,-1.1057313680648804,-1.6815935573973597,-2.5258353392230433,2.280991955394409,-1.0159757773028772,0.15998226404190063
1708437203.9989238,-1.1057727336883545,-1.6815773449339808,-2.5258470217334192,2.2810534673878173,-1.0159791151629847,0.16007986664772034
1708437204.0009255,-1.1057031154632568,-1.6816407642760218,-2.525851551686422,2.280987187022827,-1.0160120169269007,0.16030986607074738
1708437204.002922,-1.1057372093200684,-1.6816054783263148,-2.5258753935443323,2.281087799663208,-1.0160444418536585,0.1604003608226776
1708437204.0049384,-1.1057446002960205,-1.6816193066039027,-2.5258503595935267,2.281029148692749,-1.0160163084613245,0.16055883467197418
1708437204.0069535,-1.1057491302490234,-1.6816183529295863,-2.5258427301989954,2.2810861307331542,-1.0160239378558558,0.16067412495613098
1708437204.008955,-1.105690598487854,-1.6815968952574671,-2.5259080568896692,2.281078978175781,-1.0159872213946741,0.16086581349372864
1708437204.010925,-1.1057119369506836,-1.6815759144225062,-2.5259035269366663,2.2810281950184326,-1.016019646321432,0.16107513010501862
1708437204.012943,-1.1056995391845703,-1.6815639934935511,-2.5259161631213587,2.2810236650654296,-1.0160110632525843,0.1612626016139984
1708437204.0149581,-1.105690598487854,-1.681629320184225,-2.5259650389300745,2.2810579973408203,-1.016047779713766,0.16148267686367035
1708437204.016915,-1.105708360671997,-1.681601186791891,-2.525942866002218,2.2810415464588623,-1.0159738699542444,0.1616712212562561
1708437204.0189254,-1.1057164669036865,-1.681629320184225,-2.5259769598590296,2.2810653883167724,-1.0160639921771448,0.16182079911231995
1708437204.0209162,-1.1057446002960205,-1.6816135845580042,-2.5258894602404993,2.281033440227173,-1.0160349051104944,0.1621140092611313
1708437204.0229492,-1.1056995391845703,-1.6816493473448695,-2.525940004979269,2.281029148692749,-1.0160229841815394,0.16223131120204926
1708437204.0249205,-1.105690598487854,-1.6816045246519984,-2.5259550253497522,2.2810370165058593,-1.0160759131061,0.16253341734409332
1708437204.0269246,-1.1056995391845703,-1.6816770039000453,-2.5259550253497522,2.281046076411865,-1.016071621571676,0.16275671124458313
1708437204.0289576,-1.1056623458862305,-1.6816240749754847,-2.5259726683246058,2.2810110288807373,-1.0160544554339808,0.16301707923412323
1708437204.0309186,-1.1057164669036865,-1.6816541157164515,-2.5260074774371546,2.2810579973408203,-1.0161164442645472,0.1632729172706604
1708437204.0329406,-1.1056950092315674,-1.6816374264159144,-2.5260208288775843,2.281087799663208,-1.0161154905902308,0.16359351575374603
1708437204.0349262,-1.1056832075119019,-1.6816402874388636,-2.5259700457202356,2.2810908991047363,-1.0161154905902308,0.16381202638149261
1708437204.0369148,-1.1056876182556152,-1.6816569767394007,-2.5260282198535364,2.2810370165058593,-1.016106907521383,0.16406641900539398
1708437204.0389395,-1.105696439743042,-1.6816817722716273,-2.5260117689715784,2.2810110288807373,-1.016123119984762,0.16439571976661682
1708437204.0409615,-1.1057214736938477,-1.6816684208311976,-2.5260029474841517,2.281033440227173,-1.0161588827716272,0.1646547168493271
1708437204.043015,-1.105666995048523,-1.681626935998434,-2.526043478642599,2.2809619146534423,-1.0161545912372034,0.16497954726219177
1708437204.044947,-1.1056712865829468,-1.68176331142568,-2.5260806719409388,2.281024618739746,-1.016196076069967,0.165245920419693
1708437204.0469892,-1.1056668758392334,-1.6817089519896449,-2.526055399571554,2.2810444074818115,-1.016202751790182,0.16556499898433685
1708437204.0489523,-1.1057039499282837,-1.681704660455221,-2.526076380406515,2.2810980516621093,-1.0161898771869105,0.1659046709537506
1708437204.0509343,-1.1056920289993286,-1.6816970310606898,-2.526059691105978,2.2810489374348144,-1.016242806111471,0.1662398874759674
1708437204.0529766,-1.1057208776474,-1.6817075214781703,-2.526067558919088,2.281017227763794,-1.0162418524371546,0.16653811931610107
1708437204.0549426,-1.1056712865829468,-1.6817370853819789,-2.526067558919088,2.2810489374348144,-1.0163114706622522,0.16689735651016235
1708437204.0569355,-1.1056712865829468,-1.681728025475973,-2.526104752217428,2.281046076411865,-1.0162857214557093,0.1672656387090683
1708437204.058933,-1.1056876182556152,-1.6817847690977992,-2.5260871092425745,2.2810191351124267,-1.0163548628436487,0.16763240098953247
1708437204.0609388,-1.1056876182556152,-1.6817409000792445,-2.526072088872091,2.28101555883374,-1.016412083302633,0.1679753065109253
1708437204.0629594,-1.1057208776474,-1.6817599735655726,-2.5260751883136194,2.2810696798511962,-1.016374413167135,0.16838699579238892
1708437204.0649562,-1.1057039499282837,-1.6817566357054652,-2.5261076132403772,2.2810608583637695,-1.016435448323385,0.1687670350074768
1708437204.0669339,-1.1057252883911133,-1.6817409000792445,-2.5260899702655237,2.2810281950184326,-1.0164507071124476,0.169108584523201
1708437204.0689437,-1.1056593656539917,-1.6817146740355433,-2.5261226336108606,2.2810281950184326,-1.0164788405047815,0.1695576310157776
1708437204.0709891,-1.1056920289993286,-1.6818047962584437,-2.5261271635638636,2.2810489374348144,-1.0164497534381312,0.16999725997447968
1708437204.0729253,-1.105663776397705,-1.6817885837950648,-2.5261314550982874,2.2810401159473876,-1.0164945761310022,0.17041966319084167
1708437204.0749204,-1.1056801080703735,-1.6817847690977992,-2.526163403187887,2.2810355859943847,-1.0165064970599573,0.1708601415157318
1708437204.076934,-1.1056712865829468,-1.6818062267699183,-2.5261722246753138,2.280999107951782,-1.0165756384478968,0.17123427987098694
1708437204.078927,-1.1056593656539917,-1.6817690334715785,-2.526184145604269,2.2810563284107666,-1.0165541807757776,0.1716775894165039
1708437204.0809312,-1.10565185546875,-1.6817895374693812,-2.5261829535113733,2.2810727792927246,-1.0165379683123987,0.1721298098564148
1708437204.0830243,-1.105619192123413,-1.6817885837950648,-2.5262113253222864,2.2810110288807373,-1.0166032950030726,0.17248757183551788
1708437204.0849395,-1.1056116819381714,-1.6817928753294886,-2.5262368361102503,2.2810579973408203,-1.0165818373309534,0.1729799211025238
1708437204.0869193,-1.1056236028671265,-1.6817523441710414,-2.5262368361102503,2.2810281950184326,-1.0166099707232874,0.173484206199646
1708437204.088941,-1.1055991649627686,-1.6817475757994593,-2.5261829535113733,2.2810908991047363,-1.0166304747210901,0.17395605146884918
1708437204.0909202,-1.1056294441223145,-1.681765695611471,-2.5262308756457728,2.2810534673878173,-1.0166829268084925,0.17445920407772064
1708437204.093041,-1.1055560111999512,-1.6817757091917933,-2.5262487570392054,2.281031056041382,-1.0166586081134241,0.17493216693401337
1708437204.0949292,-1.1055635213851929,-1.6817194424071253,-2.5262935797320765,2.2809857565113525,-1.0166338125811976,0.1754244565963745
1708437204.0969443,-1.105530858039856,-1.681760927239889,-2.526311699544088,2.281020088786743,-1.0166457335101526,0.1759532392024994
1708437204.098948,-1.1055108308792114,-1.6817499599852503,-2.526320521031515,2.2810444074818115,-1.0166533629046839,0.17642167210578918
1708437204.1009173,-1.105544090270996,-1.6817895374693812,-2.5262911955462855,2.2810324865528564,-1.0166900793658655,0.17697419226169586
1708437204.1029348,-1.1055530309677124,-1.681728025475973,-2.526316229497091,2.2810653883167724,-1.0166328589068812,0.1775219440460205
1708437204.1049287,-1.1054989099502563,-1.6817451916136683,-2.526400152836935,2.2810653883167724,-1.0166900793658655,0.17811425030231476
1708437204.1069627,-1.105494499206543,-1.6817270718016566,-2.526317898427145,2.2810236650654296,-1.01664907137026,0.17855815589427948
1708437204.1089437,-1.1055241823196411,-1.6817194424071253,-2.5263386408435267,2.2810608583637695,-1.0166533629046839,0.17916274070739746
1708437204.1109095,-1.105512261390686,-1.6817027531065882,-2.5263386408435267,2.2810324865528564,-1.0167058149920862,0.1797134280204773
1708437204.112934,-1.1055165529251099,-1.6817451916136683,-2.526363197957174,2.2810444074818115,-1.016754452382223,0.18030200898647308
1708437204.1149235,-1.105513572692871,-1.6817847690977992,-2.526358668004171,2.281020088786743,-1.016794506703512,0.18084853887557983
1708437204.1169753,-1.105500340461731,-1.6817237339415492,-2.526423994694845,2.281029148692749,-1.0168231169330042,0.18143974244594574
1708437204.1189327,-1.1054972410202026,-1.6817928753294886,-2.526403252278463,2.28101555883374,-1.016801659260885,0.18197736144065857
1708437204.120945,-1.1054438352584839,-1.6817523441710414,-2.5264435450183313,2.281024618739746,-1.0168903509723108,0.18264201283454895
1708437204.1229262,-1.1054394245147705,-1.6817847690977992,-2.5264514128314417,2.280987187022827,-1.0168407599078577,0.183236226439476
1708437204.124951,-1.1054691076278687,-1.6817475757994593,-2.5264676252948206,2.280987187022827,-1.0169180075274866,0.18380247056484222
1708437204.1269288,-1.1054482460021973,-1.6817475757994593,-2.5265048185931605,2.281067057246826,-1.0170024077044886,0.18440096080303192
1708437204.1289322,-1.1054142713546753,-1.6817194424071253,-2.5264914671527308,2.2810324865528564,-1.0169852415667933,0.18504714965820312
1708437204.130909,-1.1054071187973022,-1.6817385158934535,-2.526466433201925,2.281024618739746,-1.0170214811908167,0.18565566837787628
1708437204.1329567,-1.1054115295410156,-1.6818229160704554,-2.526466433201925,2.281046076411865,-1.0170658270465296,0.18625283241271973
1708437204.1349108,-1.1053581237792969,-1.6818019352354945,-2.526508156453268,2.281090660686157,-1.017069164906637,0.186893492937088
1708437204.1369255,-1.1054203510284424,-1.6818391285338343,-2.526524607335226,2.281003637904785,-1.0171259085284632,0.18755702674388885
1708437204.1389284,-1.1053965091705322,-1.6818090877928675,-2.526499334965841,2.28101555883374,-1.017158333455221,0.18815436959266663
1708437204.1409159,-1.1053788661956787,-1.6817971668639125,-2.5265067259417933,2.281055136317871,-1.0171693007098597,0.18876498937606812
1708437204.1430202,-1.1053261756896973,-1.6818210087218226,-2.5265024344073694,2.281020088786743,-1.0171693007098597,0.18942373991012573
1708437204.1449573,-1.1052935123443604,-1.6818434200682582,-2.5265024344073694,2.281008406276367,-1.0172022024737757,0.19011233747005463
1708437204.1470187,-1.1052860021591187,-1.6818167171873988,-2.5265384356128138,2.281024618739746,-1.017221752797262,0.19070523977279663
1708437204.1489575,-1.1053037643432617,-1.6818448505797328,-2.5265429655658167,2.2810415464588623,-1.0171926657306116,0.19144821166992188
1708437204.1509411,-1.1053200960159302,-1.681868692437643,-2.5265679995166224,2.281000776881836,-1.0172207991229456,0.1921817511320114
1708437204.152952,-1.105284333229065,-1.6818000278868617,-2.5265799204455774,2.2810379701801757,-1.0172207991229456,0.1927592009305954
1708437204.154961,-1.10529625415802,-1.6818167171873988,-2.5265710989581507,2.2809664446064453,-1.0172284285174769,0.19347479939460754
1708437204.1570113,-1.1052303314208984,-1.681798597375387,-2.526574436818258,2.281003637904785,-1.017252270375387,0.19414882361888885
1708437204.158968,-1.105263590812683,-1.6818200550475062,-2.526620690022604,2.280923290843628,-1.0172761122332972,0.1949087530374527
1708437204.1609426,-1.1052347421646118,-1.681894918481344,-2.5266030470477503,2.281012697810791,-1.017325226460592,0.19565801322460175
1708437204.1629562,-1.105231761932373,-1.681862016717428,-2.526647392903463,2.2810215192982177,-1.0173090139972132,0.19634203612804413
1708437204.164949,-1.1052154302597046,-1.681857248345846,-2.526635710393087,2.280968113536499,-1.0173404852496546,0.1971396654844284
1708437204.1669989,-1.105219841003418,-1.6818977795042933,-2.5266686121570032,2.2809933859058837,-1.0173938910113733,0.19785979390144348
1708437204.1689544,-1.1052286624908447,-1.681915899316305,-2.5266311804400843,2.2809604841419677,-1.0173609892474573,0.1985977292060852
1708437204.1709316,-1.1051796674728394,-1.6818248234190882,-2.5267134348498743,2.2809621530720214,-1.0174015204059046,0.19938771426677704
1708437204.1729398,-1.1051597595214844,-1.681868692437643,-2.5266955534564417,2.280899925822876,-1.017416779194967,0.20019273459911346
1708437204.1749377,-1.1051597595214844,-1.6819097004332484,-2.526658360158102,2.280890627498291,-1.0174039045916956,0.20092655718326569
1708437204.1769805,-1.1051315069198608,-1.6818815670409144,-2.526675049458639,2.280899687404297,-1.0174773375140589,0.20169439911842346
1708437204.178963,-1.1051359176635742,-1.6819306812682093,-2.5266616980182093,2.2808143335529785,-1.0175297896014612,0.20251783728599548
1708437204.1809328,-1.105112075805664,-1.6818963489928187,-2.526715103779928,2.280847950572632,-1.0175045172320765,0.2032579630613327
1708437204.1829822,-1.105100154876709,-1.6818677387633265,-2.526756827031271,2.2808732229420166,-1.017512623463766,0.20395544171333313
1708437204.1849473,-1.1051076650619507,-1.6819097004332484,-2.5267227331744593,2.2808732229420166,-1.0175288359271448,0.2046416997909546
1708437204.1869264,-1.1050549745559692,-1.6819168529906214,-2.5267601648913782,2.2808279234119873,-1.01756459871401,0.2053375542163849
1708437204.1889596,-1.105088233947754,-1.6818543873228968,-2.5267871061908167,2.2807997900196533,-1.0175812880145472,0.20620833337306976
1708437204.1909025,-1.1050267219543457,-1.6819006405272425,-2.5267871061908167,2.280820532436035,-1.0175483862506312,0.20698104798793793
1708437204.1929617,-1.105088233947754,-1.6819306812682093,-2.526782814656393,2.280787869090698,-1.01762563387026,0.2077922224998474
1708437204.19494,-1.105023741722107,-1.6819125614561976,-2.526815954838888,2.280789299602173,-1.0175727049456995,0.20856763422489166
1708437204.1969447,-1.105035662651062,-1.6818496189513148,-2.526848618184225,2.280754967326782,-1.0176375547992151,0.20941968262195587
1708437204.1989686,-1.105081558227539,-1.6819335422911585,-2.52682334581484,2.28078476964917,-1.0175965468036097,0.210290789604187
1708437204.2009306,-1.1050043106079102,-1.6818796596922816,-2.526839796696798,2.280789299602173,-1.0176289717303675,0.2111285924911499
1708437204.202946,-1.1049954891204834,-1.6819306812682093,-2.526872460042135,2.2807440000721435,-1.0176885763751429,0.21196706593036652
1708437204.204946,-1.104954719543457,-1.6818915806212367,-2.5269127527820032,2.2807440000721435,-1.0176885763751429,0.21279552578926086
1708437204.2069397,-1.1049473285675049,-1.6818915806212367,-2.5268383661853235,2.2807110983082275,-1.017700497304098,0.21360038220882416
1708437204.2090368,-1.1049517393112183,-1.6819335422911585,-2.5268548170672815,2.2807230192371826,-1.0177043120013636,0.2145405113697052
1708437204.2109354,-1.1049318313598633,-1.6818677387633265,-2.5268951098071497,2.2807366090961914,-1.0177119413958948,0.21533916890621185
1708437204.2129364,-1.1048991680145264,-1.681899210015768,-2.526907269154684,2.280668182963989,-1.0177400747882288,0.21616850793361664
1708437204.214941,-1.1049243211746216,-1.6819244823851527,-2.5269368330584925,2.280705376262329,-1.017775837575094,0.21704727411270142
1708437204.216969,-1.1048829555511475,-1.6819077930846156,-2.526923481618063,2.280684395427368,-1.017824951802389,0.21787387132644653
1708437204.2189355,-1.1048916578292847,-1.6819292507567347,-2.526947561894552,2.280651016826294,-1.017881218587057,0.21870684623718262
1708437204.2209232,-1.104876160621643,-1.6819306812682093,-2.526939932500021,2.2806526857563476,-1.0178197065936487,0.21955987811088562
1708437204.2229187,-1.104864239692688,-1.6818372211852015,-2.5269280115710657,2.280688925380371,-1.0178435484515589,0.22035235166549683
1708437204.2249248,-1.104852318763733,-1.6819216213622035,-2.5269606749164026,2.280693455333374,-1.0179088751422327,0.22112253308296204
1708437204.2269363,-1.1048152446746826,-1.681911130944723,-2.52690297762026,2.280697985286377,-1.0179203192340296,0.2219286859035492
1708437204.2289257,-1.1048403978347778,-1.681944032708639,-2.526935640965597,2.2806481558033447,-1.017928425465719,0.22277124226093292
1708437204.2309213,-1.1048085689544678,-1.6819936237730921,-2.52692681947817,2.2806600767322998,-1.0179360548602503,0.22362932562828064
1708437204.232913,-1.1047625541687012,-1.6819483242430628,-2.526938501988546,2.280597372645996,-1.0179393927203577,0.22445222735404968
1708437204.2349098,-1.1047463417053223,-1.681939264337057,-2.526968542729513,2.280622645015381,-1.0179970900165003,0.22530680894851685
1708437204.2369313,-1.1047966480255127,-1.681939264337057,-2.5269749800311487,2.2806615072437744,-1.0179827849017542,0.22614483535289764
1708437204.2389374,-1.1047803163528442,-1.6819349728026332,-2.526975933705465,2.2805797296711425,-1.0179784933673304,0.22694556415081024
1708437204.2409055,-1.1047683954238892,-1.6819683514037074,-2.5269253889666956,2.2806154924580078,-1.018064324055807,0.2277722805738449
1708437204.2429552,-1.1047282218933105,-1.68198885540151,-2.5269880930529993,2.2805916506000976,-1.0180352369891565,0.22865985333919525
1708437204.2449527,-1.1047698259353638,-1.6819964847960414,-2.5270119349109095,2.2806243139454345,-1.0180428663836878,0.22947244346141815
1708437204.246968,-1.104744553565979,-1.68198885540151,-2.5270074049579065,2.280613823527954,-1.0180838743792933,0.23040913045406342
1708437204.2489498,-1.1046949625015259,-1.6820126972594203,-2.5269747416125696,2.280630274409912,-1.018092457448141,0.23128654062747955
1708437204.2509491,-1.1047371625900269,-1.6820389233031214,-2.5270615259753626,2.280555172557495,-1.0180633703814905,0.23211020231246948
1708437204.2529392,-1.1047282218933105,-1.6820413074889125,-2.526989761983053,2.2805840212055664,-1.0180838743792933,0.23306035995483398
1708437204.254924,-1.1047039031982422,-1.6820255718626917,-2.527052704487936,2.280611200923584,-1.0180795828448694,0.23388856649398804
1708437204.256972,-1.1046756505966187,-1.6819921932616175,-2.5270512739764612,2.280568762416504,-1.0181077162372034,0.2347305715084076
1708437204.2589622,-1.1046473979949951,-1.6820231876769007,-2.5270031134234827,2.280526800746582,-1.0180633703814905,0.23557743430137634
1708437204.260941,-1.1046429872512817,-1.682016511956686,-2.5270589033709925,2.2805403906055908,-1.0181077162372034,0.23636256158351898
1708437204.2629333,-1.1046769618988037,-1.6820560894408167,-2.527043883000509,2.280519648189209,-1.0181034247027796,0.23729901015758514
1708437204.264963,-1.104623556137085,-1.6820322475829066,-2.527079407368795,2.280573292369507,-1.0180962721454065,0.23816968500614166
1708437204.2670257,-1.104653239250183,-1.6820394001402796,-2.5270677248584192,2.280512257213257,-1.018050495778219,0.2390071004629135
1708437204.2689867,-1.1046487092971802,-1.6820141277708949,-2.5270915667163294,2.2805046278187255,-1.018083397542135,0.2398771047592163
1708437204.2709544,-1.1045739650726318,-1.6820560894408167,-2.5271032492267054,2.2805449205585937,-1.0180876890765589,0.24075429141521454
1708437204.2729342,-1.1046199798583984,-1.6820560894408167,-2.5271032492267054,2.280480309123657,-1.0181234518634241,0.2416098415851593
1708437204.2749228,-1.1046005487442017,-1.682018896142477,-2.5271199385272425,2.2804757791706542,-1.0180991331683558,0.2424919605255127
1708437204.2769465,-1.1045711040496826,-1.682042738000387,-2.527062002812521,2.280472918147705,-1.0181158224688929,0.2434024214744568
1708437204.278956,-1.1045634746551514,-1.6820727787413539,-2.5271273295031946,2.280493660564087,-1.0181482473956507,0.24422484636306763
1708437204.2809381,-1.1045515537261963,-1.682096620599264,-2.5270944277392786,2.280420704478882,-1.0181320349322718,0.2451477199792862
1708437204.282953,-1.1045855283737183,-1.6820560894408167,-2.527081314717428,2.280465527171753,-1.0180986563311976,0.2460506707429886
1708437204.2849598,-1.1045063734054565,-1.682079931298727,-2.5271318594561976,2.280453606242798,-1.0181720892535608,0.24686749279499054
1708437204.286921,-1.1045618057250977,-1.6820727787413539,-2.527142588292257,2.280428095454834,-1.0181873480426233,0.24778291583061218
1708437204.2889597,-1.1044944524765015,-1.6820923290648402,-2.527142588292257,2.280411882991455,-1.0181883017169397,0.24858275055885315
1708437204.2909522,-1.1045122146606445,-1.6820875606932582,-2.527139727269308,2.280465527171753,-1.0181625525103968,0.24950088560581207
1708437204.2929513,-1.104528546333313,-1.6820875606932582,-2.527109686528341,2.280416412944458,-1.0181997458087366,0.2502637803554535
1708437204.2949414,-1.1044632196426392,-1.682096620599264,-2.5271602312671106,2.280416412944458,-1.018219296132223,0.2511676549911499
1708437204.2969418,-1.104421615600586,-1.6821042499937953,-2.527155939732687,2.2803999620625,-1.018243137990133,0.25196728110313416
1708437204.2989824,-1.1044632196426392,-1.6820875606932582,-2.527151409779684,2.2804581361958007,-1.0182269255267542,0.2527858316898346
1708437204.3009386,-1.1044883728027344,-1.6820875606932582,-2.527081314717428,2.28046099721875,-1.018259350453512,0.2536708116531372
1708437204.3029664,-1.1044883728027344,-1.6820923290648402,-2.527093474064962,2.2804578977772216,-1.0182583967791956,0.2545025944709778
1708437204.3049626,-1.1044764518737793,-1.6821090183653773,-2.5271766821490687,2.2804133135029296,-1.0182879606830042,0.2553535997867584
1708437204.3069344,-1.1044437885284424,-1.6820908985533656,-2.527130905781881,2.280393524760864,-1.0182951132403772,0.25622841715812683
1708437204.308978,-1.1044481992721558,-1.6821657619872035,-2.5271220842944544,2.2803799349018554,-1.018327538167135,0.2570984959602356
1708437204.3109448,-1.1043860912322998,-1.6820832691588343,-2.527114216481344,2.280377073878906,-1.0183432737933558,0.2579646408557892
1708437204.3129444,-1.1044526100158691,-1.6821252308287562,-2.5271382967578333,2.280353232020996,-1.0183146635638636,0.2588099241256714
1708437204.3149354,-1.1044349670410156,-1.6821118793883265,-2.527130905781881,2.2803725439259033,-1.018350903187887,0.2597019672393799
1708437204.3170152,-1.1044349670410156,-1.6821252308287562,-2.527085844670431,2.280357761973999,-1.0183270613299769,0.2605848014354706
1708437204.3189383,-1.1044158935546875,-1.6821729145445765,-2.5271220842944544,2.280362053508423,-1.0183270613299769,0.26153966784477234
1708437204.3209329,-1.1044397354125977,-1.6821772060790003,-2.527155939732687,2.280332489604614,-1.0183313528644007,0.26234883069992065
1708437204.3229437,-1.1044070720672607,-1.6821190319456996,-2.5271382967578333,2.2803994852253417,-1.0183876196490687,0.26329150795936584
1708437204.3249533,-1.1044039726257324,-1.6821629009642542,-2.527155939732687,2.280394955272339,-1.0183799902545374,0.2640957534313202
1708437204.3269353,-1.1043951511383057,-1.6821681461729945,-2.52714711824526,2.2803665834614257,-1.018334690724508,0.2649790644645691
1708437204.328923,-1.104399561882019,-1.6821805439391078,-2.527159039174215,2.2803005415150146,-1.018338982258932,0.2658460736274719
1708437204.33092,-1.1043757200241089,-1.6821876964964808,-2.527142588292257,2.2803336816975097,-1.0183103720294397,0.26666373014450073
1708437204.332942,-1.1043757200241089,-1.68214811901235,-2.5271382967578333,2.2802960115620117,-1.0183551947223108,0.26746147871017456
1708437204.3349247,-1.1044172048568726,-1.6821967564024867,-2.5271263758288782,2.2802886205860595,-1.0183184782611292,0.26821616291999817
1708437204.3369274,-1.1044083833694458,-1.6821595631041468,-2.527175251637594,2.2802886205860595,-1.0183466116534632,0.26905521750450134
1708437204.3389692,-1.1043474674224854,-1.682176252404684,-2.527175251637594,2.2803138929554443,-1.0183303991900843,0.2699478566646576
1708437204.3409204,-1.1044052839279175,-1.6822134457030238,-2.5271459261523646,2.2802631097980957,-1.0183313528644007,0.27079886198043823
1708437204.342914,-1.1043682098388672,-1.682216306725973,-2.527212921773092,2.2802766996571044,-1.018306080495016,0.2716975808143616
1708437204.344969,-1.1043518781661987,-1.6821547947325648,-2.5271502176867884,2.2802857595631103,-1.0183680693255823,0.27250275015830994
1708437204.3469546,-1.104360818862915,-1.6821743450560511,-2.5271413961993616,2.2802604871937255,-1.0183551947223108,0.27331337332725525
1708437204.3489592,-1.1043275594711304,-1.6821958027281703,-2.527179781590597,2.280301972026489,-1.018350903187887,0.2742544710636139
1708437204.3509142,-1.1043407917022705,-1.6822120151915492,-2.5271876494037073,2.2802528577991943,-1.0183475653277796,0.27505964040756226
1708437204.3529172,-1.1043319702148438,-1.682178636590475,-2.5271998087512415,2.2802647787281494,-1.018306080495016,0.27587786316871643
1708437204.3549078,-1.1043319702148438,-1.6822134457030238,-2.5271621386157435,2.2802201944538574,-1.0183551947223108,0.27674412727355957
1708437204.3569465,-1.1043658256530762,-1.68227018932485,-2.5271831194507044,2.280174894923828,-1.018322769795553,0.27758538722991943
1708437204.3590379,-1.1042917966842651,-1.6822120151915492,-2.527208391820089,2.2802797990986328,-1.0183475653277796,0.27840638160705566
1708437204.3609934,-1.1042962074279785,-1.68223299602651,-2.52717096010317,2.28023807584729,-1.018338982258932,0.2792564034461975
1708437204.363051,-1.1043168306350708,-1.6822239361205042,-2.5271998087512415,2.280230684871338,-1.018306080495016,0.2800612449645996
1708437204.3649356,-1.1042636632919312,-1.6821819744505824,-2.527175251637594,2.2802352148243408,-1.0183551947223108,0.28087183833122253
1708437204.3670483,-1.1042767763137817,-1.6822191677489222,-2.527191940938131,2.2801973062702636,-1.018301788960592,0.2816605865955353
1708437204.368929,-1.10427987575531,-1.6822387180724085,-2.5271502176867884,2.2802018362232666,-1.0183594862567347,0.28250735998153687
1708437204.3709059,-1.104243516921997,-1.6822568378844203,-2.527170006428854,2.280183716411255,-1.0182903448687952,0.2832818925380707
1708437204.3729331,-1.1042560338974,-1.6822759113707484,-2.527175251637594,2.2801927763172607,-1.0182903448687952,0.28407031297683716
1708437204.3749237,-1.1042767763137817,-1.6822601757445277,-2.5272160212146204,2.2801808553883056,-1.0183313528644007,0.284820556640625
1708437204.3769176,-1.1042723655700684,-1.6822806797423304,-2.5272367636310022,2.2802092271992187,-1.018350903187887,0.28567877411842346
1708437204.3789275,-1.1042604446411133,-1.6823259792723597,-2.527191940938131,2.2801944452473144,-1.018338982258932,0.28648409247398376
1708437204.380912,-1.104285717010498,-1.6822434864439906,-2.5271621386157435,2.280219717616699,-1.018338982258932,0.2873469293117523
1708437204.382933,-1.104236125946045,-1.6822887859740199,-2.5271876494037073,2.2801944452473144,-1.018334690724508,0.2881859540939331
1708437204.3849645,-1.104243516921997,-1.6822840176024378,-2.5272026697741907,2.2802063661762695,-1.018338982258932,0.2889058589935303
1708437204.386926,-1.104248046875,-1.6823331318297328,-2.5271785894977015,2.2802061277576904,-1.018301788960592,0.2896706163883209
1708437204.3889623,-1.104243516921997,-1.6823002300658167,-2.5271547476397913,2.2801779943653564,-1.018338982258932,0.2905066907405853
1708437204.3909068,-1.1042078733444214,-1.6822887859740199,-2.52717096010317,2.280162735576294,-1.018301788960592,0.29136452078819275
1708437204.3929348,-1.1042568683624268,-1.6822716198363246,-2.5271294752704065,2.280149145717285,-1.018338982258932,0.29218417406082153
1708437204.3949702,-1.1042524576187134,-1.6822716198363246,-2.5271876494037073,2.280149145717285,-1.0183551947223108,0.29303649067878723
1708437204.397001,-1.1042649745941162,-1.6822625599303187,-2.527175251637594,2.280144615764282,-1.0183594862567347,0.2938653826713562
1708437204.3989568,-1.1042612791061401,-1.6823049984373988,-2.5271742979632776,2.280149145717285,-1.018350903187887,0.2947242558002472
1708437204.4009829,-1.104215383529663,-1.6823092899718226,-2.5271998087512415,2.280120297069214,-1.0184128920184534,0.295444518327713
1708437204.402967,-1.1042568683624268,-1.6822625599303187,-2.527196470891134,2.280075712794922,-1.0183270613299769,0.2963414788246155
1708437204.4049497,-1.1041545867919922,-1.6823212109007777,-2.5271621386157435,2.280115767116211,-1.0183270613299769,0.2970481514930725
1708437204.4069679,-1.1042330265045166,-1.682291646996969,-2.5271876494037073,2.2801336485096435,-1.0183098951922815,0.29786622524261475
1708437204.408976,-1.104203462600708,-1.6822840176024378,-2.52714711824526,2.280103846187256,-1.0183594862567347,0.2986682653427124
1708437204.410973,-1.1041840314865112,-1.682244440118307,-2.5271876494037073,2.280103846187256,-1.0183466116534632,0.2994498014450073
1708437204.4129508,-1.1042417287826538,-1.682279726068014,-2.5271251837359827,2.2801129060932617,-1.018338982258932,0.30030614137649536
1708437204.4149258,-1.1042330265045166,-1.6822582683958949,-2.5271742979632776,2.2800964552113037,-1.0183551947223108,0.30111241340637207
1708437204.416997,-1.1042003631591797,-1.682328840295309,-2.527175251637594,2.2801129060932617,-1.018322769795553,0.3018557131290436
1708437204.4189472,-1.104181170463562,-1.6822825870909632,-2.5271533171283167,2.2801129060932617,-1.018294636403219,0.3026875853538513
1708437204.4209151,-1.1041388511657715,-1.6822840176024378,-2.5271621386157435,2.2800800043293457,-1.0183032194720667,0.30345654487609863
1708437204.4229224,-1.1041641235351562,-1.682307859460348,-2.5271547476397913,2.2801262575336914,-1.0182908217059534,0.3042104244232178
1708437204.4249313,-1.1041721105575562,-1.6823121509947718,-2.527200762425558,2.2800890642353515,-1.0183032194720667,0.3049735128879547
1708437204.4269142,-1.1042003631591797,-1.6823498211302699,-2.5271952787982386,2.2800726133533935,-1.0183189550982874,0.3057323694229126
1708437204.4289467,-1.1041641235351562,-1.682286878625387,-2.5271952787982386,2.2800726133533935,-1.0183075110064905,0.30654671788215637
1708437204.4309397,-1.1041388511657715,-1.6823421917357386,-2.5271502176867884,2.2801098066517334,-1.0182464758502405,0.30733466148376465
1708437204.4329476,-1.1041358709335327,-1.6822582683958949,-2.527191940938131,2.2800816732593994,-1.0182750860797327,0.3080750107765198
1708437204.4349382,-1.1041641235351562,-1.682291646996969,-2.52717096010317,2.2800606924244384,-1.0182507673846644,0.3088774085044861
1708437204.4369688,-1.104192852973938,-1.682340761224264,-2.5272041002856653,2.280123158092163,-1.018303696309225,0.3096312880516052
1708437204.4389465,-1.104172945022583,-1.6822535000243128,-2.52717096010317,2.2800652223774414,-1.0182879606830042,0.31041091680526733
1708437204.4409397,-1.1041810512542725,-1.682324071923727,-2.5271831194507044,2.280102415675781,-1.0182507673846644,0.31119608879089355
1708437204.4429502,-1.1042017936706543,-1.6823364696898402,-2.5272203127490442,2.2799991804310302,-1.0182793776141565,0.3118724822998047
1708437204.4449883,-1.10415518283844,-1.682324071923727,-2.5272041002856653,2.280118866557739,-1.018292252217428,0.3126189112663269
1708437204.4469388,-1.1041152477264404,-1.6823531589903773,-2.527175251637594,2.2800561624714355,-1.0182421843158167,0.31339389085769653
1708437204.4490094,-1.1041810512542725,-1.6823364696898402,-2.5271998087512415,2.280057831401489,-1.018275562916891,0.3141108453273773
1708437204.4509199,-1.1041595935821533,-1.6823274097838343,-2.5271578470813196,2.2800564008900146,-1.0181978384601038,0.314870685338974
1708437204.4529355,-1.1041595935821533,-1.6823498211302699,-2.5271382967578333,2.2800771433063964,-1.0182798544513147,0.3155287802219391
1708437204.4549134,-1.1041595935821533,-1.682324071923727,-2.527175251637594,2.280062361354492,-1.0182226339923304,0.31624090671539307
1708437204.456925,-1.10415518283844,-1.6822897396483363,-2.5271502176867884,2.2800652223774414,-1.018231217061178,0.31700441241264343
1708437204.4589794,-1.1041432619094849,-1.682319780389303,-2.5271337668048304,2.2800697523304443,-1.0182560125934046,0.3176734447479248
1708437204.4609492,-1.1041641235351562,-1.682315012017721,-2.527142588292257,2.280014677638672,-1.0181902090655726,0.31841158866882324
1708437204.4629512,-1.1041595935821533,-1.6823531589903773,-2.5271843115436,2.280090494746826,-1.018231217061178,0.31913310289382935
1708437204.464984,-1.1041595935821533,-1.6823064289488734,-2.5271664301501673,2.2800771433063964,-1.0182107130633753,0.31986570358276367
1708437204.466952,-1.104197382926941,-1.6823531589903773,-2.5271502176867884,2.280111475581787,-1.018247429524557,0.3205910623073578
1708437204.4689593,-1.1041314601898193,-1.6823598347105921,-2.5271876494037073,2.280090494746826,-1.0182150045977991,0.3213377296924591
1708437204.4709125,-1.104197382926941,-1.6823398075499476,-2.5271547476397913,2.280123158092163,-1.0182235876666468,0.3220249116420746
1708437204.4729266,-1.1041477918624878,-1.6823646030821742,-2.527155939732687,2.2800444799610595,-1.018191162739889,0.3227878212928772
1708437204.474931,-1.1041595935821533,-1.6823679409422816,-2.527151409779684,2.2800652223774414,-1.0181453863727015,0.32350605726242065
1708437204.4769151,-1.1041522026062012,-1.682319780389303,-2.527159039174215,2.2800652223774414,-1.0181744734393519,0.3241623640060425
1708437204.4789758,-1.1041477918624878,-1.682324071923727,-2.527135197316305,2.2800771433063964,-1.018191162739889,0.324881374835968
1708437204.4813519,-1.1041854619979858,-1.6823483906187953,-2.5271547476397913,2.280057831401489,-1.0181873480426233,0.32569336891174316
1708437204.4829507,-1.10415518283844,-1.6824051342406214,-2.527172390614645,2.280095024699829,-1.0181625525103968,0.32631349563598633
1708437204.4849298,-1.1041595935821533,-1.6823350391783656,-2.527142588292257,2.280057831401489,-1.0182040373431605,0.3269667327404022
1708437204.486941,-1.1041522026062012,-1.682319780389303,-2.527142588292257,2.2800652223774414,-1.0181592146502894,0.32758471369743347
1708437204.48896,-1.1041685342788696,-1.6823622188963832,-2.5271766821490687,2.2800771433063964,-1.0181344191180628,0.32828372716903687
1708437204.4909174,-1.1041388511657715,-1.6822945080199183,-2.527093474064962,2.2800325590321044,-1.0181387106524866,0.3288594186306
1708437204.4929712,-1.1041641235351562,-1.6823274097838343,-2.527179781590597,2.280003471965454,-1.0181472937213343,0.32956570386886597
1708437204.494947,-1.1041641235351562,-1.682324071923727,-2.5271974245654505,2.2801262575336914,-1.0180943647967737,0.33013737201690674
1708437204.4971716,-1.1042137145996094,-1.6822897396483363,-2.527142588292257,2.2800533014484863,-1.0181353727923792,0.33080461621284485
1708437204.4989305,-1.1041522026062012,-1.682291646996969,-2.527130905781881,2.280057831401489,-1.0181439558612269,0.3314402401447296
1708437204.50095,-1.1041595935821533,-1.6823364696898402,-2.5271485487567347,2.2800726133533935,-1.0181601683246058,0.33204931020736694
1708437204.5029094,-1.1041641235351562,-1.6823483906187953,-2.527151409779684,2.2800280290791015,-1.018111530934469,0.33266326785087585
1708437204.5049691,-1.1041195392608643,-1.6823226414122523,-2.527155939732687,2.280066891307495,-1.0180991331683558,0.3333277106285095
1708437204.5069134,-1.104161024093628,-1.6823574505248011,-2.527130905781881,2.280041380519531,-1.0180991331683558,0.33396297693252563
1708437204.5089529,-1.1041641235351562,-1.6823064289488734,-2.527155939732687,2.280015392894409,-1.0181034247027796,0.3345518410205841
1708437204.5109324,-1.1041685342788696,-1.682307859460348,-2.5271602312671106,2.2800652223774414,-1.0180919806109827,0.3352240324020386
1708437204.5129216,-1.104172945022583,-1.6823364696898402,-2.527151409779684,2.280057831401489,-1.0180709997760218,0.3357599377632141
1708437204.5149333,-1.104110598564148,-1.6822987995543421,-2.5271111170398157,2.2800368505665283,-1.0181034247027796,0.3364240527153015
1708437204.5170097,-1.1041641235351562,-1.6822897396483363,-2.5271647612201136,2.2800368505665283,-1.018060032521383,0.33697637915611267
1708437204.518944,-1.1041796207427979,-1.6823107204832972,-2.527155939732687,2.2800697523304443,-1.0180276075946253,0.33756786584854126
1708437204.5209243,-1.1042091846466064,-1.682307859460348,-2.527151409779684,2.280135317439697,-1.0180471579181116,0.3381011188030243
1708437204.5229068,-1.1041477918624878,-1.6822778187193812,-2.527085844670431,2.2800487714954834,-1.0180190245257776,0.3386319875717163
1708437204.5249417,-1.1041359901428223,-1.6823035679259242,-2.527118508015768,2.2800442415424804,-1.0180438200580042,0.33924600481987
1708437204.5269346,-1.1041641235351562,-1.682366510430807,-2.5271318594561976,2.2800444799610595,-1.0180438200580042,0.33977434039115906
1708437204.5289142,-1.1041810512542725,-1.6823035679259242,-2.5271156469928187,2.279987259502075,-1.0179713408099573,0.3402920365333557
1708437204.5309129,-1.1041840314865112,-1.6823035679259242,-2.5271156469928187,2.280057831401489,-1.0180404821978968,0.3408362567424774
1708437204.5329232,-1.1041721105575562,-1.6823002300658167,-2.527118508015768,2.280074043864868,-1.0179994742022913,0.34141576290130615
1708437204.5349095,-1.1042017936706543,-1.6822987995543421,-2.5271111170398157,2.280050440425537,-1.0179756323443812,0.3418593406677246
1708437204.5369046,-1.104138970375061,-1.6823317013182582,-2.5271571318255823,2.2800533014484863,-1.0179546515094202,0.34242770075798035
1708437204.5389588,-1.1041676998138428,-1.6823622188963832,-2.5270705858813685,2.280015392894409,-1.017979923878805,0.3429609537124634
1708437204.5409317,-1.1041507720947266,-1.682319780389303,-2.5270543734179896,2.280057831401489,-1.01793080965151,0.34334805607795715
1708437204.5429215,-1.1041796207427979,-1.6823169193663539,-2.527079407368795,2.280041380519531,-1.0179885069476526,0.3438405692577362
1708437204.5449705,-1.1042003631591797,-1.682315012017721,-2.5270424524890345,2.280019922847412,-1.0179718176471155,0.3442749083042145
1708437204.54695,-1.1042003631591797,-1.6823064289488734,-2.5270631949054163,2.2800606924244384,-1.0179761091815394,0.3447299301624298
1708437204.548981,-1.1042373180389404,-1.6823574505248011,-2.527026955281393,2.280074043864868,-1.01793080965151,0.34519654512405396
1708437204.5509448,-1.1041545867919922,-1.682319780389303,-2.5270350615130823,2.2801262575336914,-1.0179718176471155,0.34557127952575684
1708437204.5529158,-1.104204773902893,-1.682366510430807,-2.52702242532839,2.2801143366047363,-1.0179436842547815,0.3459809422492981
1708437204.554947,-1.104192852973938,-1.6823121509947718,-2.5270357767688196,2.280059261912964,-1.0179274717914026,0.3464953303337097
1708437204.556947,-1.1042211055755615,-1.6823364696898402,-2.526961628590719,2.280085964793823,-1.018012825642721,0.346802681684494
1708437204.5589569,-1.1042405366897583,-1.6823450527586878,-2.526994291936056,2.2800726133533935,-1.0179761091815394,0.3472520709037781
1708437204.560936,-1.1042449474334717,-1.682319780389303,-2.526973549519674,2.2800890642353515,-1.0179479757892054,0.3476070761680603
1708437204.5629277,-1.104249358177185,-1.6823450527586878,-2.5269537607776087,2.2801143366047363,-1.017907444630758,0.34800583124160767
1708437204.56494,-1.1042524576187134,-1.6823498211302699,-2.5269582907306116,2.2801293569752197,-1.0179031530963343,0.34838923811912537
1708437204.5669513,-1.1042649745941162,-1.6823317013182582,-2.5269582907306116,2.2800964552113037,-1.0179198423968714,0.3487931489944458
1708437204.5689514,-1.1042693853378296,-1.6822987995543421,-2.5269625822650355,2.2800845342823486,-1.017956558858053,0.34904494881629944
1708437204.5709279,-1.1042271852493286,-1.6822568378844203,-2.526970450078146,2.2801129060932617,-1.017911736165182,0.34940823912620544
1708437204.5729725,-1.1042931079864502,-1.682340761224264,-2.5269582907306116,2.2801217275806884,-1.0179608503924769,0.34973910450935364
1708437204.5749507,-1.104243516921997,-1.682291646996969,-2.5269222895251673,2.2801336485096435,-1.017907444630758,0.35005244612693787
1708437204.5769196,-1.1042931079864502,-1.6823035679259242,-2.526980225239889,2.2801262575336914,-1.0178588072406214,0.35044124722480774
1708437204.579005,-1.1042767763137817,-1.682295938531393,-2.5269222895251673,2.280111237163208,-1.0178707281695765,0.35069453716278076
1708437204.5809245,-1.1043094396591187,-1.682319780389303,-2.526971403752462,2.2801336485096435,-1.0178468863116663,0.3509891927242279
1708437204.582925,-1.1042842864990234,-1.682366510430807,-2.527053419743673,2.2801129060932617,-1.017900292073385,0.3512932062149048
1708437204.5849452,-1.1042962074279785,-1.682328840295309,-2.5269838015185755,2.280082865352295,-1.0178716818438929,0.35153865814208984
1708437204.5868962,-1.1042842864990234,-1.682291646996969,-2.5269957224475306,2.28013722478833,-1.0178511778460901,0.35182297229766846
1708437204.5889075,-1.1042635440826416,-1.6823121509947718,-2.52696401277651,2.280149145717285,-1.0178478399859827,0.35209834575653076
1708437204.5909367,-1.1043037176132202,-1.682286878625387,-2.5269838015185755,2.2801565366932373,-1.0178359190570276,0.3523496389389038
1708437204.5929387,-1.1043156385421753,-1.682324071923727,-2.5269463698016565,2.2801689344593505,-1.0178478399859827,0.35262206196784973
1708437204.594985,-1.1043452024459839,-1.682319780389303,-2.5269058386432093,2.280176563853882,-1.0178034941302698,0.35286015272140503
1708437204.5969365,-1.1043200492858887,-1.682246824304098,-2.526943031941549,2.2801646429249267,-1.0178607145892542,0.3530760109424591
1708437204.5989614,-1.1043363809585571,-1.682295938531393,-2.5269597212420862,2.2802046972462158,-1.0178402105914515,0.35328224301338196
1708437204.6009283,-1.1043771505355835,-1.682340761224264,-2.526980225239889,2.2801973062702636,-1.0178120771991175,0.35349929332733154
1708437204.602943,-1.1043740510940552,-1.6823121509947718,-2.526931111012594,2.280270739192627,-1.0178239981280726,0.3537505865097046
1708437204.6049542,-1.1043682098388672,-1.682295938531393,-2.526943031941549,2.2802092271992187,-1.0178402105914515,0.3539406657218933
1708437204.6069427,-1.104393482208252,-1.6823140583434046,-2.526938501988546,2.2802037435718994,-1.0178077856646937,0.3540918827056885
1708437204.608993,-1.104318618774414,-1.6823002300658167,-2.526968542729513,2.280240936870239,-1.017836872731344,0.35430750250816345
1708437204.6109252,-1.1043438911437988,-1.682279726068014,-2.5269058386432093,2.280263586635254,-1.0178120771991175,0.35445860028266907
1708437204.6129398,-1.1043305397033691,-1.682246824304098,-2.526951853428976,2.280240936870239,-1.017775837575094,0.3546503782272339
1708437204.614925,-1.104393482208252,-1.6822601757445277,-2.526910368596212,2.280303640956543,-1.0177796522723597,0.35481444001197815
1708437204.616948,-1.1043682098388672,-1.6822716198363246,-2.526943031941549,2.2802738386341552,-1.0178282896624964,0.35501521825790405
1708437204.6189322,-1.104421615600586,-1.682246824304098,-2.5269323031054896,2.2802485662647705,-1.0177839438067835,0.3551199734210968
1708437204.6209326,-1.1043801307678223,-1.6823140583434046,-2.526898447667257,2.280282660121582,-1.0177925268756312,0.35524696111679077
1708437204.622996,-1.104399561882019,-1.6822015247740687,-2.526935640965597,2.280278130168579,-1.0177434126483362,0.3554357588291168
1708437204.6249254,-1.104399561882019,-1.6822272739806117,-2.5269444624530237,2.2803310590931396,-1.0177519957171839,0.3555465638637543
1708437204.6269507,-1.104432225227356,-1.6823092899718226,-2.52690297762026,2.2802840906330566,-1.0177553335772913,0.35561996698379517
1708437204.6289341,-1.1044070720672607,-1.6822558842101039,-2.526923481618063,2.280324860210083,-1.0177519957171839,0.3558637797832489
1708437204.6309297,-1.1044689416885376,-1.6822973690428675,-2.526911799107687,2.2802766996571044,-1.0177724997149866,0.3559836447238922
1708437204.6329916,-1.1044397354125977,-1.6823002300658167,-2.526907269154684,2.280317469234131,-1.01774770418276,0.35613924264907837
1708437204.634954,-1.1044142246246338,-1.6822387180724085,-2.52690297762026,2.280333920116089,-1.0177486578570765,0.35622459650039673
1708437204.6369524,-1.1044689416885376,-1.6822229824461878,-2.5268831888781946,2.280362053508423,-1.0177443663226526,0.35636523365974426
1708437204.6389353,-1.1044927835464478,-1.6822434864439906,-2.526911799107687,2.2803665834614257,-1.0177400747882288,0.35646262764930725
1708437204.6409051,-1.1044808626174927,-1.6822363338866175,-2.526890579854147,2.280332489604614,-1.0177605787860315,0.35662245750427246
1708437204.6429527,-1.1045016050338745,-1.6822601757445277,-2.526890579854147,2.280378504390381,-1.0177529493915003,0.3567052483558655
1708437204.6449523,-1.1045210361480713,-1.6822434864439906,-2.526886288319723,2.2803889948078613,-1.0177605787860315,0.3567753732204437
1708437204.6469448,-1.1044971942901611,-1.6821938953795375,-2.526919190083639,2.2804059225269775,-1.01772386232485,0.35694608092308044
1708437204.6489656,-1.1045373678207397,-1.6822239361205042,-2.5268994013415735,2.2803844648548584,-1.0177109877215784,0.3570239841938019
1708437204.6509683,-1.1045328378677368,-1.68223299602651,-2.5269323031054896,2.2804149824329834,-1.0177205244647425,0.3571600615978241
1708437204.6529462,-1.104536533355713,-1.6822148762144984,-2.5269368330584925,2.2803799349018554,-1.017707649861471,0.3571779131889343
1708437204.6549406,-1.1045691967010498,-1.6822077236571253,-2.526878897343771,2.280388041133545,-1.0176876227008265,0.35732030868530273
1708437204.656935,-1.10451078414917,-1.6821910343565882,-2.5268951098071497,2.2804314333149414,-1.017745319996969,0.3574368357658386
1708437204.6589403,-1.1045396327972412,-1.682237287560934,-2.5269039312945765,2.2804433542438964,-1.0177000204669397,0.35753870010375977
1708437204.6609561,-1.1045767068862915,-1.6821652851500453,-2.5268710295306605,2.2804252344318847,-1.0177248159991663,0.3576316833496094
1708437204.662954,-1.1046136617660522,-1.68223299602651,-2.5268877188311976,2.2804459768482666,-1.0177162329303187,0.35771825909614563
1708437204.6649268,-1.1045974493026733,-1.682117601434225,-2.5268591086017054,2.280416412944458,-1.0176671187030237,0.3578501045703888
1708437204.6669405,-1.1045678853988647,-1.6821309528746546,-2.5268471876727503,2.28043715536084,-1.0176475683795374,0.3579981029033661
1708437204.6689475,-1.1046005487442017,-1.6821729145445765,-2.5268664995776575,2.280481739635132,-1.0176876227008265,0.3581181466579437
1708437204.6709104,-1.1045515537261963,-1.6821967564024867,-2.5268471876727503,2.28043715536084,-1.0176757017718714,0.35823631286621094
1708437204.6729538,-1.1046080589294434,-1.6820951900877894,-2.5269127527820032,2.280447407359741,-1.0177214781390589,0.3584097921848297
1708437204.6749763,-1.1046168804168701,-1.6821118793883265,-2.526896301900045,2.280430956477783,-1.0176671187030237,0.3584710955619812
1708437204.6769428,-1.1046080589294434,-1.6821443043150843,-2.5268548170672815,2.280489369029663,-1.0176637808429163,0.3586525022983551
1708437204.678946,-1.1046243906021118,-1.6821443043150843,-2.5268831888781946,2.2804972368427734,-1.017684284840719,0.35885462164878845
1708437204.680942,-1.104575514793396,-1.6821204624571742,-2.526851479207174,2.280493660564087,-1.0176389853106897,0.3590012490749359
1708437204.6829329,-1.1045711040496826,-1.6820980511107386,-2.526888672505514,2.2805062967487792,-1.0176766554461878,0.35914796590805054
1708437204.684926,-1.104641318321228,-1.68214811901235,-2.5268548170672815,2.2804927068897705,-1.0177086035357874,0.35936030745506287
1708437204.6869028,-1.1046442985534668,-1.6821371517577113,-2.5268426577197474,2.280452175731323,-1.017672363911764,0.3595369756221771
1708437204.6889384,-1.1045947074890137,-1.6821042499937953,-2.5268877188311976,2.2804593282886962,-1.0176108519183558,0.3596790134906769
1708437204.6908915,-1.104641318321228,-1.6821323833861292,-2.5268264452563685,2.2805136877247314,-1.0176971594439905,0.35983920097351074
1708437204.6929204,-1.104623556137085,-1.6820618114867152,-2.526878897343771,2.2805017667957763,-1.0176809469806116,0.36000263690948486
1708437204.6949892,-1.1046066284179688,-1.682134290734762,-2.526867930089132,2.2805091577717285,-1.0176518599139612,0.3601669669151306
1708437204.69697,-1.1046903133392334,-1.6821581325926722,-2.5268548170672815,2.280480070705078,-1.0176475683795374,0.3603748381137848
1708437204.6989992,-1.1046562194824219,-1.6820551357665003,-2.5268426577197474,2.2805299001881103,-1.0176809469806116,0.3605189621448517
1708437204.7009642,-1.1046812534332275,-1.6820665798582972,-2.5268426577197474,2.2805747228809814,-1.017672363911764,0.3607538044452667
1708437204.7029293,-1.1046562194824219,-1.682096620599264,-2.5268664995776575,2.2805449205585937,-1.0176714102374476,0.36092865467071533
1708437204.7049778,-1.104623556137085,-1.6821118793883265,-2.526876751576559,2.280491276378296,-1.0176885763751429,0.3612074553966522
1708437204.7069197,-1.1046725511550903,-1.6821042499937953,-2.5268591086017054,2.2804757791706542,-1.0176680723773401,0.36141398549079895
1708437204.7089977,-1.104640007019043,-1.682134290734762,-2.526884142552511,2.2804505068012695,-1.0176680723773401,0.361615926027298
1708437204.710924,-1.1046725511550903,-1.6821533642210902,-2.5268502871142786,2.280512257213257,-1.0176475683795374,0.3618720471858978
1708437204.712968,-1.1046562194824219,-1.6821533642210902,-2.526867930089132,2.2805449205585937,-1.0176475683795374,0.36214902997016907
1708437204.7149441,-1.1046355962753296,-1.6821161709227503,-2.5268471876727503,2.280524178142212,-1.0176799933062952,0.3623702824115753
1708437204.71695,-1.1047170162200928,-1.6821462116637171,-2.5268176237689417,2.2805403906055908,-1.0176919142352503,0.3626711070537567
1708437204.7189207,-1.104709506034851,-1.6821028194823207,-2.5268622080432337,2.2805046278187255,-1.0176594893084925,0.36300787329673767
1708437204.7209504,-1.104668140411377,-1.6821118793883265,-2.5268383661853235,2.2805864053913574,-1.0176714102374476,0.36333996057510376
1708437204.7229333,-1.1046398878097534,-1.6821238003172816,-2.526835266743795,2.2805210787006835,-1.0176432768451136,0.36356475949287415
1708437204.7249725,-1.1046442985534668,-1.6820908985533656,-2.5268753210650843,2.2805747228809814,-1.0177162329303187,0.3639254868030548
1708437204.726971,-1.1046725511550903,-1.6821533642210902,-2.526879851018087,2.2805403906055908,-1.0176962057696741,0.3642811179161072
1708437204.7289171,-1.1046606302261353,-1.6821071110167445,-2.526867930089132,2.280556841487549,-1.0176919142352503,0.3645508885383606
1708437204.7309291,-1.104697585105896,-1.6820699177184046,-2.5268920103656214,2.2805494505115966,-1.0177128950702112,0.36499854922294617
1708437204.7329159,-1.1046398878097534,-1.6821443043150843,-2.52692157426943,2.280556841487549,-1.0176876227008265,0.36534616351127625
1708437204.7349117,-1.1046606302261353,-1.6821729145445765,-2.526896301900045,2.2805256086536865,-1.0176962057696741,0.36567503213882446
1708437204.7369385,-1.1046398878097534,-1.6821614704527796,-2.5268591086017054,2.2804667192646484,-1.0176757017718714,0.36599236726760864
1708437204.738976,-1.1046154499053955,-1.6821400127806605,-2.5269203821765345,2.2804712492176513,-1.0177128950702112,0.36642757058143616
1708437204.7409396,-1.104599118232727,-1.68214811901235,-2.5268622080432337,2.2805463510700683,-1.0176876227008265,0.36687952280044556
1708437204.7429593,-1.104591727256775,-1.6821829281248988,-2.5268340746508997,2.2805136877247314,-1.0177205244647425,0.3673121929168701
1708437204.74495,-1.1046288013458252,-1.6821524105467738,-2.5268636385547083,2.28052727758374,-1.0176833311664026,0.3677268624305725
1708437204.7469494,-1.104559063911438,-1.6821967564024867,-2.5268831888781946,2.2804927068897705,-1.0177248159991663,0.3681575357913971
1708437204.748957,-1.1045842170715332,-1.6821595631041468,-2.5269082228290003,2.280435724849365,-1.0176876227008265,0.36860430240631104
1708437204.7509518,-1.1045515537261963,-1.682176252404684,-2.5268664995776575,2.280465527171753,-1.0177152792560022,0.36911267042160034
1708437204.75292,-1.1045078039169312,-1.682200094262594,-2.5268664995776575,2.28043715536084,-1.0177648703204554,0.36957642436027527
1708437204.7549136,-1.1044394969940186,-1.6822496853270472,-2.5269280115710657,2.2804340559193115,-1.0177391211139124,0.37012147903442383
1708437204.7569232,-1.1044645309448242,-1.6822897396483363,-2.526907269154684,2.280365152949951,-1.0177801291095179,0.37053021788597107
1708437204.7589595,-1.1044234037399292,-1.6822434864439906,-2.5269323031054896,2.280336781139038,-1.017796818410055,0.3710778057575226
1708437204.760941,-1.1044039726257324,-1.6822806797423304,-2.526923481618063,2.280353232020996,-1.0178001562701624,0.3715883791446686
1708437204.7629414,-1.1043757200241089,-1.6823035679259242,-2.526951853428976,2.2803429800220947,-1.0177839438067835,0.37207069993019104
1708437204.764926,-1.1042697429656982,-1.6823364696898402,-2.526898447667257,2.2802857595631103,-1.0178282896624964,0.3726467788219452
1708437204.7669175,-1.1043156385421753,-1.6823798618712367,-2.526951853428976,2.2802349764057617,-1.0177629629718226,0.37325942516326904
1708437204.7689292,-1.1042183637619019,-1.6824380360045375,-2.5269551912890833,2.280183716411255,-1.017836872731344,0.37384235858917236
1708437204.770913,-1.1041871309280396,-1.6824528179564417,-2.526968542729513,2.2801384168812255,-1.0178282896624964,0.3743516504764557
1708437204.7729216,-1.1041388511657715,-1.682411333123678,-2.526971403752462,2.2801689344593505,-1.0178402105914515,0.3749091625213623
1708437204.7749124,-1.1040881872177124,-1.6824757061400355,-2.5270162264453333,2.2801083761402587,-1.0178802649127405,0.37554049491882324
1708437204.7769833,-1.1040563583374023,-1.682519098321432,-2.5270074049579065,2.2800637918659667,-1.0178683439837855,0.3760996162891388
1708437204.7789378,-1.1039754152297974,-1.6825753651061,-2.5270031134234827,2.280028982753418,-1.0178716818438929,0.37669995427131653
1708437204.7809796,-1.1038790941238403,-1.6826039753355921,-2.526989761983053,2.2799181181141357,-1.0178917090045374,0.37731051445007324
1708437204.7829187,-1.1037285327911377,-1.6826683483519496,-2.5270350615130823,2.2798468309589843,-1.0179241339312952,0.37788352370262146
1708437204.7849267,-1.1037815809249878,-1.682687898675436,-2.5270751158343714,2.2797865110584716,-1.0179436842547815,0.3785613775253296
1708437204.7869146,-1.1035858392715454,-1.6827312908568324,-2.52710467973818,2.279714508647583,-1.017984692250387,0.3792479932308197
1708437204.7889895,-1.1034899950027466,-1.6827999554076136,-2.5271287600146692,2.2796684938618164,-1.0180242697345179,0.37988194823265076
1708437204.7909174,-1.103415846824646,-1.6828767261900843,-2.5270989576922815,2.2796172338673095,-1.0180233160602015,0.38061293959617615
1708437204.7929382,-1.1032050848007202,-1.6828962765135707,-2.5271199385272425,2.2795259195515136,-1.0180566946612757,0.38122260570526123
1708437204.7949467,-1.1031224727630615,-1.6829396686949671,-2.527172390614645,2.279421253795288,-1.0181048552142542,0.38197100162506104
1708437204.7969468,-1.1030399799346924,-1.683023592034811,-2.52714711824526,2.279287024135254,-1.0180795828448694,0.3826060891151428
1708437204.7989602,-1.1028331518173218,-1.6829892597594203,-2.527175251637594,2.279282494182251,-1.0181034247027796,0.3833000957965851
1708437204.8009415,-1.1026942729949951,-1.6831642589964808,-2.5271998087512415,2.2790817457386474,-1.0181320349322718,0.38405558466911316
1708437204.8029456,-1.1025145053863525,-1.6832286320128382,-2.5272026697741907,2.2789711195179443,-1.0181158224688929,0.3847978115081787
1708437204.8049436,-1.1022802591323853,-1.6832791767516078,-2.5273013750659388,2.2788559633442382,-1.018167797719137,0.3855028748512268
1708437204.8069227,-1.102134346961975,-1.6833273373045863,-2.5272372404681605,2.2787722784229736,-1.0182040373431605,0.3863247036933899
1708437204.8089507,-1.1018798351287842,-1.6833979092040003,-2.5273073355304163,2.2786525922962646,-1.0181868712054651,0.3870975077152252
1708437204.8109498,-1.1017178297042847,-1.6835280857481898,-2.527339045201437,2.2785095411488037,-1.018259350453512,0.38788050413131714
1708437204.8129473,-1.101514220237732,-1.6835743389525355,-2.527379576359884,2.2783610063740234,-1.018271271382467,0.3886990547180176
1708437204.8149266,-1.1013215780258179,-1.6836792431273402,-2.527428690587179,2.2781902986713867,-1.0182793776141565,0.3894694745540619
1708437204.8169155,-1.1010822057724,-1.6838036976256312,-2.5274527708636683,2.278120918864868,-1.0183399359332483,0.3901936709880829
1708437204.8189468,-1.1008284091949463,-1.6838628254332484,-2.52744704881777,2.277909680003784,-1.018334690724508,0.3909510672092438
1708437204.8209155,-1.1006265878677368,-1.6839705906310023,-2.527466599141256,2.2777673441120605,-1.018367115651266,0.39160650968551636
1708437204.8229117,-1.1003607511520386,-1.6840249500670375,-2.52751595178713,2.277578755015991,-1.0183942953692835,0.3923877775669098
1708437204.8249407,-1.1001091003417969,-1.6841465435423792,-2.5275757948504847,2.2774123388477783,-1.0184391180621546,0.39317938685417175
1708437204.8269095,-1.0998581647872925,-1.68426575283193,-2.527579132710592,2.277141495341919,-1.0184748808490198,0.3939116299152374
1708437204.8289254,-1.0995692014694214,-1.6843859157957972,-2.5276370684253138,2.2769955831715087,-1.0185273329364222,0.3947030007839203
1708437204.8309228,-1.0992279052734375,-1.684551855126852,-2.5276556650744837,2.2768170076557617,-1.0185955206500452,0.39551687240600586
1708437204.832916,-1.0990264415740967,-1.684641500512594,-2.527642313634054,2.2765835958668212,-1.0186556021319788,0.3963974118232727
1708437204.834909,-1.0986384153366089,-1.684749265710348,-2.527785364781515,2.27637164175,-1.0186784903155726,0.39719006419181824
1708437204.8369074,-1.0983517169952393,-1.6848780117430628,-2.5277515093432825,2.2762083250233154,-1.018714729939596,0.3979625999927521
1708437204.838929,-1.0980603694915771,-1.6850906811156214,-2.527799193059103,2.2759720522114257,-1.0187905470477503,0.3987889587879181
1708437204.840943,-1.097724199295044,-1.6852294407286585,-2.527827803288595,2.275752230281494,-1.0188472906695765,0.3996105194091797
1708437204.842978,-1.0974096059799194,-1.6853767834105433,-2.527884546910421,2.2755190569111328,-1.0188897291766565,0.40040358901023865
1708437204.8449514,-1.0970237255096436,-1.6855789623656214,-2.5279367605792444,2.2752391534992675,-1.01892596880068,0.40131640434265137
1708437204.8469229,-1.0966607332229614,-1.6857325039305628,-2.527984921132223,2.274976893062256,-1.019006077443258,0.4020734429359436
1708437204.848947,-1.0962352752685547,-1.6858955822386683,-2.5279749075519007,2.274655266399048,-1.0190423170672815,0.4029770791530609
1708437204.850919,-1.0958973169326782,-1.6860634289183558,-2.528031651173727,2.274301453227661,-1.0191023985492151,0.40373319387435913
1708437204.852971,-1.095456600189209,-1.6863161526122035,-2.5280707518206995,2.2740797239490966,-1.0191620031939905,0.4046453833580017
1708437204.854968,-1.0950521230697632,-1.6864706478514613,-2.5281408468829554,2.2738117414661865,-1.0191777388202112,0.4054547846317291
1708437204.8569288,-1.0946487188339233,-1.686719080010885,-2.5281923452960413,2.2735187250324707,-1.019184414540426,0.40626510977745056
1708437204.8589697,-1.0941598415374756,-1.686939378777975,-2.5282235781299036,2.2731236654468994,-1.0192979017840784,0.40703096985816956
1708437204.860952,-1.0936996936798096,-1.6872531376280726,-2.528304402028219,2.27275197088208,-1.0193622748004358,0.4078596532344818
1708437204.8629467,-1.0931384563446045,-1.6874338589110316,-2.5283404032336634,2.272371216411255,-1.0194256941424769,0.40865761041641235
1708437204.8649817,-1.0926755666732788,-1.6877466640868128,-2.528417174016134,2.2719873624989013,-1.0195015112506312,0.4095047116279602
1708437204.8669431,-1.09212064743042,-1.6879188023009242,-2.5284560362445276,2.27164809286084,-1.0195453802691858,0.41030216217041016
1708437204.868956,-1.0915955305099487,-1.6881824932494105,-2.5284996668445032,2.2712558942982177,-1.0196049849139612,0.4111385941505432
1708437204.8709536,-1.0910028219223022,-1.6884681187071742,-2.5285893122302454,2.2709545332142334,-1.019648853932516,0.4120185375213623
1708437204.8729582,-1.0904384851455688,-1.6887875996031703,-2.528665844594137,2.270557089442871,-1.0197857061969202,0.4128754138946533
1708437204.8749323,-1.0899120569229126,-1.6890350780882777,-2.528712336217062,2.270143910045288,-1.0198090712176722,0.4136675298213959
1708437204.8769596,-1.0892393589019775,-1.6893655262389125,-2.5287888685809534,2.2697033125111084,-1.01992112794985,0.41451749205589294
1708437204.8789344,-1.088545560836792,-1.689685960809225,-2.528848711644308,2.2692574697681884,-1.0199840704547327,0.4153810143470764
1708437204.880928,-1.0879347324371338,-1.6899553738036097,-2.5288835207568567,2.268826885814331,-1.0200851599322718,0.41621479392051697
1708437204.8829293,-1.087234377861023,-1.6903087101378382,-2.5289347807513636,2.268322153682373,-1.0201929251300257,0.4170176684856415
1708437204.8849194,-1.0865719318389893,-1.690606256524557,-2.5290165583239954,2.2678651052662353,-1.0202487150775355,0.41785261034965515
1708437204.8869436,-1.085805892944336,-1.6909877262511195,-2.5290513674365442,2.26728264867749,-1.0203283468829554,0.4187549650669098
1708437204.8889568,-1.085118293762207,-1.6912733517088832,-2.529168192540304,2.2667712408253173,-1.020383659993307,0.41963356733322144
1708437204.890903,-1.08440363407135,-1.691662927667135,-2.529222551976339,2.2662505346485595,-1.0204675833331507,0.4204398989677429
1708437204.8929257,-1.0835827589035034,-1.6920176945128382,-2.5293524901019495,2.265679045314453,-1.0205438772784632,0.4213174283504486
1708437204.894937,-1.0828136205673218,-1.6923681698241175,-2.529400412236349,2.2651397424885253,-1.0206883589373987,0.42214667797088623
1708437204.897049,-1.0820356607437134,-1.6927596531310023,-2.5294626394854944,2.2645644384571533,-1.0207646528827112,0.42301908135414124
1708437204.8989708,-1.0811994075775146,-1.6931101284422816,-2.529579226170675,2.2639590936848144,-1.0207789579974573,0.4238367974758148
1708437204.9009385,-1.080383539199829,-1.6935330830016078,-2.5297260920154017,2.2634784418293457,-1.0208595434771937,0.42469820380210876
1708437204.9029665,-1.0794382095336914,-1.6939317188658656,-2.529759232197897,2.2628320890614013,-1.0209062735186976,0.42552390694618225
1708437204.9049346,-1.0785239934921265,-1.6944104633727015,-2.5298879782306116,2.262155218715332,-1.021059815083639,0.42631077766418457
1708437204.906954,-1.0776281356811523,-1.6948071918883265,-2.5299764315234583,2.2616142469593505,-1.0211594740497034,0.42718037962913513
1708437204.9089632,-1.076754093170166,-1.6952187023558558,-2.5300753752337855,2.2609075742908935,-1.0211580435382288,0.4280540943145752
1708437204.9109337,-1.0757410526275635,-1.695625444451803,-2.5301478544818323,2.2602662283131103,-1.0212629477130335,0.42883357405662537
1708437204.9129994,-1.0747830867767334,-1.6960693798460902,-2.530325714741842,2.2595597940632324,-1.0212896505938929,0.4296760857105255
1708437204.9149272,-1.0738136768341064,-1.6965743503966273,-2.530351702366964,2.2589077192493896,-1.0213540236102503,0.430526465177536
1708437204.9169328,-1.0728062391281128,-1.6970392666258753,-2.53050405183901,2.2581838804432373,-1.0214789549456995,0.43140891194343567
1708437204.918982,-1.0717353820800781,-1.6974975071349085,-2.530588452016012,2.2574009138294677,-1.021545712147848,0.4322185218334198
1708437204.9209173,-1.070753574371338,-1.6980301342406214,-2.530696455632345,2.256696863765381,-1.0216863791095179,0.4330492913722992
1708437204.922964,-1.069678544998169,-1.6985494099059046,-2.530832592641012,2.2559196191975097,-1.0217536131488245,0.4339202344417572
1708437204.924909,-1.0685195922851562,-1.699092527429098,-2.530956808720724,2.2552189069935302,-1.0218375364886683,0.4347330629825592
1708437204.9269226,-1.0674502849578857,-1.6995326481261195,-2.53099495569338,2.2543105322071533,-1.0219538847552698,0.4355495274066925
1708437204.9289286,-1.0663689374923706,-1.700113912621969,-2.531180445347921,2.2535814481922607,-1.022041145955221,0.4363797903060913
1708437204.9309244,-1.0652257204055786,-1.7006341419615687,-2.531309429799215,2.2528602319904785,-1.0221737066852015,0.43721839785575867
1708437204.9329636,-1.0641143321990967,-1.7012068233885707,-2.5314038435565394,2.2520150381275634,-1.0222533384906214,0.4380583167076111
1708437204.9349144,-1.0628224611282349,-1.7018057308592738,-2.5314956347094935,2.251110239619873,-1.022416893635885,0.4387800991535187
1708437204.9369235,-1.0617038011550903,-1.7023731670775355,-2.5316081682788294,2.250298424358032,-1.0224927107440394,0.4396004378795624
1708437204.9389162,-1.0604761838912964,-1.702998777429098,-2.5317116419421595,2.2494401174732666,-1.0226362387286585,0.44044479727745056
1708437204.9409156,-1.059248685836792,-1.7036110363402308,-2.5318480173694056,2.248562975520752,-1.0227721373187464,0.44117993116378784
1708437204.9429812,-1.0580157041549683,-1.704203268090719,-2.5320051352130335,2.247654600734375,-1.022888485585348,0.4419791102409363
1708437204.9449182,-1.0567513704299927,-1.704850812951559,-2.532123867665426,2.2467683988758544,-1.0229352156268519,0.44277259707450867
1708437204.9469483,-1.0554646253585815,-1.705477853814596,-2.532224241887228,2.2458552557178955,-1.0230711142169397,0.44362103939056396
1708437204.9489326,-1.0542099475860596,-1.7060829601683558,-2.5323308149920862,2.244931860561035,-1.0231993834124964,0.44433027505874634
1708437204.9509254,-1.0528311729431152,-1.7067882023253382,-2.5324960390674036,2.2440456587025146,-1.0233357588397425,0.4451417028903961
1708437204.9529603,-1.0516066551208496,-1.7073914013304652,-2.5326157251941126,2.243056460017822,-1.0234435240374964,0.44588229060173035
1708437204.954914,-1.0501888990402222,-1.7080780468382777,-2.5327327887164515,2.2421464163013916,-1.0235345999347132,0.4467409551143646
1708437204.9569309,-1.0487927198410034,-1.7087537250914515,-2.5328810850726526,2.2411162096210937,-1.0236786047564905,0.4475235044956207
1708437204.95894,-1.047347903251648,-1.709386488000387,-2.533020559941427,2.2402071195789794,-1.0237820784198206,0.44833868741989136
1708437204.960938,-1.045985221862793,-1.7100893459715785,-2.533116404210226,2.2391607004353027,-1.0239179770099085,0.4490708112716675
1708437204.9629538,-1.0445274114608765,-1.7108293972411097,-2.5332351366626185,2.238137407893799,-1.0240543524371546,0.44994303584098816
1708437204.9649594,-1.0430479049682617,-1.7116033039488734,-2.5333998839007776,2.2371012407490234,-1.024198357258932,0.45074987411499023
1708437204.966972,-1.0415711402893066,-1.7122842274107875,-2.5335319677936,2.2361032205769042,-1.0243123213397425,0.4515232443809509
1708437204.9689388,-1.0400280952453613,-1.7130218944945277,-2.53369647661318,2.235064907664917,-1.0244858900653284,0.4523259997367859
1708437204.9709156,-1.038540005683899,-1.713822980920309,-2.5337958971606653,2.2340125280567626,-1.0245803038226526,0.45304247736930847
1708437204.9729357,-1.036947250366211,-1.7145739994444789,-2.5339561144458216,2.233006163234375,-1.0246880690204065,0.45382142066955566
1708437204.9749153,-1.03541100025177,-1.715335031548971,-2.534095589314596,2.2318853574940185,-1.0248811880694788,0.45455148816108704
1708437204.9769454,-1.0337830781936646,-1.7160965404906214,-2.534266773854391,2.230785055751465,-1.0249608198748987,0.4553185701370239
1708437204.9789262,-1.0322649478912354,-1.7168804607787074,-2.534469191228048,2.229702873820923,-1.0250638167010706,0.4560162425041199
1708437204.9809222,-1.0305757522583008,-1.7176629505553187,-2.5346530119525355,2.2285331922718505,-1.0251968542682093,0.456757515668869
1708437204.9829936,-1.0289597511291504,-1.718377252618307,-2.534797016774313,2.2274045187183837,-1.0252631346331995,0.45758965611457825
1708437204.9849432,-1.0272961854934692,-1.7192045650877894,-2.5348623434649866,2.2262541490742187,-1.0253470579730433,0.4583165645599365
1708437204.986947,-1.025566816329956,-1.7200356922545375,-2.535072151814596,2.2250422674366455,-1.0254963080035608,0.45915141701698303
1708437204.9889426,-1.0238815546035767,-1.7209450207152308,-2.5352354685412806,2.2238704401203613,-1.0255864302264612,0.4598292112350464
1708437204.990918,-1.0221580266952515,-1.7216860256590785,-2.5354371706592005,2.2226764398762207,-1.0257390181170862,0.46065154671669006
1708437204.9929342,-1.0204286575317383,-1.722532411614889,-2.5355966726886194,2.221489115352295,-1.025870148335592,0.46138468384742737
1708437204.9949145,-1.0186707973480225,-1.7234331570067347,-2.535752836857931,2.220294399852417,-1.0259431044207972,0.46221470832824707
1708437204.996958,-1.016908884048462,-1.7242895565428675,-2.5358622709857386,2.219008131618164,-1.0261028448687952,0.46294474601745605
1708437204.9989388,-1.0150705575942993,-1.725135942498678,-2.536088291798727,2.2177461820789794,-1.026243034993307,0.46365347504615784
1708437205.0009267,-1.0132192373275757,-1.7260471783080042,-2.5362311045276087,2.216402454967163,-1.0263617674456995,0.46445226669311523
1708437205.0029318,-1.0113176107406616,-1.7269236050047816,-2.536419932042257,2.2151354986378173,-1.0265339056598108,0.46522262692451477
1708437205.004951,-1.0095117092132568,-1.7278591595091761,-2.5366204420672815,2.2138804632374267,-1.0266221205340784,0.46591711044311523
1708437205.0069222,-1.0076673030853271,-1.7287241421141566,-2.5367677847491663,2.212602062816284,-1.0267942587481897,0.4666721522808075
1708437205.008952,-1.0057134628295898,-1.7297684154906214,-2.5369957129107874,2.211364193553589,-1.0268848578082483,0.4673674404621124
1708437205.0109344,-1.0037734508514404,-1.7307216129698695,-2.537175957356588,2.2100588518330078,-1.027053181325094,0.46814319491386414
1708437205.0129437,-1.0018565654754639,-1.7316137752928675,-2.537351195012228,2.2087477880665283,-1.027205769215719,0.4688280522823334
1708437205.0149295,-0.9998356699943542,-1.7326542339720667,-2.5375893751727503,2.2073582845875244,-1.0273526350604456,0.46951714158058167
1708437205.0169332,-0.997912585735321,-1.7336060009398402,-2.5377262274371546,2.2060176569172363,-1.0274999777423304,0.4702582061290741
1708437205.0189576,-0.9958810806274414,-1.7346445522704066,-2.537926975880758,2.2046374517628173,-1.0276029745685022,0.4708779454231262
1708437205.0209327,-0.9938799142837524,-1.7356063328185023,-2.538098160420553,2.203228397960327,-1.0278165976153772,0.47163406014442444
1708437205.022926,-0.9918418526649475,-1.7366820774474085,-2.538294855748312,2.2018918234058837,-1.0279925505267542,0.47239819169044495
1708437205.02495,-0.9898396730422974,-1.7376858196654261,-2.5385072867022913,2.2004400926777343,-1.0280869642840784,0.47305718064308167
