Eg3-git/Classifiers/Data Collection/u5/u5cir5_ur3e_joint_states.csv
time,elbow_joint,shoulder_lift_joint,shoulder_pan_joint,wrist_1_joint,wrist_2_joint,wrist_3_joint
1708437310.1332781,-1.1474047899246216,-1.659170766870016,-2.52226430574526,2.323768063182495,-1.009207550679342,0.25968480110168457
1708437310.1352484,-1.147359013557434,-1.659109731713766,-2.5222349802600306,2.323784514064453,-1.0091818014727991,0.2596565783023834
1708437310.1372757,-1.1474047899246216,-1.6591378651061,-2.522268597279684,2.323707028026245,-1.009174648915426,0.2596399486064911
1708437310.1392465,-1.147351622581482,-1.659170766870016,-2.52226430574526,2.3237637716480712,-1.009211842213766,0.2596522569656372
1708437310.1413572,-1.1473679542541504,-1.6591202221312464,-2.5222600142108362,2.323796434993408,-1.009207550679342,0.25969353318214417
1708437310.1432986,-1.1473679542541504,-1.6591054401793421,-2.5222435633288782,2.323743982906006,-1.0092280546771448,0.25965967774391174
1708437310.1452794,-1.1474248170852661,-1.6591507397093714,-2.5222318808185022,2.323727770442627,-1.009211842213766,0.25973400473594666
1708437310.1472602,-1.1473798751831055,-1.6591946087279261,-2.522273127232687,2.323739691371582,-1.009195629750387,0.2596193552017212
1708437310.149282,-1.147387146949768,-1.659128328362936,-2.52226430574526,2.32375614225354,-1.009223763142721,0.2596522569656372
1708437310.1512885,-1.1474292278289795,-1.6591335735716761,-2.5222154299365442,2.3237265783497314,-1.0092147032367151,0.2596728801727295
1708437310.1532967,-1.1473798751831055,-1.6591664753355921,-2.5223014990436,2.3236862856098632,-1.00917894044985,0.25966978073120117
1708437310.1553845,-1.1473841667175293,-1.6591245136656703,-2.5222883860217493,2.323739691371582,-1.0092209021197718,0.2597058117389679
1708437310.1574032,-1.1473827362060547,-1.6591831646361292,-2.5223057905780237,2.323739691371582,-1.0092280546771448,0.25971901416778564
1708437310.1593056,-1.1473798751831055,-1.659163614312643,-2.522268597279684,2.32375614225354,-1.009207550679342,0.2596685290336609
1708437310.1612868,-1.1474130153656006,-1.6591574154295863,-2.522280518208639,2.323772593135498,-1.009195629750387,0.2597101926803589
1708437310.1632981,-1.1474084854125977,-1.65916170696401,-2.5222719351397913,2.323727770442627,-1.0091865698443812,0.25967729091644287
1708437310.1652875,-1.1474130153656006,-1.6591741047301234,-2.522248093281881,2.32369510709729,-1.0092328230487269,0.2596192955970764
1708437310.1672928,-1.1473915576934814,-1.659159322778219,-2.5222719351397913,2.3237475591846923,-1.0091865698443812,0.25969356298446655
1708437310.1692734,-1.1473960876464844,-1.6591202221312464,-2.5223093668567103,2.3237857061573486,-1.0092161337481897,0.2596355974674225
1708437310.171238,-1.1474173069000244,-1.6591369114317835,-2.5222719351397913,2.323788805598877,-1.0091880003558558,0.25968608260154724
1708437310.1732907,-1.147376537322998,-1.659170766870016,-2.5222435633288782,2.3237265783497314,-1.00917894044985,0.25966405868530273
1708437310.1752386,-1.1474047899246216,-1.6590963802733363,-2.522334162388937,2.3238019186207275,-1.009207550679342,0.2596803605556488
1708437310.1772764,-1.147376537322998,-1.6591574154295863,-2.5222719351397913,2.323711557979248,-1.009195629750387,0.25967732071876526
1708437310.1792686,-1.1474090814590454,-1.65916170696401,-2.5222840944873255,2.3237189489552,-1.009207550679342,0.2596684992313385
1708437310.1812513,-1.1473841667175293,-1.6590663395323695,-2.5222719351397913,2.3237637716480712,-1.0092280546771448,0.2596355378627777
1708437310.183274,-1.1473841667175293,-1.65916170696401,-2.5223014990436,2.3237039285847167,-1.009211842213766,0.259623646736145
1708437310.1852496,-1.1474047899246216,-1.6591335735716761,-2.522313658391134,2.323784514064453,-1.0091984907733362,0.2597102224826813
1708437310.1872761,-1.1473679542541504,-1.6591664753355921,-2.5222674051867884,2.3237594801136474,-1.009211842213766,0.2595920264720917
1708437310.1892464,-1.1473809480667114,-1.659142633477682,-2.522297207509176,2.323776884669922,-1.0092161337481897,0.25968173146247864
1708437310.1913002,-1.1473603248596191,-1.6591378651061,-2.5222719351397913,2.323760672206543,-1.009261433278219,0.2596488296985626
1708437310.1932838,-1.1473928689956665,-1.6591202221312464,-2.5223093668567103,2.323743982906006,-1.00920278230776,0.259678453207016
1708437310.1953018,-1.1473560333251953,-1.6591831646361292,-2.522313658391134,2.323772354716919,-1.0092733542071741,0.25961175560951233
1708437310.197296,-1.147347331047058,-1.6591574154295863,-2.5222883860217493,2.3237528043934326,-1.00920278230776,0.25961923599243164
1708437310.199343,-1.1473841667175293,-1.6591416798033656,-2.522280518208639,2.3237594801136474,-1.009261433278219,0.25958216190338135
1708437310.2012749,-1.1473884582519531,-1.6592070064940394,-2.5222893396960657,2.3237475591846923,-1.0092147032367151,0.25964438915252686
1708437310.2032983,-1.1473560333251953,-1.6591202221312464,-2.522276226674215,2.3236865240284423,-1.009223763142721,0.2596192955970764
1708437310.2052636,-1.1473722457885742,-1.6591245136656703,-2.5222883860217493,2.323772593135498,-1.00920278230776,0.25965216755867004
1708437310.207268,-1.1473885774612427,-1.6591788731017054,-2.522317949925558,2.323727770442627,-1.0092690626727503,0.25962498784065247
1708437310.2092679,-1.147351622581482,-1.6591788731017054,-2.522313658391134,2.3237475591846923,-1.0092571417437952,0.259628027677536
1708437310.2113807,-1.1473679542541504,-1.6591054401793421,-2.5222554842578333,2.323743982906006,-1.0091984907733362,0.25964879989624023
1708437310.2132483,-1.1473603248596191,-1.6591125927367152,-2.5223093668567103,2.3237265783497314,-1.0092194716082972,0.25964877009391785
1708437310.21529,-1.1473722457885742,-1.6591459713377894,-2.5223093668567103,2.323760672206543,-1.0092313925372522,0.25966978073120117
1708437310.217245,-1.1473928689956665,-1.6591440639891566,-2.522280518208639,2.323788805598877,-1.0092399756061,0.2596399486064911
1708437310.2192595,-1.147347331047058,-1.6591664753355921,-2.522280518208639,2.323727770442627,-1.0091937224017542,0.2596566081047058
1708437310.2212286,-1.1473441123962402,-1.6591292820372523,-2.5222719351397913,2.32375614225354,-1.0092571417437952,0.2596356272697449
1708437310.223257,-1.1473798751831055,-1.6591698131956996,-2.5222719351397913,2.3237265783497314,-1.0092480818377894,0.25963249802589417
1708437310.2252445,-1.1473428010940552,-1.6591664753355921,-2.522325579320089,2.323743982906006,-1.009240452443258,0.2597058415412903
1708437310.2272458,-1.1473852396011353,-1.6591292820372523,-2.522346321736471,2.323743982906006,-1.0092852751361292,0.259681761264801
1708437310.229237,-1.1473722457885742,-1.6590963802733363,-2.5222752729998987,2.3237475591846923,-1.0092266241656702,0.25968173146247864
1708437310.2312536,-1.147376537322998,-1.6591698131956996,-2.5222554842578333,2.323715849513672,-1.0092642943011683,0.2596205770969391
1708437310.23325,-1.1473603248596191,-1.6591416798033656,-2.5222883860217493,2.3237246710010986,-1.0092733542071741,0.25957876443862915
1708437310.2352762,-1.1473321914672852,-1.6591574154295863,-2.5223124662982386,2.3236822324940185,-1.0092642943011683,0.25958681106567383
1708437310.2372482,-1.1473441123962402,-1.6591459713377894,-2.5223014990436,2.323723478908203,-1.0092600027667444,0.25963687896728516
1708437310.239297,-1.147335410118103,-1.659203668633932,-2.5222962538348597,2.323727770442627,-1.0092719236956995,0.2596609890460968
1708437310.2413197,-1.147352695465088,-1.6591369114317835,-2.522276226674215,2.323751850719116,-1.0092809836017054,0.2596609592437744
1708437310.2433066,-1.147336483001709,-1.6591416798033656,-2.5222674051867884,2.323727770442627,-1.0092600027667444,0.2595832943916321
1708437310.2453527,-1.1473195552825928,-1.6591369114317835,-2.522276226674215,2.3237320619770507,-1.0092719236956995,0.25961482524871826
1708437310.2472658,-1.1473240852355957,-1.6591550312437953,-2.5222962538348597,2.323739691371582,-1.0092762152301233,0.259628027677536
1708437310.249262,-1.147328495979309,-1.6591946087279261,-2.5222752729998987,2.323715849513672,-1.0093300978290003,0.2596086859703064
1708437310.2512615,-1.147341012954712,-1.6591483555235804,-2.522325579320089,2.323739691371582,-1.0093167463885706,0.25964879989624023
1708437310.2533357,-1.1472746133804321,-1.659170766870016,-2.5222511927234095,2.323690815562866,-1.0093286673175257,0.25966981053352356
1708437310.255314,-1.1472989320755005,-1.6591574154295863,-2.5222883860217493,2.3236710268208007,-1.0093568007098597,0.2596443295478821
1708437310.2573137,-1.1473240852355957,-1.6591574154295863,-2.5222840944873255,2.323666735286377,-1.0093343893634241,0.2595999538898468
1708437310.259256,-1.1473616361618042,-1.659163614312643,-2.5222962538348597,2.323682947749756,-1.0093568007098597,0.2596161961555481
1708437310.2612472,-1.1472915410995483,-1.65910067180776,-2.5222631136523646,2.3237365919300537,-1.009381119404928,0.259628027677536
1708437310.2632809,-1.1473283767700195,-1.6592160664000453,-2.522325579320089,2.323699637050293,-1.009322468434469,0.2596205770969391
1708437310.2652748,-1.1473078727722168,-1.6591531238951625,-2.5222962538348597,2.3237082201191406,-1.0093515555011194,0.2596619129180908
1708437310.2672746,-1.147332787513733,-1.6591068706908167,-2.5223124662982386,2.323711557979248,-1.00938588777651,0.25967416167259216
1708437310.2692714,-1.1472833156585693,-1.6591416798033656,-2.5223048369037073,2.323711557979248,-1.0093515555011194,0.2596162259578705
1708437310.2712595,-1.1473002433776855,-1.6591574154295863,-2.5222719351397913,2.3237082201191406,-1.0093343893634241,0.2596399486064911
1708437310.2732704,-1.1473002433776855,-1.6592070064940394,-2.5222631136523646,2.323678656215332,-1.0093720594989222,0.25964564085006714
1708437310.2752495,-1.1472759246826172,-1.65916170696401,-2.5222840944873255,2.3236798483082275,-1.0093768278705042,0.25964561104774475
1708437310.2772694,-1.1473090648651123,-1.6591903171935023,-2.5222554842578333,2.323674364680908,-1.009381119404928,0.2595999240875244
1708437310.2792451,-1.1472959518432617,-1.6592565975584925,-2.5222883860217493,2.3237084585377197,-1.0093720594989222,0.25966542959213257
1708437310.2812455,-1.1473002433776855,-1.6591655216612757,-2.5222631136523646,2.323682947749756,-1.0094259420977991,0.25965753197669983
1708437310.283252,-1.1472833156585693,-1.6591855488219203,-2.522276226674215,2.3237528043934326,-1.0093377272235315,0.25966978073120117
1708437310.2852461,-1.1472833156585693,-1.6591788731017054,-2.5222719351397913,2.3237201410480957,-1.0094006697284144,0.2596117854118347
1708437310.287271,-1.147332787513733,-1.6591369114317835,-2.5223048369037073,2.3237127500721435,-1.0093587080584925,0.2596117854118347
1708437310.2892544,-1.1472433805465698,-1.6592279873290003,-2.522297207509176,2.3237201410480957,-1.0093753973590296,0.25966978073120117
1708437310.2913332,-1.1472878456115723,-1.6591397724547328,-2.5222883860217493,2.3236874777027587,-1.0094288031207483,0.2596531808376312
1708437310.2933075,-1.1472846269607544,-1.6592112980284632,-2.5223124662982386,2.3237246710010986,-1.0094078222857874,0.2596161961555481
1708437310.2953634,-1.14730966091156,-1.6592322788634242,-2.5222883860217493,2.3237170416065673,-1.0094006697284144,0.2596162259578705
1708437310.2973218,-1.147234559059143,-1.6591812572874964,-2.522292677556173,2.323650522822998,-1.0093796888934534,0.25964125990867615
1708437310.2993,-1.1472759246826172,-1.6591764889159144,-2.522325579320089,2.3236679273792724,-1.0093181769000452,0.2596249580383301
1708437310.3013043,-1.1472759246826172,-1.6591936550536097,-2.522292677556173,2.3236591058918457,-1.0094006697284144,0.259604275226593
1708437310.3032894,-1.147230863571167,-1.6592680416502894,-2.5223212877856653,2.323692961330078,-1.0093510786639612,0.259608656167984
1708437310.3053186,-1.1472115516662598,-1.6591607532896937,-2.5223005453692835,2.3235816198536376,-1.0093796888934534,0.259575754404068
1708437310.3073494,-1.147252082824707,-1.6591741047301234,-2.5223329702960413,2.3236514764973144,-1.0093091169940394,0.2596249580383301
1708437310.3093078,-1.147269606590271,-1.659201284448141,-2.5223048369037073,2.3236231046864013,-1.0093634764300745,0.2596500813961029
1708437310.3113685,-1.1471909284591675,-1.659201284448141,-2.5223048369037073,2.323692961330078,-1.0093959013568323,0.25962188839912415
1708437310.3133016,-1.1472071409225464,-1.6592298946776332,-2.522270981465475,2.323636217708252,-1.0094049612628382,0.2596161961555481
1708437310.315299,-1.1472201347351074,-1.659208437005514,-2.5223212877856653,2.32359163343396,-1.0093720594989222,0.25962933897972107
1708437310.3172839,-1.1472201347351074,-1.6592494450011195,-2.5223081747638147,2.3235904413410644,-1.0093587080584925,0.259613037109375
1708437310.3193033,-1.1471964120864868,-1.6592985592284144,-2.5222752729998987,2.323640747661255,-1.0093887487994593,0.259613037109375
1708437310.3213155,-1.1471996307373047,-1.6592561207213343,-2.5222883860217493,2.3236002165028076,-1.0093839804278772,0.25963687896728516
1708437310.3232994,-1.1472320556640625,-1.6592685184874476,-2.522313658391134,2.3236285883137207,-1.0093091169940394,0.2596162259578705
1708437310.3253121,-1.1472364664077759,-1.6593433819212855,-2.5222883860217493,2.3235391813465576,-1.0093467871295374,0.25964123010635376
1708437310.3272915,-1.1471877098083496,-1.6592985592284144,-2.5222883860217493,2.32353584348645,-1.0093391577350062,0.259613037109375
1708437310.3293374,-1.1472039222717285,-1.6593429050841273,-2.5223167578326624,2.3235718446918945,-1.0094006697284144,0.259604275226593
1708437310.3312898,-1.1472364664077759,-1.6593386135497035,-2.5222674051867884,2.3235391813465576,-1.0093634764300745,0.259613037109375
1708437310.3333142,-1.1472277641296387,-1.6593085728087367,-2.5223167578326624,2.3235599237629394,-1.0093753973590296,0.2596619129180908
1708437310.3352675,-1.1472364664077759,-1.6593333683409632,-2.5223212877856653,2.323509617442749,-1.0093544165240687,0.25959640741348267
1708437310.33732,-1.1472439765930176,-1.659299989739889,-2.5222962538348597,2.3235437112995605,-1.0094049612628382,0.2596293091773987
1708437310.3392904,-1.1472071409225464,-1.6593824825682582,-2.5223005453692835,2.323629780406616,-1.0093873182879847,0.25962933897972107
1708437310.3413227,-1.1472234725952148,-1.6593042812743128,-2.5223005453692835,2.323601408595703,-1.0093839804278772,0.259613037109375
1708437310.3433301,-1.1472439765930176,-1.6593295536436976,-2.5222840944873255,2.3236121374317626,-1.0093839804278772,0.259608656167984
1708437310.3453147,-1.1472158432006836,-1.65932097057485,-2.5223124662982386,2.323552294368408,-1.0093300978290003,0.259604275226593
1708437310.3473077,-1.1472526788711548,-1.6593734226622523,-2.5223286787616175,2.3235928255268554,-1.0093510786639612,0.25964125990867615
1708437310.3493214,-1.147245168685913,-1.6593090496458949,-2.5222838560687464,2.3235718446918945,-1.0093677679644983,0.2596500515937805
1708437310.3513422,-1.1472245454788208,-1.659299989739889,-2.522325579320089,2.3235556322285156,-1.0093839804278772,0.2596205770969391
1708437310.3533003,-1.1471790075302124,-1.6593533955016078,-2.5223124662982386,2.3235108095356445,-1.0093677679644983,0.2595594525337219
1708437310.3553123,-1.147174596786499,-1.6593176327147425,-2.5222631136523646,2.3235480028339843,-1.0093634764300745,0.25959545373916626
1708437310.357295,-1.1472126245498657,-1.659349103967184,-2.5223048369037073,2.323601408595703,-1.0093634764300745,0.2595920264720917
1708437310.3593166,-1.1472526788711548,-1.6592642269530238,-2.522325579320089,2.3235959249683837,-1.0093839804278772,0.2596161961555481
1708437310.361364,-1.1472364664077759,-1.659349103967184,-2.5223167578326624,2.323617859477661,-1.0093343893634241,0.2596619129180908
1708437310.3633068,-1.1472245454788208,-1.6593386135497035,-2.5223212877856653,2.3235630232044677,-1.0093300978290003,0.25958767533302307
1708437310.3652937,-1.1472082138061523,-1.6593224010863246,-2.5223329702960413,2.323526306743286,-1.0093300978290003,0.25962933897972107
1708437310.3672884,-1.1472495794296265,-1.6593343220152796,-2.5223014990436,2.3235391813465576,-1.0093887487994593,0.2596205770969391
1708437310.369292,-1.1472288370132446,-1.6593224010863246,-2.5223005453692835,2.3235718446918945,-1.0093544165240687,0.2596205770969391
1708437310.3712952,-1.1472245454788208,-1.6593266926207484,-2.5222469011889856,2.3236209589191894,-1.009381119404928,0.2595832943916321
1708437310.3733137,-1.1471713781356812,-1.6592852077879847,-2.5223124662982386,2.323563261623047,-1.0093558470355433,0.259608656167984
1708437310.3752766,-1.1471670866012573,-1.6593386135497035,-2.5222840944873255,2.3235840040394287,-1.0093825499164026,0.2596531808376312
1708437310.3772902,-1.1472495794296265,-1.6593057117857875,-2.5222795645343226,2.3235642152973632,-1.0093978087054651,0.25962185859680176
1708437310.3792279,-1.1471877098083496,-1.6592804394164027,-2.5222962538348597,2.3235315519520263,-1.0093634764300745,0.25963252782821655
1708437310.3812556,-1.1472201347351074,-1.6592923603453578,-2.5223329702960413,2.32353059827771,-1.0093839804278772,0.2596205770969391
1708437310.383259,-1.1472234725952148,-1.6592852077879847,-2.5223048369037073,2.3235184389301757,-1.0093839804278772,0.25963249802589417
1708437310.3852396,-1.1472008228302002,-1.6593510113158167,-2.5222962538348597,2.3235928255268554,-1.0093300978290003,0.2596205770969391
1708437310.3872645,-1.1471962928771973,-1.6592761478819789,-2.5223167578326624,2.323626680965088,-1.0093796888934534,0.2596575915813446
1708437310.3892581,-1.1472039222717285,-1.6593090496458949,-2.5222883860217493,2.3235315519520263,-1.0093677679644983,0.2596531808376312
1708437310.3913136,-1.1471501588821411,-1.659299989739889,-2.522292677556173,2.3235270219990234,-1.0093720594989222,0.2596249580383301
1708437310.3932846,-1.1472407579421997,-1.6593133411803187,-2.522254292164938,2.323613329524658,-1.009393040333883,0.2595638334751129
1708437310.3952885,-1.1472039222717285,-1.6593014202513636,-2.5222840944873255,2.3235840040394287,-1.009327236806051,0.2595757246017456
1708437310.3972814,-1.1472245454788208,-1.6592852077879847,-2.5222962538348597,2.3235840040394287,-1.0093391577350062,0.2596249580383301
1708437310.3993194,-1.1472364664077759,-1.65932097057485,-2.5222511927234095,2.3235270219990234,-1.0093267599688929,0.25962188839912415
1708437310.4012742,-1.1472570896148682,-1.6593133411803187,-2.5223405996905726,2.3235227304645996,-1.0094006697284144,0.2596501111984253
1708437310.4032774,-1.1472039222717285,-1.6592894993224085,-2.522325579320089,2.3235270219990234,-1.009331528340475,0.2596500813961029
1708437310.4052591,-1.1472115516662598,-1.6592852077879847,-2.5223005453692835,2.3235599237629394,-1.0093558470355433,0.25958770513534546
1708437310.4072814,-1.1472407579421997,-1.659341951409811,-2.5223494211779993,2.323514147395752,-1.0093515555011194,0.2595757842063904
1708437310.4093318,-1.1471790075302124,-1.6593252621092738,-2.5223124662982386,2.3235480028339843,-1.00934344926943,0.25961628556251526
1708437310.4112968,-1.1472320556640625,-1.6593133411803187,-2.5223005453692835,2.3235971170612792,-1.009360138569967,0.25965452194213867
1708437310.413272,-1.1472277641296387,-1.659299989739889,-2.5222883860217493,2.3235882955738525,-1.0093343893634241,0.2596043646335602
1708437310.4152875,-1.1472364664077759,-1.6593014202513636,-2.5223210493670862,2.3235675531574707,-1.0093725363360804,0.25963690876960754
1708437310.4172747,-1.1471877098083496,-1.659349103967184,-2.522303644810812,2.323584957713745,-1.009381119404928,0.2596205770969391
1708437310.4192798,-1.1472039222717285,-1.659346719781393,-2.522292677556173,2.3235928255268554,-1.009327236806051,0.25962498784065247
1708437310.4212353,-1.1472407579421997,-1.6592971287169398,-2.5223332087146204,2.3235480028339843,-1.0093649069415491,0.25964558124542236
1708437310.4232764,-1.1472115516662598,-1.6592923603453578,-2.5223167578326624,2.3235882955738525,-1.009393040333883,0.2596293091773987
1708437310.4252968,-1.1472071409225464,-1.6592732868590296,-2.5223332087146204,2.3235480028339843,-1.009369198475973,0.25964561104774475
1708437310.4272718,-1.1471877098083496,-1.6592823467650355,-2.5222719351397913,2.3235391813465576,-1.009331528340475,0.2595999538898468
1708437310.4292493,-1.1472039222717285,-1.6592518291869105,-2.522325579320089,2.3235315519520263,-1.009381119404928,0.25966185331344604
1708437310.4312449,-1.147265911102295,-1.6593553028502406,-2.5222674051867884,2.323622151012085,-1.00934344926943,0.2596662640571594
1708437310.4332514,-1.1471996307373047,-1.6593300304808558,-2.522325579320089,2.3235437112995605,-1.009327236806051,0.2596086859703064
1708437310.4352436,-1.1472158432006836,-1.6593104801573695,-2.522226158772604,2.323579712505005,-1.0093558470355433,0.25963687896728516
1708437310.4372718,-1.1472158432006836,-1.6592608890929164,-2.522313658391134,2.3235599237629394,-1.009322468434469,0.25963377952575684
1708437310.4392598,-1.1471670866012573,-1.6593104801573695,-2.522325579320089,2.323587103480957,-1.009294335042135,0.2596750557422638
1708437310.4413633,-1.1472201347351074,-1.6593224010863246,-2.522313658391134,2.3236090379902343,-1.009331528340475,0.25963687896728516
1708437310.4432752,-1.1471757888793945,-1.6592804394164027,-2.522325579320089,2.3235630232044677,-1.009331528340475,0.25961747765541077
1708437310.4453108,-1.1472277641296387,-1.6593266926207484,-2.5223210493670862,2.323558731670044,-1.0092914740191858,0.25961747765541077
1708437310.4473073,-1.1472114324569702,-1.6593014202513636,-2.5222883860217493,2.3235761362263183,-1.0093448797809046,0.2596206068992615
1708437310.4492824,-1.1471952199935913,-1.6592971287169398,-2.5223093668567103,2.3235928255268554,-1.0093119780169886,0.25958773493766785
1708437310.4512696,-1.1472772359848022,-1.6592894993224085,-2.522276226674215,2.3236004549213867,-1.0093119780169886,0.259604275226593
1708437310.453308,-1.1472115516662598,-1.6592651806273402,-2.522280518208639,2.323579712505005,-1.0093286673175257,0.25965315103530884
1708437310.45535,-1.147268295288086,-1.6593252621092738,-2.5223167578326624,2.3235556322285156,-1.0092867056476038,0.25956714153289795
1708437310.4573026,-1.1472653150558472,-1.6592971287169398,-2.522292677556173,2.3235511022755126,-1.0093196074115198,0.2596249580383301
1708437310.4593046,-1.1472772359848022,-1.6592852077879847,-2.522325579320089,2.3236002165028076,-1.0092867056476038,0.259613037109375
1708437310.4612565,-1.1472320556640625,-1.6593133411803187,-2.5223210493670862,2.323579712505005,-1.0092881361590784,0.2596697509288788
1708437310.4632483,-1.147230863571167,-1.6593309841551722,-2.5222798029529017,2.3235882955738525,-1.0093048254596155,0.25959640741348267
1708437310.465321,-1.1472846269607544,-1.6592852077879847,-2.522292677556173,2.323526068324707,-1.0092881361590784,0.2596662938594818
1708437310.4672444,-1.1472934484481812,-1.65932097057485,-2.5222798029529017,2.32359163343396,-1.0092509428607386,0.25959646701812744
1708437310.4692595,-1.1472433805465698,-1.6593300304808558,-2.5222883860217493,2.3236121374317626,-1.0092347303973597,0.25958892703056335
1708437310.471249,-1.1472433805465698,-1.6593057117857875,-2.5222798029529017,2.323579712505005,-1.0092180410968226,0.25962933897972107
1708437310.473249,-1.1472597122192383,-1.6593300304808558,-2.52226430574526,2.323619766826294,-1.0092194716082972,0.2596500515937805
1708437310.4752789,-1.147264003753662,-1.6593252621092738,-2.5222674051867884,2.32361547529187,-1.009211842213766,0.25965315103530884
1708437310.4772367,-1.1472759246826172,-1.6592937908568324,-2.522276226674215,2.323607845897339,-1.009244743977682,0.25966185331344604
1708437310.4792585,-1.1473008394241333,-1.6593266926207484,-2.5222840944873255,2.3236209589191894,-1.009195629750387,0.2596662938594818
1708437310.4812617,-1.1473385095596313,-1.6593386135497035,-2.522325579320089,2.3236283498951416,-1.009195629750387,0.25963377952575684
1708437310.483253,-1.147264003753662,-1.6592894993224085,-2.5223048369037073,2.3235739904591064,-1.009183708821432,0.2596118450164795
1708437310.4852655,-1.1472878456115723,-1.6593014202513636,-2.5222554842578333,2.323570891017578,-1.00914174715151,0.2596087157726288
1708437310.4872293,-1.1472477912902832,-1.6592279873290003,-2.5223124662982386,2.3236569601246337,-1.0091717878924769,0.25959208607673645
1708437310.4892342,-1.1472846269607544,-1.6592894993224085,-2.5222719351397913,2.323575182552002,-1.00917894044985,0.25963690876960754
1708437310.4913206,-1.147280216217041,-1.6592685184874476,-2.5223093668567103,2.323668881053589,-1.0092251936541956,0.25964123010635376
1708437310.4932892,-1.147264003753662,-1.6592894993224085,-2.5222631136523646,2.323603554362915,-1.0092209021197718,0.25965750217437744
1708437310.4953156,-1.1472671031951904,-1.6592494450011195,-2.5222631136523646,2.323575182552002,-1.009211842213766,0.25963687896728516
1708437310.4973063,-1.1472433805465698,-1.6592403850951136,-2.5222962538348597,2.3235978323170166,-1.009183708821432,0.2596086859703064
1708437310.499307,-1.1473002433776855,-1.6592866382994593,-2.5222674051867884,2.32365266859021,-1.0091880003558558,0.25959643721580505
1708437310.5012696,-1.1472264528274536,-1.6592494450011195,-2.5222554842578333,2.3236657816120605,-1.009157959614889,0.2596249580383301
1708437310.5032709,-1.1472464799880981,-1.6592537365355433,-2.5222588221179407,2.323636217708252,-1.0091460386859339,0.25958767533302307
1708437310.5053024,-1.1472959518432617,-1.6593147716917933,-2.522297207509176,2.323648138637207,-1.0091880003558558,0.2596249580383301
1708437310.507391,-1.1473002433776855,-1.6593104801573695,-2.522273127232687,2.323660059566162,-1.0091717878924769,0.2596741020679474
1708437310.5092618,-1.1472958326339722,-1.6592360935606898,-2.522252384816305,2.323660059566162,-1.0091336409198206,0.25959643721580505
1708437310.5112498,-1.1473585367202759,-1.6592732868590296,-2.5223093668567103,2.3236231046864013,-1.0091760794269007,0.2596206068992615
1708437310.5132773,-1.147332787513733,-1.6593147716917933,-2.52226430574526,2.3236722189136962,-1.0091880003558558,0.2596707344055176
1708437310.5152702,-1.1473572254180908,-1.6593104801573695,-2.522280518208639,2.3237127500721435,-1.0091460386859339,0.25959208607673645
1708437310.5172572,-1.1473453044891357,-1.6592651806273402,-2.522276226674215,2.32369510709729,-1.0091427008258265,0.2596130669116974
1708437310.519236,-1.1472989320755005,-1.6593104801573695,-2.5222719351397913,2.323727770442627,-1.009157959614889,0.25964123010635376
1708437310.5212677,-1.147348403930664,-1.6593104801573695,-2.522268597279684,2.3237649637409667,-1.0092418829547327,0.2596086859703064
1708437310.5232482,-1.1473690271377563,-1.6593057117857875,-2.522297207509176,2.323723478908203,-1.0091717878924769,0.2596206068992615
1708437310.5252466,-1.1473277807235718,-1.6592866382994593,-2.522297207509176,2.3237811762043457,-1.0092251936541956,0.25966185331344604
1708437310.5272744,-1.147351622581482,-1.6592732868590296,-2.5222600142108362,2.3237430292316894,-1.0091670195208948,0.2596086859703064
1708437310.5292413,-1.1473065614700317,-1.6592894993224085,-2.522292677556173,2.3237058359333496,-1.009150807057516,0.2595955431461334
1708437310.53124,-1.1473560333251953,-1.6593104801573695,-2.5222798029529017,2.323772593135498,-1.0091384092914026,0.2596206068992615
1708437310.5332565,-1.1473722457885742,-1.6592146358885707,-2.522268597279684,2.323833628291748,-1.0091336409198206,0.2596293091773987
1708437310.5352368,-1.1473885774612427,-1.6592937908568324,-2.5222719351397913,2.323768063182495,-1.0091598669635218,0.25963252782821655
1708437310.537238,-1.1473441123962402,-1.659269472161764,-2.5222600142108362,2.323768063182495,-1.0091550985919397,0.25958773493766785
1708437310.5392482,-1.147351622581482,-1.6592604122557582,-2.522284809743063,2.3237430292316894,-1.0091517607318323,0.2596249580383301
1708437310.541308,-1.1474134922027588,-1.6592775783934535,-2.5223093668567103,2.3237756925770263,-1.0092132727252405,0.25966185331344604
1708437310.5432634,-1.147430419921875,-1.6592937908568324,-2.5222631136523646,2.3237308698841552,-1.0091179052936,0.2595955431461334
1708437310.5453048,-1.1474090814590454,-1.6592775783934535,-2.5223093668567103,2.323751850719116,-1.0091880003558558,0.25963687896728516
1708437310.5472755,-1.1474173069000244,-1.6593147716917933,-2.522292677556173,2.323772593135498,-1.0091403166400355,0.25963374972343445
1708437310.5492518,-1.1473798751831055,-1.6592475376524867,-2.5223167578326624,2.32381717740979,-1.0091851393329065,0.25964879989624023
1708437310.5512817,-1.1473722457885742,-1.6592894993224085,-2.522297207509176,2.32377998411145,-1.00920278230776,0.25964120030403137
1708437310.5532818,-1.1473928689956665,-1.6592122517027796,-2.522276226674215,2.3237222868153076,-1.0091732184039515,0.25963810086250305
1708437310.5553195,-1.1473960876464844,-1.6592894993224085,-2.5222840944873255,2.3237549501606445,-1.0092180410968226,0.25967836380004883
1708437310.5573132,-1.1473971605300903,-1.6592370472350062,-2.522284809743063,2.3237714010426025,-1.0092013517962855,0.25959208607673645
1708437310.5592737,-1.1474003791809082,-1.6592651806273402,-2.522285048161642,2.3237668710895996,-1.0091427008258265,0.2596086859703064
1708437310.5613148,-1.147364616394043,-1.6592866382994593,-2.52226430574526,2.3238205152698974,-1.0091760794269007,0.25959640741348267
1708437310.5633442,-1.1473679542541504,-1.6593147716917933,-2.5222600142108362,2.323758288020752,-1.0091641584979456,0.2596249580383301
1708437310.5653386,-1.1473960876464844,-1.6592823467650355,-2.5222273508654993,2.3237668710895996,-1.0091598669635218,0.2596130669116974
1708437310.567292,-1.147363543510437,-1.6592208347716273,-2.52226430574526,2.3237835603901367,-1.0091717878924769,0.25963687896728516
1708437310.5693073,-1.1474003791809082,-1.6593147716917933,-2.5222435633288782,2.3238040643879394,-1.0091517607318323,0.259613037109375
1708437310.5712826,-1.147359013557434,-1.6592937908568324,-2.522280518208639,2.3238040643879394,-1.0091851393329065,0.25963690876960754
1708437310.5732946,-1.1474047899246216,-1.6592866382994593,-2.5222674051867884,2.3237878519245605,-1.0091608206378382,0.25963252782821655
1708437310.5752616,-1.1473679542541504,-1.6592732868590296,-2.5223048369037073,2.323807402248047,-1.0091336409198206,0.2596455514431
1708437310.5772984,-1.1474130153656006,-1.6592909298338832,-2.52226430574526,2.3237966734119873,-1.0091684500323694,0.2596086859703064
1708437310.5792572,-1.1474084854125977,-1.6592894993224085,-2.5222554842578333,2.323790951366089,-1.0091427008258265,0.25963684916496277
1708437310.581257,-1.1474246978759766,-1.6592823467650355,-2.522276226674215,2.3238281446644287,-1.0091474691974085,0.2596000134944916
1708437310.5833058,-1.1474130153656006,-1.6592985592284144,-2.522276226674215,2.3238369661518554,-1.0091550985919397,0.2596086859703064
1708437310.58526,-1.1473960876464844,-1.6592537365355433,-2.522280518208639,2.3238085943409423,-1.0091598669635218,0.25964435935020447
1708437310.5872664,-1.1473872661590576,-1.6592232189574183,-2.522292677556173,2.3238326746174316,-1.0091474691974085,0.25958773493766785
1708437310.5892642,-1.1474416255950928,-1.6592642269530238,-2.5222600142108362,2.3238858419605712,-1.0092132727252405,0.2596293091773987
1708437310.5912905,-1.1474158763885498,-1.6592785320677699,-2.5222554842578333,2.3238248068043212,-1.0091312567340296,0.259613037109375
1708437310.593269,-1.147449016571045,-1.6593028507628382,-2.522317949925558,2.3238040643879394,-1.0091670195208948,0.2596706449985504
1708437310.5953186,-1.1474204063415527,-1.6592985592284144,-2.5222554842578333,2.3237921434589843,-1.0091641584979456,0.259608656167984
1708437310.5972927,-1.1473827362060547,-1.6592446766295375,-2.522297207509176,2.3238326746174316,-1.0091221968280237,0.25955960154533386
1708437310.5992706,-1.1474285125732422,-1.6592651806273402,-2.5222600142108362,2.3238116937824707,-1.0091760794269007,0.2596118748188019
1708437310.6013076,-1.1474084854125977,-1.6593057117857875,-2.5223267714129847,2.3238488870808105,-1.0092013517962855,0.259669691324234
1708437310.6032684,-1.1474173069000244,-1.6592937908568324,-2.5222840944873255,2.3238488870808105,-1.0091713110553187,0.25961747765541077
1708437310.6052563,-1.1474461555480957,-1.6592537365355433,-2.522236172352926,2.323758288020752,-1.0091970602618616,0.2596249580383301
1708437310.6072896,-1.1474041938781738,-1.6592580280699671,-2.522236172352926,2.3238488870808105,-1.0091598669635218,0.2596488296985626
1708437310.6092927,-1.147432804107666,-1.6592256031432093,-2.5222840944873255,2.3238577085682373,-1.0092180410968226,0.25959643721580505
1708437310.6112988,-1.1474158763885498,-1.6592189274229945,-2.5222883860217493,2.3238283830830078,-1.0091760794269007,0.259628027677536
1708437310.6132727,-1.1474292278289795,-1.6592685184874476,-2.522280518208639,2.3237878519245605,-1.0091999212848108,0.25962185859680176
1708437310.6152794,-1.1474084854125977,-1.6592346630492152,-2.5222674051867884,2.3238040643879394,-1.0092209021197718,0.25961753726005554
1708437310.6172962,-1.1474041938781738,-1.6592537365355433,-2.522268597279684,2.3238412576862792,-1.0091970602618616,0.25963377952575684
1708437310.619276,-1.1473753452301025,-1.659274240533346,-2.522280518208639,2.323807402248047,-1.0091469923602503,0.2595595121383667
1708437310.6212356,-1.1473709344863892,-1.659269472161764,-2.522313658391134,2.323873921031616,-1.0091999212848108,0.25962501764297485
1708437310.6232746,-1.1474416255950928,-1.6592456303038539,-2.5222511927234095,2.3237878519245605,-1.0091641584979456,0.2596008777618408
1708437310.6252508,-1.1474158763885498,-1.6592208347716273,-2.5222469011889856,2.3238040643879394,-1.0091474691974085,0.25956836342811584
1708437310.6272829,-1.1474130153656006,-1.6592456303038539,-2.522280518208639,2.32387821256604,-1.0091803709613245,0.25958457589149475
1708437310.6292517,-1.1473679542541504,-1.6592627964415492,-2.5222883860217493,2.3238531786152343,-1.0091880003558558,0.25962185859680176
1708437310.6312473,-1.147359013557434,-1.6592122517027796,-2.5223375002490442,2.3237835603901367,-1.0091670195208948,0.25954413414001465
1708437310.6332679,-1.1474461555480957,-1.6592279873290003,-2.5222883860217493,2.3237878519245605,-1.0091760794269007,0.25963813066482544
1708437310.6352472,-1.1474041938781738,-1.659295221368307,-2.5223093668567103,2.3237997728535156,-1.0092328230487269,0.25959643721580505
1708437310.6372416,-1.1474246978759766,-1.6592561207213343,-2.5222883860217493,2.3237954813190917,-1.0092132727252405,0.259556382894516
1708437310.6392374,-1.1474204063415527,-1.6592785320677699,-2.5222600142108362,2.3237921434589843,-1.0092328230487269,0.259613960981369
1708437310.64135,-1.1473915576934814,-1.6592823467650355,-2.5222511927234095,2.3238326746174316,-1.0091760794269007,0.25952789187431335
1708437310.6432817,-1.147466778755188,-1.65924133876943,-2.5222588221179407,2.3237756925770263,-1.0092251936541956,0.25957268476486206
1708437310.6452782,-1.1474535465240479,-1.6592651806273402,-2.5222511927234095,2.3237625795551757,-1.0091717878924769,0.25950726866722107
1708437310.6473112,-1.1474158763885498,-1.6592403850951136,-2.522280518208639,2.3237997728535156,-1.0091880003558558,0.2594786584377289
1708437310.6492631,-1.147437334060669,-1.6592604122557582,-2.5222469011889856,2.3238281446644287,-1.0091880003558558,0.25952473282814026
1708437310.6512518,-1.1473915576934814,-1.6593476734557093,-2.522297207509176,2.3237997728535156,-1.0092251936541956,0.25951719284057617
1708437310.6532595,-1.1474084854125977,-1.6592823467650355,-2.522280518208639,2.323790951366089,-1.00917894044985,0.25954103469848633
1708437310.655311,-1.147363543510437,-1.6592189274229945,-2.522280518208639,2.3238326746174316,-1.0091880003558558,0.2594931125640869
1708437310.6573286,-1.147437334060669,-1.6592446766295375,-2.5223210493670862,2.3238400655933837,-1.0092209021197718,0.25952598452568054
1708437310.6592762,-1.1473872661590576,-1.6592985592284144,-2.5222511927234095,2.323873921031616,-1.0091999212848108,0.25953349471092224
1708437310.6612613,-1.1474041938781738,-1.6592823467650355,-2.5222600142108362,2.3238488870808105,-1.009195629750387,0.2594875395298004
1708437310.6632452,-1.1474246978759766,-1.6592732868590296,-2.522280518208639,2.3238326746174316,-1.009244743977682,0.25947561860084534
1708437310.6653056,-1.1474204063415527,-1.659269472161764,-2.5222674051867884,2.323862000102661,-1.009223763142721,0.25950056314468384
1708437310.667293,-1.1474084854125977,-1.6592518291869105,-2.522292677556173,2.323770447368286,-1.0092571417437952,0.25948432087898254
1708437310.6692393,-1.1474292278289795,-1.6592866382994593,-2.522276226674215,2.3237997728535156,-1.0091951529132288,0.25951284170150757
1708437310.6712275,-1.1474248170852661,-1.6593357525267542,-2.5222883860217493,2.32383577405896,-1.0092194716082972,0.2595137059688568
1708437310.6732378,-1.1473872661590576,-1.6592775783934535,-2.522248093281881,2.3238281446644287,-1.009223763142721,0.25945624709129333
1708437310.6752684,-1.1474204063415527,-1.659269472161764,-2.5222631136523646,2.3238412576862792,-1.009174648915426,0.2594931423664093
1708437310.6772826,-1.1473798751831055,-1.6592174969115199,-2.5222600142108362,2.323782368297241,-1.009244743977682,0.25952595472335815
1708437310.6792321,-1.1474204063415527,-1.6592165432372035,-2.522292677556173,2.3237954813190917,-1.009266201649801,0.2595050036907196
1708437310.6812334,-1.1474204063415527,-1.6592580280699671,-2.5223286787616175,2.3238202768513183,-1.009244743977682,0.2594725489616394
1708437310.6832535,-1.1474041938781738,-1.6592580280699671,-2.5222631136523646,2.3237878519245605,-1.00920278230776,0.25953468680381775
1708437310.685278,-1.1473872661590576,-1.6592580280699671,-2.522292677556173,2.3237790304371337,-1.009235684071676,0.2594768702983856
1708437310.687278,-1.1473884582519531,-1.659274240533346,-2.522313658391134,2.3237878519245605,-1.0092733542071741,0.2595093548297882
1708437310.6892428,-1.1474158763885498,-1.6592055759825648,-2.522276226674215,2.3237954813190917,-1.0093229452716272,0.2594529688358307
1708437310.6912584,-1.1474246978759766,-1.6592370472350062,-2.5223210493670862,2.3237714010426025,-1.0092194716082972,0.2594974637031555
1708437310.693251,-1.1474173069000244,-1.6592265568175257,-2.5223329702960413,2.3237997728535156,-1.0093062559710901,0.259472519159317
1708437310.6952834,-1.1474130153656006,-1.6591812572874964,-2.5222883860217493,2.3238116937824707,-1.0092390219317835,0.25947362184524536
1708437310.6972697,-1.1473827362060547,-1.6591035328307093,-2.522313658391134,2.3237997728535156,-1.0092557112323206,0.259472519159317
1708437310.6992528,-1.1473960876464844,-1.659109731713766,-2.5222883860217493,2.3238040643879394,-1.0092838446246546,0.25946927070617676
1708437310.7012756,-1.1473753452301025,-1.6591350040831507,-2.5223005453692835,2.3238248068043212,-1.0092957655536097,0.2595061957836151
1708437310.7032692,-1.1473960876464844,-1.6591173611082972,-2.5222469011889856,2.3237921434589843,-1.0093076864825647,0.2594411075115204
1708437310.7053044,-1.1473960876464844,-1.659130712548727,-2.522276226674215,2.3237921434589843,-1.00934344926943,0.259441077709198
1708437310.70732,-1.1473872661590576,-1.6590186558165492,-2.5223286787616175,2.3238040643879394,-1.00934344926943,0.2594943046569824
1708437310.7092493,-1.1473428010940552,-1.659102579156393,-2.522313658391134,2.32377473890271,-1.0093477408038538,0.2594660520553589
1708437310.7112756,-1.1473884582519531,-1.6590692005553187,-2.5223167578326624,2.3237997728535156,-1.009360138569967,0.25941258668899536
1708437310.71324,-1.1473709344863892,-1.6590362987914027,-2.5223005453692835,2.3238369661518554,-1.0093477408038538,0.25947490334510803
1708437310.715294,-1.1473709344863892,-1.6590286693968714,-2.5223005453692835,2.3238281446644287,-1.0093148390399378,0.2594410479068756
1708437310.7172499,-1.1473960876464844,-1.6590577564635218,-2.522270981465475,2.323746367091797,-1.009360138569967,0.25943002104759216
1708437310.7192388,-1.1473928689956665,-1.6590167484679164,-2.5223212877856653,2.3237921434589843,-1.009360138569967,0.2593931555747986
1708437310.7212498,-1.1474003791809082,-1.6591040096678675,-2.5222631136523646,2.3237549501606445,-1.0093768278705042,0.2594335079193115
1708437310.7232609,-1.1474090814590454,-1.6590577564635218,-2.5222883860217493,2.32377998411145,-1.00934344926943,0.2594660520553589
1708437310.7252362,-1.1473884582519531,-1.6590329609312953,-2.5222795645343226,2.3238159853168945,-1.0093558470355433,0.2594822943210602
1708437310.7272403,-1.1473841667175293,-1.6590100727477015,-2.522325579320089,2.3237954813190917,-1.009360138569967,0.259445458650589
1708437310.7292645,-1.147335410118103,-1.659046312371725,-2.522270981465475,2.3237756925770263,-1.0093467871295374,0.2593931555747986
1708437310.7312393,-1.1474047899246216,-1.659030099908346,-2.5222840944873255,2.3237835603901367,-1.0093343893634241,0.25941377878189087
1708437310.7332442,-1.1474134922027588,-1.6590258083739222,-2.522254530583517,2.3238326746174316,-1.0093253294574183,0.2594006359577179
1708437310.735227,-1.1473722457885742,-1.659091135064596,-2.5222840944873255,2.3237625795551757,-1.0093749205218714,0.2593352794647217
1708437310.737254,-1.1473971605300903,-1.6590215168394984,-2.5222962538348597,2.3237432676502685,-1.0094078222857874,0.25943005084991455
1708437310.7392442,-1.1473603248596191,-1.6589929066100062,-2.5223210493670862,2.323741837138794,-1.0093753973590296,0.2594510316848755
1708437310.7412863,-1.147351622581482,-1.6590825519957484,-2.5223329702960413,2.3237594801136474,-1.0093587080584925,0.25943005084991455
1708437310.7432902,-1.147364616394043,-1.6590377293028773,-2.522291962300436,2.3237921434589843,-1.0093706289874476,0.25941377878189087
1708437310.745291,-1.1473884582519531,-1.6590453586974085,-2.5222883860217493,2.3237878519245605,-1.0094006697284144,0.25936904549598694
1708437310.7472847,-1.1473884582519531,-1.6590825519957484,-2.5222511927234095,2.323725624675415,-1.0093873182879847,0.25942695140838623
1708437310.7492678,-1.1473679542541504,-1.6590734920897425,-2.5223167578326624,2.3238326746174316,-1.0093825499164026,0.25942569971084595
1708437310.7512648,-1.1473841667175293,-1.6590496502318324,-2.5222798029529017,2.3237756925770263,-1.0093916098224085,0.25935274362564087
1708437310.7532709,-1.1473385095596313,-1.6591230831541957,-2.522303644810812,2.3237954813190917,-1.0093873182879847,0.2594062387943268
1708437310.7553146,-1.1474134922027588,-1.659048696557516,-2.5223048369037073,2.3237625795551757,-1.0094035307513636,0.25937777757644653
1708437310.7573102,-1.1473560333251953,-1.6590215168394984,-2.5222752729998987,2.3238369661518554,-1.0094407240497034,0.25942692160606384
1708437310.7593052,-1.1473385095596313,-1.6590663395323695,-2.5223451296435755,2.323807402248047,-1.0094035307513636,0.25934523344039917
1708437310.7612746,-1.1474173069000244,-1.6590377293028773,-2.5223005453692835,2.323823853130005,-1.0093944708453577,0.25935715436935425
1708437310.7632754,-1.1473709344863892,-1.6590453586974085,-2.5223124662982386,2.3237756925770263,-1.0094574133502405,0.2593321204185486
1708437310.7653003,-1.1474003791809082,-1.6591230831541957,-2.5223210493670862,2.3238040643879394,-1.0094111601458948,0.25937461853027344
1708437310.7672932,-1.1474173069000244,-1.6590825519957484,-2.5223167578326624,2.3237714010426025,-1.009439770375387,0.2593246102333069
1708437310.7692778,-1.147359013557434,-1.6590453586974085,-2.5223243872271937,2.3237506586262207,-1.009439770375387,0.25936150550842285
1708437310.771266,-1.1473915576934814,-1.6590901813902796,-2.5222962538348597,2.3237668710895996,-1.0094111601458948,0.2593746483325958
1708437310.7732391,-1.1474204063415527,-1.6590544186034144,-2.5222840944873255,2.3237878519245605,-1.0094488302813929,0.2593855857849121
1708437310.7752483,-1.1473798751831055,-1.6590711079039515,-2.5222798029529017,2.3237878519245605,-1.00942308107485,0.25931236147880554
1708437310.7772832,-1.1473841667175293,-1.6590992412962855,-2.5223048369037073,2.3237921434589843,-1.0094473997699183,0.25937020778656006
1708437310.7792397,-1.147363543510437,-1.6591068706908167,-2.5222631136523646,2.3237921434589843,-1.0094273726092737,0.2592754662036896
1708437310.7812402,-1.1474047899246216,-1.6590081653990687,-2.5223081747638147,2.323796434993408,-1.009402100239889,0.25936585664749146
1708437310.7832315,-1.1473385095596313,-1.6590453586974085,-2.5223243872271937,2.3238488870808105,-1.0094817320453089,0.2593376636505127
1708437310.785236,-1.1473884582519531,-1.6590405903258265,-2.5222883860217493,2.323758288020752,-1.0094650427447718,0.25931358337402344
1708437310.787269,-1.1474090814590454,-1.6590420208373011,-2.522291962300436,2.323746367091797,-1.00942308107485,0.25930479168891907
1708437310.789244,-1.1473971605300903,-1.6590329609312953,-2.522291962300436,2.3237878519245605,-1.009484593068258,0.25932228565216064
1708437310.7912655,-1.147347331047058,-1.6590334377684535,-2.522297207509176,2.323741837138794,-1.0094473997699183,0.25927668809890747
1708437310.7932813,-1.1473884582519531,-1.6590711079039515,-2.5223048369037073,2.3237668710895996,-1.0094354788409632,0.25931793451309204
1708437310.7952683,-1.147323489189148,-1.6590057812132777,-2.5222838560687464,2.3238116937824707,-1.009467903767721,0.25930601358413696
1708437310.797314,-1.1474047899246216,-1.6590286693968714,-2.5223081747638147,2.323823853130005,-1.0094636122332972,0.2592897117137909
1708437310.799276,-1.147363543510437,-1.6590258083739222,-2.5223405996905726,2.323807402248047,-1.009479824696676,0.25931793451309204
1708437310.8012993,-1.1473547220230103,-1.6590539417662562,-2.5223243872271937,2.3238326746174316,-1.009488884602682,0.25930288434028625
1708437310.803282,-1.1474173069000244,-1.6590467892088832,-2.5223451296435755,2.3238085943409423,-1.0094426313983362,0.25924059748649597
1708437310.8052652,-1.1474130153656006,-1.659063001672262,-2.5223363081561487,2.323805256480835,-1.0094383398639124,0.2592613101005554
1708437310.8072772,-1.1474217176437378,-1.6590420208373011,-2.5222962538348597,2.3237921434589843,-1.0094712416278284,0.2592775821685791
1708437310.809272,-1.1473722457885742,-1.6590663395323695,-2.5223081747638147,2.3237668710895996,-1.0094755331622522,0.25929418206214905
1708437310.8113735,-1.1473679542541504,-1.6590286693968714,-2.522295061741964,2.3237997728535156,-1.0094593206988733,0.25932228565216064
1708437310.8132713,-1.1474173069000244,-1.6591035328307093,-2.522270981465475,2.3237714010426025,-1.0094426313983362,0.259265661239624
1708437310.815254,-1.1473960876464844,-1.6590711079039515,-2.5223613421069544,2.32377998411145,-1.0094593206988733,0.259265661239624
1708437310.817278,-1.1473872661590576,-1.6590663395323695,-2.522299353276388,2.3238116937824707,-1.009512726460592,0.25924593210220337
1708437310.8192427,-1.1473960876464844,-1.6590496502318324,-2.5223243872271937,2.3238205152698974,-1.0094755331622522,0.25924938917160034
1708437310.8212397,-1.1474047899246216,-1.6590405903258265,-2.522348229085104,2.3238202768513183,-1.009500805531637,0.2592121660709381
1708437310.8232758,-1.1474204063415527,-1.6590825519957484,-2.5223069826709192,2.3238085943409423,-1.0094755331622522,0.25925686955451965
1708437310.8252459,-1.1474246978759766,-1.6590243778624476,-2.52232009569277,2.3238650995441894,-1.0094664732562464,0.2592003345489502
1708437310.8272731,-1.1474041938781738,-1.6590620479979457,-2.5223363081561487,2.3238248068043212,-1.0094965139972132,0.2592090964317322
1708437310.82926,-1.1473798751831055,-1.6590243778624476,-2.5223363081561487,2.3238248068043212,-1.0095084349261683,0.2592875063419342
1708437310.8312593,-1.1474292278289795,-1.6590734920897425,-2.522315804158346,2.323857470149658,-1.009545628224508,0.2592700123786926
1708437310.8332896,-1.1474003791809082,-1.659095903436178,-2.5223613421069544,2.3237954813190917,-1.0094917456256312,0.259265661239624
1708437310.8352993,-1.1474130153656006,-1.6590663395323695,-2.5223081747638147,2.32383577405896,-1.0095322767840784,0.25925374031066895
1708437310.8372889,-1.1474624872207642,-1.6590825519957484,-2.5222907702075403,2.3238445955463867,-1.0095112959491175,0.25918838381767273
1708437310.839241,-1.1473798751831055,-1.6590496502318324,-2.522303644810812,2.3238107401081542,-1.0095294157611292,0.2592625319957733
1708437310.8412418,-1.1473591327667236,-1.6590334377684535,-2.522364679967062,2.3238445955463867,-1.009479824696676,0.2592220902442932
1708437310.8432822,-1.1473885774612427,-1.6590420208373011,-2.5223363081561487,2.323851986522339,-1.0094903151141565,0.2592177391052246
1708437310.8452797,-1.1474292278289795,-1.6590711079039515,-2.522364679967062,2.323802872295044,-1.0094903151141565,0.25919368863105774
1708437310.8473158,-1.1473960876464844,-1.6590496502318324,-2.522323195134298,2.323831244105957,-1.0094712416278284,0.259250283241272
1708437310.8493094,-1.147437334060669,-1.6590215168394984,-2.522360388432638,2.323851986522339,-1.0095275084124964,0.2591892182826996
1708437310.851279,-1.1474130153656006,-1.6590081653990687,-2.5223634878741663,2.3238770204731445,-1.0095036665545862,0.25917738676071167
1708437310.8532834,-1.1473872661590576,-1.6590496502318324,-2.522372309361593,2.323819561595581,-1.0094755331622522,0.2592102289199829
1708437310.8552878,-1.1473709344863892,-1.6590711079039515,-2.5223801771747034,2.3238400655933837,-1.0095036665545862,0.2591817378997803
1708437310.8573012,-1.1473872661590576,-1.6590167484679164,-2.5224245230304163,2.32385961591687,-1.0095084349261683,0.2592265009880066
1708437310.8593018,-1.1474292278289795,-1.6590377293028773,-2.5224486033069056,2.3238717752644042,-1.0094783941852015,0.2591729164123535
1708437310.86127,-1.1474204063415527,-1.6590215168394984,-2.522440020238058,2.3238138395496826,-1.0094369093524378,0.259184867143631
1708437310.863291,-1.147437334060669,-1.6590453586974085,-2.5224412123309534,2.323843403453491,-1.0095155874835413,0.2591892182826996
1708437310.8652787,-1.1473827362060547,-1.6590405903258265,-2.522419277821676,2.323847694987915,-1.0094459692584437,0.2592177391052246
1708437310.8672726,-1.1474158763885498,-1.659063001672262,-2.5224323908435267,2.3238465028950195,-1.0094593206988733,0.25920581817626953
1708437310.8692517,-1.147449016571045,-1.6589967213072718,-2.5224857966052454,2.3238836961933593,-1.009455982838766,0.25919798016548157
1708437310.8712533,-1.147432804107666,-1.6590243778624476,-2.5224443117724817,2.3239077764698486,-1.009467903767721,0.2592395842075348
1708437310.8732615,-1.1474772691726685,-1.6590405903258265,-2.5224607626544397,2.3238999086567382,-1.0095070044146937,0.25919800996780396
1708437310.8752637,-1.1474403142929077,-1.6591083012022914,-2.5225096384631556,2.3238999086567382,-1.0094874540912073,0.25917738676071167
1708437310.8772662,-1.1474416255950928,-1.6590153179564417,-2.5224934259997767,2.3238674837299804,-1.0094831625567835,0.2591785788536072
1708437310.8792455,-1.1474071741104126,-1.6590949497618617,-2.5224486033069056,2.3238705831715087,-1.0094950834857386,0.25917738676071167
1708437310.8812618,-1.1474158763885498,-1.6590529880919398,-2.5224607626544397,2.3238956171223144,-1.0095112959491175,0.259189248085022
1708437310.8832762,-1.147459864616394,-1.6590529880919398,-2.522419277821676,2.3238794046589355,-1.0094621817218226,0.2591579258441925
1708437310.8852482,-1.1474609375,-1.6590825519957484,-2.5224934259997767,2.3239123064228515,-1.0094950834857386,0.2591404616832733
1708437310.8872585,-1.1474241018295288,-1.6590692005553187,-2.522468392048971,2.323953552837036,-1.0095070044146937,0.2591492533683777
1708437310.8892431,-1.1474891901016235,-1.6590320072569789,-2.5224772135363978,2.3238999086567382,-1.0094993750201624,0.259235143661499
1708437310.8912506,-1.1474685668945312,-1.659102579156393,-2.522456471120016,2.3239077764698486,-1.0095246473895472,0.25917741656303406
1708437310.8933475,-1.14743173122406,-1.6590286693968714,-2.5224815050708216,2.3238913255878906,-1.0095189253436487,0.2591448724269867
1708437310.8952734,-1.1474772691726685,-1.6590362987914027,-2.5225022474872034,2.3238705831715087,-1.0095203558551233,0.2591448724269867
1708437310.8973494,-1.1474924087524414,-1.6591035328307093,-2.522456471120016,2.3239239889332275,-1.0095203558551233,0.2592232823371887
1708437310.8992834,-1.14743173122406,-1.6591111622252406,-2.522440020238058,2.3238910871693115,-1.0094993750201624,0.25920233130455017
1708437310.9012954,-1.1474772691726685,-1.6590577564635218,-2.522472683583395,2.3239480692097167,-1.0094664732562464,0.2592307925224304
1708437310.903302,-1.1474523544311523,-1.6590949497618617,-2.5224650541888636,2.323882504100464,-1.0094903151141565,0.25914573669433594
1708437310.905261,-1.1474609375,-1.6590777836241664,-2.5224269072162073,2.323866291637085,-1.0095203558551233,0.25920236110687256
1708437310.9073126,-1.1474404335021973,-1.6590200863280238,-2.522456471120016,2.323981924647949,-1.0094459692584437,0.25917741656303406
1708437310.9093604,-1.1474155187606812,-1.6591035328307093,-2.522456471120016,2.3238867956348876,-1.0094741026507776,0.25921106338500977
1708437310.911299,-1.1473952531814575,-1.6590858898558558,-2.522398296986715,2.3239731031605224,-1.0094993750201624,0.25919368863105774
1708437310.9132714,-1.147449016571045,-1.6590734920897425,-2.522440020238058,2.3239165979572753,-1.0094783941852015,0.2591817378997803
1708437310.9153166,-1.147432804107666,-1.6590529880919398,-2.522447649632589,2.3238705831715087,-1.009540859852926,0.2592351734638214
1708437310.9172578,-1.147472858428955,-1.6590992412962855,-2.522452179585592,2.323829098338745,-1.0094874540912073,0.25919485092163086
1708437310.9192524,-1.147449016571045,-1.6590692005553187,-2.522440020238058,2.3238629537769775,-1.0095155874835413,0.2591611444950104
1708437310.9212358,-1.1474204063415527,-1.6590243778624476,-2.5224323908435267,2.3238867956348876,-1.0095394293414515,0.2591566741466522
1708437310.9232662,-1.1474204063415527,-1.659102579156393,-2.5224652926074427,2.323892517680786,-1.0095656553851526,0.25924718379974365
1708437310.925274,-1.1473827362060547,-1.659097810784811,-2.522472683583395,2.3239328104206542,-1.0095608870135706,0.2592394948005676
1708437310.9272676,-1.1474204063415527,-1.6591516933836878,-2.522419277821676,2.323843403453491,-1.009543244038717,0.2591729760169983
1708437310.929254,-1.1474217176437378,-1.6590553722777308,-2.5224652926074427,2.3237976270863037,-1.009575668965475,0.2592799961566925
1708437310.931243,-1.147363543510437,-1.659088750878805,-2.5224607626544397,2.323863907451294,-1.009599510823385,0.2592102587223053
1708437310.9332707,-1.1473798751831055,-1.6591903171935023,-2.5224607626544397,2.3237790304371337,-1.009604279194967,0.2592352330684662
1708437310.9352453,-1.147376537322998,-1.6591125927367152,-2.5224235693561,2.3237954813190917,-1.009554688130514,0.25923287868499756
1708437310.9372804,-1.147348403930664,-1.659128805200094,-2.5225184599505823,2.3237387376972656,-1.0095832983600062,0.25930288434028625
1708437310.9392567,-1.147332787513733,-1.6591936550536097,-2.5224977175342005,2.323784514064453,-1.0095952192889612,0.2592744529247284
1708437310.9412673,-1.1472915410995483,-1.6592070064940394,-2.5224607626544397,2.323735399837158,-1.0096352736102503,0.2592525780200958
1708437310.943285,-1.1472878456115723,-1.65918030361318,-2.5224607626544397,2.3236426550098876,-1.0095909277545374,0.2592700123786926
1708437310.945268,-1.1472477912902832,-1.6592208347716273,-2.522431198750631,2.3236145216175537,-1.0096309820758265,0.2593420445919037
1708437310.9473174,-1.1471939086914062,-1.6592785320677699,-2.522464100514547,2.3236307340809326,-1.0096028486834925,0.25935837626457214
1708437310.9492726,-1.1472396850585938,-1.6593343220152796,-2.522496525441305,2.323558731670044,-1.0095909277545374,0.25937017798423767
1708437310.9512541,-1.1472071409225464,-1.659316202203268,-2.522496525441305,2.32359163343396,-1.0095909277545374,0.25936898589134216
1708437310.9532726,-1.147171974182129,-1.6593781910338343,-2.5224671999560755,2.3235761362263183,-1.0096071402179163,0.2594335377216339
1708437310.9552917,-1.1471388339996338,-1.659386774102682,-2.5224879423724573,2.323507710094116,-1.0095742384540003,0.2594529986381531
1708437310.9573026,-1.1470956802368164,-1.659401079217428,-2.5224760214435022,2.3234848219105224,-1.0096162001239222,0.25951042771339417
1708437310.9592807,-1.1470632553100586,-1.6594449482359828,-2.522529427205221,2.3233939844318847,-1.0095651785479944,0.25948119163513184
1708437310.961297,-1.1470144987106323,-1.6594850025572718,-2.5224998633014124,2.323403998012207,-1.0095980803119105,0.25956597924232483
1708437310.9632862,-1.1469581127166748,-1.6594840488829554,-2.5224953333484095,2.323302670116089,-1.0096471945392054,0.25952044129371643
1708437310.9652963,-1.1469388008117676,-1.6595827541747035,-2.5225074926959437,2.3232993322559814,-1.0096429030047815,0.25960955023765564
1708437310.9673052,-1.14686119556427,-1.6595407925047816,-2.522558037434713,2.3232437807270507,-1.0096762816058558,0.25959646701812744
1708437310.96932,-1.1468217372894287,-1.6596056423582972,-2.5224953333484095,2.32318822919812,-1.009744946156637,0.2596934735774994
1708437310.971271,-1.1467616558074951,-1.6596485577025355,-2.5224998633014124,2.323053999538086,-1.0097478071795862,0.2597338855266571
1708437310.9732883,-1.1467090845108032,-1.6597148380675257,-2.5225403944598597,2.323002977962158,-1.0097506682025355,0.25976869463920593
1708437310.9752707,-1.14658784866333,-1.659724851647848,-2.5225523153888147,2.322951479549072,-1.009782616292135,0.2598622739315033
1708437310.9772632,-1.1465529203414917,-1.6597758732237757,-2.522548023854391,2.3228675562092285,-1.0098078886615198,0.2598809003829956
1708437310.9792452,-1.1465126276016235,-1.659816404382223,-2.5225523153888147,2.322758598918579,-1.009843651448385,0.2599906921386719
1708437310.9812465,-1.1464126110076904,-1.659936090508932,-2.5225804487811487,2.322683497066162,-1.0098918120013636,0.260013610124588
1708437310.9832706,-1.1463570594787598,-1.6598922214903773,-2.522576157246725,2.322599335307739,-1.009890381489889,0.26009318232536316
1708437310.9852502,-1.1462355852127075,-1.6599403820433558,-2.522609059010641,2.322495861644409,-1.0099228064166468,0.2601608633995056
1708437310.9872868,-1.1461468935012817,-1.6599470577635707,-2.5225685278521937,2.322349949473999,-1.009946648274557,0.2602944076061249
1708437310.9892583,-1.1460760831832886,-1.6600576839842738,-2.522588316594259,2.3222953516193847,-1.0099309126483362,0.26034560799598694
1708437310.9912918,-1.1459296941757202,-1.6601039371886195,-2.5225752035724085,2.3222309786030273,-1.0099595228778284,0.2603849172592163
1708437310.993309,-1.145911693572998,-1.6600948772826136,-2.5225914160357874,2.322082682246826,-1.009970490132467,0.26047658920288086
1708437310.9952905,-1.1457828283309937,-1.6602221928038539,-2.522611204777853,2.3219541746326904,-1.0099743048297327,0.26055988669395447
1708437310.997303,-1.1456902027130127,-1.6601978741087855,-2.5226734320269983,2.321927948588989,-1.0100186506854456,0.2606605887413025
1708437310.9992962,-1.1455256938934326,-1.6603085003294886,-2.522639338170187,2.3217949110218505,-1.0100262800799769,0.2607397139072418
1708437311.0012732,-1.145461916923523,-1.6603313885130824,-2.522688690816061,2.3216706949421386,-1.0100591818438929,0.260856568813324
1708437311.0032818,-1.1452792882919312,-1.660412450829977,-2.522684399281637,2.321575804347656,-1.0100715796100062,0.26096388697624207
1708437311.0053172,-1.1451598405838013,-1.6604811153807582,-2.5226712862597864,2.3214635091968994,-1.0100820700274866,0.26102298498153687
1708437311.0073593,-1.145054578781128,-1.6605125866331996,-2.5226920286761683,2.3213350015827636,-1.0101102034198206,0.2611916661262512
1708437311.009279,-1.1448777914047241,-1.660551210443014,-2.522757593785421,2.3211909967609863,-1.0100982824908655,0.2612519860267639
1708437311.0112505,-1.1447826623916626,-1.6606813869872035,-2.522735659276144,2.3210994440266113,-1.0101879278766077,0.2613550126552582
1708437311.013257,-1.1446207761764526,-1.6606518230833949,-2.5228052775012415,2.3209313589283447,-1.0101912657367151,0.2615194618701935
1708437311.015335,-1.1445010900497437,-1.6607266865172328,-2.5228381792651575,2.3208202558704834,-1.0101822058307093,0.261606901884079
1708437311.017279,-1.1443580389022827,-1.6608654461302699,-2.5228009859668177,2.3206590849110107,-1.0102060476886194,0.2617829144001007
1708437311.0192943,-1.1442540884017944,-1.6609298191466273,-2.522832457219259,2.3205367761799316,-1.0102599302874964,0.26191040873527527
1708437311.0212655,-1.1440602540969849,-1.660931249658102,-2.5228446165667933,2.3203634458729248,-1.0102375189410608,0.26201701164245605
1708437311.0232682,-1.143935203552246,-1.6610242329039515,-2.5228434244738978,2.3202151495167236,-1.0102961699115198,0.26218703389167786
1708437311.0252643,-1.1437712907791138,-1.661034723321432,-2.522888247166769,2.3201095300861816,-1.010287110005514,0.2623101472854614
1708437311.0272717,-1.1436355113983154,-1.6611095867552699,-2.522921148930685,2.319870634669922,-1.010327164326803,0.2624777555465698
1708437311.029252,-1.143459677696228,-1.6612020931639613,-2.5229864756213587,2.319715662593506,-1.0103710333453577,0.26264652609825134
1708437311.0312579,-1.1432247161865234,-1.6612864933409632,-2.5229514280902308,2.3195554453083496,-1.0103424231158655,0.26278477907180786
1708437311.0332718,-1.143105149269104,-1.6613599262633265,-2.5230050722705286,2.3193396764942626,-1.0103915373431605,0.2629522979259491
1708437311.0352714,-1.1429481506347656,-1.6614090404906214,-2.522980038319723,2.319213314647339,-1.010406796132223,0.2630881667137146
1708437311.0372803,-1.1427634954452515,-1.661539217034811,-2.52299935022463,2.3190201955982666,-1.0104377905475062,0.26326367259025574
1708437311.0392828,-1.1425665616989136,-1.6616231403746546,-2.5230770746814173,2.318856878871582,-1.0104530493365687,0.26343151926994324
1708437311.0412703,-1.142415165901184,-1.6616527042784632,-2.5231381098376673,2.318659229869507,-1.0105097929583948,0.26361674070358276
1708437311.0432963,-1.142218828201294,-1.6618100605406703,-2.5231502691852015,2.318516893977783,-1.0105789343463343,0.2638244032859802
1708437311.0453053,-1.1420503854751587,-1.6618806324400843,-2.52311617532839,2.318333550090454,-1.0106146971331995,0.26395851373672485
1708437311.0473127,-1.141852855682373,-1.66200651744985,-2.5231640974627894,2.318112297649048,-1.0106714407550257,0.2642153203487396
1708437311.0492845,-1.1416321992874146,-1.662105222741598,-2.523162905369894,2.3179048734852294,-1.0106733481036585,0.2644026577472687
1708437311.051278,-1.1413943767547607,-1.6621934376158656,-2.523162905369894,2.317692204112671,-1.0107253233539026,0.26460182666778564
1708437311.0532966,-1.1411851644515991,-1.6622773609557093,-2.5232818762408655,2.3175791937061767,-1.010794464741842,0.2648339569568634
1708437311.0552878,-1.1410021781921387,-1.6624208889403285,-2.5232437292682093,2.3172969061085205,-1.0108092466937464,0.2650747299194336
1708437311.057336,-1.1408262252807617,-1.6625215015807093,-2.523264233266012,2.3170601564594726,-1.010853115712301,0.26524561643600464
1708437311.0593302,-1.140637755393982,-1.6626416645445765,-2.5232752005206507,2.3169261652180175,-1.0108769575702112,0.26545339822769165
1708437311.061298,-1.140437126159668,-1.662753244439596,-2.5232961813556116,2.31669728338208,-1.0109651724444788,0.2657168507575989
1708437311.0632877,-1.1402029991149902,-1.6628552875914515,-2.523311201726095,2.3165008264729003,-1.0109966436969202,0.26597753167152405
1708437311.0653014,-1.1400240659713745,-1.6630283794798792,-2.523377005253927,2.3163296419331054,-1.0110576788531702,0.26620498299598694
1708437311.0673125,-1.1397827863693237,-1.6630789242186488,-2.523356262837545,2.3160976606556396,-1.011125389729635,0.266426682472229
1708437311.0692706,-1.139561414718628,-1.6632610760130824,-2.523384396229879,2.3158902364918212,-1.0111401716815394,0.26670050621032715
1708437311.0712698,-1.139340877532959,-1.6633645496764125,-2.5234490076648157,2.3156656461903076,-1.0112302939044397,0.26690250635147095
1708437311.073271,-1.139172911643982,-1.6634584865965785,-2.5234575907336634,2.31539432584729,-1.0112736860858362,0.26717033982276917
1708437311.0752652,-1.1389234066009521,-1.6636249027647914,-2.523431364689962,2.3152548509785156,-1.0113289991961878,0.26744571328163147
1708437311.0773015,-1.138731837272644,-1.663705965081686,-2.5235043207751673,2.314985437984131,-1.0114129225360315,0.2676888406276703
1708437311.079228,-1.1384456157684326,-1.6638580761351527,-2.523541514073507,2.3146976667591552,-1.0114744345294397,0.2680177688598633
1708437311.081243,-1.1382336616516113,-1.6640240154662074,-2.523541514073507,2.314518852824829,-1.0115459601031702,0.26828432083129883
1708437311.0832644,-1.1380537748336792,-1.664157053033346,-2.523531738911764,2.314311905498169,-1.011629883443014,0.26862379908561707
1708437311.0852582,-1.1378291845321655,-1.6643029652037562,-2.5235558191882532,2.314018412227295,-1.0116809050189417,0.2689514756202698
1708437311.0872612,-1.1375435590744019,-1.6644226513304652,-2.5235753695117396,2.3137504297443847,-1.011712376271383,0.26922717690467834
1708437311.0892525,-1.1373600959777832,-1.6645165882506312,-2.5235992113696497,2.313491030330322,-1.0117762724505823,0.2695593237876892
1708437311.091304,-1.1370407342910767,-1.6646572552123011,-2.5236318747149866,2.3132552343555908,-1.0118125120746058,0.26993483304977417
1708437311.0933497,-1.1368117332458496,-1.6648174724974574,-2.5236812273608606,2.3129960733601074,-1.0118439833270472,0.27027416229248047
1708437311.0952983,-1.136624813079834,-1.6649500332274378,-2.5236669222461146,2.3126537042805175,-1.0119293371783655,0.2706126570701599
1708437311.0972893,-1.1363139152526855,-1.6650530300536097,-2.523741070424215,2.312479181880615,-1.01190692583193,0.2709268629550934
1708437311.099341,-1.1360461711883545,-1.6652294598021449,-2.5237889925586146,2.3122407633015136,-1.0119712988482874,0.2713753283023834
1708437311.1012697,-1.1358096599578857,-1.665438791314596,-2.523763958607809,2.3118981558033447,-1.0120070616351526,0.2717675566673279
1708437311.1032867,-1.1355490684509277,-1.6654917202391566,-2.523820940648214,2.311659498805664,-1.0120757261859339,0.2721218466758728
1708437311.1052861,-1.13527250289917,-1.6656514606871546,-2.5238640944110315,2.311422510738037,-1.0120466391192835,0.27250435948371887
1708437311.1073034,-1.1349613666534424,-1.6657668552794398,-2.5238478819476526,2.3111724096485595,-1.0121567885028284,0.27282997965812683
1708437311.1093075,-1.1347826719284058,-1.6659118137755335,-2.523884121571676,2.3108548361011962,-1.012195889149801,0.2732495963573456
1708437311.1112514,-1.134452223777771,-1.6660839519896449,-2.5239647070514124,2.310656710261963,-1.0122345129596155,0.27359113097190857
1708437311.11327,-1.1342040300369263,-1.6661411724486292,-2.5240007082568567,2.3104254442402343,-1.0123112837420862,0.27405601739883423
1708437311.1153224,-1.1339061260223389,-1.6663180790343226,-2.5239549318896692,2.310151978130005,-1.0124204794513147,0.27441850304603577
1708437311.11729,-1.1337281465530396,-1.6664539776244105,-2.5240190664874476,2.309908552760742,-1.0124715010272425,0.2748417556285858
1708437311.1192522,-1.1334221363067627,-1.6666175327696742,-2.5240889231311243,2.309717817897461,-1.0125592390643519,0.27523666620254517
1708437311.1212554,-1.1331570148468018,-1.6667500934996546,-2.524116341267721,2.309438868159912,-1.0126107374774378,0.2756730318069458
1708437311.1232564,-1.132904291152954,-1.6668225727477015,-2.524193827305929,2.3091859060474853,-1.0127032438861292,0.27612045407295227
1708437311.1252432,-1.1326485872268677,-1.6669689617552699,-2.5241718927966517,2.308832569713257,-1.0127785841571253,0.27649733424186707
1708437311.1273067,-1.1323671340942383,-1.6671458683409632,-2.524228636418478,2.3085765081593017,-1.0128620306598108,0.27696582674980164
1708437311.129258,-1.1321216821670532,-1.6672564945616664,-2.52427322069277,2.308337374324463,-1.0129264036761683,0.2773996591567993
1708437311.1312432,-1.1318460702896118,-1.6674286327757777,-2.5242841879474085,2.3080739217945556,-1.012994114552633,0.2778351604938507
1708437311.1332724,-1.1315841674804688,-1.667579790154928,-2.5243168512927454,2.3077162939259033,-1.0130403677569788,0.2782737612724304
1708437311.13524,-1.1313111782073975,-1.6676532230772914,-2.52431565919985,2.3074983793446044,-1.0130928198443812,0.2787328064441681
1708437311.1372569,-1.1310338973999023,-1.6678539715208949,-2.5243845621692103,2.3072311121174316,-1.0132272879229944,0.27916574478149414
1708437311.1392515,-1.1307824850082397,-1.6679989300169886,-2.5244160334216517,2.3068598943897705,-1.013228718434469,0.279710978269577
1708437311.1412473,-1.1305350065231323,-1.6681305370726527,-2.524423901234762,2.3066794115253906,-1.0132644812213343,0.2801492512226105
1708437311.1432815,-1.130265235900879,-1.6682654819884242,-2.5244718233691614,2.30639831602063,-1.013287369404928,0.2806117832660675
1708437311.1452792,-1.1299949884414673,-1.6684180698790492,-2.5244839827166956,2.30613557874646,-1.0133937040912073,0.2811146676540375
1708437311.1472912,-1.1297229528427124,-1.6685334644713343,-2.5245240370379847,2.305891199702881,-1.0134218374835413,0.28163042664527893
1708437311.1492853,-1.1294912099838257,-1.6687337360777796,-2.52458101907839,2.3056525427052,-1.0134595076190394,0.28212103247642517
1708437311.151262,-1.1292308568954468,-1.6688534222044886,-2.5246365706073206,2.3053340154835205,-1.0135415236102503,0.2826731204986572
1708437311.1532793,-1.1289385557174683,-1.6689688167967738,-2.524635378514425,2.3051578241535644,-1.0135839621173304,0.2831120491027832
1708437311.155316,-1.128708004951477,-1.669100900689596,-2.524717394505636,2.3048154550739746,-1.0136693159686487,0.2836966812610626
1708437311.15729,-1.1284514665603638,-1.6692654095091761,-2.5247085730182093,2.304605169887207,-1.0137861410724085,0.28422749042510986
1708437311.159273,-1.1282007694244385,-1.6694261036314906,-2.524735752736227,2.3043619829365234,-1.0138128439532679,0.2847703695297241
1708437311.1612856,-1.127936601638794,-1.669502397576803,-2.5247586409198206,2.3040968614765625,-1.0139249006854456,0.2853306829929352
1708437311.1632888,-1.12771737575531,-1.6696802578368128,-2.524820868168966,2.3038245874592285,-1.0139640013324183,0.28589555621147156
1708437311.1653569,-1.1274118423461914,-1.6698376140990199,-2.5248566309558313,2.303536577815674,-1.0140612761126917,0.286429762840271
1708437311.1673324,-1.127172827720642,-1.669927259484762,-2.524884049092428,2.3033134180256347,-1.0140827337848108,0.2870132029056549
1708437311.169327,-1.1268833875656128,-1.6700707874693812,-2.5249419848071497,2.302971764201782,-1.0141990820514124,0.2876085937023163
1708437311.1712942,-1.1266815662384033,-1.6701861820616664,-2.5249200502978724,2.3028179842182617,-1.0142558256732386,0.2881854176521301
1708437311.1732895,-1.1264294385910034,-1.6703106365599574,-2.5249605814563196,2.3025871950336914,-1.014332119618551,0.28885018825531006
1708437311.1752858,-1.1261643171310425,-1.6704336605467738,-2.5249887148486536,2.302302523250244,-1.0143888632403772,0.2894960641860962
1708437311.17728,-1.1259334087371826,-1.6705976925291957,-2.525003973637716,2.3020757871815185,-1.0143783728228968,0.28999602794647217
1708437311.1792648,-1.1256730556488037,-1.6707178554930628,-2.5250325838672083,2.3018273550220947,-1.0144460836993616,0.2906235456466675
1708437311.1812618,-1.1254444122314453,-1.670894285241598,-2.525075976048605,2.3015786844440917,-1.014503304158346,0.2912829518318176
1708437311.1832876,-1.125218152999878,-1.671025892297262,-2.5250747839557093,2.3012611108967285,-1.0145633856402796,0.2918885052204132
1708437311.1852744,-1.1249897480010986,-1.671084543267721,-2.5251525084124964,2.3011209207722167,-1.0145986715899866,0.29262521862983704
1708437311.1872551,-1.1246756315231323,-1.671244283715719,-2.5251970926867884,2.300811453456543,-1.0146392027484339,0.2932432293891907
1708437311.189254,-1.124501347541809,-1.6713429890074671,-2.525191609059469,2.3005472856708984,-1.014679257069723,0.2939373254776001
1708437311.1912744,-1.1242362260818481,-1.6715365848936976,-2.525231901799337,2.30030004560437,-1.014742676411764,0.29458552598953247
1708437311.193332,-1.124070405960083,-1.6716529331602992,-2.5252559820758265,2.300088329906128,-1.0147455374347132,0.2952522337436676
1708437311.1953096,-1.1238230466842651,-1.6717850170531214,-2.525299612675802,2.2998289304920654,-1.0147860685931605,0.29590216279029846
1708437311.1972911,-1.1235531568527222,-1.6718579731383265,-2.5253072420703333,2.2995802599140625,-1.014862362538473,0.2966146171092987
1708437311.1992705,-1.1233216524124146,-1.6720391712584437,-2.5253594557391565,2.299377604121826,-1.0149105230914515,0.2972727417945862
1708437311.2012928,-1.1231054067611694,-1.6721545658507289,-2.525367323552267,2.2991856771656494,-1.0149534384356897,0.2979713976383209
1708437311.2032514,-1.1228936910629272,-1.6722327671446742,-2.5253868738757532,2.2989372450062255,-1.0150583426104944,0.2987094223499298
1708437311.2053154,-1.1226409673690796,-1.672372957269186,-2.5254719893084925,2.2987539011188964,-1.0151022116290491,0.29945600032806396
1708437311.207345,-1.1224660873413086,-1.6724606953062953,-2.5254603067981165,2.2984532552906494,-1.0151570479022425,0.30019766092300415
1708437311.2092657,-1.1222593784332275,-1.6725994549193324,-2.5254622141467493,2.2982494074055175,-1.015205208455221,0.30092281103134155
1708437311.2112699,-1.1219571828842163,-1.672769685784811,-2.525519673024313,2.29806296407666,-1.0152695814715784,0.30173012614250183
1708437311.2132485,-1.121770977973938,-1.6729017696776332,-2.5255559126483362,2.2978176313587646,-1.015341583882467,0.3025164008140564
1708437311.2153046,-1.1215306520462036,-1.6729675732054652,-2.5255711714373987,2.2976104456135253,-1.0153844992267054,0.3033066391944885
1708437311.2172952,-1.1213065385818481,-1.6730991802611292,-2.525599543248312,2.2974185186573486,-1.015437428151266,0.30401933193206787
1708437311.2192492,-1.1211193799972534,-1.6732117138304652,-2.5256856123553675,2.2972592550465087,-1.0155347029315394,0.30475661158561707
1708437311.2212956,-1.1209156513214111,-1.6733690700926722,-2.525679890309469,2.2969867426105957,-1.01556903520693,0.3055958151817322
1708437311.223296,-1.1206700801849365,-1.673493047753805,-2.525674883519308,2.2967991071888427,-1.0156334082232874,0.30631741881370544
1708437311.2252626,-1.1204746961593628,-1.6735340557494105,-2.525735680256979,2.296640081996582,-1.015705410634176,0.3071233034133911
1708437311.2272782,-1.1202343702316284,-1.673713823358053,-2.525768582020895,2.2963904577442626,-1.0157039801227015,0.3078848719596863
1708437311.2293067,-1.1200510263442993,-1.673774858514303,-2.525727097188131,2.2961506086536865,-1.0157397429095667,0.3087086081504822
1708437311.231281,-1.1198638677597046,-1.673877855340475,-2.5257630983935755,2.2959796625324707,-1.0157626310931605,0.3094470798969269
1708437311.2332785,-1.1197201013565063,-1.6740428409972132,-2.5258165041552942,2.295754833812378,-1.0158236662494105,0.3102920651435852
1708437311.2352777,-1.1195036172866821,-1.6740771732726039,-2.525855843220846,2.295571728343628,-1.01589280763735,0.31114619970321655
1708437311.2372584,-1.119341492652893,-1.6742102108397425,-2.5258634726153772,2.295388861293457,-1.0159209410296839,0.3118824362754822
1708437311.239246,-1.1191074848175049,-1.6743103466429652,-2.5259092489825647,2.2952002721973876,-1.0159924666034144,0.3126937448978424
1708437311.2412422,-1.1189517974853516,-1.6743556461729945,-2.5258916060077112,2.2949880796619873,-1.016024414693014,0.31350842118263245
1708437311.2432823,-1.1187522411346436,-1.6744886837401332,-2.5259855429278772,2.2948052126118164,-1.016064469014303,0.3143658936023712
1708437311.2452836,-1.1185719966888428,-1.6746469936766566,-2.5258904139148157,2.2945634561726074,-1.0160468260394495,0.3152233362197876
1708437311.2473927,-1.1184009313583374,-1.6746474705138148,-2.525975529347555,2.2943765360065917,-1.0161202589618128,0.31606796383857727
1708437311.249256,-1.1181998252868652,-1.6747733555235804,-2.5260120073901575,2.294179602260254,-1.016123119984762,0.31692758202552795
1708437311.251256,-1.1180040836334229,-1.674844881097311,-2.5259910265551966,2.294032497996948,-1.0161750952350062,0.31777235865592957
1708437311.2532475,-1.117816686630249,-1.674878259698385,-2.526027027760641,2.293842001552246,-1.0162113348590296,0.31868472695350647
1708437311.2552538,-1.1177016496658325,-1.6750356159605921,-2.526034657155172,2.2936741548725585,-1.0162470976458948,0.31952500343322754
1708437311.257301,-1.117461085319519,-1.6751400432982386,-2.52608830133547,2.2934762674519042,-1.016291920338766,0.32038944959640503
1708437311.2593524,-1.1173051595687866,-1.6752521000304164,-2.526123825703756,2.293342276210449,-1.0163162390338343,0.3212693929672241
1708437311.2613113,-1.1170880794525146,-1.6753388843932093,-2.5261645952807825,2.293097420329712,-1.0163310209857386,0.322245329618454
1708437311.2632623,-1.116957187652588,-1.6753689251341761,-2.52613073984255,2.2929622369953613,-1.0164082686053675,0.32306724786758423
1708437311.2652636,-1.1168192625045776,-1.6755277119078578,-2.5261710325824183,2.2927931982227783,-1.0164359251605433,0.32406893372535706
1708437311.267263,-1.1165837049484253,-1.6755620441832484,-2.5261948744403284,2.2926217752644042,-1.0164149443255823,0.3250346779823303
1708437311.2692528,-1.1164209842681885,-1.6756864986815394,-2.5262442270862024,2.2924913603016357,-1.0164640585528772,0.32608547806739807
1708437311.2712672,-1.1162900924682617,-1.675741811791891,-2.5262308756457728,2.2922753530689697,-1.016498867665426,0.3270300328731537
1708437311.2732725,-1.1161130666732788,-1.6758791408934535,-2.5262680689441126,2.292123003596924,-1.0165184179889124,0.3278540074825287
1708437311.275236,-1.1159902811050415,-1.6759573421873988,-2.526287619267599,2.291958971614502,-1.0165837446795862,0.3287350535392761
1708437311.2772582,-1.1158312559127808,-1.6760169468321742,-2.526316229497091,2.2917868334003906,-1.0165661017047327,0.32970595359802246
1708437311.2792408,-1.1156672239303589,-1.6761042080321253,-2.526299778615133,2.2916015821644287,-1.0166471640216272,0.33063945174217224
1708437311.2812357,-1.1154448986053467,-1.676230093041891,-2.5263269583331507,2.2914749818989257,-1.0167158285724085,0.3317146897315979
1708437311.2832317,-1.1153590679168701,-1.6762901745238246,-2.5263312498675745,2.2913479047962646,-1.0167515913592737,0.3326830565929413
1708437311.2852423,-1.1151368618011475,-1.6763855419554652,-2.5264294783221644,2.2911674219318847,-1.0167501608477991,0.3338111639022827
1708437311.287243,-1.1149933338165283,-1.676488538781637,-2.526363197957174,2.291032238597534,-1.0167620817767542,0.33479925990104675
1708437311.2892687,-1.1148743629455566,-1.676547189752096,-2.5263379255877894,2.290888710612915,-1.0168221632586878,0.3359224200248718
1708437311.2912636,-1.1146882772445679,-1.6766606769957484,-2.526444975529806,2.290723963374756,-1.0168283621417444,0.3369304835796356
1708437311.293324,-1.1145700216293335,-1.6766954861082972,-2.526403252278463,2.2905425268360595,-1.0169032255755823,0.33798855543136597
1708437311.295316,-1.1144108772277832,-1.6767717800536097,-2.5264480749713343,2.290400429362915,-1.0169466177569788,0.3390094041824341
1708437311.2973223,-1.1141998767852783,-1.6768824062743128,-2.5264230410205286,2.290285750026367,-1.016965691243307,0.34019097685813904
1708437311.2992983,-1.1141467094421387,-1.6769796810545863,-2.5264764467822474,2.2900752264210205,-1.0170391241656702,0.34114548563957214
1708437311.301267,-1.1139508485794067,-1.67706360439443,-2.5264959971057337,2.289923830623291,-1.0170453230487269,0.34229591488838196
1708437311.303275,-1.1138355731964111,-1.6771370373167933,-2.526499334965841,2.2897798258015136,-1.0171063582049769,0.34334880113601685
1708437311.3053026,-1.113686442375183,-1.6772328815855921,-2.5265234152423304,2.289693995113037,-1.0170815626727503,0.34437066316604614
1708437311.3073125,-1.1134520769119263,-1.677328725854391,-2.526560370122091,2.289524717921875,-1.0171011129962366,0.3454571068286896
1708437311.3092601,-1.1133946180343628,-1.6773420772948207,-2.5265308062182825,2.289360209102295,-1.0171859900103968,0.34653475880622864
1708437311.3112676,-1.1132750511169434,-1.6774255237975062,-2.5265634695636194,2.2892159658619384,-1.0171812216388147,0.34764304757118225
1708437311.3132737,-1.1131064891815186,-1.6775065861144007,-2.5265753904925745,2.289055271739624,-1.0172250906573694,0.3486328125
1708437311.315278,-1.1129755973815918,-1.6775876484312953,-2.526604239140646,2.288952513332031,-1.0172904173480433,0.3497677147388458
1708437311.31728,-1.1128015518188477,-1.677650590936178,-2.526562277470724,2.2888571459003906,-1.0172517935382288,0.3508381247520447
1708437311.3192382,-1.1127158403396606,-1.6776925526061,-2.526623551045553,2.2886645036884765,-1.0173209349261683,0.3520006835460663
1708437311.3212335,-1.1125261783599854,-1.6778351269164027,-2.526628080998556,2.288581534022949,-1.0174153486834925,0.35312196612358093
1708437311.3232656,-1.1123418807983398,-1.6778747044005335,-2.5266104380237024,2.288442535991333,-1.0174019972430628,0.3542444407939911
1708437311.3252254,-1.1122674942016602,-1.6780110798277796,-2.5266552607165735,2.2882608610340576,-1.0174525419818323,0.35535624623298645
1708437311.3272455,-1.112099051475525,-1.6780086956419886,-2.5267370382892054,2.2881247240253906,-1.0174978415118616,0.3565588891506195
1708437311.3292682,-1.111966848373413,-1.6780592403807582,-2.5266881624804896,2.288034124965332,-1.0175002256976526,0.3577972948551178
1708437311.331236,-1.111881136894226,-1.6781517467894496,-2.526679340993063,2.2878853517719726,-1.017486874257223,0.35888901352882385
1708437311.333338,-1.1117364168167114,-1.6782523594298304,-2.526727263127462,2.287761612529419,-1.017618481312887,0.3600872755050659
1708437311.3352492,-1.1115754842758179,-1.678324361840719,-2.526743475590841,2.287622852916382,-1.0176413694964808,0.36128416657447815
1708437311.33728,-1.1114314794540405,-1.6784702740111292,-2.5267720858203333,2.287543936366699,-1.0176575819598597,0.36255088448524475
1708437311.339261,-1.1113231182098389,-1.6784874401488246,-2.5268078486071985,2.2873424726673584,-1.0176799933062952,0.3637949526309967
1708437311.341278,-1.1111804246902466,-1.67858948330068,-2.526827637349264,2.2871896463581542,-1.017684284840719,0.36502838134765625
1708437311.343404,-1.1110119819641113,-1.6786190472044886,-2.5268810431109827,2.2871081072041015,-1.0177205244647425,0.36633116006851196
1708437311.3452926,-1.110863447189331,-1.6787449322142542,-2.526835266743795,2.286937876338623,-1.0177043120013636,0.36749714612960815
1708437311.3472927,-1.1107596158981323,-1.6788050136961878,-2.526863400136129,2.2868382173725585,-1.0177281538592737,0.36876556277275085
1708437311.3492727,-1.1106362342834473,-1.6788436375060023,-2.5269158522235315,2.2867318826862792,-1.0177682081805628,0.36998456716537476
1708437311.3512592,-1.1105079650878906,-1.6789409122862757,-2.526923481618063,2.2865802484699707,-1.0177715460406702,0.3712523579597473
1708437311.3532853,-1.1103382110595703,-1.6789547405638636,-2.5269561449633997,2.286414309138916,-1.0177839438067835,0.3723873794078827
1708437311.3553035,-1.1102317571640015,-1.679026266137594,-2.526980225239889,2.286270781154297,-1.0178654829608362,0.3737137019634247
1708437311.3573003,-1.1101285219192505,-1.6791449985899867,-2.5270074049579065,2.2861968713947753,-1.0178807417498987,0.3748812973499298
1708437311.3592668,-1.1100006103515625,-1.679162164727682,-2.5270074049579065,2.286027117366455,-1.0179289023028772,0.3762061595916748
1708437311.3612924,-1.1098523139953613,-1.679307600060934,-2.527076546345846,2.285907669658325,-1.0179556051837366,0.37738507986068726
1708437311.3632815,-1.1097289323806763,-1.6793018780150355,-2.5270512739764612,2.2857579427906494,-1.0180090109454554,0.37856465578079224
1708437311.36531,-1.1096080541610718,-1.6793824634947718,-2.5271032492267054,2.2856644827076416,-1.018024746571676,0.37985163927078247
1708437311.3673406,-1.1094508171081543,-1.6794787846007289,-2.527090374623434,2.285498781795166,-1.0180843512164515,0.3811323940753937
1708437311.369348,-1.1093393564224243,-1.6795712910094203,-2.527114216481344,2.2854127126881103,-1.018066708241598,0.38236138224601746
1708437311.3712788,-1.1092255115509033,-1.6796146831908167,-2.5271809736834925,2.285313292140625,-1.01819354692568,0.3836453855037689
1708437311.373286,-1.1090965270996094,-1.6796909771361292,-2.527142588292257,2.285115881557129,-1.0182412306415003,0.3849703371524811
1708437311.3752592,-1.1088831424713135,-1.6797510586180628,-2.5271788279162806,2.284996433848999,-1.018264118825094,0.3863879442214966
1708437311.3773053,-1.1087965965270996,-1.6798554859557093,-2.527247492467062,2.28483168661084,-1.018304173146383,0.38761118054389954
1708437311.379245,-1.1086889505386353,-1.6798602543272914,-2.52720290819277,2.2847165304371337,-1.0183480421649378,0.38893601298332214
1708437311.381251,-1.1085611581802368,-1.6799289188780726,-2.5272892157184046,2.2845706182667236,-1.018338982258932,0.39027902483940125
1708437311.383263,-1.1083927154541016,-1.6799894771971644,-2.527299944554464,2.2844793039509277,-1.0184109846698206,0.39154595136642456
1708437311.3852642,-1.1083420515060425,-1.6801191769041957,-2.5272749106036585,2.284360809917114,-1.0184510389911097,0.39279675483703613
1708437311.3872697,-1.1081167459487915,-1.680183549920553,-2.5272868315326136,2.284269257182739,-1.0185111204730433,0.3941999077796936
1708437311.3892548,-1.107959508895874,-1.6801969013609828,-2.5273106733905237,2.284120722407959,-1.0185664335833948,0.3955176770687103
1708437311.3912892,-1.1078715324401855,-1.6802598438658656,-2.527379576359884,2.2839969831654052,-1.0185664335833948,0.3969562351703644
1708437311.3933065,-1.1076877117156982,-1.680369039575094,-2.527379576359884,2.283864660854004,-1.0186308065997522,0.3983115255832672
1708437311.3952992,-1.107588529586792,-1.6803966961302699,-2.52739125887026,2.283712072963379,-1.0186341444598597,0.3996994197368622
1708437311.3972917,-1.1074445247650146,-1.6805006466307582,-2.5274153391467493,2.283620758647583,-1.0186980406390589,0.4010803997516632
1708437311.3992903,-1.1072969436645508,-1.6805726490416468,-2.5274558703051966,2.283573551768921,-1.018731419240133,0.40245893597602844
1708437311.401266,-1.1072053909301758,-1.6806560955443324,-2.5274840036975306,2.2834500509449462,-1.0187667051898401,0.4037700295448303
1708437311.4032812,-1.107041358947754,-1.680716177026266,-2.5275278727160853,2.283272905940674,-1.018794361745016,0.4052177369594574
1708437311.4052792,-1.1069341897964478,-1.6807896099486292,-2.5275028387652796,2.283115788097046,-1.0188100973712366,0.4065398871898651
1708437311.407358,-1.106777310371399,-1.6808558903136195,-2.5275309721576136,2.283066435451172,-1.0188582579242151,0.40796250104904175
1708437311.4092872,-1.1066287755966187,-1.6808749637999476,-2.5275633970843714,2.282860441798828,-1.0189030806170862,0.40928903222084045
1708437311.4112504,-1.1065253019332886,-1.6809874973692835,-2.5276206175433558,2.282733126277588,-1.0189421812640589,0.4106830954551697
1708437311.4132762,-1.1063686609268188,-1.681084772149557,-2.527591053639547,2.2826742368885498,-1.0190141836749476,0.4120989441871643
1708437311.4152806,-1.106249213218689,-1.6811181507506312,-2.5276313463794153,2.28253881513562,-1.0190752188311976,0.413508802652359
1708437311.417276,-1.106203556060791,-1.681216379205221,-2.5276346842395228,2.282348080272339,-1.0191353003131312,0.41486409306526184
1708437311.419267,-1.1059855222702026,-1.6812507114806117,-2.5276718775378626,2.282257242793701,-1.0191295782672327,0.41629573702812195
1708437311.4212759,-1.1058889627456665,-1.6813513241209925,-2.5277238527881067,2.282118244762085,-1.0191777388202112,0.4177587032318115
1708437311.4232621,-1.1057690382003784,-1.6813990078368128,-2.527731959019796,2.281977339381836,-1.0192416349994105,0.4192456007003784
1708437311.425273,-1.1056580543518066,-1.6815320454039515,-2.5277631918536585,2.2818469244190673,-1.019285027180807,0.4206969141960144
1708437311.4272552,-1.1055177450180054,-1.6815453968443812,-2.5277915636645716,2.2817017275043945,-1.0193241278277796,0.4221070408821106
1708437311.4292586,-1.1053893566131592,-1.6816688976683558,-2.5277915636645716,2.281581326121948,-1.0194256941424769,0.4235532581806183
1708437311.4312625,-1.1052744388580322,-1.6817223034300746,-2.5277982393847864,2.2814623552509765,-1.0194571653949183,0.42504191398620605
1708437311.4332821,-1.1051753759384155,-1.6817499599852503,-2.5278342405902308,2.2813309866138916,-1.0194929281817835,0.4265103340148926
1708437311.435268,-1.104994297027588,-1.6818005047240199,-2.527886692677633,2.281202717418335,-1.0195873419391077,0.4279947578907013
1708437311.4372947,-1.1048697233200073,-1.681868692437643,-2.527898613606588,2.281078024501465,-1.0196006933795374,0.4295569360256195
1708437311.4392478,-1.1047909259796143,-1.6820069752135218,-2.527951780949728,2.2809712129780273,-1.019681755696432,0.43103650212287903
1708437311.4412503,-1.1045937538146973,-1.682009836236471,-2.5279629866229456,2.280773802394531,-1.0196879545794886,0.43258485198020935
1708437311.4433427,-1.104425072669983,-1.682134290734762,-2.528015200291769,2.2807203966328125,-1.0197494665728968,0.43405038118362427
1708437311.4453094,-1.1043431758880615,-1.6822315655150355,-2.528039280568258,2.280559464091919,-1.0198095480548304,0.4355408847332001
1708437311.4473312,-1.1042109727859497,-1.68227018932485,-2.5280960241900843,2.280390425319336,-1.0198643843280237,0.4370344281196594
1708437311.449342,-1.104070782661438,-1.682295938531393,-2.528074328099386,2.2802700239368896,-1.0199664274798792,0.4384737014770508
1708437311.4512644,-1.103954792022705,-1.6824232540526332,-2.5281482378589075,2.280196114177368,-1.0199721495257776,0.439949095249176
1708437311.453272,-1.1037334203720093,-1.682481428185934,-2.528158966694967,2.280015392894409,-1.0200236479388636,0.44137758016586304
1708437311.4552858,-1.103622317314148,-1.6825038395323695,-2.5281501452075403,2.279956503505371,-1.0200799147235315,0.4429353177547455
1708437311.4573152,-1.1034457683563232,-1.6825643978514613,-2.5282278696643274,2.279782934779785,-1.020156208668844,0.44446811079978943
1708437311.4593623,-1.1032893657684326,-1.6826192341246546,-2.52824312845339,2.279667778606079,-1.0202329794513147,0.44593414664268494
1708437311.461306,-1.1031783819198608,-1.6827150783934535,-2.5282586256610315,2.2794782358356933,-1.020325009022848,0.44753333926200867
1708437311.463316,-1.1030582189559937,-1.6827999554076136,-2.528328243886129,2.2794203001209716,-1.0203359762774866,0.4490043520927429
1708437311.4652963,-1.1029318571090698,-1.6828557453551234,-2.5283480326281946,2.2793120580860595,-1.020367447529928,0.45059993863105774
1708437311.4672647,-1.1027451753616333,-1.6829801998534144,-2.5283096472369593,2.279122515315674,-1.0204809347735804,0.4521437883377075
1708437311.4692736,-1.1026430130004883,-1.6830607853331507,-2.5284081141101282,2.2790395456501464,-1.0205157438861292,0.4535572826862335
1708437311.4712484,-1.1024545431137085,-1.6831323109068812,-2.5284438768969935,2.27887932836499,-1.0206244627581995,0.4550945460796356
1708437311.4733374,-1.102325677871704,-1.6831923923888148,-2.528446976338522,2.278803988093994,-1.0206025282489222,0.4566108286380768
1708437311.4752762,-1.1021946668624878,-1.6832195721068324,-2.5284996668445032,2.2786311346241455,-1.0206788221942347,0.458202600479126
1708437311.4773111,-1.1020288467407227,-1.6833645306029261,-2.5285070578204554,2.2785324293323974,-1.0207303206073206,0.4597320258617401
1708437311.4792647,-1.1019635200500488,-1.683328767816061,-2.528559748326437,2.27838842451062,-1.0208523909198206,0.46141088008880615
1708437311.4812632,-1.1018316745758057,-1.6834637127318324,-2.528611723576681,2.278280659312866,-1.020928208027975,0.4629388749599457
1708437311.4832752,-1.1016712188720703,-1.6835233173766078,-2.5286274592029017,2.2781359392353515,-1.0209720770465296,0.4644147753715515
1708437311.4852488,-1.1015233993530273,-1.6836472950377406,-2.528618637715475,2.278029366130493,-1.0210397879229944,0.46606865525245667
1708437311.487273,-1.1014350652694702,-1.6837073765196742,-2.528715197240011,2.2779585558125,-1.0210698286639612,0.4675561487674713
1708437311.4892716,-1.101300597190857,-1.6837946377196253,-2.5287395159350794,2.277768297786377,-1.0211103598224085,0.46910560131073
1708437311.491271,-1.1011520624160767,-1.6838580570616664,-2.528787438069479,2.277665062541626,-1.0212028662311,0.47055545449256897
1708437311.4932961,-1.1010282039642334,-1.6839095554747523,-2.52883226076235,2.2775415617176513,-1.0213072935687464,0.47207871079444885
1708437311.4952812,-1.1008628606796265,-1.683993478814596,-2.5288427511798304,2.277397556895874,-1.0213301817523401,0.4735771119594574
1708437311.4972985,-1.1007357835769653,-1.6840864620604457,-2.5289204756366175,2.277270479793213,-1.0213854948626917,0.475170761346817
1708437311.499284,-1.1005133390426636,-1.684120317498678,-2.528902832661764,2.2772156435200195,-1.0214665571795862,0.47661125659942627
1708437311.5012891,-1.1004506349563599,-1.6842414341368617,-2.5289226214038294,2.2769693571278076,-1.0215218702899378,0.4781826138496399
1708437311.5032644,-1.100364327430725,-1.6843091450133265,-2.5289586226092737,2.276841564769409,-1.021590534840719,0.4797821640968323
1708437311.5052803,-1.1001721620559692,-1.684303422967428,-2.5290349165545862,2.2767132955738525,-1.0216415564166468,0.4813324809074402
1708437311.5073454,-1.1000030040740967,-1.6843797169127406,-2.5290425459491175,2.276646538371704,-1.0216363112079065,0.48285892605781555
1708437311.5092964,-1.0998866558074951,-1.6845094166197718,-2.52909499803652,2.2764860826679687,-1.0217612425433558,0.4844296872615814
1708437311.5112486,-1.099787712097168,-1.6845561466612757,-2.529147450123922,2.2763869005390625,-1.0218661467181605,0.4859699308872223
1708437311.5132697,-1.099639892578125,-1.6846863232054652,-2.5291548410998743,2.276233358974121,-1.0219381491290491,0.4876481294631958
1708437311.515256,-1.0995076894760132,-1.6846591434874476,-2.529194180165426,2.276150866145752,-1.0219724814044397,0.48920372128486633
1708437311.517306,-1.0993682146072388,-1.6847239933409632,-2.5291853586779993,2.275949402446411,-1.022062126790182,0.4908519685268402
1708437311.5192657,-1.099207878112793,-1.684852739373678,-2.529287878667013,2.275824709529541,-1.0220935980426233,0.49250760674476624
1708437311.5212538,-1.0990712642669678,-1.6849471531310023,-2.5293317476855677,2.275763435954712,-1.022177521382467,0.4940967857837677
1708437311.5232677,-1.0989152193069458,-1.6849543056883753,-2.5293827692614954,2.275561733836792,-1.02226430574526,0.49565011262893677
1708437311.5252528,-1.0987833738327026,-1.6850391827025355,-2.5293906370746058,2.275507612819336,-1.0223363081561487,0.49723467230796814
1708437311.5272675,-1.098623514175415,-1.6850692234435023,-2.529447380696432,2.275338574046753,-1.0223711172686976,0.4988704025745392
1708437311.529277,-1.0985207557678223,-1.6851698360838832,-2.5294833819018763,2.2752269941517334,-1.022475544606344,0.5003715753555298
1708437311.5312755,-1.098389983177185,-1.6852389774718226,-2.5295596758471888,2.27513234197583,-1.0225518385516565,0.5019582509994507
1708437311.5332465,-1.0982698202133179,-1.685314794579977,-2.529555384312765,2.275045080775879,-1.022623364125387,0.5035523176193237
1708437311.535275,-1.0980563163757324,-1.6854120693602503,-2.5295704046832483,2.274822636241577,-1.0226910750018519,0.5051037669181824
1708437311.537338,-1.0979124307632446,-1.6854421101012171,-2.5296390692340296,2.274735375041626,-1.0227349440204065,0.5067511200904846
1708437311.5392575,-1.097731351852417,-1.6855722866454066,-2.529691521321432,2.274627848262451,-1.0228231588946741,0.5082045793533325
1708437311.5412467,-1.0976406335830688,-1.6855689487852992,-2.5297067801104944,2.2744805055805664,-1.0229204336749476,0.5098028182983398
1708437311.543278,-1.0974963903427124,-1.685652872125143,-2.5297537485705774,2.2742950159260253,-1.0229948202716272,0.5114015936851501
1708437311.545274,-1.0973857641220093,-1.6857248745360316,-2.529790703450338,2.274195118541382,-1.0231073538409632,0.5130946636199951
1708437311.547314,-1.097155213356018,-1.6858388386168421,-2.529837671910421,2.274083300227783,-1.0231626669513147,0.5146383047103882
1708437311.549294,-1.0970042943954468,-1.685892244378561,-2.5298734346972864,2.273902578944824,-1.0232437292682093,0.5161842703819275
1708437311.5512624,-1.09685218334198,-1.6859780750670375,-2.5300002733813685,2.2737554746815185,-1.023327652608053,0.5177561044692993
1708437311.5532763,-1.0966918468475342,-1.6860648594298304,-2.530003611241476,2.2736121851154785,-1.0234110991107386,0.5195099711418152
1708437311.5553153,-1.0965735912322998,-1.6861440143980921,-2.530039374028341,2.273480101222656,-1.0234535376178187,0.5211265087127686
1708437311.5572975,-1.0963680744171143,-1.6862417660155238,-2.5301037470446985,2.273343487376831,-1.023555103932516,0.5227754712104797
1708437311.5592585,-1.0963022708892822,-1.6863042316832484,-2.5300732294665735,2.273214741344116,-1.0236013571368616,0.5243982672691345
1708437311.5613422,-1.0960801839828491,-1.6863624058165492,-2.5301464239703577,2.2731286722370605,-1.0237506071673792,0.5260308384895325
1708437311.5632746,-1.0958954095840454,-1.6865116558470667,-2.530259672795431,2.2730013567158203,-1.0238030592547815,0.5276674628257751
1708437311.5653028,-1.0957770347595215,-1.6866003475584925,-2.5302510897265833,2.272824926967285,-1.0238783995257776,0.5294103026390076
1708437311.5673761,-1.0956166982650757,-1.68668856243276,-2.5302868525134485,2.2727009493061523,-1.0239504019366663,0.5310022830963135
1708437311.5693536,-1.0954126119613647,-1.686735292474264,-2.5303590933429163,2.272568388576172,-1.0240638891803187,0.5325614809989929
1708437311.5712988,-1.0952730178833008,-1.6868592701353968,-2.530407969151632,2.2724131780811767,-1.0241225401507776,0.5342220067977905
1708437311.5732925,-1.0950682163238525,-1.6869799099364222,-2.5304802099811,2.272228403682373,-1.0241945425616663,0.5358362197875977
1708437311.5752976,-1.094911813735962,-1.687035699883932,-2.5304790178882044,2.272048159236572,-1.024266544972555,0.537517786026001
1708437311.5773122,-1.0947283506393433,-1.6871143780150355,-2.530518356953756,2.271965666408203,-1.0243366400348108,0.5390516519546509
1708437311.579251,-1.0946104526519775,-1.6872140369811,-2.5305708090411585,2.2718302446552734,-1.0244129339801233,0.5406844019889832
1708437311.5812366,-1.0943726301193237,-1.6873351536192835,-2.5306153933154505,2.2716452318378906,-1.0245016256915491,0.5421811938285828
1708437311.5832522,-1.0942535400390625,-1.6874438724913539,-2.530703608189718,2.2714926439472656,-1.024609390889303,0.5437964797019958
1708437311.585234,-1.0940412282943726,-1.687512060204977,-2.5307274500476282,2.2713534074970703,-1.0246570746051233,0.5453799366950989
1708437311.587301,-1.0938284397125244,-1.6876064739623011,-2.530738417302267,2.2711848455616455,-1.024736229573385,0.547000527381897
1708437311.58925,-1.0936360359191895,-1.6876570187010707,-2.530799690877096,2.271057291621826,-1.0248492399798792,0.5486336946487427
1708437311.5912468,-1.0934933423995972,-1.6877600155272425,-2.5308552424060267,2.270925684566162,-1.0249341169940394,0.5502520799636841
1708437311.5932708,-1.0932434797286987,-1.687841077844137,-2.5308824221240442,2.2707416254230957,-1.0250209013568323,0.5518630146980286
1708437311.5952868,-1.093044400215149,-1.6879755459227503,-2.5309184233294886,2.270618124599121,-1.0250385443316858,0.553501307964325
1708437311.5973032,-1.0929139852523804,-1.6880327663817347,-2.5310123602496546,2.270462675685547,-1.0251486937152308,0.5551034808158875
1708437311.59932,-1.0926812887191772,-1.6881076298155726,-2.5310221354113978,2.27033440648999,-1.0252035299884241,0.5567405819892883
1708437311.6012886,-1.092490315437317,-1.6882912121214808,-2.5311244169818323,2.270129843349121,-1.025238339100973,0.5582951307296753
1708437311.6032917,-1.0922621488571167,-1.6883765659727992,-2.5311148802386683,2.269937201137207,-1.0253523031817835,0.5598938465118408
1708437311.6052895,-1.0920156240463257,-1.6884647808470667,-2.531192127858297,2.269756479854248,-1.025414768849508,0.561509907245636
