Eg3-git/Classifiers/Data Collection/u5/u5cir4_ur3e_joint_states.csv
time,elbow_joint,shoulder_lift_joint,shoulder_pan_joint,wrist_1_joint,wrist_2_joint,wrist_3_joint
1708437285.2932122,-1.1557934284210205,-1.6538611851134242,-2.527686897908346,2.3352524477192382,-1.0192793051349085,0.37336328625679016
1708437285.295225,-1.1558173894882202,-1.653816362420553,-2.5276621023761194,2.3352231222340087,-1.0193169752704065,0.37332606315612793
1708437285.2972324,-1.1558218002319336,-1.6538282833495082,-2.5276501814471644,2.335317774409912,-1.0193079153644007,0.3733409345149994
1708437285.2991915,-1.1557964086532593,-1.6538311443724574,-2.5277729670154017,2.3352925020405273,-1.0193331877337855,0.37337517738342285
1708437285.3011873,-1.1558173894882202,-1.6538778744139613,-2.527719322835104,2.335279627437256,-1.0193122068988245,0.3733587861061096
1708437285.303182,-1.1558798551559448,-1.6538940868773402,-2.5276616255389612,2.335263414973877,-1.0193241278277796,0.3733454644680023
1708437285.30519,-1.1558337211608887,-1.6538402042784632,-2.527703110371725,2.335271044368408,-1.0193584601031702,0.37338149547576904
1708437285.3072064,-1.1558083295822144,-1.6538521252074183,-2.52771503130068,2.3353046613880615,-1.0193212668048304,0.3733409345149994
1708437285.309229,-1.155842661857605,-1.653865476647848,-2.5277350584613245,2.3352908331104736,-1.0193288961993616,0.3733291029930115
1708437285.3112142,-1.1558665037155151,-1.653832574883932,-2.52771503130068,2.335307999248169,-1.0193422476397913,0.3733707070350647
1708437285.3131728,-1.1558412313461304,-1.6538940868773402,-2.5277236143695276,2.3352951246448974,-1.0193331877337855,0.3733469545841217
1708437285.315242,-1.1558797359466553,-1.65387024501943,-2.527703110371725,2.335392876262329,-1.0193212668048304,0.3733513653278351
1708437285.3171928,-1.1558527946472168,-1.6538073025145472,-2.527686897908346,2.335369034404419,-1.0192959944354456,0.3733948767185211
1708437285.3191667,-1.1558823585510254,-1.653844495812887,-2.527698818837301,2.3353680807301025,-1.0192917029010218,0.3733455240726471
1708437285.3211927,-1.155877947807312,-1.653844495812887,-2.527674976979391,2.335360212916992,-1.0193422476397913,0.3733454942703247
1708437285.3231845,-1.1559125185012817,-1.6538282833495082,-2.5277074019061487,2.335404081935547,-1.0193288961993616,0.3733633756637573
1708437285.3252003,-1.1559031009674072,-1.6538030109801234,-2.5277074019061487,2.3353842931934814,-1.0193169752704065,0.3733454644680023
1708437285.3271775,-1.1559079885482788,-1.6538192234435023,-2.52769118944277,2.3354083734699707,-1.0192959944354456,0.37341269850730896
1708437285.3291829,-1.1558752059936523,-1.6538716755309046,-2.5276792685138147,2.3353962141224365,-1.0193002859698694,0.37336185574531555
1708437285.331163,-1.155873417854309,-1.6537534199156703,-2.52769118944277,2.3353757101246337,-1.0193288961993616,0.373337984085083
1708437285.3332202,-1.155927062034607,-1.6538692913451136,-2.5276792685138147,2.3354083734699707,-1.0193255583392542,0.3733873665332794
1708437285.3352115,-1.1558942794799805,-1.6538602314391078,-2.527674976979391,2.3353473383137207,-1.0193584601031702,0.3733587861061096
1708437285.3372054,-1.1559151411056519,-1.65387024501943,-2.527703110371725,2.3353473383137207,-1.0193422476397913,0.3732929825782776
1708437285.3391802,-1.155861496925354,-1.6538778744139613,-2.527710739766256,2.33537141859021,-1.0193331877337855,0.3733499050140381
1708437285.3412151,-1.155922532081604,-1.6538239918150843,-2.5276945273028772,2.3353757101246337,-1.0193255583392542,0.3733587861061096
1708437285.3432152,-1.15589439868927,-1.653837343255514,-2.527707640324728,2.335350914592407,-1.0193494001971644,0.37337854504585266
1708437285.3451912,-1.1559137105941772,-1.6538282833495082,-2.5276621023761194,2.3354529577442626,-1.0193331877337855,0.37336626648902893
1708437285.3472517,-1.1558823585510254,-1.6538030109801234,-2.527686897908346,2.335395498866699,-1.0193584601031702,0.373317152261734
1708437285.3491952,-1.155922532081604,-1.653816362420553,-2.5276783148394983,2.335432215327881,-1.0193169752704065,0.373337984085083
1708437285.3511899,-1.155927062034607,-1.6538239918150843,-2.527682606373922,2.335399790401123,-1.0193050543414515,0.3733499050140381
1708437285.3531773,-1.1559017896652222,-1.6538473568358363,-2.5277062098132532,2.3353747564503173,-1.0193241278277796,0.3733499050140381
1708437285.3552032,-1.1559091806411743,-1.653816362420553,-2.52771503130068,2.3354245859333496,-1.0193451086627405,0.3733587861061096
1708437285.3572433,-1.155934453010559,-1.6538120708861292,-2.527698818837301,2.335440083140991,-1.0193288961993616,0.3733633756637573
1708437285.3592176,-1.1559151411056519,-1.6538826427855433,-2.527715269719259,2.335395498866699,-1.0193331877337855,0.37338295578956604
1708437285.3611996,-1.1559345722198486,-1.6538735828795375,-2.5276382605182093,2.3354365068623046,-1.0193331877337855,0.3732886016368866
1708437285.363214,-1.1559137105941772,-1.6538297138609828,-2.5276663939105433,2.3354193407246093,-1.0193093458758753,0.3733751177787781
1708437285.3651597,-1.1559181213378906,-1.6537910900511683,-2.5276663939105433,2.3353869157978515,-1.0193241278277796,0.37336182594299316
1708437285.3671904,-1.1559463739395142,-1.653849264184469,-2.527703110371725,2.3353659349628906,-1.0193255583392542,0.3733499050140381
1708437285.3691535,-1.155950903892517,-1.653837343255514,-2.527698818837301,2.335432215327881,-1.0193331877337855,0.37332606315612793
1708437285.3711588,-1.1559553146362305,-1.6538402042784632,-2.527710739766256,2.3354553419300537,-1.0193408171283167,0.3733171820640564
1708437285.3731983,-1.1559463739395142,-1.6537910900511683,-2.527682367955343,2.335440083140991,-1.0193374792682093,0.37335434556007385
1708437285.3751807,-1.1559091806411743,-1.6537982426085414,-2.527682606373922,2.335460587138794,-1.0193331877337855,0.37332162261009216
1708437285.377208,-1.1558972597122192,-1.6538192234435023,-2.5276663939105433,2.3354391294666748,-1.0193050543414515,0.3733587861061096
1708437285.3791614,-1.155950903892517,-1.6538192234435023,-2.527698818837301,2.3354639249989013,-1.0192716757403772,0.3733499050140381
1708437285.3811693,-1.155916452407837,-1.6538745365538539,-2.527703348790304,2.3354477125355224,-1.0193541685687464,0.37333354353904724
1708437285.3832307,-1.155916452407837,-1.653849264184469,-2.5276621023761194,2.3355294901081542,-1.0192917029010218,0.3733128011226654
1708437285.3851633,-1.155932903289795,-1.6538149319090785,-2.527658764516012,2.3354553419300537,-1.0193050543414515,0.3734036982059479
1708437285.3871882,-1.1559373140335083,-1.653844495812887,-2.527674976979391,2.335488958949707,-1.0193613211261194,0.3733587861061096
1708437285.389169,-1.1559590101242065,-1.6538473568358363,-2.527670685444967,2.335484667415283,-1.0193331877337855,0.37333500385284424
1708437285.3911943,-1.1559827327728271,-1.653844495812887,-2.527686897908346,2.335434837932251,-1.0193422476397913,0.37335431575775146
1708437285.3932307,-1.1559754610061646,-1.6538192234435023,-2.527719561253683,2.335468216533325,-1.0193122068988245,0.3733454644680023
1708437285.3951886,-1.155936360359192,-1.6538120708861292,-2.527698818837301,2.3354803758808593,-1.0192959944354456,0.3733424246311188
1708437285.3972132,-1.1559001207351685,-1.6538521252074183,-2.5276945273028772,2.3354434210010986,-1.0193212668048304,0.3733706474304199
1708437285.3991742,-1.1560088396072388,-1.6538478336729945,-2.527682367955343,2.335505409831665,-1.0193050543414515,0.3733662962913513
1708437285.40117,-1.1559590101242065,-1.6538120708861292,-2.527698818837301,2.3354272085377197,-1.0192959944354456,0.3733409345149994
1708437285.4031932,-1.1559454202651978,-1.6538192234435023,-2.527649704610006,2.3354596334644775,-1.0193422476397913,0.3733499050140381
1708437285.4052007,-1.155954360961914,-1.6538282833495082,-2.5276957193957728,2.3354596334644775,-1.0193494001971644,0.37337392568588257
1708437285.4076858,-1.1559618711471558,-1.6539017162718714,-2.527698818837301,2.3354272085377197,-1.0193212668048304,0.37335431575775146
1708437285.409257,-1.155954360961914,-1.653849264184469,-2.5276737848864954,2.335446758861206,-1.0193422476397913,0.373288631439209
1708437285.4111717,-1.1559407711029053,-1.653832574883932,-2.527703348790304,2.3354357916065673,-1.0193002859698694,0.3733632564544678
1708437285.4132085,-1.1559618711471558,-1.653865476647848,-2.5277074019061487,2.3354639249989013,-1.0193241278277796,0.3734126091003418
1708437285.4151838,-1.1559827327728271,-1.6538282833495082,-2.527670447026388,2.3354357916065673,-1.0193494001971644,0.3732886016368866
1708437285.4172015,-1.155932903289795,-1.653837343255514,-2.5277074019061487,2.3354150491901855,-1.0193050543414515,0.3733454942703247
1708437285.4191804,-1.155932903289795,-1.6538192234435023,-2.5277188459979456,2.3354553419300537,-1.0193122068988245,0.37335431575775146
1708437285.4211686,-1.155954360961914,-1.6538192234435023,-2.52767783800234,2.335418625468872,-1.0193122068988245,0.37327221035957336
1708437285.4231877,-1.156028151512146,-1.6538268528380335,-2.527698818837301,2.335467501277588,-1.0193122068988245,0.37336626648902893
1708437285.425156,-1.1560041904449463,-1.6538239918150843,-2.527686897908346,2.3354357916065673,-1.0193451086627405,0.37332913279533386
1708437285.4271712,-1.1559028625488281,-1.6538239918150843,-2.5276783148394983,2.3354717928120117,-1.0192959944354456,0.373337984085083
1708437285.4291868,-1.1559691429138184,-1.6538282833495082,-2.527682606373922,2.3354217249104003,-1.0193169752704065,0.3733172118663788
1708437285.4311585,-1.155916452407837,-1.653849264184469,-2.5277274290667933,2.335434837932251,-1.0193122068988245,0.37339627742767334
1708437285.433241,-1.1559635400772095,-1.653811594048971,-2.527694288884298,2.335434837932251,-1.0192959944354456,0.37338292598724365
1708437285.4351976,-1.1559454202651978,-1.6538521252074183,-2.5277274290667933,2.335401936168335,-1.0192745367633265,0.37332165241241455
1708437285.4372332,-1.155928373336792,-1.6538239918150843,-2.527715269719259,2.335422917003296,-1.0193331877337855,0.3733873963356018
1708437285.4392092,-1.1559906005859375,-1.65387024501943,-2.5277062098132532,2.3354760843464355,-1.0193570295916956,0.3733379542827606
1708437285.4412107,-1.155979871749878,-1.6538521252074183,-2.52771503130068,2.3354553419300537,-1.0193660894977015,0.37336626648902893
1708437285.4431827,-1.1559419631958008,-1.653832574883932,-2.527682367955343,2.3354639249989013,-1.0192917029010218,0.37335875630378723
1708437285.4452271,-1.1560041904449463,-1.6538073025145472,-2.527715269719259,2.3353943067738037,-1.0193570295916956,0.3734036982059479
1708437285.447186,-1.155975341796875,-1.6539074383177699,-2.527715269719259,2.3354596334644775,-1.0193198362933558,0.37332913279533386
1708437285.4491944,-1.1559498310089111,-1.6538359127440394,-2.5276780764209192,2.3354999262043457,-1.0193451086627405,0.37336623668670654
1708437285.4512334,-1.1559237241744995,-1.6537863216795863,-2.527694288884298,2.335479422206543,-1.0192917029010218,0.37335431575775146
1708437285.453294,-1.1559373140335083,-1.653820653954977,-2.527698818837301,2.3354880052753906,-1.0193570295916956,0.3733246326446533
1708437285.4551854,-1.155991792678833,-1.6538692913451136,-2.527741018925802,2.335422917003296,-1.0193865934955042,0.3733499050140381
1708437285.457235,-1.1559237241744995,-1.6538521252074183,-2.527707878743307,2.3354391294666748,-1.0193570295916956,0.3733128011226654
1708437285.4591858,-1.1559499502182007,-1.6538282833495082,-2.52767783800234,2.3354922968098144,-1.0193331877337855,0.373288631439209
1708437285.4611962,-1.1559590101242065,-1.6538192234435023,-2.527736488972799,2.3354434210010986,-1.0193255583392542,0.3733499050140381
1708437285.4631925,-1.1559590101242065,-1.6538645229735316,-2.52767783800234,2.335422917003296,-1.0192959944354456,0.3733706772327423
1708437285.4651837,-1.1559871435165405,-1.6538311443724574,-2.527689758931295,2.33551733076062,-1.0193660894977015,0.373288631439209
1708437285.4672322,-1.1559827327728271,-1.653832574883932,-2.527715269719259,2.3354760843464355,-1.0193660894977015,0.3733082711696625
1708437285.4692142,-1.1559419631958008,-1.6538239918150843,-2.5277016798602503,2.3354193407246093,-1.0193494001971644,0.3733469247817993
1708437285.4711802,-1.1559827327728271,-1.653832574883932,-2.527745548878805,2.3354596334644775,-1.0193613211261194,0.37332913279533386
1708437285.4732015,-1.1559237241744995,-1.65387024501943,-2.527724091206686,2.335476799602173,-1.0193241278277796,0.3733750879764557
1708437285.4751785,-1.1559454202651978,-1.653849264184469,-2.5277186075793665,2.335418625468872,-1.0193331877337855,0.3733662962913513
1708437285.4771938,-1.155932903289795,-1.653799673120016,-2.5277016798602503,2.3355085092731933,-1.0193288961993616,0.37336185574531555
1708437285.4791598,-1.1559499502182007,-1.6538192234435023,-2.5277231375323694,2.3354272085377197,-1.0193212668048304,0.3733469247817993
1708437285.4811742,-1.155928373336792,-1.653853555718893,-2.527710739766256,2.3354880052753906,-1.0193212668048304,0.37332165241241455
1708437285.4832003,-1.155975341796875,-1.653849264184469,-2.527694288884298,2.3354922968098144,-1.0193374792682093,0.37335431575775146
1708437285.4852064,-1.155991792678833,-1.653849264184469,-2.527724091206686,2.335472508067749,-1.0193408171283167,0.37336182594299316
1708437285.4871914,-1.1559871435165405,-1.6538282833495082,-2.527694288884298,2.335446758861206,-1.0193241278277796,0.373312771320343
1708437285.4891655,-1.1560006141662598,-1.6538282833495082,-2.527698818837301,2.3354717928120117,-1.0193408171283167,0.3733128011226654
1708437285.491184,-1.1559419631958008,-1.653844495812887,-2.527673308049337,2.335505409831665,-1.0193494001971644,0.37335875630378723
1708437285.4933403,-1.1559782028198242,-1.6538239918150843,-2.5276854673968714,2.3354760843464355,-1.0193613211261194,0.3733094036579132
1708437285.4952111,-1.1559662818908691,-1.6538359127440394,-2.5277276674853724,2.335512800807617,-1.0193613211261194,0.3733706772327423
1708437285.4972193,-1.1559662818908691,-1.6538101635374964,-2.527686897908346,2.3354965883442382,-1.0193689505206507,0.3732842206954956
1708437285.4991891,-1.1559826135635376,-1.653832574883932,-2.527694288884298,2.3354477125355224,-1.019343678151266,0.3732961118221283
1708437285.5012066,-1.155999779701233,-1.6538611851134242,-2.527694288884298,2.3354965883442382,-1.0193808714496058,0.37332606315612793
1708437285.5032241,-1.1559209823608398,-1.6538778744139613,-2.5277441183673304,2.3354520040699462,-1.0194008986102503,0.3733499050140381
1708437285.5051856,-1.1559871435165405,-1.6538893185057582,-2.527698818837301,2.335479422206543,-1.019393269215719,0.3734126091003418
1708437285.5072384,-1.1559678316116333,-1.6538778744139613,-2.527689758931295,2.335418625468872,-1.019409481679098,0.3733918368816376
1708437285.5092087,-1.155932903289795,-1.653844495812887,-2.527715269719259,2.33545105039563,-1.019355599080221,0.3732915222644806
1708437285.5111663,-1.1559209823608398,-1.653844495812887,-2.527670447026388,2.3354272085377197,-1.0193598906146448,0.3733499348163605
1708437285.5131824,-1.1559871435165405,-1.6538239918150843,-2.527719799672262,2.335430546397827,-1.019393269215719,0.3733513355255127
1708437285.5151858,-1.155991792678833,-1.6537863216795863,-2.527689758931295,2.3354837137409667,-1.019426170979635,0.3733094036579132
1708437285.5172024,-1.1559662818908691,-1.6538735828795375,-2.527710739766256,2.3354315000721435,-1.01941425005068,0.37332165241241455
1708437285.5191724,-1.1559662818908691,-1.6538826427855433,-2.527719799672262,2.3354315000721435,-1.0194051901446741,0.3733082711696625
1708437285.5211751,-1.1559373140335083,-1.65387024501943,-2.527748409901754,2.335446758861206,-1.0194008986102503,0.3733424246311188
1708437285.523208,-1.155916452407837,-1.65387024501943,-2.5277650992022913,2.335406466121338,-1.0193598906146448,0.3733750879764557
1708437285.5252087,-1.155928373336792,-1.6538239918150843,-2.5277321974383753,2.335479422206543,-1.019442383443014,0.3733784854412079
1708437285.5272052,-1.155970811843872,-1.6538073025145472,-2.527710739766256,2.3354760843464355,-1.0194008986102503,0.3733172118663788
1708437285.5291927,-1.1559662818908691,-1.6538692913451136,-2.527764860783712,2.3354315000721435,-1.0193889776812952,0.3732841908931732
1708437285.5311854,-1.1559735536575317,-1.6538149319090785,-2.5276809374438685,2.335442467326782,-1.0194128195392054,0.37331390380859375
1708437285.533208,-1.1559373140335083,-1.6538564167418421,-2.527710739766256,2.3354965883442382,-1.019409481679098,0.373337984085083
1708437285.5352092,-1.1559706926345825,-1.653844495812887,-2.5277186075793665,2.3354391294666748,-1.0194500128375452,0.37336769700050354
1708437285.5371988,-1.1559996604919434,-1.6538282833495082,-2.527694288884298,2.3354553419300537,-1.019421402608053,0.3732961118221283
1708437285.539156,-1.1559464931488037,-1.653832574883932,-2.527715269719259,2.335422917003296,-1.0194380919085901,0.3733423948287964
1708437285.5412114,-1.1559208631515503,-1.6537863216795863,-2.527710739766256,2.335446758861206,-1.019421402608053,0.3733632564544678
1708437285.5432281,-1.155932903289795,-1.6538359127440394,-2.527752939854757,2.3354880052753906,-1.0193842093097132,0.37332606315612793
1708437285.5451844,-1.155932903289795,-1.653799673120016,-2.5276971499072474,2.3354477125355224,-1.0193422476397913,0.37336769700050354
1708437285.5472045,-1.1558910608291626,-1.6538282833495082,-2.5276852289782923,2.335468216533325,-1.019433323537008,0.37335434556007385
1708437285.5491915,-1.1559572219848633,-1.6538073025145472,-2.527661387120382,2.335468216533325,-1.0194008986102503,0.37339165806770325
1708437285.5511868,-1.155979871749878,-1.6538282833495082,-2.5276971499072474,2.3354596334644775,-1.0194008986102503,0.373288631439209
1708437285.5532057,-1.1559754610061646,-1.6538311443724574,-2.527715269719259,2.3354477125355224,-1.0193889776812952,0.3733542859554291
1708437285.5552075,-1.1559962034225464,-1.653844495812887,-2.527698818837301,2.335468216533325,-1.019433323537008,0.3733305335044861
1708437285.557232,-1.1560088396072388,-1.653799673120016,-2.5277276674853724,2.3354596334644775,-1.0194051901446741,0.3733380138874054
1708437285.559208,-1.1559618711471558,-1.6538120708861292,-2.5277095476733606,2.3354553419300537,-1.0194247404681605,0.37335431575775146
1708437285.561188,-1.1559590101242065,-1.653804441491598,-2.5277321974383753,2.3354553419300537,-1.0193889776812952,0.3733750879764557
1708437285.5632203,-1.1559662818908691,-1.653821130792135,-2.527698818837301,2.335488958949707,-1.0194008986102503,0.3733454644680023
1708437285.5651743,-1.1558881998062134,-1.6538359127440394,-2.5276525656329554,2.3354520040699462,-1.019421402608053,0.37331724166870117
1708437285.5672002,-1.1559499502182007,-1.6538192234435023,-2.5276852289782923,2.3354434210010986,-1.0193708578692835,0.3732929825782776
1708437285.5692034,-1.1559499502182007,-1.6538030109801234,-2.5277016798602503,2.335418625468872,-1.0194290320025843,0.37332165241241455
1708437285.571168,-1.155991792678833,-1.6538311443724574,-2.5277321974383753,2.3354717928120117,-1.0193808714496058,0.3733093738555908
1708437285.5732174,-1.155975341796875,-1.653832574883932,-2.52767783800234,2.3354272085377197,-1.019421402608053,0.37332603335380554
1708437285.575188,-1.155991792678833,-1.6538521252074183,-2.527694288884298,2.335434837932251,-1.0194171110736292,0.37331828474998474
1708437285.5771756,-1.1559871435165405,-1.6538402042784632,-2.527769390736715,2.3354553419300537,-1.0194290320025843,0.37338730692863464
1708437285.579204,-1.1560115814208984,-1.653816362420553,-2.5277016798602503,2.3354477125355224,-1.0194171110736292,0.37332603335380554
1708437285.581173,-1.1559590101242065,-1.6538778744139613,-2.5277016798602503,2.3354639249989013,-1.019421402608053,0.37329307198524475
1708437285.583195,-1.1560041904449463,-1.6538073025145472,-2.5277140776263636,2.3354553419300537,-1.0193975607501429,0.37335434556007385
1708437285.5851738,-1.1559590101242065,-1.6537953815855921,-2.5277062098132532,2.3354596334644775,-1.019421402608053,0.37330499291419983
1708437285.5871596,-1.1559193134307861,-1.6538282833495082,-2.527689758931295,2.3354391294666748,-1.019433323537008,0.3733750283718109
1708437285.5891824,-1.1559662818908691,-1.653832574883932,-2.527682367955343,2.3354477125355224,-1.019426170979635,0.3733423948287964
1708437285.5911796,-1.1559454202651978,-1.653804441491598,-2.5277486483203333,2.335472508067749,-1.0194051901446741,0.373357355594635
1708437285.5932,-1.155954360961914,-1.6538239918150843,-2.5277395884143274,2.3354520040699462,-1.019421402608053,0.37333056330680847
1708437285.5951931,-1.155991792678833,-1.6538311443724574,-2.527689758931295,2.335463209743164,-1.0194051901446741,0.3733423948287964
1708437285.597231,-1.155979871749878,-1.653844495812887,-2.5277321974383753,2.3354074197956542,-1.0193842093097132,0.3733005225658417
1708437285.5991838,-1.1559454202651978,-1.6538073025145472,-2.5277486483203333,2.335468216533325,-1.0194051901446741,0.37335872650146484
1708437285.6012077,-1.1559407711029053,-1.653799673120016,-2.527715269719259,2.3354965883442382,-1.019421402608053,0.37333497405052185
1708437285.6031935,-1.155954360961914,-1.6538149319090785,-2.5277441183673304,2.335390253657959,-1.019421402608053,0.37335124611854553
1708437285.605223,-1.1559782028198242,-1.6538073025145472,-2.527748409901754,2.335512800807617,-1.019393269215719,0.37333357334136963
1708437285.607233,-1.1559419631958008,-1.6538120708861292,-2.527691427861349,2.3354803758808593,-1.019393269215719,0.37335872650146484
1708437285.6092823,-1.1560041904449463,-1.653816362420553,-2.527689758931295,2.335434837932251,-1.0193961302386683,0.373337984085083
1708437285.6111832,-1.1559618711471558,-1.653816362420553,-2.527694288884298,2.3354639249989013,-1.019409481679098,0.37329307198524475
1708437285.6132002,-1.155975341796875,-1.653773923913473,-2.527694288884298,2.3354596334644775,-1.0194304625140589,0.373337984085083
1708437285.6151848,-1.155932903289795,-1.6538282833495082,-2.527682367955343,2.3354803758808593,-1.0194008986102503,0.37333497405052185
1708437285.6171644,-1.1559590101242065,-1.6537953815855921,-2.527719799672262,2.335406466121338,-1.019433323537008,0.3733380138874054
1708437285.619171,-1.1559662818908691,-1.653778692285055,-2.5277367273913782,2.3354434210010986,-1.019367520009176,0.3733128309249878
1708437285.6211917,-1.1559662818908691,-1.6537624798216761,-2.5277016798602503,2.3354965883442382,-1.0194171110736292,0.37333494424819946
1708437285.623194,-1.1559454202651978,-1.653832574883932,-2.5277650992022913,2.3354107576557617,-1.01941425005068,0.3733093738555908
1708437285.6251771,-1.155923843383789,-1.653832574883932,-2.527719799672262,2.335488958949707,-1.0194347540484827,0.3733632266521454
1708437285.6271784,-1.155970811843872,-1.653816362420553,-2.5277276674853724,2.3354639249989013,-1.0194171110736292,0.3733499348163605
1708437285.6291797,-1.1559419631958008,-1.6537953815855921,-2.527710739766256,2.3354639249989013,-1.019421402608053,0.3733094036579132
1708437285.6311874,-1.155991792678833,-1.6537863216795863,-2.5277469793902796,2.335517092342041,-1.019426170979635,0.3732975721359253
1708437285.6332095,-1.1559916734695435,-1.653837343255514,-2.527710739766256,2.3354391294666748,-1.019409481679098,0.373412549495697
1708437285.6352253,-1.155932903289795,-1.6537953815855921,-2.527715269719259,2.3354803758808593,-1.019421402608053,0.3733094036579132
1708437285.6372316,-1.155979871749878,-1.6538225613036097,-2.527682367955343,2.3354477125355224,-1.0194514433490198,0.3732856214046478
1708437285.6391969,-1.156011700630188,-1.653787752191061,-2.5277350584613245,2.335484667415283,-1.019393269215719,0.37335431575775146
1708437285.6412313,-1.155954360961914,-1.6538645229735316,-2.5277016798602503,2.3354837137409667,-1.0193889776812952,0.37333056330680847
1708437285.6432378,-1.1559827327728271,-1.653804441491598,-2.527694288884298,2.335500879878662,-1.0193961302386683,0.3733706474304199
1708437285.6451929,-1.1559373140335083,-1.653853555718893,-2.527694288884298,2.335500879878662,-1.019367520009176,0.37328869104385376
1708437285.647197,-1.1559706926345825,-1.653821130792135,-2.527715269719259,2.3354717928120117,-1.019421402608053,0.3733305335044861
1708437285.6492712,-1.1559284925460815,-1.653816362420553,-2.5277231375323694,2.3354193407246093,-1.019355599080221,0.37335869669914246
1708437285.651204,-1.1559373140335083,-1.653778692285055,-2.527682367955343,2.3354717928120117,-1.019393269215719,0.37335434556007385
1708437285.6532593,-1.1559662818908691,-1.653858324090475,-2.5277441183673304,2.3354520040699462,-1.0194080511676233,0.37331390380859375
1708437285.6551988,-1.155991792678833,-1.6537829838194789,-2.5277321974383753,2.335434837932251,-1.019426170979635,0.37330499291419983
1708437285.6572218,-1.1560041904449463,-1.6537548504271449,-2.5277350584613245,2.3354837137409667,-1.0194008986102503,0.3733706474304199
1708437285.659218,-1.1559735536575317,-1.653804441491598,-2.5277276674853724,2.3354477125355224,-1.0193842093097132,0.3733128309249878
1708437285.6612022,-1.155928373336792,-1.653821130792135,-2.527698818837301,2.3354999262043457,-1.0193851629840296,0.37331390380859375
1708437285.6631997,-1.1559782028198242,-1.6538464031615199,-2.527698818837301,2.3354272085377197,-1.0193646589862269,0.3733423948287964
1708437285.665269,-1.1559662818908691,-1.653816362420553,-2.527689758931295,2.3354272085377197,-1.019409481679098,0.37328866124153137
1708437285.6672218,-1.1559454202651978,-1.6538030109801234,-2.527682367955343,2.3354553419300537,-1.0193718115436,0.37335872650146484
1708437285.6692095,-1.1559735536575317,-1.653844495812887,-2.52767783800234,2.33545891820874,-1.0194395224200647,0.37335431575775146
1708437285.6711597,-1.155991792678833,-1.6538030109801234,-2.5277350584613245,2.3354272085377197,-1.019343678151266,0.37332606315612793
1708437285.6731827,-1.155932903289795,-1.6537920437254847,-2.5277062098132532,2.3354391294666748,-1.019409481679098,0.37335872650146484
1708437285.67521,-1.1559871435165405,-1.6538239918150843,-2.527694288884298,2.3354315000721435,-1.0194109121905726,0.3733423948287964
1708437285.6772263,-1.1559572219848633,-1.6538521252074183,-2.527682367955343,2.3354760843464355,-1.0194304625140589,0.37331831455230713
1708437285.6791713,-1.1560088396072388,-1.6538087330260218,-2.5277350584613245,2.3354922968098144,-1.019402329121725,0.373337984085083
1708437285.6811714,-1.1559782028198242,-1.6538120708861292,-2.5277395884143274,2.335390253657959,-1.0194008986102503,0.37329307198524475
1708437285.6831992,-1.155991792678833,-1.653778692285055,-2.5276525656329554,2.335440083140991,-1.0193718115436,0.3733423948287964
1708437285.68518,-1.155991792678833,-1.6538416347899378,-2.527715269719259,2.3354639249989013,-1.019421402608053,0.37330058217048645
1708437285.6872027,-1.1559618711471558,-1.653821130792135,-2.5277441183673304,2.3354520040699462,-1.0194466749774378,0.37331831455230713
1708437285.6891956,-1.1559282541275024,-1.6537953815855921,-2.5277605692492884,2.3354193407246093,-1.019421402608053,0.37330058217048645
1708437285.6911867,-1.1560280323028564,-1.653778692285055,-2.5277515093432825,2.3354965883442382,-1.0194128195392054,0.37335872650146484
1708437285.6932151,-1.1560087203979492,-1.6538282833495082,-2.5277186075793665,2.3354639249989013,-1.019409481679098,0.37330499291419983
1708437285.6951826,-1.15599524974823,-1.6538692913451136,-2.527710739766256,2.3354760843464355,-1.019339386616842,0.37331724166870117
1708437285.6972325,-1.1559782028198242,-1.6538282833495082,-2.52767783800234,2.3354074197956542,-1.0193646589862269,0.3732975721359253
1708437285.6991885,-1.155999779701233,-1.6538564167418421,-2.527698818837301,2.3355085092731933,-1.0193598906146448,0.37332606315612793
1708437285.7011716,-1.1559454202651978,-1.653865476647848,-2.5277186075793665,2.3354717928120117,-1.0194185415851038,0.373284250497818
1708437285.7031856,-1.1559618711471558,-1.6537863216795863,-2.527673308049337,2.3354150491901855,-1.0193808714496058,0.3733227252960205
1708437285.7051873,-1.1559871435165405,-1.6537548504271449,-2.5277367273913782,2.3354391294666748,-1.019402329121725,0.37331390380859375
1708437285.7071836,-1.1559782028198242,-1.653837343255514,-2.527748409901754,2.3354880052753906,-1.0193975607501429,0.37330499291419983
1708437285.709253,-1.156006932258606,-1.653853555718893,-2.5277395884143274,2.3354315000721435,-1.0193889776812952,0.37328866124153137
1708437285.7111833,-1.1559826135635376,-1.653816362420553,-2.5276809374438685,2.3354999262043457,-1.0194008986102503,0.3732975721359253
1708437285.7131934,-1.1559646129608154,-1.653837343255514,-2.5277605692492884,2.3354553419300537,-1.019355599080221,0.3732975721359253
1708437285.7151713,-1.1559662818908691,-1.653821130792135,-2.5277605692492884,2.3354477125355224,-1.019426170979635,0.37334689497947693
1708437285.7172081,-1.1559237241744995,-1.653832574883932,-2.527764860783712,2.3354477125355224,-1.0194466749774378,0.37335872650146484
1708437285.719203,-1.155928373336792,-1.6538359127440394,-2.5277722517596644,2.335440083140991,-1.0193718115436,0.37333056330680847
1708437285.7212036,-1.1559906005859375,-1.653849264184469,-2.527748409901754,2.335500879878662,-1.019393269215719,0.3732483386993408
1708437285.7232132,-1.1559571027755737,-1.653832574883932,-2.527694288884298,2.3354596334644775,-1.0193842093097132,0.37326791882514954
1708437285.7251732,-1.1559618711471558,-1.6537863216795863,-2.5277441183673304,2.3354477125355224,-1.0193851629840296,0.37330058217048645
1708437285.7272103,-1.1559996604919434,-1.653837343255514,-2.527689758931295,2.335369511241577,-1.0193851629840296,0.3732600808143616
1708437285.7291589,-1.156018853187561,-1.6537953815855921,-2.527724091206686,2.3354999262043457,-1.0193899313556116,0.37331390380859375
1708437285.731157,-1.1559906005859375,-1.653821130792135,-2.527689758931295,2.335434837932251,-1.019376579915182,0.3733423948287964
1708437285.7331696,-1.1559782028198242,-1.653837343255514,-2.527689758931295,2.335472508067749,-1.019421402608053,0.373246967792511
1708437285.735189,-1.1559782028198242,-1.653804441491598,-2.527682367955343,2.33545105039563,-1.019402329121725,0.3733227252960205
1708437285.7371721,-1.15599524974823,-1.6537672481932582,-2.5277231375323694,2.3354391294666748,-1.019355599080221,0.3733423948287964
1708437285.7391744,-1.1559782028198242,-1.653778692285055,-2.527715269719259,2.3354391294666748,-1.0193889776812952,0.37331831455230713
1708437285.7411864,-1.1559735536575317,-1.6537910900511683,-2.527703348790304,2.335500879878662,-1.0193689505206507,0.37333500385284424
1708437285.7432094,-1.1559618711471558,-1.653816362420553,-2.5277231375323694,2.3354596334644775,-1.0193975607501429,0.3733557164669037
1708437285.745227,-1.1560115814208984,-1.6538073025145472,-2.5277062098132532,2.3354434210010986,-1.019393269215719,0.3734169602394104
1708437285.7472413,-1.155970811843872,-1.6538692913451136,-2.5277062098132532,2.3354477125355224,-1.019376579915182,0.37330499291419983
1708437285.7491984,-1.1559962034225464,-1.653837343255514,-2.527698818837301,2.3354553419300537,-1.0194008986102503,0.37330496311187744
1708437285.7511723,-1.1559996604919434,-1.6538073025145472,-2.5277605692492884,2.3354272085377197,-1.0193889776812952,0.37338826060295105
1708437285.7531967,-1.1559871435165405,-1.653778692285055,-2.5277186075793665,2.3354760843464355,-1.0193689505206507,0.37333163619041443
1708437285.755176,-1.1560088396072388,-1.6537910900511683,-2.5277276674853724,2.335505171413086,-1.019402329121725,0.3733305335044861
1708437285.7572334,-1.1559861898422241,-1.6538087330260218,-2.527710739766256,2.3354639249989013,-1.0194066206561487,0.37331724166870117
1708437285.7592108,-1.155936360359192,-1.6537953815855921,-2.527694288884298,2.335500879878662,-1.01941425005068,0.37327679991722107
1708437285.7612562,-1.1559407711029053,-1.653816362420553,-2.5276644865619105,2.3354596334644775,-1.0193851629840296,0.37332165241241455
1708437285.7631967,-1.15599524974823,-1.6538402042784632,-2.527748409901754,2.3354434210010986,-1.019343678151266,0.37330493330955505
1708437285.7651834,-1.1559996604919434,-1.6538087330260218,-2.527689758931295,2.335434837932251,-1.0193851629840296,0.37329310178756714
1708437285.7672122,-1.1559782028198242,-1.6537863216795863,-2.527689758931295,2.3354922968098144,-1.01931077638735,0.37333932518959045
1708437285.7692454,-1.1559662818908691,-1.6537953815855921,-2.5276451746570032,2.3354434210010986,-1.0193598906146448,0.3733006715774536
1708437285.771203,-1.1559618711471558,-1.653821130792135,-2.527710739766256,2.3354272085377197,-1.0193808714496058,0.3732723593711853
1708437285.7732384,-1.1559906005859375,-1.65387024501943,-2.5277605692492884,2.335484667415283,-1.0194066206561487,0.37332603335380554
1708437285.7751646,-1.1559871435165405,-1.653825422326559,-2.527682367955343,2.335472508067749,-1.0193613211261194,0.3733183443546295
1708437285.7771864,-1.1559572219848633,-1.653816362420553,-2.527682367955343,2.335468216533325,-1.0193331877337855,0.37330201268196106
1708437285.7791796,-1.1559499502182007,-1.6538282833495082,-2.527719799672262,2.3354965883442382,-1.0193360487567347,0.3732856512069702
1708437285.78117,-1.1559735536575317,-1.6537953815855921,-2.5277016798602503,2.3354391294666748,-1.0193288961993616,0.37331393361091614
1708437285.7831843,-1.1559871435165405,-1.6538692913451136,-2.5277395884143274,2.3354315000721435,-1.0193823019610804,0.37328431010246277
1708437285.7852046,-1.1560087203979492,-1.653844495812887,-2.5276570955859583,2.335484667415283,-1.0193465391742151,0.3733050227165222
1708437285.7871761,-1.1559454202651978,-1.6538149319090785,-2.5277441183673304,2.3354922968098144,-1.0193093458758753,0.3733226954936981
1708437285.7891653,-1.1559782028198242,-1.6537910900511683,-2.527689758931295,2.3354803758808593,-1.0193660894977015,0.3732975721359253
1708437285.7911708,-1.1559735536575317,-1.6538120708861292,-2.5277276674853724,2.3354315000721435,-1.0193002859698694,0.37329012155532837
1708437285.7933104,-1.155975341796875,-1.6537910900511683,-2.5277367273913782,2.3354107576557617,-1.0193494001971644,0.37331390380859375
1708437285.7951906,-1.1559706926345825,-1.6537953815855921,-2.527715269719259,2.3354031282612304,-1.0193002859698694,0.37333494424819946
1708437285.797182,-1.155936360359192,-1.6537953815855921,-2.5277321974383753,2.3354315000721435,-1.0193212668048304,0.3732646107673645
1708437285.799173,-1.1559572219848633,-1.6538282833495082,-2.5277321974383753,2.335484667415283,-1.0193374792682093,0.37329456210136414
1708437285.8012106,-1.1559871435165405,-1.653804441491598,-2.5277276674853724,2.335500879878662,-1.0193374792682093,0.37330061197280884
1708437285.8032162,-1.1559996604919434,-1.6538073025145472,-2.527698818837301,2.335512800807617,-1.0193613211261194,0.37328872084617615
1708437285.8052201,-1.1560115814208984,-1.6538120708861292,-2.527698818837301,2.3354965883442382,-1.0193212668048304,0.3733094036579132
1708437285.8072195,-1.1559373140335083,-1.653816362420553,-2.5277321974383753,2.3354031282612304,-1.0193241278277796,0.373367577791214
1708437285.809209,-1.1559572219848633,-1.653816362420553,-2.527698818837301,2.3354717928120117,-1.0193093458758753,0.37329310178756714
1708437285.8111818,-1.1560280323028564,-1.6538464031615199,-2.527698818837301,2.3354107576557617,-1.0193255583392542,0.3732975721359253
1708437285.8131886,-1.1559691429138184,-1.653799673120016,-2.5277231375323694,2.3354434210010986,-1.0193255583392542,0.37332606315612793
1708437285.8151715,-1.1559618711471558,-1.653804441491598,-2.5277321974383753,2.335430546397827,-1.0193794409381312,0.3732779026031494
1708437285.8171737,-1.1559906005859375,-1.653837343255514,-2.527670447026388,2.335488958949707,-1.0193002859698694,0.37328431010246277
1708437285.8191803,-1.15599524974823,-1.6537910900511683,-2.527710739766256,2.3354434210010986,-1.0193584601031702,0.37328124046325684
1708437285.8211684,-1.156006932258606,-1.653844495812887,-2.5277722517596644,2.3354074197956542,-1.0193255583392542,0.3733094036579132
1708437285.8231926,-1.1559782028198242,-1.6538087330260218,-2.527694288884298,2.3354520040699462,-1.0193613211261194,0.37331831455230713
1708437285.825216,-1.155907392501831,-1.6537829838194789,-2.5277321974383753,2.3354477125355224,-1.0193494001971644,0.3732856810092926
1708437285.827198,-1.1559526920318604,-1.653787752191061,-2.527689758931295,2.335476799602173,-1.0193122068988245,0.3732600510120392
1708437285.829178,-1.1559691429138184,-1.653821130792135,-2.527748409901754,2.3354639249989013,-1.0193288961993616,0.3733094036579132
1708437285.8311799,-1.1559735536575317,-1.6538282833495082,-2.5277186075793665,2.335468216533325,-1.0193374792682093,0.3732900619506836
1708437285.8331819,-1.1559706926345825,-1.6538611851134242,-2.5276570955859583,2.335406466121338,-1.0193212668048304,0.37333494424819946
1708437285.8351986,-1.1559782028198242,-1.6537829838194789,-2.527698818837301,2.3354596334644775,-1.0193079153644007,0.3732812702655792
1708437285.8371952,-1.1559996604919434,-1.653804441491598,-2.5277016798602503,2.3354272085377197,-1.0193093458758753,0.3732975721359253
1708437285.8392084,-1.1560161113739014,-1.6537953815855921,-2.527689758931295,2.3354107576557617,-1.0193303267108362,0.3733423948287964
1708437285.8412218,-1.1559407711029053,-1.6537953815855921,-2.5276690165149134,2.335500879878662,-1.0193093458758753,0.3733260929584503
1708437285.8432145,-1.1559826135635376,-1.653853555718893,-2.527703348790304,2.335488958949707,-1.0193331877337855,0.37331390380859375
1708437285.8452187,-1.1559690237045288,-1.6538073025145472,-2.527698818837301,2.335460587138794,-1.0193169752704065,0.3732975721359253
1708437285.8472092,-1.1560115814208984,-1.6537829838194789,-2.5277062098132532,2.335406466121338,-1.0193374792682093,0.3732350170612335
1708437285.8492155,-1.1559662818908691,-1.653816362420553,-2.527715269719259,2.3354193407246093,-1.0192912260638636,0.3733226954936981
1708437285.8512611,-1.1559782028198242,-1.653816362420553,-2.527694288884298,2.3354150491901855,-1.0193169752704065,0.37331831455230713
1708437285.853226,-1.1559906005859375,-1.653799673120016,-2.527715269719259,2.3354391294666748,-1.019275967274801,0.37334686517715454
1708437285.8552217,-1.1559454202651978,-1.6538282833495082,-2.527694288884298,2.335440083140991,-1.0193288961993616,0.37329310178756714
1708437285.8572621,-1.1559996604919434,-1.6538120708861292,-2.527694288884298,2.335422917003296,-1.0193494001971644,0.37329310178756714
1708437285.859181,-1.1559735536575317,-1.6537581882872523,-2.5277140776263636,2.3354272085377197,-1.0193212668048304,0.37328124046325684
1708437285.8611796,-1.1559826135635376,-1.653825422326559,-2.5277321974383753,2.335406466121338,-1.0193002859698694,0.3733226954936981
1708437285.8632154,-1.1560252904891968,-1.653825422326559,-2.5277321974383753,2.3354520040699462,-1.0193331877337855,0.3732856512069702
1708437285.8652127,-1.155991792678833,-1.653837343255514,-2.527715269719259,2.3354477125355224,-1.0193703810321253,0.37326356768608093
1708437285.8672228,-1.1559782028198242,-1.6537920437254847,-2.527715269719259,2.3354477125355224,-1.0193660894977015,0.37332719564437866
1708437285.8691673,-1.1559454202651978,-1.6538177929320277,-2.527694288884298,2.335468216533325,-1.0192959944354456,0.37333497405052185
1708437285.8711705,-1.1559782028198242,-1.6537696323790492,-2.5277140776263636,2.3354999262043457,-1.0192959944354456,0.37327340245246887
1708437285.8732257,-1.155954360961914,-1.653771539727682,-2.527698818837301,2.3354639249989013,-1.0193541685687464,0.37326014041900635
1708437285.8751838,-1.1559481620788574,-1.653773923913473,-2.5277486483203333,2.3354477125355224,-1.0193169752704065,0.37333935499191284
1708437285.8771753,-1.1560161113739014,-1.653858324090475,-2.52767783800234,2.3354760843464355,-1.0193422476397913,0.3732690215110779
1708437285.8792,-1.1559906005859375,-1.6537963352599085,-2.5277231375323694,2.335472508067749,-1.0192745367633265,0.37323638796806335
1708437285.8811882,-1.1559646129608154,-1.653771539727682,-2.527715269719259,2.3354315000721435,-1.0193422476397913,0.37331727147102356
1708437285.8831947,-1.1559690237045288,-1.6538282833495082,-2.527764860783712,2.3355042177387695,-1.0193746725665491,0.3732856512069702
1708437285.885162,-1.1559906005859375,-1.6537982426085414,-2.5277062098132532,2.3354193407246093,-1.0193050543414515,0.3732812702655792
1708437285.887236,-1.15599524974823,-1.6538416347899378,-2.5277321974383753,2.3354434210010986,-1.0193169752704065,0.37330639362335205
1708437285.8892357,-1.1559735536575317,-1.653804441491598,-2.527715269719259,2.3354596334644775,-1.0193169752704065,0.37330639362335205
1708437285.891185,-1.155954360961914,-1.653787752191061,-2.527686897908346,2.3354477125355224,-1.0193169752704065,0.37327340245246887
1708437285.8931801,-1.1559906005859375,-1.6537953815855921,-2.527710739766256,2.335460587138794,-1.0193570295916956,0.37331825494766235
1708437285.8951879,-1.1560025215148926,-1.6538087330260218,-2.527689758931295,2.3354477125355224,-1.0193422476397913,0.3732900619506836
1708437285.8973238,-1.1559871435165405,-1.6538120708861292,-2.527698818837301,2.3354553419300537,-1.0193288961993616,0.3733348846435547
1708437285.8991938,-1.1559827327728271,-1.6537920437254847,-2.527694288884298,2.335434837932251,-1.0193093458758753,0.37330639362335205
1708437285.9012153,-1.1559572219848633,-1.653787752191061,-2.5277560392962855,2.33545105039563,-1.0193374792682093,0.37333932518959045
1708437285.9032357,-1.1560115814208984,-1.6537624798216761,-2.5276926199542444,2.3354922968098144,-1.0193422476397913,0.3732856810092926
1708437285.9051914,-1.1559906005859375,-1.6537805996336878,-2.5277605692492884,2.335463209743164,-1.0193012396441858,0.37333932518959045
1708437285.907222,-1.1559906005859375,-1.653799673120016,-2.5277321974383753,2.3354760843464355,-1.0193494001971644,0.3732690215110779
1708437285.9091969,-1.1559572219848633,-1.6537953815855921,-2.5276780764209192,2.3354880052753906,-1.0193331877337855,0.373313844203949
1708437285.9112318,-1.1559816598892212,-1.6538120708861292,-2.5276809374438685,2.3354922968098144,-1.0193374792682093,0.37327343225479126
1708437285.9132495,-1.156018853187561,-1.653825422326559,-2.527715269719259,2.3354553419300537,-1.0193050543414515,0.37323200702667236
1708437285.9151747,-1.15599524974823,-1.653773923913473,-2.527710739766256,2.3354639249989013,-1.0193746725665491,0.3733392655849457
1708437285.9171846,-1.1560025215148926,-1.653778692285055,-2.5277350584613245,2.3354639249989013,-1.0193408171283167,0.3732527494430542
1708437285.9191794,-1.1559691429138184,-1.653821130792135,-2.527665917073385,2.3354717928120117,-1.0193002859698694,0.37329891324043274
1708437285.9211862,-1.1559906005859375,-1.6538282833495082,-2.527689758931295,2.33545629560437,-1.0193494001971644,0.37323641777038574
1708437285.9232132,-1.155948281288147,-1.6538087330260218,-2.527715269719259,2.3354803758808593,-1.0192917029010218,0.3732900619506836
1708437285.9251838,-1.156023383140564,-1.6538120708861292,-2.527698818837301,2.3354520040699462,-1.0193374792682093,0.3733305335044861
1708437285.9271982,-1.156018853187561,-1.653776308099264,-2.52767783800234,2.3354150491901855,-1.0193780104266565,0.3732900619506836
1708437285.9291697,-1.1559690237045288,-1.6537829838194789,-2.5276971499072474,2.3354315000721435,-1.0193169752704065,0.3732856810092926
1708437285.9311755,-1.1560280323028564,-1.6538011036314906,-2.5277605692492884,2.3354107576557617,-1.0193613211261194,0.3732975423336029
1708437285.9332652,-1.1560055017471313,-1.6538282833495082,-2.527689758931295,2.3354553419300537,-1.0193331877337855,0.3733348548412323
1708437285.935209,-1.1560642719268799,-1.653771539727682,-2.5277186075793665,2.335484667415283,-1.0193331877337855,0.3732931315898895
1708437285.9372025,-1.1559727191925049,-1.6537591419615687,-2.527710739766256,2.3354803758808593,-1.0193541685687464,0.37327685952186584
1708437285.9391878,-1.155964732170105,-1.653771539727682,-2.527710739766256,2.3354965883442382,-1.0193541685687464,0.3732571303844452
1708437285.9411528,-1.1560397148132324,-1.653816362420553,-2.527694288884298,2.335434837932251,-1.0193584601031702,0.3733019232749939
1708437285.9431803,-1.1560189723968506,-1.6537953815855921,-2.527752939854757,2.3354965883442382,-1.0193169752704065,0.37330636382102966
1708437285.9452162,-1.1559816598892212,-1.6538135013976039,-2.5276616255389612,2.3354553419300537,-1.0193122068988245,0.3732931613922119
1708437285.9471958,-1.156018853187561,-1.6537910900511683,-2.5277722517596644,2.335495634669922,-1.0193494001971644,0.37332266569137573
1708437285.9491825,-1.1560382843017578,-1.6537829838194789,-2.527741018925802,2.3354357916065673,-1.0193451086627405,0.37332266569137573
1708437285.9512315,-1.1560426950454712,-1.6538087330260218,-2.5276852289782923,2.3355085092731933,-1.0193198362933558,0.37333932518959045
1708437285.9532187,-1.1560008525848389,-1.653816362420553,-2.5276852289782923,2.3354315000721435,-1.0193331877337855,0.37324079871177673
1708437285.95519,-1.1560426950454712,-1.653771539727682,-2.527748409901754,2.3354999262043457,-1.0193241278277796,0.3732976019382477
1708437285.9571967,-1.1560055017471313,-1.6537920437254847,-2.527698818837301,2.3355085092731933,-1.0193494001971644,0.37330198287963867
1708437285.9592154,-1.1560462713241577,-1.653804441491598,-2.5277770201312464,2.335446758861206,-1.0193570295916956,0.37333932518959045
1708437285.9612415,-1.1560626029968262,-1.6537562809386195,-2.5276525656329554,2.3354717928120117,-1.0193241278277796,0.37329891324043274
1708437285.9632158,-1.1560336351394653,-1.6537634334959925,-2.5277016798602503,2.3354717928120117,-1.0193050543414515,0.3732931315898895
1708437285.965162,-1.156024694442749,-1.6538120708861292,-2.527710739766256,2.335491343135498,-1.0193169752704065,0.37324386835098267
1708437285.9671733,-1.1560670137405396,-1.653821130792135,-2.5277350584613245,2.3355294901081542,-1.0193613211261194,0.3733108341693878
1708437285.9691796,-1.1560580730438232,-1.653787752191061,-2.527689758931295,2.335463209743164,-1.0193255583392542,0.37331390380859375
1708437285.971155,-1.1560173034667969,-1.653837343255514,-2.5277515093432825,2.3354880052753906,-1.0193494001971644,0.37330636382102966
1708437285.973163,-1.156029224395752,-1.6537624798216761,-2.527710739766256,2.3354837137409667,-1.0193036238299769,0.3732527494430542
1708437285.9751678,-1.1560670137405396,-1.6537920437254847,-2.527710739766256,2.335467501277588,-1.0192917029010218,0.37330636382102966
1708437285.9771798,-1.156071662902832,-1.6537920437254847,-2.5277276674853724,2.335521622295044,-1.0193494001971644,0.3732900619506836
1708437285.979161,-1.1560790538787842,-1.653816362420553,-2.527715269719259,2.3355163770863037,-1.0193422476397913,0.3732900619506836
1708437285.981186,-1.1560717821121216,-1.6537634334959925,-2.5277515093432825,2.33545105039563,-1.0192917029010218,0.3732813000679016
1708437285.9831977,-1.1560417413711548,-1.6538135013976039,-2.5277441183673304,2.3354837137409667,-1.0193241278277796,0.37329891324043274
1708437285.9851732,-1.1560173034667969,-1.6538626156248988,-2.527694288884298,2.335463209743164,-1.0193241278277796,0.3733349144458771
1708437285.9871788,-1.156103491783142,-1.653771539727682,-2.527710739766256,2.3354717928120117,-1.0193408171283167,0.37326905131340027
1708437285.9891808,-1.1560581922531128,-1.653729101220602,-2.5277062098132532,2.335491343135498,-1.0193317572223108,0.3732976019382477
1708437285.9911797,-1.1560834646224976,-1.653799673120016,-2.5277062098132532,2.33551208555188,-1.0192988554583948,0.3732779026031494
1708437285.9932122,-1.1560417413711548,-1.653771539727682,-2.5277560392962855,2.3355042177387695,-1.0193331877337855,0.3733152449131012
1708437285.9953072,-1.1560745239257812,-1.653816362420553,-2.5277231375323694,2.335479422206543,-1.0193331877337855,0.3732900619506836
1708437285.997227,-1.1560581922531128,-1.6537829838194789,-2.527710739766256,2.335479422206543,-1.0193613211261194,0.3732900619506836
1708437285.9992101,-1.1560864448547363,-1.6537953815855921,-2.527719561253683,2.3354999262043457,-1.0193746725665491,0.3733227252960205
1708437286.0012255,-1.1560461521148682,-1.6538087330260218,-2.5277186075793665,2.33545891820874,-1.0193613211261194,0.3732571303844452
1708437286.0032082,-1.1560789346694946,-1.653787752191061,-2.5277321974383753,2.3354665476032714,-1.0193241278277796,0.3732976019382477
1708437286.005198,-1.1560670137405396,-1.6537920437254847,-2.5277062098132532,2.33551208555188,-1.0192988554583948,0.37326905131340027
1708437286.007212,-1.1560953855514526,-1.653787752191061,-2.5277424494372767,2.3355163770863037,-1.0193570295916956,0.37329453229904175
1708437286.0092196,-1.156103491783142,-1.6538120708861292,-2.5277441183673304,2.335495634669922,-1.0193660894977015,0.3732900619506836
1708437286.0112278,-1.156092643737793,-1.653832574883932,-2.5277062098132532,2.335479422206543,-1.0193913618670862,0.37327343225479126
1708437286.0132172,-1.1560372114181519,-1.653712888757223,-2.5277016798602503,2.335507794017456,-1.0193479696856897,0.37329891324043274
1708437286.0151715,-1.1561124324798584,-1.653804441491598,-2.527715269719259,2.3355042177387695,-1.0193823019610804,0.3733108341693878
1708437286.0172179,-1.156083345413208,-1.653816362420553,-2.5277140776263636,2.335519714946411,-1.0193780104266565,0.37332266569137573
1708437286.019178,-1.1560864448547363,-1.6538135013976039,-2.52767783800234,2.3355282980152587,-1.0193451086627405,0.3732646405696869
1708437286.0211809,-1.1560773849487305,-1.6537829838194789,-2.527710739766256,2.3354708391376953,-1.019327465687887,0.37331390380859375
1708437286.0232086,-1.1560899019241333,-1.6538416347899378,-2.5277469793902796,2.3355154234119873,-1.0193241278277796,0.37330636382102966
1708437286.0251698,-1.1560789346694946,-1.6538135013976039,-2.5277486483203333,2.33551208555188,-1.0193570295916956,0.37329453229904175
1708437286.027207,-1.1560988426208496,-1.653853555718893,-2.5277062098132532,2.3354992109486084,-1.0193408171283167,0.37329453229904175
1708437286.029156,-1.156108021736145,-1.6538087330260218,-2.5277062098132532,2.335552616710327,-1.0194228331195276,0.37330636382102966
1708437286.0311534,-1.1560490131378174,-1.653804441491598,-2.5277276674853724,2.3354860979267578,-1.0193732420550745,0.3732900619506836
1708437286.0331917,-1.1560701131820679,-1.6537829838194789,-2.5277321974383753,2.3354860979267578,-1.019393269215719,0.3733271658420563
1708437286.0352025,-1.1560536623001099,-1.6538120708861292,-2.527698818837301,2.3355230528065185,-1.019393269215719,0.3733108341693878
1708437286.0372024,-1.156028151512146,-1.6537920437254847,-2.5277276674853724,2.3355437952229003,-1.019426170979635,0.3732975721359253
1708437286.0392048,-1.1560701131820679,-1.6537634334959925,-2.5277441183673304,2.3355230528065185,-1.019409481679098,0.37329891324043274
1708437286.0412486,-1.1561214923858643,-1.6538387737669886,-2.5276971499072474,2.335608883494995,-1.0193842093097132,0.37326160073280334
1708437286.0432115,-1.1560609340667725,-1.6537672481932582,-2.5277469793902796,2.3356405931660156,-1.0194171110736292,0.3732779026031494
1708437286.0452254,-1.1561079025268555,-1.6538087330260218,-2.5277016798602503,2.335620089168213,-1.0194008986102503,0.37332266569137573
1708437286.0472047,-1.1560701131820679,-1.653832574883932,-2.5277305285083216,2.3356570440479736,-1.0194466749774378,0.37326905131340027
1708437286.04923,-1.1560988426208496,-1.6537634334959925,-2.5277722517596644,2.335660143489502,-1.019454304371969,0.37326160073280334
1708437286.0511925,-1.1561124324798584,-1.653816362420553,-2.5277276674853724,2.3355986314960937,-1.0194290320025843,0.37324079871177673
1708437286.053234,-1.1560536623001099,-1.653776308099264,-2.5277186075793665,2.3356148439594726,-1.0194008986102503,0.3732856810092926
1708437286.055282,-1.1560536623001099,-1.6538011036314906,-2.527710739766256,2.3356029230305175,-1.019454304371969,0.3732452988624573
1708437286.0572114,-1.1560536623001099,-1.653858324090475,-2.5276945273028772,2.335643931026123,-1.0193842093097132,0.3733108341693878
1708437286.059222,-1.1560581922531128,-1.653745790521139,-2.5277379194842737,2.335681124324463,-1.0193799177752894,0.37329891324043274
1708437286.0611908,-1.1561079025268555,-1.6537829838194789,-2.5277560392962855,2.3356072145649414,-1.0194008986102503,0.3732900619506836
1708437286.063209,-1.156115174293518,-1.653821130792135,-2.5277441183673304,2.3356234270283203,-1.0193961302386683,0.37334808707237244
1708437286.0651798,-1.1560745239257812,-1.6537548504271449,-2.5277097860919397,2.335611506099365,-1.0194128195392054,0.37325844168663025
1708437286.0672348,-1.1560536623001099,-1.653837343255514,-2.5277276674853724,2.335632010097168,-1.0194500128375452,0.37324386835098267
1708437286.069279,-1.1560988426208496,-1.653771539727682,-2.5277350584613245,2.335627718562744,-1.0194037596331995,0.37326160073280334
1708437286.0711906,-1.1560908555984497,-1.653787752191061,-2.5277186075793665,2.3356644350239257,-1.0194380919085901,0.37329453229904175
1708437286.0732076,-1.1561079025268555,-1.6537548504271449,-2.5277634302722376,2.3355941015430908,-1.0193842093097132,0.3732571601867676
1708437286.0751753,-1.1561450958251953,-1.6537353001036585,-2.527803961430685,2.3356072145649414,-1.0194290320025843,0.37330198287963867
1708437286.0772407,-1.156104564666748,-1.6537853680052699,-2.5278082529651087,2.335599346751831,-1.0194781462298792,0.3732779026031494
1708437286.0791776,-1.1560699939727783,-1.653778692285055,-2.527823511754171,2.335672302837036,-1.0194571653949183,0.37326598167419434
1708437286.0812008,-1.156103491783142,-1.653799673120016,-2.5278189818011683,2.335632010097168,-1.0193946997271937,0.37327343225479126
1708437286.0832016,-1.1560944318771362,-1.653832574883932,-2.5278518835650843,2.3356072145649414,-1.0194619337665003,0.37329891324043274
1708437286.085189,-1.1560817956924438,-1.653821130792135,-2.5278802553759974,2.335627718562744,-1.0194199720965784,0.3733152151107788
1708437286.0871863,-1.1560988426208496,-1.653741022149557,-2.5278144518481653,2.335643931026123,-1.0194080511676233,0.3732571005821228
1708437286.0891793,-1.1561199426651,-1.653799673120016,-2.5278850237475794,2.335632010097168,-1.019433323537008,0.37323203682899475
1708437286.0911694,-1.1561198234558105,-1.6537896595396937,-2.5278504530536097,2.3355917173572998,-1.0194247404681605,0.37330198287963867
1708437286.0931928,-1.1560417413711548,-1.6538087330260218,-2.5278669039355677,2.3355907636829834,-1.0194619337665003,0.3733271658420563
1708437286.0952232,-1.1561033725738525,-1.653821130792135,-2.5278459231006067,2.3355745512196044,-1.0194662253009241,0.3732290267944336
1708437286.0972044,-1.1560953855514526,-1.653799673120016,-2.5278459231006067,2.3356353479572753,-1.0194290320025843,0.3732856810092926
1708437286.099218,-1.156115174293518,-1.6538135013976039,-2.5278757254229944,2.335603638286255,-1.0194571653949183,0.3732779026031494
1708437286.101212,-1.1561243534088135,-1.6537953815855921,-2.527879063283102,2.3356234270283203,-1.0194500128375452,0.37326160073280334
1708437286.1032553,-1.1561123132705688,-1.653771539727682,-2.5278459231006067,2.3355917173572998,-1.0194128195392054,0.37326598167419434
1708437286.1051981,-1.1560953855514526,-1.653804441491598,-2.527907435094015,2.335575504893921,-1.0194037596331995,0.3733152151107788
1708437286.1071987,-1.156050682067871,-1.653837343255514,-2.527881924306051,2.335599346751831,-1.0194528738604944,0.3733195662498474
1708437286.1092105,-1.1560953855514526,-1.653821130792135,-2.5278623739825647,2.3356122213551025,-1.0194571653949183,0.3732779026031494
1708437286.1112015,-1.1560953855514526,-1.653804441491598,-2.5278459231006067,2.335575504893921,-1.0194171110736292,0.3732866644859314
1708437286.1132224,-1.1560834646224976,-1.6537548504271449,-2.527824942265646,2.3355719286152343,-1.0194366613971155,0.37330636382102966
1708437286.1152732,-1.156024694442749,-1.6537829838194789,-2.527890984212057,2.3355111318775634,-1.0194605032550257,0.3732703626155853
1708437286.1172032,-1.1560626029968262,-1.6537910900511683,-2.5278924147235315,2.3355273443409423,-1.0195100943194788,0.3732660412788391
1708437286.119183,-1.156035304069519,-1.653771539727682,-2.5278714338885706,2.335519714946411,-1.0194605032550257,0.3732791841030121
1708437286.121184,-1.1560609340667725,-1.6538826427855433,-2.5279207865344446,2.3355163770863037,-1.0194810072528284,0.3732900321483612
1708437286.123187,-1.1559906005859375,-1.6538120708861292,-2.527824942265646,2.3355085092731933,-1.0194557348834437,0.37331831455230713
1708437286.1251752,-1.1559618711471558,-1.6537953815855921,-2.527900044118063,2.335422917003296,-1.0194767157184046,0.37329453229904175
1708437286.1272168,-1.155932903289795,-1.6538692913451136,-2.5278638044940394,2.3354529577442626,-1.0195396582232874,0.3732690215110779
1708437286.129183,-1.1559419631958008,-1.6538120708861292,-2.5278924147235315,2.3353585439869384,-1.0194395224200647,0.3733260929584503
1708437286.131165,-1.155922532081604,-1.6538402042784632,-2.52789551416506,2.3353354173847656,-1.0194795767413538,0.37331390380859375
1708437286.133178,-1.1558897495269775,-1.6537953815855921,-2.5279043356524866,2.3353113371082763,-1.0194810072528284,0.3732646405696869
1708437286.13518,-1.1558853387832642,-1.6537863216795863,-2.527841631566183,2.3353156286427,-1.0194724241839808,0.37331828474998474
1708437286.1372101,-1.155822992324829,-1.6538645229735316,-2.527902905141012,2.335259123439453,-1.0194886366473597,0.37330198287963867
1708437286.1392243,-1.1558797359466553,-1.6538826427855433,-2.5278669039355677,2.3352557855793457,-1.019435230885641,0.37331828474998474
1708437286.141186,-1.1558456420898438,-1.6538716755309046,-2.5279043356524866,2.3351871210285644,-1.0194605032550257,0.3733305335044861
1708437286.1431756,-1.1557815074920654,-1.653875013391012,-2.5278549830066126,2.3351468282886962,-1.0194810072528284,0.3733631372451782
1708437286.145193,-1.155765175819397,-1.653884073297018,-2.527879063283102,2.3351186948963623,-1.0194886366473597,0.37332919239997864
1708437286.1472468,-1.1557283401489258,-1.6538950405516566,-2.527886454259054,2.3350540834614257,-1.0194395224200647,0.3733499050140381
1708437286.1491957,-1.1557209491729736,-1.6539479694762171,-2.527883593236105,2.3351127344318847,-1.0194557348834437,0.3733246922492981
1708437286.1512086,-1.1556744575500488,-1.6539269886412562,-2.5278263727771204,2.335002823466919,-1.0194929281817835,0.37331727147102356
1708437286.153223,-1.155596375465393,-1.6539770565428675,-2.5278881231891077,2.3350483614155273,-1.0194485823260706,0.37332475185394287
1708437286.1551785,-1.1555346250534058,-1.654048582116598,-2.5278337637530726,2.334975405330322,-1.0195143858539026,0.37341853976249695
1708437286.1571782,-1.1555237770080566,-1.6540304623045863,-2.5278685728656214,2.334939404124878,-1.019463364277975,0.37346315383911133
1708437286.1592023,-1.1554970741271973,-1.654088636437887,-2.5278504530536097,2.3348392683216552,-1.0194724241839808,0.3735242486000061
1708437286.1612878,-1.1553856134414673,-1.6540905437865199,-2.5278757254229944,2.3347782331654052,-1.019501034413473,0.37346959114074707
1708437286.1632066,-1.155400276184082,-1.6542102299132289,-2.5278595129596155,2.334772511119507,-1.019501034413473,0.3735012114048004
1708437286.165166,-1.155290126800537,-1.6542326412596644,-2.5278263727771204,2.334711475963257,-1.0194967428790491,0.37352946400642395
1708437286.1671722,-1.155266523361206,-1.6542116604247035,-2.5278881231891077,2.3345774847218017,-1.0195172468768519,0.3736158013343811
1708437286.1691654,-1.1552019119262695,-1.6543013058104457,-2.52789551416506,2.3345350462147216,-1.0194967428790491,0.37362220883369446
1708437286.1711571,-1.1552091836929321,-1.6543251476683558,-2.52789551416506,2.334479256267212,-1.0195100943194788,0.37364935874938965
1708437286.1731782,-1.1550618410110474,-1.6543194256224574,-2.5278669039355677,2.334415836925171,-1.0194967428790491,0.3737105131149292
1708437286.1751664,-1.1550346612930298,-1.6543952427306117,-2.5278294722186487,2.33429925023999,-1.0195220152484339,0.37370896339416504
1708437286.1772377,-1.1549084186553955,-1.6544057331480921,-2.5278595129596155,2.3341781336018066,-1.0195053259478968,0.3737625777721405
1708437286.1791747,-1.1548528671264648,-1.6545092068114222,-2.527841631566183,2.3341194826313476,-1.0194967428790491,0.3738061487674713
1708437286.1811676,-1.1547855138778687,-1.654544015923971,-2.5278549830066126,2.334010286922119,-1.0194676558123987,0.3738989233970642
1708437286.1831958,-1.1547056436538696,-1.6545516453185023,-2.5278504530536097,2.333955689067505,-1.0195100943194788,0.37391728162765503
1708437286.1851838,-1.1546165943145752,-1.6545735798277796,-2.5278714338885706,2.333810730571411,-1.019501034413473,0.37396958470344543
1708437286.187199,-1.1545202732086182,-1.6546679935851039,-2.5278669039355677,2.333702965373657,-1.0194767157184046,0.3739962577819824
1708437286.189182,-1.1543911695480347,-1.654736658135885,-2.5278504530536097,2.3335861402698974,-1.0195263067828577,0.37407711148262024
1708437286.1911604,-1.1543246507644653,-1.654745718041891,-2.527841631566183,2.333531542415283,-1.0194605032550257,0.37418174743652344
1708437286.1931877,-1.154178500175476,-1.6548177204527796,-2.5278382937060755,2.3333539205738525,-1.0194276014911097,0.3741970360279083
1708437286.195202,-1.1540330648422241,-1.6548716030516566,-2.5278549830066126,2.3332502084919433,-1.019435230885641,0.37427282333374023
1708437286.1972022,-1.1539503335952759,-1.6548477611937464,-2.5278595129596155,2.333089752788208,-1.019459072743551,0.37436556816101074
1708437286.199206,-1.1537383794784546,-1.6550318203368128,-2.5278473536120813,2.3329784113117675,-1.0195220152484339,0.3744211196899414
1708437286.201222,-1.1536604166030884,-1.6550919018187464,-2.5278595129596155,2.332857533092163,-1.0194929281817835,0.37450936436653137
1708437286.2032259,-1.1535396575927734,-1.6551667652525843,-2.5278759638415735,2.3327342706867675,-1.0194605032550257,0.37457242608070374
1708437286.2051964,-1.1534069776535034,-1.6551977596678675,-2.5278099218951624,2.3326479631611328,-1.019512955342428,0.3746563494205475
1708437286.2072093,-1.1532788276672363,-1.6553193531432093,-2.5278881231891077,2.3325158792683105,-1.0194557348834437,0.37473586201667786
1708437286.2092276,-1.1530849933624268,-1.6554318867125453,-2.5278189818011683,2.3322371679493408,-1.0194843451129358,0.3748728036880493
1708437286.2112212,-1.152958869934082,-1.6554862461485804,-2.527823511754171,2.33211795865979,-1.0194810072528284,0.37491846084594727
1708437286.2132356,-1.1527724266052246,-1.6555458507933558,-2.5278144518481653,2.3319784837910156,-1.0194647947894495,0.3750571608543396
1708437286.2151656,-1.1526408195495605,-1.6556068859496058,-2.527839962636129,2.3318142133900146,-1.019407097493307,0.37516915798187256
1708437286.2171907,-1.1525415182113647,-1.6557508907713832,-2.5278144518481653,2.331597014064453,-1.0195019880877894,0.37524840235710144
1708437286.2191699,-1.1523315906524658,-1.6558176479735316,-2.527823511754171,2.3314544397541503,-1.0194857756244105,0.3753755986690521
1708437286.2211807,-1.1521673202514648,-1.655886789361471,-2.5278189818011683,2.331277771587036,-1.0195110479937952,0.37549689412117004
1708437286.223193,-1.1519989967346191,-1.6560470066466273,-2.5278189818011683,2.33112279951062,-1.0194276014911097,0.37561967968940735
1708437286.2251914,-1.1518208980560303,-1.6561323604979457,-2.527832333241598,2.3309175211140136,-1.0194199720965784,0.37573185563087463
1708437286.22723,-1.1516001224517822,-1.6561933956541957,-2.527865235005514,2.330672188396118,-1.0194318930255335,0.37589627504348755
1708437286.229182,-1.1513981819152832,-1.6563416920103968,-2.527785841618673,2.330484552974365,-1.0194409529315394,0.37604448199272156
1708437286.2311795,-1.1512525081634521,-1.6563927135863246,-2.5278144518481653,2.330355091685913,-1.0194247404681605,0.3761228621006012
1708437286.2331817,-1.1510838270187378,-1.6565243206419886,-2.527811590825216,2.330108328456543,-1.019409481679098,0.37629151344299316
1708437286.235193,-1.1509126424789429,-1.6565844021239222,-2.527807060872213,2.3298637109943847,-1.0194171110736292,0.3764391243457794
1708437286.2372265,-1.1507127285003662,-1.656717439691061,-2.527790371571676,2.329667492503784,-1.0193842093097132,0.3765372037887573
1708437286.2392292,-1.1504735946655273,-1.6568075619139613,-2.5278082529651087,2.3294645982929687,-1.0193598906146448,0.3766483664512634
1708437286.2412212,-1.1502283811569214,-1.656910081902975,-2.5277753512011927,2.3293019968220214,-1.019376579915182,0.37682482600212097
1708437286.2432241,-1.1500236988067627,-1.6570483646788539,-2.5277918020831507,2.3290206628986816,-1.0193899313556116,0.3769932985305786
1708437286.2452753,-1.1498446464538574,-1.657206197778219,-2.527717177067892,2.3287271696278076,-1.0193241278277796,0.377103328704834
1708437286.2472384,-1.1496230363845825,-1.657299657861227,-2.5277965704547327,2.328517122859619,-1.0193050543414515,0.37730473279953003
1708437286.2492094,-1.149344801902771,-1.6574331722655238,-2.5277095476733606,2.328256054515503,-1.0193050543414515,0.3774309754371643
1708437286.251196,-1.149124026298523,-1.6575471363463343,-2.5276806990252894,2.3280324178883056,-1.0192716757403772,0.37761929631233215
1708437286.2532477,-1.1489070653915405,-1.657708307305807,-2.527703348790304,2.327838583583496,-1.0193136374102991,0.3777824342250824
1708437286.2552283,-1.1486784219741821,-1.657778879205221,-2.527679506932394,2.327565832729004,-1.019280735646383,0.3780081570148468
1708437286.2572575,-1.1484712362289429,-1.6579319439330042,-2.527633253728048,2.327300949687622,-1.0192926565753382,0.3781500458717346
1708437286.259253,-1.148201584815979,-1.6580501995482386,-2.5276179949389856,2.3270537096210937,-1.0192893187152308,0.3783368766307831
1708437286.2611928,-1.1480263471603394,-1.6581698856749476,-2.5275850931750696,2.326828642482422,-1.019247833882467,0.37856629490852356
1708437286.2632124,-1.1477317810058594,-1.6583224735655726,-2.5275850931750696,2.3265725809284667,-1.019275967274801,0.37874963879585266
1708437286.2651896,-1.147528886795044,-1.658457418481344,-2.5276315847979944,2.3263634878345947,-1.019256893788473,0.3790018856525421
1708437286.2672033,-1.1472426652908325,-1.6585890255370082,-2.5276523272143763,2.3260251718708496,-1.019219700490133,0.3791801631450653
1708437286.2692454,-1.1469645500183105,-1.658671041528219,-2.5275490919696253,2.325798912639282,-1.019247833882467,0.37935155630111694
1708437286.2712128,-1.1467374563217163,-1.6588927708067835,-2.5275657812701624,2.3254317480274658,-1.0192535559283655,0.3795704245567322
1708437286.2732103,-1.1465060710906982,-1.6590172253050746,-2.5275700728045862,2.3252009588428955,-1.0192039648639124,0.3798229992389679
1708437286.2751744,-1.1462393999099731,-1.659173151055807,-2.527545754109518,2.324901266688965,-1.0191801230060022,0.3800252377986908
1708437286.277245,-1.145946741104126,-1.659280916253561,-2.5275593439685267,2.3246607023426513,-1.0191777388202112,0.38026556372642517
1708437286.2791796,-1.1456482410430908,-1.659440656701559,-2.527571503316061,2.324286385173462,-1.0191133658038538,0.38045525550842285
1708437286.2811673,-1.1453883647918701,-1.6595846615233363,-2.5275383631335657,2.32401625692334,-1.0191009680377405,0.3807317316532135
1708437286.2831957,-1.1451122760772705,-1.659738679925436,-2.5275474230395716,2.3236748415180664,-1.0190113226519983,0.3810156285762787
1708437286.2851706,-1.1448439359664917,-1.659952779809469,-2.527501169835226,2.3233555990406494,-1.019045654927389,0.38123130798339844
1708437286.2872066,-1.1445633172988892,-1.6600634060301722,-2.5275190512286585,2.3230604368397216,-1.0190141836749476,0.3814176619052887
1708437286.2892,-1.144200086593628,-1.6601902447142542,-2.5275071302997034,2.322744055385254,-1.0189855734454554,0.38175469636917114
1708437286.291202,-1.143965244293213,-1.660370489160055,-2.5275519529925745,2.322371168727539,-1.0189154783831995,0.3820470869541168
1708437286.293195,-1.1436429023742676,-1.6605330906310023,-2.5275071302997034,2.322103901500366,-1.018954102193014,0.3822660744190216
1708437286.2952218,-1.1433829069137573,-1.6607099972166957,-2.527504269276754,2.3217596250721435,-1.0189679304706019,0.3825577199459076
1708437286.2972183,-1.1430860757827759,-1.660861154595846,-2.527478281651632,2.321427269572876,-1.0188940207110804,0.3828772008419037
1708437286.2992666,-1.1427483558654785,-1.6610785923399867,-2.5274861494647425,2.321135922069214,-1.0188496748553675,0.38314396142959595
1708437286.3012884,-1.1424587965011597,-1.661163946191305,-2.5275161902057093,2.320833130473755,-1.0188449064837855,0.38347941637039185
1708437286.3032103,-1.1422045230865479,-1.6613885364928187,-2.527430597935812,2.320509358043335,-1.0188539663897913,0.3838247060775757
1708437286.305228,-1.1418710947036743,-1.661565443078512,-2.527442518864767,2.32015244543042,-1.018787686024801,0.38408684730529785
1708437286.307177,-1.1415740251541138,-1.6617042026915492,-2.52740985551943,2.319807692165039,-1.018796745930807,0.3844388723373413
1708437286.3092153,-1.141228437423706,-1.6619049511351527,-2.5274019877063196,2.319471998805664,-1.0187986532794397,0.3847498595714569
1708437286.311251,-1.1409320831298828,-1.6620766125121058,-2.527393166218893,2.31918112813916,-1.0187743345843714,0.3850240111351013
1708437286.3132286,-1.1406265497207642,-1.6622525654234828,-2.5274110476123255,2.318808003062866,-1.0187538305865687,0.3853646516799927
1708437286.3151734,-1.140284776687622,-1.6623403034605921,-2.5273614565478724,2.3184844690510253,-1.0187581221209925,0.3857491910457611
1708437286.317193,-1.139981746673584,-1.6625668011107386,-2.527358595524923,2.318136377925537,-1.018775765095846,0.38608047366142273
1708437286.3191745,-1.1396766901016235,-1.662778993646139,-2.5273450056659144,2.317854567165039,-1.0186823050128382,0.38633841276168823
1708437286.321175,-1.1393276453018188,-1.6629229984679164,-2.527363125477926,2.3174616533466796,-1.0186741987811487,0.38677462935447693
1708437286.3231664,-1.1390259265899658,-1.6631013355650843,-2.52738863626589,2.3171018797108154,-1.0185969511615198,0.38717132806777954
1708437286.3251731,-1.138659954071045,-1.6632596455016078,-2.5273435751544397,2.3167337614246826,-1.0185893217669886,0.3874451518058777
1708437286.327216,-1.138376235961914,-1.663431306878561,-2.527317825947897,2.316378279323242,-1.018606964741842,0.38779130578041077
1708437286.329159,-1.1380469799041748,-1.6636082134642542,-2.5273059050189417,2.315965099925659,-1.01854116121401,0.3881866931915283
1708437286.3311675,-1.1376760005950928,-1.6637712917723597,-2.5273268858539026,2.315637989635132,-1.0185263792621058,0.3885650634765625
1708437286.3331819,-1.137437105178833,-1.664018293420309,-2.5272939840899866,2.3152827459522705,-1.0185025374041956,0.38889190554618835
1708437286.3351896,-1.1370997428894043,-1.6641069851317347,-2.5272985140429896,2.314976378078125,-1.0185158888446253,0.38927313685417175
1708437286.3372233,-1.1367824077606201,-1.6642910442748011,-2.5273001829730433,2.3145674902149658,-1.018454376851217,0.3896677792072296
1708437286.339188,-1.1364444494247437,-1.6643954716124476,-2.527283493672506,2.3142403799244384,-1.0184558073626917,0.3900720775127411
1708437286.341178,-1.1361052989959717,-1.664621969262594,-2.527238432561056,2.3138972955891113,-1.018409554158346,0.3904060423374176
1708437286.3432033,-1.1358230113983154,-1.6648150883116664,-2.527221981679098,2.313504620189331,-1.0183852354632776,0.39083391427993774
1708437286.3452306,-1.135481595993042,-1.6649614773192347,-2.527238432561056,2.313119574184082,-1.0183828512774866,0.39118891954421997
1708437286.3472023,-1.1351733207702637,-1.6651812992491664,-2.527189079915182,2.312783880824707,-1.0183656851397913,0.3915686309337616
1708437286.349209,-1.1348637342453003,-1.6653691730894984,-2.5272117296801966,2.3125216203876953,-1.018334690724508,0.39201319217681885
1708437286.3512092,-1.1344894170761108,-1.6655246220030726,-2.5271862188922327,2.3121537405201416,-1.0183551947223108,0.39236965775489807
1708437286.3531997,-1.1342039108276367,-1.665720602075094,-2.5271619001971644,2.3118302065083007,-1.0182855764972132,0.39275720715522766
1708437286.3551803,-1.1339383125305176,-1.6659242115416468,-2.527159039174215,2.3114451605030517,-1.0183075110064905,0.3931446671485901
1708437286.3572276,-1.1335970163345337,-1.66605867962026,-2.5271604696856897,2.3111838537403564,-1.0182507673846644,0.39360541105270386
1708437286.3592253,-1.133258581161499,-1.666316648522848,-2.527172629033224,2.310856981868408,-1.0182669798480433,0.39395448565483093
1708437286.3612328,-1.1330039501190186,-1.6664110622801722,-2.5270825068103235,2.310511274928711,-1.018210236226217,0.3944510221481323
1708437286.3632233,-1.1326560974121094,-1.6666513882079066,-2.5270825068103235,2.3101963239857177,-1.018186394368307,0.3948567509651184
1708437286.3651743,-1.1323432922363281,-1.6668101749815882,-2.5271080175982874,2.3099302488514404,-1.0181501547442835,0.3953608274459839
1708437286.3671916,-1.1320390701293945,-1.6669689617552699,-2.5270825068103235,2.3095366197773437,-1.0181430021869105,0.395827978849411
1708437286.3691814,-1.1317418813705444,-1.6671458683409632,-2.527072254811422,2.309208317393921,-1.0180981794940394,0.3962264657020569
1708437286.371197,-1.1314496994018555,-1.667300363580221,-2.527017895375387,2.3088878828236084,-1.0181487242328089,0.39672553539276123
1708437286.3731918,-1.1311743259429932,-1.667493005792135,-2.52702242532839,2.308528109187744,-1.0180991331683558,0.39716851711273193
1708437286.3751845,-1.130852460861206,-1.667708536187643,-2.5270360151873987,2.3082279401966552,-1.0180662314044397,0.3976266384124756
1708437286.377239,-1.1305797100067139,-1.6678439579405726,-2.5270031134234827,2.307880325908325,-1.0180633703814905,0.39811408519744873
1708437286.3791647,-1.1302344799041748,-1.66801180462026,-2.527026955281393,2.3075031477161865,-1.0180352369891565,0.39859727025032043
1708437286.381168,-1.1299744844436646,-1.6681624851622523,-2.5270119349109095,2.307269974345825,-1.017987076436178,0.39906319975852966
1708437286.3831706,-1.129640817642212,-1.6683417759337367,-2.5269957224475306,2.3069462019154052,-1.0179665724383753,0.3996322453022003
1708437286.3851795,-1.129406213760376,-1.6685053310790003,-2.526977602635519,2.306590719813965,-1.0178974310504358,0.4000621736049652
1708437286.387168,-1.1290929317474365,-1.6687265835204066,-2.5269535223590296,2.306241913432739,-1.0178826490985315,0.4005160927772522
1708437286.3891597,-1.1288264989852905,-1.668811937371725,-2.5269296805011194,2.3059183794208984,-1.017905060444967,0.4010067582130432
1708437286.3911552,-1.1285426616668701,-1.669042249719137,-2.5269506613360804,2.30563132345166,-1.0178435484515589,0.4014412462711334
1708437286.3931754,-1.128212809562683,-1.6691934070982875,-2.5269129912005823,2.3052736955830078,-1.0178106466876429,0.40198543667793274
1708437286.3952324,-1.1279867887496948,-1.6693374119200648,-2.526947561894552,2.30500237523999,-1.0177825132953089,0.40246760845184326
1708437286.3972294,-1.1277273893356323,-1.669459959069723,-2.5269401709186,2.3047026830860595,-1.0178120771991175,0.40294182300567627
1708437286.3992116,-1.1274663209915161,-1.6696235142149867,-2.526919190083639,2.3044487672993164,-1.0177667776690882,0.40347808599472046
1708437286.4012442,-1.127140998840332,-1.6697474918761195,-2.526911799107687,2.304164095515869,-1.0178092161761683,0.40392783284187317
1708437286.403188,-1.126886248588562,-1.6699477634825648,-2.526911799107687,2.303879423732422,-1.0177729765521448,0.40443503856658936
1708437286.4052098,-1.1266310214996338,-1.6700307331480921,-2.526874367390768,2.3036092954822998,-1.0177190939532679,0.4049588143825531
1708437286.40719,-1.1264045238494873,-1.6701981029906214,-2.5269253889666956,2.3033498960682373,-1.0176785627948206,0.4054616391658783
1708437286.4092321,-1.1261194944381714,-1.6702972851195277,-2.5268800894366663,2.303077383632324,-1.0177043120013636,0.40593913197517395
1708437286.4112782,-1.12584388256073,-1.6704708538451136,-2.5268426577197474,2.3027776914783935,-1.0176919142352503,0.4064551293849945
1708437286.4132242,-1.125579595565796,-1.670642992059225,-2.5268097559558313,2.302541895503662,-1.0176680723773401,0.4069460332393646
1708437286.4151726,-1.125314474105835,-1.6707984409727992,-2.5268307367907923,2.30225317060437,-1.0176680723773401,0.40741950273513794
1708437286.417162,-1.1250754594802856,-1.6708809338011683,-2.526827875767843,2.3019370275684814,-1.0176518599139612,0.40798401832580566
1708437286.4191635,-1.1248691082000732,-1.6710459194579066,-2.526818815861837,2.3017429548450927,-1.0176532904254358,0.40848153829574585
1708437286.4211688,-1.1246449947357178,-1.6711965999998988,-2.52682334581484,2.301443262691162,-1.017611328755514,0.409029096364975
1708437286.4231699,-1.124389410018921,-1.6713415584959925,-2.52682334581484,2.3011836248585205,-1.0175593535052698,0.40954259037971497
1708437286.4252017,-1.1241281032562256,-1.6714440784850062,-2.526832405720846,2.3008827406116943,-1.0175512472735804,0.41008681058883667
1708437286.4272187,-1.1238974332809448,-1.6715651951231898,-2.5268123785602015,2.300581856364868,-1.0175965468036097,0.41063404083251953
1708437286.4291706,-1.123661994934082,-1.6716991863646449,-2.526749912892477,2.300269766444824,-1.0175603071795862,0.4111765921115875
1708437286.4311552,-1.1234042644500732,-1.6718360386290492,-2.5267871061908167,2.30001084386792,-1.0175483862506312,0.41169077157974243
1708437286.4331968,-1.1232006549835205,-1.6719633541502894,-2.526820484791891,2.299804611796997,-1.0175498167621058,0.4122579097747803
1708437286.4351802,-1.122997522354126,-1.6720873318114222,-2.5267301241504114,2.2994798856922607,-1.0175336042987269,0.4128091037273407
1708437286.4372003,-1.122786521911621,-1.672150274316305,-2.5267677942859095,2.2992593485065917,-1.0174673239337366,0.41340890526771545
1708437286.4392073,-1.1225824356079102,-1.6722942791380824,-2.5267677942859095,2.2990807729908447,-1.0174673239337366,0.4139581322669983
1708437286.4412117,-1.1223946809768677,-1.6724258861937464,-2.5267422834979456,2.298917217845581,-1.0174720923053187,0.4144478440284729
1708437286.4432411,-1.122154712677002,-1.6726156673827113,-2.5267391840564173,2.29862825452771,-1.0174348990069788,0.4150512218475342
1708437286.4452221,-1.1219135522842407,-1.6727148495116175,-2.5267182032214563,2.2984255987354736,-1.0173957983600062,0.4156383275985718
1708437286.4471977,-1.1217055320739746,-1.6728021107115687,-2.52674371400942,2.2982141214558105,-1.0174701849566858,0.4162325859069824
1708437286.449172,-1.1215267181396484,-1.6730038128294886,-2.5267558733569544,2.298046036357544,-1.0174124876605433,0.41682833433151245
1708437286.4512007,-1.1213022470474243,-1.6730205021300257,-2.5266972223864954,2.2978097635456542,-1.0173795858966272,0.41732051968574524
1708437286.453237,-1.1210485696792603,-1.6731611690916957,-2.526689592991964,2.297590418452881,-1.017376724873678,0.4179854094982147
1708437286.4552445,-1.1208536624908447,-1.6732803783812464,-2.5266898314105433,2.297370596522949,-1.017376724873678,0.41855788230895996
1708437286.457211,-1.120648741722107,-1.6733633480467738,-2.526707712803976,2.2971412378498535,-1.0173686186419886,0.4191654324531555
1708437286.4592354,-1.1204500198364258,-1.6735078297057093,-2.526703182850973,2.2969283300587158,-1.0173853079425257,0.41974741220474243
1708437286.4612246,-1.1203120946884155,-1.6735593281187953,-2.526695791875021,2.296773834819458,-1.0173729101764124,0.4203176498413086
1708437286.4632144,-1.120123028755188,-1.6736580334105433,-2.526703182850973,2.2966131406971435,-1.0174225012408655,0.4209260046482086
1708437286.4652045,-1.119960069656372,-1.673779626885885,-2.526712242756979,2.296398802394531,-1.017374340687887,0.42148497700691223
1708437286.4672296,-1.1197514533996582,-1.6739031277098597,-2.5266581217395228,2.2962040144154052,-1.0173118750201624,0.42207059264183044
1708437286.4693184,-1.1195592880249023,-1.6739331684508265,-2.5266581217395228,2.296031876201294,-1.0173118750201624,0.42260023951530457
1708437286.4712045,-1.1193615198135376,-1.6740414104857386,-2.5266252199756067,2.2958401876636962,-1.0172794500934046,0.4232684373855591
1708437286.4732196,-1.1192400455474854,-1.6741711101927699,-2.526653830205099,2.2955984312244873,-1.0173047224627894,0.42381832003593445
1708437286.4751759,-1.1190675497055054,-1.674208780328268,-2.5266552607165735,2.29541985570874,-1.017374340687887,0.4244326651096344
1708437286.477264,-1.1188998222351074,-1.6743256054320277,-2.5266431013690394,2.295259638423584,-1.0173419157611292,0.4249627888202667
1708437286.4791727,-1.1187431812286377,-1.6743675671019496,-2.5266597906695765,2.2950710493275146,-1.017297093068258,0.42553016543388367
1708437286.4811747,-1.118583083152771,-1.6744934521117152,-2.5266013781176966,2.294874592418335,-1.017313305531637,0.42618218064308167
1708437286.48321,-1.1184275150299072,-1.674539705316061,-2.5266552607165735,2.294715328807495,-1.0172846953021448,0.42680054903030396
1708437286.4851751,-1.1183089017868042,-1.6746984920897425,-2.5266431013690394,2.2945238786884765,-1.0172517935382288,0.42735403776168823
1708437286.4871936,-1.1180957555770874,-1.6747361622252406,-2.5266266504870813,2.294401093120239,-1.0172608534442347,0.42797350883483887
1708437286.4891725,-1.1179808378219604,-1.674781938592428,-2.5266597906695765,2.294273777598999,-1.0172727743731897,0.4285767674446106
1708437286.4911633,-1.1178455352783203,-1.6748701534666957,-2.5265894571887415,2.294060392970703,-1.0172699133502405,0.42916128039360046
1708437286.493185,-1.1176892518997192,-1.6750580273070277,-2.5266552607165735,2.29392592489209,-1.0172904173480433,0.42976462841033936
1708437286.4952292,-1.1175487041473389,-1.6751204929747523,-2.526652161275045,2.293790741557739,-1.0172327200519007,0.4303911626338959
1708437286.4972324,-1.1173555850982666,-1.675140996972555,-2.5266597906695765,2.2935845094868164,-1.0172861258136194,0.43105530738830566
1708437286.4992013,-1.1172362565994263,-1.6752478084959925,-2.5266643206225794,2.293482466334961,-1.0172012487994593,0.4315783381462097
1708437286.5011926,-1.1170599460601807,-1.6753388843932093,-2.526619259511129,2.293306513423584,-1.0172413031207483,0.43221110105514526
1708437286.503264,-1.1169443130493164,-1.675377985040182,-2.5266643206225794,2.2931949335285644,-1.0172088781939905,0.4327859878540039
1708437286.5052059,-1.116812825202942,-1.6754337749876917,-2.5265982786761683,2.2930545049854736,-1.0172579924212855,0.4334034323692322
1708437286.5072043,-1.1166936159133911,-1.675514360467428,-2.5266147295581263,2.2928380209156494,-1.0172131697284144,0.4340200126171112
1708437286.5091982,-1.1165858507156372,-1.675671716729635,-2.526623789464132,2.292754812831543,-1.0172012487994593,0.4346175193786621
1708437286.511188,-1.116420865058899,-1.6756979427733363,-2.526574198399679,2.2926108080097656,-1.0171921888934534,0.43515026569366455
1708437286.5133162,-1.116334080696106,-1.675732751885885,-2.5265653769122522,2.2924913603016357,-1.0172012487994593,0.43580228090286255
1708437286.515201,-1.1161811351776123,-1.6758300266661585,-2.5265818277942103,2.2923425871082763,-1.0171893278705042,0.43640854954719543
1708437286.517208,-1.1160609722137451,-1.6759630642332972,-2.526586357747213,2.2922512727924804,-1.0172131697284144,0.43699097633361816
1708437286.5191734,-1.1159740686416626,-1.6760107479491175,-2.526652161275045,2.292144699687622,-1.0171635786639612,0.43757739663124084
1708437286.5211964,-1.1158409118652344,-1.6760250530638636,-2.5266147295581263,2.291912479991577,-1.0172103087054651,0.43813592195510864
1708437286.5232174,-1.1157716512680054,-1.6760999164977015,-2.526635710393087,2.2918385702320556,-1.0172174612628382,0.4386852979660034
1708437286.5251875,-1.1156096458435059,-1.6761800251402796,-2.526602808629171,2.2917188841053466,-1.0171921888934534,0.4392563998699188
1708437286.5272806,-1.1155136823654175,-1.6762448749937953,-2.526660982762472,2.2916290003010253,-1.0172012487994593,0.4399340748786926
1708437286.5291893,-1.1154030561447144,-1.6763464413084925,-2.526595417653219,2.291487856502197,-1.0172012487994593,0.4404729902744293
1708437286.5311928,-1.1153022050857544,-1.6763645611205042,-2.526586357747213,2.291376991862915,-1.017176930104391,0.4410831332206726
1708437286.5332162,-1.1151915788650513,-1.6763822040953578,-2.5265775362597864,2.2912155824848632,-1.017193619404928,0.44167816638946533
1708437286.535168,-1.1150867938995361,-1.6764728031554164,-2.526574198399679,2.2911643224903564,-1.0172308127032679,0.4422807991504669
1708437286.5372114,-1.1149338483810425,-1.6765696010985316,-2.526628319417135,2.2910124498554687,-1.0172088781939905,0.44290751218795776
1708437286.5392249,-1.114821434020996,-1.676535268823141,-2.5265820662127894,2.290936155910156,-1.0172222296344202,0.4434782862663269
1708437286.541186,-1.114717960357666,-1.6765953503050746,-2.526623789464132,2.2907675939747314,-1.0172103087054651,0.44404056668281555
1708437286.5432293,-1.1146020889282227,-1.6767345867552699,-2.526607338582174,2.2906882005878906,-1.0172236601458948,0.4446287155151367
1708437286.5452416,-1.1145269870758057,-1.6766988239684046,-2.5265820662127894,2.2906412321278076,-1.0172250906573694,0.44522225856781006
1708437286.5471861,-1.114443063735962,-1.6768118343748988,-2.5266101996051233,2.2904879289814453,-1.017167870198385,0.4458458721637726
1708437286.5491998,-1.1143144369125366,-1.6768361530699671,-2.526602808629171,2.290362759227417,-1.0172174612628382,0.4463711977005005
1708437286.551186,-1.1142228841781616,-1.676875730554098,-2.5266311804400843,2.2902886110493164,-1.0172222296344202,0.4469936192035675
1708437286.553228,-1.1141269207000732,-1.6768690548338832,-2.526652161275045,2.2902209001728515,-1.0172222296344202,0.4475959837436676
1708437286.5551853,-1.1140072345733643,-1.6769410572447718,-2.5266147295581263,2.29008071004834,-1.0172532240497034,0.44813868403434753
1708437286.557239,-1.1139278411865234,-1.677014013329977,-2.526611868535177,2.289992256755493,-1.0172174612628382,0.44877129793167114
1708437286.5591872,-1.1138187646865845,-1.6770369015135707,-2.5266266504870813,2.289937897319458,-1.0172088781939905,0.44936129450798035
1708437286.561181,-1.1136888265609741,-1.6770903072752894,-2.526590887700216,2.289825125331543,-1.0172293821917933,0.4499688148498535
1708437286.5632184,-1.1136199235916138,-1.6772328815855921,-2.526607338582174,2.2896999555775146,-1.0172413031207483,0.45047739148139954
1708437286.5651958,-1.1135722398757935,-1.6772510013976039,-2.5266552607165735,2.2896618086048584,-1.0172413031207483,0.4511179029941559
1708437286.5671911,-1.1134518384933472,-1.6772376499571742,-2.526635710393087,2.289532108897827,-1.0172250906573694,0.45165959000587463
1708437286.5691915,-1.1133590936660767,-1.677255769769186,-2.5266385714160364,2.289437695140503,-1.0172489325152796,0.4521782696247101
1708437286.5711913,-1.113255262374878,-1.6773292026915492,-2.5266221205340784,2.289341850871704,-1.0172532240497034,0.45270803570747375
1708437286.5731995,-1.1131384372711182,-1.677373548547262,-2.5266552607165735,2.2892214494892578,-1.0172818342791956,0.45317333936691284
1708437286.5751686,-1.1130845546722412,-1.6775156460204066,-2.5266101996051233,2.289182587260864,-1.0172489325152796,0.45371776819229126
1708437286.5772157,-1.1129707098007202,-1.677530904809469,-2.5266266504870813,2.289074345225952,-1.0172889868365687,0.45424458384513855
1708437286.5792005,-1.112903118133545,-1.6775247059264125,-2.5266013781176966,2.2889906603046875,-1.0172846953021448,0.45481571555137634
1708437286.5812004,-1.1128356456756592,-1.6775723896422328,-2.5266385714160364,2.2888375955769042,-1.017318073903219,0.45531848073005676
1708437286.583202,-1.1127065420150757,-1.6775995693602503,-2.5266462008105677,2.2887744146534423,-1.0173433462726038,0.45577144622802734
1708437286.585173,-1.1126182079315186,-1.6777101955809535,-2.5266926924334925,2.288735552425049,-1.017325226460592,0.4563065767288208
1708437286.587209,-1.1125595569610596,-1.677774568597311,-2.5266462008105677,2.2886146742054443,-1.0173371473895472,0.45678824186325073
1708437286.5891936,-1.1124428510665894,-1.6778270206847132,-2.5267255941974085,2.2885426717945556,-1.0173404852496546,0.45732665061950684
1708437286.5911806,-1.1124250888824463,-1.6778656444945277,-2.5266552607165735,2.2884837824055175,-1.0173729101764124,0.4578089416027069
1708437286.5931878,-1.1122914552688599,-1.6778317890562953,-2.5266462008105677,2.288350983256958,-1.017376724873678,0.45833972096443176
1708437286.5952208,-1.112228512763977,-1.677920480767721,-2.5266717115985315,2.288266583079956,-1.0173810164081019,0.45878535509109497
1708437286.5972013,-1.1121610403060913,-1.678014417687887,-2.5266507307635706,2.288223906154297,-1.0173552672015589,0.4593124985694885
1708437286.5991821,-1.1120233535766602,-1.6780086956419886,-2.526679340993063,2.288101835841797,-1.017376724873678,0.45977339148521423
1708437286.6011925,-1.1119767427444458,-1.6780640087523402,-2.526679340993063,2.288001700038574,-1.017453972493307,0.46026611328125
1708437286.6031923,-1.1119047403335571,-1.6780830822386683,-2.5266507307635706,2.287942572230957,-1.017465893422262,0.4607478976249695
1708437286.6051927,-1.1118229627609253,-1.6781474552550257,-2.526691261922018,2.2878500658222656,-1.0174077192889612,0.46119362115859985
1708437286.6071858,-1.1117920875549316,-1.6782614193358363,-2.526719633732931,2.287823124522827,-1.0174601713763636,0.4616851508617401
1708437286.609222,-1.1116842031478882,-1.6783181629576625,-2.526727263127462,2.287768526668213,-1.0174930731402796,0.46207305788993835
1708437286.6112175,-1.1115630865097046,-1.6783153019347132,-2.526682202016012,2.2876640993305664,-1.0175707975970667,0.4625196158885956
1708437286.6132178,-1.1115134954452515,-1.6783839664854945,-2.526686731969015,2.2875661092945556,-1.017552677785055,0.46295520663261414
1708437286.6152174,-1.111406922340393,-1.6784292660155238,-2.5267842451678675,2.28749863683667,-1.0175560156451624,0.4633614122867584
1708437286.6172147,-1.1113088130950928,-1.6785203419127406,-2.5267391840564173,2.287461205119751,-1.0176218191729944,0.46379247307777405
1708437286.6191788,-1.1112221479415894,-1.6785274944701136,-2.5267677942859095,2.2873353201099853,-1.0176456610309046,0.46415096521377563
1708437286.6211882,-1.1112345457077026,-1.6786042652525843,-2.5267825762378138,2.287259503001831,-1.017628018056051,0.4645867943763733
1708437286.6232073,-1.111125111579895,-1.6786323986449183,-2.5267751852618616,2.2871550756641845,-1.0176485220538538,0.4649447798728943
1708437286.6251783,-1.1110411882400513,-1.6787134609618128,-2.5267587343799036,2.2871362405964355,-1.0177133719073694,0.4652867317199707
1708437286.6272218,-1.1109555959701538,-1.6786819897093714,-2.526820484791891,2.287015362376831,-1.0176919142352503,0.46564939618110657
1708437286.6291847,-1.110892653465271,-1.6787435017027796,-2.52682334581484,2.2869226175495605,-1.0176547209369105,0.465946227312088
1708437286.6311693,-1.1107964515686035,-1.6788660488524378,-2.5268471876727503,2.286888762111328,-1.0177653471576136,0.46633854508399963
1708437286.633202,-1.1107077598571777,-1.6788388691344203,-2.526835266743795,2.286745234126709,-1.0177491346942347,0.46669426560401917
1708437286.6351807,-1.1106781959533691,-1.6789137325682582,-2.5268591086017054,2.286670132274292,-1.017735783253805,0.4670158326625824
1708437286.637181,-1.1105592250823975,-1.6789456806578578,-2.5269010702716272,2.286602659816406,-1.0177682081805628,0.46735164523124695
1708437286.6391847,-1.1104761362075806,-1.6789380512633265,-2.5268591086017054,2.286538763637207,-1.017801586781637,0.46767881512641907
1708437286.641223,-1.1104369163513184,-1.6789618931212367,-2.5268664995776575,2.2864560323902587,-1.0177925268756312,0.4679563343524933
1708437286.6432192,-1.1103403568267822,-1.679021497766012,-2.5268922487842005,2.286391420955322,-1.0178120771991175,0.4682431221008301
1708437286.6452403,-1.1102354526519775,-1.6790830097594203,-2.5269654432879847,2.286343975658081,-1.0178449789630335,0.4684740900993347
1708437286.6472218,-1.1102172136306763,-1.6790739498534144,-2.526928249989645,2.286247416133545,-1.017855469380514,0.46875330805778503
1708437286.649212,-1.110120415687561,-1.679089208642477,-2.526935640965597,2.2862042623707275,-1.017850701008932,0.46904468536376953
1708437286.6512463,-1.1100783348083496,-1.67919983486318,-2.526922051106588,2.2861365514942626,-1.0178960005389612,0.46923041343688965
1708437286.653221,-1.1099824905395508,-1.6792522869505824,-2.5269597212420862,2.2860802847095947,-1.0179360548602503,0.46950671076774597
1708437286.6552105,-1.1099224090576172,-1.6792341671385707,-2.5269506613360804,2.28605763494458,-1.0179689566241663,0.4696999192237854
1708437286.6572125,-1.1098008155822754,-1.679220815698141,-2.5269671122180384,2.2859532076069335,-1.0179889837848108,0.4699438214302063
1708437286.6592433,-1.109761357307434,-1.679307600060934,-2.5269911924945276,2.2858237463184814,-1.0180156866656702,0.4701796770095825
1708437286.6612208,-1.1096736192703247,-1.6793018780150355,-2.526994053517477,2.2857677179523925,-1.0180276075946253,0.47035810351371765
1708437286.6632035,-1.109597086906433,-1.6793328724303187,-2.527026955281393,2.285752697581909,-1.0180633703814905,0.47055792808532715
1708437286.6652184,-1.1095043420791626,-1.679403921166891,-2.5270348230945032,2.2856029707142334,-1.0180876890765589,0.4707569479942322
1708437286.6672208,-1.1094529628753662,-1.6794468365111292,-2.5270870367633265,2.285539074535034,-1.0181487242328089,0.4709690809249878
1708437286.6692228,-1.1093385219573975,-1.6794506512083949,-2.5270631949054163,2.285524769420288,-1.018172566090719,0.471157044172287
1708437286.6712363,-1.1093010902404785,-1.679514547387594,-2.5270870367633265,2.285482807750366,-1.0181382338153284,0.4712997376918793
1708437286.673227,-1.1092296838760376,-1.679509779016012,-2.5271156469928187,2.2853473859974365,-1.0182045141803187,0.47143858671188354
1708437286.6752355,-1.109169602394104,-1.6796194515623988,-2.527144257222311,2.285337133998535,-1.0182207266436976,0.4715733528137207
1708437286.6772423,-1.1090601682662964,-1.6795932255186976,-2.5270989576922815,2.2851881223865966,-1.018198315297262,0.47169747948646545
1708437286.6793103,-1.1090164184570312,-1.6796251736082972,-2.527144257222311,2.285147114390991,-1.0182269255267542,0.4718572497367859
1708437286.681254,-1.1089540719985962,-1.6796909771361292,-2.527168099080221,2.285162850017212,-1.0183075110064905,0.4719812870025635
1708437286.6832125,-1.108847975730896,-1.6796637974181117,-2.5271831194507044,2.285040779704712,-1.0183361212359827,0.47210443019866943
1708437286.6852167,-1.1087478399276733,-1.6796852550902308,-2.5272071997271937,2.2849761682697753,-1.018338982258932,0.47210949659347534
1708437286.6871967,-1.1087493896484375,-1.679774900475973,-2.5272250811206263,2.2849418359943847,-1.018350903187887,0.47227126359939575
1708437286.689216,-1.1086400747299194,-1.6798140011229457,-2.5272117296801966,2.2848948675343017,-1.0184319655047815,0.4723140597343445
1708437286.6912038,-1.1085606813430786,-1.679807802239889,-2.5272026697741907,2.2847944933125,-1.0184629599200647,0.4724465310573578
1708437286.6931932,-1.1085458993911743,-1.6798440418639125,-2.5272281805621546,2.2847470480152587,-1.018524471913473,0.472452849149704
1708437286.695201,-1.1084738969802856,-1.6799336872496546,-2.527233902608053,2.2846574026295166,-1.0185187498675745,0.47254127264022827
1708437286.697189,-1.1083682775497437,-1.6799785099425257,-2.52726394334902,2.2846085268208007,-1.0185707251178187,0.47257694602012634
1708437286.6992557,-1.1083507537841797,-1.679976602593893,-2.5272672812091272,2.2845160204121093,-1.018656078969137,0.472636878490448
1708437286.7012105,-1.1082653999328613,-1.6800199947752894,-2.5272911230670374,2.2844697672077636,-1.0186188856707972,0.47260308265686035
1708437286.7032144,-1.108214259147644,-1.6800815067686976,-2.5272746721850794,2.2843362528034667,-1.0186384359942835,0.4726106822490692
1708437286.7052035,-1.1081092357635498,-1.680047174493307,-2.5272658506976526,2.284301920528076,-1.0187280813800257,0.472689151763916
1708437286.7072134,-1.1080317497253418,-1.6801864109435023,-2.5273402372943323,2.2842911916920166,-1.018714729939596,0.47272807359695435
1708437286.709214,-1.1080180406570435,-1.6801969013609828,-2.5273030439959925,2.2842177587696533,-1.0187342802630823,0.472695529460907
1708437286.7112024,-1.1079386472702026,-1.6802169285216273,-2.527339045201437,2.284116430873535,-1.0187786261187952,0.47269120812416077
1708437286.7131975,-1.1078150272369385,-1.6802731953062953,-2.5273059050189417,2.2840475279041748,-1.0187743345843714,0.4726877212524414
1708437286.7152443,-1.1078482866287231,-1.6802674732603968,-2.527376715336935,2.284066362971924,-1.0188191572772425,0.47260749340057373
1708437286.7173343,-1.1076852083206177,-1.6803375683226527,-2.527391497288839,2.283973379726074,-1.0188434759723108,0.47258779406547546
1708437286.7191877,-1.1076416969299316,-1.6803513966002406,-2.5273945967303675,2.2839271265217285,-1.018895451222555,0.47251516580581665
1708437286.7212172,-1.1075485944747925,-1.6804381809630335,-2.5274155775653284,2.283803625697754,-1.0188897291766565,0.47249650955200195
1708437286.7232013,-1.107461929321289,-1.6804315052428187,-2.5273779074298304,2.283794565791748,-1.0188615957843226,0.4724203646183014
1708437286.725213,-1.1073517799377441,-1.6804892025389613,-2.527414147053854,2.2837225633808593,-1.0188940207110804,0.47236737608909607
1708437286.7271962,-1.1072962284088135,-1.6805154285826625,-2.5275006929980677,2.2835678297230224,-1.0189231077777308,0.47232696413993835
1708437286.729235,-1.1072006225585938,-1.6805592976012171,-2.527482811604635,2.283541365260742,-1.018937889729635,0.472259521484375
1708437286.7312105,-1.1071299314498901,-1.6806203327574671,-2.527482811604635,2.283391161555908,-1.0189288298236292,0.47226494550704956
1708437286.733254,-1.1070088148117065,-1.680709024468893,-2.5275116602527063,2.2833573061176757,-1.018970791493551,0.47222137451171875
1708437286.7352018,-1.1069457530975342,-1.6807075939574183,-2.5275326410876673,2.2833053308674316,-1.0190108458148401,0.4721203148365021
1708437286.7372072,-1.1068003177642822,-1.6806937656798304,-2.5275562445269983,2.2832583624073486,-1.0190232435809534,0.4720972776412964
1708437286.7392235,-1.1067490577697754,-1.6808411083617152,-2.527562443410055,2.283157988185547,-1.0190380255328577,0.4720170199871063
1708437286.7411902,-1.1066460609436035,-1.6808721027769984,-2.527562443410055,2.2830323415943603,-1.0190499464618128,0.4719093143939972
1708437286.743222,-1.1065410375595093,-1.680883070031637,-2.527536694203512,2.282973452205322,-1.019078556691305,0.47184231877326965
1708437286.7451904,-1.1064198017120361,-1.6809841595091761,-2.5275984446154993,2.2828730779835205,-1.0191353003131312,0.47172582149505615
1708437286.7472303,-1.106263518333435,-1.6810862026610316,-2.5276029745685022,2.28276435911145,-1.0191219488727015,0.4715803563594818
1708437286.7492073,-1.1061646938323975,-1.681042810479635,-2.5276480356799524,2.2826859193989257,-1.0191338698016565,0.47151806950569153
1708437286.751181,-1.1060407161712646,-1.6811806164183558,-2.5276435057269495,2.282606526012085,-1.0192158857928675,0.4713689684867859
1708437286.7532086,-1.1059836149215698,-1.681183477441305,-2.527679506932394,2.282519503230713,-1.0191686789142054,0.47129085659980774
1708437286.7551894,-1.1058045625686646,-1.6812483272948207,-2.52771240869631,2.282369776363037,-1.019217316304342,0.471171110868454
1708437286.7571836,-1.1056232452392578,-1.681347986260885,-2.527719799672262,2.2823077875324707,-1.0192297140704554,0.47104698419570923
1708437286.7592216,-1.1054917573928833,-1.681378027001852,-2.5277395884143274,2.282134457225464,-1.019256893788473,0.47094058990478516
1708437286.7612126,-1.1053977012634277,-1.6814705334105433,-2.527694288884298,2.2820297914692382,-1.0193145910846155,0.47078728675842285
1708437286.763254,-1.1052122116088867,-1.6815477810301722,-2.5277753512011927,2.2819763857075195,-1.0192893187152308,0.47066155076026917
1708437286.7651916,-1.1050280332565308,-1.6816383800902308,-2.5277708212481897,2.2818311887928466,-1.0193751494037073,0.4705623388290405
