Eg3-git/Classifiers/Data Collection/u5/u5cir3_ur3e_joint_states.csv
time,elbow_joint,shoulder_lift_joint,shoulder_pan_joint,wrist_1_joint,wrist_2_joint,wrist_3_joint
1708437258.5911095,-1.1061463356018066,-1.681120058099264,-2.526911799107687,2.2820679384418945,-1.0178077856646937,0.5337237119674683
1708437258.5931118,-1.1061677932739258,-1.6812178097166957,-2.5268831888781946,2.282057448024414,-1.0178197065936487,0.5337405204772949
1708437258.5950692,-1.1061633825302124,-1.6812306843199671,-2.5269175211535853,2.282064839000366,-1.0178316275226038,0.5337657332420349
1708437258.5970793,-1.1061842441558838,-1.6811615429320277,-2.5269041697131556,2.282048388118408,-1.0178449789630335,0.5337281823158264
1708437258.5990694,-1.1061797142028809,-1.6812106571593226,-2.5268786589251917,2.2820560175129394,-1.0178611914264124,0.5336713194847107
1708437258.6010985,-1.1061707735061646,-1.6812435589232386,-2.526890579854147,2.2820309835621337,-1.0178402105914515,0.5337117314338684
1708437258.603108,-1.1062079668045044,-1.6812063656248988,-2.5268951098071497,2.2820471960255126,-1.0178731123553675,0.5337252616882324
1708437258.6051123,-1.1061797142028809,-1.6812178097166957,-2.5268922487842005,2.282042904491089,-1.0178268591510218,0.5336593985557556
1708437258.607122,-1.1062124967575073,-1.6812178097166957,-2.5268500486956995,2.282054825420044,-1.017806355153219,0.5336969494819641
1708437258.6091866,-1.1061797142028809,-1.6811658344664515,-2.526890579854147,2.2820767599293212,-1.0178759733783167,0.5336382985115051
1708437258.6111016,-1.1062333583831787,-1.6811777553954066,-2.5268786589251917,2.2820395666309814,-1.0178716818438929,0.5336683392524719
1708437258.613098,-1.106203556060791,-1.6812178097166957,-2.5268545786487024,2.2820605474659423,-1.0178878943072718,0.5336937308311462
1708437258.6150835,-1.1061227321624756,-1.6812178097166957,-2.5268500486956995,2.2820276457020263,-1.0178597609149378,0.5336937308311462
1708437258.6171389,-1.1061633825302124,-1.681202074090475,-2.5268664995776575,2.2820767599293212,-1.0179241339312952,0.5336937308311462
1708437258.619169,-1.106116533279419,-1.681202074090475,-2.526923720036642,2.2820560175129394,-1.0178917090045374,0.533677339553833
1708437258.621132,-1.1062005758285522,-1.6812263927855433,-2.526935640965597,2.2820321756550292,-1.0179241339312952,0.5336892604827881
1708437258.6231148,-1.1061724424362183,-1.6812106571593226,-2.526890579854147,2.2820886808582763,-1.017911736165182,0.5336564779281616
1708437258.6251004,-1.1061298847198486,-1.6811896763243617,-2.526919190083639,2.2820395666309814,-1.0179360548602503,0.5336952805519104
1708437258.6271107,-1.1061797142028809,-1.681164403954977,-2.526952091847555,2.2820724683948974,-1.0179241339312952,0.5336043238639832
1708437258.6291087,-1.106208086013794,-1.6812879047789515,-2.526938501988546,2.2820395666309814,-1.0179198423968714,0.5336577296257019
1708437258.6311343,-1.1061633825302124,-1.681209226647848,-2.5269461313830774,2.2820929723927,-1.0179031530963343,0.533648669719696
1708437258.6331306,-1.1061841249465942,-1.6812502346434535,-2.5269716421710413,2.2820426660725097,-1.0178940931903284,0.5335966348648071
1708437258.6350725,-1.106122612953186,-1.681230207482809,-2.5270031134234827,2.2820517259785156,-1.0178983847247522,0.533592164516449
1708437258.6371293,-1.1062452793121338,-1.6812221012511195,-2.526961151753561,2.282118483180664,-1.0179198423968714,0.5336204171180725
1708437258.6390934,-1.1061753034591675,-1.6812263927855433,-2.527052942906515,2.282010002727173,-1.0179198423968714,0.5336383581161499
1708437258.6410837,-1.1061707735061646,-1.6812344990172328,-2.527026955281393,2.28201071798291,-1.0178702513324183,0.5335637331008911
1708437258.6430902,-1.1061707735061646,-1.6812344990172328,-2.526984993611471,2.2819930750080566,-1.0179289023028772,0.5336145162582397
1708437258.645075,-1.1061887741088867,-1.6811896763243617,-2.526989523564474,2.2820395666309814,-1.0179031530963343,0.5335772633552551
1708437258.6471095,-1.106116533279419,-1.6811777553954066,-2.5270348230945032,2.2820352750965576,-1.0178917090045374,0.5336235165596008
1708437258.6490917,-1.106208086013794,-1.681136270562643,-2.527017895375387,2.2820679384418945,-1.0179198423968714,0.5335517525672913
1708437258.6510713,-1.10615074634552,-1.6812387905516566,-2.527060333882467,2.2820278841206054,-1.0179408232318323,0.5335158109664917
1708437258.653094,-1.106154441833496,-1.681148191491598,-2.5270677248584192,2.2820352750965576,-1.0178917090045374,0.5335817337036133
1708437258.6550946,-1.1062124967575073,-1.681206842462057,-2.527052942906515,2.2820843893238525,-1.0179317633258265,0.533557653427124
1708437258.6571016,-1.1061933040618896,-1.6811729870238246,-2.52702242532839,2.2820679384418945,-1.0179689566241663,0.5335486531257629
1708437258.659089,-1.1061707735061646,-1.6811853847899378,-2.527088467274801,2.2820307451435546,-1.0179031530963343,0.5334916114807129
1708437258.661069,-1.1061961650848389,-1.681230207482809,-2.527072254811422,2.2820395666309814,-1.017907444630758,0.5335264205932617
1708437258.6630907,-1.1061418056488037,-1.681190629998678,-2.527017895375387,2.2820309835621337,-1.0179317633258265,0.5335502028465271
1708437258.6651013,-1.1062005758285522,-1.6812025509276332,-2.527043883000509,2.2820724683948974,-1.0179155508624476,0.5335502028465271
1708437258.6671753,-1.1061588525772095,-1.6811896763243617,-2.526980702077047,2.2820352750965576,-1.017998520527975,0.5334962606430054
1708437258.6691492,-1.1061960458755493,-1.6811853847899378,-2.5270360151873987,2.2820603090473632,-1.0179479757892054,0.5335832834243774
1708437258.6711597,-1.106154441833496,-1.6811939678587855,-2.526984993611471,2.2820188242145996,-1.0179198423968714,0.5335502028465271
1708437258.6731088,-1.1061842441558838,-1.6812592945494593,-2.527052942906515,2.282054587001465,-1.0179527441607874,0.5335833430290222
1708437258.675097,-1.1061797142028809,-1.6812263927855433,-2.527039353047506,2.282026453609131,-1.0179479757892054,0.5334962010383606
1708437258.6771088,-1.106129765510559,-1.6811896763243617,-2.527026955281393,2.2820309835621337,-1.0179975668536585,0.5335546731948853
1708437258.6791131,-1.1061768531799316,-1.6812263927855433,-2.5270031134234827,2.2820514875599365,-1.017893139516012,0.5335007309913635
1708437258.681136,-1.1061797142028809,-1.6812387905516566,-2.527069393788473,2.2820309835621337,-1.0179021994220179,0.5335308909416199
1708437258.6832042,-1.1061797142028809,-1.681209226647848,-2.5270031134234827,2.2820724683948974,-1.0179346243487757,0.533556342124939
1708437258.6851192,-1.1062079668045044,-1.6812135181822718,-2.527069393788473,2.2820755678364257,-1.0179107824908655,0.5335248708724976
1708437258.6871133,-1.106116533279419,-1.6812416515746058,-2.527085844670431,2.2820591169544677,-1.0179527441607874,0.5335517525672913
1708437258.6890774,-1.1061707735061646,-1.6812354526915492,-2.527026955281393,2.2821006017872314,-1.0179436842547815,0.5335007309913635
1708437258.6910906,-1.1061960458755493,-1.6812063656248988,-2.527069155369894,2.282109423274658,-1.0179436842547815,0.5334678888320923
1708437258.6930947,-1.1061633825302124,-1.6812545261778773,-2.52702242532839,2.2820471960255126,-1.0179527441607874,0.5335218906402588
1708437258.6950812,-1.1061961650848389,-1.6812106571593226,-2.5270031134234827,2.2820307451435546,-1.0179598967181605,0.5335142016410828
1708437258.6971154,-1.1061797142028809,-1.681202074090475,-2.5270076433764856,2.2820679384418945,-1.0179765860186976,0.5334933400154114
1708437258.6990676,-1.1061826944351196,-1.6811853847899378,-2.527069393788473,2.2820798593708496,-1.0179889837848108,0.5334933400154114
1708437258.7010849,-1.1061960458755493,-1.681202074090475,-2.526977602635519,2.2820798593708496,-1.0179107824908655,0.5334678888320923
1708437258.7030804,-1.1061463356018066,-1.6812178097166957,-2.527052942906515,2.2821051317402343,-1.0179303328143519,0.5334814190864563
1708437258.7050807,-1.1062289476394653,-1.6812178097166957,-2.5270031134234827,2.2820634084888916,-1.0179765860186976,0.5334978103637695
1708437258.7071126,-1.1061499118804932,-1.6812263927855433,-2.5270031134234827,2.282038374538086,-1.0179808775531214,0.533551812171936
1708437258.7091265,-1.1061707735061646,-1.6811896763243617,-2.5270076433764856,2.282050057048462,-1.0178850332843226,0.5334978103637695
1708437258.7111177,-1.1061826944351196,-1.6812263927855433,-2.5269747416125696,2.2820963102528076,-1.0179513136493128,0.5334888100624084
1708437258.7131348,-1.1062124967575073,-1.681193014184469,-2.5270076433764856,2.2821382719227294,-1.0179274717914026,0.5334486961364746
1708437258.7151263,-1.106203556060791,-1.6812178097166957,-2.5269747416125696,2.2821037012287597,-1.0179598967181605,0.5335022807121277
1708437258.7171652,-1.106191635131836,-1.681164403954977,-2.5269911924945276,2.2820917802998046,-1.0179393927203577,0.5335022807121277
1708437258.7191281,-1.1061707735061646,-1.6812135181822718,-2.5270167032824915,2.2820591169544677,-1.0179718176471155,0.5335232019424438
1708437258.721093,-1.1061662435531616,-1.6812311611571253,-2.5269792715655726,2.2820591169544677,-1.0179227034198206,0.5335051417350769
1708437258.7231383,-1.106215476989746,-1.6812478504576625,-2.5269911924945276,2.282033844585083,-1.0179842154132288,0.5335308909416199
1708437258.7251067,-1.106203556060791,-1.6812387905516566,-2.5269957224475306,2.282050057048462,-1.017979923878805,0.5334888100624084
1708437258.7271323,-1.1061946153640747,-1.6811567745604457,-2.5270450750934046,2.282116098994873,-1.0179646650897425,0.5334724187850952
1708437258.7291152,-1.1061632633209229,-1.6812263927855433,-2.5269866625415247,2.2820798593708496,-1.0179317633258265,0.5334814190864563
1708437258.7311156,-1.1061826944351196,-1.6812106571593226,-2.5269911924945276,2.282050057048462,-1.0179393927203577,0.5335276126861572
1708437258.7331078,-1.106220006942749,-1.6811686954894007,-2.526989523564474,2.282087488765381,-1.0179317633258265,0.5335142016410828
1708437258.7351048,-1.106146216392517,-1.6811806164183558,-2.5270360151873987,2.2820753294178466,-1.0179198423968714,0.5335443615913391
1708437258.7371235,-1.106154441833496,-1.6811853847899378,-2.5270076433764856,2.2821082311817626,-1.0179021994220179,0.5335231423377991
1708437258.7391067,-1.1061872243881226,-1.6812178097166957,-2.5270031134234827,2.282001181239746,-1.0179570356952112,0.5334842801094055
1708437258.7411413,-1.1062169075012207,-1.6812025509276332,-2.527073923741476,2.2820917802998046,-1.0179479757892054,0.5335186719894409
1708437258.7431016,-1.1062244176864624,-1.6811939678587855,-2.526994053517477,2.2821168142506103,-1.0179360548602503,0.5334978103637695
1708437258.7451215,-1.106224536895752,-1.6811820469298304,-2.526994053517477,2.2820634084888916,-1.0179360548602503,0.5334933400154114
1708437258.7470837,-1.1061991453170776,-1.6811777553954066,-2.526989523564474,2.2820917802998046,-1.0179360548602503,0.5334694981575012
1708437258.7490914,-1.1062363386154175,-1.6811820469298304,-2.5270360151873987,2.2820591169544677,-1.0179155508624476,0.5334933400154114
1708437258.7511215,-1.1062482595443726,-1.6812478504576625,-2.5269957224475306,2.282087488765381,-1.0179227034198206,0.5335142016410828
1708437258.7530818,-1.1062482595443726,-1.681202074090475,-2.527026955281393,2.282082720393799,-1.0179155508624476,0.5334978103637695
1708437258.7551005,-1.1061691045761108,-1.6811572513976039,-2.527026955281393,2.282087488765381,-1.0179317633258265,0.5335142016410828
1708437258.7570956,-1.1062527894973755,-1.6812178097166957,-2.5269580523120325,2.282073898906372,-1.0178898016559046,0.5334606170654297
1708437258.7590818,-1.1062438488006592,-1.6811896763243617,-2.5269911924945276,2.2821413713642578,-1.0178855101214808,0.5334978103637695
1708437258.7610886,-1.1061946153640747,-1.6812135181822718,-2.5269866625415247,2.282128019923828,-1.0178983847247522,0.5334888100624084
1708437258.763094,-1.1062363386154175,-1.6811982593932093,-2.5269625822650355,2.282144232387207,-1.0179479757892054,0.5335158109664917
1708437258.765142,-1.1062393188476562,-1.6811896763243617,-2.5269792715655726,2.282160683269165,-1.0179513136493128,0.5335142016410828
1708437258.7671006,-1.1061782836914062,-1.6812106571593226,-2.5269671122180384,2.2821637827106933,-1.0179732481585901,0.5334769487380981
1708437258.7690904,-1.1062438488006592,-1.6812135181822718,-2.5269792715655726,2.2820941644855957,-1.0179317633258265,0.5334694981575012
1708437258.7710905,-1.1061573028564453,-1.6812545261778773,-2.5269957224475306,2.282160683269165,-1.0179408232318323,0.5334769487380981
1708437258.7730978,-1.1062346696853638,-1.6812311611571253,-2.5269911924945276,2.2821356493183593,-1.017933193837301,0.5335142016410828
1708437258.775078,-1.106260895729065,-1.6812135181822718,-2.5270360151873987,2.2821919161030273,-1.0179289023028772,0.5334486961364746
1708437258.7771068,-1.1061781644821167,-1.6811982593932093,-2.5269838015185755,2.2821995454975585,-1.0179031530963343,0.5335473418235779
1708437258.7790966,-1.106256365776062,-1.6812263927855433,-2.5269838015185755,2.2822329240986328,-1.0179107824908655,0.5335309505462646
1708437258.781112,-1.1062346696853638,-1.6811939678587855,-2.5269747416125696,2.2821988302418212,-1.017874542866842,0.5335097312927246
1708437258.7831132,-1.1061973571777344,-1.6812592945494593,-2.5269838015185755,2.2822608190723876,-1.0178960005389612,0.5334948301315308
1708437258.7850983,-1.106260895729065,-1.6812106571593226,-2.5269792715655726,2.2822446066090087,-1.0179360548602503,0.5335112810134888
1708437258.787085,-1.1062572002410889,-1.6811939678587855,-2.5269294420825403,2.2821988302418212,-1.0178869406329554,0.5334531664848328
1708437258.7891324,-1.106199026107788,-1.6811939678587855,-2.5269625822650355,2.2821904855915527,-1.0178960005389612,0.533551812171936
1708437258.7910843,-1.1062182188034058,-1.6812459431090296,-2.5270031134234827,2.282231493587158,-1.017942253743307,0.5334769487380981
1708437258.7931216,-1.106260895729065,-1.6812106571593226,-2.5270167032824915,2.28225223600354,-1.0178960005389612,0.5334680080413818
1708437258.795076,-1.1062363386154175,-1.6811686954894007,-2.5270031134234827,2.2821947771259765,-1.0178917090045374,0.5334842801094055
1708437258.7970912,-1.1062273979187012,-1.6812178097166957,-2.5269716421710413,2.2821950155445556,-1.017862621937887,0.5334888100624084
1708437258.7990956,-1.106284499168396,-1.6811896763243617,-2.5269506613360804,2.2822164732166748,-1.017867390309469,0.5335142016410828
1708437258.801071,-1.106260895729065,-1.6811939678587855,-2.5269535223590296,2.28225223600354,-1.0178878943072718,0.5335218906402588
1708437258.8030982,-1.1062920093536377,-1.6812221012511195,-2.5269535223590296,2.282203121776245,-1.017883602772848,0.5334978103637695
1708437258.8050804,-1.1062800884246826,-1.6811686954894007,-2.526980702077047,2.2822164732166748,-1.017867390309469,0.5335186719894409
1708437258.8070872,-1.1062920093536377,-1.6812306843199671,-2.5269294420825403,2.2821904855915527,-1.017785374318258,0.5335142016410828
1708437258.809118,-1.1062710285186768,-1.6812063656248988,-2.5269551912890833,2.2821904855915527,-1.0178435484515589,0.5334605574607849
1708437258.811084,-1.1062636375427246,-1.6812240085997523,-2.5269294420825403,2.2821785646625976,-1.0178268591510218,0.5335444211959839
1708437258.8131008,-1.1062383651733398,-1.6811496220030726,-2.526980702077047,2.2822491365620117,-1.0178850332843226,0.533514142036438
1708437258.8150697,-1.1062800884246826,-1.6812306843199671,-2.52690560022463,2.2822210031696777,-1.0178568998919886,0.533542811870575
1708437258.8171008,-1.106284499168396,-1.6812063656248988,-2.52690560022463,2.2822150427052,-1.0178316275226038,0.5335186719894409
1708437258.819081,-1.106268048286438,-1.681202074090475,-2.52690560022463,2.2822107511707763,-1.0178163687335413,0.5335382223129272
1708437258.8211353,-1.1062755584716797,-1.6812387905516566,-2.526922051106588,2.2821904855915527,-1.0177958647357386,0.5335097312927246
1708437258.823121,-1.106268048286438,-1.6811453304686488,-2.526886049901144,2.2822210031696777,-1.0178211371051233,0.5334933400154114
1708437258.8250933,-1.106279969215393,-1.6811777553954066,-2.526907269154684,2.282231255168579,-1.0177462736712855,0.5335756540298462
1708437258.8271306,-1.1062681674957275,-1.6811820469298304,-2.5268786589251917,2.282186194057129,-1.0177801291095179,0.5334978699684143
1708437258.8290958,-1.1062591075897217,-1.68125643352651,-2.5268591086017054,2.2822281557270507,-1.0177386442767542,0.5334933400154114
1708437258.8311028,-1.1062800884246826,-1.6811720333495082,-2.5268591086017054,2.2822491365620117,-1.0177682081805628,0.5335174202919006
1708437258.8331397,-1.1062918901443481,-1.6812311611571253,-2.5268846193896692,2.282211943263672,-1.0177596251117151,0.5334933400154114
1708437258.8351042,-1.1062592267990112,-1.681120058099264,-2.526872698460714,2.282211943263672,-1.0177715460406702,0.5335218906402588
1708437258.8371,-1.1062257289886475,-1.6812435589232386,-2.5268262068377894,2.2822655874439697,-1.0177519957171839,0.5335546731948853
1708437258.8390903,-1.1062755584716797,-1.6812344990172328,-2.5268426577197474,2.282223864192627,-1.0177972952472132,0.5335472822189331
1708437258.8411071,-1.1062710285186768,-1.681181093255514,-2.526860777531759,2.2821950155445556,-1.0177624861346644,0.5335472822189331
1708437258.84313,-1.1062891483306885,-1.6811806164183558,-2.526839796696798,2.2821668821522216,-1.0177505652057093,0.533545732498169
1708437258.8450806,-1.1062666177749634,-1.681202074090475,-2.5268262068377894,2.2822434145161132,-1.0177882353412073,0.5335248708724976
1708437258.8471012,-1.1062710285186768,-1.681202074090475,-2.5267933050738733,2.2822655874439697,-1.0178092161761683,0.5335084199905396
1708437258.8490858,-1.1063083410263062,-1.6812545261778773,-2.526825014744894,2.2822083669849853,-1.0177801291095179,0.533538281917572
1708437258.8511322,-1.1063083410263062,-1.6812435589232386,-2.52682334581484,2.28222839414563,-1.017763916646139,0.5334872007369995
1708437258.853097,-1.1063202619552612,-1.6812173328795375,-2.526853386555807,2.2822207647510986,-1.017813507710592,0.5335832834243774
1708437258.855063,-1.1063202619552612,-1.6811982593932093,-2.52682334581484,2.2821919161030273,-1.017801586781637,0.533557653427124
1708437258.857102,-1.1062994003295898,-1.6811677418150843,-2.526818815861837,2.2822164732166748,-1.0177972952472132,0.5335952639579773
1708437258.8590677,-1.106245756149292,-1.681267877618307,-2.526815954838888,2.2822150427052,-1.0177519957171839,0.5335338115692139
1708437258.86108,-1.1062830686569214,-1.681225915948385,-2.526818815861837,2.282207413310669,-1.0177891890155237,0.5335698127746582
1708437258.8630946,-1.1063246726989746,-1.681181093255514,-2.526848856602804,2.2822164732166748,-1.0177267233477991,0.533557653427124
1708437258.865079,-1.1063158512115479,-1.6811939678587855,-2.526773516331808,2.2821904855915527,-1.0177772680865687,0.5335772633552551
1708437258.8671145,-1.1062666177749634,-1.6812430820860804,-2.526818815861837,2.2822610574909667,-1.0177190939532679,0.5335366725921631
1708437258.8691418,-1.1062620878219604,-1.6812592945494593,-2.526789967213766,2.2821904855915527,-1.01772386232485,0.5336145162582397
1708437258.8710873,-1.1062994003295898,-1.6812354526915492,-2.526832405720846,2.2821995454975585,-1.0176909605609339,0.5336547493934631
1708437258.8731213,-1.1062785387039185,-1.6811777553954066,-2.526865307484762,2.2822210031696777,-1.0176742712603968,0.5336009860038757
1708437258.8750825,-1.1062695980072021,-1.6812063656248988,-2.526818815861837,2.2822252947041015,-1.0177086035357874,0.5335966348648071
1708437258.877116,-1.1063157320022583,-1.681148191491598,-2.526856247578756,2.2821785646625976,-1.0177000204669397,0.5336267352104187
1708437258.8790832,-1.1062920093536377,-1.681148191491598,-2.526827875767843,2.2822252947041015,-1.0176962057696741,0.5336502194404602
1708437258.8810847,-1.106311321258545,-1.681190629998678,-2.526776377354757,2.282256527537964,-1.0176952520953577,0.5336413383483887
1708437258.883155,-1.1062874794006348,-1.681169172326559,-2.5268142859088343,2.282219572658203,-1.0176962057696741,0.533674418926239
1708437258.8850958,-1.1062904596328735,-1.6811982593932093,-2.5267978350268763,2.2821668821522216,-1.0176962057696741,0.533648669719696
1708437258.887113,-1.1063202619552612,-1.6811615429320277,-2.526835266743795,2.2821995454975585,-1.0176428000079554,0.5336458683013916
1708437258.889076,-1.106294870376587,-1.6812063656248988,-2.5268142859088343,2.282223864192627,-1.0176680723773401,0.5336863398551941
1708437258.8910828,-1.106327772140503,-1.681136270562643,-2.52682334581484,2.2822610574909667,-1.0176757017718714,0.5336728096008301
1708437258.8931231,-1.1062949895858765,-1.6812178097166957,-2.526806894932882,2.2822534280964355,-1.0176351706134241,0.5336564779281616
1708437258.8950872,-1.1063158512115479,-1.6811405620970667,-2.526841465626852,2.282186194057129,-1.017677132283346,0.5336847305297852
1708437258.8970816,-1.1062785387039185,-1.6811896763243617,-2.526778046284811,2.2822210031696777,-1.01764423051943,0.5336863398551941
1708437258.899108,-1.1063039302825928,-1.6811777553954066,-2.526848856602804,2.282219334239624,-1.017672363911764,0.5337312817573547
1708437258.9011214,-1.106311321258545,-1.6811853847899378,-2.52682334581484,2.282251997584961,-1.0176604429828089,0.5336847305297852
1708437258.9031389,-1.1062904596328735,-1.6811496220030726,-2.526856247578756,2.2822252947041015,-1.017632309590475,0.5337059497833252
1708437258.9051256,-1.1063247919082642,-1.6811734638609828,-2.526827875767843,2.2822040754505615,-1.0176203886615198,0.5336802005767822
1708437258.907118,-1.1062666177749634,-1.6811615429320277,-2.526827875767843,2.2821714121052246,-1.017656151448385,0.5337252616882324
1708437258.9091468,-1.1062994003295898,-1.6812344990172328,-2.526832405720846,2.2821623521992187,-1.0176737944232386,0.5337223410606384
1708437258.9110894,-1.1063038110733032,-1.6811896763243617,-2.526827875767843,2.2821995454975585,-1.0176485220538538,0.533692479133606
1708437258.913104,-1.106294870376587,-1.6812063656248988,-2.526806894932882,2.2822038370319824,-1.0176780859576624,0.5337461233139038
1708437258.915098,-1.1063321828842163,-1.6811777553954066,-2.526806894932882,2.2821904855915527,-1.017616097127096,0.5337461233139038
1708437258.917166,-1.106311321258545,-1.6811777553954066,-2.526844326649801,2.282174273128174,-1.01758319536318,0.5337584018707275
1708437258.9191148,-1.1063039302825928,-1.6812221012511195,-2.526811424885885,2.2821833330341796,-1.0175617376910608,0.533750593662262
1708437258.9210958,-1.1062800884246826,-1.6811820469298304,-2.526789967213766,2.2822040754505615,-1.0176366011248987,0.5337223410606384
1708437258.9231267,-1.106294870376587,-1.6812178097166957,-2.526806894932882,2.2822210031696777,-1.0176695028888147,0.5336846709251404
1708437258.9251397,-1.1063774824142456,-1.6811777553954066,-2.526799027119772,2.2821833330341796,-1.0176337401019495,0.5337297320365906
1708437258.9271712,-1.1062904596328735,-1.6811896763243617,-2.526815954838888,2.2821950155445556,-1.0176294485675257,0.5337326526641846
1708437258.9291437,-1.1062904596328735,-1.6812192402281703,-2.526761595402853,2.2821714121052246,-1.0176366011248987,0.5337207913398743
1708437258.9311178,-1.1063232421875,-1.6812354526915492,-2.5267496744738978,2.2821833330341796,-1.0176366011248987,0.5337702631950378
1708437258.9331353,-1.1062829494476318,-1.6811896763243617,-2.5267422834979456,2.282174273128174,-1.0176175276385706,0.5337162017822266
1708437258.9350986,-1.106306791305542,-1.681164403954977,-2.526740614567892,2.2822446066090087,-1.0176456610309046,0.5336998701095581
1708437258.9371507,-1.1062994003295898,-1.6812502346434535,-2.5267706553088587,2.2822164732166748,-1.0176413694964808,0.5337326526641846
1708437258.9391282,-1.106306791305542,-1.6811896763243617,-2.5267468134509485,2.2822281557270507,-1.0176203886615198,0.5337612628936768
1708437258.9411232,-1.1062949895858765,-1.6812178097166957,-2.5267377535449427,2.2821950155445556,-1.0175965468036097,0.5337538719177246
1708437258.9430993,-1.1063321828842163,-1.6812387905516566,-2.5267661253558558,2.2822210031696777,-1.0176366011248987,0.5337538719177246
1708437258.945092,-1.1062904596328735,-1.6811939678587855,-2.5267496744738978,2.2822083669849853,-1.017604176198141,0.5338027477264404
1708437258.9470987,-1.1062860488891602,-1.6812106571593226,-2.5267961660968226,2.2821623521992187,-1.0176337401019495,0.533789336681366
1708437258.9491146,-1.106318712234497,-1.6811863384642542,-2.5268035570727747,2.2822038370319824,-1.0175378958331507,0.5337684750556946
1708437258.9511364,-1.1063441038131714,-1.6812135181822718,-2.526832405720846,2.2821919161030273,-1.0176246801959437,0.5337193012237549
1708437258.9531527,-1.1062904596328735,-1.6812240085997523,-2.5268035570727747,2.282186194057129,-1.0176828543292444,0.5337539315223694
1708437258.9550972,-1.106327772140503,-1.68125643352651,-2.5267496744738978,2.282207651729248,-1.0175684134112757,0.5337772369384766
1708437258.9571197,-1.1063158512115479,-1.6812306843199671,-2.526848856602804,2.2822210031696777,-1.0175841490374964,0.5337982177734375
1708437258.9591062,-1.1063023805618286,-1.6812149486937464,-2.526815954838888,2.2822210031696777,-1.0175636450396937,0.5337936878204346
1708437258.9610875,-1.106294870376587,-1.6811853847899378,-2.5267797152148646,2.2822741705128173,-1.0176056067096155,0.5337493419647217
1708437258.9631054,-1.1063321828842163,-1.6811853847899378,-2.526829544697897,2.2822083669849853,-1.0175769964801233,0.5337802767753601
1708437258.9650908,-1.1062874794006348,-1.6812025509276332,-2.526768986378805,2.2822083669849853,-1.0175884405719202,0.5337433815002441
1708437258.9671109,-1.1063202619552612,-1.6811615429320277,-2.52675706544985,2.2822038370319824,-1.0175069014178675,0.533789336681366
1708437258.9691708,-1.1062859296798706,-1.6812221012511195,-2.5267706553088587,2.2821668821522216,-1.01756459871401,0.5337729454040527
1708437258.9711092,-1.106327772140503,-1.6812106571593226,-2.526773516331808,2.282211943263672,-1.0176189581500452,0.5337803363800049
1708437258.9731262,-1.1062994003295898,-1.6812135181822718,-2.526841465626852,2.282179995174072,-1.01756459871401,0.5337848663330078
1708437258.9751089,-1.1063530445098877,-1.6811820469298304,-2.5267496744738978,2.2821876245686035,-1.0175440947162073,0.5337982177734375
1708437258.9771378,-1.1062830686569214,-1.6811777553954066,-2.5267825762378138,2.2822581964680175,-1.01756459871401,0.5337729454040527
1708437258.9791207,-1.106311321258545,-1.6812263927855433,-2.526811424885885,2.282212658519409,-1.0175817648517054,0.5337758660316467
1708437258.9811046,-1.106294870376587,-1.6812025509276332,-2.5267751852618616,2.2821757036396484,-1.0175512472735804,0.5337729454040527
1708437258.9831104,-1.1063486337661743,-1.6812025509276332,-2.5267871061908167,2.2821668821522216,-1.01756459871401,0.5337569117546082
1708437258.9851654,-1.106335163116455,-1.6812063656248988,-2.5267468134509485,2.2821876245686035,-1.0175603071795862,0.5337569117546082
1708437258.9871306,-1.1062830686569214,-1.6811777553954066,-2.526778046284811,2.2822083669849853,-1.0175817648517054,0.5337772965431213
1708437258.9891212,-1.106274127960205,-1.6811734638609828,-2.526836935673849,2.2821668821522216,-1.0176008383380335,0.5337657332420349
1708437258.99112,-1.1063321828842163,-1.681202074090475,-2.5267377535449427,2.2821950155445556,-1.0175841490374964,0.5337657332420349
1708437258.993151,-1.106294870376587,-1.6811615429320277,-2.526829544697897,2.2821592527576904,-1.0175350348102015,0.5337612628936768
1708437258.9951043,-1.106327772140503,-1.6812311611571253,-2.5267422834979456,2.2821876245686035,-1.01756459871401,0.5337569117546082
1708437258.9971364,-1.106294870376587,-1.6812344990172328,-2.526825014744894,2.2822083669849853,-1.0176098982440394,0.533789336681366
1708437258.9991155,-1.1063232421875,-1.681202074090475,-2.5267751852618616,2.2821549612232666,-1.0175560156451624,0.5337657332420349
1708437259.0011063,-1.1063441038131714,-1.6811977825560511,-2.5267871061908167,2.2822281557270507,-1.0175617376910608,0.5337148308753967
1708437259.0031178,-1.1063522100448608,-1.6812221012511195,-2.5267706553088587,2.2821578222462158,-1.0175817648517054,0.5337937474250793
1708437259.005092,-1.106311321258545,-1.6812063656248988,-2.526794497166769,2.2822038370319824,-1.0175393263446253,0.5337281823158264
1708437259.0071526,-1.1063611507415771,-1.6811658344664515,-2.5267871061908167,2.2822038370319824,-1.0175727049456995,0.5337937474250793
1708437259.0091453,-1.1062829494476318,-1.6812387905516566,-2.5268004576312464,2.2822083669849853,-1.01760179201235,0.5336775183677673
1708437259.0110962,-1.1063023805618286,-1.6812263927855433,-2.5267587343799036,2.2822252947041015,-1.0175593535052698,0.5337684750556946
1708437259.0130966,-1.1063530445098877,-1.6811982593932093,-2.5268006960498255,2.2821623521992187,-1.0176056067096155,0.5337758660316467
1708437259.0150893,-1.1063611507415771,-1.6811777553954066,-2.5267587343799036,2.2821904855915527,-1.0175860563861292,0.5337848663330078
1708437259.017129,-1.1063895225524902,-1.6811572513976039,-2.5267468134509485,2.2821921545216064,-1.0176056067096155,0.5337493419647217
1708437259.019115,-1.106306791305542,-1.6812521419920863,-2.5267751852618616,2.2822164732166748,-1.0175440947162073,0.5337937474250793
1708437259.0211296,-1.1063158512115479,-1.6811686954894007,-2.5267587343799036,2.2821830946156005,-1.0175798575030726,0.5337817668914795
1708437259.0231116,-1.106339693069458,-1.6812063656248988,-2.5267825762378138,2.2822038370319824,-1.0175512472735804,0.5338016152381897
1708437259.025161,-1.10636568069458,-1.6811777553954066,-2.5267706553088587,2.282223864192627,-1.0175817648517054,0.5337818264961243
1708437259.0271015,-1.1063023805618286,-1.6811615429320277,-2.5267496744738978,2.2821833330341796,-1.0175884405719202,0.5337594747543335
1708437259.0291474,-1.1063567399978638,-1.6811572513976039,-2.526745144520895,2.2821757036396484,-1.0175932089435022,0.5337433218955994
1708437259.031098,-1.106311321258545,-1.6812221012511195,-2.5267916361438196,2.282174273128174,-1.0175727049456995,0.5337448716163635
1708437259.033125,-1.1063640117645264,-1.6811820469298304,-2.5267706553088587,2.2821995454975585,-1.0176056067096155,0.5338104963302612
1708437259.035138,-1.1063141822814941,-1.681239744225973,-2.5267661253558558,2.282179995174072,-1.0175932089435022,0.5337982177734375
1708437259.037088,-1.1063276529312134,-1.6811939678587855,-2.5267542044269007,2.2821876245686035,-1.0175798575030726,0.5337594747543335
1708437259.0391057,-1.1063486337661743,-1.6811939678587855,-2.5267542044269007,2.2821830946156005,-1.0175841490374964,0.5338104963302612
1708437259.0411098,-1.1063305139541626,-1.6812311611571253,-2.5268126169787806,2.2822164732166748,-1.0175727049456995,0.5337684750556946
1708437259.0430675,-1.106306791305542,-1.6811939678587855,-2.526778046284811,2.2821995454975585,-1.0175884405719202,0.5337612628936768
1708437259.0451365,-1.106339693069458,-1.6811777553954066,-2.5267916361438196,2.2821592527576904,-1.0175350348102015,0.5338180065155029
1708437259.0470762,-1.1063305139541626,-1.6811539135374964,-2.526761595402853,2.2821830946156005,-1.0175769964801233,0.5337981581687927
1708437259.0490913,-1.1063188314437866,-1.681206842462057,-2.526773516331808,2.2821637827106933,-1.0175769964801233,0.5337612628936768
1708437259.0511081,-1.1063158512115479,-1.6811377010741175,-2.526811424885885,2.28222839414563,-1.0175483862506312,0.5338134169578552
1708437259.0531063,-1.1062994003295898,-1.6811615429320277,-2.526794497166769,2.2822164732166748,-1.0175769964801233,0.5337729454040527
1708437259.0550954,-1.1063611507415771,-1.6811572513976039,-2.526785437260763,2.2822252947041015,-1.0175321737872522,0.5337103009223938
1708437259.057092,-1.1063475608825684,-1.6811539135374964,-2.52682334581484,2.2822083669849853,-1.0175512472735804,0.5337802767753601
1708437259.0590956,-1.106318712234497,-1.6811658344664515,-2.526789967213766,2.2821711736866455,-1.0175727049456995,0.5337478518486023
1708437259.061117,-1.1063522100448608,-1.6812178097166957,-2.526789967213766,2.2821830946156005,-1.0175393263446253,0.5337594747543335
1708437259.0630987,-1.1063158512115479,-1.681190629998678,-2.526815954838888,2.2822210031696777,-1.0175841490374964,0.5337970852851868
1708437259.0650787,-1.1062977313995361,-1.681178709069723,-2.526773516331808,2.2821995454975585,-1.0175798575030726,0.5337684750556946
1708437259.0670877,-1.1063140630722046,-1.6811734638609828,-2.526825014744894,2.2821876245686035,-1.0175798575030726,0.5337729454040527
1708437259.0691571,-1.1063522100448608,-1.6811806164183558,-2.526815954838888,2.2821385103413085,-1.0175798575030726,0.5337848663330078
1708437259.0710876,-1.1063441038131714,-1.6812025509276332,-2.5267706553088587,2.282211943263672,-1.0176294485675257,0.5337684750556946
1708437259.0731514,-1.1063475608825684,-1.681169172326559,-2.526799027119772,2.2821833330341796,-1.0175636450396937,0.5337848663330078
1708437259.075113,-1.1063640117645264,-1.6811286411681117,-2.5267587343799036,2.2821876245686035,-1.0175798575030726,0.5337193012237549
1708437259.0770907,-1.1063475608825684,-1.6811939678587855,-2.5268006960498255,2.2822038370319824,-1.0176084677325647,0.5337817668914795
1708437259.0790913,-1.1063475608825684,-1.6811939678587855,-2.526761595402853,2.282129688853882,-1.017555061970846,0.5337192416191101
1708437259.081083,-1.1063305139541626,-1.6812106571593226,-2.5267961660968226,2.2821623521992187,-1.0175841490374964,0.5337729454040527
1708437259.0831282,-1.1063430309295654,-1.6811853847899378,-2.526799027119772,2.2822038370319824,-1.0176175276385706,0.5338015556335449
1708437259.085138,-1.1063640117645264,-1.6811658344664515,-2.526820484791891,2.2821459013172607,-1.0175874868976038,0.5338224172592163
1708437259.0871012,-1.106335163116455,-1.6811567745604457,-2.5267587343799036,2.2821623521992187,-1.0176127592669886,0.5337404608726501
1708437259.0891578,-1.1063430309295654,-1.6811820469298304,-2.526745144520895,2.2822038370319824,-1.0176294485675257,0.5337523818016052
1708437259.091128,-1.1063430309295654,-1.6811939678587855,-2.526815954838888,2.2821876245686035,-1.0175922552691858,0.5337568521499634
1708437259.0931284,-1.1063305139541626,-1.6812306843199671,-2.5268171469317835,2.2821995454975585,-1.0175965468036097,0.5337729454040527
1708437259.0950994,-1.1063567399978638,-1.6811820469298304,-2.526806894932882,2.2822038370319824,-1.0175874868976038,0.5338180065155029
1708437259.0971134,-1.1063594818115234,-1.6811977825560511,-2.5267751852618616,2.282211943263672,-1.0175636450396937,0.5337936878204346
1708437259.0990946,-1.1063430309295654,-1.6811686954894007,-2.526799027119772,2.2822038370319824,-1.0176175276385706,0.5337568521499634
1708437259.1010838,-1.1063686609268188,-1.6811939678587855,-2.526811424885885,2.2822164732166748,-1.017604176198141,0.5337684750556946
1708437259.103131,-1.106318712234497,-1.6811496220030726,-2.526799027119772,2.2822446066090087,-1.0175707975970667,0.5337523818016052
1708437259.1050847,-1.1062932014465332,-1.6811701260008753,-2.526789967213766,2.2822083669849853,-1.0175307432757776,0.5337612628936768
1708437259.1071265,-1.1063259840011597,-1.6812025509276332,-2.526811424885885,2.2821623521992187,-1.0176175276385706,0.5337758660316467
1708437259.109094,-1.106338620185852,-1.6811658344664515,-2.5268026033984583,2.2822038370319824,-1.0175922552691858,0.5337568521499634
1708437259.1110992,-1.1063522100448608,-1.6812149486937464,-2.526815954838888,2.2821995454975585,-1.0176127592669886,0.5337657332420349
1708437259.1131601,-1.1063005924224854,-1.6811820469298304,-2.526820484791891,2.282203121776245,-1.0176499525653284,0.5337729454040527
1708437259.1150956,-1.1063522100448608,-1.6812106571593226,-2.526836935673849,2.2821950155445556,-1.0176175276385706,0.5337569117546082
1708437259.1171236,-1.1063522100448608,-1.6812197170653285,-2.526825014744894,2.2822164732166748,-1.0176413694964808,0.5337029099464417
1708437259.119097,-1.106338620185852,-1.6811939678587855,-2.526789967213766,2.2822329240986328,-1.017632309590475,0.5337569117546082
1708437259.1211047,-1.1063023805618286,-1.6811701260008753,-2.526799027119772,2.2822083669849853,-1.0176203886615198,0.5337773561477661
1708437259.1231124,-1.1063849925994873,-1.6812063656248988,-2.5267706553088587,2.2821919161030273,-1.01758319536318,0.5337493419647217
1708437259.1251607,-1.1063215732574463,-1.6812149486937464,-2.526865307484762,2.2822491365620117,-1.0175874868976038,0.5337327122688293
1708437259.1271305,-1.1063714027404785,-1.6812221012511195,-2.5267871061908167,2.2821714121052246,-1.017632309590475,0.533735990524292
1708437259.1291332,-1.1063051223754883,-1.6811615429320277,-2.526811424885885,2.2821876245686035,-1.017632309590475,0.5337703227996826
1708437259.131086,-1.1062886714935303,-1.68119539837026,-2.526825014744894,2.2822210031696777,-1.017628018056051,0.5337792634963989
1708437259.1331074,-1.106338620185852,-1.6811939678587855,-2.526815954838888,2.2821757036396484,-1.0176246801959437,0.5337657332420349
1708437259.135084,-1.10635507106781,-1.6812025509276332,-2.526836935673849,2.2822417455860595,-1.0176575819598597,0.5337073802947998
1708437259.1373427,-1.10639226436615,-1.6811243496336878,-2.526836935673849,2.2821833330341796,-1.0176456610309046,0.5337252616882324
1708437259.1391315,-1.1063714027404785,-1.6811744175352992,-2.526815954838888,2.2821876245686035,-1.01764423051943,0.5337162613868713
1708437259.141092,-1.1063549518585205,-1.681211610833639,-2.526815954838888,2.2822083669849853,-1.017677132283346,0.5337506532669067
1708437259.143121,-1.1062932014465332,-1.6812221012511195,-2.5268035570727747,2.2822372156330566,-1.0176399389850062,0.5337702631950378
1708437259.145085,-1.1063430309295654,-1.6812478504576625,-2.526811424885885,2.2821904855915527,-1.0176189581500452,0.5337387919425964
1708437259.1471162,-1.1063430309295654,-1.681206842462057,-2.526799027119772,2.2821578222462158,-1.0176399389850062,0.5337863564491272
1708437259.1491034,-1.1063759326934814,-1.6812311611571253,-2.5268035570727747,2.282200737590454,-1.0177009741412562,0.5337342023849487
1708437259.1510777,-1.1063640117645264,-1.6811405620970667,-2.526815954838888,2.282217188472412,-1.0176518599139612,0.5337702631950378
1708437259.1531184,-1.1063567399978638,-1.6812063656248988,-2.526789967213766,2.2822210031696777,-1.0176637808429163,0.5337088108062744
1708437259.1551023,-1.1063549518585205,-1.681190629998678,-2.526773754750387,2.2822040754505615,-1.0176919142352503,0.5337416529655457
1708437259.1571121,-1.106335163116455,-1.6812283001341761,-2.526827875767843,2.2821904855915527,-1.0176876227008265,0.5337178111076355
1708437259.1590836,-1.1063594818115234,-1.6811734638609828,-2.526844326649801,2.2821904855915527,-1.0176504294024866,0.5337584018707275
1708437259.161104,-1.1063430309295654,-1.6811982593932093,-2.526799027119772,2.282211943263672,-1.0177295843707483,0.5337133407592773
1708437259.1630983,-1.1063096523284912,-1.6812025509276332,-2.5267825762378138,2.2822326856800537,-1.0176547209369105,0.533704400062561
1708437259.1651058,-1.1063640117645264,-1.6811939678587855,-2.526806894932882,2.2821506696888427,-1.0177043120013636,0.5337297320365906
1708437259.1670976,-1.10639226436615,-1.6812430820860804,-2.5267916361438196,2.2821995454975585,-1.0176742712603968,0.5336892604827881
1708437259.1691108,-1.1063714027404785,-1.6811453304686488,-2.5267825762378138,2.282174273128174,-1.0177119413958948,0.5336757302284241
1708437259.1711066,-1.1063640117645264,-1.681169172326559,-2.5267871061908167,2.2822329240986328,-1.0177086035357874,0.5337088704109192
1708437259.1731503,-1.1063340902328491,-1.6811405620970667,-2.526799027119772,2.2822329240986328,-1.0177400747882288,0.5337059497833252
1708437259.1751194,-1.1063522100448608,-1.6812197170653285,-2.526815954838888,2.282181902522705,-1.0177610556231897,0.5337133407592773
1708437259.1771355,-1.1063295602798462,-1.681202074090475,-2.526832405720846,2.282174273128174,-1.0177281538592737,0.5336728692054749
1708437259.1791053,-1.1063296794891357,-1.6811982593932093,-2.526778046284811,2.2822164732166748,-1.0177162329303187,0.5336937308311462
1708437259.181099,-1.1063714027404785,-1.6811939678587855,-2.526844326649801,2.2821876245686035,-1.0177119413958948,0.5336892604827881
1708437259.183129,-1.106408715248108,-1.6812221012511195,-2.526811424885885,2.2821950155445556,-1.0177162329303187,0.5336863994598389
1708437259.185153,-1.1063296794891357,-1.6811939678587855,-2.526789967213766,2.2822491365620117,-1.0177252928363245,0.5336729288101196
1708437259.1871207,-1.1063170433044434,-1.6811777553954066,-2.526789967213766,2.2821950155445556,-1.0177610556231897,0.533677339553833
1708437259.1890836,-1.1062932014465332,-1.6811615429320277,-2.526827875767843,2.2822417455860595,-1.0177205244647425,0.5336442589759827
1708437259.191074,-1.1063640117645264,-1.6811453304686488,-2.526785437260763,2.2822040754505615,-1.0177190939532679,0.5336233973503113
1708437259.1930969,-1.10635507106781,-1.6811615429320277,-2.526806894932882,2.2821995454975585,-1.0177491346942347,0.5336712002754211
1708437259.1950614,-1.1063640117645264,-1.6811496220030726,-2.526839796696798,2.282174273128174,-1.0177071730243128,0.533674418926239
1708437259.1970854,-1.106420636177063,-1.6811863384642542,-2.526844326649801,2.2821995454975585,-1.0177443663226526,0.533633828163147
1708437259.1990585,-1.106338620185852,-1.6811686954894007,-2.52682334581484,2.282174273128174,-1.0177577177630823,0.5336223244667053
1708437259.2010663,-1.1063594818115234,-1.6812240085997523,-2.526872698460714,2.2821995454975585,-1.0177772680865687,0.5336621999740601
1708437259.203074,-1.1063594818115234,-1.6812025509276332,-2.526802364979879,2.2821904855915527,-1.0177162329303187,0.533674418926239
1708437259.2055259,-1.1063759326934814,-1.6811658344664515,-2.526827875767843,2.28222839414563,-1.0177119413958948,0.5336089134216309
1708437259.207081,-1.1063416004180908,-1.681178709069723,-2.526839796696798,2.2821833330341796,-1.0177119413958948,0.5335876941680908
1708437259.209108,-1.1063967943191528,-1.6812154255309046,-2.5268142859088343,2.2822281557270507,-1.0177443663226526,0.5336337685585022
1708437259.211121,-1.1063522100448608,-1.6811377010741175,-2.526781145726339,2.2821919161030273,-1.0177443663226526,0.5336249470710754
1708437259.2130988,-1.1063549518585205,-1.6811863384642542,-2.526802364979879,2.282181664104126,-1.0177610556231897,0.5336294174194336
1708437259.2150729,-1.106404185295105,-1.6811615429320277,-2.526806894932882,2.2822372156330566,-1.0177815596209925,0.5336177349090576
1708437259.2170815,-1.106338620185852,-1.6812354526915492,-2.526856247578756,2.2822446066090087,-1.0177400747882288,0.5336294174194336
1708437259.219156,-1.1063668727874756,-1.6811582050719203,-2.526856247578756,2.282219572658203,-1.0177190939532679,0.5336621999740601
1708437259.2211275,-1.106404185295105,-1.6811162434019984,-2.526827875767843,2.282211943263672,-1.0177281538592737,0.5336294174194336
1708437259.2231553,-1.1063505411148071,-1.6811701260008753,-2.526789967213766,2.2821623521992187,-1.017735783253805,0.5336177349090576
1708437259.2250845,-1.1063460111618042,-1.6811582050719203,-2.52682334581484,2.2822164732166748,-1.0177400747882288,0.5336337685585022
1708437259.227113,-1.1063549518585205,-1.6811744175352992,-2.52682334581484,2.282223864192627,-1.0177400747882288,0.5335936546325684
1708437259.2290804,-1.1063624620437622,-1.6811701260008753,-2.526794497166769,2.2822329240986328,-1.017714802418844,0.5336428284645081
1708437259.231103,-1.106404185295105,-1.6811744175352992,-2.526802364979879,2.2822164732166748,-1.0177729765521448,0.5336177349090576
1708437259.23312,-1.1063624620437622,-1.6811496220030726,-2.5267935434924524,2.282272978419922,-1.0177610556231897,0.5336100459098816
1708437259.2350938,-1.1063967943191528,-1.6811686954894007,-2.5268035570727747,2.282240076656006,-1.0177519957171839,0.5336458086967468
1708437259.2371173,-1.1063878536224365,-1.6812221012511195,-2.526811424885885,2.2821904855915527,-1.017775837575094,0.5335936546325684
1708437259.239078,-1.10639226436615,-1.6811982593932093,-2.526844326649801,2.2822744089313964,-1.0177729765521448,0.5336267352104187
1708437259.2410684,-1.1063668727874756,-1.6811744175352992,-2.526818815861837,2.2822446066090087,-1.0177848974811,0.5336383581161499
1708437259.2430987,-1.1063759326934814,-1.6811863384642542,-2.526827875767843,2.2823025423237304,-1.017731014882223,0.5335862040519714
1708437259.245097,-1.1063833236694336,-1.6811372242369593,-2.526773516331808,2.282219572658203,-1.0177505652057093,0.5335802435874939
1708437259.2470803,-1.1063714027404785,-1.68119539837026,-2.5268035570727747,2.282207413310669,-1.01774770418276,0.5335981249809265
1708437259.2491126,-1.1063952445983887,-1.6811701260008753,-2.526802364979879,2.282223864192627,-1.017735783253805,0.5335802435874939
1708437259.251095,-1.1063833236694336,-1.6811744175352992,-2.52682334581484,2.282235785121582,-1.01774770418276,0.5336025953292847
1708437259.253085,-1.1063416004180908,-1.6811539135374964,-2.526827875767843,2.282169743175171,-1.017731014882223,0.5335891842842102
1708437259.2551153,-1.106408715248108,-1.6811939678587855,-2.526794497166769,2.2821904855915527,-1.0177562872516077,0.5336010456085205
1708437259.2570853,-1.1063833236694336,-1.6812435589232386,-2.526785437260763,2.282203121776245,-1.0177596251117151,0.5335936546325684
1708437259.2590783,-1.1063967943191528,-1.6811734638609828,-2.526820484791891,2.282223864192627,-1.01774770418276,0.5336189866065979
1708437259.261096,-1.1063787937164307,-1.6811453304686488,-2.52682334581484,2.282211943263672,-1.0177596251117151,0.533572793006897
1708437259.2631102,-1.106432557106018,-1.6811539135374964,-2.526835266743795,2.282207413310669,-1.0177839438067835,0.5336312651634216
1708437259.265077,-1.1063668727874756,-1.681199689904684,-2.526818815861837,2.282186194057129,-1.0177882353412073,0.5335981249809265
1708437259.2671132,-1.1064059734344482,-1.6811982593932093,-2.526844326649801,2.282247706050537,-1.017754856740133,0.5336025953292847
1708437259.269182,-1.106408715248108,-1.6811572513976039,-2.526818815861837,2.282223864192627,-1.0177801291095179,0.5335653424263
1708437259.2710917,-1.1063668727874756,-1.681190629998678,-2.526806894932882,2.282223864192627,-1.017763916646139,0.5335698127746582
1708437259.2730968,-1.1063878536224365,-1.6811658344664515,-2.526818815861837,2.2821904855915527,-1.0177682081805628,0.5335862040519714
1708437259.2751029,-1.1063549518585205,-1.681162496606344,-2.5268681685077112,2.282284899348877,-1.0177596251117151,0.5335698127746582
1708437259.2771242,-1.1064250469207764,-1.6811539135374964,-2.5268142859088343,2.282235785121582,-1.0177224318133753,0.5335698127746582
1708437259.2791002,-1.1063505411148071,-1.681166788140768,-2.526839796696798,2.282255097026489,-1.017801586781637,0.5335744023323059
1708437259.2811143,-1.10639226436615,-1.6811777553954066,-2.526872698460714,2.2822610574909667,-1.0177715460406702,0.533545732498169
1708437259.2831159,-1.1063668727874756,-1.6812025509276332,-2.526888910924093,2.282247706050537,-1.017813507710592,0.5335084795951843
1708437259.285111,-1.1063863039016724,-1.6811701260008753,-2.5268545786487024,2.282272978419922,-1.0177682081805628,0.5335441827774048
1708437259.287135,-1.1063833236694336,-1.6811701260008753,-2.5268517176257532,2.282207413310669,-1.0177596251117151,0.5335248708724976
1708437259.2890875,-1.1063997745513916,-1.6811496220030726,-2.5268307367907923,2.282240076656006,-1.0177682081805628,0.533557653427124
1708437259.2910726,-1.1063833236694336,-1.6811496220030726,-2.5268097559558313,2.2822610574909667,-1.017775837575094,0.533557653427124
1708437259.2930787,-1.106404185295105,-1.6811572513976039,-2.526835266743795,2.2822164732166748,-1.0177848974811,0.5335621237754822
1708437259.2950945,-1.1063997745513916,-1.6811582050719203,-2.526879851018087,2.282247706050537,-1.0177596251117151,0.5335907340049744
1708437259.29711,-1.1064059734344482,-1.6811377010741175,-2.526876989995138,2.282251997584961,-1.017763916646139,0.5335832834243774
1708437259.2990928,-1.1063878536224365,-1.681190629998678,-2.5268097559558313,2.2821943002888183,-1.017754856740133,0.5335577130317688
1708437259.3010924,-1.1063787937164307,-1.6811496220030726,-2.526856247578756,2.282235785121582,-1.0178044478045862,0.5335608124732971
1708437259.3031197,-1.106404185295105,-1.681162496606344,-2.5268681685077112,2.2822434145161132,-1.0177958647357386,0.5335249304771423
1708437259.3050826,-1.1063878536224365,-1.6811744175352992,-2.5268219153033655,2.2822434145161132,-1.0177415052997034,0.5335697531700134
1708437259.3071296,-1.1063952445983887,-1.6811701260008753,-2.526856247578756,2.282284660930298,-1.0177505652057093,0.5335996150970459
1708437259.3091006,-1.1063833236694336,-1.681190629998678,-2.526818815861837,2.282247706050537,-1.0178163687335413,0.533557653427124
1708437259.3111258,-1.1063594818115234,-1.6811539135374964,-2.5268219153033655,2.2822300630756835,-1.0177910963641565,0.533557653427124
1708437259.3131318,-1.1063863039016724,-1.6811582050719203,-2.526827875767843,2.282275839442871,-1.017822567616598,0.5335621237754822
1708437259.31511,-1.1064116954803467,-1.6811539135374964,-2.5268471876727503,2.282172842616699,-1.0178282896624964,0.5335788726806641
1708437259.3171606,-1.106404185295105,-1.6811119518675746,-2.5268307367907923,2.282275839442871,-1.017794434224264,0.5335412621498108
1708437259.319108,-1.1063878536224365,-1.6812025509276332,-2.52682334581484,2.2823003965565185,-1.0177910963641565,0.5335608720779419
1708437259.3211265,-1.1064547300338745,-1.6811982593932093,-2.526818815861837,2.2823168474384765,-1.0178402105914515,0.533557653427124
1708437259.3231034,-1.10639226436615,-1.6811744175352992,-2.52682334581484,2.2823092180439453,-1.0178239981280726,0.5335907340049744
1708437259.325103,-1.1063787937164307,-1.6811582050719203,-2.5268471876727503,2.2822343546101074,-1.0177910963641565,0.5335293412208557
1708437259.3271286,-1.1064071655273438,-1.6811744175352992,-2.5268142859088343,2.2823285299488525,-1.0178077856646937,0.533545732498169
1708437259.329122,-1.1063952445983887,-1.6812025509276332,-2.5268636385547083,2.282275839442871,-1.0178359190570276,0.5335412621498108
1708437259.331118,-1.1063952445983887,-1.6811210117735804,-2.52682334581484,2.2822913366505126,-1.0178239981280726,0.5335322022438049
1708437259.3330894,-1.1063505411148071,-1.681190629998678,-2.526860777531759,2.282280369395874,-1.0178449789630335,0.533545732498169
1708437259.3350887,-1.1064132452011108,-1.6811658344664515,-2.5268307367907923,2.2823120790668945,-1.0178568998919886,0.5335772633552551
1708437259.3371143,-1.1063997745513916,-1.681133886376852,-2.5268426577197474,2.2822834688374023,-1.0178120771991175,0.5336235761642456
1708437259.339105,-1.1063907146453857,-1.6811701260008753,-2.5268216768847864,2.282287045116089,-1.0178197065936487,0.5336267352104187
1708437259.3411272,-1.1063952445983887,-1.6811863384642542,-2.526856247578756,2.2823003965565185,-1.0178402105914515,0.5336293578147888
1708437259.343102,-1.1063997745513916,-1.6811377010741175,-2.5269129912005823,2.2823359209248046,-1.0177987257586878,0.5336577892303467
1708437259.345093,-1.1063952445983887,-1.6811701260008753,-2.5268097559558313,2.2823330599018554,-1.0178282896624964,0.5337387323379517
1708437259.3470898,-1.1063416004180908,-1.68117155651235,-2.5268786589251917,2.282303495998047,-1.0178106466876429,0.533693790435791
1708437259.3491464,-1.1063698530197144,-1.681129594842428,-2.5268967787372034,2.2822958666035156,-1.0178688208209437,0.5337133407592773
1708437259.3510892,-1.1063505411148071,-1.6811863384642542,-2.5268290678607386,2.2823285299488525,-1.0178983847247522,0.5337448716163635
1708437259.3530877,-1.1063833236694336,-1.681096693078512,-2.5268517176257532,2.2822374540516357,-1.0178077856646937,0.53375244140625
1708437259.3551388,-1.106404185295105,-1.681133886376852,-2.5268710295306605,2.2823168474384765,-1.0178521315204065,0.5337982177734375
1708437259.357093,-1.1063997745513916,-1.681211610833639,-2.5269041697131556,2.282256765956543,-1.0178802649127405,0.5337836146354675
1708437259.3591068,-1.1063787937164307,-1.6811253033080042,-2.5268967787372034,2.2822915750690917,-1.017794434224264,0.5338823795318604
1708437259.3610897,-1.1063952445983887,-1.6811162434019984,-2.5268619696246546,2.2823197084614257,-1.0177915732013147,0.5338642597198486
1708437259.3630986,-1.1063997745513916,-1.6811539135374964,-2.526886049901144,2.2823077875324707,-1.0178402105914515,0.533928632736206
1708437259.3650997,-1.106420636177063,-1.6811329327025355,-2.5268831888781946,2.2822655874439697,-1.0178640524493616,0.5339480042457581
1708437259.3670886,-1.1063952445983887,-1.6811419926085414,-2.526902739201681,2.2822913366505126,-1.0177868048297327,0.5339688658714294
1708437259.369125,-1.106387734413147,-1.6811582050719203,-2.526890579854147,2.2823404508778076,-1.017834488545553,0.534021258354187
1708437259.3710914,-1.1063296794891357,-1.6811744175352992,-2.526911799107687,2.282331629390381,-1.0178807417498987,0.5340811014175415
1708437259.3731067,-1.1063997745513916,-1.6811205349364222,-2.526919190083639,2.282282515163086,-1.0178511778460901,0.5341740846633911
1708437259.375105,-1.10639226436615,-1.6811701260008753,-2.526902739201681,2.2823003965565185,-1.0179336706744593,0.5341888666152954
1708437259.3771117,-1.1063952445983887,-1.6810971699156703,-2.5269175211535853,2.282282753581665,-1.0178878943072718,0.5342651605606079
1708437259.3791032,-1.1063759326934814,-1.68119539837026,-2.526938501988546,2.2822958666035156,-1.017883602772848,0.5343250036239624
1708437259.3810933,-1.1063624620437622,-1.681206842462057,-2.526968781148092,2.2822701173969726,-1.0178878943072718,0.5344086289405823
1708437259.383125,-1.1064205169677734,-1.681162496606344,-2.5269792715655726,2.282322807902954,-1.0178917090045374,0.5344476103782654
1708437259.3851354,-1.1064115762710571,-1.681129594842428,-2.5270045439349573,2.282303495998047,-1.017883602772848,0.5345238447189331
1708437259.3871098,-1.1063952445983887,-1.681194921533102,-2.5269866625415247,2.2823077875324707,-1.0179031530963343,0.5346090793609619
1708437259.3891199,-1.10641610622406,-1.6811253033080042,-2.5269203821765345,2.2823077875324707,-1.017822567616598,0.5346747636795044
1708437259.3910973,-1.1063668727874756,-1.6811419926085414,-2.5270002524005335,2.282331629390381,-1.0178793112384241,0.5347587466239929
1708437259.3930883,-1.1063743829727173,-1.6811377010741175,-2.5270002524005335,2.2822913366505126,-1.0178960005389612,0.5348318219184875
1708437259.3951035,-1.1064071655273438,-1.6811334095396937,-2.5270076433764856,2.282310886973999,-1.017900292073385,0.5349276661872864
1708437259.397073,-1.1064457893371582,-1.6812025509276332,-2.5270031134234827,2.2823688226887207,-1.0179207960711878,0.5350488424301147
1708437259.3990855,-1.1063878536224365,-1.6811419926085414,-2.5269792715655726,2.282282515163086,-1.0178878943072718,0.5350744128227234
1708437259.4011018,-1.1063787937164307,-1.6810804806151332,-2.5269866625415247,2.2823404508778076,-1.0178983847247522,0.5351625680923462
1708437259.4030738,-1.1063997745513916,-1.6811377010741175,-2.5270121733294886,2.282315416927002,-1.0178960005389612,0.5352774262428284
1708437259.405067,-1.106404185295105,-1.6811419926085414,-2.5269702116595667,2.2823077875324707,-1.017937485371725,0.5354019403457642
1708437259.4070754,-1.1063952445983887,-1.6811863384642542,-2.5269911924945276,2.2823404508778076,-1.0178960005389612,0.5355064868927002
1708437259.4090834,-1.1063997745513916,-1.6811701260008753,-2.5270121733294886,2.2823285299488525,-1.017911736165182,0.5356351733207703
1708437259.4111168,-1.1064071655273438,-1.6811582050719203,-2.5269671122180384,2.282310886973999,-1.017874542866842,0.5356922149658203
1708437259.4131162,-1.1064116954803467,-1.6811253033080042,-2.5269792715655726,2.2823077875324707,-1.0179207960711878,0.5358582139015198
1708437259.4151037,-1.106420636177063,-1.6811496220030726,-2.5270538965808313,2.282256765956543,-1.0178597609149378,0.5359283685684204
1708437259.4170945,-1.1063952445983887,-1.681150575677389,-2.5270121733294886,2.282310886973999,-1.017883602772848,0.5360764861106873
1708437259.4191036,-1.1064280271530151,-1.681124826470846,-2.5269957224475306,2.2823478418537597,-1.017909351979391,0.5362243056297302
1708437259.4211488,-1.1064502000808716,-1.681162496606344,-2.5269911924945276,2.2823239999958496,-1.017905060444967,0.5363605618476868
1708437259.4230964,-1.1063978672027588,-1.68117155651235,-2.5269792715655726,2.282273693675659,-1.0178960005389612,0.5365085601806641
1708437259.4251344,-1.1063952445983887,-1.6811253033080042,-2.5269792715655726,2.2823197084614257,-1.0179241339312952,0.5366281270980835
1708437259.427096,-1.1064071655273438,-1.6811381779112757,-2.5270031134234827,2.2823850351520996,-1.0178878943072718,0.5368256568908691
1708437259.4290838,-1.1063907146453857,-1.681166788140768,-2.5269911924945276,2.2823139864155273,-1.01794940630068,0.5368828773498535
1708437259.4311008,-1.1063650846481323,-1.6811424694456996,-2.5269580523120325,2.282298966045044,-1.0178960005389612,0.5369963645935059
1708437259.4330986,-1.1064319610595703,-1.681133886376852,-2.5269957224475306,2.282302065486572,-1.017905060444967,0.5371772646903992
1708437259.435097,-1.1064319610595703,-1.6811100445189417,-2.5269747416125696,2.2823197084614257,-1.0178960005389612,0.537377655506134
1708437259.4371207,-1.1063814163208008,-1.681072851220602,-2.5269866625415247,2.282343550319336,-1.0178878943072718,0.537570595741272
1708437259.439078,-1.1064484119415283,-1.6811138592162074,-2.5270538965808313,2.2822915750690917,-1.0178511778460901,0.5377308130264282
1708437259.441085,-1.1064547300338745,-1.681089540521139,-2.5269625822650355,2.2823850351520996,-1.017874542866842,0.5379011034965515
1708437259.4431093,-1.1064438819885254,-1.6810656986632289,-2.5269747416125696,2.2823197084614257,-1.0178540388690394,0.5381418466567993
1708437259.4450767,-1.1064647436141968,-1.6810208759703578,-2.5269957224475306,2.282282515163086,-1.0178926626788538,0.5382718443870544
1708437259.447086,-1.1064141988754272,-1.681103845635885,-2.5269671122180384,2.2823969560810546,-1.0178917090045374,0.5384349822998047
1708437259.4490929,-1.1064468622207642,-1.6810385189452113,-2.5270031134234827,2.2823421198078613,-1.0179198423968714,0.5386263728141785
1708437259.4510977,-1.106472134590149,-1.681009908715719,-2.5269838015185755,2.282376213664673,-1.0179360548602503,0.5388062000274658
1708437259.4531164,-1.1064558029174805,-1.681026121179098,-2.5270167032824915,2.28235833227124,-1.0179107824908655,0.5390630960464478
1708437259.4551,-1.1064722537994385,-1.6809889278807582,-2.5269625822650355,2.2823139864155273,-1.017911736165182,0.5392201542854309
1708437259.4571311,-1.1064468622207642,-1.681026121179098,-2.5270121733294886,2.2823962408253173,-1.0179155508624476,0.5394517183303833
1708437259.4590847,-1.1064603328704834,-1.6810218296446742,-2.5269461313830774,2.282388134593628,-1.0178940931903284,0.5396509766578674
1708437259.461112,-1.1064603328704834,-1.6810342274107875,-2.5270121733294886,2.2824007707783203,-1.0178826490985315,0.5399321913719177
1708437259.463106,-1.1064722537994385,-1.680997987786764,-2.5269792715655726,2.2823406892963867,-1.0179107824908655,0.540126621723175
1708437259.4651399,-1.1064484119415283,-1.6809741459288539,-2.5269702116595667,2.282379313106201,-1.0179289023028772,0.540451169013977
1708437259.4671557,-1.10651695728302,-1.6809741459288539,-2.5269957224475306,2.2824296194263916,-1.0178960005389612,0.5406664609909058
1708437259.4690893,-1.1064677238464355,-1.6810184917845667,-2.527039353047506,2.2824529844471435,-1.017933193837301,0.5409011840820312
1708437259.4711213,-1.106512427330017,-1.680986066857809,-2.5270360151873987,2.2824606138416748,-1.0178793112384241,0.5411452054977417
1708437259.473124,-1.1064677238464355,-1.6809660396971644,-2.5269911924945276,2.2824324804493408,-1.0179317633258265,0.5414011478424072
1708437259.4751203,-1.1064631938934326,-1.6809503040709437,-2.5269747416125696,2.282479925746582,-1.0178960005389612,0.5416551232337952
1708437259.477121,-1.1064214706420898,-1.6809741459288539,-2.5269625822650355,2.2824384409138183,-1.017911736165182,0.5418941378593445
1708437259.4791145,-1.1064512729644775,-1.6809460125365199,-2.5269866625415247,2.2824887472340087,-1.0178869406329554,0.5421860218048096
1708437259.481104,-1.1065199375152588,-1.6809617481627406,-2.527052942906515,2.2825090128132324,-1.0178960005389612,0.5424953103065491
1708437259.4831047,-1.106512427330017,-1.680913587609762,-2.5270209948169153,2.2824622827717285,-1.0179031530963343,0.5427857637405396
1708437259.4851189,-1.1065667867660522,-1.6809412441649378,-2.5269625822650355,2.2824622827717285,-1.0179031530963343,0.5429997444152832
1708437259.487129,-1.1064661741256714,-1.6809326610960902,-2.5269957224475306,2.2824622827717285,-1.0178983847247522,0.543327271938324
1708437259.489093,-1.1065188646316528,-1.680929800073141,-2.52696139017214,2.282513304347656,-1.01794940630068,0.5435904860496521
1708437259.491097,-1.1065324544906616,-1.6809913120665492,-2.5269957224475306,2.2824999529072265,-1.017874542866842,0.5438522100448608
1708437259.4930942,-1.1065062284469604,-1.6810037098326625,-2.5270031134234827,2.2825283247181396,-1.0178540388690394,0.544200599193573
1708437259.4950752,-1.1065278053283691,-1.6809946499266566,-2.5270076433764856,2.282545967692993,-1.0179031530963343,0.544471263885498
1708437259.4971168,-1.1065725088119507,-1.680929800073141,-2.5270360151873987,2.2825075823017578,-1.0179198423968714,0.544810950756073
1708437259.4990869,-1.1065800189971924,-1.6809903583922328,-2.5269625822650355,2.28251497327771,-1.017907444630758,0.5451188683509827
1708437259.5010717,-1.1065725088119507,-1.6810108623900355,-2.526977841054098,2.2825607496448974,-1.0179451147662562,0.5454496145248413
1708437259.503113,-1.1066038608551025,-1.6809784374632777,-2.5269702116595667,2.2825280862995605,-1.0178826490985315,0.5457935929298401
1708437259.5050802,-1.1065963506698608,-1.6809946499266566,-2.5270403067218226,2.282489700908325,-1.0179227034198206,0.5460882782936096
1708437259.507096,-1.1065919399261475,-1.681023736993307,-2.527039353047506,2.282589836711548,-1.0179274717914026,0.5463706851005554
1708437259.5090864,-1.1065993309020996,-1.6809631786742152,-2.5269911924945276,2.282531424159668,-1.0179527441607874,0.5467105507850647
1708437259.5111027,-1.1065665483474731,-1.6810065708556117,-2.5269957224475306,2.282613678569458,-1.0179227034198206,0.5469885468482971
1708437259.5131223,-1.1066128015518188,-1.6809660396971644,-2.5270076433764856,2.2825254636951904,-1.017979923878805,0.5473611950874329
1708437259.5151017,-1.1065528392791748,-1.6809617481627406,-2.5270076433764856,2.282576485271118,-1.0179436842547815,0.5476838946342468
1708437259.5171258,-1.1066745519638062,-1.6809617481627406,-2.5269838015185755,2.282600088710449,-1.0179646650897425,0.5480566024780273
1708437259.5190954,-1.1065946817398071,-1.6809460125365199,-2.5269866625415247,2.2825972276875,-1.0179436842547815,0.5483406186103821
1708437259.5211053,-1.1065901517868042,-1.680917879144186,-2.5270002524005335,2.2826120096394042,-1.0179346243487757,0.5487624406814575
1708437259.5230992,-1.1065946817398071,-1.6809703312315882,-2.526994053517477,2.2825869756885986,-1.017926041279928,0.5490301847457886
1708437259.5251174,-1.106640100479126,-1.6810037098326625,-2.5269580523120325,2.2826034265705566,-1.0179346243487757,0.5494471788406372
1708437259.5271347,-1.106623649597168,-1.6809827289977015,-2.5270076433764856,2.2826523023792724,-1.0179675261126917,0.5497359037399292
1708437259.5291157,-1.106635570526123,-1.6809631786742152,-2.527026955281393,2.2826403814503173,-1.0179632345782679,0.5501203536987305
1708437259.5311105,-1.1066310405731201,-1.6809092960753382,-2.5269957224475306,2.2826642233082275,-1.0179632345782679,0.550430178642273
1708437259.5331151,-1.1066536903381348,-1.680974622766012,-2.5269535223590296,2.282597466106079,-1.0180004278766077,0.5508804321289062
1708437259.5351026,-1.1066310405731201,-1.6809383831419886,-2.526961151753561,2.28263442098584,-1.0179947058307093,0.5512052178382874
1708437259.537131,-1.1065982580184937,-1.6809426746764125,-2.5269535223590296,2.28266350805249,-1.0179665724383753,0.5516581535339355
1708437259.5391223,-1.1066594123840332,-1.680967470208639,-2.526994053517477,2.282667799586914,-1.018024746571676,0.5519930124282837
1708437259.5411065,-1.1066758632659912,-1.6809588871397914,-2.526939932500021,2.28266350805249,-1.0179947058307093,0.5523296594619751
1708437259.5431137,-1.106652021408081,-1.6809092960753382,-2.5269747416125696,2.2827436166950683,-1.0180290381061,0.552742063999176
1708437259.5450938,-1.1066921949386597,-1.6809517345824183,-2.5270121733294886,2.282752438182495,-1.018040959035055,0.5530923008918762
1708437259.547148,-1.1066639423370361,-1.6809350452818812,-2.5270121733294886,2.2826859193989257,-1.0179994742022913,0.5535020232200623
1708437259.5491257,-1.1066832542419434,-1.6809469662108363,-2.5270031134234827,2.2826785284229736,-1.0180156866656702,0.5539430379867554
1708437259.551134,-1.106662392616272,-1.6809717617430628,-2.526994053517477,2.2827274042316894,-1.0179947058307093,0.5543472766876221
1708437259.5531206,-1.10672128200531,-1.680911203423971,-2.526977841054098,2.2827140527912597,-1.0180485884295862,0.5547254681587219
1708437259.5550823,-1.1066951751708984,-1.680974622766012,-2.5269747416125696,2.2827183443256835,-1.017982308064596,0.5550963282585144
1708437259.5571039,-1.1066787242889404,-1.6809760532774867,-2.52702242532839,2.2827140527912597,-1.0180276075946253,0.5554895401000977
1708437259.559083,-1.1067478656768799,-1.6809054813780726,-2.5270512739764612,2.2827231126972656,-1.0180395285235804,0.5558813810348511
1708437259.5610719,-1.1067075729370117,-1.680939336816305,-2.5270031134234827,2.2827481466480712,-1.0180113951312464,0.5562660694122314
1708437259.5630975,-1.106743335723877,-1.6809026203551234,-2.526994053517477,2.2827798563190917,-1.0180142561541956,0.5566772222518921
1708437259.5650687,-1.1067641973495483,-1.6808701954283656,-2.527069393788473,2.282771273250244,-1.0180676619159144,0.5571079850196838
1708437259.5670843,-1.1067404747009277,-1.6809264622130335,-2.527060333882467,2.2827302652546386,-1.0180929342852991,0.557531476020813
1708437259.5691135,-1.106726884841919,-1.6809545956053675,-2.526973072682516,2.2827505308338623,-1.0180395285235804,0.5579137206077576
1708437259.571093,-1.106767177581787,-1.6808916531004847,-2.527085844670431,2.282771273250244,-1.0180471579181116,0.5583496689796448
1708437259.5731194,-1.106755256652832,-1.6808620891966761,-2.527072254811422,2.2827951151081542,-1.0180590788470667,0.5587904453277588
1708437259.575099,-1.1067343950271606,-1.680894514123434,-2.5270257631884974,2.282771273250244,-1.0181077162372034,0.5591778755187988
1708437259.5771065,-1.1067836284637451,-1.680911203423971,-2.527052942906515,2.28282014905896,-1.0180919806109827,0.5596672892570496
1708437259.5790927,-1.1067925691604614,-1.68089022258901,-2.527043883000509,2.282893581981323,-1.0180991331683558,0.560076892375946
1708437259.5810895,-1.1067790985107422,-1.6808787784972132,-2.526989523564474,2.2828566271015625,-1.0180991331683558,0.5604835748672485
1708437259.583108,-1.1068453788757324,-1.6809030971922816,-2.527055803929464,2.2828432756611328,-1.0180991331683558,0.5609067678451538
1708437259.5850892,-1.1067744493484497,-1.6808411083617152,-2.5270541349994105,2.2829083639332275,-1.0181201140033167,0.5613613724708557
1708437259.5871122,-1.106812596321106,-1.680838247338766,-2.526968542729513,2.2828876215168457,-1.0180991331683558,0.5618492364883423
1708437259.589082,-1.1067744493484497,-1.6808792553343714,-2.5270467440234583,2.2828637796589355,-1.018160645161764,0.562242329120636
1708437259.5910757,-1.1068034172058105,-1.6808673344054164,-2.5270043055163782,2.28286258756604,-1.018111530934469,0.562656819820404
1708437259.593108,-1.1068108081817627,-1.6808587513365687,-2.5270422140704554,2.282890959376953,-1.0181682745562952,0.5630787014961243
1708437259.5950778,-1.1068079471588135,-1.6808210812010707,-2.527055803929464,2.2828702169605712,-1.018139664326803,0.5634989738464355
1708437259.5971222,-1.1067490577697754,-1.680887838403219,-2.5270541349994105,2.282879038447998,-1.0181921164142054,0.5639432668685913
1708437259.5991018,-1.1068063974380493,-1.6808258495726527,-2.5270779768573206,2.282923384303711,-1.0181697050677698,0.5643364787101746
1708437259.6010878,-1.1068108081817627,-1.6808792553343714,-2.5270960966693323,2.2829271990009765,-1.0181997458087366,0.5647177696228027
1708437259.6031332,-1.1067988872528076,-1.6808749637999476,-2.5271034876452845,2.2829314905354003,-1.0182235876666468,0.5651600956916809
1708437259.605083,-1.1068391799926758,-1.6808587513365687,-2.5270705858813685,2.28296868383374,-1.018219296132223,0.5656071901321411
1708437259.6071105,-1.1068183183670044,-1.6808883152403773,-2.5271533171283167,2.282919092769287,-1.018231217061178,0.5660823583602905
1708437259.6090906,-1.1068391799926758,-1.68080534557485,-2.527064625416891,2.2829715448566894,-1.0182760397540491,0.566489577293396
1708437259.6110902,-1.1068346500396729,-1.6808511219420375,-2.5270898977862757,2.2829012113758544,-1.0182550589190882,0.5669319033622742
1708437259.6131108,-1.1068302392959595,-1.6809050045409144,-2.5271111170398157,2.2829434114643554,-1.0182507673846644,0.5673627853393555
1708437259.6150918,-1.106900930404663,-1.6808339558043421,-2.5271080175982874,2.2829183775135498,-1.0182884375201624,0.5677520036697388
1708437259.6170726,-1.106858491897583,-1.6808258495726527,-2.52710205713381,2.282930298442505,-1.0182459990130823,0.5682436227798462
1708437259.619098,-1.106874942779541,-1.6808554134764613,-2.5271275679217737,2.2829922872730712,-1.0182626883136194,0.5686416029930115
1708437259.6211243,-1.1068873405456543,-1.6808344326415003,-2.527118508015768,2.2829879957386474,-1.0182927290545862,0.5691442489624023
1708437259.6230946,-1.1068538427352905,-1.6808883152403773,-2.527071777974264,2.2829791742512207,-1.0182836691485804,0.5694942474365234
1708437259.6251006,-1.1069037914276123,-1.6808916531004847,-2.527130667363302,2.2829999166676025,-1.0183208624469202,0.569991946220398
1708437259.6270893,-1.1068992614746094,-1.6808673344054164,-2.527156178151266,2.282982273692749,-1.0183189550982874,0.5704394578933716
1708437259.6291223,-1.1068919897079468,-1.6808301411070765,-2.527113978062765,2.2830118375965576,-1.0182951132403772,0.5709253549575806
1708437259.6311092,-1.1069037914276123,-1.6808387241759242,-2.5272133986102503,2.282993956203125,-1.0182951132403772,0.5713680982589722
1708437259.6330955,-1.1069157123565674,-1.6808167896666468,-2.52717096010317,2.2829956251331787,-1.0182865301715296,0.5718307495117188
1708437259.6351185,-1.106906533241272,-1.680868764916891,-2.527159039174215,2.282982273692749,-1.0183189550982874,0.572289764881134
1708437259.637111,-1.1069490909576416,-1.6808468304076136,-2.52717096010317,2.282985134715698,-1.0183146635638636,0.572747528553009
1708437259.639132,-1.1069282293319702,-1.6808344326415003,-2.52717096010317,2.2830511766621093,-1.0183404127704065,0.573275089263916
1708437259.6411006,-1.1069355010986328,-1.6808425388731898,-2.5272327105151575,2.283071919078491,-1.0183013121234339,0.5737088322639465
1708437259.6431265,-1.1069191694259644,-1.6808272800841273,-2.5272043387042444,2.2830392557331542,-1.018350903187887,0.5742253065109253
1708437259.6450753,-1.1069146394729614,-1.680875917474264,-2.5271619001971644,2.28300587713208,-1.0183804670916956,0.5746545791625977
1708437259.6470957,-1.1069111824035645,-1.680896898309225,-2.5271907488452356,2.2830230432697753,-1.0183256308185022,0.5752149820327759
1708437259.6490839,-1.1069563627243042,-1.6808272800841273,-2.5272071997271937,2.2830588060566406,-1.018371884022848,0.5756517648696899
1708437259.6510806,-1.1069111824035645,-1.6808315716185511,-2.5272207895862024,2.283076449031494,-1.018362824116842,0.5761395692825317
1708437259.6530855,-1.1069563627243042,-1.6808191738524378,-2.5271831194507044,2.2830630975910644,-1.0183656851397913,0.5766419768333435
1708437259.6550674,-1.1069235801696777,-1.6808315716185511,-2.5272026697741907,2.2830914694019775,-1.0184076468097132,0.5771657824516296
1708437259.6570842,-1.1068812608718872,-1.6808034382262171,-2.5272401014911097,2.283033533687256,-1.0184152762042444,0.5776477456092834
1708437259.65908,-1.1069282293319702,-1.6807991466917933,-2.5272610823260706,2.283017321223877,-1.0184362570392054,0.5780678391456604
1708437259.661072,-1.1069355010986328,-1.6807781658568324,-2.527242962514059,2.2830423551746826,-1.0184348265277308,0.5785613059997559
1708437259.6630998,-1.1068648099899292,-1.680840631524557,-2.527221981679098,2.2830588060566406,-1.0184677282916468,0.579011857509613
1708437259.6650815,-1.1069309711456299,-1.6808034382262171,-2.527238432561056,2.283049984569214,-1.0184391180621546,0.5795420408248901
1708437259.667073,-1.1069355010986328,-1.6807905636229457,-2.527247492467062,2.2830869394489746,-1.0184510389911097,0.5799883604049683
1708437259.6690986,-1.1069445610046387,-1.680835863152975,-2.5272682348834437,2.283115788097046,-1.0184677282916468,0.5805000066757202
1708437259.671173,-1.1069282293319702,-1.6807662449278773,-2.527226511632101,2.2830988603779296,-1.0184467474566858,0.5810397863388062
1708437259.673127,-1.1069282293319702,-1.6807996235289515,-2.527247492467062,2.283073588008545,-1.018491570149557,0.5815812349319458
1708437259.6751237,-1.1069146394729614,-1.6808606586852015,-2.527221981679098,2.2830497461506347,-1.0185454527484339,0.5820797681808472
1708437259.677122,-1.1069355010986328,-1.6807495556273402,-2.527259413396017,2.283111258144043,-1.0185158888446253,0.5826316475868225
1708437259.6791286,-1.1069146394729614,-1.6807457409300746,-2.527254883443014,2.2830585676380615,-1.0185187498675745,0.583133339881897
1708437259.6810849,-1.106947422027588,-1.6808520756163539,-2.52727181116213,2.2831031519123535,-1.0185144583331507,0.5837452411651611
1708437259.6831315,-1.1069610118865967,-1.6807733974852503,-2.527292791997091,2.283120318050049,-1.0184934774981897,0.5842130184173584
1708437259.6851554,-1.1069728136062622,-1.680814882318014,-2.5272792021380823,2.2830826479145507,-1.0185635725604456,0.5848102569580078
1708437259.6871083,-1.106947422027588,-1.6807929478087367,-2.5273121039019983,2.283148689860962,-1.0185754934894007,0.5853801369667053
1708437259.6890736,-1.1069310903549194,-1.6807781658568324,-2.527321163808004,2.283115788097046,-1.0185664335833948,0.5858365297317505
1708437259.6911058,-1.1069682836532593,-1.6808105907835902,-2.5272911230670374,2.2830943304249267,-1.0185249487506312,0.5864709615707397
1708437259.6931376,-1.1069519519805908,-1.6808272800841273,-2.527304712926046,2.2831076818653564,-1.018606964741842,0.5869928598403931
1708437259.695094,-1.1069682836532593,-1.680814882318014,-2.5272627512561243,2.2830943304249267,-1.018557373677389,0.587554395198822
1708437259.6970804,-1.1069382429122925,-1.6808034382262171,-2.5272939840899866,2.2831529813953857,-1.0186026732074183,0.5881631970405579
1708437259.699094,-1.106947422027588,-1.6807824573912562,-2.5272820631610315,2.2831246095844726,-1.01857835451235,0.5887203812599182
1708437259.701098,-1.1069519519805908,-1.6807619533934535,-2.5273359457599085,2.2830988603779296,-1.0185936133014124,0.5892875790596008
1708437259.7030826,-1.1068812608718872,-1.6807781658568324,-2.5272939840899866,2.2831246095844726,-1.0186026732074183,0.5897934436798096
1708437259.7050753,-1.1069717407226562,-1.6807619533934535,-2.5273571650134485,2.28314392148938,-1.0185859839068812,0.5903839468955994
1708437259.7070756,-1.1069355010986328,-1.6807781658568324,-2.527334515248434,2.2831031519123535,-1.0185893217669886,0.5910080671310425
1708437259.7090878,-1.1069445610046387,-1.6808105907835902,-2.527339045201437,2.2830869394489746,-1.0185983816729944,0.5915454030036926
1708437259.711099,-1.106942892074585,-1.6808315716185511,-2.5273013750659388,2.283089800471924,-1.0186427275287073,0.5921319723129272
1708437259.7131116,-1.1069400310516357,-1.6807991466917933,-2.527334515248434,2.283127470607422,-1.0186355749713343,0.5927543640136719
1708437259.715127,-1.1069400310516357,-1.6807824573912562,-2.527346436177389,2.2830912309833984,-1.0186341444598597,0.5933712720870972
1708437259.7171516,-1.1068719625473022,-1.6807934246458949,-2.527363125477926,2.2830585676380615,-1.0186637083636683,0.5939692258834839
1708437259.719125,-1.1069728136062622,-1.6807733974852503,-2.527329985295431,2.2830988603779296,-1.0186384359942835,0.59455406665802
1708437259.721157,-1.1068856716156006,-1.6807495556273402,-2.5274081865893763,2.2830778795429687,-1.0186384359942835,0.595145046710968
1708437259.7231548,-1.106906533241272,-1.680807729760641,-2.527379576359884,2.2830793100544433,-1.0186460653888147,0.5957601070404053
1708437259.7251527,-1.1069101095199585,-1.68078674892568,-2.5273869673358362,2.283057137126587,-1.0186665693866175,0.5963754057884216
1708437259.727098,-1.1069146394729614,-1.6808191738524378,-2.527363125477926,2.2830707269855957,-1.0186832586871546,0.5969933867454529
1708437259.7291484,-1.1069563627243042,-1.6807662449278773,-2.5273991266833704,2.28306166707959,-1.018660847340719,0.5976204872131348
1708437259.7311416,-1.1068856716156006,-1.6808186970152796,-2.5273869673358362,2.2830869394489746,-1.0186741987811487,0.5982058048248291
1708437259.733181,-1.1069355010986328,-1.68078674892568,-2.5274696985827845,2.283073588008545,-1.0187023321734827,0.5988516211509705
1708437259.7351444,-1.1069190502166748,-1.6808229885497035,-2.5274201075183313,2.2831246095844726,-1.0187385717975062,0.5995230078697205
1708437259.7371445,-1.1069563627243042,-1.6808034382262171,-2.5274065176593226,2.2830707269855957,-1.0187433401690882,0.6001533269882202
1708437259.7390838,-1.1069282293319702,-1.6807948551573695,-2.5274606386767786,2.2830630975910644,-1.0187013784991663,0.6007623672485352
1708437259.7410877,-1.1068992614746094,-1.680843015710348,-2.5274201075183313,2.2830423551746826,-1.0187714735614222,0.6014840602874756
1708437259.743116,-1.1069157123565674,-1.6808554134764613,-2.5274232069598597,2.2830943304249267,-1.0187581221209925,0.6021004319190979
1708437259.7451463,-1.106878399848938,-1.6807991466917933,-2.5273974577533167,2.2831119733997802,-1.0187462011920374,0.6028361916542053
1708437259.747102,-1.1068646907806396,-1.6807905636229457,-2.5273945967303675,2.283017321223877,-1.0188191572772425,0.6034820675849915
1708437259.7491043,-1.1069201231002808,-1.6808792553343714,-2.5274396578418177,2.283100052470825,-1.018790070210592,0.6041779518127441
1708437259.7510815,-1.1069248914718628,-1.6808144054808558,-2.5274606386767786,2.2830750185200195,-1.018827263508932,0.6049174070358276
1708437259.7531085,-1.1069201231002808,-1.6808716259398402,-2.5274935404406946,2.2830261427113037,-1.0187810103045862,0.6056321859359741
1708437259.7550805,-1.1068965196609497,-1.6808258495726527,-2.5274277369128626,2.2830261427113037,-1.018851105366842,0.6063522100448608
1708437259.757111,-1.1068494319915771,-1.6808468304076136,-2.527442518864767,2.283055468196533,-1.0188630262957972,0.6070553064346313
1708437259.7591002,-1.1068838834762573,-1.6808186970152796,-2.5274561087237757,2.28304831563916,-1.0188658873187464,0.6078278422355652
1708437259.7611172,-1.1068227291107178,-1.6808344326415003,-2.5274351278888147,2.283027334804199,-1.0188539663897913,0.6086528301239014
1708437259.7630951,-1.1067899465560913,-1.6808916531004847,-2.5274561087237757,2.283055468196533,-1.0188582579242151,0.6093313694000244
1708437259.7650828,-1.1068719625473022,-1.6808344326415003,-2.52744704881777,2.282982273692749,-1.0188897291766565,0.6100786328315735
1708437259.7671316,-1.1068600416183472,-1.6807729206480921,-2.5274844805346888,2.282958431834839,-1.0188897291766565,0.6108338236808777
1708437259.7690847,-1.1068153381347656,-1.6808959446349085,-2.527449909840719,2.282980366344116,-1.0189183394061487,0.6115908622741699
1708437259.771102,-1.1067914962768555,-1.6808663807311,-2.527482811604635,2.2829314905354003,-1.0189183394061487,0.6124024987220764
1708437259.7731082,-1.1067699193954468,-1.6808630428709925,-2.52747089067568,2.2829314905354003,-1.018897835408346,0.6131842732429504
1708437259.7751002,-1.1067534685134888,-1.6808425388731898,-2.527508799229757,2.282911463374756,-1.0189216772662562,0.6139150857925415
1708437259.7771184,-1.1068052053451538,-1.6808601818480433,-2.5274363199817103,2.2828773695179443,-1.0189006964312952,0.6147006154060364
1708437259.7791166,-1.1067836284637451,-1.6808620891966761,-2.5274692217456263,2.2828921514698486,-1.018946949635641,0.6154823303222656
1708437259.7810879,-1.1067149639129639,-1.6809073887267054,-2.527482811604635,2.282841845149658,-1.0189793745623987,0.6162979006767273
1708437259.78311,-1.1066986322402954,-1.6808916531004847,-2.5275610128985804,2.28283874570813,-1.0189631620990198,0.6170864105224609
1708437259.7850919,-1.1066986322402954,-1.6808840237059535,-2.5274952093707483,2.282832069987915,-1.0189216772662562,0.6179495453834534
1708437259.7871382,-1.1066787242889404,-1.680883070031637,-2.5275281111346644,2.2828232485004882,-1.0189288298236292,0.6187384128570557
1708437259.7891934,-1.106662392616272,-1.6809069118895472,-2.5275428930865687,2.2828070360371093,-1.018937889729635,0.6195316910743713
1708437259.791092,-1.1066429615020752,-1.680960317651266,-2.5275309721576136,2.282766743297241,-1.0189126173602503,0.6203296184539795
1708437259.7931073,-1.1066474914550781,-1.6808744869627894,-2.5275071302997034,2.2827340799519042,-1.0190032164203089,0.6212177872657776
1708437259.7950692,-1.106623649597168,-1.6809097729124964,-2.5275593439685267,2.2827562528797607,-1.0189617315875452,0.6221060752868652
1708437259.7970817,-1.1066536903381348,-1.6809717617430628,-2.5275805632220667,2.2827727037617187,-1.0189946333514612,0.6229342222213745
1708437259.7990682,-1.1065500974655151,-1.680974622766012,-2.5275264422046106,2.2827154833027343,-1.0189974943744105,0.6237211227416992
1708437259.801073,-1.1065500974655151,-1.680889745751852,-2.527533833180563,2.282728596324585,-1.0189736525165003,0.6246141195297241
1708437259.8031592,-1.1065635681152344,-1.680913587609762,-2.527566973363058,2.2826501566120605,-1.0189898649798792,0.6254522800445557
1708437259.8050823,-1.1065107583999634,-1.6809741459288539,-2.527579132710592,2.282578154201172,-1.0189765135394495,0.6263351440429688
1708437259.8071003,-1.1064972877502441,-1.6809655628600062,-2.527536694203512,2.282590075130127,-1.0190351645099085,0.6271845698356628
1708437259.8091052,-1.1065369844436646,-1.6809741459288539,-2.527616564427511,2.2825750547596435,-1.0190752188311976,0.627995491027832
1708437259.811108,-1.1064796447753906,-1.6810304127135218,-2.5276148954974573,2.2825795847126464,-1.0190499464618128,0.628818154335022
1708437259.8131387,-1.1064631938934326,-1.6810347042479457,-2.527623955403463,2.2825588422962646,-1.0190427939044397,0.6296904683113098
1708437259.8151236,-1.1063977479934692,-1.6810022793211878,-2.527591053639547,2.2825488287159423,-1.01909047762026,0.6306102275848389
1708437259.8171253,-1.1064319610595703,-1.681075235406393,-2.527623955403463,2.2825357156940917,-1.0190771261798304,0.6314373016357422
1708437259.819086,-1.1063534021377563,-1.6810256443419398,-2.5276103655444544,2.2824665743061523,-1.0190938154803675,0.6323080658912659
1708437259.821093,-1.1063907146453857,-1.6810699901976527,-2.5276406447040003,2.2824458318897705,-1.0191219488727015,0.6331661939620972
1708437259.8231275,-1.1063504219055176,-1.681070943871969,-2.5275939146624964,2.2824622827717285,-1.0190895239459437,0.6340156197547913
1708437259.8251092,-1.1063430309295654,-1.681087156335348,-2.5276315847979944,2.282431049937866,-1.0191085974322718,0.6349794864654541
1708437259.8271248,-1.1063475608825684,-1.6811024151244105,-2.5276029745685022,2.282386465663574,-1.019191090260641,0.6358717679977417
1708437259.8291366,-1.1062785387039185,-1.6810981235899867,-2.5276389757739466,2.28247253477063,-1.0191786924945276,0.636777937412262
1708437259.8310955,-1.1062337160110474,-1.681101461450094,-2.5276647249804896,2.2823375898548584,-1.019214932118551,0.6376714110374451
1708437259.8330991,-1.1062471866607666,-1.6810981235899867,-2.5276601950274866,2.2823657232471923,-1.019210163746969,0.6385692954063416
1708437259.8350873,-1.1062363386154175,-1.6811267338194789,-2.5276134649859827,2.2823185163685302,-1.019217316304342,0.6394837498664856
1708437259.8371491,-1.1062124967575073,-1.6811462841429652,-2.527684036885397,2.282298966045044,-1.0192087332354944,0.6404268145561218
1708437259.8391438,-1.1061632633209229,-1.681178709069723,-2.5276179949389856,2.2822915750690917,-1.0192087332354944,0.6412961483001709
1708437259.841085,-1.106068730354309,-1.6812354526915492,-2.5276389757739466,2.282287760371826,-1.0192669073687952,0.6420996189117432
1708437259.8430974,-1.1061122417449951,-1.681202074090475,-2.527700487767355,2.2822434145161132,-1.0192583242999476,0.6430427432060242
1708437259.8451014,-1.1060912609100342,-1.6811977825560511,-2.527686897908346,2.2822210031696777,-1.0192416349994105,0.6440246105194092
1708437259.8470998,-1.1060220003128052,-1.6812502346434535,-2.52765399614443,2.282141609782837,-1.0192611853228968,0.6449406147003174
1708437259.849112,-1.1059545278549194,-1.6812669239439906,-2.527703348790304,2.2821714121052246,-1.0192626158343714,0.645819365978241
1708437259.8510814,-1.105921745300293,-1.6812082729735316,-2.527674976979391,2.2820984560200195,-1.0191996733294886,0.6467730402946472
1708437259.853151,-1.1059398651123047,-1.6812001667418421,-2.527695957814352,2.2821037012287597,-1.0192654768573206,0.6477634310722351
1708437259.855082,-1.1058628559112549,-1.6812693081297816,-2.527719799672262,2.2821037012287597,-1.019235912953512,0.6486657857894897
1708437259.8571389,-1.1058417558670044,-1.6813136539854945,-2.5277321974383753,2.2821006017872314,-1.019256893788473,0.6495917439460754
1708437259.859084,-1.1058151721954346,-1.681375642816061,-2.5277786890613,2.281994505519531,-1.019285027180807,0.6505158543586731
1708437259.861086,-1.1057415008544922,-1.6813703976073207,-2.5277441183673304,2.282061977977417,-1.019322697316305,0.6515306234359741
1708437259.863116,-1.1057029962539673,-1.6814075909056605,-2.5277515093432825,2.2819840151020507,-1.0193303267108362,0.6524113416671753
1708437259.865118,-1.105690360069275,-1.6813932857909144,-2.5277469793902796,2.281919403667114,-1.0193255583392542,0.6534104943275452
1708437259.8671126,-1.1056548357009888,-1.6814457378783167,-2.5277634302722376,2.2818986612507324,-1.0193212668048304,0.6543534398078918
1708437259.8690865,-1.1056115627288818,-1.6814633808531703,-2.5277350584613245,2.281871958369873,-1.0193541685687464,0.6552718281745911
1708437259.8711088,-1.1056126356124878,-1.6814748249449671,-2.5277753512011927,2.2818400102802734,-1.0193703810321253,0.6562783718109131
1708437259.8731217,-1.105544090270996,-1.681469579736227,-2.527787510548727,2.2817792135426025,-1.0193451086627405,0.6571360230445862
1708437259.875179,-1.1054631471633911,-1.6815539799132289,-2.527803961430685,2.2817177015491943,-1.019343678151266,0.6580897569656372
1708437259.8771336,-1.105434775352478,-1.6815411053099574,-2.527787510548727,2.2817231851765136,-1.0193689505206507,0.6589694619178772
1708437259.879106,-1.1054069995880127,-1.6816231213011683,-2.5277708212481897,2.281642361278198,-1.0193985144244593,0.6599010825157166
1708437259.8811,-1.1053519248962402,-1.6816336117186488,-2.527828041707174,2.2816647726246337,-1.0193975607501429,0.6607532501220703
1708437259.8831074,-1.1053276062011719,-1.6816417179503382,-2.5278354326831263,2.2816120821186523,-1.019393269215719,0.6616662740707397
1708437259.8851094,-1.105171799659729,-1.6817056141295375,-2.527807060872213,2.2815674978443603,-1.019421402608053,0.6626455187797546
1708437259.887092,-1.105224370956421,-1.6817208729186,-2.5278354326831263,2.28147475301709,-1.019470516835348,0.6635806560516357
1708437259.8891187,-1.1050969362258911,-1.6817285023131312,-2.5278504530536097,2.2815162378498535,-1.0194781462298792,0.6644938588142395
1708437259.8911428,-1.105079174041748,-1.6817480526366175,-2.5279181639300745,2.281411572093628,-1.0195143858539026,0.6653773188591003
1708437259.8930902,-1.104998230934143,-1.681840559045309,-2.5278623739825647,2.2813750940510253,-1.0194976965533655,0.6663625240325928
1708437259.8951032,-1.1049588918685913,-1.6818658314146937,-2.527886454259054,2.281315727824829,-1.0195053259478968,0.6672663688659668
1708437259.8971128,-1.1049153804779053,-1.6818810902037562,-2.527907435094015,2.2813002306171875,-1.0195696989642542,0.6682029962539673
1708437259.899077,-1.1048762798309326,-1.6818801365294398,-2.527910296116964,2.2811834055134277,-1.0195944944964808,0.669150710105896
1708437259.9011068,-1.1047430038452148,-1.6819812260069789,-2.527931276951925,2.281167193050049,-1.0196049849139612,0.6701042652130127
1708437259.9031148,-1.1046007871627808,-1.6820141277708949,-2.527898375188009,2.281083269710205,-1.0196264425860804,0.6710582971572876
1708437259.90509,-1.1045331954956055,-1.682049413720602,-2.5279386679278772,2.2810489374348144,-1.0196054617511194,0.6719891428947449
1708437259.9070709,-1.1044749021530151,-1.682051797906393,-2.5279629866229456,2.280984564418457,-1.019632641469137,0.6729224324226379
1708437259.9090798,-1.1043740510940552,-1.6820923290648402,-2.5279884974109095,2.28089086591687,-1.019660774861471,0.6738365292549133
1708437259.9111223,-1.1042617559432983,-1.6821681461729945,-2.527998749409811,2.2807537752338867,-1.0197013060199183,0.6747686266899109
1708437259.9131155,-1.104149580001831,-1.6822120151915492,-2.52797776857485,2.280756636256836,-1.0196965376483362,0.6757084727287292
1708437259.9151247,-1.1040083169937134,-1.6823016605772914,-2.528027359639303,2.280655546779297,-1.0197256247149866,0.6765740513801575
1708437259.9171038,-1.1039706468582153,-1.6823002300658167,-2.528055969868795,2.2806169229694824,-1.0197446982013147,0.6775147318840027
1708437259.9191241,-1.1038223505020142,-1.6823927364745082,-2.5280423800097864,2.2805167871662597,-1.019785229359762,0.678399384021759
1708437259.9211223,-1.1037191152572632,-1.6824733219542445,-2.5280469099627894,2.280449076289795,-1.0197761694537562,0.6793745160102844
1708437259.9231412,-1.1035943031311035,-1.6825291119017542,-2.5280919710742396,2.2802955347248535,-1.0198167006122034,0.6802223324775696
1708437259.9250793,-1.1033810377120972,-1.6825834713377894,-2.52810246149172,2.2801458078571777,-1.0198701063739222,0.6812124252319336
1708437259.9271028,-1.1032235622406006,-1.6826354465880335,-2.528151814137594,2.2800862032124023,-1.0198805967914026,0.6820765137672424
1708437259.92911,-1.1030563116073608,-1.682711740533346,-2.5282045046435755,2.280008001918457,-1.0199134985553187,0.6830052137374878
1708437259.931094,-1.1029118299484253,-1.6827951870360316,-2.5281835238086146,2.2798263269611816,-1.0198705832110804,0.6838359832763672
1708437259.9331112,-1.1027694940567017,-1.6829248867430628,-2.528210226689474,2.279723806972168,-1.0198949019061487,0.6847899556159973
1708437259.935094,-1.1025879383087158,-1.6829668484129847,-2.528231207524435,2.279599590892456,-1.0199440161334437,0.685691237449646
1708437259.9371078,-1.1024001836776733,-1.6830798588194789,-2.5282629171954554,2.279480143184326,-1.0199769178973597,0.6865290403366089
1708437259.9391112,-1.1022131443023682,-1.6832004986205042,-2.5283153692828577,2.2793354231068115,-1.0200055281268519,0.6874169111251831
1708437259.9410918,-1.1020125150680542,-1.6832262478270472,-2.528280798588888,2.2792233663746337,-1.0199840704547327,0.6882199645042419
1708437259.943131,-1.1018742322921753,-1.6833058796324671,-2.528339449559347,2.2790674406239013,-1.020045582448141,0.6890729069709778
1708437259.9451056,-1.1016212701797485,-1.683439394036764,-2.528379742299215,2.2789227205463867,-1.0200322310077112,0.6898457407951355
1708437259.947118,-1.1014118194580078,-1.6835838756956996,-2.5284443537341517,2.2788168626972656,-1.0200770537005823,0.6906792521476746
1708437259.9490833,-1.101135492324829,-1.6837035618224085,-2.528492275868551,2.278578682536743,-1.0200727621661585,0.6914096474647522
1708437259.951096,-1.1009231805801392,-1.6838118038573207,-2.5285163561450403,2.2784525591083984,-1.0201247374164026,0.6922369003295898
1708437259.9531467,-1.1006659269332886,-1.683939119378561,-2.5285311380969446,2.2781874376484375,-1.02016526857485,0.6930460333824158
1708437259.9550815,-1.1003388166427612,-1.6840011082091273,-2.528580967579977,2.2779945570179443,-1.0201757589923304,0.6937963366508484
1708437259.9571023,-1.1001214981079102,-1.6842314205565394,-2.5286195913897913,2.277759237880371,-1.0202329794513147,0.6946585178375244
1708437259.9591098,-1.0996778011322021,-1.6844245396056117,-2.5286648909198206,2.277522249812744,-1.020275894795553,0.6953993439674377
1708437259.9610908,-1.0993413925170898,-1.684484144250387,-2.528651301060812,2.277331991786621,-1.0203197638141077,0.6961560249328613
1708437259.9631197,-1.0990222692489624,-1.68469299892568,-2.5287397543536585,2.2769943910786132,-1.020428482686178,0.6968591213226318
1708437259.9651132,-1.0986460447311401,-1.6847950420775355,-2.528759304677145,2.2767717081257324,-1.0204766432391565,0.6977074146270752
1708437259.9671283,-1.0982526540756226,-1.6850453815855921,-2.528828207646505,2.276516838664673,-1.020491902028219,0.6985064148902893
1708437259.9690988,-1.0979185104370117,-1.6852489910521449,-2.5288475195514124,2.2762157159992675,-1.0205186049090784,0.6991677284240723
1708437259.9710891,-1.0974854230880737,-1.6853920421996058,-2.528921190892355,2.2759155470081787,-1.0206401983844202,0.6999383568763733
1708437259.9731145,-1.0970942974090576,-1.6856075725951136,-2.5289602915393274,2.275610848064087,-1.0206549803363245,0.7006473541259766
1708437259.9751089,-1.0966531038284302,-1.6857954464354457,-2.5290008226977747,2.2753121095844726,-1.020686451588766,0.7012986540794373
1708437259.9771574,-1.0962499380111694,-1.6859990559019984,-2.529032293950216,2.275033159846924,-1.0207389036761683,0.7020286321640015
1708437259.9791076,-1.0957938432693481,-1.6862265072264613,-2.5290923754321497,2.27463881551709,-1.0208523909198206,0.7027544975280762
1708437259.9810991,-1.0952928066253662,-1.686442037621969,-2.529128138219015,2.2743417459675292,-1.020900074635641,0.7034173011779785
1708437259.9832032,-1.0947484970092773,-1.6866651974120082,-2.529224220906393,2.2738937574573974,-1.0210121313678187,0.7040256261825562
1708437259.985082,-1.0942070484161377,-1.6869613132872523,-2.5292466322528284,2.273507757777832,-1.0210798422442835,0.7046464681625366
1708437259.9871764,-1.0936585664749146,-1.6872788868346156,-2.529320303593771,2.273148222560547,-1.021107021962301,0.7053268551826477
1708437259.9891393,-1.0931154489517212,-1.6874596081175746,-2.5294087568866175,2.272798462505005,-1.0212276617633265,0.7058971524238586
1708437259.9911513,-1.0925195217132568,-1.6877600155272425,-2.5294716993915003,2.2723404604145507,-1.0212138334857386,0.7065441608428955
1708437259.99317,-1.091955304145813,-1.688030859033102,-2.5295663515674036,2.2719074922749023,-1.0213421026812952,0.7071149945259094
1708437259.9950814,-1.0914015769958496,-1.68835510830068,-2.5296035448657435,2.2715281683155517,-1.0214017073260706,0.7076694369316101
1708437259.997129,-1.090707540512085,-1.6886822185912074,-2.529722277318136,2.2710811334797363,-1.0214651266681116,0.7082924246788025
1708437259.999088,-1.0899723768234253,-1.6889568767943324,-2.5297308603869837,2.2706333833881835,-1.0215991179095667,0.7088642716407776
1708437260.0010903,-1.0893919467926025,-1.6892892322936,-2.5298691431628626,2.2700881200977783,-1.0216344038592737,0.7094545364379883
1708437260.003162,-1.0886454582214355,-1.6896068058409632,-2.5299201647387903,2.269610806102417,-1.0217540899859827,0.7100399732589722
1708437260.00508,-1.0879093408584595,-1.689967771569723,-2.5300009886371058,2.2690505224415283,-1.021895710621969,0.7105823159217834
1708437260.0071127,-1.0872079133987427,-1.6902862987914027,-2.5300970713244837,2.268486900920532,-1.021921459828512,0.7111149430274963
1708437260.0090969,-1.086445927619934,-1.6906982860960902,-2.5301838556872767,2.2679800230213623,-1.021980110798971,0.7116241455078125
1708437260.0110927,-1.085686206817627,-1.691066404382223,-2.5302796999560755,2.2674245077320556,-1.02209979692568,0.7121950387954712
1708437260.013128,-1.0848733186721802,-1.6914125881590785,-2.53040582338442,2.2668444353291015,-1.0222623983966272,0.7126409411430359
1708437260.0151162,-1.0840750932693481,-1.6918236217894496,-2.5305092970477503,2.2662314611622314,-1.0223405996905726,0.7131346464157104
1708437260.0171206,-1.0832998752593994,-1.692174573937887,-2.5306084791766565,2.2657179075428466,-1.0224812666522425,0.7136204242706299
1708437260.0191145,-1.0823497772216797,-1.692622800866598,-2.5306668917285364,2.2650632101246337,-1.0225570837603968,0.7140542268753052
1708437260.021079,-1.081565499305725,-1.6930209598936976,-2.5308213869677942,2.264472170467041,-1.0226653257953089,0.7145439386367798
1708437260.023124,-1.0806195735931396,-1.6934815845885218,-2.5309293905841272,2.2638613420673828,-1.0227044264422815,0.7150148749351501
1708437260.0251267,-1.0797415971755981,-1.6939202747740687,-2.530999724064962,2.263214274043701,-1.0228408018695276,0.7154162526130676
1708437260.027122,-1.078735113143921,-1.6943394146361292,-2.5311241785632532,2.262533350581787,-1.0229852835284632,0.7158945798873901
1708437260.0290928,-1.0778006315231323,-1.694761415521139,-2.531254593526022,2.261819763774536,-1.023071591054098,0.7163116335868835
1708437260.0311003,-1.0768581628799438,-1.6952902279295863,-2.5313835779773157,2.2611495691486816,-1.0232656637774866,0.7167506814002991
1708437260.0330994,-1.075870394706726,-1.6956917248167933,-2.531541172658102,2.2604493337818603,-1.023371998463766,0.7171570062637329
1708437260.0350926,-1.074844479560852,-1.6961542568602503,-2.53163987794985,2.2597624498554687,-1.0235007444964808,0.7175441980361938
1708437260.0371454,-1.0737627744674683,-1.6966940365233363,-2.531804863606588,2.2589494425007324,-1.0236113707171839,0.7179057002067566
1708437260.039115,-1.0727320909500122,-1.6970912418761195,-2.5318949858294886,2.2582098680683593,-1.0237181822406214,0.718256950378418
1708437260.0411115,-1.0717344284057617,-1.6976472340025843,-2.5320525805102747,2.2573796945759277,-1.0239389578448694,0.7186259627342224
1708437260.0431843,-1.0706329345703125,-1.698230882684225,-2.532184425984518,2.256671352977417,-1.0240386168109339,0.7189666032791138
1708437260.04508,-1.0694383382797241,-1.6987000904478968,-2.5323193709002894,2.2558585840412597,-1.0242202917682093,0.7192950248718262
1708437260.0471275,-1.0683866739273071,-1.6992560825743617,-2.5325055758105677,2.2550346094318847,-1.0243023077594202,0.7195686101913452
1708437260.049084,-1.067218542098999,-1.699843545953268,-2.532623831425802,2.2541908460804443,-1.0245078245746058,0.719883918762207
1708437260.0511072,-1.0659840106964111,-1.7004300556578578,-2.5328429380999964,2.253384514445923,-1.024564568196432,0.7201809287071228
1708437260.053161,-1.0648083686828613,-1.7010089359679164,-2.5329178015338343,2.2524780470081787,-1.0246933142291468,0.7204981446266174
1708437260.0551057,-1.0635720491409302,-1.7015420399107875,-2.5330453554736536,2.2515811163135986,-1.024853531514303,0.7208044528961182
1708437260.057136,-1.062393069267273,-1.7021252117552699,-2.5331996122943323,2.2507502275654296,-1.0250299612628382,0.721066951751709
1708437260.059096,-1.0611411333084106,-1.7027517757811488,-2.5333572069751185,2.2498678404041748,-1.0251787344561976,0.7213869690895081
1708437260.0611057,-1.0598658323287964,-1.7033802471556605,-2.533532683049337,2.2489163118549804,-1.0253461042987269,0.7216126918792725
1708437260.0631046,-1.0586249828338623,-1.703989645043844,-2.533645216618673,2.247952623958252,-1.025461498891012,0.7218559980392456
1708437260.0651288,-1.0572954416275024,-1.704604288140768,-2.53381592432131,2.247054024333618,-1.0255988279925745,0.7220908999443054
1708437260.067333,-1.0559971332550049,-1.7052256069579066,-2.533985439931051,2.2460571962543945,-1.025820557271139,0.7222877740859985
