Eg3-git/Classifiers/Data Collection/u5/u5cir2_ur3e_joint_states.csv
time,elbow_joint,shoulder_lift_joint,shoulder_pan_joint,wrist_1_joint,wrist_2_joint,wrist_3_joint
1708437229.9670458,-1.1212058067321777,-1.6734048328795375,-2.5233636538134974,2.2963248926350097,-1.0112279097186487,0.47612330317497253
1708437229.9690454,-1.1212058067321777,-1.673417707482809,-2.5233727137195032,2.2963248926350097,-1.0112603346454065,0.4760856628417969
1708437229.971022,-1.1212588548660278,-1.6734019718565882,-2.523400847111837,2.2963413435169677,-1.0112646261798304,0.47603678703308105
1708437229.9730585,-1.1212058067321777,-1.6734301052489222,-2.5233545939074915,2.2963098722645263,-1.0112689177142542,0.47605136036872864
1708437229.9750378,-1.1211646795272827,-1.6734048328795375,-2.523377243672506,2.2963098722645263,-1.0111907164203089,0.4760723114013672
1708437229.9770815,-1.1211981773376465,-1.6734286747374476,-2.5233801046954554,2.296400709743164,-1.0112760702716272,0.4760603904724121
1708437229.9790688,-1.1211775541305542,-1.67346253017568,-2.5233517328845423,2.296323462123535,-1.0112646261798304,0.4760890305042267
1708437229.9810224,-1.1211451292037964,-1.6734453640379847,-2.5233472029315394,2.296302481288574,-1.0113046805011194,0.47611135244369507
1708437229.983069,-1.1211451292037964,-1.6734172306456507,-2.5233965555774134,2.296285553569458,-1.0112603346454065,0.47606220841407776
1708437229.985048,-1.1211624145507812,-1.6733890972533167,-2.5233965555774134,2.296273632640503,-1.0112322012530726,0.47603675723075867
1708437229.9870698,-1.121064305305481,-1.6734820804991664,-2.5233801046954554,2.2962989050098876,-1.011284653340475,0.47605592012405396
1708437229.9890823,-1.1210861206054688,-1.6734768352904261,-2.52340537706484,2.2962497907825927,-1.0112603346454065,0.47604432702064514
1708437229.9910293,-1.121121883392334,-1.6734734974303187,-2.5233727137195032,2.2962543207355957,-1.011284653340475,0.47606927156448364
1708437229.993072,-1.1210731267929077,-1.6734487018980921,-2.5234084765063685,2.2962259489246826,-1.0112927595721644,0.47602787613868713
1708437229.9949877,-1.1210498809814453,-1.6734563312926234,-2.5233681837665003,2.296165867442749,-1.0112560431109827,0.4760890305042267
1708437229.9970102,-1.1210747957229614,-1.6734897098936976,-2.5233681837665003,2.296203060741089,-1.0113208929644983,0.47605592012405396
1708437229.999027,-1.1209979057312012,-1.6735054455199183,-2.5233636538134974,2.2961272436329345,-1.0112798849688929,0.4760398864746094
1708437230.001021,-1.1210508346557617,-1.6735297642149867,-2.5234130064593714,2.2960969644733886,-1.0113123098956507,0.47604867815971375
1708437230.0031164,-1.12099027633667,-1.6735292873778285,-2.5234039465533655,2.2960938650318603,-1.0112431685077112,0.47601884603500366
1708437230.005001,-1.1209988594055176,-1.6735583744444789,-2.5233755747424524,2.296034498805664,-1.0112960974322718,0.476039856672287
1708437230.0070407,-1.1209540367126465,-1.6735488377013148,-2.5234084765063685,2.2959980207630615,-1.0113123098956507,0.4760603606700897
1708437230.0090265,-1.120922565460205,-1.6735693416991175,-2.523411575947897,2.2959889608570556,-1.0113080183612269,0.47604429721832275
1708437230.0110013,-1.120950698852539,-1.6735979519286097,-2.5233591238604944,2.2959415155598144,-1.0113537947284144,0.4760603606700897
1708437230.013021,-1.120894432067871,-1.673572679559225,-2.5233965555774134,2.2959186273762207,-1.0112927595721644,0.47602343559265137
1708437230.0149941,-1.120858073234558,-1.673600812951559,-2.5233755747424524,2.295897884959839,-1.0113404432879847,0.4760398268699646
1708437230.0170317,-1.1208786964416504,-1.6736208401122035,-2.5233874956714075,2.2958575922199707,-1.0112789312945765,0.4760811924934387
1708437230.0190601,-1.1208548545837402,-1.6736046276488246,-2.5234130064593714,2.295868082637451,-1.0113404432879847,0.4760603904724121
1708437230.0210125,-1.1207773685455322,-1.6736370525755824,-2.523432795201437,2.2958103853413085,-1.0113514105426233,0.4760902523994446
1708437230.023008,-1.120732307434082,-1.6737100086607875,-2.5233948866473597,2.2957522112080078,-1.011348072682516,0.4760856628417969
1708437230.025012,-1.1208035945892334,-1.6737014255919398,-2.5233801046954554,2.295771761531494,-1.011331860219137,0.4760531485080719
1708437230.0269985,-1.1207798719406128,-1.6736928425230921,-2.5234084765063685,2.2957591253468017,-1.0113394896136683,0.4760532081127167
1708437230.029059,-1.1207261085510254,-1.67374910930776,-2.5234130064593714,2.295717640514038,-1.0113886038409632,0.47608116269111633
1708437230.0310102,-1.1206529140472412,-1.6738225422301234,-2.5233829657184046,2.2957278925129394,-1.0114081541644495,0.4760144054889679
1708437230.033024,-1.1206454038619995,-1.673793455163473,-2.523411575947897,2.2956787782856445,-1.0113995710956019,0.47606775164604187
1708437230.0350192,-1.1206097602844238,-1.673748632470602,-2.5233829657184046,2.295626087779663,-1.011432949696676,0.47608447074890137
1708437230.037031,-1.1205894947052002,-1.6738444767394007,-2.523444716130392,2.295618696803711,-1.0113876501666468,0.4760890603065491
1708437230.0390117,-1.1205257177352905,-1.6738158665099085,-2.523411575947897,2.295618696803711,-1.0114200750934046,0.47610992193222046
1708437230.0410054,-1.1204969882965088,-1.673807760278219,-2.523468557988302,2.295569582576416,-1.0113909880267542,0.4760963022708893
1708437230.0430615,-1.1204862594604492,-1.6739136181273402,-2.523407045994894,2.2955166536518554,-1.011423412953512,0.4760647714138031
1708437230.0449994,-1.120462417602539,-1.6739002666869105,-2.523480478917257,2.2955214220234375,-1.011407200490133,0.4761054217815399
1708437230.0470493,-1.120450496673584,-1.6739326916136683,-2.523447577153341,2.295518322581909,-1.011439625416891,0.47609642148017883
1708437230.0490108,-1.1203947067260742,-1.6739560566344203,-2.523468557988302,2.2954329687305908,-1.011500660573141,0.4760935306549072
1708437230.050984,-1.1203340291976929,-1.6740409336485804,-2.523501459752218,2.2954746919819335,-1.011524502431051,0.47608447074890137
1708437230.0530276,-1.12034273147583,-1.6740571461119593,-2.5234714190112513,2.2954105573841552,-1.0114715735064905,0.47608450055122375
1708437230.0550065,-1.120335578918457,-1.6740976772704066,-2.523440186177389,2.295374317760132,-1.0115235487567347,0.4761386513710022
1708437230.0570223,-1.120266318321228,-1.674056192437643,-2.5234878698932093,2.2953147131153564,-1.0115321318255823,0.47609925270080566
1708437230.0590413,-1.1202144622802734,-1.6741482220091761,-2.5235090891467493,2.295262261027954,-1.0115883986102503,0.47611281275749207
1708437230.0610015,-1.120158076286316,-1.6741367779173792,-2.5235212484942835,2.2952353197285156,-1.0115235487567347,0.47610828280448914
1708437230.0630188,-1.120121955871582,-1.6741725407042445,-2.5235794226275843,2.295207901591919,-1.0115798155414026,0.4761127531528473
1708437230.0649962,-1.1200616359710693,-1.6742340526976527,-2.5234954992877405,2.2951840597340087,-1.0116074720965784,0.476148784160614
1708437230.0670147,-1.1200346946716309,-1.674220701257223,-2.523536030446188,2.2951032358356933,-1.0115669409381312,0.47622644901275635
1708437230.0690374,-1.1199584007263184,-1.6742445431151332,-2.5235000292407435,2.2950052457996826,-1.0116270224200647,0.4762099087238312
1708437230.071001,-1.1198945045471191,-1.67425598720693,-2.5236037413226526,2.2949279981800537,-1.0116437117206019,0.4761219024658203
1708437230.0730264,-1.1198137998580933,-1.6743160686888636,-2.523572031651632,2.2949394422718505,-1.0117085615741175,0.476208359003067
1708437230.0749912,-1.119794249534607,-1.6743418178954066,-2.523522440587179,2.2948590952106933,-1.011683766041891,0.47624894976615906
1708437230.0770047,-1.1197142601013184,-1.6743608913817347,-2.523513380681173,2.294818325633667,-1.0117414633380335,0.47623246908187866
1708437230.0790617,-1.1196690797805786,-1.674358984033102,-2.523572031651632,2.2947661119648437,-1.0117314497577112,0.4762534499168396
1708437230.0809927,-1.1195765733718872,-1.6744090519347132,-2.5235796610461634,2.294752283687256,-1.0117152372943323,0.47626855969429016
1708437230.082994,-1.1194926500320435,-1.6744152508177699,-2.5236199537860315,2.294642849559448,-1.0117033163653772,0.4762551188468933
1708437230.0850098,-1.119523048400879,-1.6744939289488734,-2.5236454645739954,2.294607086772583,-1.0117347876178187,0.47626399993896484
1708437230.0870304,-1.1193654537200928,-1.6745416126646937,-2.5236318747149866,2.2945262628742675,-1.0117228666888636,0.476299524307251
1708437230.0890105,-1.1193214654922485,-1.6744872532286585,-2.523665253316061,2.294396086330078,-1.0118210951434534,0.4762670397758484
1708437230.0910163,-1.1192902326583862,-1.6744948826231898,-2.5236530939685267,2.2943612772175292,-1.011775318776266,0.476344496011734
1708437230.0930114,-1.1192307472229004,-1.6744820080199183,-2.523710076008932,2.2943360048481445,-1.011787239705221,0.4763191342353821
1708437230.0950463,-1.1191381216049194,-1.67460360149526,-2.523675505314962,2.294261856670044,-1.0118358770953577,0.47635674476623535
1708437230.0969923,-1.1190948486328125,-1.6746517620482386,-2.52366811433901,2.2941898542591552,-1.0118110815631312,0.4763640761375427
1708437230.0990381,-1.1189897060394287,-1.6746961079039515,-2.523680035267965,2.294076367015503,-1.0118349234210413,0.47636866569519043
1708437230.100996,-1.1188725233078003,-1.674699445764059,-2.523717466984884,2.294059916133545,-1.0118635336505335,0.4763788878917694
1708437230.102998,-1.1188712120056152,-1.674755712548727,-2.523712937031881,2.2939039903828125,-1.011890713368551,0.4763879179954529
1708437230.1049953,-1.1187409162521362,-1.6747924290099085,-2.5237610975848597,2.2938994604298095,-1.0119393507586878,0.47644907236099243
1708437230.1070344,-1.118701696395874,-1.6748072109618128,-2.5237775484668177,2.293774052257202,-1.0119712988482874,0.4764265716075897
1708437230.1090155,-1.1186140775680542,-1.6748138866820277,-2.523735586796896,2.2936691480823974,-1.0120247046100062,0.4764687418937683
1708437230.1109953,-1.1186070442199707,-1.6748787365355433,-2.523780409489767,2.2936715322681884,-1.0120189825641077,0.4764343202114105
1708437230.1129906,-1.1185111999511719,-1.674894472161764,-2.523788038884298,2.2935666280933837,-1.0121081511126917,0.4764343202114105
1708437230.1149945,-1.1184022426605225,-1.675004621545309,-2.523788038884298,2.293445034618042,-1.0121071974383753,0.47651219367980957
1708437230.1169894,-1.1183065176010132,-1.6750065288939417,-2.5238166491137903,2.29342429220166,-1.0120537916766565,0.47647327184677124
1708437230.119017,-1.1182013750076294,-1.6750842533507289,-2.5238450209247034,2.2932936388203125,-1.0121429602252405,0.4765597879886627
1708437230.1209972,-1.1181012392044067,-1.6750861606993617,-2.5238688627826136,2.2932519155689697,-1.0121257940875452,0.4765523076057434
1708437230.1229935,-1.118074655532837,-1.6751629314818324,-2.523905102406637,2.2931546407886962,-1.0121787230121058,0.47659292817115784
1708437230.124989,-1.1179745197296143,-1.6752144298949183,-2.5238810221301478,2.2931033807941894,-1.0121954123126429,0.47654175758361816
1708437230.1269946,-1.1178988218307495,-1.675234933892721,-2.523884121571676,2.2930149275013427,-1.0121782461749476,0.4765748977661133
1708437230.129054,-1.1178148984909058,-1.6752406559386195,-2.52393347421755,2.292861147517822,-1.0122345129596155,0.47658681869506836
1708437230.1310139,-1.117701768875122,-1.6752931080260218,-2.5238869825946253,2.2928351598927,-1.0122583548175257,0.4766032099723816
1708437230.1330209,-1.1176015138626099,-1.6753584347166957,-2.5239318052874964,2.292738838786743,-1.012270752583639,0.47658681869506836
1708437230.1349995,-1.1175057888031006,-1.6754137478270472,-2.5239439646350306,2.2926015096851806,-1.0123065153705042,0.4766364097595215
1708437230.1369898,-1.1174099445343018,-1.6754986248412074,-2.5239513556109827,2.292534037227295,-1.0122979323016565,0.476609468460083
1708437230.1390195,-1.1173927783966064,-1.675509592095846,-2.524054829274313,2.2924842077442626,-1.0123661200152796,0.4766060411930084
1708437230.140995,-1.1172337532043457,-1.675561090508932,-2.523999277745382,2.292379541988037,-1.0124228636371058,0.476684033870697
1708437230.143041,-1.1172080039978027,-1.6756130657591761,-2.5240023771869105,2.2922672468372802,-1.0124824682818812,0.476656973361969
1708437230.1449878,-1.1170992851257324,-1.675673624078268,-2.5240774790393274,2.2921876150318603,-1.0125396887408655,0.4767155647277832
1708437230.1469834,-1.1169991493225098,-1.6757132015623988,-2.524130169545309,2.2920965391346435,-1.012522045766012,0.4767184257507324
1708437230.148995,-1.1168787479400635,-1.6757575474181117,-2.524149481450216,2.291982336635254,-1.0125787893878382,0.4767438769340515
1708437230.1509974,-1.1167573928833008,-1.6758133373656214,-2.5240910688983362,2.291902943248413,-1.012601677571432,0.4767885208129883
1708437230.1529963,-1.1166822910308838,-1.675873418847555,-2.524174753819601,2.291827602977417,-1.0126612822162073,0.47671395540237427
1708437230.154995,-1.116597294807434,-1.6758886776366175,-2.5241358915912073,2.291720076198242,-1.0127266089068812,0.47671395540237427
1708437230.1570344,-1.116506814956665,-1.6760059795775355,-2.5241268316852015,2.2916673856922607,-1.0127375761615198,0.47671976685523987
1708437230.1590092,-1.1164262294769287,-1.676016469995016,-2.5242260138141077,2.2915684419819335,-1.0128386656390589,0.47679442167282104
1708437230.1609995,-1.1163358688354492,-1.6760808430113734,-2.524174753819601,2.2914816576191406,-1.0128377119647425,0.4767899513244629
1708437230.163087,-1.1162145137786865,-1.6760803661742152,-2.524174753819601,2.29136507093396,-1.0128453413592737,0.4767616391181946
1708437230.1650038,-1.1161218881607056,-1.6761647663512171,-2.524231735860006,2.291255398387573,-1.0128768126117151,0.4768635630607605
1708437230.1670172,-1.1159977912902832,-1.676192422906393,-2.5242648760425013,2.291184826488159,-1.012942139302389,0.47686806321144104
1708437230.168988,-1.1159356832504272,-1.6762238941588343,-2.5242348353015345,2.2910753923603515,-1.0129087607013147,0.4768664240837097
1708437230.1709921,-1.115828037261963,-1.6762877903380335,-2.5243082682238978,2.2909723955341796,-1.012977425252096,0.47687363624572754
1708437230.1730483,-1.1157598495483398,-1.6763116321959437,-2.524383608494894,2.290900393123291,-1.013017479573385,0.4768601059913635
1708437230.1750147,-1.1156189441680908,-1.6764294109740199,-2.524311129246847,2.290771647090576,-1.013017479573385,0.4768809974193573
1708437230.1770573,-1.115510106086731,-1.6764241657652796,-2.5243728796588343,2.29071752607312,-1.0130327383624476,0.47691410779953003
1708437230.1790576,-1.1154186725616455,-1.6764308414854945,-2.5243728796588343,2.2905489641376953,-1.0131219069110315,0.4769051671028137
1708437230.1810098,-1.1153184175491333,-1.6765362224974574,-2.5243638197528284,2.2904984193989257,-1.0130928198443812,0.47692155838012695
1708437230.1830342,-1.1152589321136475,-1.6765719852843226,-2.5243921915637415,2.2903708654591064,-1.0131447950946253,0.4769919812679291
1708437230.185069,-1.1151187419891357,-1.676587244073385,-2.524419371281759,2.290336771602295,-1.0131972471820276,0.47695308923721313
1708437230.187075,-1.1150509119033813,-1.6766463718810023,-2.524489704762594,2.290278120631836,-1.0132406393634241,0.4769977927207947
1708437230.1890388,-1.1149183511734009,-1.676723142663473,-2.5244386831866663,2.290165825481079,-1.013268772755758,0.4769858717918396
1708437230.1910064,-1.114850640296936,-1.6767798862852992,-2.5244885126696985,2.2900699812122802,-1.0133212248431605,0.4769858717918396
1708437230.1930702,-1.1147955656051636,-1.676769872704977,-2.5244959036456507,2.289982958430908,-1.0133407751666468,0.4769650101661682
1708437230.1950104,-1.1146509647369385,-1.6768866978087367,-2.5245452562915247,2.2898523050495605,-1.0133965651141565,0.4770383834838867
1708437230.1970384,-1.114559531211853,-1.6769610844054164,-2.524519745503561,2.289742632503174,-1.013411823903219,0.47703060507774353
1708437230.199023,-1.1144592761993408,-1.6769916019835414,-2.5246053377734583,2.2897261816212158,-1.0134432951556605,0.477053165435791
1708437230.2010093,-1.1143797636032104,-1.676985879937643,-2.5245559851275843,2.2895614343830566,-1.0134838263141077,0.47704124450683594
1708437230.2031212,-1.1142746210098267,-1.6770054302611292,-2.5245588461505335,2.2894629675098876,-1.013531510029928,0.47703391313552856
1708437230.205024,-1.1142038106918335,-1.6770903072752894,-2.5245991388904017,2.2893995481678466,-1.0135968367206019,0.47703519463539124
1708437230.2071152,-1.1140867471694946,-1.67710604290151,-2.524623219166891,2.289266510600708,-1.0135958830462855,0.4770818054676056
1708437230.2090359,-1.113986611366272,-1.677211423913473,-2.524623219166891,2.2892166811176757,-1.0136478582965296,0.4771052598953247
1708437230.2110014,-1.1139488220214844,-1.6772386036314906,-2.524656359349386,2.289100094432495,-1.0137327353106897,0.47705599665641785
1708437230.2130222,-1.1138811111450195,-1.6772657833495082,-2.5246546904193323,2.289057655925415,-1.0136950651751917,0.47718358039855957
1708437230.2149992,-1.1137522459030151,-1.6773539982237757,-2.5246711413012903,2.28901116430249,-1.0137189070331019,0.47710853815078735
1708437230.21702,-1.1136802434921265,-1.6773973904051722,-2.5246427694903772,2.2888523775288085,-1.0137880484210413,0.47709953784942627
1708437230.219028,-1.1135715246200562,-1.6774183712401332,-2.5247042814837855,2.288806124324463,-1.0138123671161097,0.4771622121334076
1708437230.2210083,-1.1135005950927734,-1.6774450741209925,-2.5247448126422327,2.2886923986622314,-1.0138266722308558,0.4771277904510498
1708437230.2230327,-1.1134122610092163,-1.67750944713735,-2.5247777144061487,2.2886010843464355,-1.0138018766986292,0.477202832698822
1708437230.2250025,-1.1133114099502563,-1.6775289974608363,-2.5247884432422083,2.2885915476032714,-1.0139167944537562,0.47724300622940063
1708437230.2270403,-1.1132526397705078,-1.6776467762389125,-2.5247672239886683,2.288449450130127,-1.0139320532428187,0.4772269129753113
1708437230.2290401,-1.11312735080719,-1.677662035027975,-2.5247913042651575,2.2883609968372802,-1.01396352449526,0.47719210386276245
1708437230.231024,-1.113036036491394,-1.6776925526061,-2.5248122851001185,2.2882601457783203,-1.0140321890460413,0.47720885276794434
1708437230.2330327,-1.1129639148712158,-1.6777292690672816,-2.5248242060290735,2.288243456477783,-1.014003101979391,0.4772413372993469
1708437230.2350347,-1.1129038333892822,-1.6777731380858363,-2.5248902479754847,2.2881433206745605,-1.0140717665301722,0.4772070050239563
1708437230.2370527,-1.1128278970718384,-1.6778127155699671,-2.5248435179339808,2.2880865770527343,-1.0140789190875452,0.47726112604141235
1708437230.239031,-1.1126866340637207,-1.6778646908202113,-2.524879757558004,2.287966175670288,-1.0141118208514612,0.47722795605659485
1708437230.2410064,-1.1127139329910278,-1.6778961620726527,-2.5249202887164515,2.2878948885151367,-1.0141637961017054,0.477248877286911
1708437230.2430642,-1.112563133239746,-1.6778918705382289,-2.5249202887164515,2.2878095346638183,-1.0141800085650843,0.4772939085960388
1708437230.2450519,-1.1124874353408813,-1.67796053508901,-2.5249653498279017,2.287776156062744,-1.0141380468951624,0.4773271083831787
1708437230.2470171,-1.1124035120010376,-1.6780768833556117,-2.524939839039938,2.2877210813709716,-1.0141866842852991,0.4772684872150421
1708437230.2490487,-1.112307071685791,-1.6781169376769007,-2.524968210850851,2.287689133281372,-1.0142791906939905,0.47730445861816406
1708437230.2509954,-1.1123182773590088,-1.6781560383238734,-2.524926249180929,2.287531777019165,-1.0142830053912562,0.4773627817630768
1708437230.253028,-1.1121230125427246,-1.6782218418517054,-2.524996582661764,2.287433071727417,-1.0143306891070765,0.4772971272468567
1708437230.254996,-1.1121124029159546,-1.678260942498678,-2.524968210850851,2.28738181173291,-1.014301602040426,0.47735369205474854
1708437230.2570703,-1.1120402812957764,-1.678354402581686,-2.524987522755758,2.2873477178760986,-1.0144036451922815,0.4773118793964386
1708437230.25902,-1.1119519472122192,-1.6783563099303187,-2.5250209013568323,2.287238045329712,-1.0144394079791468,0.4773238003253937
1708437230.260991,-1.1119499206542969,-1.6783763370909632,-2.5250356833087366,2.287236376399658,-1.014447037373678,0.4773402214050293
1708437230.2630126,-1.1118147373199463,-1.6784564457335414,-2.5250521341906946,2.2871598440357666,-1.01447040239443,0.4773596227169037
1708437230.26501,-1.111772894859314,-1.6784807644286097,-2.5250192324267786,2.2870492178150634,-1.0144942442523401,0.4773804545402527
1708437230.2670074,-1.1116966009140015,-1.6785112820067347,-2.5250731150256556,2.2870074945637207,-1.0145257155047815,0.4773029088973999
1708437230.269012,-1.1116362810134888,-1.6785437069334925,-2.5250640551196497,2.286975546474121,-1.0145586172686976,0.47736406326293945
1708437230.270992,-1.111572504043579,-1.678558965722555,-2.5250731150256556,2.2868410783955078,-1.0146063009845179,0.4773881733417511
1708437230.273013,-1.1114916801452637,-1.6786037884154261,-2.525062624608175,2.286822720164917,-1.0146139303790491,0.47733864188194275
1708437230.2750053,-1.1114522218704224,-1.6786796055235804,-2.525092665349142,2.2866970735737304,-1.014674488698141,0.47734156250953674
1708437230.2770123,-1.111438274383545,-1.6787072620787562,-2.525104824696676,2.2865969377705078,-1.0146616140948694,0.4773881435394287
1708437230.2790554,-1.111283302307129,-1.6786538563170375,-2.5251122156726282,2.28662817060437,-1.0146735350238245,0.47738364338874817
1708437230.2810318,-1.111313819885254,-1.6787463627257289,-2.5251031557666224,2.2865263658710937,-1.0147107283221644,0.4774496257305145
1708437230.2830257,-1.1112375259399414,-1.6787377796568812,-2.5251482168780726,2.286508007640503,-1.0147421995746058,0.47739556431770325
1708437230.2850578,-1.1111655235290527,-1.6788345775999964,-2.5251224676715296,2.2865122991749267,-1.014733616505758,0.477445125579834
1708437230.2870195,-1.1111254692077637,-1.6789075336852015,-2.5251134077655237,2.286437435741089,-1.014798943196432,0.47744062542915344
1708437230.289025,-1.1110122203826904,-1.678877969781393,-2.5251601378070276,2.286343498820923,-1.014794651662008,0.4774360656738281
1708437230.2910042,-1.1110138893127441,-1.6789566479124964,-2.5251179377185267,2.28630439817395,-1.0148184935199183,0.4774058759212494
1708437230.2930167,-1.1109168529510498,-1.678939004937643,-2.525151077901022,2.28628055631604,-1.014785114918844,0.4774673581123352
1708437230.295009,-1.1108649969100952,-1.6789380512633265,-2.525175158177511,2.28614251195874,-1.0148056189166468,0.4774809181690216
1708437230.2970502,-1.110784888267517,-1.6789990864195765,-2.525170628224508,2.2861365514942626,-1.014829460774557,0.4774792790412903
1708437230.29905,-1.1107442378997803,-1.67897429088735,-2.525219980870382,2.286121054286621,-1.014886204396383,0.4774583876132965
1708437230.3009872,-1.1107301712036133,-1.6790057621397914,-2.525199000035421,2.2860793310352783,-1.0148490110980433,0.47747179865837097
1708437230.3030407,-1.1106657981872559,-1.6790629825987757,-2.5252488295184534,2.2860817152210693,-1.0149100462542933,0.4775046408176422
1708437230.3050184,-1.1105811595916748,-1.679025789300436,-2.5252185503589075,2.285935326213501,-1.0149577299701136,0.47748374938964844
1708437230.307053,-1.1105211973190308,-1.679061075250143,-2.5252307097064417,2.2859160143085937,-1.0149615446673792,0.47750017046928406
1708437230.3090472,-1.1104685068130493,-1.6791311703123988,-2.5252681414233606,2.285888596171997,-1.015010182057516,0.4774627983570099
1708437230.310999,-1.1104459762573242,-1.6791664562621058,-2.5252800623523157,2.285820170039795,-1.0150049368487757,0.4774882197380066
1708437230.3130019,-1.110385775566101,-1.6791311703123988,-2.525308672581808,2.2857600885578613,-1.0150006453143519,0.47746726870536804
1708437230.315013,-1.110325813293457,-1.679211278954977,-2.525295082722799,2.285749598140381,-1.015052620564596,0.4774940311908722
1708437230.3170056,-1.1103051900863647,-1.679206987420553,-2.525311533604757,2.2857059675404052,-1.0150864760028284,0.4774748384952545
1708437230.319026,-1.110233187675476,-1.679213663140768,-2.5253611246692103,2.285649462337158,-1.0150850454913538,0.47754520177841187
1708437230.3210056,-1.1101980209350586,-1.6792589626707972,-2.5253401438342493,2.2855982023426513,-1.0150931517230433,0.4774820804595947
1708437230.322993,-1.1101341247558594,-1.6792956791319789,-2.5253852049456995,2.285536451930664,-1.0150802771197718,0.4775317311286926
1708437230.3249993,-1.110121488571167,-1.6792289219298304,-2.5253925959216517,2.2855381208607177,-1.0150931517230433,0.4775243103504181
1708437230.3269923,-1.110098958015442,-1.6792613468565882,-2.5253761450396937,2.2854947286793212,-1.0151460806476038,0.4775271713733673
1708437230.3290708,-1.110016942024231,-1.679342886010641,-2.52539569536318,2.285400553340576,-1.0151246229754847,0.4775480628013611
1708437230.3310385,-1.1099739074707031,-1.6792694530882777,-2.525407616292135,2.2854184347340087,-1.015132252370016,0.4775644838809967
1708437230.3330147,-1.1099168062210083,-1.679305215875143,-2.525391165410177,2.285360737437866,-1.0151899496661585,0.47757190465927124
1708437230.3350163,-1.1098942756652832,-1.6793624363341273,-2.525407616292135,2.2853144842335205,-1.0152018705951136,0.47754356265068054
1708437230.3370094,-1.1098456382751465,-1.679446359673971,-2.525412146245138,2.285241051311157,-1.0151484648333948,0.4775182902812958
1708437230.3390296,-1.1098097562789917,-1.6793977222838343,-2.5254388491259974,2.285189076060913,-1.015177075062887,0.47759735584259033
1708437230.3410103,-1.1097697019577026,-1.6793729267516078,-2.5254841486560267,2.2851409155079345,-1.0152376333819788,0.4775480628013611
1708437230.3430076,-1.1097702980041504,-1.6794129810728968,-2.5254932085620325,2.2850708204456787,-1.0151804129229944,0.47756001353263855
1708437230.3450098,-1.109696388244629,-1.6794940433897914,-2.525475088750021,2.2850851255604248,-1.015233341847555,0.47755104303359985
1708437230.3470035,-1.109710693359375,-1.679509779016012,-2.5254676977740687,2.285007877940796,-1.0152528921710413,0.4775838255882263
1708437230.3490422,-1.1096214056015015,-1.6794892750182093,-2.5254960695849817,2.2850746351429443,-1.0152323881732386,0.4775584936141968
1708437230.3510056,-1.1095643043518066,-1.6795865497984828,-2.525494400654928,2.284993811244629,-1.0152648130999964,0.47760921716690063
1708437230.3530374,-1.1095374822616577,-1.679512163201803,-2.525473419819967,2.2849654394337158,-1.0152934233294886,0.4776211380958557
1708437230.3550422,-1.1095298528671265,-1.6795412502684535,-2.525498930607931,2.2849535185047607,-1.015308682118551,0.4775674343109131
1708437230.3570457,-1.1094985008239746,-1.6795650921263636,-2.525578562413351,2.2849008279987792,-1.015336815510885,0.47757038474082947
1708437230.3590336,-1.1095027923583984,-1.67954744915151,-2.52555758157839,2.28487412511792,-1.0153444449054163,0.4775868058204651
1708437230.3609848,-1.1094253063201904,-1.679657598535055,-2.525553051625387,2.284829540843628,-1.0153887907611292,0.47764232754707336
1708437230.3630006,-1.109426498413086,-1.6796499691405238,-2.525548521672384,2.2848428922840576,-1.0154131094561976,0.477537602186203
1708437230.3650267,-1.109370231628418,-1.6796490154662074,-2.5255606810199183,2.284790201778076,-1.0153959433185022,0.4776002764701843
1708437230.366987,-1.109330177307129,-1.6796900234618128,-2.5255754629718226,2.284741087550781,-1.0154650847064417,0.47762441635131836
1708437230.3690453,-1.1093056201934814,-1.67962708095693,-2.5255680719958704,2.2847634988972167,-1.0154684225665491,0.4775838553905487
1708437230.3710036,-1.1092331409454346,-1.6796685657896937,-2.5255680719958704,2.2846898275562744,-1.0154722372638147,0.47756290435791016
1708437230.3730493,-1.1092431545257568,-1.679709096948141,-2.5255964438067835,2.284686966533325,-1.0154808203326624,0.4775630235671997
1708437230.3750768,-1.1091699600219727,-1.6797048054137171,-2.5256205240832728,2.284654064769409,-1.0155165831195276,0.4775928854942322
1708437230.377052,-1.1091742515563965,-1.6797005138792933,-2.525557343159811,2.2846566873737792,-1.0154722372638147,0.4776288866996765
1708437230.3790982,-1.10910964012146,-1.67974915126943,-2.525623623524801,2.2845935064503173,-1.0155447165118616,0.47754213213920593
1708437230.3810415,-1.1091065406799316,-1.6797167263426722,-2.525564734135763,2.284571333522461,-1.0155566374408167,0.4776032269001007
1708437230.3830519,-1.1090859174728394,-1.67981018642568,-2.525569264088766,2.284528895015381,-1.0155404249774378,0.47757038474082947
1708437230.3850253,-1.1090588569641113,-1.6798092327513636,-2.525611464177267,2.2845141130634765,-1.015548054371969,0.4776122272014618
1708437230.3870842,-1.1090106964111328,-1.6797973118224085,-2.5256474653827112,2.284499092692993,-1.0155437628375452,0.47754940390586853
1708437230.3890646,-1.1089856624603271,-1.679822107354635,-2.525597874318258,2.284487410182617,-1.015597168599264,0.4776153564453125
1708437230.3910263,-1.1089460849761963,-1.6798449955382289,-2.5256474653827112,2.284392996425293,-1.015597168599264,0.47759580612182617
1708437230.3930438,-1.108901858329773,-1.6798373661436976,-2.5256639162646692,2.2843047815510253,-1.0155919233905237,0.47758224606513977
1708437230.3950348,-1.1089074611663818,-1.6798731289305628,-2.5256758371936243,2.2843283849903564,-1.0155757109271448,0.4776317775249481
1708437230.3970344,-1.1088786125183105,-1.6798731289305628,-2.5257001558886927,2.284325523967407,-1.0156124273883265,0.4775868058204651
1708437230.3990724,-1.1088204383850098,-1.6798645458617152,-2.525670115147726,2.2842883306690673,-1.0156038443194788,0.4776032269001007
1708437230.4010146,-1.108818531036377,-1.6798840961852015,-2.5257166067706507,2.2842652040668945,-1.0156319777118128,0.477661669254303
1708437230.4030318,-1.1087572574615479,-1.6798926792540492,-2.525735918675558,2.284283085460327,-1.0156362692462366,0.47754207253456116
1708437230.4050279,-1.1087979078292847,-1.67993225673818,-2.5257194677936,2.284271164531372,-1.015667740498678,0.4776199460029602
1708437230.4070475,-1.1087260246276855,-1.6799165211119593,-2.525682036076681,2.284231110210083,-1.015683952962057,0.47764524817466736
1708437230.4090333,-1.1087301969528198,-1.6799408398070277,-2.52576452890505,2.2841738897510986,-1.015655819569723,0.47760188579559326
1708437230.4110434,-1.108710765838623,-1.6799451313414515,-2.525722328816549,2.284175320262573,-1.0157125631915491,0.477598637342453
1708437230.413078,-1.1086376905441284,-1.6799398861327113,-2.52576452890505,2.2841426569172363,-1.0156920591937464,0.4776182770729065
1708437230.415047,-1.1086300611495972,-1.6799894771971644,-2.52574330965151,2.284118815059326,-1.0157364050494593,0.4776063859462738
1708437230.417056,-1.108556866645813,-1.680004735986227,-2.5257628599749964,2.284089966411255,-1.0157073179828089,0.47761085629463196
1708437230.419073,-1.1085906028747559,-1.67999329189443,-2.5257538000689905,2.2840542036243896,-1.015719238911764,0.4776526987552643
1708437230.4210217,-1.1085535287857056,-1.680004735986227,-2.5257886091815394,2.2840141493031005,-1.0157559553729456,0.47763919830322266
1708437230.4230504,-1.1085137128829956,-1.680032869378561,-2.5258289019214075,2.284069223994873,-1.0158003012286585,0.47757488489151
1708437230.4250462,-1.1085147857666016,-1.6800819836058558,-2.5257914702044886,2.283954067821167,-1.0158456007586878,0.4776288866996765
1708437230.427049,-1.1084297895431519,-1.6800648174681605,-2.5258033911334437,2.283954067821167,-1.0157550016986292,0.4776199162006378
1708437230.4290617,-1.1084754467010498,-1.680023809472555,-2.525806252156393,2.2839554983326416,-1.015787426625387,0.4776436686515808
1708437230.4310172,-1.1084308624267578,-1.6800323925414027,-2.525810782109396,2.2839056688496093,-1.015864674245016,0.4776199162006378
1708437230.4330294,-1.1084527969360352,-1.6800767383971156,-2.5258410612689417,2.283886595363281,-1.0158517996417444,0.47755685448646545
1708437230.4350271,-1.1084027290344238,-1.6800714931883753,-2.5258365313159388,2.2838784891315917,-1.0158312956439417,0.4776153564453125
1708437230.437104,-1.1082926988601685,-1.6800924740233363,-2.525851551686422,2.2838710981556396,-1.0158713499652308,0.47761088609695435
1708437230.439044,-1.108289361000061,-1.6801706753172816,-2.5258589426623743,2.2838050562092285,-1.0158966223346155,0.4776436984539032
1708437230.4410198,-1.10829496383667,-1.6800996265807093,-2.525839630757467,2.283787174815796,-1.0159204641925257,0.47761088609695435
1708437230.4430087,-1.1082711219787598,-1.6800862751402796,-2.525900904332296,2.2837914663502197,-1.015911881123678,0.4776811897754669
1708437230.4450302,-1.1082592010498047,-1.6801725826659144,-2.5258963743792933,2.283749981517456,-1.0159648100482386,0.4775822162628174
1708437230.4470317,-1.1081905364990234,-1.680103441277975,-2.525851551686422,2.2837468820759277,-1.0159314314471644,0.47762444615364075
1708437230.44907,-1.1082110404968262,-1.6801725826659144,-2.5258827845202845,2.2837559419819335,-1.0159357229815882,0.4776228070259094
1708437230.450998,-1.1081302165985107,-1.6801921329894007,-2.5258453528033655,2.2836734491535644,-1.0159714857684534,0.47764819860458374
1708437230.4530241,-1.108147144317627,-1.680155416528219,-2.5258963743792933,2.2836615282246093,-1.0159509817706507,0.47762271761894226
1708437230.4550507,-1.1081095933914185,-1.68023743251943,-2.5258379618274134,2.283679409618042,-1.0159629026996058,0.47763174772262573
1708437230.4570913,-1.1081064939498901,-1.6801749668517054,-2.5258544127093714,2.2836646276661376,-1.0159948507892054,0.4776408076286316
1708437230.4590447,-1.1080870628356934,-1.6802078686156214,-2.5258992354022425,2.2835985857197265,-1.0159829298602503,0.47764524817466736
1708437230.461011,-1.1080431938171387,-1.6802035770811976,-2.5258827845202845,2.283628149623535,-1.0160768667804163,0.47764813899993896
1708437230.4630632,-1.1080150604248047,-1.680272718469137,-2.5259206930743616,2.2835041719624023,-1.0160358587848108,0.4775641858577728
1708437230.4650118,-1.1079988479614258,-1.6802760563292445,-2.5258827845202845,2.2835354047962646,-1.0160186926471155,0.47762441635131836
1708437230.4670262,-1.1079750061035156,-1.6802555523314417,-2.5259326140033167,2.283533735866211,-1.0160024801837366,0.4776347279548645
1708437230.4690528,-1.1078931093215942,-1.6802588901915492,-2.525944534932272,2.28344909727063,-1.016059700642721,0.47752419114112854
1708437230.471013,-1.1079355478286743,-1.6803490124144496,-2.5258901754962366,2.2834667402454834,-1.016071621571676,0.4776347279548645
1708437230.4730465,-1.1079105138778687,-1.6802736721434535,-2.5258856455432337,2.2834667402454834,-1.0160425345050257,0.4776153862476349
1708437230.4750445,-1.1079192161560059,-1.6803599796690882,-2.525951925908224,2.283480330104492,-1.0160840193377894,0.47763174772262573
1708437230.4769995,-1.1078705787658691,-1.6803394756712855,-2.52596098581423,2.283435030574463,-1.0161035696612757,0.4776407480239868
1708437230.4790516,-1.1078510284423828,-1.6803761921324671,-2.525930945073263,2.2834276395985107,-1.0161078611956995,0.4776153564453125
1708437230.4810812,-1.1077947616577148,-1.680326601068014,-2.5259936491595667,2.2833749490925292,-1.016106907521383,0.4776780903339386
1708437230.4830384,-1.1078228950500488,-1.6803838215269984,-2.525947395955221,2.2833213049122314,-1.0161154905902308,0.47759413719177246
1708437230.4850214,-1.1077572107315063,-1.6804200611510218,-2.525975767766134,2.283421679134033,-1.0160906950580042,0.47759413719177246
1708437230.4870515,-1.1077990531921387,-1.6804286442198695,-2.525971237813131,2.283318443889282,-1.0161274115191858,0.47759413719177246
1708437230.4890285,-1.107725977897644,-1.6805178127684535,-2.5259833971606653,2.283247871989868,-1.0161426703082483,0.4776645600795746
1708437230.4910352,-1.1077064275741577,-1.6804315052428187,-2.526013437901632,2.2832700449177246,-1.0161469618426722,0.4776153862476349
1708437230.4930406,-1.1076945066452026,-1.6805001697936,-2.5260210672961634,2.2832371431538085,-1.0161555449115198,0.4776436984539032
1708437230.4950442,-1.107728362083435,-1.6805039844908656,-2.5259998480426233,2.2831973272510986,-1.0161426703082483,0.47764813899993896
1708437230.4970734,-1.1076908111572266,-1.6804872951903285,-2.5259907881366175,2.2832225996204834,-1.0161469618426722,0.47757038474082947
1708437230.499067,-1.107662558555603,-1.680474420587057,-2.5259862581836146,2.283214970225952,-1.0161874930011194,0.4776063859462738
1708437230.5010085,-1.107634425163269,-1.6805483303465785,-2.5260313192950647,2.2831906515308837,-1.0161989370929163,0.47766005992889404
1708437230.5030377,-1.107611894607544,-1.6805311642088832,-2.5259953180896204,2.2831787306019287,-1.0161545912372034,0.4776183068752289
1708437230.505008,-1.1076148748397827,-1.6805592976012171,-2.5260239283191126,2.2831877905079345,-1.0161860624896448,0.47763919830322266
1708437230.5070333,-1.1075668334960938,-1.680551668206686,-2.5259953180896204,2.2831341463276367,-1.0162070433246058,0.47767674922943115
1708437230.5090258,-1.1075624227523804,-1.6806327305235804,-2.5259862581836146,2.2831520277210693,-1.0162275473224085,0.4776272773742676
1708437230.5109885,-1.1075636148452759,-1.6805592976012171,-2.5260239283191126,2.283102436656616,-1.0161774794207972,0.47764816880226135
1708437230.5129943,-1.1075559854507446,-1.680659910241598,-2.5260358492480677,2.2830661970325927,-1.0162351767169397,0.4776272773742676
1708437230.5150096,-1.1075022220611572,-1.6805507145323695,-2.526005808507101,2.28302447378125,-1.01625901857485,0.47762277722358704
1708437230.5169973,-1.1074739694595337,-1.6806313000121058,-2.5260358492480677,2.2830943304249267,-1.0162671248065394,0.47764819860458374
1708437230.5190177,-1.1074795722961426,-1.6805793247618617,-2.526048008595602,2.2830511766621093,-1.0162995497332972,0.47766461968421936
1708437230.5210152,-1.1074633598327637,-1.6806231937804164,-2.526017729436056,2.2830139833637695,-1.016303841267721,0.4776555895805359
1708437230.523056,-1.1073938608169556,-1.6806103191771449,-2.526017729436056,2.283064766521118,-1.0162542502032679,0.4776887893676758
1708437230.5250115,-1.107414722442627,-1.6807128391661585,-2.526076618825094,2.282989426250122,-1.016278092061178,0.4776301085948944
1708437230.5270355,-1.1074070930480957,-1.6806231937804164,-2.526050869618551,2.282958431834839,-1.0163028875934046,0.4776645600795746
1708437230.5290198,-1.107374668121338,-1.680627008477682,-2.5259879271136683,2.283003016109131,-1.0163148085223597,0.47763922810554504
1708437230.531037,-1.1073594093322754,-1.6805983982481898,-2.52602988878359,2.282970352763794,-1.0163019339190882,0.4776228070259094
1708437230.5330348,-1.1073302030563354,-1.6807085476317347,-2.526072088872091,2.2829999166676025,-1.0163548628436487,0.47764813899993896
1708437230.5350306,-1.1073026657104492,-1.6806746921935023,-2.526026789342062,2.2829598623463134,-1.0163386503802698,0.47758522629737854
1708437230.5370214,-1.1073145866394043,-1.68068327526235,-2.526041809712545,2.282919092769287,-1.0163429419146937,0.4776301681995392
1708437230.5390515,-1.1073100566864014,-1.6806255779662074,-2.526050869618551,2.282881899470947,-1.016372028981344,0.477675199508667
1708437230.5410028,-1.1072864532470703,-1.68070711712026,-2.5260794798480433,2.28288642942395,-1.0163214842425745,0.47765111923217773
1708437230.5430074,-1.107266902923584,-1.680695196191305,-2.5260494391070765,2.2828878599354248,-1.01636249223818,0.47768691182136536
1708437230.5450244,-1.1072300672531128,-1.6807476482787074,-2.5260959307300013,2.2828430372425537,-1.0163386503802698,0.47762414813041687
1708437230.54704,-1.1072473526000977,-1.680735250512594,-2.5261123816119593,2.2828215795704345,-1.016346279774801,0.4776707887649536
1708437230.5490587,-1.1072473526000977,-1.6807433567442835,-2.5261362234698694,2.2827934461781005,-1.0163582007037562,0.47767969965934753
1708437230.551022,-1.1072055101394653,-1.6807595692076625,-2.5260584990130823,2.2828067976185302,-1.0163992086993616,0.477712482213974
1708437230.5530229,-1.1072767972946167,-1.6807152233519496,-2.526100460683004,2.282799406642578,-1.016350571309225,0.4777154326438904
1708437230.5550303,-1.1072198152542114,-1.6807180843748988,-2.5261243025409144,2.2827517229267578,-1.0163582007037562,0.477670818567276
1708437230.557041,-1.10715913772583,-1.6807919941344203,-2.5261123816119593,2.282721443767212,-1.0163658300982874,0.47772735357284546
1708437230.5590177,-1.1071292161941528,-1.6807552776732386,-2.5260914007769983,2.2827138143726806,-1.0163582007037562,0.4776856005191803
1708437230.5610292,-1.107163429260254,-1.6807671986021937,-2.5260823408709925,2.2827517229267578,-1.0163829962359827,0.4777424931526184
1708437230.5630167,-1.1071271896362305,-1.6807919941344203,-2.5260823408709925,2.2827650743671875,-1.0164201895343226,0.47779330611228943
1708437230.5650208,-1.1071510314941406,-1.6807905636229457,-2.5261197725879114,2.2826456266590576,-1.016411606465475,0.47779327630996704
1708437230.567024,-1.1071139574050903,-1.6808272800841273,-2.5261650721179407,2.282672329539917,-1.016390625630514,0.4777768850326538
1708437230.5690494,-1.1071434020996094,-1.680814882318014,-2.5260987917529505,2.282663269633911,-1.0164278189288538,0.4777708053588867
1708437230.5710237,-1.1070784330368042,-1.6808272800841273,-2.5260987917529505,2.282646341914795,-1.0163820425616663,0.4778275191783905
1708437230.5730252,-1.1071239709854126,-1.6808229885497035,-2.5260823408709925,2.2826434808918457,-1.01636249223818,0.47784385085105896
1708437230.5750484,-1.1071326732635498,-1.6808387241759242,-2.5261197725879114,2.2826434808918457,-1.0163701216327112,0.4778589904308319
1708437230.5770252,-1.107072114944458,-1.6808587513365687,-2.5261061827289026,2.2826523023792724,-1.0163777510272425,0.4778725504875183
1708437230.579028,-1.1070594787597656,-1.6808258495726527,-2.526160542164938,2.2826031881519775,-1.016374413167135,0.4778335988521576
1708437230.5810742,-1.1070313453674316,-1.6808544598021449,-2.5261812845813196,2.282649202937744,-1.0163777510272425,0.4778980314731598
1708437230.5830877,-1.1069902181625366,-1.6807862720885218,-2.5261316935168665,2.28262106954541,-1.0163334051715296,0.4779472351074219
1708437230.5850642,-1.1069869995117188,-1.6809116802611292,-2.5261486212359827,2.2826031881519775,-1.0163701216327112,0.47797247767448425
1708437230.5870566,-1.1070194244384766,-1.6808663807311,-2.5261226336108606,2.2825631338306884,-1.016407314931051,0.47794103622436523
1708437230.58905,-1.1069998741149902,-1.6808535061278285,-2.5261181036578577,2.282576485271118,-1.0163987318622034,0.4779922068119049
1708437230.5910401,-1.1070237159729004,-1.6809030971922816,-2.5261316935168665,2.2825521665760498,-1.0164192358600062,0.47801893949508667
1708437230.5930305,-1.1069674491882324,-1.6808744869627894,-2.52614409128298,2.2825655180164794,-1.016364876423971,0.4780968725681305
1708437230.5950801,-1.1069673299789429,-1.6809436283507289,-2.5261226336108606,2.282547636623047,-1.0163944403277796,0.47803816199302673
1708437230.5969944,-1.1069267988204956,-1.68089022258901,-2.5261316935168665,2.282486601466797,-1.0163615385638636,0.4781193137168884
1708437230.598998,-1.106947422027588,-1.6809383831419886,-2.526156012211935,2.2824954229542236,-1.0163901487933558,0.47812965512275696
1708437230.601008,-1.1069762706756592,-1.6809631786742152,-2.5261858145343226,2.2824999529072265,-1.0164268652545374,0.47815796732902527
1708437230.6030476,-1.1068787574768066,-1.681011816064352,-2.526156012211935,2.282480164165161,-1.0164182821856897,0.47817283868789673
1708437230.6050766,-1.1069111824035645,-1.6809426746764125,-2.5261226336108606,2.2824339109608154,-1.016385857258932,0.47820594906806946
1708437230.6070304,-1.1069368124008179,-1.680974622766012,-2.5261061827289026,2.282526655788086,-1.0164063612567347,0.478217750787735
1708437230.6090581,-1.1068423986434937,-1.680995603600973,-2.526160542164938,2.2824219900318603,-1.0164020697223108,0.47821179032325745
1708437230.6110127,-1.1069154739379883,-1.6809255085387171,-2.5261061827289026,2.282414599055908,-1.0164549986468714,0.4783060550689697
1708437230.6130283,-1.1068830490112305,-1.6809617481627406,-2.526151482258932,2.2824324804493408,-1.0164473692523401,0.47836288809776306
1708437230.6150138,-1.1068542003631592,-1.6809574566283167,-2.526156012211935,2.2824265199848632,-1.0164669195758265,0.47838515043258667
1708437230.6169991,-1.1068792343139648,-1.680953165093893,-2.526146952305929,2.2823826509663085,-1.0164626280414026,0.4784209430217743
1708437230.6190186,-1.106874942779541,-1.6810227833189906,-2.5261181036578577,2.282353563899658,-1.0164626280414026,0.4784614145755768
1708437230.6210008,-1.1068099737167358,-1.680981775323385,-2.5261181036578577,2.2823826509663085,-1.0164182821856897,0.4785168468952179
1708437230.623011,-1.1067861318588257,-1.6810108623900355,-2.5261531511889856,2.282367392177246,-1.016425911580221,0.4785405993461609
1708437230.625013,-1.1068196296691895,-1.6810022793211878,-2.5261271635638636,2.282322569484375,-1.0165084044085901,0.4785480797290802
1708437230.6270466,-1.1067583560943604,-1.6810022793211878,-2.526156012211935,2.2823373514362792,-1.0164020697223108,0.47863325476646423
1708437230.629038,-1.1068110466003418,-1.680981775323385,-2.5261226336108606,2.282322807902954,-1.016437832509176,0.47864845395088196
1708437230.6310396,-1.1067702770233154,-1.6809946499266566,-2.52616793314089,2.282315178508423,-1.0164464155780237,0.4787452816963196
1708437230.633024,-1.1068122386932373,-1.681080003777975,-2.526163403187887,2.282310886973999,-1.0164464155780237,0.47879767417907715
1708437230.635032,-1.1067583560943604,-1.6809936962523402,-2.5261061827289026,2.2822834688374023,-1.0164507071124476,0.4787948727607727
1708437230.6371613,-1.1067314147949219,-1.681075235406393,-2.5261486212359827,2.2823032575794677,-1.0164507071124476,0.4788965880870819
1708437230.6390471,-1.1068133115768433,-1.6810304127135218,-2.526139561329977,2.2822508054920654,-1.0164507071124476,0.478956401348114
1708437230.6410058,-1.106727123260498,-1.6810013256468714,-2.52614409128298,2.2822834688374023,-1.0164020697223108,0.4790565073490143
1708437230.6430373,-1.1067357063293457,-1.681070943871969,-2.526146952305929,2.2823003965565185,-1.0164344946490687,0.4791237711906433
1708437230.645044,-1.106715202331543,-1.6810342274107875,-2.526172463093893,2.282198591823242,-1.0164182821856897,0.4791909456253052
1708437230.6470098,-1.1067075729370117,-1.6810342274107875,-2.526179854069845,2.2822269636341552,-1.0164182821856897,0.47927016019821167
1708437230.6490698,-1.1067075729370117,-1.6810585461058558,-2.526188675557272,2.282247706050537,-1.0164302031146448,0.47936582565307617
1708437230.6510394,-1.106703281402588,-1.681026121179098,-2.526158873234884,2.2822446066090087,-1.0164702574359339,0.47943487763404846
1708437230.6530423,-1.1066551208496094,-1.6810537777342738,-2.52616793314089,2.282211943263672,-1.016425911580221,0.4795333743095398
1708437230.655012,-1.1066744327545166,-1.6810499630370082,-2.526179615651266,2.2821995454975585,-1.0164669195758265,0.47964248061180115
1708437230.657018,-1.1066302061080933,-1.6810699901976527,-2.526135031376974,2.2821995454975585,-1.0164387861834925,0.4797380864620209
1708437230.6590269,-1.1066300868988037,-1.6810175381102503,-2.526188913975851,2.282200976009033,-1.0164507071124476,0.47986969351768494
1708437230.6609886,-1.1066268682479858,-1.6810862026610316,-2.526130501423971,2.2822164732166748,-1.0164626280414026,0.4799938499927521
1708437230.6630247,-1.1065987348556519,-1.6810904941954554,-2.526179854069845,2.2821711736866455,-1.0164507071124476,0.48012545704841614
1708437230.6649864,-1.1066681146621704,-1.681127210656637,-2.526170794163839,2.282156391734741,-1.0164831320392054,0.48021212220191956
1708437230.6670115,-1.106623649597168,-1.6811100445189417,-2.526203457509176,2.2821518617817382,-1.0164549986468714,0.4803929030895233
1708437230.6690466,-1.1066398620605469,-1.6811067066588343,-2.526151482258932,2.282139940852783,-1.0164831320392054,0.48054102063179016
1708437230.671,-1.1066279411315918,-1.6810938320555628,-2.526146952305929,2.2821518617817382,-1.0164507071124476,0.4806484282016754
1708437230.6730924,-1.1066162586212158,-1.681089540521139,-2.5261498133288782,2.282116098994873,-1.0164626280414026,0.48081615567207336
1708437230.675057,-1.1065993309020996,-1.6811634502806605,-2.526125971470968,2.282132549876831,-1.0164583365069788,0.4809729754924774
1708437230.6770704,-1.1066279411315918,-1.6811381779112757,-2.526158873234884,2.282116098994873,-1.016437832509176,0.4810938239097595
1708437230.6790233,-1.1065549850463867,-1.6811229191222132,-2.526113573704855,2.2820634084888916,-1.0164549986468714,0.48126599192619324
1708437230.68107,-1.1065548658370972,-1.681101461450094,-2.526163403187887,2.282116098994873,-1.0164583365069788,0.4814542233943939
1708437230.6830711,-1.106604814529419,-1.681101461450094,-2.526113573704855,2.282125158900879,-1.016454044972555,0.48164278268814087
1708437230.6850288,-1.1066123247146606,-1.681166788140768,-2.526146952305929,2.282099171275757,-1.0164583365069788,0.4818175137042999
1708437230.6870916,-1.1065635681152344,-1.6811210117735804,-2.526158873234884,2.282071037883423,-1.0164912382708948,0.4819597899913788
1708437230.689045,-1.1065678596496582,-1.681101461450094,-2.526135031376974,2.282071037883423,-1.0164745489703577,0.48215994238853455
1708437230.6910262,-1.1065397262573242,-1.6811253033080042,-2.526151482258932,2.2820634084888916,-1.016425911580221,0.4823604226112366
1708437230.6930265,-1.1065722703933716,-1.681150575677389,-2.526172463093893,2.2821170526691894,-1.0164583365069788,0.4825637936592102
1708437230.6950393,-1.106544017791748,-1.6811377010741175,-2.526130501423971,2.282081289882324,-1.0164411703692835,0.4827083945274353
1708437230.6970646,-1.106494665145874,-1.6812025509276332,-2.526135031376974,2.2820440965839843,-1.0164702574359339,0.48294198513031006
1708437230.6990156,-1.1065154075622559,-1.681223531762594,-2.526158873234884,2.2820605474659423,-1.0164583365069788,0.4831618666648865
1708437230.700981,-1.106519103050232,-1.6812025509276332,-2.5261181036578577,2.2820679384418945,-1.0164945761310022,0.4833216071128845
1708437230.7029932,-1.106512188911438,-1.681162496606344,-2.526200834904806,2.2820321756550292,-1.0164955298053187,0.4835999011993408
1708437230.7050073,-1.1064471006393433,-1.6811744175352992,-2.526146952305929,2.2820352750965576,-1.01650315919985,0.48381486535072327
1708437230.707028,-1.106506586074829,-1.6811658344664515,-2.526146952305929,2.2820276457020263,-1.0165117422686976,0.4840600788593292
1708437230.7090468,-1.1064677238464355,-1.6811744175352992,-2.526151482258932,2.281978054637573,-1.01650315919985,0.4842528700828552
1708437230.7109847,-1.1064621210098267,-1.6812025509276332,-2.526156012211935,2.281982346171997,-1.0164945761310022,0.48451322317123413
1708437230.7130349,-1.106438398361206,-1.6812178097166957,-2.526151482258932,2.282007856959961,-1.016437832509176,0.48474329710006714
1708437230.715026,-1.1064839363098145,-1.6812192402281703,-2.526184384022848,2.281987114543579,-1.01646596590151,0.4850155711174011
1708437230.717017,-1.1064634323120117,-1.6811496220030726,-2.526175324116842,2.281934900874756,-1.0165074507342737,0.4852713346481323
1708437230.7190356,-1.1064319610595703,-1.681206842462057,-2.52613336244692,2.2819809156605224,-1.0164583365069788,0.4855581521987915
1708437230.7210236,-1.1064600944519043,-1.6811777553954066,-2.526200834904806,2.2820047575184326,-1.0164912382708948,0.48583167791366577
1708437230.723045,-1.1064233779907227,-1.6812178097166957,-2.526179854069845,2.2819675642200927,-1.0164702574359339,0.48613685369491577
1708437230.7250037,-1.1064097881317139,-1.6812149486937464,-2.526146952305929,2.2820092874714355,-1.0164745489703577,0.4864659905433655
1708437230.7270331,-1.1064276695251465,-1.6811977825560511,-2.526212755833761,2.2819148737141113,-1.016486946736471,0.48673027753829956
1708437230.7290244,-1.1064233779907227,-1.6812149486937464,-2.526212517415182,2.281919403667114,-1.016454044972555,0.48700088262557983
1708437230.7310367,-1.1064453125,-1.681164880792135,-2.526163403187887,2.2819103437611084,-1.0164616743670862,0.4873298704624176
1708437230.7330334,-1.1064320802688599,-1.6812221012511195,-2.526170794163839,2.2819363313862304,-1.016454044972555,0.48762714862823486
1708437230.735024,-1.106381893157959,-1.6811982593932093,-2.526170794163839,2.281978054637573,-1.01650315919985,0.48798879981040955
1708437230.737029,-1.1063995361328125,-1.681181093255514,-2.526158873234884,2.2819060522266845,-1.0164616743670862,0.4883643388748169
1708437230.7390342,-1.106374740600586,-1.6811896763243617,-2.5261455217944544,2.281902952785156,-1.01646596590151,0.4886215627193451
1708437230.7410333,-1.1063995361328125,-1.681254049340719,-2.526212517415182,2.2819318014332275,-1.0164902845965784,0.4889310896396637
1708437230.7430336,-1.106321930885315,-1.6811896763243617,-2.526163403187887,2.2819363313862304,-1.0164740721331995,0.48929542303085327
1708437230.745016,-1.1063637733459473,-1.6811658344664515,-2.5261946360217493,2.281912012691162,-1.016498867665426,0.4896050989627838
1708437230.747067,-1.106335163116455,-1.6811853847899378,-2.5261991659747522,2.281876249904297,-1.0164826552020472,0.49000275135040283
1708437230.7490468,-1.1063475608825684,-1.6811977825560511,-2.5261409918414515,2.2819461065479736,-1.0164945761310022,0.49036741256713867
1708437230.7510169,-1.1063594818115234,-1.681225915948385,-2.526170794163839,2.281874819392822,-1.0165508429156702,0.49075639247894287
1708437230.7530332,-1.1062895059585571,-1.6811977825560511,-2.526203695927755,2.281892700786255,-1.0165184179889124,0.49112245440483093
1708437230.7550395,-1.1062906980514526,-1.6812049351134242,-2.5261991659747522,2.2819089132496337,-1.0164979139911097,0.491500586271286
1708437230.757027,-1.1062744855880737,-1.6811934910216273,-2.5261917749988,2.2819089132496337,-1.0165227095233362,0.4919159412384033
1708437230.7590425,-1.1062908172607422,-1.6812411747374476,-2.5261827150927942,2.281883640880249,-1.0165260473834437,0.49228954315185547
1708437230.760987,-1.1063156127929688,-1.6812659702696742,-2.5261991659747522,2.281888170833252,-1.0165475050555628,0.49268126487731934
1708437230.7630093,-1.1063567399978638,-1.6812831364073695,-2.5262325445758265,2.2818969923206787,-1.0165389219867151,0.49310657382011414
1708437230.7649875,-1.106324315071106,-1.681254049340719,-2.5262370745288294,2.2819177347370605,-1.0165584723102015,0.49347808957099915
1708437230.7669916,-1.1062549352645874,-1.6812907658019007,-2.5262113253222864,2.2818524080463867,-1.0165670553790491,0.4939013123512268
1708437230.7690506,-1.1062798500061035,-1.6812669239439906,-2.5262728373156946,2.2818867403217773,-1.016517464314596,0.49434828758239746
1708437230.7709882,-1.1062712669372559,-1.6812745533385218,-2.5262144247638147,2.2818779188343505,-1.0165661017047327,0.49476712942123413
1708437230.7730074,-1.1062874794006348,-1.681270261804098,-2.5262189547168177,2.2818309503742675,-1.0165661017047327,0.49519795179367065
1708437230.7750208,-1.1062917709350586,-1.6812330685057582,-2.5262113253222864,2.2818779188343505,-1.016590420399801,0.4956163465976715
1708437230.7770543,-1.106296181678772,-1.6812039814391078,-2.5262637774096888,2.2818309503742675,-1.016590420399801,0.49606361985206604
1708437230.7790706,-1.1062679290771484,-1.6813236675658167,-2.526254717503683,2.2818659979053955,-1.0166509787188929,0.4965437352657318
1708437230.7810283,-1.1062185764312744,-1.6812778911986292,-2.52622634569277,2.2818445402332763,-1.0166176001178187,0.496986985206604
1708437230.783138,-1.1062636375427246,-1.6812287769713343,-2.5262473265277308,2.2818614679523925,-1.0166338125811976,0.49747925996780396
1708437230.7850406,-1.1061817407608032,-1.6812745533385218,-2.526259247456686,2.2817579942890625,-1.0166381041156214,0.4979814887046814
1708437230.787061,-1.106202244758606,-1.6813136539854945,-2.526254717503683,2.2818659979053955,-1.0166381041156214,0.49839410185813904
1708437230.7890475,-1.1062517166137695,-1.6812945804991664,-2.526318136845724,2.28182498990979,-1.016646687184469,0.49886783957481384
1708437230.7910268,-1.106215476989746,-1.6812650165953578,-2.526358191167013,2.2817997175404052,-1.0166500250445765,0.49940285086631775
1708437230.7930052,-1.106202244758606,-1.6812530956664027,-2.52627140680422,2.281820698375366,-1.0166943709002894,0.49989187717437744
1708437230.7950246,-1.1061949729919434,-1.6812902889647425,-2.526283327733175,2.281845732326172,-1.016670052205221,0.5003541111946106
1708437230.7969935,-1.1062347888946533,-1.6813017330565394,-2.5263283888446253,2.281775875682495,-1.0166943709002894,0.5008023381233215
1708437230.7990294,-1.1062240600585938,-1.681338449517721,-2.5263028780566614,2.2817997175404052,-1.0166571776019495,0.5013420581817627
1708437230.8010204,-1.1061797142028809,-1.6813050709166468,-2.5262954870807093,2.28182498990979,-1.0166938940631312,0.5018816590309143
1708437230.8030217,-1.1062003374099731,-1.6813222370543421,-2.5263312498675745,2.281813068980835,-1.0167186895953577,0.5023614168167114
1708437230.8050141,-1.1061959266662598,-1.681312700311178,-2.5263312498675745,2.28180114805188,-1.0167143980609339,0.5029631853103638
1708437230.8070176,-1.106163501739502,-1.6813017330565394,-2.5263193289386194,2.281775875682495,-1.0167186895953577,0.5034523010253906
1708437230.8090184,-1.1061829328536987,-1.6812974415221156,-2.5263822714435022,2.2817835050770263,-1.0167177359210413,0.504036545753479
1708437230.8110175,-1.1062284708023071,-1.6813136539854945,-2.5263357798205774,2.2817715841480712,-1.0167134443866175,0.5045909881591797
1708437230.8130386,-1.1061723232269287,-1.681251665154928,-2.5263312498675745,2.281756563777588,-1.0167253653155726,0.5051170587539673
1708437230.8149936,-1.1061066389083862,-1.6813084087767542,-2.5263176600085657,2.281747742290161,-1.016766373311178,0.5056511163711548
1708437230.8169954,-1.1061553955078125,-1.6813379726805628,-2.526372019444601,2.281780405635498,-1.0167697111712855,0.5061610341072083
1708437230.8190188,-1.1061596870422363,-1.6813904247679652,-2.526372019444601,2.281759663219116,-1.0167740027057093,0.5067156553268433
1708437230.8210044,-1.1061639785766602,-1.6813212833800257,-2.526383940373556,2.2817486959644775,-1.0168307463275355,0.5072165727615356
1708437230.823019,-1.1060742139816284,-1.681340833703512,-2.526383940373556,2.281743212337158,-1.0167978445636194,0.5077841281890869
1708437230.8249912,-1.10611093044281,-1.6813422642149867,-2.526388470326559,2.2817937570759277,-1.0168221632586878,0.5083537697792053
1708437230.8269784,-1.106123924255371,-1.6813537083067835,-2.526367489491598,2.2817393976398925,-1.0168135801898401,0.5089133977890015
1708437230.8290217,-1.1060947179794312,-1.6813537083067835,-2.526407782231466,2.2817484575458984,-1.016857926045553,0.5094541907310486
1708437230.8310406,-1.1061164140701294,-1.6813494167723597,-2.526407782231466,2.2817656236835937,-1.0169027487384241,0.5100119113922119
1708437230.8329973,-1.1060752868652344,-1.6814075909056605,-2.5264228026019495,2.281756563777588,-1.0168817679034632,0.5106207728385925
1708437230.8350186,-1.1060751676559448,-1.681333681146139,-2.5264483133899134,2.2817529874989013,-1.0168855826007288,0.5111339092254639
1708437230.837016,-1.1060676574707031,-1.681389947930807,-2.5263822714435022,2.2816995817371826,-1.0168855826007288,0.5117600560188293
1708437230.839037,-1.1060550212860107,-1.6813942394652308,-2.526419703160421,2.2817529874989013,-1.016909424458639,0.5123583078384399
1708437230.8410118,-1.1060882806777954,-1.6813532314696253,-2.526419703160421,2.2816995817371826,-1.0169017950641077,0.5129351615905762
1708437230.843041,-1.1060926914215088,-1.6813575230040492,-2.5264273325549524,2.2817203241535644,-1.0169256369220179,0.5135467648506165
1708437230.845082,-1.1060476303100586,-1.681418081323141,-2.5264106432544153,2.2817157942005615,-1.0169742743121546,0.5141607522964478
1708437230.8470156,-1.1060314178466797,-1.681361814538473,-2.5264843145953577,2.281761808986328,-1.016965691243307,0.5147308111190796
1708437230.8490438,-1.1060314178466797,-1.6813532314696253,-2.5264468828784388,2.2817575174519042,-1.0169981161700647,0.5152673721313477
1708437230.8510177,-1.1060343980789185,-1.6813575230040492,-2.5264559427844446,2.2817231851765136,-1.0169528166400355,0.5158147215843201
1708437230.8530312,-1.1060400009155273,-1.6813494167723597,-2.526496235524313,2.2816757398792724,-1.0169366041766565,0.5163483023643494
1708437230.8549933,-1.1060205698013306,-1.6813847027220667,-2.52643329301943,2.281684561366699,-1.0169442335711878,0.5169719457626343
1708437230.8570158,-1.1060118675231934,-1.681418081323141,-2.526449743901388,2.2817084032246093,-1.0169890562640589,0.5176264047622681
1708437230.8590105,-1.1060444116592407,-1.6814223728575648,-2.526520315800802,2.2817084032246093,-1.0170214811908167,0.5182440280914307
1708437230.861028,-1.106024980545044,-1.6813975773253382,-2.526494805012838,2.2816800314136962,-1.0170019308673304,0.5187403559684753
1708437230.8630037,-1.105971097946167,-1.6813889942564906,-2.526515785847799,2.281721754665039,-1.017041031514303,0.5192700028419495
1708437230.8650115,-1.105958104133606,-1.681389947930807,-2.5265608469592493,2.281655712718628,-1.0170376936541956,0.5199668407440186
1708437230.8670037,-1.105959415435791,-1.6813489399352015,-2.5264902750598353,2.281646652812622,-1.017041031514303,0.5205638408660889
1708437230.8690102,-1.1059311628341675,-1.6814257107176722,-2.5265188852893274,2.281709833736084,-1.017057243977682,0.5211753845214844
1708437230.871002,-1.105972409248352,-1.681406160394186,-2.5265308062182825,2.281651182765625,-1.0170734564410608,0.5217228531837463
1708437230.8730037,-1.1059799194335938,-1.6813975773253382,-2.5265234152423304,2.2816781240650634,-1.0170858542071741,0.5223926305770874
1708437230.8750424,-1.1059311628341675,-1.6814266643919886,-2.5265517870532435,2.2816478449055175,-1.0171011129962366,0.5229982137680054
1708437230.8770168,-1.1059268712997437,-1.6813813648619593,-2.5265517870532435,2.281684561366699,-1.0171011129962366,0.5235978960990906
1708437230.8790274,-1.1059317588806152,-1.6814009151854457,-2.5264886061297815,2.2816738325306396,-1.0171087423907679,0.5241858959197998
1708437230.8810465,-1.105894923210144,-1.6814257107176722,-2.5265546480761927,2.281632824535034,-1.0171659628497522,0.5247722268104553
1708437230.8830397,-1.1059443950653076,-1.681380411187643,-2.5266013781176966,2.2816523748585205,-1.0171411673175257,0.5253642797470093
1708437230.8850253,-1.1059650182724,-1.6814290485777796,-2.5265801588641565,2.2816268640705566,-1.0171240011798304,0.5259778499603271
1708437230.8870232,-1.1059036254882812,-1.6814614735045375,-2.526611868535177,2.2816240030476074,-1.0171683470355433,0.5265020728111267
1708437230.8890388,-1.105879306793213,-1.6814571819701136,-2.5265801588641565,2.2816120821186523,-1.017205540333883,0.5270755290985107
1708437230.8909967,-1.1058704853057861,-1.6814657650389613,-2.526644770299093,2.281620903606079,-1.0172088781939905,0.5277056097984314
1708437230.8930097,-1.1058673858642578,-1.6814247570433558,-2.526583258305685,2.281571789378784,-1.0171850363360804,0.5283637046813965
1708437230.8950298,-1.1058837175369263,-1.6814657650389613,-2.526578728352682,2.281658096904419,-1.0172575155841272,0.5289168357849121
1708437230.8970475,-1.105851173400879,-1.6815139255919398,-2.526644770299093,2.281604452724121,-1.0172694365130823,0.5295273065567017
1708437230.899028,-1.105879306793213,-1.681465288201803,-2.5265982786761683,2.281600161189697,-1.0172565619098108,0.5301392674446106
1708437230.9010007,-1.1058359146118164,-1.6814609966673792,-2.526623789464132,2.281542940730713,-1.017297093068258,0.5306251049041748
1708437230.9030101,-1.1058239936828613,-1.6814443073668421,-2.52664024034609,2.2815684515186767,-1.0173175970660608,0.5312561988830566
1708437230.905017,-1.1058329343795776,-1.6815172634520472,-2.5265937487231653,2.281576319331787,-1.0172598997699183,0.5317539572715759
1708437230.907038,-1.10576593875885,-1.6815129719176234,-2.5266311804400843,2.281563921565674,-1.017297093068258,0.5322598218917847
1708437230.90902,-1.1057270765304565,-1.6815043888487757,-2.5266011396991175,2.281502886409424,-1.0172885099994105,0.5328550338745117
1708437230.9110193,-1.1058051586151123,-1.6814924679198207,-2.5266807715045374,2.281519337291382,-1.0173652807818812,0.5334265232086182
1708437230.9130125,-1.1057108640670776,-1.6815411053099574,-2.5266385714160364,2.2814666467854003,-1.0173895994769495,0.5340694785118103
1708437230.9150147,-1.1056625843048096,-1.6815453968443812,-2.5267213026629847,2.2815162378498535,-1.0174177328692835,0.5345616936683655
1708437230.9170163,-1.1056183576583862,-1.6815902195372523,-2.5266838709460657,2.2814969259449462,-1.0173643271075647,0.5351086258888245
1708437230.9190104,-1.1056562662124634,-1.6815034351744593,-2.526679340993063,2.281427784557007,-1.017388645802633,0.5356503129005432
1708437230.9209962,-1.1055904626846313,-1.681589265862936,-2.526719633732931,2.2814487653919677,-1.0173972288714808,0.5361979007720947
1708437230.9230063,-1.1055341958999634,-1.6816708050169886,-2.526707712803976,2.2813543516346435,-1.0174372831927698,0.5367436408996582
1708437230.9249918,-1.105531096458435,-1.6816698513426722,-2.52669865289797,2.281355782146118,-1.017404858266012,0.5372462272644043
1708437230.926994,-1.105482816696167,-1.6817294559874476,-2.526727263127462,2.2813679414936523,-1.0174287001239222,0.5377771854400635
1708437230.929024,-1.1055002212524414,-1.6817337475218714,-2.5267558733569544,2.281341000194214,-1.0174201170550745,0.5382737517356873
1708437230.9310176,-1.1054720878601074,-1.681742330590719,-2.5267604033099573,2.281364603633545,-1.017517391835348,0.5387357473373413
1708437230.9330359,-1.1054027080535889,-1.6817409000792445,-2.5267751852618616,2.2812601762958984,-1.0175131003009241,0.539304256439209
1708437230.9350288,-1.105371356010437,-1.681789060632223,-2.5268126169787806,2.281264467830322,-1.0175460020648401,0.5398349761962891
1708437230.9370527,-1.1053681373596191,-1.6818014583983363,-2.526794497166769,2.281207962627075,-1.0174959341632288,0.5403091907501221
1708437230.939051,-1.1053519248962402,-1.6818295917906703,-2.526811424885885,2.2811507421680908,-1.017536465321676,0.5407834649085999
1708437230.9410229,-1.1053167581558228,-1.681864400903219,-2.526806894932882,2.2811567026325683,-1.01756459871401,0.5412696599960327
1708437230.9430332,-1.1051874160766602,-1.6818810902037562,-2.5268846193896692,2.28109519063916,-1.0175355116473597,0.5417183041572571
1708437230.9450214,-1.1051721572875977,-1.6819168529906214,-2.5268381277667444,2.2810847002216796,-1.0175769964801233,0.5422276854515076
1708437230.947029,-1.105111002922058,-1.6819898090758265,-2.5268755594836634,2.2810489374348144,-1.0175798575030726,0.5426522493362427
1708437230.9490364,-1.1050593852996826,-1.682005067864889,-2.5268831888781946,2.2809783655354003,-1.017604176198141,0.5431025624275208
1708437230.9510112,-1.104979395866394,-1.6820570431151332,-2.5268951098071497,2.280944271678589,-1.0176895300494593,0.5435724258422852
1708437230.9531136,-1.1049185991287231,-1.6821009121336878,-2.526935640965597,2.28089086591687,-1.0176637808429163,0.5440270900726318
1708437230.9550152,-1.1048349142074585,-1.6821571789183558,-2.526926581059591,2.2808145719715576,-1.0176757017718714,0.5444996953010559
1708437230.9570398,-1.104730248451233,-1.6821805439391078,-2.5269551912890833,2.2808071809956054,-1.0177162329303187,0.5449544191360474
1708437230.9590335,-1.1046463251113892,-1.6822368107237757,-2.5269866625415247,2.280756397838257,-1.0177810827838343,0.5453523397445679
1708437230.9609861,-1.1045429706573486,-1.6822473011412562,-2.527026955281393,2.2807485300251464,-1.0177844206439417,0.5457669496536255
1708437230.963056,-1.1044591665267944,-1.682295938531393,-2.5270631949054163,2.2806600767322998,-1.017836872731344,0.5461899042129517
1708437230.9649923,-1.1042895317077637,-1.6824046574034632,-2.5271335283862513,2.2805632787891845,-1.0178726355182093,0.5465805530548096
1708437230.967006,-1.1042100191116333,-1.6824761829771937,-2.527144257222311,2.2804884153553466,-1.0179489294635218,0.5469020009040833
1708437230.9690125,-1.1040621995925903,-1.682594438592428,-2.527159039174215,2.2804195123859863,-1.0179155508624476,0.5473357439041138
1708437230.9711013,-1.1039260625839233,-1.682603498498434,-2.5272298494922083,2.2803117471882324,-1.0180042425738733,0.5476394891738892
1708437230.9730568,-1.1037660837173462,-1.6826635799803675,-2.5271785894977015,2.2802366453358154,-1.0180285612689417,0.5480220317840576
1708437230.9750705,-1.1036300659179688,-1.6827475033202113,-2.527238432561056,2.280090494746826,-1.0180395285235804,0.5484227538108826
1708437230.9770362,-1.1034382581710815,-1.682831426660055,-2.5272792021380823,2.2800280290791015,-1.0180838743792933,0.5487446784973145
1708437230.9790714,-1.1032744646072388,-1.6829239330687464,-2.5273314158069056,2.2798499304005126,-1.0180919806109827,0.5491856932640076
1708437230.9810617,-1.1030620336532593,-1.6830154858031214,-2.5273600260363978,2.2797512251087646,-1.018127743397848,0.5494983196258545
1708437230.9830573,-1.1028786897659302,-1.683115621606344,-2.5274201075183313,2.279574080104492,-1.0181353727923792,0.5497974753379822
1708437230.9850495,-1.1026182174682617,-1.6832200489439906,-2.5274770895587366,2.279430313701294,-1.018195931111471,0.5500712394714355
1708437230.987056,-1.1023179292678833,-1.683270116845602,-2.5274844805346888,2.279261751765869,-1.0182116667376917,0.5504269003868103
1708437230.9890966,-1.1021056175231934,-1.6834761104979457,-2.5274997393237513,2.2790939050861816,-1.0183404127704065,0.5507066249847412
1708437230.991062,-1.1018292903900146,-1.6835509739317835,-2.5274861494647425,2.2789155679890136,-1.0183313528644007,0.550987720489502
1708437230.9930863,-1.1015688180923462,-1.6836635075011195,-2.527571503316061,2.2787479597279052,-1.0183756987201136,0.5512436032295227
1708437230.9950247,-1.1012852191925049,-1.6838413677611292,-2.5276315847979944,2.2785584169575195,-1.018468205128805,0.5515426397323608
1708437230.9970737,-1.1010141372680664,-1.683941503564352,-2.527716938649313,2.278325243587158,-1.0185120741473597,0.5518553256988525
1708437230.999057,-1.1006276607513428,-1.684122701684469,-2.5277770201312464,2.278106852168701,-1.0186031500445765,0.5520737767219543
1708437231.0010722,-1.1002395153045654,-1.6842862568297328,-2.527849022542135,2.277836723918579,-1.018679443989889,0.5522502660751343
1708437231.0030506,-1.0998384952545166,-1.6843882999815882,-2.527856413518087,2.2776059347340087,-1.0187957922564905,0.5525643825531006
1708437231.0050225,-1.0994688272476196,-1.6846095524229945,-2.527928415928976,2.2773379522510986,-1.0189197699176233,0.5527632832527161
1708437231.0070307,-1.0990805625915527,-1.684761186639303,-2.5279884974109095,2.277029200191162,-1.0189908186541956,0.5530025959014893
1708437231.0090604,-1.0986722707748413,-1.6849857769408167,-2.528010908757345,2.2767905431934814,-1.0190184752093714,0.5531802773475647
1708437231.0110464,-1.0981998443603516,-1.6850782833495082,-2.5281415621386927,2.2765063482471923,-1.019146744404928,0.5533464550971985
1708437231.0130835,-1.0977764129638672,-1.6853553257384242,-2.528168265019552,2.276285095805786,-1.0192630926715296,0.5535813570022583
1708437231.015043,-1.0972503423690796,-1.685568471948141,-2.52826434770693,2.2758452135273437,-1.0193308035479944,0.5536936521530151
1708437231.0170214,-1.0968031883239746,-1.6858207188048304,-2.5283530394183558,2.275594397182129,-1.0194419066058558,0.5538729429244995
1708437231.01904,-1.0962741374969482,-1.6860715351500453,-2.5284159819232386,2.275185986156128,-1.019501034413473,0.5540492534637451
1708437231.02101,-1.0957789421081543,-1.6862627468504847,-2.5284908453570765,2.2748378950306396,-1.019670311604635,0.5541794896125793
1708437231.0230415,-1.0951826572418213,-1.686549802819723,-2.528588358555929,2.274496241206787,-1.019818131123678,0.5543814897537231
1708437231.0251205,-1.0946359634399414,-1.686817308465475,-2.5287097136126917,2.27405492841687,-1.0199173132525843,0.5545159578323364
1708437231.0270245,-1.0940711498260498,-1.6870347462096156,-2.52879244485964,2.2736174303242187,-1.0200331846820276,0.5546190738677979
1708437231.0290372,-1.093487024307251,-1.6873604259886683,-2.5289631525622767,2.273191137904785,-1.0202091375934046,0.5547671318054199
1708437231.0310576,-1.0928720235824585,-1.6876756153502406,-2.5290172735797327,2.272718592281006,-1.0203660170184534,0.5548449158668518
1708437231.0330296,-1.0921578407287598,-1.687974592248434,-2.529087845479147,2.272270365352295,-1.0204122702227991,0.5549241304397583
1708437231.0350711,-1.0915427207946777,-1.6883112392821253,-2.529245201741354,2.271852656001709,-1.0205753485309046,0.5550408363342285
1708437231.0370326,-1.0908390283584595,-1.6886254749693812,-2.529400889073507,2.2713796335407714,-1.020768944417135,0.5551442503929138
1708437231.0391624,-1.0901354551315308,-1.68896545986318,-2.529480759297506,2.2708908754536132,-1.0209291617022913,0.5552307963371277
1708437231.0410347,-1.0894478559494019,-1.689312597314352,-2.529637877141134,2.2704734045216064,-1.0210755507098597,0.5552983283996582
1708437231.0430474,-1.0886493921279907,-1.6896349392332972,-2.529785219823019,2.2698866563984375,-1.0212395826922815,0.5554373860359192
1708437231.045053,-1.0879143476486206,-1.6900464497008265,-2.5298646132098597,2.269368811244629,-1.021463696156637,0.5554463267326355
1708437231.0470586,-1.0871466398239136,-1.6904431782164515,-2.530017677937643,2.2688488203236084,-1.0216153303729456,0.5555345416069031
1708437231.0490408,-1.0863349437713623,-1.6908632717528285,-2.530203406010763,2.2683228689381103,-1.0217178503619593,0.5556034445762634
1708437231.0510535,-1.0855071544647217,-1.6912018261351527,-2.530308548604147,2.267725630397461,-1.0219629446612757,0.5555973052978516
1708437231.0530224,-1.0846552848815918,-1.691613336602682,-2.5304580370532435,2.267146034831665,-1.0220769087420862,0.5556706190109253
1708437231.0550184,-1.0838407278060913,-1.6919857464232386,-2.530564848576681,2.266573353404663,-1.0223129431353968,0.5556931495666504
1708437231.05702,-1.0828747749328613,-1.6924077473082484,-2.5306969324695032,2.2660083013721923,-1.0225055853473108,0.555746853351593
1708437231.0590215,-1.082039713859558,-1.6928469143309535,-2.5308573881732386,2.2653578954884033,-1.0227583090411585,0.5557780861854553
1708437231.06101,-1.0811361074447632,-1.6932317219176234,-2.531034056340353,2.264814539546631,-1.0229375998126429,0.5557602643966675
1708437231.0630033,-1.0801609754562378,-1.6937080822386683,-2.5311766306506556,2.2641705709644775,-1.0231006781207483,0.5557810664176941
1708437231.0650318,-1.0790777206420898,-1.694158216516012,-2.531318966542379,2.2635039526173095,-1.0233271757708948,0.555757462978363
1708437231.066997,-1.078104853630066,-1.6946255169310511,-2.531524721776144,2.2628025251575927,-1.0236123243915003,0.5557395815849304
1708437231.0690308,-1.077114462852478,-1.695097108880514,-2.5317302385913294,2.262155457133911,-1.023783032094137,0.5557155013084412
1708437231.0709968,-1.076061725616455,-1.6955834827818812,-2.531943384801046,2.261439009303711,-1.024006191884176,0.5557735562324524
1708437231.073041,-1.0750504732131958,-1.6960817776122035,-2.5321033636676233,2.260761185283325,-1.0243004004107874,0.5556871294975281
1708437231.0750232,-1.0739984512329102,-1.6965629063048304,-2.5322278181659144,2.2600342470356445,-1.0244987646686,0.5557006597518921
1708437231.0770152,-1.072898268699646,-1.6970931492247523,-2.5324211756335657,2.259349985713623,-1.0247586409198206,0.5556240677833557
1708437231.0790272,-1.0718241930007935,-1.697660585443014,-2.5326252619372767,2.2585598665424804,-1.0250104109393519,0.5556122064590454
1708437231.0810444,-1.0706216096878052,-1.6981097660460414,-2.5328291098224085,2.2577599722095947,-1.0252860228167933,0.5555555820465088
1708437231.0830536,-1.0695356130599976,-1.6987673244872035,-2.5330334345446985,2.2569853502460937,-1.0255621115313929,0.5555570721626282
1708437231.0850275,-1.0683770179748535,-1.6992198429503382,-2.5332372824298304,2.2561802107044677,-1.025764290486471,0.5555419325828552
1708437231.087024,-1.0671724081039429,-1.699839254418844,-2.533499542866842,2.2554523187824707,-1.026031796132223,0.5555374622344971
1708437231.0890288,-1.0659570693969727,-1.7003489933409632,-2.533628288899557,2.254556818599365,-1.026266876851217,0.5554686784744263
1708437231.091018,-1.064750075340271,-1.7009464703001917,-2.533898655568258,2.253765030498169,-1.026588265095846,0.5554701685905457
1708437231.0930507,-1.0635337829589844,-1.701526781121725,-2.53406006494631,2.252908869380615,-1.026832405720846,0.5554131865501404
1708437231.0950365,-1.062243103981018,-1.7021948299803675,-2.5343015829669397,2.2521046835133056,-1.0271185080157679,0.5553563237190247
1708437231.0970502,-1.0609734058380127,-1.702799459496969,-2.534579340611593,2.2511295515247802,-1.0274189154254358,0.5553296208381653
1708437231.0990505,-1.0596849918365479,-1.7033735714354457,-2.534765068684713,2.2502993780323486,-1.0277016798602503,0.5552203059196472
1708437231.1010234,-1.0583956241607666,-1.7040978870787562,-2.5349839369403284,2.2493514257618408,-1.0280049482928675,0.5551533102989197
1708437231.1030118,-1.0571118593215942,-1.7047659359373988,-2.5352795759784144,2.2484604555317382,-1.02832538286318,0.5550394058227539
1708437231.1050258,-1.0557355880737305,-1.705346246758932,-2.5354910532580774,2.247499628657959,-1.028665844594137,0.5549857020378113
1708437231.1070218,-1.054342269897461,-1.7060138187804164,-2.5357053915606897,2.2466093736835937,-1.0289877096759241,0.5549004673957825
1708437231.1090338,-1.0530396699905396,-1.7066627941527308,-2.5359917322741907,2.245673103923462,-1.029360596333639,0.5548303127288818
1708437231.1110015,-1.0516202449798584,-1.707325120965475,-2.536194626485006,2.2446841436573486,-1.0296466986285608,0.5547521710395813
1708437231.1130478,-1.0502551794052124,-1.708046098748678,-2.5364297072040003,2.243699474925659,-1.0299213568316858,0.5547146797180176
1708437231.1150177,-1.048801302909851,-1.7086636028685511,-2.5366607348071497,2.2426938253590087,-1.0303176085101526,0.5545576810836792
1708437231.1170173,-1.04733407497406,-1.709451814691061,-2.536975924168722,2.2416929441639404,-1.0306928793536585,0.5544949769973755
1708437231.1190064,-1.045846939086914,-1.710081239739889,-2.5372169653521937,2.2406861025043945,-1.0310810248004358,0.5543830394744873
1708437231.1210232,-1.0442750453948975,-1.7108518085875453,-2.537511173878805,2.239581986064575,-1.0314400831805628,0.554258406162262
1708437231.1230116,-1.0427649021148682,-1.7115899525084437,-2.5377748648272913,2.2385915952869873,-1.0318768660174769,0.5541718602180481
1708437231.1250005,-1.0412368774414062,-1.712351461450094,-2.538062874470846,2.237556143397949,-1.032243553792135,0.554068922996521
1708437231.1270103,-1.039685606956482,-1.713142534295553,-2.5383432547198694,2.236488028163574,-1.0325496832477015,0.5539193749427795
1708437231.1290247,-1.0381048917770386,-1.7138477764525355,-2.538593594227926,2.235471411342285,-1.0328367392169397,0.5538488030433655
1708437231.1310418,-1.0364471673965454,-1.714630743066305,-2.5388577620135706,2.2343320089527587,-1.0332449118243616,0.5536767244338989
1708437231.1330245,-1.0348186492919922,-1.715370317498678,-2.539107863103048,2.233288450832031,-1.0335920492755335,0.5535512566566467
1708437231.1350176,-1.0331696271896362,-1.716224809686178,-2.539438072835104,2.2321767049976806,-1.033943001423971,0.5534736514091492
1708437231.1370044,-1.031464695930481,-1.7169257603087367,-2.5397093931781214,2.23110215246167,-1.034302059804098,0.5533703565597534
1708437231.139013,-1.0298118591308594,-1.717745920220846,-2.540013853703634,2.2299868303486328,-1.0347264448748987,0.5532174706459045
1708437231.1410306,-1.0281012058258057,-1.7185222111144007,-2.540354077016012,2.2288636404224853,-1.0351341406451624,0.5531563758850098
1708437231.1430345,-1.026349663734436,-1.7193447552123011,-2.5406211058246058,2.22770802556958,-1.0355456511126917,0.5529362559318542
1708437231.1450374,-1.0245378017425537,-1.7201749287047328,-2.5409703890429896,2.226564808482788,-1.035964314137594,0.5528885722160339
1708437231.1470368,-1.0228031873703003,-1.7209917507567347,-2.5411835352527063,2.225313826198242,-1.0364120642291468,0.5526989102363586
1708437231.1490462,-1.0210535526275635,-1.7218190632262171,-2.541516129170553,2.224078579539917,-1.0368474165545862,0.5525581240653992
1708437231.1510181,-1.0192275047302246,-1.7226363621153773,-2.541844908391134,2.2229088979908447,-1.0372384230243128,0.5524893999099731
1708437231.1530356,-1.0173949003219604,-1.723490377465719,-2.542201821004049,2.2217396932789306,-1.037689510975973,0.5523532629013062
1708437231.1550794,-1.0155189037322998,-1.7243854008116664,-2.542551342641012,2.2205189901539306,-1.0381043593036097,0.5521513819694519
1708437231.157027,-1.013669490814209,-1.7252360783019007,-2.5428736845599573,2.2191402155109863,-1.0386207739459437,0.5520601272583008
1708437231.1590548,-1.0117887258529663,-1.7261330089964808,-2.543194595967428,2.2178122240253906,-1.0390151182757776,0.5519283413887024
1708437231.1609962,-1.0098696947097778,-1.727006574670309,-2.5435636679278772,2.216522141093872,-1.0394576231585901,0.5518296360969543
1708437231.1629987,-1.007897973060608,-1.7279583416380824,-2.5438197294818323,2.21521966039624,-1.0398457686053675,0.5517160296440125
1708437231.164997,-1.005997896194458,-1.7288762531676234,-2.5442145506488245,2.2139622408100585,-1.0402525107013147,0.5515171885490417
1708437231.167019,-1.0040010213851929,-1.729772230187887,-2.544586483632223,2.212679548854492,-1.0407407919513147,0.5514228343963623
1708437231.1690218,-1.001980185508728,-1.730823656121725,-2.5449536482440394,2.2113405901142578,-1.0412080923663538,0.5512315630912781
1708437231.1710126,-0.9999557137489319,-1.7317120037474574,-2.5452759901629847,2.2100421625324707,-1.0417030493365687,0.5510265231132507
1708437231.1730342,-0.9979513883590698,-1.732664247552389,-2.545619312916891,2.20876590787854,-1.0422137419330042,0.550977349281311
1708437231.1750326,-0.9958873391151428,-1.7337213955321253,-2.5460575262652796,2.2072958189197998,-1.0426762739764612,0.550826370716095
1708437231.1770666,-0.9938943982124329,-1.7347027264037074,-2.5464592615710657,2.205995722407959,-1.0431154409991663,0.5506526231765747
1708437231.1790524,-0.9918599128723145,-1.7356845341124476,-2.546798292790548,2.2045652109333496,-1.0436018149005335,0.5505300760269165
1708437231.1810734,-0.9897401928901672,-1.7367006740965785,-2.5471985975848597,2.2031804758259277,-1.0440686384784144,0.5503414869308472
1708437231.1831036,-0.9876682162284851,-1.7377602062621058,-2.5475688616382044,2.2017556863972167,-1.0446503798114222,0.5502310991287231
1708437231.185073,-0.9855442047119141,-1.738838335076803,-2.547990624104635,2.200434847468994,-1.0450957457171839,0.5500335097312927
1708437231.1870651,-0.9833826422691345,-1.7397691212096156,-2.5483201185809534,2.1989773946949462,-1.045647923146383,0.5499155521392822
1708437231.1890707,-0.9812412858009338,-1.7408768139281214,-2.5487285296069544,2.197521372432373,-1.0462001005755823,0.5497223734855652
1708437231.1910303,-0.9790763258934021,-1.741913457910055,-2.549145046864645,2.1960510450550537,-1.0466931501971644,0.5496089458465576
1708437231.193047,-0.9768579602241516,-1.742990633050436,-2.5495649019824427,2.194558544749878,-1.0472524801837366,0.5494683384895325
1708437231.1950288,-0.9746084213256836,-1.744108339349264,-2.549940888081686,2.193124456996582,-1.047732178364889,0.5492962002754211
1708437231.1971066,-0.9724233746528625,-1.7452222309508265,-2.5503578821765345,2.191711588496826,-1.0482834021197718,0.5491570234298706
1708437231.1991413,-0.9702069163322449,-1.7462226353087367,-2.550699774418966,2.190298243159912,-1.048809830342428,0.5489835739135742
1708437231.2010872,-0.9680457711219788,-1.7472979031004847,-2.551124159489767,2.1888698774525146,-1.0493162314044397,0.5488458871841431
1708437231.203057,-0.9658046960830688,-1.7484036884703578,-2.551467482243673,2.1874231535145263,-1.0499103705035608,0.5487609505653381
1708437231.2050605,-0.9636289477348328,-1.749368806878561,-2.551884476338522,2.186046286220215,-1.0504301230060022,0.5485662817955017
1708437231.207077,-0.9614724516868591,-1.7504483662047328,-2.5522595087634485,2.184582396144531,-1.0509570280658167,0.5484720468521118
1708437231.209064,-0.9592318534851074,-1.7515255413451136,-2.5527001062976282,2.1831907468983154,-1.0515039602862757,0.5483046770095825
1708437231.211012,-0.9570426344871521,-1.752627512017721,-2.553067747746603,2.1817068296619873,-1.0520442167865198,0.5481192469596863
1708437231.2130287,-0.9548568725585938,-1.7536736927428187,-2.5534752050982874,2.1802889543720703,-1.0525463263141077,0.5480383634567261
1708437231.2150195,-0.9526919722557068,-1.7547875843443812,-2.553863827382223,2.1788500982471923,-1.0530818144427698,0.5478554368019104
1708437231.2170577,-0.9504638910293579,-1.755852838555807,-2.5542879740344446,2.177405996913574,-1.0536506811725062,0.5477254390716553
1708437231.2190301,-0.9482035636901855,-1.7568184338011683,-2.554664198552267,2.175877256984375,-1.054101292287008,0.5476107001304626
1708437231.2210171,-0.9460588097572327,-1.7579347095885218,-2.5551005045520228,2.174360914821289,-1.0546048323260706,0.5473684668540955
1708437231.2230659,-0.9438490271568298,-1.7589556179442347,-2.5554431120501917,2.1729158598133544,-1.0550974051104944,0.5473114252090454
1708437231.2250159,-0.941607654094696,-1.7600170574583949,-2.555814568196432,2.171429319972656,-1.0556371847735804,0.5471183657646179
1708437231.2270362,-0.9394449591636658,-1.7610498867430628,-2.55622369447817,2.170043392772339,-1.0561445395099085,0.5470198392868042
1708437231.229042,-0.9371683597564697,-1.7621609173216761,-2.5566092173205774,2.1684724527546386,-1.0567134062396448,0.5468551516532898
1708437231.2310438,-0.9349597096443176,-1.7632352314391078,-2.557047192250387,2.167179508800171,-1.0572460333453577,0.5467296242713928
1708437231.2330384,-0.9327710270881653,-1.7642423115172328,-2.5574706236468714,2.1657211023518066,-1.0577243010150355,0.5465592741966248
1708437231.2350445,-0.9305514693260193,-1.7653399906554164,-2.557850186024801,2.1643096643635253,-1.0582073370562952,0.5464604496955872
1708437231.237093,-0.9283432364463806,-1.7663713894286097,-2.5582507292376917,2.1628591257282714,-1.0587437788592737,0.5463827848434448
1708437231.23905,-0.9261792898178101,-1.7673803768553675,-2.558629814778463,2.1613709169575195,-1.0592716375934046,0.5462303161621094
1708437231.2410278,-0.9239663481712341,-1.768482347527975,-2.55904204050173,2.1599768835255126,-1.0597856680499476,0.546049177646637
1708437231.2430315,-0.9217570424079895,-1.769604822198385,-2.5594621340381067,2.158599777812622,-1.0603016058551233,0.5459802150726318
1708437231.245088,-0.9195221662521362,-1.7706033192076625,-2.559873167668478,2.157125397319458,-1.060833756123678,0.5458277463912964
1708437231.2470336,-0.9173496961593628,-1.771660944024557,-2.5602286497699183,2.15564672529187,-1.0613787809955042,0.545642077922821
1708437231.2490518,-0.9151447415351868,-1.772721906701559,-2.5606499353991907,2.1541129785725097,-1.0618861357318323,0.5455690026283264
1708437231.2510266,-0.9129211902618408,-1.7737466297545375,-2.5610457102404993,2.1527022558399658,-1.0624573866473597,0.545425534248352
1708437231.2530475,-0.9107604622840881,-1.7748738727965296,-2.5613892714129847,2.1512881952473144,-1.062977139149801,0.5452460050582886
1708437231.2550147,-0.9085255861282349,-1.7759348354735316,-2.561848227177755,2.149918718928955,-1.0635126272784632,0.5451008677482605
1708437231.2570305,-0.9064242839813232,-1.77697815517568,-2.562230888997213,2.1484386163898925,-1.0640352408038538,0.5450114011764526
1708437231.2590451,-0.9042269587516785,-1.7780639133849085,-2.5626311937915247,2.1470393377491455,-1.0645836035357874,0.5448467135429382
1708437231.2609906,-0.90195631980896,-1.7790571651854457,-2.5630555788623255,2.1456500726887207,-1.0651205221759241,0.544691264629364
1708437231.2630472,-0.8997517824172974,-1.7801796398558558,-2.563406292592184,2.144176645869873,-1.0656440893756312,0.5445373058319092
1708437231.265013,-0.897613525390625,-1.7811962566771449,-2.5638023058520716,2.14268343030896,-1.0662191549884241,0.544459342956543
1708437231.2670858,-0.8954113125801086,-1.7822820148863734,-2.56417686143984,2.1411308485218505,-1.0667427221881312,0.5443292856216431
1708437231.2690403,-0.8932494521141052,-1.7833501301207484,-2.564564053212301,2.1397341924854736,-1.067209545766012,0.5441601276397705
1708437231.271008,-0.8911176323890686,-1.784396310845846,-2.5649851004229944,2.138247175807617,-1.0677502791034144,0.5440284013748169
1708437231.2730298,-0.8889355063438416,-1.78546204189443,-2.5654144922839563,2.1368061739155273,-1.0681961218463343,0.5438652634620667
1708437231.2750092,-0.8867431282997131,-1.7865892849364222,-2.565831009541647,2.1353229719349365,-1.0686801115619105,0.5437533855438232
1708437231.2770479,-0.884496808052063,-1.7876244984068812,-2.566187922154562,2.133876009578369,-1.0693133513080042,0.543605387210846
1708437231.279054,-0.8823104500770569,-1.7887121639647425,-2.566589895878927,2.1324400144764404,-1.0697968641864222,0.543461799621582
1708437231.2810435,-0.8801160454750061,-1.789727350274557,-2.566989008580343,2.131040497417114,-1.070291821156637,0.543327271938324
1708437231.2830281,-0.8779524564743042,-1.7907806835570277,-2.567404095326559,2.129659338588379,-1.0707104841815394,0.5431446433067322
1708437231.2850401,-0.8757213950157166,-1.7918292484679164,-2.5678182283984583,2.1281747060963134,-1.0712488333331507,0.5430429577827454
1708437231.28702,-0.8734502196311951,-1.7928797207274378,-2.568155352269308,2.1268271642872314,-1.0717232863055628,0.5429489016532898
1708437231.2890515,-0.8712314963340759,-1.7939502201476039,-2.5685578028308313,2.125427408809326,-1.0722220579730433,0.5427979230880737
1708437231.2910228,-0.8689135909080505,-1.7950221500792445,-2.568932596837179,2.1239804464527587,-1.0727422873126429,0.5426288843154907
1708437231.2930188,-0.8667652010917664,-1.7960578403868617,-2.5693565050708216,2.122584028834961,-1.0733221212970179,0.5425254702568054
1708437231.2951322,-0.8645553588867188,-1.7971488438048304,-2.5697689692126673,2.1211532789417724,-1.0738948027240198,0.5423729419708252
1708437231.297,-0.8623657822608948,-1.7981907329955042,-2.570176426564352,2.119741125697754,-1.074409310017721,0.542212724685669
1708437231.2990038,-0.8601559400558472,-1.7992755375304164,-2.570529286061422,2.1182991701313476,-1.0749295393573206,0.5420766472816467
1708437231.3010347,-0.8579933047294617,-1.8003732166686,-2.570899550114767,2.1168317037769775,-1.0754450003253382,0.5420079231262207
1708437231.3030128,-0.8557668924331665,-1.8014136753477992,-2.5713167826281946,2.115375443095825,-1.076000992451803,0.5418302416801453
1708437231.30504,-0.8535614013671875,-1.8024922809996546,-2.5716868082629603,2.113841934795044,-1.0765765349017542,0.5416670441627502
1708437231.3070283,-0.8513851761817932,-1.8034879169859828,-2.572049919758932,2.1123689848133544,-1.0770915190326136,0.5415308475494385
1708437231.3090305,-0.849151074886322,-1.8045817814269007,-2.5724549929248255,2.1108943659016113,-1.0775907675372522,0.5414323806762695
1708437231.311038,-0.8469268083572388,-1.8057495556273402,-2.572843376790182,2.109409733409546,-1.0781071821795862,0.5412963032722473
1708437231.3130465,-0.8447529077529907,-1.8067690334715785,-2.5732110182391565,2.1079909044453125,-1.0786345640765589,0.5411361455917358
1708437231.3150358,-0.842626690864563,-1.8078257046141566,-2.573648993168966,2.1065520483204345,-1.0791214148150843,0.5410326719284058
1708437231.3170145,-0.8403902649879456,-1.8088880978026332,-2.574030939732687,2.1051642137714843,-1.0797198454486292,0.5408847332000732
1708437231.3190145,-0.8382347822189331,-1.8099538288512171,-2.5744147936450403,2.103741331691406,-1.080165211354391,0.5407739877700806
1708437231.321005,-0.83604496717453,-1.811136861840719,-2.574822966252462,2.1023458677479248,-1.080672566090719,0.5406469106674194
1708437231.3230238,-0.8338474631309509,-1.8121024570860804,-2.575202528630392,2.100886746043823,-1.0811803976642054,0.5405107736587524
1708437231.3250527,-0.8317099213600159,-1.813192983666891,-2.575569454823629,2.0994414526173095,-1.0817206541644495,0.5403881669044495
1708437231.3270416,-0.8295454978942871,-1.8142773113646449,-2.5760117212878626,2.0980583864399414,-1.0822885672198694,0.5402790904045105
1708437231.3290102,-0.8272318840026855,-1.8153897724547328,-2.576394859944479,2.096578283900879,-1.082778278981344,0.5401681065559387
1708437231.3310385,-0.8250942230224609,-1.816394945184225,-2.576815668736593,2.0951551634022216,-1.0833514372455042,0.5399962067604065
1708437231.3330376,-0.8229095935821533,-1.8175236187376917,-2.577164951954977,2.09373061239209,-1.0838702360736292,0.5398675799369812
1708437231.3350146,-0.8207083940505981,-1.8186208210387171,-2.5775445143329065,2.0922652918049316,-1.0844057242022913,0.5397854447364807
1708437231.3370328,-0.818479061126709,-1.819759031335348,-2.577954117451803,2.0908309656330566,-1.0848897139178675,0.5396071672439575
1708437231.33901,-0.816328227519989,-1.8207904301085414,-2.5783665815936487,2.0894250112720947,-1.0853894392596644,0.5395132303237915
1708437231.3409963,-0.8141260743141174,-1.8217703304686488,-2.578729216252462,2.0880109506794433,-1.0858805815326136,0.5394668579101562
1708437231.3430128,-0.8118572235107422,-1.822855611840719,-2.5791702906238,2.086649103755615,-1.086419407521383,0.5393279194831848
1708437231.3450203,-0.8096355199813843,-1.8239170513548792,-2.5795751253711146,2.08520690977063,-1.0868900457965296,0.5392112135887146
1708437231.3470292,-0.8074495196342468,-1.8249885044493617,-2.5799620787249964,2.083782358760498,-1.0874913374530237,0.5391242504119873
1708437231.3490236,-0.8051621913909912,-1.8261267147459925,-2.5803702513324183,2.082427902812622,-1.087994400654928,0.5390151739120483
1708437231.3510032,-0.8029950261116028,-1.8271833858885707,-2.5807042757617396,2.0809506612965087,-1.0884812513934534,0.5389044284820557
1708437231.3530095,-0.8008787631988525,-1.8282395801939906,-2.581075970326559,2.079519672984741,-1.0889795462237757,0.5387970209121704
1708437231.3549998,-0.7986084222793579,-1.8293305836119593,-2.5814555327044886,2.0780746179768066,-1.0894854704486292,0.5387057065963745
1708437231.3570302,-0.7964619994163513,-1.8304206333556117,-2.5818360487567347,2.0766095358082275,-1.0899937788592737,0.538572371006012
1708437231.3590336,-0.7942858934402466,-1.831492086450094,-2.5822110811816614,2.075131817454956,-1.090480152760641,0.5384813547134399
1708437231.3609908,-0.7920520901679993,-1.832559724847311,-2.5826438109027308,2.0736703115650634,-1.0910323301898401,0.5383690595626831
1708437231.3630073,-0.7899132370948792,-1.8336059055724085,-2.5830345789538782,2.0722288328358154,-1.0915396849261683,0.5382115840911865
1708437231.3650076,-0.7876795530319214,-1.8346816502013148,-2.5833943525897425,2.0707990366169433,-1.0919926802264612,0.5381837487220764
1708437231.3670259,-0.7855045199394226,-1.835780759850973,-2.583810869847433,2.069365902537964,-1.0925315062152308,0.5380341410636902
1708437231.369006,-0.783272385597229,-1.836846490899557,-2.5842271486865442,2.067953272456787,-1.092968765889303,0.5379922986030579
1708437231.3709993,-0.7810462713241577,-1.8378988705077113,-2.5845521132098597,2.06661240636792,-1.0934975782977503,0.5378217101097107
1708437231.3730357,-0.7788732647895813,-1.8390547237791957,-2.584961001073019,2.0652267175861816,-1.0940101782428187,0.5377918481826782
1708437231.3750331,-0.7766022086143494,-1.84006991008901,-2.585336987172262,2.0638763147541503,-1.0945008436786097,0.5376136302947998
1708437231.3770413,-0.7743847966194153,-1.8411418400206507,-2.5857372919665735,2.0624865728565673,-1.095029656087057,0.5375720262527466
1708437231.3790538,-0.7721804976463318,-1.8422876797118128,-2.586160961781637,2.0611561971851806,-1.0955451170550745,0.5375000834465027
1708437231.3810177,-0.7700075507164001,-1.843236585656637,-2.586461846028463,2.059727116222046,-1.0961230436908167,0.5373594164848328
1708437231.383045,-0.767839252948761,-1.8443824253477992,-2.586890522633688,2.0582796770283203,-1.096661392842428,0.5372264981269836
1708437231.3850193,-0.7655988931655884,-1.8454204998412074,-2.5872603098498743,2.0569380956837158,-1.097152058278219,0.5372220277786255
1708437231.3870168,-0.763359546661377,-1.8465272388853968,-2.5876436869250696,2.0554539400288085,-1.0976393858539026,0.5370932817459106
1708437231.3890512,-0.7611752152442932,-1.847546239892477,-2.588069264088766,2.054104729289673,-1.098102871571676,0.5369739532470703
1708437231.3910606,-0.7589777708053589,-1.8487211666502894,-2.5884273687945765,2.0526556211658935,-1.0986068884478968,0.5368732810020447
1708437231.3930423,-0.7567852139472961,-1.8497892818846644,-2.5888078848468226,2.051211042995117,-1.0990775267230433,0.536843478679657
1708437231.3950312,-0.7545226216316223,-1.8509565792479457,-2.589149300252096,2.0497798162647705,-1.0994976202594202,0.5366820096969604
1708437231.3970115,-0.7523728609085083,-1.8519464931883753,-2.589558188115255,2.0483521658131103,-1.100011173878805,0.5366103649139404
1708437231.3990746,-0.750209391117096,-1.8530117473998011,-2.5899420420276087,2.046887083644531,-1.1004775206195276,0.5364696383476257
1708437231.4010234,-0.7479934692382812,-1.854135652581686,-2.59033710161318,2.0454775530048828,-1.1009481588946741,0.5364263653755188
1708437231.4030206,-0.745797336101532,-1.8552142582335414,-2.5907238165484827,2.0440115171619873,-1.1013997236834925,0.5363470911979675
1708437231.4050264,-0.7436491250991821,-1.8562609157957972,-2.591144386922018,2.0426196294971923,-1.101896111165182,0.5363004207611084
1708437231.4070232,-0.7414260506629944,-1.8574167690672816,-2.591508452092306,2.0412208276936035,-1.1024044195758265,0.5361675024032593
1708437231.4090502,-0.7392333149909973,-1.8585692844786585,-2.5918663183795374,2.0398425298878173,-1.102886978779928,0.5360854864120483
1708437231.4109888,-0.7370838522911072,-1.8595930538573207,-2.592274014149801,2.038425846690796,-1.1033857504474085,0.5360298156738281
1708437231.413003,-0.7348624467849731,-1.8606625996031703,-2.592642370854513,2.03705279409375,-1.1039136091815394,0.5358923077583313
1708437231.415022,-0.7326494455337524,-1.8618036709227503,-2.5930336157428187,2.0356766420551757,-1.1044977347003382,0.535825252532959
1708437231.4170198,-0.7304664850234985,-1.8628713093199671,-2.593419615422384,2.0342508989521484,-1.104926888142721,0.5357247591018677
1708437231.4190195,-0.7282390594482422,-1.8639489612975062,-2.593759838734762,2.032857819194458,-1.1054065863238733,0.5356636047363281
1708437231.421001,-0.726085901260376,-1.865042348901266,-2.5941386858569544,2.0314246851154785,-1.105816666279928,0.535557210445404
1708437231.4230337,-0.7237973213195801,-1.866131444970602,-2.5945218245135706,2.030068798656128,-1.1062973181353968,0.5354779958724976
1708437231.4249988,-0.721611738204956,-1.8671628437437953,-2.594848696385519,2.0285822588154296,-1.1067898909198206,0.535403311252594
1708437231.4270399,-0.7193582057952881,-1.8682428799071253,-2.595290486012594,2.0272232729145507,-1.1072405020343226,0.5352955460548401
1708437231.4290216,-0.7171590924263,-1.869373460809225,-2.5957043806659144,2.025826616878174,-1.107797924672262,0.5352029204368591
1708437231.4309924,-0.7149891257286072,-1.8704825840392054,-2.596045796071188,2.0245086389729003,-1.108260456715719,0.5351400971412659
1708437231.4330118,-0.7127920985221863,-1.8715440235533656,-2.5963555018054407,2.023116274470947,-1.1087401548968714,0.5350638628005981
1708437231.4350448,-0.7106005549430847,-1.8726111851134242,-2.5968244711505335,2.0216683584400634,-1.1092808882342737,0.5349606275558472
1708437231.437025,-0.7083942890167236,-1.873690744439596,-2.5971954504596155,2.020241900081299,-1.1098492781268519,0.5347942113876343
1708437231.4390368,-0.7062221169471741,-1.8748609028258265,-2.5975869337665003,2.0188638406940917,-1.1103933493243616,0.5347020626068115
1708437231.4410453,-0.7040128111839294,-1.8758651218810023,-2.5979796091662806,2.0174056726643066,-1.1108763853656214,0.5346342325210571
1708437231.4430344,-0.7018401622772217,-1.8769985638060511,-2.598254982625143,2.015937491054199,-1.1113794485675257,0.5345849990844727
