Eg3-git/Classifiers/Data Collection/u5/u5star3_ur3e_joint_states.csv
time,elbow_joint,shoulder_lift_joint,shoulder_pan_joint,wrist_1_joint,wrist_2_joint,wrist_3_joint
1708437024.242596,-2.1460752487182617,-1.3342005026391526,-2.5241432825671595,6.118917453079977,1.012664794921875,-2.3254180590258997
1708437024.2445524,-2.1460394859313965,-1.334197462802269,-2.5240893999682825,6.11889265754775,1.0126725435256958,-2.3254149595843714
1708437024.246586,-2.146087646484375,-1.3342379045537491,-2.5241404215442103,6.118872630387106,1.0126901865005493,-2.3254058996783655
1708437024.2485447,-2.1460437774658203,-1.3341604632190247,-2.5241149107562464,6.118852126389303,1.0126603841781616,-2.3253775278674524
1708437024.250562,-2.146091938018799,-1.3342226159623642,-2.524128500615255,6.118868458061971,1.012648582458496,-2.3253939787494105
1708437024.2525694,-2.146048069000244,-1.3341811311296006,-2.524112049733297,6.1189377186592,1.0126813650131226,-2.3254149595843714
1708437024.2545695,-2.146027088165283,-1.3341930967620392,-2.5241194407092493,6.118924844055929,1.012664794921875,-2.3254571596728724
1708437024.2565525,-2.146066665649414,-1.3341974180987854,-2.5241523424731653,6.118868458061971,1.012693166732788,-2.3254180590258997
1708437024.258584,-2.146055221557617,-1.3341811311296006,-2.5241103808032435,6.118950831681051,1.012685775756836,-2.3254345099078577
1708437024.2605643,-2.1461005210876465,-1.334184230571129,-2.5241568724261683,6.118917453079977,1.0126572847366333,-2.3254058996783655
1708437024.2625518,-2.1460795402526855,-1.334176779990532,-2.5241687933551233,6.118843662529745,1.0126690864562988,-2.3254149595843714
1708437024.26455,-2.1460421085357666,-1.3342137199691315,-2.5241194407092493,6.118909942894735,1.0127063989639282,-2.3253939787494105
1708437024.2665572,-2.1460437774658203,-1.334209383731224,-2.524149243031637,6.118880617409506,1.012648582458496,-2.3254180590258997
1708437024.2685854,-2.1460962295532227,-1.3342259240201493,-2.5241523424731653,6.1189143536384485,1.012648582458496,-2.3254075686084192
1708437024.270568,-2.146059513092041,-1.3341516864350815,-2.524133030568258,6.118893730431356,1.0126116275787354,-2.3254149595843714
1708437024.2725556,-2.146070957183838,-1.334188626413681,-2.524095598851339,6.118954288750448,1.012648582458496,-2.3253820578204554
1708437024.2746184,-2.1460795402526855,-1.334200532441475,-2.524100128804342,6.118909942894735,1.0126571655273438,-2.3254030386554163
1708437024.2765834,-2.146104574203491,-1.3341570508531113,-2.524133030568258,6.118909942894735,1.0126278400421143,-2.3254149595843714
1708437024.278563,-2.1461002826690674,-1.3341855269721528,-2.5241239706622522,6.118929135590353,1.0126603841781616,-2.3253775278674524
1708437024.2805521,-2.146083354949951,-1.3341931265643616,-2.524128500615255,6.1189544079597376,1.01265287399292,-2.3253939787494105
1708437024.2825432,-2.146055221557617,-1.3341974479011078,-2.5241239706622522,6.118904459267416,1.0126690864562988,-2.3254104296313685
1708437024.2845771,-2.146059513092041,-1.3341767650893708,-2.524128500615255,6.118926274567404,1.0126813650131226,-2.3253923098193567
1708437024.2865584,-2.146059513092041,-1.3342017394355317,-2.5241478125201624,6.1189377186592,1.0126409530639648,-2.3253729979144495
1708437024.2885718,-2.146087646484375,-1.3341767203858872,-2.5240984598742884,6.118847834854879,1.0126203298568726,-2.3254058996783655
1708437024.290551,-2.146091938018799,-1.334185541873314,-2.524161402379171,6.118868458061971,1.0126603841781616,-2.3253968397723597
1708437024.2925937,-2.146083354949951,-1.3342290681651612,-2.524161402379171,6.118893730431356,1.0126440525054932,-2.3253939787494105
1708437024.2945735,-2.146087646484375,-1.33423467100177,-2.5241404215442103,6.118852126389303,1.0126453638076782,-2.3254058996783655
1708437024.2965548,-2.1460788249969482,-1.3341679734042664,-2.5241075197802942,6.1188316223915,1.0126690864562988,-2.3254149595843714
1708437024.2985702,-2.1460962295532227,-1.3341648441604157,-2.5241194407092493,6.118872749596395,1.0126277208328247,-2.3254435698138636
1708437024.3005574,-2.1460351943969727,-1.3342510622790833,-2.524133030568258,6.1189377186592,1.0126322507858276,-2.3254316488849085
1708437024.3025444,-2.146070957183838,-1.3342049580863495,-2.5241239706622522,6.118872749596395,1.0126659870147705,-2.325357977543966
1708437024.3045657,-2.1460788249969482,-1.3341481995633622,-2.5241313616382044,6.118843662529745,1.012685775756836,-2.3254602591144007
1708437024.3065531,-2.1460745334625244,-1.3341710430434723,-2.5241358915912073,6.118885028153219,1.0126690864562988,-2.3253849188434046
1708437024.3085449,-2.1461246013641357,-1.3341692400029679,-2.5241387526141565,6.118880617409506,1.0126571655273438,-2.3254030386554163
1708437024.3105664,-2.1460509300231934,-1.3342465919307251,-2.524133030568258,6.118958699494161,1.0126453638076782,-2.3254557291613978
1708437024.312538,-2.1460351943969727,-1.3341811460307618,-2.5240822474109095,6.118902313500204,1.0126453638076782,-2.325369898472921
1708437024.3145506,-2.146059513092041,-1.3341811460307618,-2.5241239706622522,6.118918645172872,1.0126409530639648,-2.3254013697253626
1708437024.3165793,-2.1460306644439697,-1.3342181605151673,-2.5241029898272913,6.11889802196578,1.0126159191131592,-2.3254361788379114
1708437024.3185408,-2.1460752487182617,-1.3342049729875107,-2.524149481450216,6.118893730431356,1.012603759765625,-2.3254104296313685
1708437024.320577,-2.1460957527160645,-1.3341930669597168,-2.524100128804342,6.118896949082174,1.0126080513000488,-2.3253820578204554
1708437024.3225377,-2.146087646484375,-1.3341692251018067,-2.5241404215442103,6.118901240616598,1.0126571655273438,-2.3254013697253626
1708437024.3245533,-2.146113157272339,-1.3341842603734513,-2.52407414117922,6.11889265754775,1.0126497745513916,-2.3254149595843714
1708437024.3265502,-2.146087646484375,-1.3342225712588807,-2.524161402379171,6.11892186382369,1.012636661529541,-2.3253777662860315
1708437024.3285682,-2.146087646484375,-1.3341525507024308,-2.5241404215442103,6.118877160340109,1.0126322507858276,-2.3254058996783655
1708437024.3305836,-2.1461174488067627,-1.334184230571129,-2.524128500615255,6.118847954064169,1.0126944780349731,-2.3254480997668665
1708437024.332576,-2.146087646484375,-1.334188700919487,-2.5241029898272913,6.1188814518745325,1.0126409530639648,-2.3254693190204065
1708437024.3345535,-2.1460464000701904,-1.334184230571129,-2.5241149107562464,6.118909942894735,1.0126452445983887,-2.3253775278674524
1708437024.336579,-2.146055221557617,-1.334201769237854,-2.5241239706622522,6.118893730431356,1.0126452445983887,-2.3253820578204554
1708437024.3385708,-2.1460795402526855,-1.3341974479011078,-2.5241165796863,6.118939268379965,1.0126168727874756,-2.3254435698138636
1708437024.3405755,-2.146091938018799,-1.334201769237854,-2.524144951497213,6.118844616204061,1.01265287399292,-2.3254316488849085
1708437024.3425384,-2.146083354949951,-1.3341767501882096,-2.5241568724261683,6.118844735413351,1.0125994682312012,-2.3254058996783655
1708437024.3445544,-2.146087646484375,-1.3341811460307618,-2.5241523424731653,6.118821489601888,1.012636661529541,-2.3254075686084192
1708437024.346557,-2.1460394859313965,-1.334237964158394,-2.5241194407092493,6.118829238205709,1.0126365423202515,-2.3253985087024134
1708437024.3485596,-2.146055221557617,-1.334261731510498,-2.5241194407092493,6.118797766953268,1.012698769569397,-2.3253653685199183
1708437024.3505504,-2.1460509300231934,-1.3341736954501648,-2.5241149107562464,6.118745553284445,1.0126571655273438,-2.3253939787494105
1708437024.35256,-2.1460185050964355,-1.3341930669597168,-2.5240984598742884,6.118713128357687,1.012624740600586,-2.3254647890674036
1708437024.3545568,-2.146066665649414,-1.3341811460307618,-2.5241404215442103,6.118685948639669,1.0126690864562988,-2.3254058996783655
1708437024.356545,-2.146113157272339,-1.334193081860878,-2.5241358915912073,6.118668663292684,1.012654185295105,-2.3254149595843714
1708437024.3585415,-2.146116018295288,-1.334213749771454,-2.524165932332174,6.1186444638069055,1.0126497745513916,-2.3253939787494105
1708437024.3605776,-2.1460437774658203,-1.334213764672615,-2.5241313616382044,6.1187184927757166,1.012636661529541,-2.3253939787494105
1708437024.3625364,-2.146083354949951,-1.3341930669597168,-2.5241568724261683,6.118665325432577,1.012603759765625,-2.3254316488849085
1708437024.3645391,-2.1460795402526855,-1.3342093390277405,-2.524121109639303,6.118661033898153,1.012636661529541,-2.3254149595843714
1708437024.3665535,-2.1460351943969727,-1.3342093390277405,-2.5241103808032435,6.1187195656593225,1.01265287399292,-2.3254271189319056
1708437024.368578,-2.1460306644439697,-1.334163562660553,-2.5241075197802942,6.118714082032003,1.0126290321350098,-2.3254013697253626
1708437024.370537,-2.1460752487182617,-1.3342137199691315,-2.5241194407092493,6.118684875756063,1.0126409530639648,-2.3254180590258997
1708437024.372542,-2.1460752487182617,-1.3342018139413376,-2.5241149107562464,6.118665325432577,1.012603759765625,-2.3253653685199183
1708437024.3746367,-2.146087646484375,-1.3342303198627015,-2.5241358915912073,6.118690240174093,1.0126571655273438,-2.3254075686084192
1708437024.3766024,-2.146063804626465,-1.334172399049141,-2.5241733233081263,6.118714082032003,1.0126571655273438,-2.3253985087024134
1708437024.3785677,-2.1460795402526855,-1.334172399049141,-2.5241523424731653,6.118690240174093,1.0126572847366333,-2.3253939787494105
1708437024.3805645,-2.146066665649414,-1.334181160931923,-2.5241313616382044,6.11872278431014,1.0126160383224487,-2.3253939787494105
1708437024.3826156,-2.1460509300231934,-1.334230290060379,-2.5241058508502405,6.118710863381185,1.012603759765625,-2.3253985087024134
1708437024.3845594,-2.146066665649414,-1.3341767948916932,-2.5241149107562464,6.118697869568624,1.0126409530639648,-2.3254058996783655
1708437024.386541,-2.146062135696411,-1.3342005026391526,-2.5241358915912073,6.118682729988851,1.01265287399292,-2.3254104296313685
1708437024.3885365,-2.1460788249969482,-1.3341961365989228,-2.5240984598742884,6.118690240174093,1.01265287399292,-2.3253894487964075
1708437024.3905654,-2.1460509300231934,-1.3342391860536118,-2.524173084889547,6.1187054989631555,1.0126365423202515,-2.3254480997668665
1708437024.3925507,-2.146087646484375,-1.3341515970281144,-2.5240820089923304,6.118674027710714,1.0126452445983887,-2.3254058996783655
1708437024.39457,-2.146059513092041,-1.3342303943685074,-2.5241642634021204,6.118685948639669,1.0126615762710571,-2.3253894487964075
1708437024.3965383,-2.1460752487182617,-1.334251032476761,-2.5241404215442103,6.118702161103048,1.012624740600586,-2.3254316488849085
1708437024.3985596,-2.1460578441619873,-1.3342018288424988,-2.5241313616382044,6.118681657105245,1.0126290321350098,-2.32532769838442
1708437024.4005618,-2.146055221557617,-1.334156097178795,-2.524144951497213,6.11866973617629,1.0126452445983887,-2.325369898472921
1708437024.4025269,-2.146091938018799,-1.334181160931923,-2.524182144795553,6.1186574576194666,1.0126168727874756,-2.3254058996783655
1708437024.4045486,-2.1460509300231934,-1.3341798049262543,-2.5241223017321985,6.118718373566427,1.0126484632492065,-2.3254316488849085
1708437024.406565,-2.1460509300231934,-1.3341842156699677,-2.5241029898272913,6.1187184927757166,1.012603759765625,-2.3253517786609095
1708437024.4085517,-2.1461002826690674,-1.3341767650893708,-2.5241642634021204,6.118690240174093,1.0126365423202515,-2.3254359404193323
1708437024.4105434,-2.146104574203491,-1.3342137348702927,-2.524161402379171,6.118743407517233,1.01265287399292,-2.3254271189319056
1708437024.4125636,-2.1460509300231934,-1.334251032476761,-2.5241733233081263,6.118710982590475,1.0126944780349731,-2.3254104296313685
1708437024.4145567,-2.1460185050964355,-1.3341724288514634,-2.524161402379171,6.1187065718467615,1.0126659870147705,-2.3254526297198694
1708437024.4165514,-2.146087646484375,-1.3342050176909943,-2.5241313616382044,6.11869906166152,1.01265287399292,-2.3253610769854944
1708437024.4185424,-2.146087646484375,-1.334217147236206,-2.5241313616382044,6.11863254287795,1.0126690864562988,-2.325429979954855
1708437024.4205308,-2.1460914611816406,-1.3341724139503022,-2.5241404215442103,6.118681657105245,1.0126603841781616,-2.3254271189319056
1708437024.4225414,-2.1461002826690674,-1.3342050176909943,-2.5241165796863,6.118731486588278,1.0126571655273438,-2.3253820578204554
1708437024.424524,-2.146083354949951,-1.3341648441604157,-2.524149481450216,6.118674146920004,1.012603759765625,-2.3254104296313685
1708437024.4265358,-2.146070957183838,-1.3341766905835648,-2.5241239706622522,6.118648755341329,1.0126690864562988,-2.3254557291613978
1708437024.4285343,-2.146116018295288,-1.334213749771454,-2.5240820089923304,6.11866973617629,1.01265287399292,-2.325429979954855
1708437024.4305348,-2.1460752487182617,-1.3342379492572327,-2.5241239706622522,6.11866973617629,1.0126659870147705,-2.3254435698138636
1708437024.432578,-2.1460351943969727,-1.3341842603734513,-2.5241313616382044,6.11863254287795,1.0126409530639648,-2.3254225889789026
1708437024.4345462,-2.146083354949951,-1.334237889652588,-2.5241478125201624,6.118694650917806,1.0126124620437622,-2.3254058996783655
1708437024.4365528,-2.146066665649414,-1.3342422258904953,-2.5241358915912073,6.1186574576194666,1.0126659870147705,-2.325425450001852
1708437024.4385347,-2.146070957183838,-1.3342347306064148,-2.5242140928851526,6.1187065718467615,1.0126409530639648,-2.325446669255392
1708437024.4405572,-2.146083354949951,-1.33420184374366,-2.5241194407092493,6.1186784384544275,1.0126409530639648,-2.3253894487964075
1708437024.4425676,-2.1460795402526855,-1.334160478120186,-2.5240910688983362,6.118649947434225,1.0126571655273438,-2.3254058996783655
1708437024.4445424,-2.146083354949951,-1.3341560673764725,-2.5241764227496546,6.118648755341329,1.0126080513000488,-2.3254602591144007
1708437024.4465687,-2.1460957527160645,-1.334200532441475,-2.5241552034961146,6.118726002960958,1.0126571655273438,-2.3254390398608606
1708437024.4485877,-2.1460509300231934,-1.334209383731224,-2.524210755025045,6.11866973617629,1.0126497745513916,-2.3254602591144007
1708437024.4505389,-2.1460351943969727,-1.33420184374366,-2.5241058508502405,6.1186935780342,1.012677788734436,-2.325408999119894
1708437024.4525685,-2.146087646484375,-1.3341723692468186,-2.5241733233081263,6.118665325432577,1.0126290321350098,-2.3254104296313685
1708437024.4545646,-2.1460962295532227,-1.3341854971698304,-2.5241015593158167,6.118681657105245,1.012636661529541,-2.325467650090353
1708437024.4565403,-2.146062135696411,-1.3341234785369416,-2.5241103808032435,6.1186654446418665,1.0126159191131592,-2.3254721800433558
1708437024.4585655,-2.1460795402526855,-1.3341899526170273,-2.5241642634021204,6.1186784384544275,1.012624740600586,-2.3253923098193567
1708437024.4605443,-2.1460351943969727,-1.3342017990401764,-2.5241478125201624,6.1186654446418665,1.0125993490219116,-2.325442139302389
1708437024.462561,-2.146055221557617,-1.3341438186219712,-2.5241358915912073,6.118641245156088,1.0126497745513916,-2.3254180590258997
1708437024.4645412,-2.1460351943969727,-1.334176779990532,-2.5241194407092493,6.11866973617629,1.0126409530639648,-2.3254345099078577
1708437024.46653,-2.1460962295532227,-1.3341974329999466,-2.5241478125201624,6.118636834412374,1.0126659870147705,-2.325429979954855
1708437024.4685497,-2.146056652069092,-1.3341899377158661,-2.5241854826556605,6.118636834412374,1.0126452445983887,-2.3254180590258997
1708437024.4705567,-2.146052360534668,-1.3341811311296006,-2.5241687933551233,6.118721711426534,1.0126290321350098,-2.325451199208395
1708437024.4725773,-2.146066665649414,-1.334156112079956,-2.5241523424731653,6.11866973617629,1.0126080513000488,-2.3253968397723597
1708437024.4745622,-2.1460838317871094,-1.3341767650893708,-2.5241313616382044,6.118648755341329,1.012624740600586,-2.325458590184347
1708437024.476615,-2.146087646484375,-1.334209368830063,-2.5241432825671595,6.11866973617629,1.012624740600586,-2.3254767099963587
1708437024.478552,-2.146066665649414,-1.3341886860183259,-2.524161402379171,6.11866973617629,1.0126334428787231,-2.3254345099078577
1708437024.4805481,-2.146035671234131,-1.334147260790207,-2.5241268316852015,6.11860870102004,1.0126452445983887,-2.3254345099078577
1708437024.482541,-2.1460509300231934,-1.334185541873314,-2.5241764227496546,6.118681657105245,1.0126278400421143,-2.325451199208395
1708437024.4845767,-2.146104574203491,-1.3342422854951401,-2.5241764227496546,6.118690240174093,1.0126168727874756,-2.325429979954855
1708437024.4865463,-2.146070957183838,-1.3341930520585557,-2.5241552034961146,6.118648755341329,1.01265287399292,-2.3254390398608606
1708437024.4885554,-2.1461002826690674,-1.334172399049141,-2.5241642634021204,6.118677246361532,1.0126409530639648,-2.325425450001852
1708437024.4905365,-2.146063804626465,-1.334148259168007,-2.5241268316852015,6.118681657105245,1.0126452445983887,-2.325454060231344
1708437024.4925797,-2.1460464000701904,-1.3342542064240952,-2.5241268316852015,6.118682729988851,1.0126452445983887,-2.325484100972311
1708437024.4945517,-2.1460394859313965,-1.3341855269721528,-2.5241313616382044,6.118636834412374,1.0126168727874756,-2.325412098561422
1708437024.4965456,-2.146059513092041,-1.334225983624794,-2.5241687933551233,6.118689167290487,1.0126168727874756,-2.3254435698138636
1708437024.4985297,-2.146048069000244,-1.3341855269721528,-2.5241552034961146,6.1186784384544275,1.012648582458496,-2.325442139302389
1708437024.5005598,-2.1460437774658203,-1.3341974180987854,-2.5241718927966517,6.1187195656593225,1.0126690864562988,-2.325425450001852
1708437024.5026307,-2.146048069000244,-1.3342171174338837,-2.5241764227496546,6.1187184927757166,1.01265287399292,-2.325451199208395
1708437024.5049603,-2.146059513092041,-1.3341930520585557,-2.5241432825671595,6.118690240174093,1.012636661529541,-2.325458590184347
1708437024.507012,-2.146048069000244,-1.334218145614006,-2.5241809527026575,6.11869894245223,1.0126692056655884,-2.325475041066305
1708437024.5087187,-2.1460752487182617,-1.3341737401536484,-2.5241718927966517,6.118665325432577,1.0126409530639648,-2.32546312013735
1708437024.510893,-2.146048069000244,-1.3341767650893708,-2.5241358915912073,6.118666159897604,1.012624740600586,-2.325425450001852
1708437024.5125296,-2.1460509300231934,-1.3341322255185624,-2.5241478125201624,6.118687140732565,1.012648582458496,-2.325437609349386
1708437024.5145433,-2.146083354949951,-1.3342093986323853,-2.5241313616382044,6.118681657105245,1.0126452445983887,-2.325404469166891
1708437024.5165854,-2.146091938018799,-1.3342181903174897,-2.5241523424731653,6.118674027710714,1.0126615762710571,-2.325429979954855
1708437024.5185602,-2.146056652069092,-1.334200532441475,-2.5241642634021204,6.118685948639669,1.0126081705093384,-2.325458590184347
1708437024.520559,-2.146083354949951,-1.334201769237854,-2.5241974035846155,6.118645655899801,1.0126378536224365,-2.325451199208395
1708437024.5225785,-2.146091938018799,-1.3341930669597168,-2.5241552034961146,6.118731486588278,1.0126160383224487,-2.325446669255392
1708437024.5245593,-2.1460394859313965,-1.3341570657542725,-2.5241239706622522,6.11863254287795,1.0126571655273438,-2.325458590184347
1708437024.5266123,-2.146055221557617,-1.3342225861600419,-2.5241478125201624,6.118674027710714,1.0126452445983887,-2.325512711201803
1708437024.528566,-2.146083354949951,-1.3342303943685074,-2.5241523424731653,6.118620621948995,1.0126571655273438,-2.325475041066305
1708437024.5305417,-2.1460306644439697,-1.3341410917094727,-2.5241733233081263,6.118681657105245,1.0126124620437622,-2.325465981160299
1708437024.5325515,-2.146062135696411,-1.334164859061577,-2.5241058508502405,6.118759739189901,1.012677788734436,-2.325425450001852
1708437024.5345366,-2.1460509300231934,-1.334151641731598,-2.5242019335376185,6.11866973617629,1.0126734972000122,-2.325507942830221
1708437024.536563,-2.1460139751434326,-1.3342137199691315,-2.5241239706622522,6.118648755341329,1.012648582458496,-2.325496260319845
1708437024.5385466,-2.1460752487182617,-1.3341736805490036,-2.5241268316852015,6.118685948639669,1.01265287399292,-2.325425450001852
1708437024.5405786,-2.1460227966308594,-1.3341767352870484,-2.5241854826556605,6.118644583016195,1.01265287399292,-2.325496260319845
1708437024.542569,-2.1460795402526855,-1.3341811460307618,-2.5241687933551233,6.118697869568624,1.0126409530639648,-2.32546312013735
1708437024.5445411,-2.146055221557617,-1.334143878226616,-2.5241313616382044,6.11869906166152,1.0126334428787231,-2.325475041066305
1708437024.546564,-2.1460437774658203,-1.3342137348702927,-2.5241687933551233,6.118648755341329,1.01265287399292,-2.325467650090353
1708437024.5485635,-2.146063804626465,-1.3342181605151673,-2.5241358915912073,6.118633734970846,1.012636661529541,-2.325487200413839
1708437024.5505326,-2.146052360534668,-1.334193081860878,-2.5241642634021204,6.118636834412374,1.01265287399292,-2.325465981160299
1708437024.552555,-2.146091938018799,-1.3341767650893708,-2.5242062250720423,6.118690240174093,1.01265287399292,-2.325454060231344
1708437024.5545444,-2.146083354949951,-1.3341569763473053,-2.5241239706622522,6.118661033898153,1.012636661529541,-2.325454060231344
1708437024.5565536,-2.146070957183838,-1.3342018139413376,-2.5241764227496546,6.11866973617629,1.0126116275787354,-2.325465981160299
1708437024.5585468,-2.1461002826690674,-1.3342018139413376,-2.5241597334491175,6.118697869568624,1.0126497745513916,-2.325442139302389
1708437024.5605705,-2.146070957183838,-1.3341930520585557,-2.5241177717791956,6.118685948639669,1.0126116275787354,-2.325458590184347
1708437024.56254,-2.1460795402526855,-1.3341723692468186,-2.5241149107562464,6.118682729988851,1.012624740600586,-2.325503651295797
1708437024.564541,-2.1460509300231934,-1.3341767650893708,-2.5241478125201624,6.118702161103048,1.0126409530639648,-2.3254826704608362
1708437024.566551,-2.146088123321533,-1.3341516715339203,-2.5241597334491175,6.118669616967001,1.01265287399292,-2.32542854944338
1708437024.5685296,-2.146048069000244,-1.334169254904129,-2.524156634007589,6.11872278431014,1.012636661529541,-2.325433079396383
1708437024.5705445,-2.1460752487182617,-1.3341604632190247,-2.5241897741900843,6.11866973617629,1.012636661529541,-2.325475041066305
1708437024.5725725,-2.146066665649414,-1.3342181754163285,-2.5241268316852015,6.1186163304145715,1.0126497745513916,-2.325425450001852
1708437024.5745397,-2.146062135696411,-1.3341855269721528,-2.5241764227496546,6.118689167290487,1.0126452445983887,-2.325470511113302
1708437024.5766263,-2.1460185050964355,-1.3341560375741501,-2.5241900126086634,6.11872278431014,1.0126290321350098,-2.325461451207296
1708437024.5785453,-2.1460795402526855,-1.3341438484242936,-2.5241478125201624,6.118636953621664,1.0126378536224365,-2.325416628514425
1708437024.5805902,-2.1460795402526855,-1.334156097178795,-2.5241313616382044,6.11869906166152,1.0126571655273438,-2.325446669255392
1708437024.5825925,-2.146088123321533,-1.3342018288424988,-2.5241194407092493,6.118710863381185,1.0126168727874756,-2.325400177632467
1708437024.5845354,-2.146048069000244,-1.3342304092696686,-2.5241432825671595,6.1186784384544275,1.0126497745513916,-2.325487200413839
1708437024.5865388,-2.146091938018799,-1.3341438186219712,-2.5241552034961146,6.118653166085043,1.0126080513000488,-2.325449530278341
1708437024.588561,-2.1460227966308594,-1.334185541873314,-2.5241478125201624,6.118715274124899,1.0126203298568726,-2.3255112806903284
1708437024.5905304,-2.1460838317871094,-1.3341797900250931,-2.5241552034961146,6.118726002960958,1.0126290321350098,-2.325505081807272
1708437024.5925593,-2.14601469039917,-1.3341930669597168,-2.5241478125201624,6.118669616967001,1.012636661529541,-2.325454060231344
1708437024.5946136,-2.146059513092041,-1.3341648143580933,-2.5241523424731653,6.118636953621664,1.012621283531189,-2.325470511113302
1708437024.5965736,-2.146083354949951,-1.334213764672615,-2.5241313616382044,6.118685948639669,1.0126091241836548,-2.325484100972311
1708437024.5985498,-2.146048069000244,-1.3341516268304368,-2.5241387526141565,6.118666159897604,1.0125839710235596,-2.325458590184347
1708437024.6005626,-2.1460509300231934,-1.334164873962738,-2.524144713078634,6.118730294495382,1.0126452445983887,-2.325442139302389
1708437024.602537,-2.146048069000244,-1.3341811311296006,-2.5241313616382044,6.118727195053854,1.0126334428787231,-2.325449530278341
1708437024.604548,-2.1460795402526855,-1.334179849629738,-2.5241194407092493,6.118738996773519,1.0126168727874756,-2.3255232016192835
1708437024.6065571,-2.146048069000244,-1.3342215877822419,-2.524205032979147,6.118740188866415,1.0125958919525146,-2.325491730366842
1708437024.608578,-2.1460437774658203,-1.3342181158116837,-2.5241568724261683,6.118607628136434,1.0126203298568726,-2.325475041066305
1708437024.610547,-2.1460795402526855,-1.3342379492572327,-2.5240970293628138,6.118641245156088,1.0126047134399414,-2.325484100972311
1708437024.61255,-2.146048069000244,-1.3341393929770966,-2.5241223017321985,6.118648755341329,1.0126497745513916,-2.325470511113302
1708437024.6145544,-2.1460227966308594,-1.334188626413681,-2.5241432825671595,6.118697869568624,1.0126080513000488,-2.325475041066305
1708437024.6165864,-2.1460437774658203,-1.3341394078782578,-2.5241432825671595,6.118727195053854,1.0126627683639526,-2.325454060231344
1708437024.6185775,-2.146113157272339,-1.3341841858676453,-2.5241552034961146,6.118681657105245,1.0125972032546997,-2.325458590184347
1708437024.620549,-2.146055221557617,-1.334204987888672,-2.5241194407092493,6.118731486588278,1.012600302696228,-2.325465981160299
1708437024.6225593,-2.1460437774658203,-1.3341515523246308,-2.5241552034961146,6.118640172272482,1.0126047134399414,-2.325425450001852
1708437024.624591,-2.146052360534668,-1.3341366660645981,-2.5241523424731653,6.1187184927757166,1.0125764608383179,-2.325446669255392
1708437024.6265361,-2.1460962295532227,-1.3341692102006455,-2.5241809527026575,6.118685948639669,1.0126134157180786,-2.325425450001852
1708437024.6285758,-2.146083354949951,-1.3341767650893708,-2.5241568724261683,6.118623840599813,1.0125927925109863,-2.325442139302389
1708437024.6305702,-2.14601469039917,-1.3341526103070755,-2.5241268316852015,6.11866186836318,1.0125765800476074,-2.325454060231344
1708437024.6325595,-2.1460227966308594,-1.3342260283282776,-2.5241974035846155,6.118709790497579,1.012601613998413,-2.325454060231344
1708437024.6345499,-2.146063804626465,-1.334190012221672,-2.5241809527026575,6.118670451432028,1.012601613998413,-2.325500790272848
1708437024.6365578,-2.146070957183838,-1.3341604632190247,-2.5241809527026575,6.118707644730367,1.0125970840454102,-2.325454060231344
1708437024.6385489,-2.146070957183838,-1.3341930669597168,-2.5241358915912073,6.1186784384544275,1.0125148296356201,-2.325458590184347
1708437024.6405542,-2.14601469039917,-1.3342018139413376,-2.5241313616382044,6.118710982590475,1.012589693069458,-2.325470511113302
1708437024.6425583,-2.146027088165283,-1.3341560822776337,-2.5241597334491175,6.11869906166152,1.012568712234497,-2.325429979954855
1708437024.6445885,-2.1460227966308594,-1.3341736656478425,-2.5241568724261683,6.118710982590475,1.0125236511230469,-2.325442139302389
1708437024.6465986,-2.146055221557617,-1.3341648292592545,-2.5241687933551233,6.118669616967001,1.0125774145126343,-2.325479571019308
1708437024.648586,-2.1461005210876465,-1.3341410470059891,-2.5241029898272913,6.118685948639669,1.0125073194503784,-2.325467650090353
1708437024.6505806,-2.1460680961608887,-1.3341349375298996,-2.5241478125201624,6.118697869568624,1.0125361680984497,-2.325442139302389
1708437024.6525757,-2.146027088165283,-1.3341767650893708,-2.5241103808032435,6.11866973617629,1.0125479698181152,-2.325437609349386
1708437024.6545758,-2.146088123321533,-1.3342018735459824,-2.5241718927966517,6.118750917702474,1.012544870376587,-2.325437609349386
1708437024.6565616,-2.1460227966308594,-1.334218145614006,-2.5241478125201624,6.118702161103048,1.0125819444656372,-2.325465981160299
1708437024.6585376,-2.1460795402526855,-1.3342018139413376,-2.5241523424731653,6.1187184927757166,1.012556791305542,-2.325446669255392
1708437024.660554,-2.146031379699707,-1.3341886860183259,-2.5241387526141565,6.11863254287795,1.0125494003295898,-2.325484100972311
1708437024.662559,-2.1460680961608887,-1.334209368830063,-2.5241103808032435,6.1186163304145715,1.0125205516815186,-2.3254180590258997
1708437024.664544,-2.146063804626465,-1.334148259168007,-2.5241764227496546,6.118697869568624,1.0125324726104736,-2.325446669255392
1708437024.6665301,-2.146027088165283,-1.3341472011855622,-2.5241642634021204,6.118648755341329,1.0125367641448975,-2.325449530278341
1708437024.6685386,-2.1460394859313965,-1.3341723394444962,-2.5241239706622522,6.118750917702474,1.0125117301940918,-2.325467650090353
1708437024.6705523,-2.146055221557617,-1.3341437888196488,-2.5241568724261683,6.118714082032003,1.012574315071106,-2.3254345099078577
1708437024.6725364,-2.1460680961608887,-1.3341604483178635,-2.5241239706622522,6.118636834412374,1.0125117301940918,-2.325425450001852
1708437024.6745448,-2.1460723876953125,-1.3341855269721528,-2.524133030568258,6.118685948639669,1.0125324726104736,-2.325451199208395
1708437024.6766143,-2.1460723876953125,-1.3341692251018067,-2.5241194407092493,6.118674027710714,1.0125248432159424,-2.325467650090353
1708437024.6785648,-2.146056652069092,-1.3341394823840638,-2.5241313616382044,6.118636834412374,1.0125279426574707,-2.325451199208395
1708437024.6805758,-2.1460018157958984,-1.3341974479011078,-2.5241568724261683,6.118690240174093,1.0125043392181396,-2.325413529072897
1708437024.6825304,-2.146052360534668,-1.3341854971698304,-2.5242062250720423,6.1186163304145715,1.0125129222869873,-2.325413529072897
1708437024.6845381,-2.1460437774658203,-1.3341855269721528,-2.5240939299212855,6.118685948639669,1.0125205516815186,-2.3254435698138636
1708437024.686541,-2.1460061073303223,-1.3341811460307618,-2.5241642634021204,6.118636834412374,1.0125117301940918,-2.3254225889789026
1708437024.688545,-2.146059513092041,-1.3341526103070755,-2.5241568724261683,6.11866973617629,1.0125205516815186,-2.3254435698138636
1708437024.6905751,-2.1459901332855225,-1.334160478120186,-2.52417761484255,6.118674027710714,1.0125043392181396,-2.3254345099078577
1708437024.692557,-2.1460962295532227,-1.3341679287007828,-2.5241194407092493,6.118710982590475,1.012544870376587,-2.325408999119894
1708437024.6945534,-2.1460752487182617,-1.334184156065323,-2.5241239706622522,6.118685948639669,1.0124967098236084,-2.3254647890674036
1708437024.6965384,-2.146048069000244,-1.334209368830063,-2.5241478125201624,6.1186654446418665,1.0125656127929688,-2.3254435698138636
1708437024.6985514,-2.1460752487182617,-1.3341811460307618,-2.5241404215442103,6.118682729988851,1.0124837160110474,-2.3253849188434046
1708437024.7005515,-2.146056652069092,-1.3341899526170273,-2.5241568724261683,6.1187347052390955,1.0125099420547485,-2.325413529072897
1708437024.7025385,-2.146059513092041,-1.3341974329999466,-2.5241523424731653,6.118674027710714,1.0125043392181396,-2.325467650090353
1708437024.704558,-2.1460652351379395,-1.3341899526170273,-2.5241194407092493,6.1186444638069055,1.0124999284744263,-2.3253894487964075
1708437024.7065535,-2.146031379699707,-1.3342181158116837,-2.524128500615255,6.118666159897604,1.0125162601470947,-2.3254180590258997
1708437024.7085667,-2.146056652069092,-1.3341841858676453,-2.524194304143087,6.118710982590475,1.0125043392181396,-2.3254526297198694
1708437024.710535,-2.146031379699707,-1.3341930669597168,-2.5240865389453333,6.118641245156088,1.012426733970642,-2.3254194895373743
1708437024.7125406,-2.146088123321533,-1.3341767650893708,-2.524144951497213,6.118697869568624,1.0124726295471191,-2.32542854944338
1708437024.7145586,-2.146048069000244,-1.334173710351326,-2.524149481450216,6.118727075844564,1.0125086307525635,-2.3254104296313685
1708437024.7165306,-2.146059513092041,-1.3341648441604157,-2.5241358915912073,6.11872278431014,1.0125117301940918,-2.3254316488849085
1708437024.718531,-2.1460437774658203,-1.3341692102006455,-2.5241313616382044,6.118674027710714,1.0124880075454712,-2.3253684679614466
1708437024.7205708,-2.1460509300231934,-1.334160478120186,-2.524149243031637,6.11863254287795,1.0125129222869873,-2.3253985087024134
1708437024.7225454,-2.146070957183838,-1.3341767650893708,-2.5241358915912073,6.1186444638069055,1.0125086307525635,-2.3254316488849085
1708437024.7245312,-2.14601469039917,-1.3341855269721528,-2.5241194407092493,6.118661033898153,1.012521743774414,-2.325395647679464
1708437024.7265308,-2.146063804626465,-1.334147260790207,-2.5241478125201624,6.118674027710714,1.0124472379684448,-2.3254104296313685
1708437024.7285538,-2.1460227966308594,-1.3342106354287644,-2.5241358915912073,6.118674027710714,1.0125142335891724,-2.325369898472921
1708437024.7305517,-2.1460437774658203,-1.3342062693885346,-2.5241687933551233,6.118656742363729,1.0124647617340088,-2.3254030386554163
1708437024.7325635,-2.146048069000244,-1.3341974329999466,-2.5241642634021204,6.118697869568624,1.012481451034546,-2.3253820578204554
1708437024.734552,-2.1460795402526855,-1.334172399049141,-2.5241029898272913,6.118714082032003,1.0124231576919556,-2.3253653685199183
1708437024.736547,-2.146010398864746,-1.3341899824193497,-2.5241313616382044,6.1187195656593225,1.012444257736206,-2.3253911177264612
1708437024.738547,-2.146035671234131,-1.3341811460307618,-2.5240867773639124,6.1186935780342,1.0124858617782593,-2.3253911177264612
1708437024.7405374,-2.1460795402526855,-1.3342031103423615,-2.5241194407092493,6.118714082032003,1.0125261545181274,-2.325454060231344
1708437024.7425394,-2.146052360534668,-1.3341855269721528,-2.524128500615255,6.118648874550619,1.012481451034546,-2.32540733018984
1708437024.744543,-2.146070957183838,-1.3341930669597168,-2.5241194407092493,6.118690359383383,1.01239812374115,-2.325354878102438
1708437024.7465382,-2.146063804626465,-1.3341855269721528,-2.5241149107562464,6.118653166085043,1.0124485492706299,-2.32538348833193
1708437024.7485497,-2.146048069000244,-1.334160478120186,-2.524100128804342,6.118653166085043,1.012444257736206,-2.325353447590963
1708437024.7505546,-2.146070957183838,-1.3341855269721528,-2.5241029898272913,6.118697869568624,1.0124319791793823,-2.325353447590963
1708437024.7525916,-2.146055221557617,-1.334209368830063,-2.5241358915912073,6.118687140732565,1.0124319791793823,-2.325329367314474
1708437024.754556,-2.1460275650024414,-1.3341482293656846,-2.524112049733297,6.118681657105245,1.0124201774597168,-2.325329367314474
1708437024.7565682,-2.146048069000244,-1.3341262650540848,-2.5241194407092493,6.1187065718467615,1.0124485492706299,-2.325308386479513
1708437024.7585404,-2.1460795402526855,-1.334156097178795,-2.524121109639303,6.118715274124899,1.0124647617340088,-2.325345818196432
1708437024.7605705,-2.146052360534668,-1.3342268627933045,-2.5241149107562464,6.118628251343527,1.0124692916870117,-2.325345818196432
1708437024.7625768,-2.146059513092041,-1.3341974479011078,-2.5241029898272913,6.1187065718467615,1.0124485492706299,-2.3253052870379847
1708437024.764567,-2.1460752487182617,-1.3342137348702927,-2.5241165796863,6.118665325432577,1.0124573707580566,-2.325354878102438
1708437024.7665818,-2.146055221557617,-1.3341570359519501,-2.524112049733297,6.11866973617629,1.012444257736206,-2.325317446385519
1708437024.7685533,-2.146070957183838,-1.3341482293656846,-2.524133030568258,6.118690240174093,1.0124529600143433,-2.3252978960620325
1708437024.77055,-2.1460795402526855,-1.3341613721898575,-2.5240910688983362,6.118661033898153,1.0124038457870483,-2.3252602259265345
1708437024.7725744,-2.146059513092041,-1.3341394823840638,-2.524137560521261,6.118706452637472,1.0124573707580566,-2.325245205556051
1708437024.7745411,-2.1460795402526855,-1.334160478120186,-2.5240910688983362,6.11877595165328,1.0124529600143433,-2.3253279368029993
1708437024.776635,-2.1460437774658203,-1.334190012221672,-2.524100128804342,6.118656742363729,1.0124201774597168,-2.325245205556051
1708437024.7786117,-2.146063804626465,-1.3341410917094727,-2.524161402379171,6.118665325432577,1.0124244689941406,-2.32530385652651
1708437024.7805638,-2.146087646484375,-1.3341438484242936,-2.5241239706622522,6.118710863381185,1.0124319791793823,-2.3252902666675013
1708437024.7825933,-2.1460437774658203,-1.33413219571624,-2.524137560521261,6.11872278431014,1.012445092201233,-2.3252528349505823
1708437024.7845528,-2.1460061073303223,-1.3342062842896958,-2.5241165796863,6.118674027710714,1.0124156475067139,-2.325324837361471
1708437024.7865875,-2.1460723876953125,-1.3342062693885346,-2.524112049733297,6.118681657105245,1.0123919248580933,-2.325278345738546
1708437024.7885551,-2.146052360534668,-1.3341767650893708,-2.52405029932131,6.118653166085043,1.0124377012252808,-2.325282875691549
1708437024.7905478,-2.146066665649414,-1.3342018139413376,-2.524142090474264,6.11866973617629,1.0124201774597168,-2.325233284627096
1708437024.792577,-2.1460962295532227,-1.3341439080289383,-2.524069849644796,6.118702280312338,1.0124082565307617,-2.3252256552325647
1708437024.794546,-2.146059513092041,-1.3341900271228333,-2.5240867773639124,6.118722665100851,1.0124539136886597,-2.3252800146686
1708437024.7965636,-2.1460394859313965,-1.334230364566185,-2.524109188710348,6.118674027710714,1.0124244689941406,-2.325296465550558
1708437024.7985656,-2.1460723876953125,-1.3341394823840638,-2.524109188710348,6.118682729988851,1.0124082565307617,-2.325246874486105
1708437024.8006024,-2.146031379699707,-1.334210605626442,-2.524125639592306,6.1186784384544275,1.0124331712722778,-2.3252800146686
1708437024.8025627,-2.1460351943969727,-1.334176779990532,-2.524095598851339,6.118702161103048,1.0124006271362305,-2.325237814580099
1708437024.804558,-2.146087646484375,-1.3341811460307618,-2.524066750203268,6.118661033898153,1.0124213695526123,-2.325237814580099
1708437024.8065524,-2.1460752487182617,-1.3341453534415741,-2.5240803400622767,6.118648874550619,1.0123882293701172,-2.325270954762594
1708437024.8085632,-2.1460185050964355,-1.3341811460307618,-2.5240922609912317,6.118669616967001,1.012351155281067,-2.32525879541506
1708437024.810553,-2.1460351943969727,-1.3342181158116837,-2.5240967909442347,6.11872278431014,1.0123794078826904,-2.32525879541506
1708437024.8125844,-2.1460437774658203,-1.3341942739537735,-2.524071280156271,6.118727195053854,1.0124094486236572,-2.325221125279562
1708437024.8145509,-2.1460189819335938,-1.334132270222046,-2.5240922609912317,6.118666159897604,1.012376308441162,-2.325263325368063
1708437024.8165793,-2.146048069000244,-1.3341410917094727,-2.524087731038229,6.118653046875753,1.0124257802963257,-2.325233284627096
1708437024.8185465,-2.1460464000701904,-1.3342137348702927,-2.524100128804342,6.118738996773519,1.0123882293701172,-2.3252559343921106
1708437024.8205585,-2.1461048126220703,-1.3342018139413376,-2.5240848700152796,6.118738996773519,1.0123674869537354,-2.3252678553210657
1708437024.8225703,-2.146052360534668,-1.3341570657542725,-2.5240893999682825,6.1186654446418665,1.0123720169067383,-2.3252514044391077
1708437024.824569,-2.1460394859313965,-1.3341692251018067,-2.5240803400622767,6.118690240174093,1.012331485748291,-2.3252301851855677
1708437024.8265676,-2.1461174488067627,-1.3341570657542725,-2.5240429083453577,6.118694770127096,1.0124012231826782,-2.3252256552325647
1708437024.828574,-2.1460306644439697,-1.3341855120709916,-2.5240758101092737,6.118730413704672,1.0123836994171143,-2.3252301851855677
1708437024.8305457,-2.1460795402526855,-1.3342225414565583,-2.5241013208972376,6.118674027710714,1.0123674869537354,-2.3252392450915735
1708437024.8325691,-2.146055221557617,-1.3342149418643494,-2.5240893999682825,6.118685948639669,1.012352466583252,-2.3252301851855677
1708437024.8345535,-2.1460838317871094,-1.334156097178795,-2.5240355173694056,6.1187054989631555,1.0123850107192993,-2.3252137343036097
1708437024.8365757,-2.1460752487182617,-1.334123508339264,-2.5240684191333216,6.118625032692709,1.0123882293701172,-2.325278345738546
1708437024.8385606,-2.146088123321533,-1.3341855269721528,-2.5240729490863245,6.118685948639669,1.012392520904541,-2.325216595326559
1708437024.8405676,-2.1460838317871094,-1.3342105609229584,-2.5240610281573694,6.1187065718467615,1.012392520904541,-2.3251972834216517
1708437024.8425715,-2.1460185050964355,-1.3341974479011078,-2.5240893999682825,6.118656742363729,1.0123969316482544,-2.3252392450915735
1708437024.8445528,-2.146087646484375,-1.3341438186219712,-2.5240638891803187,6.118706452637472,1.0123686790466309,-2.325212065373556
1708437024.8465583,-2.1460437774658203,-1.3342225712588807,-2.5241146723376673,6.11863254287795,1.0123600959777832,-2.3252678553210657
1708437024.8485515,-2.146063804626465,-1.3341811460307618,-2.5240309874164026,6.118709790497579,1.0123481750488281,-2.325183693562643
1708437024.8505676,-2.146059513092041,-1.3341692251018067,-2.5240188280688685,6.1186784384544275,1.0123358964920044,-2.325233284627096
1708437024.8525574,-2.146070957183838,-1.3341974479011078,-2.5240519682513636,6.1186784384544275,1.012376308441162,-2.3252018133746546
1708437024.854547,-2.146088123321533,-1.3341410917094727,-2.5240188280688685,6.118730413704672,1.0123937129974365,-2.3252301851855677
1708437024.8565743,-2.1461217403411865,-1.3341482293656846,-2.5240445772754114,6.118697869568624,1.0123732089996338,-2.3252559343921106
1708437024.858541,-2.146027088165283,-1.334225983624794,-2.5240445772754114,6.11866973617629,1.012376308441162,-2.325246874486105
1708437024.8605301,-2.146055221557617,-1.3341692251018067,-2.5240519682513636,6.118653166085043,1.0123969316482544,-2.3252137343036097
1708437024.8625436,-2.146059513092041,-1.3342268627933045,-2.5240264574633997,6.118709790497579,1.0123775005340576,-2.3251972834216517
1708437024.8645592,-2.146087646484375,-1.3341930669597168,-2.5240188280688685,6.118674027710714,1.0123445987701416,-2.3252514044391077
1708437024.8665612,-2.146048069000244,-1.3341899824193497,-2.5240159670459192,6.118645655899801,1.012352466583252,-2.325221125279562
1708437024.8685477,-2.146062135696411,-1.3341482293656846,-2.5240400473224085,6.118668663292684,1.0123153924942017,-2.3252347151385706
1708437024.87055,-2.146059513092041,-1.3341986399940033,-2.5240355173694056,6.118702161103048,1.0123480558395386,-2.325263325368063
1708437024.872569,-2.146059513092041,-1.3341930669597168,-2.5240278879748743,6.118697869568624,1.012331485748291,-2.3252137343036097
1708437024.8745794,-2.1460351943969727,-1.3342105609229584,-2.5240278879748743,6.118653166085043,1.0122944116592407,-2.3252137343036097
1708437024.8766103,-2.1460139751434326,-1.3341438484242936,-2.5240114370929163,6.118714082032003,1.0123732089996338,-2.3252137343036097
1708437024.8785987,-2.146063804626465,-1.3341855269721528,-2.5239902178393763,6.118750917702474,1.0123686790466309,-2.3252301851855677
1708437024.8805792,-2.146048069000244,-1.3342018139413376,-2.523999277745382,6.11866973617629,1.0123612880706787,-2.3252769152270716
1708437024.8825722,-2.146063804626465,-1.3341248047402878,-2.524008337651388,6.118685948639669,1.0123775005340576,-2.32525879541506
1708437024.8845532,-2.146031379699707,-1.3341692251018067,-2.5239737669574183,6.118681657105245,1.0123568773269653,-2.3252301851855677
1708437024.8865519,-2.146059513092041,-1.3342062842896958,-2.5240159670459192,6.118681657105245,1.012376308441162,-2.3251927534686487
1708437024.888585,-2.1460227966308594,-1.3341692251018067,-2.5240114370929163,6.118666159897604,1.012352466583252,-2.3252227942096155
1708437024.8905647,-2.1460437774658203,-1.3341986399940033,-2.5240536371814173,6.118677246361532,1.0123283863067627,-2.3252182642566126
1708437024.8925533,-2.1460437774658203,-1.3341692251018067,-2.5240159670459192,6.1186574576194666,1.0123612880706787,-2.3252301851855677
1708437024.894566,-2.1460795402526855,-1.3341526103070755,-2.5240114370929163,6.118714082032003,1.0123196840286255,-2.3252182642566126
1708437024.8965435,-2.1460838317871094,-1.3341767650893708,-2.523978296910421,6.118681657105245,1.0123686790466309,-2.3252182642566126
1708437024.8985465,-2.146031379699707,-1.334160478120186,-2.5240278879748743,6.11863254287795,1.0123445987701416,-2.325204674397604
1708437024.9005756,-2.146048069000244,-1.3341526103070755,-2.5240445772754114,6.118714082032003,1.012303113937378,-2.325221125279562
1708437024.902566,-2.146031379699707,-1.3341394823840638,-2.523987356816427,6.118654238968649,1.0123403072357178,-2.3252256552325647
1708437024.904587,-2.1460795402526855,-1.3341855269721528,-2.5240114370929163,6.118641245156088,1.0123730897903442,-2.3252227942096155
1708437024.9065554,-2.146055221557617,-1.3341438484242936,-2.524003807698385,6.118645655899801,1.012352466583252,-2.3252182642566126
1708437024.9085565,-2.146104574203491,-1.3341767650893708,-2.5240324179278772,6.11863254287795,1.0123403072357178,-2.3252092043506067
1708437024.9105475,-2.146031379699707,-1.3341570657542725,-2.523999277745382,6.118665325432577,1.0123358964920044,-2.3252273241626185
1708437024.9125535,-2.1460394859313965,-1.3341942739537735,-2.5240071455584925,6.118697869568624,1.012319564819336,-2.3252392450915735
1708437024.9145477,-2.1461005210876465,-1.334209368830063,-2.5240491072284144,6.118681657105245,1.012319564819336,-2.3252514044391077
1708437024.916552,-2.146059513092041,-1.3341886860183259,-2.5240114370929163,6.118621694832601,1.0123445987701416,-2.325275484715597
1708437024.9185255,-2.146087646484375,-1.3341438484242936,-2.5240159670459192,6.118685948639669,1.012319564819336,-2.3252182642566126
1708437024.9205513,-2.146048069000244,-1.3342018139413376,-2.524020496998922,6.11872278431014,1.0123118162155151,-2.3252256552325647
1708437024.922544,-2.1460061073303223,-1.3341930669597168,-2.524057928715841,6.118731486588278,1.0123730897903442,-2.325237814580099
1708437024.9245741,-2.146055221557617,-1.3342062842896958,-2.5240159670459192,6.1187065718467615,1.0123775005340576,-2.3252392450915735
1708437024.926531,-2.1461288928985596,-1.3342063140920182,-2.5240324179278772,6.118690240174093,1.0123075246810913,-2.32517916360964
1708437024.928546,-2.146059513092041,-1.3341974479011078,-2.5240159670459192,6.118674027710714,1.0123403072357178,-2.3252018133746546
1708437024.930544,-2.1460962295532227,-1.3341526103070755,-2.52399188676943,6.1186935780342,1.0123240947723389,-2.325246874486105
1708437024.9325435,-2.146063804626465,-1.3342137348702927,-2.52399188676943,6.1186935780342,1.0123358964920044,-2.3252347151385706
1708437024.934542,-2.1460680961608887,-1.3341974479011078,-2.5240159670459192,6.118674027710714,1.0123196840286255,-2.3252182642566126
1708437024.9365509,-2.146056652069092,-1.3341701936772843,-2.5240536371814173,6.118681537895956,1.0123491287231445,-2.3252347151385706
1708437024.938558,-2.146063804626465,-1.3341942739537735,-2.524045769368307,6.118661033898153,1.012364387512207,-2.3252092043506067
1708437024.940547,-2.1460394859313965,-1.3341438484242936,-2.5239902178393763,6.1186935780342,1.0123775005340576,-2.3252301851855677
1708437024.9425669,-2.1460185050964355,-1.3342018139413376,-2.523999277745382,6.118645655899801,1.0123029947280884,-2.3252092043506067
1708437024.944572,-2.146066665649414,-1.3341657233289261,-2.5240114370929163,6.118666159897604,1.0123730897903442,-2.3252604643451136
1708437024.9465508,-2.146070957183838,-1.3341570657542725,-2.524057928715841,6.118636834412374,1.0123403072357178,-2.3251896540271204
1708437024.948552,-2.1460189819335938,-1.3341526103070755,-2.523961846028463,6.1187065718467615,1.0123491287231445,-2.3252018133746546
1708437024.9505444,-2.146052360534668,-1.3342181158116837,-2.524025026951925,6.118685948639669,1.0123568773269653,-2.325204674397604
1708437024.9525354,-2.146088123321533,-1.3341736805490036,-2.5240114370929163,6.118715274124899,1.0123153924942017,-2.3251941839801233
1708437024.9545655,-2.146048069000244,-1.3341767650893708,-2.524025026951925,6.118633615761556,1.0123075246810913,-2.3252108732806605
1708437024.956543,-2.146048069000244,-1.334190012221672,-2.523996416722433,6.118697869568624,1.0123403072357178,-2.3252437750445765
1708437024.9585543,-2.1460609436035156,-1.3341526103070755,-2.5239785353290003,6.118648755341329,1.012352466583252,-2.3252273241626185
1708437024.9605463,-2.1461000442504883,-1.3341438186219712,-2.524041477833883,6.11872278431014,1.012353539466858,-2.3252137343036097
1708437024.9625728,-2.146048069000244,-1.3341322553208848,-2.5240278879748743,6.118727195053854,1.0123283863067627,-2.3252227942096155
1708437024.9645672,-2.146083354949951,-1.3341823530248185,-2.523994747792379,6.118702161103048,1.0123240947723389,-2.3251851240741175
1708437024.9665513,-2.1460752487182617,-1.334194303756096,-2.524029556904928,6.118665325432577,1.0123358964920044,-2.3252108732806605
1708437024.9685488,-2.146055221557617,-1.334160478120186,-2.5240324179278772,6.118648755341329,1.0123491287231445,-2.3251851240741175
1708437024.9705489,-2.146063804626465,-1.3341648441604157,-2.5240610281573694,6.118687021523275,1.0123863220214844,-2.3252273241626185
1708437024.9725523,-2.146083354949951,-1.3341899824193497,-2.523987356816427,6.118715274124899,1.0123283863067627,-2.3251732031451624
1708437024.9745615,-2.146087646484375,-1.3341657233289261,-2.524012867604391,6.118681537895956,1.0123283863067627,-2.3251519838916224
1708437024.9765828,-2.146027088165283,-1.3341482293656846,-2.524008337651388,6.118636834412374,1.0123403072357178,-2.3251896540271204
1708437024.9786022,-2.146070957183838,-1.3341438186219712,-2.5239902178393763,6.1186784384544275,1.0123283863067627,-2.3251641432391565
1708437024.9805765,-2.146059513092041,-1.3341410917094727,-2.523999277745382,6.1186444638069055,1.0123283863067627,-2.3252318541156214
1708437024.982553,-2.1460752487182617,-1.3341526103070755,-2.5240324179278772,6.118674027710714,1.0123445987701416,-2.3251777330981653
1708437024.9845526,-2.1460752487182617,-1.3341613572886963,-2.524008337651388,6.118714082032003,1.012315273284912,-2.3251851240741175
1708437024.986553,-2.146070957183838,-1.3341410917094727,-2.524020496998922,6.118690359383383,1.012352466583252,-2.3251851240741175
1708437024.9886932,-2.146031379699707,-1.3341736805490036,-2.5240159670459192,6.118682729988851,1.0123283863067627,-2.3252199331866663
1708437024.9905455,-2.1460962295532227,-1.3341525954059144,-2.524025026951925,6.118702161103048,1.0123283863067627,-2.3251777330981653
1708437024.992585,-2.146063804626465,-1.3341942739537735,-2.523999277745382,6.118715274124899,1.0123118162155151,-2.3252018133746546
1708437024.9945474,-2.1460061073303223,-1.33420184374366,-2.524003807698385,6.11866973617629,1.0123240947723389,-2.325165573750631
1708437024.99656,-2.146088123321533,-1.3341322255185624,-2.5239740053759974,6.118697869568624,1.012349009513855,-2.325203243886129
1708437024.9985497,-2.146031379699707,-1.3341942739537735,-2.524041239415304,6.118674027710714,1.0123445987701416,-2.3251565138446253
1708437025.0005589,-2.146087646484375,-1.3341942739537735,-2.5240114370929163,6.11869906166152,1.0123612880706787,-2.3252137343036097
1708437025.0025413,-2.146070957183838,-1.3342225712588807,-2.5240536371814173,6.1186773655708215,1.012332797050476,-2.3252227942096155
1708437025.0045652,-2.146052360534668,-1.3341438484242936,-2.5240159670459192,6.118714082032003,1.0123196840286255,-2.3251941839801233
1708437025.006552,-2.146070957183838,-1.3341613572886963,-2.524008337651388,6.11872278431014,1.012319564819336,-2.3252227942096155
1708437025.008563,-2.14601469039917,-1.3341115874103089,-2.523996416722433,6.118665325432577,1.0123283863067627,-2.325153652821676
1708437025.010537,-2.1460394859313965,-1.3341438484242936,-2.524025026951925,6.11869906166152,1.012349009513855,-2.3251777330981653
1708437025.0125637,-2.146031379699707,-1.33420184374366,-2.523970905934469,6.118648755341329,1.0122942924499512,-2.3251896540271204
1708437025.014551,-2.146048069000244,-1.3341855269721528,-2.523994747792379,6.118641245156088,1.012295126914978,-2.3251777330981653
1708437025.0165563,-2.1460680961608887,-1.3341613572886963,-2.523982826863424,6.118677246361532,1.0123240947723389,-2.325149122868673
1708437025.018554,-2.1460838317871094,-1.3341736805490036,-2.5240159670459192,6.118648755341329,1.0123937129974365,-2.3251777330981653
1708437025.0205472,-2.146091938018799,-1.3341081750443955,-2.523999277745382,6.1186654446418665,1.0123040676116943,-2.325174633656637
1708437025.0225494,-2.1460752487182617,-1.3341570657542725,-2.5239902178393763,6.118690359383383,1.012315273284912,-2.3251987139331263
1708437025.0245655,-2.146059513092041,-1.334190012221672,-2.5240536371814173,6.118641245156088,1.012332797050476,-2.325174633656637
1708437025.0265622,-2.1460723876953125,-1.3341823828271409,-2.524008337651388,6.118652570038595,1.0122942924499512,-2.325153652821676
1708437025.0285504,-2.146091938018799,-1.3341570657542725,-2.5240445772754114,6.118674027710714,1.0123403072357178,-2.3251777330981653
1708437025.0305393,-2.146027088165283,-1.3341899824193497,-2.5240324179278772,6.118690240174093,1.0123240947723389,-2.32514459291567
1708437025.0325477,-2.146063804626465,-1.3342104864171525,-2.523975435887472,6.11866973617629,1.0123611688613892,-2.3251987139331263
1708437025.0345497,-2.14601469039917,-1.3341366362622757,-2.5240324179278772,6.118702161103048,1.0123196840286255,-2.325087610875265
1708437025.0365994,-2.146052360534668,-1.3342313033393403,-2.5240159670459192,6.118674027710714,1.0123196840286255,-2.325129572545187
1708437025.038556,-2.146027088165283,-1.3341692102006455,-2.523999277745382,6.118677246361532,1.012303113937378,-2.325195852910177
1708437025.0405731,-2.1460509300231934,-1.3341410768083115,-2.524045769368307,6.118674027710714,1.0123283863067627,-2.325191322957174
1708437025.0425413,-2.146010398864746,-1.3341736805490036,-2.524025026951925,6.118731486588278,1.0123118162155151,-2.325153652821676
1708437025.044557,-2.146070957183838,-1.3341736805490036,-2.5240114370929163,6.1186784384544275,1.0123358964920044,-2.325141731892721
1708437025.0465505,-2.146048069000244,-1.3341234487346192,-2.523996416722433,6.118690240174093,1.0123358964920044,-2.325153652821676
1708437025.048593,-2.1460838317871094,-1.3341692251018067,-2.523982826863424,6.118697988777914,1.0123358964920044,-2.325174633656637
1708437025.0505514,-2.146063804626465,-1.3341203343919297,-2.5240159670459192,6.118685948639669,1.0123358964920044,-2.325128142033712
1708437025.052595,-2.146063804626465,-1.3341648441604157,-2.524020496998922,6.118685948639669,1.0123240947723389,-2.325186793004171
1708437025.0545566,-2.1460437774658203,-1.3341497641852875,-2.5240445772754114,6.118697869568624,1.0123283863067627,-2.325174633656637
1708437025.0565593,-2.146048069000244,-1.3341899824193497,-2.523987356816427,6.118681657105245,1.0123611688613892,-2.325146261845724
1708437025.058562,-2.1460752487182617,-1.3341526103070755,-2.523987356816427,6.118738996773519,1.0123445987701416,-2.325170103703634
1708437025.0605593,-2.146070957183838,-1.3341692251018067,-2.524025026951925,6.118685948639669,1.0123732089996338,-2.325174633656637
1708437025.0625737,-2.1460509300231934,-1.334116892223694,-2.523999277745382,6.11869906166152,1.0123074054718018,-2.325174633656637
1708437025.0645583,-2.1460275650024414,-1.3341648441604157,-2.524025026951925,6.118702161103048,1.0123403072357178,-2.325137201939718
1708437025.0665925,-2.146031379699707,-1.3341855269721528,-2.524057928715841,6.118685948639669,1.0123611688613892,-2.325170103703634
1708437025.0685716,-2.1460838317871094,-1.3341855269721528,-2.524003807698385,6.118709790497579,1.0123445987701416,-2.325174633656637
1708437025.0705807,-2.146063804626465,-1.3341366064599534,-2.5240159670459192,6.1186444638069055,1.0123611688613892,-2.325141731892721
1708437025.0725806,-2.1461005210876465,-1.3341247749379654,-2.52403694788088,6.11866973617629,1.0123283863067627,-2.325162712727682
1708437025.0745492,-2.1460795402526855,-1.3341780018857499,-2.524008337651388,6.118697869568624,1.0123568773269653,-2.325171772633688
1708437025.0765507,-2.146031379699707,-1.3341453683427353,-2.523987356816427,6.118706452637472,1.0123316049575806,-2.325120512639181
1708437025.0786035,-2.1460394859313965,-1.3340873581222077,-2.5240159670459192,6.118653046875753,1.012282133102417,-2.325153652821676
1708437025.080591,-2.1460399627685547,-1.334190012221672,-2.523987356816427,6.118665325432577,1.012320637702942,-2.325170103703634
1708437025.0826304,-2.1460394859313965,-1.3341855269721528,-2.524062458668844,6.118685948639669,1.0123075246810913,-2.325137201939718
1708437025.084569,-2.1460437774658203,-1.3341526103070755,-2.524008337651388,6.118613111763754,1.0123701095581055,-2.325153652821676
1708437025.0865529,-2.14601469039917,-1.3341570657542725,-2.5240536371814173,6.1186784384544275,1.0123283863067627,-2.325137201939718
1708437025.0885413,-2.1460962295532227,-1.3341248047402878,-2.5240159670459192,6.118656742363729,1.0123403072357178,-2.3251822630511683
1708437025.0905366,-2.1461002826690674,-1.3341613721898575,-2.5239902178393763,6.1187195656593225,1.0123118162155151,-2.325165573750631
1708437025.0925584,-2.1460752487182617,-1.3341570657542725,-2.5240159670459192,6.118653166085043,1.0123240947723389,-2.325083080922262
1708437025.0945768,-2.146083354949951,-1.3341736656478425,-2.52403694788088,6.118677246361532,1.0123240947723389,-2.325150791798727
1708437025.096589,-2.146087646484375,-1.3341438484242936,-2.524003807698385,6.118674027710714,1.0123568773269653,-2.325141731892721
1708437025.0985446,-2.145998954772949,-1.3342031699470063,-2.524003807698385,6.118697869568624,1.0123240947723389,-2.325125042592184
1708437025.1005874,-2.1460752487182617,-1.3341526103070755,-2.523970905934469,6.1187184927757166,1.0122952461242676,-2.325191322957174
1708437025.102559,-2.146052360534668,-1.3341613572886963,-2.5240159670459192,6.118682849198141,1.0123403072357178,-2.325170103703634
1708437025.1045449,-2.1460351943969727,-1.334120274787285,-2.524025026951925,6.1186935780342,1.0123611688613892,-2.325186793004171
1708437025.106596,-2.146048069000244,-1.334161327486374,-2.52403694788088,6.118681657105245,1.0123283863067627,-2.325162712727682
1708437025.1085842,-2.1460227966308594,-1.3341779720834275,-2.523999277745382,6.118648755341329,1.0123686790466309,-2.325153652821676
1708437025.1105545,-2.1460962295532227,-1.334141121511795,-2.5240820089923304,6.118674027710714,1.0122987031936646,-2.325158182774679
1708437025.1126096,-2.1460061073303223,-1.3341453832438965,-2.52403694788088,6.118674027710714,1.0123445987701416,-2.325153652821676
1708437025.114544,-2.1460680961608887,-1.3341613572886963,-2.524003807698385,6.118718373566427,1.0123481750488281,-2.325186793004171
1708437025.1165633,-2.146059513092041,-1.3341525805047532,-2.5240610281573694,6.11866973617629,1.0123445987701416,-2.325125042592184
1708437025.1185691,-2.1460680961608887,-1.3341482293656846,-2.5240491072284144,6.118670451432028,1.0123599767684937,-2.325158182774679
1708437025.120584,-2.14601469039917,-1.334152565603592,-2.524020496998922,6.118710863381185,1.0123775005340576,-2.325167242680685
1708437025.1225617,-2.146066665649414,-1.3341811162284394,-2.5240491072284144,6.118625986367025,1.0123403072357178,-2.32517916360964
1708437025.1245663,-2.1460394859313965,-1.3341438633254548,-2.5240114370929163,6.118722665100851,1.0123481750488281,-2.325191322957174
1708437025.1265666,-2.1460723876953125,-1.3341570359519501,-2.524003807698385,6.118685948639669,1.012303113937378,-2.325191322957174
1708437025.1285493,-2.146059513092041,-1.3341525954059144,-2.523982826863424,6.118702161103048,1.0123612880706787,-2.325191322957174
1708437025.130605,-2.146035671234131,-1.3341736954501648,-2.5240491072284144,6.118690240174093,1.0123775005340576,-2.325108830128805
1708437025.1325598,-2.146031379699707,-1.3341570657542725,-2.5239785353290003,6.118722665100851,1.0123316049575806,-2.325146261845724
1708437025.134538,-2.1460394859313965,-1.3341736805490036,-2.524003807698385,6.118707644730367,1.0123358964920044,-2.325108591710226
1708437025.136562,-2.146048069000244,-1.3341497492841263,-2.523999277745382,6.118641245156088,1.0123240947723389,-2.325150791798727
1708437025.1385336,-2.146063804626465,-1.3341570657542725,-2.5240491072284144,6.118649947434225,1.0123686790466309,-2.325212303792135
1708437025.1405945,-2.1460838317871094,-1.3341570806554337,-2.524008337651388,6.118641245156088,1.012352466583252,-2.325149122868673
1708437025.142567,-2.146083354949951,-1.334133507018425,-2.5240069071399134,6.118687140732565,1.0123686790466309,-2.325188223515646
1708437025.1445735,-2.1460437774658203,-1.3341701489738007,-2.524008337651388,6.118620621948995,1.012364387512207,-2.32517916360964
1708437025.146569,-2.1460351943969727,-1.3341570806554337,-2.5240700880633753,6.118670451432028,1.0123568773269653,-2.32509953180422
1708437025.1485503,-2.146055221557617,-1.3341279339841385,-2.5240069071399134,6.11866186836318,1.0123481750488281,-2.325141731892721
1708437025.150579,-2.1460795402526855,-1.3341497492841263,-2.524041239415304,6.118575918465414,1.0123611688613892,-2.32517916360964
1708437025.1525779,-2.146052360534668,-1.3341248047402878,-2.524012867604391,6.118682729988851,1.0123850107192993,-2.325191322957174
1708437025.1545668,-2.146059513092041,-1.3341899377158661,-2.5239902178393763,6.1186574576194666,1.0123556852340698,-2.325174633656637
1708437025.1565812,-2.1460680961608887,-1.3341526252082367,-2.5240188280688685,6.118641245156088,1.012380599975586,-2.325125042592184
1708437025.158561,-2.1460227966308594,-1.334103838806488,-2.5239902178393763,6.118645655899801,1.012380599975586,-2.32517916360964
1708437025.1605506,-2.146052360534668,-1.3341736507466813,-2.5240324179278772,6.11866186836318,1.0124051570892334,-2.325183693562643
1708437025.1625967,-2.146059513092041,-1.3341570359519501,-2.52403694788088,6.118674862175741,1.0123969316482544,-2.325167242680685
1708437025.1645331,-2.146070957183838,-1.3341482442668458,-2.52403694788088,6.118645655899801,1.0123229026794434,-2.325183693562643
1708437025.166547,-2.1460351943969727,-1.3341723841479798,-2.5240536371814173,6.118636834412374,1.0123848915100098,-2.325212303792135
1708437025.1685295,-2.1460437774658203,-1.3341366809657593,-2.5240069071399134,6.11866186836318,1.012339472770691,-2.325116221104757
1708437025.170534,-2.1460962295532227,-1.334177942281105,-2.5239902178393763,6.118719446450033,1.012413740158081,-2.32515532175173
1708437025.1725411,-2.146063804626465,-1.3341160428575058,-2.5240653196917933,6.118690240174093,1.0123556852340698,-2.325150791798727
1708437025.1745307,-2.146091938018799,-1.3341453832438965,-2.52403694788088,6.11863802650527,1.012392520904541,-2.325170103703634
1708437025.176571,-2.1460962295532227,-1.3341496747783204,-2.524003807698385,6.118665325432577,1.0123568773269653,-2.325167242680685
1708437025.1785965,-2.146070957183838,-1.3341497790864487,-2.523994747792379,6.118674862175741,1.012380599975586,-2.325158182774679
1708437025.180573,-2.146091938018799,-1.334095062022545,-2.5240610281573694,6.118629324227133,1.0123558044433594,-2.325153652821676
1708437025.1825662,-2.146031379699707,-1.3341899526170273,-2.5240069071399134,6.118636953621664,1.0123600959777832,-2.325137201939718
1708437025.1845498,-2.1460437774658203,-1.3341248047402878,-2.524025026951925,6.118609535485067,1.012364387512207,-2.325158182774679
1708437025.1865623,-2.146063804626465,-1.3341411364129563,-2.5240610281573694,6.11866973617629,1.012380599975586,-2.325153652821676
1708437025.1885457,-2.146059513092041,-1.3341911298087616,-2.5239902178393763,6.118609535485067,1.0123969316482544,-2.325167242680685
1708437025.1905687,-2.1460399627685547,-1.3341291409781952,-2.5240159670459192,6.11863802650527,1.0123720169067383,-2.325141731892721
1708437025.1925695,-2.146059513092041,-1.3341290813735505,-2.5240069071399134,6.118666159897604,1.0123512744903564,-2.3251987139331263
1708437025.194532,-2.1460838317871094,-1.3341081154397507,-2.5240142981158655,6.118605243950643,1.012380599975586,-2.325191322957174
1708437025.1966074,-2.1460394859313965,-1.3341570806554337,-2.5240491072284144,6.118649947434225,1.012380599975586,-2.325170103703634
1708437025.198529,-2.1460680961608887,-1.334231124525406,-2.5240278879748743,6.118645655899801,1.0123674869537354,-2.325149122868673
1708437025.2005365,-2.1460394859313965,-1.3341124665788193,-2.5240491072284144,6.118597733765402,1.0124094486236572,-2.325204912816183
1708437025.2025285,-2.1460351943969727,-1.3341482293656846,-2.5240026156054896,6.118641245156088,1.0123720169067383,-2.3251896540271204
1708437025.2045834,-2.146052360534668,-1.3341648143580933,-2.5240610281573694,6.118703233986654,1.0123794078826904,-2.325149122868673
1708437025.2065582,-2.1460795402526855,-1.3341350120357056,-2.5240400473224085,6.118584739952841,1.0123794078826904,-2.32514459291567
1708437025.2086225,-2.1460838317871094,-1.3341779571822663,-2.5240026156054896,6.1186455366905115,1.0124094486236572,-2.325167242680685
1708437025.2105508,-2.1460139751434326,-1.3341453683427353,-2.5240610281573694,6.11863802650527,1.0124331712722778,-2.325186793004171
1708437025.212569,-2.1460399627685547,-1.3341692102006455,-2.5240400473224085,6.118620741158285,1.012416958808899,-2.325146261845724
1708437025.214557,-2.1460189819335938,-1.3341366362622757,-2.5240729490863245,6.11860870102004,1.0123794078826904,-2.325170103703634
1708437025.2165418,-2.146027088165283,-1.3341942590526124,-2.5240309874164026,6.118630516320028,1.0124082565307617,-2.325207773839132
1708437025.2185557,-2.146063804626465,-1.334203080540039,-2.5240848700152796,6.118618356972494,1.0124406814575195,-2.325158182774679
1708437025.2205708,-2.146048069000244,-1.3341736656478425,-2.5240069071399134,6.118654238968649,1.0124331712722778,-2.325212303792135
1708437025.2225497,-2.1460437774658203,-1.334137887959816,-2.5240684191333216,6.118605243950643,1.0124406814575195,-2.3251193205462855
1708437025.2245862,-2.146035671234131,-1.3341203492930909,-2.5240309874164026,6.118568408280172,1.0123794078826904,-2.325132671986715
1708437025.2265465,-2.1459832191467285,-1.3341613423875351,-2.5240564982043665,6.118641125946798,1.0124051570892334,-2.3252154032336634
1708437025.2285607,-2.1460795402526855,-1.3341410917094727,-2.524086300526754,6.118626224785604,1.0124331712722778,-2.325186793004171
1708437025.2305589,-2.146048069000244,-1.334189922814705,-2.5240474382983606,6.118671643524923,1.0123919248580933,-2.325165573750631
1708437025.2325532,-2.146052360534668,-1.3341247600368042,-2.5240519682513636,6.1186174032981775,1.0124647617340088,-2.325141731892721
1708437025.2345452,-2.1460227966308594,-1.3341291111758729,-2.5240309874164026,6.118593323021688,1.0124244689941406,-2.325174633656637
1708437025.2365446,-2.1460437774658203,-1.3341124963811417,-2.5240069071399134,6.1186139462287805,1.0124406814575195,-2.325153652821676
1708437025.238536,-2.1460838317871094,-1.3341410470059891,-2.5240564982043665,6.118584620743551,1.0124406814575195,-2.3251400629626673
1708437025.2405374,-2.1460189819335938,-1.3341482293656846,-2.5240114370929163,6.118700015335836,1.0124319791793823,-2.3251987139331263
1708437025.2425525,-2.146091938018799,-1.3341570359519501,-2.5240278879748743,6.118597733765402,1.0124406814575195,-2.3251732031451624
1708437025.2445757,-2.146063804626465,-1.33419422925029,-2.5240145365344446,6.118609535485067,1.0124319791793823,-2.325203243886129
1708437025.2465487,-2.146063804626465,-1.3341613572886963,-2.5240309874164026,6.118568408280172,1.0124363899230957,-2.325191322957174
1708437025.2485495,-2.1460437774658203,-1.3340712797692795,-2.5240474382983606,6.118593323021688,1.0124770402908325,-2.325165573750631
1708437025.2505398,-2.1460680961608887,-1.3341701936772843,-2.5240264574633997,6.118605243950643,1.012431025505066,-2.3251987139331263
1708437025.2525501,-2.1460723876953125,-1.3341291111758729,-2.5240564982043665,6.118609535485067,1.0125054121017456,-2.3251732031451624
1708437025.2545536,-2.1460795402526855,-1.3341942888549347,-2.5240474382983606,6.118605243950643,1.0124924182891846,-2.3251896540271204
1708437025.2565832,-2.1460437774658203,-1.3341736805490036,-2.5240491072284144,6.1185611365135095,1.0124924182891846,-2.3252483049975794
1708437025.2585518,-2.146010398864746,-1.3341656786254426,-2.5240519682513636,6.118602025299825,1.012509822845459,-2.3251972834216517
1708437025.2605546,-2.1460795402526855,-1.3341438931277771,-2.5240400473224085,6.1186585305030725,1.0124473571777344,-2.3252227942096155
1708437025.2625463,-2.146035671234131,-1.334124819641449,-2.5240400473224085,6.1186585305030725,1.0124924182891846,-2.3251760641681116
1708437025.2645888,-2.146027088165283,-1.3341811460307618,-2.5240355173694056,6.118654238968649,1.0124999284744263,-2.3252063433276575
1708437025.2665424,-2.146010398864746,-1.3341570657542725,-2.5240729490863245,6.118588912277975,1.0125043392181396,-2.325165573750631
1708437025.2685502,-2.14601469039917,-1.3341736805490036,-2.5240309874164026,6.118674862175741,1.0124967098236084,-2.3251987139331263
1708437025.2705383,-2.146048069000244,-1.3341604185155411,-2.5240233580218714,6.118605124741354,1.0124967098236084,-2.3252108732806605
1708437025.2725465,-2.1460680961608887,-1.3341159683516999,-2.5240445772754114,6.1186009524162195,1.0125129222869873,-2.3252273241626185
1708437025.2745392,-2.146010398864746,-1.334161327486374,-2.5240069071399134,6.118568408280172,1.0124924182891846,-2.3252392450915735
1708437025.276551,-2.146063804626465,-1.3341657233289261,-2.5240638891803187,6.1185611365135095,1.0124967098236084,-2.3251972834216517
1708437025.2785864,-2.146048069000244,-1.3341701340726395,-2.5240684191333216,6.11863802650527,1.0124595165252686,-2.3252182642566126
1708437025.2805831,-2.146063804626465,-1.3341203492930909,-2.5240610281573694,6.118639218598165,1.0125129222869873,-2.3251987139331263
1708437025.282552,-2.1460752487182617,-1.3341410917094727,-2.5241056124316614,6.118642318039694,1.0125054121017456,-2.325174633656637
1708437025.284557,-2.146088123321533,-1.334141121511795,-2.5240355173694056,6.118655431061544,1.0125248432159424,-2.3252273241626185
1708437025.2865436,-2.146059513092041,-1.3341334623149415,-2.5240519682513636,6.118609535485067,1.0124552249908447,-2.3251851240741175
1708437025.288576,-2.146063804626465,-1.3341203343919297,-2.5240142981158655,6.118605243950643,1.0125129222869873,-2.3251896540271204
1708437025.2905464,-2.1460061073303223,-1.3341570508531113,-2.5240638891803187,6.1185611365135095,1.0124967098236084,-2.3252108732806605
1708437025.2926066,-2.1460394859313965,-1.334116907124855,-2.5239978472339075,6.118664014130392,1.0125086307525635,-2.3252227942096155
1708437025.2945635,-2.146027088165283,-1.3341648441604157,-2.5240564982043665,6.1185858128364465,1.0125054121017456,-2.3251777330981653
1708437025.296576,-2.146035671234131,-1.3341410917094727,-2.5240758101092737,6.118655431061544,1.0125086307525635,-2.3251357714282435
1708437025.2985535,-2.146052360534668,-1.3341290664723893,-2.5240758101092737,6.118618237763204,1.0124924182891846,-2.325203243886129
1708437025.30055,-2.14601469039917,-1.3341613572886963,-2.5240474382983606,6.118584620743551,1.0124967098236084,-2.3252182642566126
1708437025.302565,-2.1460680961608887,-1.3341438484242936,-2.5240758101092737,6.1185611365135095,1.0124999284744263,-2.3252227942096155
1708437025.3045986,-2.146048069000244,-1.3341613423875351,-2.5240355173694056,6.118593203812399,1.0125086307525635,-2.3252273241626185
1708437025.3065436,-2.1461005210876465,-1.3341453981450577,-2.5240593592273157,6.118630516320028,1.0125261545181274,-2.3251851240741175
1708437025.30857,-2.146003246307373,-1.3341124665788193,-2.5240564982043665,6.118638145714559,1.0125129222869873,-2.3251610437976282
1708437025.3105886,-2.1461048126220703,-1.3341498237899323,-2.5240593592273157,6.118597733765402,1.012509822845459,-2.3252137343036097
1708437025.3125598,-2.1460394859313965,-1.334141106610634,-2.5240593592273157,6.118658649712362,1.0125205516815186,-2.3252347151385706
1708437025.3145561,-2.1460189819335938,-1.3341571253589173,-2.5240684191333216,6.118593323021688,1.012463927268982,-2.3252227942096155
1708437025.316566,-2.1460680961608887,-1.3341899675181885,-2.5240967909442347,6.1186150191123865,1.0124967098236084,-2.3251686731921595
1708437025.3185353,-2.1460437774658203,-1.3341366064599534,-2.5240564982043665,6.118584620743551,1.012509822845459,-2.3252108732806605
1708437025.3205583,-2.14601469039917,-1.3341247302344819,-2.5240684191333216,6.11860083320693,1.0125261545181274,-2.3252227942096155
1708437025.3225327,-2.146059513092041,-1.3341942739537735,-2.5240638891803187,6.118609535485067,1.0125129222869873,-2.3252301851855677
1708437025.3245466,-2.1460018157958984,-1.334154174929001,-2.5240638891803187,6.118597733765402,1.0124473571777344,-2.3251851240741175
1708437025.3265438,-2.146055221557617,-1.3341525954059144,-2.5240355173694056,6.118674742966451,1.0125292539596558,-2.325263325368063
1708437025.3285918,-2.1460723876953125,-1.3341613423875351,-2.5241010824786585,6.118634807854452,1.0124967098236084,-2.3252392450915735
1708437025.3305364,-2.1460680961608887,-1.3341410768083115,-2.5240803400622767,6.118602025299825,1.0124924182891846,-2.3252137343036097
1708437025.3325357,-2.1460232734680176,-1.3341497641852875,-2.5240309874164026,6.118531572609701,1.0124924182891846,-2.3252301851855677
1708437025.334542,-2.146059513092041,-1.3341692102006455,-2.5240758101092737,6.1186433909233,1.0125205516815186,-2.3252347151385706
1708437025.336556,-2.146059513092041,-1.3341570657542725,-2.5240638891803187,6.1185611365135095,1.0125129222869873,-2.3251689116107386
1708437025.3385355,-2.146052360534668,-1.3341868084720154,-2.5240309874164026,6.1186468479926965,1.0125205516815186,-2.3251777330981653
1708437025.3405526,-2.146005868911743,-1.3340874922326584,-2.52405029932131,6.1186349270637415,1.012442946434021,-2.3252018133746546
1708437025.3425636,-2.146056652069092,-1.334132270222046,-2.5241056124316614,6.118630516320028,1.0124924182891846,-2.3252392450915735
1708437025.3445601,-2.1460609436035156,-1.3341366213611145,-2.5240638891803187,6.118553387909689,1.0124924182891846,-2.3252604643451136
1708437025.346591,-2.1460723876953125,-1.3341767650893708,-2.5240803400622767,6.1186139462287805,1.0125043392181396,-2.3252437750445765
1708437025.3485434,-2.146003246307373,-1.334124819641449,-2.5240638891803187,6.118606316834249,1.0124924182891846,-2.3252483049975794
1708437025.350567,-2.146052360534668,-1.334120364194252,-2.524066750203268,6.118634807854452,1.0125129222869873,-2.3251805941211146
1708437025.3525295,-2.1460437774658203,-1.3341823828271409,-2.5240684191333216,6.118552434235372,1.012463927268982,-2.3252227942096155
1708437025.3545392,-2.1460189819335938,-1.334149719481804,-2.524071280156271,6.118593323021688,1.0125248432159424,-2.325188223515646
1708437025.3565822,-2.1460232734680176,-1.334161327486374,-2.5240803400622767,6.118626820832052,1.0124924182891846,-2.3252347151385706
1708437025.3585603,-2.146027088165283,-1.3342105013183136,-2.5240474382983606,6.118565547257223,1.0124595165252686,-2.3251896540271204
1708437025.3605886,-2.1460723876953125,-1.3341248047402878,-2.5240400473224085,6.118622648506918,1.012521743774414,-2.3252227942096155
1708437025.3625464,-2.1460399627685547,-1.3341985952905198,-2.5240474382983606,6.118630516320028,1.0124967098236084,-2.3252137343036097
1708437025.3645697,-2.1460437774658203,-1.3341278594783326,-2.5240400473224085,6.118561851769247,1.0125129222869873,-2.3252108732806605
1708437025.3665407,-2.1460232734680176,-1.334141106610634,-2.5240891615497034,6.11859010437087,1.0125043392181396,-2.3251851240741175
1708437025.3685634,-2.146052360534668,-1.33416140199218,-2.5240400473224085,6.118606316834249,1.0125086307525635,-2.3252347151385706
1708437025.3705623,-2.145998954772949,-1.334164859061577,-2.5240474382983606,6.118594276696005,1.0124880075454712,-2.3252649942981165
1708437025.3725588,-2.1460351943969727,-1.3341736805490036,-2.5240519682513636,6.11857699134902,1.012537956237793,-2.3252273241626185
1708437025.374549,-2.1460227966308594,-1.3341570061496277,-2.5240355173694056,6.118565547257223,1.0125086307525635,-2.3251972834216517
1708437025.376577,-2.146059513092041,-1.3340949279120942,-2.5240758101092737,6.118594395905294,1.0125142335891724,-2.3252137343036097
1708437025.3785822,-2.1460680961608887,-1.3341570657542725,-2.5240519682513636,6.118634807854452,1.0124560594558716,-2.3251987139331263
1708437025.3806012,-2.1460838317871094,-1.3342149567655106,-2.5240309874164026,6.118602025299825,1.0125129222869873,-2.3252108732806605
1708437025.382574,-2.1460232734680176,-1.3341746491244812,-2.5240774790393274,6.118622648506918,1.0125304460525513,-2.325188223515646
1708437025.3845642,-2.1460680961608887,-1.3341692400029679,-2.5240638891803187,6.118594395905294,1.0125292539596558,-2.3251732031451624
1708437025.3865855,-2.1460485458374023,-1.3341612976840516,-2.5240848700152796,6.1185282347495935,1.012521743774414,-2.3251972834216517
1708437025.3885622,-2.146052360534668,-1.3341410470059891,-2.5240474382983606,6.118532764702596,1.0125054121017456,-2.3252256552325647
1708437025.3905337,-2.1459832191467285,-1.334136651163437,-2.5240564982043665,6.118574130326071,1.0124605894088745,-2.3251987139331263
1708437025.392544,-2.146031379699707,-1.3341570508531113,-2.5240593592273157,6.11853705623702,1.0124837160110474,-2.3251851240741175
1708437025.3945408,-2.146048069000244,-1.3341571253589173,-2.5240684191333216,6.118570554047384,1.0125292539596558,-2.3251805941211146
1708437025.396535,-2.1460189819335938,-1.334161327486374,-2.5240638891803187,6.11856626251296,1.0124967098236084,-2.3252437750445765
1708437025.3985622,-2.146035671234131,-1.3341570657542725,-2.524054829274313,6.118574130326071,1.0125216245651245,-2.3252273241626185
1708437025.4005418,-2.1460962295532227,-1.3342018735459824,-2.5240429083453577,6.118558633118429,1.0125755071640015,-2.3252137343036097
1708437025.4025264,-2.146003246307373,-1.334189997320511,-2.5240474382983606,6.118582832604208,1.0125099420547485,-2.3252108732806605
1708437025.4045465,-2.1460723876953125,-1.334141106610634,-2.5240309874164026,6.118554341584005,1.0125292539596558,-2.3252108732806605
1708437025.4065433,-2.1460399627685547,-1.3341736954501648,-2.5240564982043665,6.118550050049581,1.0125205516815186,-2.3252514044391077
1708437025.4085681,-2.146052360534668,-1.334173710351326,-2.5240593592273157,6.118610727577963,1.0124386548995972,-2.3251941839801233
1708437025.4105463,-2.1459789276123047,-1.3341453832438965,-2.524100128804342,6.118600117951193,1.0124726295471191,-2.3251927534686487
1708437025.4125633,-2.1460232734680176,-1.3341247898391266,-2.5240638891803187,6.118579256325521,1.0124837160110474,-2.3251896540271204
1708437025.4145365,-2.146052360534668,-1.3341823083213349,-2.5240474382983606,6.118489014893331,1.0124726295471191,-2.3251641432391565
1708437025.4165394,-2.1460206508636475,-1.3341124963811417,-2.5240429083453577,6.118493425637045,1.0125129222869873,-2.3252227942096155
1708437025.4185421,-2.146056652069092,-1.3342031103423615,-2.5240593592273157,6.118515121727743,1.0125304460525513,-2.3251941839801233
1708437025.4205642,-2.1460118293762207,-1.3341570657542725,-2.5240848700152796,6.118438112526693,1.012509822845459,-2.3251896540271204
1708437025.4225802,-2.1460189819335938,-1.3341203790954133,-2.524113718663351,6.1184414503868005,1.0125086307525635,-2.3252273241626185
1708437025.42457,-2.1460049152374268,-1.3341657233289261,-2.5240803400622767,6.118463146477499,1.0125054121017456,-2.3252437750445765
1708437025.4265437,-2.145961046218872,-1.3341290962747117,-2.5241227785693567,6.118406522064962,1.0125043392181396,-2.3252182642566126
1708437025.4285557,-2.1460652351379395,-1.3341942739537735,-2.5240593592273157,6.118369328766622,1.0125086307525635,-2.3252273241626185
1708437025.4305444,-2.1460442543029785,-1.3341526103070755,-2.524071280156271,6.118430244713583,1.0125248432159424,-2.3251851240741175
1708437025.4325843,-2.146035671234131,-1.3341570806554337,-2.524104658757345,6.118397819786825,1.0124924182891846,-2.3251987139331263
1708437025.43454,-2.145987033843994,-1.3341482293656846,-2.5240922609912317,6.118452060013571,1.0124967098236084,-2.325263325368063
1708437025.4365695,-2.145991802215576,-1.3341366213611145,-2.524095598851339,6.118370401650228,1.0125367641448975,-2.3251610437976282
1708437025.4385617,-2.1460206508636475,-1.3341124069741745,-2.524057690297262,6.118407594948568,1.0125454664230347,-2.3251941839801233
1708437025.4405553,-2.146000385284424,-1.3341203045896073,-2.5241075197802942,6.118374812393942,1.0125536918640137,-2.3252392450915735
1708437025.4425783,-2.1459598541259766,-1.3341379326632996,-2.5241239706622522,6.118358838349142,1.0125367641448975,-2.3252063433276575
1708437025.4445589,-2.145982503890991,-1.3341092479280015,-2.524066750203268,6.118412720948019,1.0125248432159424,-2.3252649942981165
1708437025.4465284,-2.146029233932495,-1.3341943186572571,-2.524121109639303,6.118277299195089,1.0125367641448975,-2.3251851240741175
1708437025.448568,-2.145984172821045,-1.334165708427765,-2.524161402379171,6.118303286820211,1.0125411748886108,-2.3252318541156214
1708437025.4505312,-2.145995616912842,-1.334112436776497,-2.524095598851339,6.118270504265585,1.0125610828399658,-2.3252182642566126
1708437025.4525468,-2.1459884643554688,-1.334154264335968,-2.5241313616382044,6.11828242519454,1.0125524997711182,-2.3252182642566126
1708437025.4545715,-2.145939350128174,-1.334124819641449,-2.5241313616382044,6.118262994080343,1.0125818252563477,-2.3251941839801233
1708437025.456601,-2.1459193229675293,-1.3341570657542725,-2.5241523424731653,6.118291127472677,1.0125149488449097,-2.3252018133746546
1708437025.4585466,-2.1459524631500244,-1.3341159385493775,-2.524162832890646,6.118267285614767,1.0126134157180786,-2.3251896540271204
1708437025.4605649,-2.145878553390503,-1.3341422838023682,-2.5241764227496546,6.1182196018989465,1.0126627683639526,-2.3252063433276575
1708437025.4625692,-2.1459078788757324,-1.3341570657542725,-2.524207894002096,6.118244635849752,1.0125555992126465,-2.3252154032336634
1708437025.4645584,-2.1459031105041504,-1.3341049712947388,-2.5242260138141077,6.118207442551412,1.0125958919525146,-2.3251972834216517
1708437025.4665678,-2.145907402038574,-1.334096224313118,-2.52419883409609,6.118211734085836,1.0125958919525146,-2.3252318541156214
1708437025.468575,-2.145965337753296,-1.3341081154397507,-2.5242484251605433,6.118111121445455,1.012600302696228,-2.3252559343921106
1708437025.4705424,-2.145875930786133,-1.3341124665788193,-2.5242064634906214,6.118140208512106,1.0126334428787231,-2.3252559343921106
1708437025.4725666,-2.145854949951172,-1.334137962465622,-2.5242558161364954,6.118079292565145,1.0126690864562988,-2.3252678553210657
1708437025.474542,-2.145897388458252,-1.3341423136046906,-2.5242770353900355,6.118068206101217,1.0126813650131226,-2.325246874486105
1708437025.4765742,-2.1458353996276855,-1.3341379326632996,-2.5242512861834925,6.11800645568923,1.0126726627349854,-2.325237814580099
1708437025.478572,-2.145859718322754,-1.3341213178685685,-2.5242889563189905,6.118068206101217,1.012714147567749,-2.3252092043506067
1708437025.4806194,-2.1458396911621094,-1.3341344606927414,-2.5242798964129847,6.118048655777731,1.0127172470092773,-2.325294796620504
1708437025.4825776,-2.1458077430725098,-1.33414979398761,-2.5243292490588587,6.117959606438436,1.0127251148223877,-2.325245205556051
1708437025.484583,-2.145815849304199,-1.3341050010970612,-2.5243173281299036,6.11793469169692,1.0127370357513428,-2.325278345738546
1708437025.4865732,-2.145820140838623,-1.3341344159892579,-2.5243127981769007,6.1179531691368005,1.0128146409988403,-2.325341288243429
1708437025.4885519,-2.14578914642334,-1.3340767931989213,-2.524345938359396,6.117911684304037,1.0127567052841187,-2.3252902666675013
1708437025.4905517,-2.1458003520965576,-1.334085540180542,-2.524282757435934,6.117871629982748,1.0128058195114136,-2.3253143469439905
1708437025.4925842,-2.145751476287842,-1.3340570789626618,-2.5242798964129847,6.117844211846151,1.0128254890441895,-2.3253188768969935
1708437025.4945571,-2.1457724571228027,-1.334040717487671,-2.524299208317892,6.1178356287773035,1.0128287076950073,-2.3252978960620325
1708437025.4965875,-2.14578914642334,-1.3340538305095215,-2.52431565919985,6.117786752968588,1.0128331184387207,-2.3253355661975306
1708437025.498556,-2.1457371711730957,-1.334033564930298,-2.524381701146261,6.117840993195333,1.0129140615463257,-2.3253520170794886
1708437025.5005472,-2.1457064151763916,-1.3340335500291367,-2.524353567753927,6.117789017945089,1.012938141822815,-2.3253098169909876
1708437025.5025964,-2.1457371711730957,-1.3340378564647217,-2.524344507847921,6.11773561218337,1.0129460096359253,-2.325321976338522
1708437025.5045629,-2.1457009315490723,-1.3340423119119187,-2.5243144671069544,6.117700683861532,1.0129492282867432,-2.325376097355978
1708437025.506566,-2.1456966400146484,-1.334024817948677,-2.524393860493795,6.117705094605245,1.0129985809326172,-2.32540470758547
1708437025.5085495,-2.1456446647644043,-1.334034414296486,-2.5243547598468226,6.117697703629293,1.0130267143249512,-2.325353447590963
1708437025.5105603,-2.145632266998291,-1.3340701174787064,-2.5243638197528284,6.117616998940267,1.0130178928375244,-2.325362507496969
1708437025.5125768,-2.145603895187378,-1.3340300780585785,-2.524411741887228,6.117620575218954,1.0130048990249634,-2.325374428425924
1708437025.5145493,-2.1456239223480225,-1.3339843612960358,-2.524465624486105,6.1176257012184045,1.0130376815795898,-2.32540470758547
1708437025.5165772,-2.1455836296081543,-1.334043265586235,-2.52444035211672,6.117528188019552,1.0130376815795898,-2.3253911177264612
1708437025.5185342,-2.1456007957458496,-1.3340335202268143,-2.524414841328756,6.117561805039205,1.013064980506897,-2.3253563086139124
1708437025.5205395,-2.1455650329589844,-1.334016965036728,-2.52446419397463,6.117513882904806,1.0130692720413208,-2.3254571596728724
1708437025.5225618,-2.1454997062683105,-1.3340138059905549,-2.5244808832751673,6.117514955788412,1.0130934715270996,-2.3253775278674524
1708437025.524567,-2.145472526550293,-1.3339689385942002,-2.5244672934161585,6.117429125099935,1.0131502151489258,-2.3254345099078577
1708437025.5265715,-2.145533561706543,-1.3340093952468415,-2.5244763533221644,6.117351758271017,1.0131665468215942,-2.3254271189319056
1708437025.5285606,-2.145498514175415,-1.3340270531228562,-2.5244672934161585,6.1173369763191126,1.0131981372833252,-2.3254435698138636
1708437025.5305507,-2.1453840732574463,-1.3339974743178864,-2.5244885126696985,6.117341387062826,1.0132312774658203,-2.325429979954855
1708437025.532562,-2.145395517349243,-1.3339644980481644,-2.5245078245746058,6.117282378464498,1.0132462978363037,-2.3254693190204065
1708437025.5345495,-2.1453776359558105,-1.334027038221695,-2.524519745503561,6.117248642235555,1.0132911205291748,-2.3254345099078577
1708437025.5365627,-2.1453821659088135,-1.333985523586609,-2.5245240370379847,6.117214190750875,1.0133107900619507,-2.325454060231344
1708437025.53854,-2.1453018188476562,-1.3340388250401993,-2.5245843569384974,6.117189872055807,1.0133304595947266,-2.325491730366842
1708437025.54055,-2.145328998565674,-1.3340181571296235,-2.5245917479144495,6.117134439736166,1.0133755207061768,-2.325458590184347
1708437025.5425649,-2.145263910293579,-1.3339645576528092,-2.5246334711657923,6.117090093880453,1.0133875608444214,-2.3255396525012415
1708437025.544568,-2.1452319622039795,-1.3340018403581162,-2.5246289412127894,6.117042052536764,1.0134028196334839,-2.3255277315722864
1708437025.546579,-2.1452653408050537,-1.3340388995460053,-2.524656359349386,6.117023694306173,1.0134265422821045,-2.3255277315722864
1708437025.5485728,-2.145200729370117,-1.3340018552592774,-2.524644200001852,6.116946446686544,1.0134921073913574,-2.3255186716662806
1708437025.5505373,-2.1452221870422363,-1.3340137761882325,-2.52464729944338,6.116939770966329,1.0134944915771484,-2.3255563418017786
1708437025.5525367,-2.145188808441162,-1.3339855831912537,-2.524663750325338,6.116842973023214,1.0135066509246826,-2.3255725542651575
1708437025.554594,-2.145143747329712,-1.3340432804873963,-2.5246592203723353,6.116831052094259,1.0135351419448853,-2.325599733983175
1708437025.556565,-2.1451778411865234,-1.3339974743178864,-2.5247209707843226,6.116771566658773,1.013542652130127,-2.3254931608783167
1708437025.55857,-2.145125389099121,-1.3340313595584412,-2.524702850972311,6.116723525315084,1.0136202573776245,-2.325562302266256
1708437025.5606048,-2.145163059234619,-1.3339899194291611,-2.524752203618185,6.116663801461019,1.0136312246322632,-2.325562302266256
1708437025.5625417,-2.1450729370117188,-1.3340554398349305,-2.524801794682638,6.116668092995443,1.0136628150939941,-2.325578753148214
1708437025.5645392,-2.1450772285461426,-1.3340018701604386,-2.5247839132892054,6.116587745934286,1.0137118101119995,-2.325562302266256
1708437025.566543,-2.1450586318969727,-1.333985523586609,-2.5247839132892054,6.116589534073629,1.0137022733688354,-2.325608793889181
1708437025.5685558,-2.1450252532958984,-1.3339900088361283,-2.5248168150531214,6.116466867714681,1.0137841701507568,-2.325554672871725
1708437025.5705452,-2.144977331161499,-1.3339768064073105,-2.5247986952411097,6.116485345154562,1.0137916803359985,-2.3256028334247034
1708437025.5725515,-2.1449503898620605,-1.3339988601258774,-2.5248690287219446,6.116331088333883,1.0137741565704346,-2.325595204030172
1708437025.5745618,-2.144946575164795,-1.3339405816844483,-2.524855677281515,6.116373526840963,1.0138235092163086,-2.325578753148214
1708437025.5768452,-2.1449315547943115,-1.333973230128624,-2.524900738392965,6.116309273033895,1.0139120817184448,-2.325578753148214
1708437025.5785673,-2.144840955734253,-1.3339944344810029,-2.5248871485339563,6.116252648621359,1.013907790184021,-2.3255816141711634
1708437025.5806255,-2.1448209285736084,-1.3340137761882325,-2.5249276796924036,6.116307127266683,1.013939380645752,-2.325599733983175
1708437025.5825605,-2.144827365875244,-1.333994449382164,-2.524968210850851,6.116157042771139,1.014000654220581,-2.325578753148214
1708437025.5845602,-2.1447911262512207,-1.334052399998047,-2.524989191685812,6.116174447327413,1.0140682458877563,-2.325550142918722
1708437025.5865545,-2.1447434425354004,-1.3340018552592774,-2.524968210850851,6.116090047150411,1.014096736907959,-2.325550142918722
1708437025.5885675,-2.144709825515747,-1.3339644086411973,-2.5249784628497522,6.116062629013815,1.014144778251648,-2.3255906740771692
1708437025.5905492,-2.144655227661133,-1.3339568835547944,-2.5249951521502894,6.115921127587118,1.014127492904663,-2.325566832219259
1708437025.5925627,-2.1446421146392822,-1.3339614582112809,-2.5249996821032923,6.115950453072347,1.0141512155532837,-2.32558781305422
1708437025.5945628,-2.1446259021759033,-1.3339944642833252,-2.5250702540027063,6.115870344429769,1.0141918659210205,-2.32563287416567
1708437025.5965579,-2.144595146179199,-1.333965854053833,-2.5250685850726526,6.11591266372756,1.0142475366592407,-2.3255532423602503
1708437025.5985668,-2.144524097442627,-1.334052325492241,-2.525076214467184,6.115795004158773,1.0142922401428223,-2.325562302266256
1708437025.6005723,-2.144526243209839,-1.3340197068503876,-2.5251076857196253,6.115718114167013,1.0143210887908936,-2.325562302266256
1708437025.6025348,-2.1445279121398926,-1.3339702796987076,-2.5251286665545862,6.115646230965414,1.0143808126449585,-2.325538221989767
1708437025.6045682,-2.1444830894470215,-1.3339777749827881,-2.5251315275775355,6.115664708405294,1.0144171714782715,-2.325571362172262
1708437025.6065474,-2.1444482803344727,-1.3339777749827881,-2.5251813570605677,6.115621197014608,1.0144858360290527,-2.325496021901266
1708437025.6085653,-2.144401788711548,-1.3339194816401978,-2.525151077901022,6.1154953120048425,1.0144400596618652,-2.32554275194277
1708437025.6105568,-2.14436674118042,-1.3339614880136033,-2.525179688130514,6.115504729538717,1.0145012140274048,-2.3254764715777796
1708437025.6125696,-2.1443796157836914,-1.3339702796987076,-2.525196139012472,6.115395295410909,1.0145699977874756,-2.3254991213427942
1708437025.6145706,-2.144409418106079,-1.3339989495328446,-2.5252578894244593,6.11537657955245,1.0146015882492065,-2.3255141417132776
1708437025.6165802,-2.1443238258361816,-1.3339777749827881,-2.5252321402179163,6.115358221321859,1.0146092176437378,-2.325433079396383
1708437025.6185539,-2.144291400909424,-1.333937258725502,-2.5252636114703577,6.115251290589132,1.0146454572677612,-2.325425450001852
1708437025.620558,-2.1442999839782715,-1.3339494925788422,-2.525291983281271,6.115249383240499,1.0146692991256714,-2.3254104296313685
1708437025.622563,-2.1442313194274902,-1.334003285770752,-2.525295082722799,6.115225541382589,1.014668345451355,-2.3254030386554163
1708437025.6245542,-2.1441962718963623,-1.333965854053833,-2.525341574345724,6.115137207299032,1.0147534608840942,-2.3253820578204554
1708437025.626545,-2.1441962718963623,-1.3339328330806275,-2.525307003651754,6.115077602654257,1.014813780784607,-2.325374428425924
1708437025.628549,-2.1441245079040527,-1.3339822006276627,-2.5253282229052942,6.115045058518209,1.0148423910140991,-2.3253007570849817
1708437025.630558,-2.144148826599121,-1.3339777898839493,-2.5253146330462855,6.115014779358663,1.0148366689682007,-2.3252812067614954
1708437025.6325781,-2.1441214084625244,-1.333949477677681,-2.5253940264331263,6.114974486618795,1.0148652791976929,-2.3252902666675013
1708437025.6345513,-2.144047737121582,-1.3339328330806275,-2.5253716150866907,6.114913451462545,1.0149667263031006,-2.325203243886129
1708437025.636543,-2.1440930366516113,-1.3339168292335053,-2.525341574345724,6.114878880768575,1.014981746673584,-2.3252301851855677
1708437025.638541,-2.1440367698669434,-1.3339417737773438,-2.525416437779562,6.114817845612325,1.0149887800216675,-2.325137201939718
1708437025.6405525,-2.143979549407959,-1.3339168292335053,-2.5254374186145228,6.114806878357687,1.015033483505249,-2.3251176516162317
1708437025.6425455,-2.143939971923828,-1.3339345169118424,-2.5254648367511194,6.1147721884544275,1.015082836151123,-2.3250816504107874
1708437025.6445425,-2.143890619277954,-1.3339137148908158,-2.5254603067981165,6.114711272507467,1.0151097774505615,-2.3249884287463587
1708437025.6465394,-2.143937826156616,-1.333958463077881,-2.5254886786090296,6.114671098976888,1.0151753425598145,-2.3249898592578333
1708437025.6485555,-2.143888473510742,-1.3339212399772187,-2.525454346333639,6.1146840927894495,1.015178918838501,-2.324937407170431
1708437025.6505399,-2.143836498260498,-1.333937258725502,-2.5254886786090296,6.114640581398763,1.0151939392089844,-2.324832264577047
1708437025.65257,-2.143829345703125,-1.3338930767825623,-2.525527540837423,6.1145232794578455,1.015243411064148,-2.32473594347109
1708437025.6545503,-2.1438040733337402,-1.3339417737773438,-2.525506321583883,6.11454056480483,1.0152584314346313,-2.3246265093432825
1708437025.6565616,-2.143813133239746,-1.3339627844146271,-2.5255606810199183,6.114467727928915,1.015237808227539,-2.3245423475848597
1708437025.6585543,-2.1437411308288574,-1.3339168292335053,-2.5255425612079065,6.114420163422384,1.0152740478515625,-2.3244956175433558
1708437025.6606412,-2.143732786178589,-1.3339225959828873,-2.5255964438067835,6.114391553192892,1.0153100490570068,-2.32436973253359
1708437025.6625445,-2.143737316131592,-1.3339257550290604,-2.5256205240832728,6.114351260453024,1.015378713607788,-2.324294392262594
1708437025.6645405,-2.1437249183654785,-1.333904893403389,-2.5255828539477747,6.114292847901144,1.0153864622116089,-2.324235979710714
1708437025.6665318,-2.1436767578125,-1.3338851791671296,-2.525602404271261,6.114264356880941,1.0154467821121216,-2.3241336981402796
1708437025.6685421,-2.1436543464660645,-1.3339137446931382,-2.5256429354297083,6.114249217301168,1.0154542922973633,-2.3240090052234095
1708437025.670538,-2.1436007022857666,-1.3338895452073594,-2.5257225672351282,6.114201295166769,1.0154783725738525,-2.323914353047506
1708437025.6725461,-2.143580436706543,-1.3339434427073975,-2.5257285276996058,6.114116418152609,1.015523076057434,-2.323797051106588
1708437025.6745367,-2.1436100006103516,-1.333901823764183,-2.525707546864645,6.114109980850973,1.01554274559021,-2.323698107396261
1708437025.676524,-2.143495798110962,-1.3339062494090577,-2.5257001558886927,6.114053356438436,1.0155909061431885,-2.32357627550234
1708437025.678549,-2.1435089111328125,-1.3339107644608994,-2.5257611910449427,6.114017355232992,1.0156313180923462,-2.323498312626974
1708437025.6806388,-2.1435341835021973,-1.3339225959828873,-2.5257449785815638,6.1139577505882166,1.0156720876693726,-2.323369089757101
1708437025.6825817,-2.143549919128418,-1.3339107644608994,-2.525738779698507,6.11390112617568,1.0157076120376587,-2.3232534567462366
1708437025.6845713,-2.1435022354125977,-1.333901823764183,-2.5258005301104944,6.113874065666952,1.0157023668289185,-2.323071543370382
1708437025.6865485,-2.1434571743011475,-1.3338940900615235,-2.5257750193225306,6.113838064461508,1.0157513618469238,-2.322925869618551
1708437025.6885486,-2.1434571743011475,-1.3338120442679902,-2.5258243719684046,6.113846766739645,1.0157506465911865,-2.322847906743185
1708437025.6905432,-2.143418073654175,-1.3338940900615235,-2.5258033911334437,6.113737451821127,1.0158368349075317,-2.3226783911334437
1708437025.6925395,-2.1434221267700195,-1.3338865798762818,-2.525865141545431,6.113754737168112,1.0157945156097412,-2.322550360356466
1708437025.694554,-2.1433732509613037,-1.333898515706398,-2.525856081639425,6.113706815033712,1.0158554315567017,-2.322439257298605
1708437025.6965659,-2.143350601196289,-1.333886594777443,-2.525851551686422,6.113674032479086,1.0158675909042358,-2.3222830931292933
1708437025.6985517,-2.1433663368225098,-1.3338985306075593,-2.5258918444262903,6.113577115326681,1.015882968902588,-2.322146479283468
1708437025.7005613,-2.1433300971984863,-1.333804876809456,-2.5258947054492396,6.113570797234335,1.0159273147583008,-2.321958605443136
1708437025.7025461,-2.143301486968994,-1.333915190105774,-2.5259206930743616,6.113612043648519,1.0159635543823242,-2.3217724005328577
1708437025.7045748,-2.1432693004608154,-1.333874688749649,-2.5258901754962366,6.113571631699362,1.0159755945205688,-2.321691338215963
1708437025.7065372,-2.143277883529663,-1.3338613969138642,-2.5259116331683558,6.113515245705404,1.0159908533096313,-2.3215022722827356
1708437025.7085683,-2.14328670501709,-1.333907352094986,-2.525942866002218,6.113512146263876,1.0160608291625977,-2.3213382403003138
1708437025.710542,-2.143249988555908,-1.3339162927917023,-2.5259175936328333,6.113450991898336,1.01608407497406,-2.321144405995504
1708437025.712537,-2.143218994140625,-1.3339448881200333,-2.5259953180896204,6.113419759064474,1.0161046981811523,-2.3209975401507776
1708437025.7145426,-2.143218994140625,-1.3338777434876938,-2.5260120073901575,6.113375055580892,1.0160753726959229,-2.3208051363574427
1708437025.7165327,-2.1432065963745117,-1.333834246998169,-2.5259743372546595,6.113399016648092,1.0161395072937012,-2.320587460194723
1708437025.7185316,-2.1431939601898193,-1.3338568967631836,-2.5260313192950647,6.113388049393453,1.016181230545044,-2.3204761187182825
1708437025.7205281,-2.1431782245635986,-1.3338583272746583,-2.5259984175311487,6.113360988884725,1.0161876678466797,-2.3202839533435267
1708437025.7225277,-2.1431221961975098,-1.333924026494362,-2.526052538548605,6.113369571953573,1.0162323713302612,-2.320103708897726
1708437025.7245498,-2.143178939819336,-1.3338702482036133,-2.526048008595602,6.113316523819723,1.0162523984909058,-2.319949213658468
1708437025.7265236,-2.1431682109832764,-1.3338298064521332,-2.526093069707052,6.113301026612081,1.0162513256072998,-2.3197267691241663
1708437025.728532,-2.143094301223755,-1.3338628125241776,-2.5260542074786585,6.113273012429037,1.0162718296051025,-2.3195436636554163
1708437025.7305317,-2.1431031227111816,-1.333846167927124,-2.5260255972491663,6.1131794331367395,1.0163168907165527,-2.3193634192096155
1708437025.7325566,-2.1431190967559814,-1.3338385832360764,-2.5261243025409144,6.113238322525778,1.016319990158081,-2.3191168943988245
