Eg3-git/Classifiers/Data Collection/u5/u5star4_ur3e_joint_states.csv
time,elbow_joint,shoulder_lift_joint,shoulder_pan_joint,wrist_1_joint,wrist_2_joint,wrist_3_joint
1708437050.1445992,-2.1475071907043457,-1.335013286476471,-2.5259652773486536,6.124200451164999,1.0161919593811035,-2.8148587385760706
1708437050.14657,-2.147515058517456,-1.335049794321396,-2.5260239283191126,6.124193775444784,1.0161638259887695,-2.814871851597921
1708437050.1485968,-2.1475274562835693,-1.3350823533586045,-2.5260420481311243,6.124214637070455,1.0161552429199219,-2.8148303667651575
1708437050.1505623,-2.147557020187378,-1.3350301545909424,-2.5259698073016565,6.124276506691732,1.016193151473999,-2.8148511091815394
1708437050.1526089,-2.147486686706543,-1.3350301545909424,-2.525975767766134,6.124206769257345,1.0161800384521484,-2.8148260752307337
1708437050.15457,-2.147524118423462,-1.3350378733924408,-2.5260358492480677,6.12425588348464,1.0161638259887695,-2.8148539702044886
1708437050.1566236,-2.1475284099578857,-1.3350217652371903,-2.5259621779071253,6.12418948391036,1.0161595344543457,-2.8148348967181605
1708437050.1585739,-2.1475026607513428,-1.3350455176881333,-2.5259998480426233,6.124227750092306,1.0161845684051514,-2.8148630301104944
1708437050.1605983,-2.147519588470459,-1.3350949448398133,-2.5259621779071253,6.124181854515829,1.0161468982696533,-2.8148096243487757
1708437050.1625767,-2.147552490234375,-1.3350420755198975,-2.5259953180896204,6.124235260277548,1.0161683559417725,-2.814871851597921
1708437050.164591,-2.147552490234375,-1.3350659173778077,-2.5260074774371546,6.124190556793966,1.0161352157592773,-2.8148587385760706
1708437050.16657,-2.147547960281372,-1.3350386333516617,-2.5259862581836146,6.124214637070455,1.0161638259887695,-2.8148348967181605
1708437050.168584,-2.147524118423462,-1.3350743067315598,-2.5260074774371546,6.124190556793966,1.0161800384521484,-2.8148260752307337
1708437050.1705613,-2.147477626800537,-1.3350616258433838,-2.5260165373431605,6.124153721123495,1.0161468982696533,-2.8148184458362024
1708437050.172599,-2.1474733352661133,-1.3350175631097336,-2.5260284582721155,6.124206769257345,1.0161757469177246,-2.814880434666769
1708437050.1745632,-2.147519588470459,-1.3350581985763093,-2.5259833971606653,6.12412844875411,1.0161595344543457,-2.8148673216449183
1708437050.1765957,-2.147519588470459,-1.3350217652371903,-2.5259998480426233,6.12423204162673,1.0161800384521484,-2.8148391882525843
1708437050.178631,-2.14749813079834,-1.3350259524634858,-2.5259607473956507,6.124198066979208,1.0161919593811035,-2.8148837725268763
1708437050.1805582,-2.147524118423462,-1.3349807274392624,-2.5259998480426233,6.124174344330587,1.0161306858062744,-2.8148391882525843
1708437050.182668,-2.1475374698638916,-1.3350427758744736,-2.5259907881366175,6.1241949675376794,1.0161919593811035,-2.814892594014303
1708437050.1846693,-2.1475117206573486,-1.335106910472252,-2.5259953180896204,6.124191629677572,1.0161800384521484,-2.814843479787008
1708437050.186638,-2.147519588470459,-1.3350984764150162,-2.5259907881366175,6.124101388245382,1.0161995887756348,-2.8148673216449183
1708437050.1886246,-2.1475026607513428,-1.3349968504956742,-2.5260074774371546,6.124141442566671,1.0161800384521484,-2.814848009740011
1708437050.1906145,-2.147545576095581,-1.3350581985763093,-2.5260239283191126,6.124203669815817,1.0161638259887695,-2.814855400715963
1708437050.1926408,-2.147541046142578,-1.3350378733924408,-2.5259907881366175,6.124174344330587,1.0161683559417725,-2.81490928331484
1708437050.194582,-2.147519588470459,-1.3350259524634858,-2.5260120073901575,6.1241458533103845,1.0161508321762085,-2.814856831227438
1708437050.19662,-2.147536516189575,-1.3350301545909424,-2.5260165373431605,6.124175417214193,1.0162125825881958,-2.8148565928088587
1708437050.1985672,-2.1475284099578857,-1.3350420755198975,-2.5259907881366175,6.1242079613502405,1.0161919593811035,-2.8148468176471155
1708437050.200622,-2.147545576095581,-1.3350378733924408,-2.5259531180011194,6.124141442566671,1.0161595344543457,-2.814859930668966
1708437050.2026002,-2.14749813079834,-1.3350865554860611,-2.5259788672076624,6.124139416008749,1.0161962509155273,-2.8148348967181605
1708437050.2045557,-2.1475329399108887,-1.3350378733924408,-2.5260074774371546,6.124143826752462,1.0161595344543457,-2.8148391882525843
1708437050.2065592,-2.1475071907043457,-1.335062415604927,-2.5259833971606653,6.124094712525167,1.0161919593811035,-2.814793411885397
1708437050.2085733,-2.1475026607513428,-1.3350709092668076,-2.5259833971606653,6.124110924988546,1.0161683559417725,-2.8148685137378138
1708437050.2105772,-2.1475071907043457,-1.3350259524634858,-2.5260074774371546,6.124119746475973,1.0161757469177246,-2.814831558858053
1708437050.212714,-2.14749813079834,-1.3350701195052643,-2.5259743372546595,6.124090420990743,1.0161552429199219,-2.814848009740011
1708437050.2146535,-2.1475071907043457,-1.3350785386613389,-2.5260120073901575,6.124110090523519,1.0161919593811035,-2.8148184458362024
1708437050.2166147,-2.147557020187378,-1.3350462776473542,-2.5259984175311487,6.124074923783102,1.0161962509155273,-2.814836088811056
1708437050.2185593,-2.147550106048584,-1.3350420755198975,-2.5259833971606653,6.124091493874349,1.0161595344543457,-2.814831558858053
1708437050.220576,-2.1475026607513428,-1.335107610826828,-2.5260329882251185,6.124038088112631,1.0161683559417725,-2.8148184458362024
1708437050.2225816,-2.1475002765655518,-1.335050569181778,-2.5259698073016565,6.124061810761251,1.0161468982696533,-2.814799133931295
1708437050.2245703,-2.147545576095581,-1.3350785386613389,-2.5259698073016565,6.124033796578207,1.0161962509155273,-2.814868752156393
1708437050.2265692,-2.147454023361206,-1.3350293648293992,-2.5260375181781214,6.124074923783102,1.0161683559417725,-2.814819637929098
1708437050.2285585,-2.147515058517456,-1.335106910472252,-2.5259788672076624,6.124051081925192,1.0161757469177246,-2.814848009740011
1708437050.2306068,-2.1475117206573486,-1.335021735434868,-2.5259788672076624,6.124014007836141,1.0161876678466797,-2.814799133931295
1708437050.2325943,-2.1475071907043457,-1.3350179952434083,-2.5260148684131067,6.124051081925192,1.0161714553833008,-2.8148565928088587
1708437050.2345788,-2.147524118423462,-1.3350132417729874,-2.5260284582721155,6.124051201134481,1.0161800384521484,-2.814852301274435
1708437050.2366512,-2.147519588470459,-1.3350581985763093,-2.5259953180896204,6.124022710114279,1.0161919593811035,-2.8148565928088587
1708437050.2385707,-2.147545576095581,-1.3349849444678803,-2.5260029474841517,6.1240064976509,1.0161845684051514,-2.814770285283224
1708437050.240601,-2.1475071907043457,-1.3350370836308976,-2.5260120073901575,6.123970377236166,1.0161638259887695,-2.8148022333728235
1708437050.2426214,-2.1475071907043457,-1.3350259524634858,-2.5259667078601282,6.124011981278219,1.0161552429199219,-2.81484038034548
1708437050.2445822,-2.147545576095581,-1.3350378733924408,-2.5260329882251185,6.124028193741598,1.016142725944519,-2.8148110548602503
1708437050.2466018,-2.1475026607513428,-1.3350462776473542,-2.5259833971606653,6.124028193741598,1.0161876678466797,-2.8148186842547815
1708437050.2486017,-2.147491216659546,-1.3350616258433838,-2.5259667078601282,6.123942363053121,1.0161638259887695,-2.814831558858053
1708437050.250569,-2.147545576095581,-1.3350539964488526,-2.5259984175311487,6.1239956496055505,1.0161638259887695,-2.8147745768176478
1708437050.2525802,-2.1475117206573486,-1.3349733364633103,-2.525971237813131,6.123986947327413,1.0161757469177246,-2.814761463795797
1708437050.2545748,-2.147495746612549,-1.3350701195052643,-2.5259667078601282,6.124016153603353,1.0161383152008057,-2.814824167882101
1708437050.2565756,-2.1475026607513428,-1.3349975955537339,-2.5259788672076624,6.123966085701742,1.0161919593811035,-2.81484038034548
1708437050.258576,-2.1475162506103516,-1.335009516482689,-2.5259953180896204,6.123949873238363,1.0161595344543457,-2.814796034489767
1708437050.2605953,-2.147519588470459,-1.3350095015815278,-2.5259576479541224,6.123974787979879,1.0161962509155273,-2.814831558858053
1708437050.2625737,-2.147561550140381,-1.3350949448398133,-2.5259531180011194,6.1240107891853235,1.0161845684051514,-2.814815346394674
1708437050.2646174,-2.147541046142578,-1.335050569181778,-2.5259698073016565,6.123950946121969,1.0161552429199219,-2.814819637929098
1708437050.26657,-2.1475117206573486,-1.3350420904210587,-2.5260193983661097,6.123962867050924,1.0161426067352295,-2.814828697835104
1708437050.2686033,-2.14748215675354,-1.3350301545909424,-2.5260284582721155,6.1239497540290735,1.0161595344543457,-2.814815346394674
1708437050.2705789,-2.147486925125122,-1.3350462776473542,-2.5259833971606653,6.123974787979879,1.0161426067352295,-2.814810816441671
1708437050.2726042,-2.1475117206573486,-1.3350179952434083,-2.5259833971606653,6.123991358071127,1.0161757469177246,-2.814803425465719
1708437050.2745779,-2.1475117206573486,-1.3350462776473542,-2.5259862581836146,6.124036896019735,1.0161426067352295,-2.814803425465719
1708437050.276591,-2.147524118423462,-1.335009516482689,-2.5259862581836146,6.124007570534506,1.0161383152008057,-2.814819637929098
1708437050.2785754,-2.1475117206573486,-1.3350462776473542,-2.5260120073901575,6.123942363053121,1.0161919593811035,-2.8147946039782923
1708437050.28057,-2.147550106048584,-1.335066707139351,-2.5259907881366175,6.123979079514303,1.0161714553833008,-2.8147946039782923
1708437050.282604,-2.147475242614746,-1.3350259524634858,-2.5259879271136683,6.123971569329061,1.0161383152008057,-2.814782683049337
1708437050.2846596,-2.147486925125122,-1.3350301545909424,-2.525971237813131,6.123930322914877,1.0162125825881958,-2.814803425465719
1708437050.2866087,-2.1475319862365723,-1.335009441976883,-2.5260193983661097,6.123971569329061,1.0161800384521484,-2.814803425465719
1708437050.288609,-2.147545576095581,-1.3350750368884583,-2.5259667078601282,6.124013054161825,1.0161919593811035,-2.814770285283224
1708437050.2905781,-2.147495746612549,-1.3350137037089844,-2.525992457066671,6.123943435936727,1.0161468982696533,-2.814812485371725
1708437050.2925847,-2.147475481033325,-1.3350175631097336,-2.5259788672076624,6.1239585755165,1.016167163848877,-2.8148048559771937
1708437050.2946231,-2.14749813079834,-1.3350743365338822,-2.5259998480426233,6.12392686584548,1.0161341428756714,-2.81478721300234
1708437050.2965763,-2.147519588470459,-1.3350378733924408,-2.5259788672076624,6.123959648400106,1.0161508321762085,-2.814791504536764
1708437050.298579,-2.147510528564453,-1.3350709092668076,-2.5260120073901575,6.123926031380453,1.0161683559417725,-2.814807717000143
1708437050.3005762,-2.147524118423462,-1.3349891614964982,-2.5260329882251185,6.123922455101766,1.0161683559417725,-2.814812485371725
1708437050.3025901,-2.147524118423462,-1.3350462776473542,-2.5259788672076624,6.123992192536154,1.0162038803100586,-2.81478721300234
1708437050.3045857,-2.1475160121917725,-1.3350907874158402,-2.52595025697817,6.123930322914877,1.0161683559417725,-2.814737621937887
1708437050.3065705,-2.1475071907043457,-1.3350301396897812,-2.5259788672076624,6.12392686584548,1.0161876678466797,-2.81478721300234
1708437050.3086033,-2.147486925125122,-1.3350462776473542,-2.5259788672076624,6.123913872032919,1.0161552429199219,-2.8148167769061487
1708437050.3105602,-2.14749813079834,-1.3350701195052643,-2.5260210672961634,6.1239521382148645,1.0161714553833008,-2.8148003260241907
1708437050.3125763,-2.147524118423462,-1.3350336414626618,-2.5259984175311487,6.12393473365859,1.0161757469177246,-2.814807717000143
1708437050.314588,-2.1475026607513428,-1.3350053292563935,-2.5260329882251185,6.123950946121969,1.0161514282226562,-2.8147745768176478
1708437050.3165884,-2.147495746612549,-1.3350666624358674,-2.5260120073901575,6.12392686584548,1.0161595344543457,-2.814852301274435
1708437050.3185878,-2.1475071907043457,-1.3350217652371903,-2.5259788672076624,6.123911726265707,1.0161426067352295,-2.814782683049337
1708437050.3205743,-2.147458553314209,-1.3350378733924408,-2.525971237813131,6.123926031380453,1.0161974430084229,-2.814796034489767
1708437050.322565,-2.1474661827087402,-1.3350259524634858,-2.5259833971606653,6.123955237656393,1.0161306858062744,-2.8147407213794153
1708437050.324617,-2.147519588470459,-1.3350301694921036,-2.5259833971606653,6.123935568123617,1.0161514282226562,-2.814799133931295
1708437050.3265576,-2.147528648376465,-1.335062415604927,-2.5259817282306116,6.123959648400106,1.0162125825881958,-2.814796034489767
1708437050.3285842,-2.1475071907043457,-1.3349976551583786,-2.5260210672961634,6.123873340874471,1.0161725282669067,-2.814812246953146
1708437050.3305879,-2.147475242614746,-1.3350175333074112,-2.5259788672076624,6.1239192364509485,1.0161552429199219,-2.81484038034548
1708437050.3326097,-2.147524118423462,-1.335025967364647,-2.5259788672076624,6.123955237656393,1.0161845684051514,-2.814782683049337
1708437050.3345835,-2.147484302520752,-1.3350336116603394,-2.5259457270251673,6.123943435936727,1.0162255764007568,-2.8148449102984827
1708437050.3365893,-2.1475071907043457,-1.335021735434868,-2.5259998480426233,6.123939025193014,1.0161962509155273,-2.8147791067706507
1708437050.3385675,-2.147510528564453,-1.335045502786972,-2.5259788672076624,6.123956548958578,1.0161595344543457,-2.814847771321432
1708437050.3405962,-2.147519588470459,-1.3350659173778077,-2.5259667078601282,6.123882162361898,1.0161595344543457,-2.814852301274435
1708437050.3425639,-2.1475906372070312,-1.3350175333074112,-2.5259907881366175,6.123862731247701,1.0161962509155273,-2.8147745768176478
1708437050.3445854,-2.147458553314209,-1.3350582134774704,-2.5259788672076624,6.123894321709432,1.0161508321762085,-2.814803425465719
1708437050.3465908,-2.147547960281372,-1.3350095015815278,-2.5259953180896204,6.123898732453146,1.0161426067352295,-2.814749542866842
1708437050.348572,-2.147524118423462,-1.335049794321396,-2.5260210672961634,6.123927938729086,1.0161800384521484,-2.81478721300234
1708437050.350601,-2.1475071907043457,-1.3350336414626618,-2.5260120073901575,6.123877751618185,1.0161683559417725,-2.814782683049337
1708437050.3525732,-2.147491216659546,-1.335050569181778,-2.5259788672076624,6.123889910965719,1.0161383152008057,-2.814770285283224
1708437050.3545768,-2.147458553314209,-1.3350137037089844,-2.525971237813131,6.12391613700942,1.0162169933319092,-2.81478721300234
1708437050.3566034,-2.147515058517456,-1.335049794321396,-2.5259576479541224,6.1239192364509485,1.0161757469177246,-2.814803425465719
1708437050.3585567,-2.14748215675354,-1.335033656363823,-2.5260043779956263,6.123936641007223,1.0161595344543457,-2.814762894307272
1708437050.3605764,-2.1475071907043457,-1.3350462776473542,-2.5259788672076624,6.123886453896322,1.0161595344543457,-2.814791504536764
1708437050.362568,-2.147514820098877,-1.3350785386613389,-2.5259907881366175,6.123911726265707,1.0161595344543457,-2.814803425465719
1708437050.364615,-2.1475071907043457,-1.3350179952434083,-2.525954786931173,6.123890864640035,1.0161552429199219,-2.81478721300234
1708437050.3665917,-2.147475242614746,-1.3350462776473542,-2.5259833971606653,6.123923647194662,1.0161595344543457,-2.814791504536764
1708437050.3685997,-2.1475002765655518,-1.3350293648293992,-2.5260043779956263,6.123911726265707,1.0161757469177246,-2.814848009740011
1708437050.3705902,-2.14749813079834,-1.3350301545909424,-2.5260239283191126,6.123952972679891,1.0161714553833008,-2.8148003260241907
1708437050.3725808,-2.147454023361206,-1.3350743365338822,-2.5259576479541224,6.123935568123617,1.0161426067352295,-2.8147671858416956
1708437050.3745842,-2.147475481033325,-1.3350949895432969,-2.525992457066671,6.1238136170204065,1.0161638259887695,-2.814799133931295
1708437050.3765972,-2.1475117206573486,-1.335062415604927,-2.5260329882251185,6.123886453896322,1.0161800384521484,-2.814799133931295
1708437050.3785775,-2.1475071907043457,-1.3350462776473542,-2.5259621779071253,6.123907434731283,1.0161844491958618,-2.8147791067706507
1708437050.3806038,-2.1475250720977783,-1.3349933636239548,-2.5259576479541224,6.123834240227499,1.0161845684051514,-2.814819637929098
1708437050.3825696,-2.1474661827087402,-1.3350462776473542,-2.5259879271136683,6.123870241432943,1.0161683559417725,-2.814807717000143
1708437050.3846114,-2.147554397583008,-1.335022197370865,-2.5259788672076624,6.123907434731283,1.0161715745925903,-2.814812246953146
1708437050.3866365,-2.1474392414093018,-1.3350547862103959,-2.5259698073016565,6.123898732453146,1.0162007808685303,-2.814796034489767
1708437050.3886392,-2.14743709564209,-1.3350010824254532,-2.5259698073016565,6.123846399575033,1.0161221027374268,-2.814803425465719
1708437050.390644,-2.1475071907043457,-1.335017980342247,-2.5260043779956263,6.123886453896322,1.0161426067352295,-2.814796034489767
1708437050.3926466,-2.147554397583008,-1.3350301545909424,-2.5260148684131067,6.123907434731283,1.0161800384521484,-2.81478721300234
1708437050.394621,-2.1474673748016357,-1.3349968057921906,-2.5260043779956263,6.123842227249899,1.0161395072937012,-2.8148165384875696
1708437050.3966048,-2.1475071907043457,-1.3350870621255417,-2.5260043779956263,6.1239192364509485,1.0161800384521484,-2.814765755330221
1708437050.3985946,-2.1475045680999756,-1.3350301545909424,-2.5260210672961634,6.123886453896322,1.0161306858062744,-2.814791504536764
1708437050.400584,-2.147475481033325,-1.3350179952434083,-2.5260043779956263,6.123870241432943,1.0161962509155273,-2.814791504536764
1708437050.4025774,-2.1475284099578857,-1.335062415604927,-2.5259984175311487,6.123858439713278,1.0161595344543457,-2.814831558858053
1708437050.4046068,-2.1475048065185547,-1.3350094568780442,-2.5260120073901575,6.12386583068923,1.0161144733428955,-2.814803425465719
1708437050.406603,-2.1475205421447754,-1.3350259524634858,-2.5259998480426233,6.123890864640035,1.0161638259887695,-2.814782683049337
1708437050.4086246,-2.1475160121917725,-1.335062400703766,-2.5259953180896204,6.123887526779928,1.0161340236663818,-2.81478721300234
1708437050.410582,-2.1475250720977783,-1.335013673906662,-2.5260165373431605,6.1238876459892175,1.0161470174789429,-2.8147833983050745
1708437050.4126537,-2.1474931240081787,-1.33500528455291,-2.5259743372546595,6.123867022782125,1.0161962509155273,-2.814812246953146
1708437050.4146035,-2.147475481033325,-1.335021750336029,-2.5259879271136683,6.123939859658041,1.016196370124817,-2.8147791067706507
1708437050.416641,-2.1475160121917725,-1.3350131970695038,-2.5260165373431605,6.1238136170204065,1.0161340236663818,-2.814758364354269
1708437050.418577,-2.147449493408203,-1.3350386780551453,-2.5259788672076624,6.123907434731283,1.0161800384521484,-2.814791504536764
1708437050.4205976,-2.1475181579589844,-1.3350259077600022,-2.5260120073901575,6.12391613700942,1.0162169933319092,-2.814815346394674
1708437050.4226205,-2.1475374698638916,-1.3350259524634858,-2.5259743372546595,6.123882162361898,1.0161876678466797,-2.814791504536764
1708437050.424555,-2.147495746612549,-1.3350301694921036,-2.525975767766134,6.123886453896322,1.0161352157592773,-2.814835850392477
1708437050.4265604,-2.147495746612549,-1.3350700748017807,-2.5259698073016565,6.123939859658041,1.0161551237106323,-2.8148565928088587
1708437050.4285634,-2.1475250720977783,-1.3350344461253663,-2.5259698073016565,6.12390302398757,1.016167163848877,-2.814803425465719
1708437050.4305754,-2.1475181579589844,-1.3350010824254532,-2.5259907881366175,6.123916971474447,1.0161714553833008,-2.814824167882101
1708437050.4326196,-2.1475071907043457,-1.335025967364647,-2.5260165373431605,6.123883354454794,1.0161714553833008,-2.81478721300234
1708437050.4346056,-2.1474549770355225,-1.3350301694921036,-2.52600866953005,6.1239192364509485,1.0161683559417725,-2.814852301274435
1708437050.4365692,-2.147458553314209,-1.335013286476471,-2.5259667078601282,6.123898732453146,1.0161800384521484,-2.814819637929098
1708437050.4385633,-2.1474435329437256,-1.335021750336029,-2.5259788672076624,6.123907434731283,1.0161426067352295,-2.814791504536764
1708437050.4405963,-2.1474931240081787,-1.335050569181778,-2.5259907881366175,6.123886453896322,1.0161757469177246,-2.814803425465719
1708437050.4425747,-2.1474764347076416,-1.335062415604927,-2.5259907881366175,6.123883354454794,1.0161670446395874,-2.814824167882101
1708437050.4445593,-2.1475002765655518,-1.3350505244782944,-2.5260074774371546,6.123916017800131,1.0161595344543457,-2.8148685137378138
1708437050.4465592,-2.147488832473755,-1.3349849593690415,-2.52600866953005,6.123827922135153,1.0161876678466797,-2.814799133931295
1708437050.4485993,-2.1475205421447754,-1.3350259524634858,-2.5259953180896204,6.123932349472799,1.0162291526794434,-2.814843479787008
1708437050.4505546,-2.1474807262420654,-1.3350497645190735,-2.5260210672961634,6.123895156174459,1.0161638259887695,-2.814819637929098
1708437050.4525917,-2.1474764347076416,-1.3350175333074112,-2.525996987019674,6.12387894371108,1.016162633895874,-2.814799133931295
1708437050.4545593,-2.147430181503296,-1.335025967364647,-2.5260074774371546,6.12390302398757,1.0161638259887695,-2.814803425465719
1708437050.4566095,-2.1474719047546387,-1.3350378733924408,-2.5259788672076624,6.12390302398757,1.0161800384521484,-2.814803425465719
1708437050.4585648,-2.1474809646606445,-1.3350301396897812,-2.5259953180896204,6.123960721283712,1.0161951780319214,-2.814803425465719
1708437050.4605656,-2.1474931240081787,-1.3350581985763093,-2.5259998480426233,6.123895156174459,1.0161876678466797,-2.8147903124438685
1708437050.462588,-2.1474595069885254,-1.3350259524634858,-2.5260120073901575,6.123895156174459,1.01622474193573,-2.8147783915149134
1708437050.4645681,-2.1474931240081787,-1.3350539964488526,-2.5260043779956263,6.123920428543844,1.0161714553833008,-2.8148110548602503
1708437050.4666,-2.147430181503296,-1.3350742918303986,-2.5260165373431605,6.123861539154806,1.0161951780319214,-2.814819637929098
1708437050.4685829,-2.1474685668945312,-1.335066707139351,-2.5259576479541224,6.123895156174459,1.016244649887085,-2.8148391882525843
1708437050.4705665,-2.1474976539611816,-1.3349967312863846,-2.5259576479541224,6.123914944916525,1.0161962509155273,-2.8147903124438685
1708437050.4726415,-2.1474640369415283,-1.334997610454895,-2.5259667078601282,6.123952019005575,1.0161951780319214,-2.814815346394674
1708437050.4745755,-2.147430181503296,-1.3350623709014435,-2.5259833971606653,6.123895156174459,1.0162030458450317,-2.8148110548602503
1708437050.4766016,-2.1474392414093018,-1.3350180250457306,-2.5259953180896204,6.1239181635673425,1.0162489414215088,-2.814884964619772
1708437050.478573,-2.147488832473755,-1.3350301396897812,-2.5259833971606653,6.123910653382101,1.0162568092346191,-2.81486422220339
1708437050.4806223,-2.1474640369415283,-1.3350616705468674,-2.5259833971606653,6.123861539154806,1.0162030458450317,-2.814803425465719
1708437050.4826016,-2.147463083267212,-1.3350259524634858,-2.5260210672961634,6.123922455101766,1.0162773132324219,-2.814892355595724
1708437050.4845765,-2.1474549770355225,-1.3350301396897812,-2.5260074774371546,6.123914944916525,1.0162479877471924,-2.814843479787008
1708437050.4866433,-2.1474764347076416,-1.3350708347610016,-2.5260284582721155,6.123955356865682,1.0162523984909058,-2.814848009740011
1708437050.4886203,-2.1474132537841797,-1.3350427460721512,-2.5260074774371546,6.12392686584548,1.0162805318832397,-2.814855400715963
1708437050.4905808,-2.1474764347076416,-1.3350344610265275,-2.5260165373431605,6.1239192364509485,1.0162793397903442,-2.814876143132345
1708437050.4926128,-2.1474719047546387,-1.3350666922381897,-2.5259998480426233,6.1239062426383875,1.0162793397903442,-2.8148511091815394
1708437050.4945683,-2.1474931240081787,-1.3350907874158402,-2.5260358492480677,6.12390302398757,1.0162793397903442,-2.8148468176471155
1708437050.496588,-2.1474807262420654,-1.3350659173778077,-2.5260239283191126,6.123894321709432,1.0163047313690186,-2.814871851597921
1708437050.4985695,-2.1474595069885254,-1.3350709092668076,-2.5260120073901575,6.123947727471151,1.0162914991378784,-2.8148184458362024
1708437050.500583,-2.147484302520752,-1.335021735434868,-2.5260494391070765,6.123877870827474,1.0163124799728394,-2.8148511091815394
1708437050.5025637,-2.1474480628967285,-1.3350386780551453,-2.5259907881366175,6.123873460083761,1.0163286924362183,-2.8148630301104944
1708437050.5045648,-2.147484302520752,-1.3350505989841004,-2.526048008595602,6.1239192364509485,1.0163047313690186,-2.8148837725268763
1708437050.5065727,-2.1474809646606445,-1.3350539219430466,-2.5260165373431605,6.123877751618185,1.0163037776947021,-2.8148918787585657
1708437050.5085895,-2.1475136280059814,-1.3350262653878708,-2.5259817282306116,6.123922455101766,1.0162829160690308,-2.8148918787585657
1708437050.5105994,-2.1474266052246094,-1.3350743365338822,-2.5259788672076624,6.123913872032919,1.0163156986236572,-2.814941469823019
1708437050.5125813,-2.147434711456299,-1.3349776279977341,-2.5259833971606653,6.123922455101766,1.016319990158081,-2.8148613611804407
1708437050.5145738,-2.147434711456299,-1.335021735434868,-2.5259791056262415,6.1239802716071985,1.0163286924362183,-2.8148961702929896
1708437050.516613,-2.147493362426758,-1.3350505393794556,-2.5260165373431605,6.1239062426383875,1.0163275003433228,-2.8148954550372522
1708437050.518569,-2.1474764347076416,-1.335013211970665,-2.5260029474841517,6.123925554543295,1.0163484811782837,-2.814915959035055
1708437050.520601,-2.1474435329437256,-1.3350344461253663,-2.5260120073901575,6.123922455101766,1.0163602828979492,-2.8149190584765833
1708437050.522586,-2.1474719047546387,-1.3350785386613389,-2.5260661284076136,6.123913872032919,1.0163484811782837,-2.8148909250842493
1708437050.5245848,-2.147488832473755,-1.335094915037491,-2.5260193983661097,6.123939025193014,1.0163112878799438,-2.814939800892965
1708437050.526619,-2.1474220752716064,-1.3350623858026047,-2.5260210672961634,6.123991358071127,1.0163319110870361,-2.814964834843771
1708437050.5285978,-2.1474673748016357,-1.3350301545909424,-2.5259984175311487,6.123910653382101,1.0163440704345703,-2.81492787996401
1708437050.530571,-2.1474673748016357,-1.3350539964488526,-2.5259953180896204,6.123998868256368,1.01630699634552,-2.814939800892965
1708437050.5325851,-2.1475090980529785,-1.3350175780108948,-2.5260239283191126,6.124004232674398,1.0163275003433228,-2.8149810473071497
1708437050.534582,-2.1475136280059814,-1.3350301098874588,-2.5260239283191126,6.124003279000082,1.016339659690857,-2.814939800892965
1708437050.5365922,-2.1474719047546387,-1.3350454580834885,-2.5260193983661097,6.124018299370565,1.0163602828979492,-2.814956251774923
1708437050.5385842,-2.1474266052246094,-1.3350344461253663,-2.526048008595602,6.123997676163473,1.0163527727127075,-2.8149312178241175
1708437050.5406146,-2.1474435329437256,-1.3350864809802552,-2.5260148684131067,6.123929250031271,1.0163319110870361,-2.8149073759662073
1708437050.542588,-2.1474809646606445,-1.3350301545909424,-2.525968376790182,6.123990285187521,1.0163930654525757,-2.8149266878711146
1708437050.5446,-2.1474807262420654,-1.3350785386613389,-2.5260074774371546,6.124030577927389,1.0163484811782837,-2.8149805704699915
1708437050.5466127,-2.1474266052246094,-1.3350824427655716,-2.526052538548605,6.124046790390768,1.0163764953613281,-2.8149431387530726
1708437050.548589,-2.1474764347076416,-1.3350582134774704,-2.526026789342062,6.124046790390768,1.0163646936416626,-2.8149386088000696
1708437050.550597,-2.1474809646606445,-1.335049794321396,-2.526043478642599,6.124046790390768,1.016318917274475,-2.8149762789355677
1708437050.5525928,-2.1474719047546387,-1.3350175035050889,-2.5260120073901575,6.124042498856344,1.0163689851760864,-2.8149505297290247
1708437050.5545964,-2.1474435329437256,-1.3350709092668076,-2.5259771982776087,6.124107706337728,1.0163679122924805,-2.814967457448141
1708437050.5566082,-2.147425651550293,-1.3350175333074112,-2.5260120073901575,6.124099123268881,1.0163559913635254,-2.8150041739093226
1708437050.5585814,-2.1475136280059814,-1.3350294095328827,-2.5259788672076624,6.124046790390768,1.0163440704345703,-2.8150044123279017
1708437050.5606253,-2.1474266052246094,-1.3350259524634858,-2.5260947386371058,6.124095904618063,1.0163354873657227,-2.814941708241598
1708437050.5625966,-2.1474506855010986,-1.3350175482085724,-2.5260358492480677,6.124078500061788,1.0163646936416626,-2.8149998823748987
1708437050.56461,-2.1474595069885254,-1.3350497645190735,-2.5259984175311487,6.124061929970541,1.0163309574127197,-2.8150325457202356
1708437050.5665767,-2.1474480628967285,-1.3350701046041031,-2.5260570685016077,6.124124038010397,1.0163722038269043,-2.8150160948382776
1708437050.5686085,-2.147484302520752,-1.3350666624358674,-2.5260193983661097,6.124094712525167,1.0163516998291016,-2.815023724232809
1708437050.5706034,-2.1474719047546387,-1.3350738894990464,-2.5260193983661097,6.124135005265035,1.0163472890853882,-2.814975086842672
1708437050.5725985,-2.1474640369415283,-1.335065872674324,-2.5260403792010706,6.124168741493978,1.0163887739181519,-2.815040175114767
1708437050.5745792,-2.1474392414093018,-1.3350378584912796,-2.5260313192950647,6.124160039215841,1.0163764953613281,-2.814986769353048
1708437050.5765896,-2.1474392414093018,-1.3350865703872223,-2.526010338460104,6.124126422196188,1.0163559913635254,-2.8149870077716272
1708437050.578609,-2.1474640369415283,-1.3350420755198975,-2.526052538548605,6.124139416008749,1.016318917274475,-2.81500751176943
1708437050.5805888,-2.1474809646606445,-1.3350259524634858,-2.5260403792010706,6.124093639641561,1.0163397789001465,-2.815003220235006
1708437050.5825763,-2.147488832473755,-1.3350010824254532,-2.5260193983661097,6.1241339323814294,1.016323208808899,-2.815059487019674
1708437050.5846353,-2.1474435329437256,-1.3350378435901185,-2.5260120073901575,6.124122130661764,1.0163484811782837,-2.8150017897235315
1708437050.5866883,-2.147463083267212,-1.3350582134774704,-2.525993887578146,6.124186265259542,1.0163516998291016,-2.8149781862842005
1708437050.5887852,-2.147462844848633,-1.335021735434868,-2.525993887578146,6.124214637070455,1.0163310766220093,-2.815023724232809
1708437050.590614,-2.147484302520752,-1.335042120223381,-2.5260403792010706,6.124161231308737,1.0163764953613281,-2.81503135362734
1708437050.5926049,-2.1475117206573486,-1.3350701195052643,-2.5259953180896204,6.124185192375936,1.0163275003433228,-2.815064016972677
1708437050.5945876,-2.1475045680999756,-1.3350658875754853,-2.5260120073901575,6.124205934792318,1.0163310766220093,-2.8150270620929163
1708437050.5966146,-2.1475002765655518,-1.3350293201259156,-2.52596098581423,6.124247181206503,1.0163440704345703,-2.8150506655322474
1708437050.5985656,-2.1474461555480957,-1.335045502786972,-2.5260165373431605,6.124198066979208,1.0163516998291016,-2.81503135362734
1708437050.6006062,-2.1475002765655518,-1.3350539964488526,-2.5260193983661097,6.124217855721273,1.0163354873657227,-2.8150389830218714
1708437050.6025693,-2.1475002765655518,-1.3350950342467804,-2.5260313192950647,6.1242549298103235,1.0163602828979492,-2.815047566090719
1708437050.6045668,-2.1475002765655518,-1.3350053292563935,-2.526010338460104,6.124271261482992,1.016363501548767,-2.8150726000415247
1708437050.606568,-2.1474931240081787,-1.3350539964488526,-2.5259862581836146,6.1242103455360315,1.016326665878296,-2.8150344530688685
1708437050.6085591,-2.1474506855010986,-1.3350293350270768,-2.526059929524557,6.12428759315566,1.0163559913635254,-2.815059487019674
1708437050.6105864,-2.1474931240081787,-1.3350701195052643,-2.526055399571554,6.124295103340902,1.0163559913635254,-2.8150809446917933
1708437050.6125753,-2.1474390029907227,-1.3350462776473542,-2.5260074774371546,6.124271619110861,1.0163440704345703,-2.8150633017169397
1708437050.614567,-2.147434711456299,-1.3350539815476914,-2.5260313192950647,6.124295103340902,1.0163646936416626,-2.8150633017169397
1708437050.616583,-2.1474595069885254,-1.3350420755198975,-2.526052538548605,6.12424515464858,1.0163679122924805,-2.8151047865497034
1708437050.618556,-2.1474764347076416,-1.3350785386613389,-2.5260313192950647,6.124262559204855,1.0163559913635254,-2.8150675932513636
1708437050.6205893,-2.147479772567749,-1.335095004444458,-2.5260358492480677,6.1243029711540125,1.0163800716400146,-2.815066401158468
1708437050.622569,-2.147479772567749,-1.3350175333074112,-2.526043478642599,6.124299394875326,1.0163646936416626,-2.8150795141803187
1708437050.624567,-2.1474764347076416,-1.335021735434868,-2.5260313192950647,6.124316084175863,1.0163679122924805,-2.8150256315814417
1708437050.6265728,-2.147479772567749,-1.3350498092225571,-2.5260029474841517,6.124287473946371,1.0163310766220093,-2.8150675932513636
1708437050.6285744,-2.1475117206573486,-1.3350378733924408,-2.526076618825094,6.124257075577535,1.0163800716400146,-2.8150795141803187
1708437050.6305559,-2.1475090980529785,-1.335045502786972,-2.526043478642599,6.124342906266012,1.0163559913635254,-2.815050188695089
1708437050.6325512,-2.147491216659546,-1.3350175631097336,-2.5260239283191126,6.124265777855673,1.0163722038269043,-2.815103356038229
1708437050.6345797,-2.1474764347076416,-1.3350210201791306,-2.5260148684131067,6.124298560410299,1.0163472890853882,-2.815075222645895
1708437050.636557,-2.1475048065185547,-1.3351027083447953,-2.5259984175311487,6.124332177429952,1.0163679122924805,-2.815066401158468
1708437050.638554,-2.1475329399108887,-1.3350293648293992,-2.5259984175311487,6.124281275063314,1.0163887739181519,-2.8151446024524134
1708437050.6405764,-2.147458553314209,-1.3350581985763093,-2.526043478642599,6.124375688820638,1.0163722038269043,-2.8151047865497034
1708437050.642886,-2.147491216659546,-1.3350780767253418,-2.526034418736593,6.124273288040914,1.0163472890853882,-2.815103356038229
1708437050.6445858,-2.1475160121917725,-1.3350540113500138,-2.5260120073901575,6.124338614731588,1.0163428783416748,-2.815082852040426
1708437050.6465623,-2.147462844848633,-1.335021049981453,-2.5260239283191126,6.124360072403707,1.016318917274475,-2.8151076475726526
1708437050.6485736,-2.147550106048584,-1.3350984913161774,-2.5260403792010706,6.1243430254753015,1.0163516998291016,-2.8150902430163782
1708437050.6505592,-2.1474673748016357,-1.3350942146829148,-2.526010338460104,6.124342906266012,1.0164215564727783,-2.815103356038229
1708437050.652559,-2.1475117206573486,-1.3351103377393265,-2.5259698073016565,6.124355184822836,1.016384482383728,-2.815131489430563
1708437050.654571,-2.1475160121917725,-1.3350659173778077,-2.525989357625143,6.124366032868185,1.0163516998291016,-2.815103356038229
1708437050.6565795,-2.14748215675354,-1.3351103228381653,-2.5260358492480677,6.1243865368659876,1.0163602828979492,-2.81511098543276
1708437050.6585648,-2.147486686706543,-1.3350573939136048,-2.5260284582721155,6.124394404679098,1.0163275003433228,-2.815131489430563
1708437050.6605716,-2.147458553314209,-1.335033656363823,-2.5260029474841517,6.124422538071432,1.0163397789001465,-2.8151195685016077
1708437050.6625745,-2.147524118423462,-1.3350336861661454,-2.526034418736593,6.124413955002584,1.016397476196289,-2.815099064503805
1708437050.6645894,-2.147495746612549,-1.3350742620280762,-2.526055399571554,6.124443161278524,1.016318917274475,-2.815160338078634
1708437050.666555,-2.1475117206573486,-1.3350828301957627,-2.526010338460104,6.124442326813497,1.0163764953613281,-2.8151195685016077
1708437050.6685612,-2.147495746612549,-1.335033656363823,-2.526130263005392,6.124446737557211,1.0163764953613281,-2.815115276967184
1708437050.6705532,-2.147475242614746,-1.3350992810777207,-2.526059929524557,6.1244380352790735,1.0163679122924805,-2.815094772969381
1708437050.6725805,-2.147519588470459,-1.335062415604927,-2.526010338460104,6.124478328018942,1.016318917274475,-2.815131489430563
1708437050.6745763,-2.147454023361206,-1.3350293797305604,-2.5260358492480677,6.124417173653402,1.0163145065307617,-2.8151076475726526
1708437050.6765823,-2.1475284099578857,-1.3350743365338822,-2.52606445947756,6.1244051335151575,1.0163679122924805,-2.815131489430563
1708437050.678582,-2.1474673748016357,-1.335045502786972,-2.5259726683246058,6.1244051335151575,1.0163602828979492,-2.815101925526754
1708437050.6806026,-2.14748215675354,-1.3350582134774704,-2.5260165373431605,6.124454247742452,1.0163764953613281,-2.815147940312521
1708437050.682564,-2.147479772567749,-1.3350866001895447,-2.526059929524557,6.12446295002059,1.0163559913635254,-2.8151066938983362
1708437050.6846075,-2.147528648376465,-1.3350539815476914,-2.5260313192950647,6.124402034073629,1.0163484811782837,-2.815122906361715
1708437050.6866815,-2.147524118423462,-1.3350659173778077,-2.5260074774371546,6.124421465187826,1.0163809061050415,-2.815131489430563
1708437050.6886666,-2.1475071907043457,-1.3350251627019425,-2.526052538548605,6.124458539276876,1.0163397789001465,-2.815115276967184
1708437050.690586,-2.147557020187378,-1.3350132417729874,-2.526048008595602,6.1244380352790735,1.0163602828979492,-2.815160338078634
1708437050.692607,-2.147495746612549,-1.3350532066873093,-2.5260735193835657,6.124492275505819,1.0163559913635254,-2.8151522318469446
1708437050.6945682,-2.1475026607513428,-1.3350259524634858,-2.5260029474841517,6.124429213791647,1.0163809061050415,-2.815139118825094
1708437050.696618,-2.147550106048584,-1.3350616258433838,-2.526038948689596,6.124445545464315,1.0163931846618652,-2.815176788960592
1708437050.6985734,-2.1475160121917725,-1.3350498092225571,-2.526048008595602,6.124430167465963,1.0163319110870361,-2.8151515165912073
1708437050.7006109,-2.147486686706543,-1.3350259524634858,-2.5259984175311487,6.12443362453536,1.0163559913635254,-2.8151429335223597
1708437050.7026002,-2.147493600845337,-1.3350743067315598,-2.526026789342062,6.124430167465963,1.0163559913635254,-2.8151796499835413
1708437050.704591,-2.147519588470459,-1.3350865405849,-2.526048008595602,6.124446737557211,1.0163764953613281,-2.815139118825094
1708437050.7065656,-2.147486925125122,-1.3350370836308976,-2.5260313192950647,6.124454247742452,1.0163275003433228,-2.8151515165912073
1708437050.7085986,-2.1475026607513428,-1.3350823682597657,-2.5260615984546106,6.124400841980734,1.0163397789001465,-2.8151472250567835
1708437050.7105932,-2.1474661827087402,-1.3350615960410614,-2.526043478642599,6.124384748726644,1.0163472890853882,-2.8151548544513147
1708437050.7126138,-2.147536516189575,-1.3349841696074982,-2.526048008595602,6.124483454018392,1.0163440704345703,-2.8151796499835413
1708437050.7145777,-2.1475284099578857,-1.3350823682597657,-2.526010338460104,6.1244051335151575,1.0163319110870361,-2.815221134816305
1708437050.7165885,-2.147519588470459,-1.3350293648293992,-2.526010338460104,6.124442326813497,1.0163319110870361,-2.8151710669146937
1708437050.7185764,-2.147519588470459,-1.3351349842599411,-2.526055399571554,6.124426948815145,1.016323208808899,-2.8151384035693567
1708437050.7205882,-2.147514820098877,-1.3350865554860611,-2.526022259389059,6.124400961190023,1.0163397789001465,-2.8151591459857386
1708437050.7226222,-2.147519588470459,-1.3350701195052643,-2.5260148684131067,6.124413955002584,1.0163764953613281,-2.8151591459857386
1708437050.7245815,-2.147541046142578,-1.3350823831609269,-2.526005808507101,6.124405252724447,1.0163484811782837,-2.8151753584491175
1708437050.726567,-2.147477626800537,-1.3350659322789689,-2.526026789342062,6.124421465187826,1.016318917274475,-2.815150324498312
1708437050.728593,-2.147479772567749,-1.3350743365338822,-2.5260148684131067,6.124380337982931,1.0163397789001465,-2.8151472250567835
1708437050.730582,-2.14748215675354,-1.335106910472252,-2.5260193983661097,6.124446737557211,1.0163602828979492,-2.8152077833758753
1708437050.7326133,-2.1474661827087402,-1.3350006353906174,-2.52600604692568,6.124458539276876,1.016323208808899,-2.8151472250567835
1708437050.7345588,-2.147545576095581,-1.3350823682597657,-2.526059929524557,6.1244051335151575,1.0163484811782837,-2.8151872793780726
1708437050.736585,-2.147561550140381,-1.3351061356118699,-2.52606445947756,6.124454247742452,1.0163800716400146,-2.8151915709124964
1708437050.7385695,-2.147486925125122,-1.3350539964488526,-2.526048008595602,6.124446737557211,1.0163646936416626,-2.8151753584491175
1708437050.7405748,-2.147493600845337,-1.3351027083447953,-2.526048008595602,6.124458539276876,1.016323208808899,-2.81516677538027
1708437050.7425869,-2.147524118423462,-1.3350455176881333,-2.526048008595602,6.124449956208029,1.0163025856018066,-2.8152123133288782
1708437050.744583,-2.147519588470459,-1.335029424434044,-2.526043478642599,6.124455439835348,1.0163275003433228,-2.8151992003070276
1708437050.746614,-2.1475071907043457,-1.3350574237159272,-2.526059929524557,6.124442326813497,1.0163310766220093,-2.8152077833758753
1708437050.7485723,-2.147524118423462,-1.3350412857583542,-2.526022259389059,6.124438750534811,1.0163317918777466,-2.815240446721212
1708437050.7505596,-2.147541046142578,-1.3350462776473542,-2.526048008595602,6.124364959984579,1.0163484811782837,-2.815174166356222
1708437050.752615,-2.147479772567749,-1.3350132417729874,-2.525993887578146,6.124446737557211,1.0163112878799438,-2.8151753584491175
1708437050.7545576,-2.147541046142578,-1.335053176884987,-2.5260313192950647,6.124438750534811,1.0163440704345703,-2.815223042164938
1708437050.7565987,-2.1475162506103516,-1.335114673977234,-2.526121441517965,6.1244380352790735,1.0163275003433228,-2.8151915709124964
1708437050.75856,-2.1475026607513428,-1.3351111275008698,-2.526022259389059,6.124422538071432,1.0163100957870483,-2.8152437845813196
1708437050.7605834,-2.1475026607513428,-1.3350780469230195,-2.526059929524557,6.124422538071432,1.016318917274475,-2.8152392546283167
1708437050.7626204,-2.147515058517456,-1.3350984466126938,-2.526043478642599,6.124443161278524,1.016381025314331,-2.8152435461627405
1708437050.7646027,-2.147524118423462,-1.3350413304618378,-2.526043478642599,6.124410617142477,1.0163602828979492,-2.8152077833758753
1708437050.7666044,-2.147515058517456,-1.3350701195052643,-2.526026789342062,6.124385702400961,1.016381025314331,-2.81516677538027
1708437050.7685814,-2.14748215675354,-1.335089997654297,-2.52606445947756,6.1244388697441,1.0163484811782837,-2.815174166356222
1708437050.770555,-2.1475026607513428,-1.3350574386170884,-2.526046339665548,6.124419438629904,1.0163602828979492,-2.8152435461627405
1708437050.7726097,-2.14748215675354,-1.3350865852883835,-2.526038948689596,6.124402034073629,1.0163602828979492,-2.81519061723818
1708437050.7745626,-2.1475026607513428,-1.3350985658219834,-2.526081148778097,6.124442326813497,1.0163602828979492,-2.815202538167135
1708437050.7766094,-2.1475815773010254,-1.335045502786972,-2.526026789342062,6.124369251519003,1.0163602828979492,-2.815218750630514
1708437050.7785914,-2.1475026607513428,-1.3350454580834885,-2.5260375181781214,6.124381410866537,1.0163559913635254,-2.815214220677511
1708437050.7805822,-2.147515058517456,-1.3350455325892945,-2.526072088872091,6.124439823418417,1.0163722038269043,-2.815223042164938
1708437050.7826197,-2.147519588470459,-1.3350336116603394,-2.526041809712545,6.1243770001228235,1.0163646936416626,-2.815263573323385
1708437050.7845697,-2.1475162506103516,-1.3350780767253418,-2.526072088872091,6.124430167465963,1.0163516998291016,-2.815174166356222
1708437050.7867,-2.14749813079834,-1.3350781065276642,-2.5260630289660853,6.124397742539205,1.016318917274475,-2.8152392546283167
1708437050.788671,-2.1475071907043457,-1.3351145845702668,-2.526046339665548,6.1243735430534265,1.0163764953613281,-2.815223042164938
1708437050.7906091,-2.147545576095581,-1.3350701195052643,-2.526104990636007,6.124406325608053,1.0163397789001465,-2.8152430693255823
1708437050.7926662,-2.147541046142578,-1.3350701344064255,-2.5260630289660853,6.124406325608053,1.0162994861602783,-2.8152604738818567
1708437050.7945917,-2.1475026607513428,-1.3350251776031037,-2.526088539754049,6.1243865368659876,1.0163646936416626,-2.815251890813009
1708437050.7965922,-2.1475026607513428,-1.335127131347992,-2.5260630289660853,6.124357211380758,1.0163156986236572,-2.8152273336993616
1708437050.7985685,-2.147486925125122,-1.335061640744545,-2.5261243025409144,6.124369132309713,1.0163440704345703,-2.8152604738818567
1708437050.8005881,-2.1475026607513428,-1.335041345362999,-2.5260868708239954,6.124410617142477,1.0163354873657227,-2.8152034918414515
1708437050.8026001,-2.1475026607513428,-1.3350780767253418,-2.5260823408709925,6.124324786454,1.0163679122924805,-2.815272394810812
1708437050.8045678,-2.1475026607513428,-1.3350739044002076,-2.5261197725879114,6.124379026680746,1.01630699634552,-2.8152392546283167
1708437050.8065805,-2.14748215675354,-1.3350823682597657,-2.5261486212359827,6.124352919846334,1.0163800716400146,-2.815234963093893
1708437050.8086061,-2.147536516189575,-1.3350780767253418,-2.5260704199420374,6.1243334887321375,1.0163397789001465,-2.8152053991900843
1708437050.8106031,-2.147587299346924,-1.3351027381471177,-2.5261316935168665,6.124257075577535,1.016323208808899,-2.8152769247638147
1708437050.8125982,-2.1475071907043457,-1.3350866001895447,-2.5261152426349085,6.124277698784628,1.0163930654525757,-2.815218750630514
1708437050.8145745,-2.147479772567749,-1.3350420606187363,-2.526113573704855,6.124270188599386,1.0163484811782837,-2.815247360860006
1708437050.8165982,-2.147557020187378,-1.3350701195052643,-2.5261016527758997,6.1242384789283655,1.0163112878799438,-2.8152769247638147
1708437050.818573,-2.1475117206573486,-1.3350581687739869,-2.5260897318469446,6.124250399857321,1.016363501548767,-2.815251890813009
1708437050.8205934,-2.1474661827087402,-1.3350540113500138,-2.5261486212359827,6.124161231308737,1.0163319110870361,-2.815247360860006
1708437050.8226132,-2.147519588470459,-1.3350371283343812,-2.5260897318469446,6.124206769257345,1.0164097547531128,-2.815223042164938
1708437050.824598,-2.147486925125122,-1.3350539964488526,-2.5261650721179407,6.124214637070455,1.0163887739181519,-2.81523043314089
1708437050.8265984,-2.147519588470459,-1.3350574386170884,-2.5261226336108606,6.124219047814169,1.016363501548767,-2.8152592817889612
1708437050.8285935,-2.147515058517456,-1.3350984764150162,-2.526113573704855,6.12419484832839,1.016397476196289,-2.815234963093893
1708437050.8306124,-2.14749813079834,-1.335061640744545,-2.5261650721179407,6.124227630883016,1.0163679122924805,-2.815256182347433
1708437050.8325899,-2.147564649581909,-1.3350900274566193,-2.5261016527758997,6.124248254090109,1.0164053440093994,-2.815234963093893
1708437050.8345883,-2.147545576095581,-1.3350616556457062,-2.526097122822897,6.124158131867208,1.0163679122924805,-2.815272394810812
1708437050.8365998,-2.147477626800537,-1.3350823533586045,-2.5261316935168665,6.124153721123495,1.0163756608963013,-2.815198008214132
1708437050.838585,-2.147486925125122,-1.3350251627019425,-2.526156012211935,6.124227750092306,1.0163722038269043,-2.815247360860006
1708437050.8406,-2.147552490234375,-1.3350497645190735,-2.526156012211935,6.124178635865011,1.016371250152588,-2.815218750630514
1708437050.8425763,-2.1475026607513428,-1.3350701195052643,-2.5261226336108606,6.124158012657919,1.0163756608963013,-2.8152931372271937
1708437050.8446126,-2.147519588470459,-1.3351026785424729,-2.5261977354632776,6.124162423401632,1.0164096355438232,-2.815218750630514
1708437050.8465843,-2.147495746612549,-1.3351146292737504,-2.526175324116842,6.124187338143148,1.0163878202438354,-2.815226141606466
1708437050.8485959,-2.147515058517456,-1.3350582134774704,-2.5261650721179407,6.124162423401632,1.0163547992706299,-2.815226141606466
1708437050.8506062,-2.147479772567749,-1.335078091626503,-2.5261226336108606,6.12418411949233,1.0163679122924805,-2.815247360860006
1708437050.8525736,-2.147477626800537,-1.335061640744545,-2.52614409128298,6.1241057989890955,1.0164084434509277,-2.815206829701559
1708437050.8545742,-2.147479772567749,-1.3350498241237183,-2.526156012211935,6.1241057989890955,1.0164291858673096,-2.8152273336993616
1708437050.8565836,-2.147486925125122,-1.3350701195052643,-2.5261650721179407,6.124122011452474,1.0164053440093994,-2.81523043314089
1708437050.8585753,-2.147484302520752,-1.3350259375623246,-2.5261316935168665,6.124097811966696,1.0163922309875488,-2.815256182347433
1708437050.8605845,-2.147486686706543,-1.3350498241237183,-2.5261216799365442,6.124099004059591,1.0163887739181519,-2.815263573323385
1708437050.8626802,-2.1475002765655518,-1.3350780767253418,-2.526146952305929,6.12408601024703,1.0163800716400146,-2.8152111212359827
1708437050.864593,-2.147454023361206,-1.335082398062088,-2.526142422352926,6.12408601024703,1.0164084434509277,-2.815234963093893
1708437050.8665915,-2.1475026607513428,-1.3350865703872223,-2.526188675557272,6.124042498856344,1.0164291858673096,-2.815214220677511
1708437050.868589,-2.1474661827087402,-1.3350132417729874,-2.5262144247638147,6.124082791596212,1.01639986038208,-2.815234963093893
1708437050.8705704,-2.1475048065185547,-1.3350624454072495,-2.526172463093893,6.124091493874349,1.016416072845459,-2.815234963093893
1708437050.8725762,-2.1474673748016357,-1.3351390671781083,-2.5261316935168665,6.1240261671836755,1.016444444656372,-2.81519061723818
1708437050.8745809,-2.147491216659546,-1.3350540113500138,-2.5261181036578577,6.124030458718099,1.0164326429367065,-2.815234963093893
1708437050.8766046,-2.1474661827087402,-1.3351027232459565,-2.52616793314089,6.124034869461813,1.0164029598236084,-2.815181557332174
1708437050.8785653,-2.147491216659546,-1.3350294393352051,-2.526151482258932,6.124030458718099,1.0163954496383667,-2.8152111212359827
1708437050.880598,-2.1475045680999756,-1.3350336712649842,-2.526135031376974,6.123994576721945,1.0164401531219482,-2.815247360860006
1708437050.8825643,-2.147488832473755,-1.3350378435901185,-2.526151482258932,6.124015080719747,1.0164116621017456,-2.815218750630514
1708437050.8846047,-2.1474618911743164,-1.3350615960410614,-2.526156012211935,6.123981463700094,1.016416072845459,-2.815251890813009
1708437050.8865993,-2.147484302520752,-1.3350612682155152,-2.526113573704855,6.124019491463461,1.0164029598236084,-2.81523043314089
1708437050.8886504,-2.147479772567749,-1.3350498092225571,-2.5261271635638636,6.123929130821981,1.0164116621017456,-2.8152111212359827
1708437050.890577,-2.147491216659546,-1.3350412857583542,-2.526172463093893,6.123966085701742,1.0164610147476196,-2.815193478261129
1708437050.8925982,-2.1475002765655518,-1.3350539815476914,-2.526139561329977,6.123970377236166,1.016444444656372,-2.815209929143087
1708437050.8945704,-2.1475329399108887,-1.33511038244281,-2.526160542164938,6.123937833100118,1.016444444656372,-2.81523043314089
1708437050.8965724,-2.1474595069885254,-1.335045502786972,-2.526179854069845,6.12392686584548,1.0164610147476196,-2.81523043314089
1708437050.8986015,-2.147479772567749,-1.3351103079370041,-2.526130501423971,6.123918044358053,1.016465425491333,-2.815223042164938
1708437050.9006124,-2.1475048065185547,-1.3350574535182496,-2.526163403187887,6.123967158585348,1.016431450843811,-2.815206829701559
1708437050.902552,-2.1474461555480957,-1.3350659173778077,-2.526146952305929,6.1238571284110925,1.0164567232131958,-2.8152056376086634
1708437050.9046013,-2.147479772567749,-1.335033656363823,-2.526176993046896,6.123845326691427,1.0164480209350586,-2.8152650038348597
1708437050.9065757,-2.147479772567749,-1.3350573790124436,-2.52616793314089,6.1238746521766565,1.016465425491333,-2.815256182347433
1708437050.9085834,-2.1474595069885254,-1.335094915037491,-2.5261917749988,6.123935448914327,1.0164152383804321,-2.815194908772604
1708437050.9105637,-2.147434711456299,-1.3351348501494904,-2.5261181036578577,6.1239192364509485,1.0164566040039062,-2.8151729742633265
1708437050.9125822,-2.1475207805633545,-1.3350865703872223,-2.526156012211935,6.123825537949362,1.016480803489685,-2.8151772657977503
1708437050.9145732,-2.1475181579589844,-1.3350420010140915,-2.526163403187887,6.1239075539405725,1.0164480209350586,-2.815223042164938
1708437050.916585,-2.1475205421447754,-1.3351110976985474,-2.526142422352926,6.123928057938375,1.0164685249328613,-2.815272394810812
1708437050.918582,-2.1474719047546387,-1.3350132417729874,-2.5261271635638636,6.123850810318746,1.0164480209350586,-2.8151992003070276
1708437050.9205875,-2.1474673748016357,-1.3350984466126938,-2.526188913975851,6.123867022782125,1.0164685249328613,-2.815223042164938
1708437050.9225867,-2.1474640369415283,-1.335049794321396,-2.526146952305929,6.123850810318746,1.0164896249771118,-2.8152034918414515
1708437050.9246533,-2.1474344730377197,-1.335062415604927,-2.5261152426349085,6.123842942505636,1.0164598226547241,-2.8152154127704065
1708437050.926577,-2.1474976539611816,-1.3350582432797928,-2.526176993046896,6.1238757250602625,1.0164642333984375,-2.81519061723818
1708437050.9286103,-2.1474435329437256,-1.3350302439979096,-2.526126209889547,6.123871314316549,1.0164567232131958,-2.8151872793780726
1708437050.93059,-2.1474390029907227,-1.3350865405849,-2.52614409128298,6.12381790855483,1.016480803489685,-2.815234963093893
1708437050.9326243,-2.147434711456299,-1.335086615090706,-2.52614409128298,6.1238844273384,1.0164064168930054,-2.8152359167682093
1708437050.9345794,-2.1474931240081787,-1.3350175631097336,-2.526160542164938,6.123835313111105,1.0164763927459717,-2.8152273336993616
1708437050.9365969,-2.1474807262420654,-1.3350251776031037,-2.526151482258932,6.12383388259963,1.0164763927459717,-2.8152111212359827
1708437050.9385898,-2.1475002765655518,-1.3350785535625,-2.5261226336108606,6.123851644783773,1.0164480209350586,-2.81516677538027
1708437050.9405942,-2.1474006175994873,-1.3350217950395127,-2.5261216799365442,6.123851644783773,1.016451120376587,-2.815194908772604
1708437050.942593,-2.147488832473755,-1.335013286476471,-2.5261181036578577,6.123838650971212,1.0164763927459717,-2.815194908772604
1708437050.944619,-2.147477626800537,-1.3350701195052643,-2.526130501423971,6.123811590462484,1.0165263414382935,-2.8151384035693567
1708437050.946576,-2.1474356651306152,-1.3350301694921036,-2.5261061827289026,6.123807894974508,1.0164850950241089,-2.815178696309225
1708437050.9485815,-2.147414207458496,-1.3350540113500138,-2.5261486212359827,6.1238160012061975,1.0164436101913452,-2.81516677538027
1708437050.9506025,-2.1474435329437256,-1.3350701046041031,-2.526160542164938,6.123774397164144,1.0164642333984375,-2.8151548544513147
1708437050.9525847,-2.1474356651306152,-1.3350454729846497,-2.5261226336108606,6.123803603440084,1.0164480209350586,-2.8151915709124964
1708437050.9546103,-2.1474685668945312,-1.3350581687739869,-2.5261061827289026,6.123771178513326,1.0164480209350586,-2.8151710669146937
1708437050.9565804,-2.1474480628967285,-1.3350823533586045,-2.526135031376974,6.123771178513326,1.0164685249328613,-2.8151829878436487
1708437050.9585922,-2.1474220752716064,-1.3350420755198975,-2.526187245045797,6.1237830994422815,1.0165133476257324,-2.815138641987936
1708437050.9606044,-2.147414207458496,-1.3350865703872223,-2.526135031376974,6.12374626377181,1.0164436101913452,-2.8151753584491175
1708437050.9625738,-2.1474571228027344,-1.3351069253734131,-2.526154343281881,6.123795020371237,1.0164763927459717,-2.815183941517965
1708437050.9646046,-2.1474480628967285,-1.3351103526404877,-2.526139561329977,6.123759257584371,1.016480803489685,-2.8151384035693567
1708437050.9665804,-2.147418737411499,-1.3350455325892945,-2.5261226336108606,6.123751389771261,1.0164567232131958,-2.8152123133288782
1708437050.9685757,-2.147440195083618,-1.335078091626503,-2.52616793314089,6.123766886978903,1.0164523124694824,-2.8151753584491175
1708437050.9705977,-2.1474356651306152,-1.335090772514679,-2.526130501423971,6.123747098236837,1.0164895057678223,-2.8151841799365442
1708437050.9726017,-2.1474366188049316,-1.3350378733924408,-2.526160542164938,6.123750555306234,1.0164436101913452,-2.815188471470968
1708437050.9746058,-2.147383451461792,-1.335062415604927,-2.5261226336108606,6.123788583069601,1.0164685249328613,-2.815122906361715
1708437050.9765952,-2.147402763366699,-1.3350251627019425,-2.5261271635638636,6.123723256378927,1.0164642333984375,-2.81511098543276
1708437050.978585,-2.1474320888519287,-1.3350378584912796,-2.52616793314089,6.12367736080245,1.0164763927459717,-2.8151522318469446
1708437050.980637,-2.147449016571045,-1.3350616556457062,-2.526113573704855,6.123735177307882,1.0164523124694824,-2.815078322087423
1708437050.982584,-2.147400379180908,-1.3350743365338822,-2.5261181036578577,6.123727547913351,1.0164393186569214,-2.8151195685016077
1708437050.9845858,-2.147400379180908,-1.3350539964488526,-2.526139561329977,6.1236904738243005,1.0164642333984375,-2.815103356038229
1708437050.986594,-2.1473958492279053,-1.3350136888078232,-2.5261016527758997,6.123743879586019,1.0165058374404907,-2.815075222645895
1708437050.9886458,-2.147341728210449,-1.3350785684636612,-2.5261226336108606,6.123653638153829,1.016480803489685,-2.8151195685016077
1708437050.9905941,-2.147404909133911,-1.3350581985763093,-2.526135031376974,6.123714673310079,1.0164436101913452,-2.815148893986837
1708437050.9925826,-2.147416353225708,-1.3350259524634858,-2.526139561329977,6.123764502793112,1.0164763927459717,-2.815037790928976
1708437050.9945936,-2.1473915576934814,-1.33512298882518,-2.5261226336108606,6.123711335449972,1.0164721012115479,-2.8150551954852503
1708437050.996569,-2.147392511367798,-1.3350908321193238,-2.526151482258932,6.1236915467079065,1.0164436101913452,-2.8150838057147425
1708437050.998574,-2.147404909133911,-1.3350301545909424,-2.526139561329977,6.123707043915548,1.0164270401000977,-2.8150795141803187
1708437051.0005708,-2.147366762161255,-1.3350175631097336,-2.52616793314089,6.1237244484718225,1.0164642333984375,-2.8150463739978235
1708437051.0025902,-2.147409200668335,-1.3350865703872223,-2.52616793314089,6.123659121781149,1.0164151191711426,-2.8151045481311243
1708437051.0045872,-2.147416353225708,-1.3350462776473542,-2.526109043751852,6.12375687339858,1.016497015953064,-2.8150389830218714
1708437051.0065742,-2.147387981414795,-1.3350823533586045,-2.52614409128298,6.123682963639059,1.0164763927459717,-2.8150420824633997
1708437051.0086505,-2.1473641395568848,-1.3351230484298249,-2.526172463093893,6.123723256378927,1.0164642333984375,-2.815059487019674
1708437051.0105948,-2.1473968029022217,-1.3350581985763093,-2.52614409128298,6.123675334244528,1.0164763927459717,-2.815059487019674
1708437051.0125842,-2.147392511367798,-1.3350823831609269,-2.5261917749988,6.123667824059286,1.0164393186569214,-2.8150389830218714
1708437051.01458,-2.1473710536956787,-1.3351111275008698,-2.5261061827289026,6.123687255173483,1.0165002346038818,-2.8150764147387903
1708437051.0165796,-2.147343873977661,-1.3351026636413117,-2.526139561329977,6.123629915505209,1.0164721012115479,-2.8150137106524866
1708437051.0186176,-2.147339344024658,-1.3350984913161774,-2.526135031376974,6.123613464623251,1.0164480209350586,-2.815051857625143
1708437051.020604,-2.147343873977661,-1.335049794321396,-2.526160542164938,6.1236504195030115,1.0164108276367188,-2.8150389830218714
1708437051.0226028,-2.147343635559082,-1.3350336712649842,-2.5261316935168665,6.1236915467079065,1.0164270401000977,-2.815080706273214
1708437051.0245967,-2.1473755836486816,-1.3350539964488526,-2.5261181036578577,6.12366675117568,1.0165013074874878,-2.815043274556295
1708437051.026596,-2.1473968029022217,-1.335082770591118,-2.526139561329977,6.123676287918844,1.016480803489685,-2.815047566090719
1708437051.028589,-2.147343873977661,-1.3350132417729874,-2.526151482258932,6.123716461449423,1.0164567232131958,-2.815063778554098
1708437051.0306144,-2.1473145484924316,-1.3350175631097336,-2.526160542164938,6.123634207039633,1.016480803489685,-2.8149943987475794
1708437051.0326662,-2.1473820209503174,-1.3350462776473542,-2.526156012211935,6.123679625778951,1.0164729356765747,-2.815035645161764
1708437051.0346022,-2.1473686695098877,-1.3350785088590165,-2.526172463093893,6.123700248986044,1.0164599418640137,-2.8150561491595667
1708437051.0366223,-2.147294044494629,-1.335062415604927,-2.526172463093893,6.123667704849996,1.0164598226547241,-2.815019432698385
1708437051.0385745,-2.147392511367798,-1.3350293648293992,-2.526163403187887,6.1236926195915125,1.0164239406585693,-2.815003220235006
1708437051.040595,-2.147326946258545,-1.3350581985763093,-2.526151482258932,6.123700248986044,1.0164357423782349,-2.8149619738208216
1708437051.0425966,-2.147348165512085,-1.3350293648293992,-2.526113573704855,6.123720037728109,1.0164151191711426,-2.814991299306051
1708437051.0445704,-2.147343873977661,-1.335049794321396,-2.526151482258932,6.123671042710104,1.0164642333984375,-2.815011803303854
1708437051.0465841,-2.1474013328552246,-1.335062415604927,-2.5261271635638636,6.123715746193685,1.0164401531219482,-2.815011803303854
1708437051.048587,-2.1473755836486816,-1.335049794321396,-2.5261061827289026,6.1236915467079065,1.0164685249328613,-2.815035645161764
1708437051.0505898,-2.1473233699798584,-1.3350175333074112,-2.5261271635638636,6.123682963639059,1.0164357423782349,-2.81498366991152
1708437051.052585,-2.147348165512085,-1.3350259524634858,-2.5261181036578577,6.123716461449423,1.0164152383804321,-2.815011803303854
1708437051.05458,-2.1473889350891113,-1.3350378733924408,-2.52614409128298,6.123724329262533,1.0164610147476196,-2.814995590840475
1708437051.0566258,-2.147326946258545,-1.3350132417729874,-2.5260914007769983,6.1236222861106775,1.0164523124694824,-2.815011803303854
1708437051.0585973,-2.147326946258545,-1.3350420755198975,-2.5261316935168665,6.12364279010848,1.016448974609375,-2.8150456587420862
1708437051.0605805,-2.1473846435546875,-1.3350506138852616,-2.5260897318469446,6.1236764071281335,1.0164282321929932,-2.8150041739093226
1708437051.0626197,-2.147348165512085,-1.3350427758744736,-2.526097122822897,6.123634207039633,1.0164401531219482,-2.8149998823748987
1708437051.0645978,-2.147326946258545,-1.3350462776473542,-2.5261181036578577,6.123613464623251,1.0164480209350586,-2.814995590840475
1708437051.066605,-2.1473348140716553,-1.335074321632721,-2.5261362234698694,6.123638498574056,1.0163867473602295,-2.814921204243795
1708437051.068591,-2.147357225418091,-1.3350420904210587,-2.526146952305929,6.123671042710104,1.016419529914856,-2.814979378377096
1708437051.070588,-2.1473188400268555,-1.3350701195052643,-2.526160542164938,6.1236915467079065,1.0164369344711304,-2.8149636427508753
1708437051.072612,-2.147326946258545,-1.3350259375623246,-2.52614409128298,6.123617994576254,1.0164567232131958,-2.814995590840475
1708437051.0745826,-2.1473357677459717,-1.3350582134774704,-2.5261486212359827,6.123659121781149,1.0164116621017456,-2.814934317265646
1708437051.0766087,-2.147352695465088,-1.334965632562973,-2.526139561329977,6.123683917313375,1.0164239406585693,-2.814972225819723
1708437051.0786514,-2.147359609603882,-1.335049794321396,-2.5261316935168665,6.123699176102438,1.016387939453125,-2.8149593512164515
1708437051.080687,-2.1473774909973145,-1.3350659173778077,-2.5261107126819056,6.123633610993185,1.0163910388946533,-2.8149593512164515
1708437051.0826783,-2.147348165512085,-1.3350378733924408,-2.526139561329977,6.123699176102438,1.0163922309875488,-2.8149312178241175
1708437051.0846162,-2.1473348140716553,-1.335021735434868,-2.5261316935168665,6.123662221222677,1.0164369344711304,-2.8149312178241175
1708437051.0865958,-2.1473801136016846,-1.335049794321396,-2.5261486212359827,6.123674142151632,1.0164084434509277,-2.8149386088000696
1708437051.0886495,-2.1473076343536377,-1.3350018721869965,-2.5261486212359827,6.123618113785543,1.0163748264312744,-2.8149355093585413
1708437051.090589,-2.147352695465088,-1.3349850487760087,-2.5260942617999476,6.123731958657064,1.0164326429367065,-2.8149805704699915
1708437051.0926085,-2.1473641395568848,-1.3350259524634858,-2.5261181036578577,6.123683917313375,1.0163713693618774,-2.8149762789355677
1708437051.0945778,-2.147339344024658,-1.3350659173778077,-2.5260732809649866,6.123675334244528,1.0164203643798828,-2.814944092427389
1708437051.0965915,-2.147348165512085,-1.3350823682597657,-2.5260897318469446,6.123669969826498,1.0163472890853882,-2.814944092427389
1708437051.098566,-2.147352695465088,-1.335038648252823,-2.5261486212359827,6.123723256378927,1.0163679122924805,-2.814976517354147
1708437051.100571,-2.147326946258545,-1.3350137186101456,-2.526135031376974,6.123699176102438,1.0163722038269043,-2.8148825804339808
1708437051.102586,-2.1473774909973145,-1.3350420755198975,-2.52614409128298,6.1236915467079065,1.0163679122924805,-2.8149312178241175
1708437051.1045773,-2.1473190784454346,-1.3350293648293992,-2.5261271635638636,6.123728740006246,1.0163679122924805,-2.8149269262896937
1708437051.1065803,-2.1473846435546875,-1.3350539964488526,-2.5261107126819056,6.123674261360922,1.0163440704345703,-2.814967934285299
1708437051.1086001,-2.1473100185394287,-1.3350132417729874,-2.5261107126819056,6.123694765358724,1.0163559913635254,-2.8149636427508753
1708437051.1106083,-2.1474013328552246,-1.3350865703872223,-2.526139561329977,6.1236785528953455,1.0163027048110962,-2.8149150053607386
1708437051.112593,-2.147359609603882,-1.3350667220405121,-2.5261316935168665,6.123699176102438,1.0163484811782837,-2.8149150053607386
1708437051.1145794,-2.147352695465088,-1.3350420755198975,-2.5261152426349085,6.123703467636862,1.0163319110870361,-2.81495172182192
1708437051.1165905,-2.1474297046661377,-1.3350462776473542,-2.5261061827289026,6.123671042710104,1.0163527727127075,-2.8149848620044153
1708437051.1185727,-2.1473686695098877,-1.335033656363823,-2.5260942617999476,6.123661744385519,1.016319990158081,-2.814939800892965
1708437051.1205757,-2.147359609603882,-1.3350420755198975,-2.5261786619769495,6.123707759171285,1.016319990158081,-2.8149636427508753
1708437051.1225867,-2.1473686695098877,-1.3350581985763093,-2.5260658899890345,6.123682963639059,1.016308069229126,-2.8149192968951624
1708437051.1245947,-2.147359609603882,-1.3350175333074112,-2.5261107126819056,6.123694765358724,1.0162785053253174,-2.8149107138263147
1708437051.126578,-2.147397994995117,-1.3350136888078232,-2.526100460683004,6.123694765358724,1.0163124799728394,-2.814960543309347
1708437051.1285655,-2.147343873977661,-1.3350378733924408,-2.5261033217059534,6.123715626984396,1.0163124799728394,-2.8149235884295862
1708437051.1305633,-2.147322416305542,-1.3350293648293992,-2.5260823408709925,6.123748171120443,1.0162837505340576,-2.8149355093585413
1708437051.1325788,-2.147326946258545,-1.3350301545909424,-2.5260959307300013,6.123772251396932,1.016308069229126,-2.814939800892965
1708437051.1345627,-2.1473934650421143,-1.3350301545909424,-2.5260959307300013,6.12372766712264,1.0162675380706787,-2.814939800892965
1708437051.1365929,-2.1473755836486816,-1.3350539666465302,-2.5260794798480433,6.1236785528953455,1.0162829160690308,-2.814967934285299
1708437051.138563,-2.147343873977661,-1.3350132417729874,-2.526100460683004,6.1236904738243005,1.0162959098815918,-2.8149150053607386
1708437051.1405833,-2.1473801136016846,-1.3350137037089844,-2.5260794798480433,6.123730885773458,1.0162749290466309,-2.8149312178241175
1708437051.1425862,-2.147418260574341,-1.3350743365338822,-2.5260794798480433,6.123697864800253,1.016308069229126,-2.814956013356344
1708437051.1445866,-2.147339344024658,-1.3350785386613389,-2.526034418736593,6.123772370606222,1.0163242816925049,-2.8149312178241175
1708437051.146596,-2.147357225418091,-1.33500528455291,-2.526041809712545,6.123751389771261,1.0162959098815918,-2.814878288899557
1708437051.1485689,-2.147339344024658,-1.335033656363823,-2.526055399571554,6.123772251396932,1.0162469148635864,-2.81495172182192
1708437051.1505573,-2.147359609603882,-1.3349976402572175,-2.526005808507101,6.123730885773458,1.0163124799728394,-2.814967934285299
1708437051.1526034,-2.1473402976989746,-1.3350136888078232,-2.5260358492480677,6.123748171120443,1.016308069229126,-2.8149431387530726
1708437051.1545842,-2.147352695465088,-1.335038648252823,-2.5259984175311487,6.123722183495321,1.0162675380706787,-2.8149355093585413
1708437051.1566167,-2.1473357677459717,-1.3350743067315598,-2.5259607473956507,6.1237679598625085,1.0163003206253052,-2.814939800892965
1708437051.1585906,-2.1473641395568848,-1.3350581985763093,-2.526026789342062,6.123762595444479,1.0163211822509766,-2.8149312178241175
1708437051.1606128,-2.147343635559082,-1.3350540113500138,-2.5260449091540735,6.1237830994422815,1.0162793397903442,-2.8149192968951624
1708437051.1625924,-2.147362232208252,-1.3350259524634858,-2.5259953180896204,6.123758065491476,1.0162718296051025,-2.8149474302874964
1708437051.164611,-2.1473731994628906,-1.335058183675148,-2.5259984175311487,6.1238441345985315,1.0162218809127808,-2.8149107138263147
1708437051.1666248,-2.147322416305542,-1.3350992810777207,-2.5259621779071253,6.1237820265586755,1.0163124799728394,-2.814956013356344
1708437051.168599,-2.147359609603882,-1.3350294095328827,-2.5259652773486536,6.123806106835165,1.0162959098815918,-2.814976517354147
1708437051.170576,-2.1473641395568848,-1.3350616556457062,-2.5260284582721155,6.123850810318746,1.0162959098815918,-2.8149150053607386
1708437051.1725745,-2.1473100185394287,-1.335049794321396,-2.5260284582721155,6.123850810318746,1.0162642002105713,-2.8149355093585413
1708437051.1746082,-2.147359609603882,-1.335025967364647,-2.526048008595602,6.123883235245504,1.0163003206253052,-2.8149150053607386
1708437051.1766138,-2.147392511367798,-1.3350582283786316,-2.5260193983661097,6.123809444695272,1.0162837505340576,-2.8149235884295862
1708437051.1785843,-2.147409200668335,-1.335094915037491,-2.5259698073016565,6.123887526779928,1.0162880420684814,-2.8149150053607386
1708437051.180573,-2.1473357677459717,-1.3350336712649842,-2.5259531180011194,6.1238311407859705,1.0162837505340576,-2.8149645964251917
1708437051.1825755,-2.1473755836486816,-1.3350336861661454,-2.5260284582721155,6.123895156174459,1.0163003206253052,-2.814904276524679
1708437051.1845942,-2.1474013328552246,-1.3350217652371903,-2.5259907881366175,6.123892056732931,1.0162718296051025,-2.8149073759662073
1708437051.1865797,-2.147409439086914,-1.3350420755198975,-2.5259817282306116,6.1238465187843225,1.0163089036941528,-2.8148496786700647
1708437051.1886826,-2.1473233699798584,-1.3350386333516617,-2.5260193983661097,6.123865949898519,1.0162761211395264,-2.814878527318136
1708437051.1906283,-2.1473302841186523,-1.3350301545909424,-2.5259652773486536,6.123870241432943,1.0162394046783447,-2.8148658911334437
1708437051.192597,-2.1473801136016846,-1.3350175333074112,-2.5259531180011194,6.1238876459892175,1.0162761211395264,-2.814904276524679
1708437051.1946445,-2.1473755836486816,-1.335062415604927,-2.5259907881366175,6.123838531761923,1.0162556171417236,-2.814829174672262
1708437051.1966786,-2.1473357677459717,-1.3350462776473542,-2.5259698073016565,6.123842942505636,1.0162513256072998,-2.814871613179342
1708437051.1985757,-2.147339344024658,-1.335045502786972,-2.5260029474841517,6.123863804131307,1.0163003206253052,-2.8148229757892054
1708437051.2005699,-2.1473934650421143,-1.3350462776473542,-2.5260239283191126,6.12387894371108,1.0162675380706787,-2.814799133931295
1708437051.2025692,-2.1473145484924316,-1.3350301396897812,-2.5259607473956507,6.123846399575033,1.0163003206253052,-2.814749781285421
1708437051.2046075,-2.1473846435546875,-1.3350870472243805,-2.5259862581836146,6.123867022782125,1.0162642002105713,-2.8147335688220423
1708437051.2065868,-2.147359609603882,-1.3350462776473542,-2.5259788672076624,6.12390302398757,1.0162804126739502,-2.8147552649127405
1708437051.208595,-2.147359609603882,-1.3350505244782944,-2.5259879271136683,6.12385510185317,1.0162358283996582,-2.8147271315204065
1708437051.2106023,-2.1474270820617676,-1.3350259375623246,-2.5260120073901575,6.1238595125968835,1.0162394046783447,-2.8147195021258753
1708437051.2125862,-2.1473801136016846,-1.3350573790124436,-2.5259862581836146,6.123883235245504,1.0162479877471924,-2.8146420160876673
1708437051.2146003,-2.1473844051361084,-1.3350742620280762,-2.525993887578146,6.123850810318746,1.0162556171417236,-2.8146560827838343
1708437051.2166817,-2.1473755836486816,-1.3350133013776322,-2.5260120073901575,6.123883235245504,1.0162967443466187,-2.8146117369281214
1708437051.2186563,-2.1473729610443115,-1.3350505393794556,-2.5259817282306116,6.1238006232078455,1.0162967443466187,-2.8146117369281214
1708437051.2206218,-2.147392511367798,-1.3350293648293992,-2.5259531180011194,6.123903739243307,1.0162436962127686,-2.8145960013019007
1708437051.222597,-2.1473686695098877,-1.335021735434868,-2.5259984175311487,6.1239203093345544,1.0162599086761475,-2.8145278135882776
1708437051.224584,-2.147355318069458,-1.3350870472243805,-2.52606445947756,6.123838531761923,1.0162599086761475,-2.8144548575030726
1708437051.2265716,-2.1473641395568848,-1.3350132417729874,-2.5260193983661097,6.123838531761923,1.0162761211395264,-2.814472023640768
1708437051.2285762,-2.147362232208252,-1.3349975806525727,-2.526010338460104,6.123895156174459,1.0162314176559448,-2.8144150416003626
1708437051.2305698,-2.147355318069458,-1.3350259524634858,-2.525993887578146,6.123829829483785,1.0162599086761475,-2.8143838087665003
1708437051.2325644,-2.1473710536956787,-1.3350344461253663,-2.5259817282306116,6.123806106835165,1.0162642002105713,-2.814376179371969
1708437051.2345703,-2.1474013328552246,-1.3350301545909424,-2.5260449091540735,6.123834240227499,1.0162436962127686,-2.8142545858966272
1708437051.2365794,-2.1473755836486816,-1.334997610454895,-2.5259862581836146,6.1238595125968835,1.0162436962127686,-2.8142674604998987
1708437051.2386014,-2.1473686695098877,-1.3350462776473542,-2.5259984175311487,6.1238465187843225,1.0162314176559448,-2.814206663762228
1708437051.2405727,-2.147352695465088,-1.3350589138320466,-2.5259907881366175,6.12384723404006,1.0162479877471924,-2.8141711393939417
1708437051.2425833,-2.147305488586426,-1.335022197370865,-2.5260239283191126,6.123839723854818,1.016227126121521,-2.814134661351339
1708437051.244596,-2.1473100185394287,-1.3350581985763093,-2.525993887578146,6.12375699260787,1.0162599086761475,-2.8141043821917933
1708437051.2465894,-2.147359609603882,-1.334965632562973,-2.5260284582721155,6.123769986420431,1.0162761211395264,-2.8140443007098597
1708437051.248565,-2.1473686695098877,-1.3350263249925156,-2.5259984175311487,6.123766886978903,1.016230583190918,-2.8139224688159388
1708437051.25059,-2.147357225418091,-1.3350222271731873,-2.5260284582721155,6.12373827674941,1.0162392854690552,-2.8137972990619105
1708437051.2525616,-2.1473119258880615,-1.3350095015815278,-2.5260494391070765,6.123733985214987,1.0162880420684814,-2.81377083459963
1708437051.2545571,-2.1473100185394287,-1.3350060743144532,-2.5260358492480677,6.123763668328085,1.0162880420684814,-2.8136783281909388
1708437051.2565815,-2.147357225418091,-1.3350179952434083,-2.5259984175311487,6.12363742569045,1.0162675380706787,-2.8136187235461634
1708437051.2585688,-2.1473278999328613,-1.3350347739509125,-2.5260284582721155,6.123684036522665,1.0163254737854004,-2.8135598341571253
1708437051.2605963,-2.1473188400268555,-1.3349860620549698,-2.5259817282306116,6.123671042710104,1.0162923336029053,-2.8134501616107386
1708437051.2625601,-2.1473004817962646,-1.335038648252823,-2.5259607473956507,6.1236764071281335,1.0162837505340576,-2.8133588472949427
1708437051.2645957,-2.1473581790924072,-1.3350180101445694,-2.526026789342062,6.1235612509544275,1.0162959098815918,-2.813279453908102
1708437051.266593,-2.147336959838867,-1.3349985939315339,-2.526048008595602,6.123606788903036,1.0162793397903442,-2.813162867222921
1708437051.2685921,-2.147280216217041,-1.3349456054023285,-2.526052538548605,6.123554456024923,1.0162837505340576,-2.813026253377096
1708437051.270606,-2.1472880840301514,-1.335001901989319,-2.525993887578146,6.123575436859884,1.0162793397903442,-2.8129423300372522
1708437051.2726235,-2.147275686264038,-1.3349464696696778,-2.526052538548605,6.12356315830306,1.0162783861160278,-2.8127852121936243
1708437051.2746263,-2.147273540496826,-1.3349867177060624,-2.5260239283191126,6.123556840210714,1.016319990158081,-2.812673870717184
1708437051.2765834,-2.147251844406128,-1.3349345487407227,-2.526055399571554,6.123488056450643,1.0163037776947021,-2.812615935002462
1708437051.2785797,-2.1472280025482178,-1.3349745136550446,-2.526059929524557,6.123438942223348,1.0163404941558838,-2.812418286000387
1708437051.2805815,-2.147195339202881,-1.3349745136550446,-2.526038948689596,6.123386966973104,1.0163484811782837,-2.812328640614645
1708437051.282577,-2.1471760272979736,-1.3349993091872712,-2.5260148684131067,6.123281228333273,1.0163319110870361,-2.812117878590719
1708437051.2845855,-2.1472008228302,-1.3349139106324692,-2.526005808507101,6.123281228333273,1.0163602828979492,-2.811958138142721
1708437051.2865865,-2.1471023559570312,-1.3349753332189103,-2.526048008595602,6.123291957169332,1.016335368156433,-2.8118682543383997
1708437051.288672,-2.1471123695373535,-1.3349345487407227,-2.526050869618551,6.123220193177023,1.0163800716400146,-2.8116310278521937
1708437051.290641,-2.1470625400543213,-1.3349345487407227,-2.526076618825094,6.123124229698934,1.016363501548767,-2.811503235493795
1708437051.2925916,-2.147094249725342,-1.3349146705916901,-2.5260823408709925,6.123151290207662,1.0163713693618774,-2.8113275210009974
1708437051.2946386,-2.1470940113067627,-1.3349146109870453,-2.5260794798480433,6.123091566353597,1.016404151916504,-2.811143223439352
1708437051.2966368,-2.147040843963623,-1.334898517732956,-2.5261123816119593,6.12306426742629,1.0164282321929932,-2.810946051274435
1708437051.2986143,-2.1469886302948,-1.3348943454078217,-2.5261407534228724,6.122987019806661,1.0164567232131958,-2.8107593695269983
1708437051.3006282,-2.1469602584838867,-1.3349388402751465,-2.5260897318469446,6.122964131623068,1.0164763927459717,-2.810547176991598
1708437051.3026118,-2.1469199657440186,-1.334862084393837,-2.526151482258932,6.122986423760214,1.0164633989334106,-2.8103347460376185
1708437051.304615,-2.1469624042510986,-1.3348824095777054,-2.526160542164938,6.122838961869039,1.0165420770645142,-2.810131851826803
1708437051.306599,-2.1469101905822754,-1.3348943454078217,-2.526205364857809,6.122811066895284,1.0165539979934692,-2.80989653268923
1708437051.3086147,-2.146852731704712,-1.3348950457623978,-2.526113573704855,6.122726547508993,1.016491413116455,-2.8095815817462366
1708437051.3106136,-2.1468615531921387,-1.3348866266063233,-2.526205364857809,6.122654902725973,1.0165778398513794,-2.809385601674215
1708437051.312588,-2.1468005180358887,-1.3349180978587647,-2.5261917749988,6.122578489571371,1.016527771949768,-2.8092125097857874
1708437051.3145738,-2.1468536853790283,-1.3348621290973206,-2.526229445134298,6.1224944470222376,1.0165637731552124,-2.8089316526996058
1708437051.316579,-2.146773338317871,-1.3348302108100434,-2.5262563864337366,6.122458445816793,1.0165965557098389,-2.8086660544024866
1708437051.318606,-2.1467652320861816,-1.334878922705986,-2.5261977354632776,6.122427928238668,1.0166009664535522,-2.8084192911731165
1708437051.3206208,-2.1467652320861816,-1.3348992478898545,-2.5262535254107874,6.122396933823385,1.0166610479354858,-2.80815297762026
1708437051.3225808,-2.1467220783233643,-1.334862769847252,-2.52622634569277,6.122324812203207,1.0166807174682617,-2.8078842798816126
1708437051.3245873,-2.14673113822937,-1.33482180655513,-2.5262683073626917,6.122272479325094,1.0166926383972168,-2.807534996663229
1708437051.326587,-2.1466405391693115,-1.3348585677197953,-2.5262773672686976,6.122143971710958,1.0167360305786133,-2.807243887578146
1708437051.328653,-2.146665334701538,-1.334902749662735,-2.526275936757223,6.12211691120223,1.0167617797851562,-2.806932036076681
1708437051.3306248,-2.1466174125671387,-1.3348874163678666,-2.526238266621725,6.122089850693502,1.0168017148971558,-2.8065338770495813
1708437051.3326175,-2.1466188430786133,-1.3348543506911774,-2.526275936757223,6.1220223782356165,1.016812801361084,-2.8061702887164515
1708437051.3345828,-2.1465859413146973,-1.3348788631013413,-2.526304546986715,6.121937262802877,1.0168380737304688,-2.805850092564718
1708437051.336598,-2.1465189456939697,-1.3348424446633835,-2.52631646791567,6.121890771179952,1.0168858766555786,-2.805552069340841
1708437051.3386526,-2.146538257598877,-1.3348635298064728,-2.526283327733175,6.121773588448324,1.0168858766555786,-2.8051438967334192
1708437051.340586,-2.1464951038360596,-1.3348429065993805,-2.5263193289386194,6.12171362617568,1.0169016122817993,-2.80473238626589
1708437051.3426125,-2.146421432495117,-1.3348302108100434,-2.5263689200030726,6.1216256497199915,1.0169419050216675,-2.8043153921710413
1708437051.3445718,-2.146404504776001,-1.3348259937814255,-2.5263312498675745,6.121603715210714,1.0169289112091064,-2.804037396107809
1708437051.346583,-2.1464226245880127,-1.3348551553538819,-2.5263386408435267,6.121518838196554,1.0169901847839355,-2.8036375681506556
1708437051.348587,-2.1463963985443115,-1.3348233264735718,-2.526362959538595,6.121468055039205,1.0169975757598877,-2.8032529989825647
1708437051.350569,-2.146334171295166,-1.3348233860782166,-2.526379410420553,6.121347176819601,1.0170217752456665,-2.802899185811178
1708437051.3526142,-2.146257162094116,-1.3348225516131897,-2.5264483133899134,6.121385443001547,1.0170173645019531,-2.8024285475360315
1708437051.3545687,-2.1462535858154297,-1.3347864908031006,-2.5264151732074183,6.121236312180319,1.0170501470565796,-2.8020206133471888
1708437051.356591,-2.1462388038635254,-1.3348148626140137,-2.5264979044543665,6.121217834740438,1.0170414447784424,-2.8015931288348597
1708437051.3585818,-2.146191120147705,-1.3347875040820618,-2.5264301935779017,6.121079194336691,1.0170371532440186,-2.8011496702777308
1708437051.3605738,-2.1461548805236816,-1.3347907823375245,-2.52649170557131,6.1210330603416345,1.0170283317565918,-2.8006742636310022
1708437051.3625937,-2.1461117267608643,-1.3347713661244889,-2.526470724736349,6.120940434723654,1.017122507095337,-2.8002787272082728
1708437051.3645864,-2.146057367324829,-1.3347671788981934,-2.526517454777853,6.120804774552145,1.017118215560913,-2.799749199544088
1708437051.3665879,-2.146026849746704,-1.33477138102565,-2.526499334965841,6.1207772372062585,1.0171581506729126,-2.799274746571676
1708437051.3685973,-2.1459574699401855,-1.334738777284958,-2.5264857451068323,6.1207055924232385,1.0171746015548706,-2.798818890248434
1708437051.3705683,-2.1459550857543945,-1.3347672087005158,-2.5265727678882044,6.120617019921102,1.0171988010406494,-2.7982927004443567
1708437051.372581,-2.1458940505981445,-1.3347595495036622,-2.5265727678882044,6.120510089188375,1.017258882522583,-2.797818724309103
1708437051.3745742,-2.1458587646484375,-1.334731177692749,-2.5265591780291956,6.1204625246818445,1.017212986946106,-2.7973185221301478
1708437051.37659,-2.1457977294921875,-1.3347150546363373,-2.526604477559225,6.120322096138754,1.0172501802444458,-2.796835486088888
1708437051.3785617,-2.145780563354492,-1.3346825254014512,-2.526587788258688,6.120279657631674,1.0172983407974243,-2.796274010335104
1708437051.3805566,-2.1457371711730957,-1.3346909445575257,-2.526607338582174,6.120232093125143,1.0173509120941162,-2.7957547346698206
1708437051.3825874,-2.1456661224365234,-1.3346783083728333,-2.5265982786761683,6.120176303177633,1.0173757076263428,-2.795203510914938
1708437051.3845956,-2.145655870437622,-1.3347438436797638,-2.5266147295581263,6.120064365654745,1.0173659324645996,-2.794720236455099
1708437051.386568,-2.145631790161133,-1.3347155165723343,-2.5266884008990687,6.119985091477194,1.0173778533935547,-2.7941420714007776
1708437051.3886466,-2.1456170082092285,-1.3347192269614716,-2.5266597906695765,6.119900333672323,1.0174468755722046,-2.7936018149005335
1708437051.3906631,-2.145548105239868,-1.3346951615861435,-2.526707712803976,6.119755613594808,1.0174219608306885,-2.793037716542379
1708437051.3927174,-2.1454949378967285,-1.3347154569676896,-2.5267003218280237,6.119660007744589,1.0174697637557983,-2.792471233998434
1708437051.39464,-2.1454427242279053,-1.3346551221660157,-2.52665359178652,6.11960123756484,1.0175267457962036,-2.7918699423419397
1708437051.3966103,-2.1454310417175293,-1.334703491335251,-2.526719633732931,6.119542586594381,1.017510175704956,-2.7913039366351526
1708437051.3985796,-2.1453969478607178,-1.334683285360672,-2.5266969839679163,6.11942087390975,1.017562747001648,-2.7906907240497034
1708437051.4005678,-2.145381212234497,-1.3347364676049729,-2.526769463215963,6.119427192002096,1.017541766166687,-2.7901139895068567
1708437051.4026,-2.145341396331787,-1.334711955194809,-2.5267887751208704,6.119257557183065,1.0176271200180054,-2.789490524922506
1708437051.4046202,-2.145275831222534,-1.3346674305251618,-2.5267632643329065,6.119169699936666,1.0176194906234741,-2.7889025847064417
1708437051.4065964,-2.1452133655548096,-1.3346758049777527,-2.5268035570727747,6.119094121247091,1.0176271200180054,-2.7882946173297327
1708437051.4085822,-2.1451704502105713,-1.3346236211112519,-2.526811424885885,6.119043338089742,1.0176467895507812,-2.7876296679126185
1708437051.410579,-2.14518141746521,-1.3346071404269715,-2.526836935673849,6.118963229447164,1.0177034139633179,-2.7870360056506556
1708437051.412585,-2.1451125144958496,-1.3346156638911744,-2.526773516331808,6.118904459267416,1.0177028179168701,-2.786351982747213
1708437051.4145937,-2.145097494125366,-1.3345749837211152,-2.5268262068377894,6.118804204254904,1.0177397727966309,-2.7856505552874964
1708437051.4165943,-2.1450090408325195,-1.3346763265183945,-2.5268335978137415,6.118679392128744,1.0177713632583618,-2.785020891820089
1708437051.418576,-2.144993305206299,-1.3346279573491593,-2.5268545786487024,6.118685948639669,1.0177661180496216,-2.7842944304095667
1708437051.4205618,-2.144974946975708,-1.3346236658147355,-2.5268664995776575,6.11857699134902,1.017815113067627,-2.783715788518087
1708437051.4225833,-2.1448967456817627,-1.3346405190280457,-2.5268922487842005,6.118472802429952,1.017815113067627,-2.782961670552389
1708437051.4245791,-2.144836902618408,-1.3345680099776764,-2.526923720036642,6.1184096215064905,1.017830491065979,-2.7822631041156214
1708437051.4265919,-2.144834280014038,-1.3346044284156342,-2.526914660130636,6.11839114406661,1.0179036855697632,-2.781605068837301
1708437051.42859,-2.1447911262512207,-1.334559605722763,-2.526931111012594,6.118278133660116,1.017906904220581,-2.7808802763568323
1708437051.430567,-2.144716501235962,-1.334547684793808,-2.5269838015185755,6.118182527809896,1.0179357528686523,-2.780170504246847
1708437051.4325902,-2.144707202911377,-1.3345757287791749,-2.5269203821765345,6.118138897209921,1.0179388523101807,-2.7795143763171595
1708437051.4345763,-2.144657611846924,-1.334576429133751,-2.5269339720355433,6.118055212288656,1.017987847328186,-2.7787488142596644
1708437051.43659,-2.1446096897125244,-1.3345561486533661,-2.5270360151873987,6.117955195694723,1.0180163383483887,-2.77799636522402
1708437051.4385693,-2.144566535949707,-1.3345722270062943,-2.527039353047506,6.117875921517172,1.018068552017212,-2.7773330847369593
1708437051.4405832,-2.144564151763916,-1.334535763864853,-2.527060333882467,6.11776744106368,1.0180230140686035,-2.776555601750509
1708437051.4426188,-2.1444783210754395,-1.3345450472882767,-2.5270677248584192,6.117728101998129,1.0180916786193848,-2.775811258946554
1708437051.4445775,-2.1444180011749268,-1.3344628524831315,-2.5270677248584192,6.117620575218954,1.0181071758270264,-2.775019709263937
1708437051.4465976,-2.1443943977355957,-1.33449640989814,-2.5271006266223353,6.117503392487325,1.0181396007537842,-2.774271551762716
1708437051.4485703,-2.144357919692993,-1.3345081818154831,-2.5270734469043177,6.1174285290534876,1.0181474685668945,-2.7733734289752405
1708437051.450571,-2.144388437271118,-1.334468202,-2.5271487871753138,6.117339956551351,1.0181553363800049,-2.772620979939596
1708437051.4525902,-2.144303560256958,-1.334508166914322,-2.52710205713381,6.117276775627889,1.0182043313980103,-2.7717960516559046
1708437051.4545712,-2.1443090438842773,-1.3344555509141465,-2.527123037968771,6.1172088263328455,1.0182197093963623,-2.771064345036642
1708437051.456604,-2.144239902496338,-1.3344486367753525,-2.527135197316305,6.117149579315939,1.0182154178619385,-2.7702294031726282
1708437051.4585786,-2.144217014312744,-1.3344520789435883,-2.527159039174215,6.117042052536764,1.0182393789291382,-2.7694578806506556
1708437051.460593,-2.1441547870635986,-1.3344278943589707,-2.527180020009176,6.116983282357015,1.0183007717132568,-2.768670622502462
1708437051.462589,-2.1441197395324707,-1.334435985689499,-2.527154509221212,6.116918194084921,1.0183407068252563,-2.767820183430807
1708437051.4645822,-2.144070863723755,-1.334472433929779,-2.52717096010317,6.116856086045065,1.0183277130126953,-2.7670677343951624
1708437051.4665809,-2.1440632343292236,-1.334432230596878,-2.5272162596331995,6.116731273918905,1.0183355808258057,-2.7663050333606165
1708437051.4685864,-2.1440188884735107,-1.3343999844840546,-2.5272401014911097,6.116708266526022,1.0184248685836792,-2.765475336705343
1708437051.4705808,-2.1440367698669434,-1.3344160628369828,-2.5272730032550257,6.116550671845236,1.0184327363967896,-2.764630142842428
1708437051.4725692,-2.143967866897583,-1.3344322007945557,-2.527221981679098,6.11655734756545,1.0184359550476074,-2.763895098363058
1708437051.4745874,-2.1439812183380127,-1.3344202798656006,-2.527238432561056,6.116399752884664,1.0184402465820312,-2.762988869343893
1708437051.4765718,-2.143949508666992,-1.3343999695828934,-2.527259413396017,6.116381037026205,1.0184928178787231,-2.762144390736715
1708437051.478578,-2.143888235092163,-1.3343880486539383,-2.5272627512561243,6.116239177971639,1.0185003280639648,-2.7612856070147913
1708437051.4805956,-2.1438565254211426,-1.334432990556099,-2.5272956530200403,6.116225945740499,1.0185399055480957,-2.760425631199972
1708437051.4825761,-2.143824815750122,-1.3343799722245713,-2.527304712926046,6.116174447327413,1.0185399055480957,-2.7596221605883997
1708437051.4846091,-2.1437768936157227,-1.3343277138522645,-2.5272865931140345,6.116138446121969,1.0185844898223877,-2.75875693956484
1708437051.4865704,-2.14369797706604,-1.3343884956887742,-2.5273149649249476,6.116030919342794,1.0186164379119873,-2.757843319569723
1708437051.4886093,-2.143695592880249,-1.3343554151109238,-2.5273600260363978,6.11597894409255,1.018635869026184,-2.7570200602160853
1708437051.4906542,-2.143676280975342,-1.3343161952546616,-2.5273435751544397,6.115845548897543,1.0186939239501953,-2.756040636693136
1708437051.492608,-2.1437020301818848,-1.3343884509852906,-2.527317825947897,6.115863549500265,1.0187058448791504,-2.755237642918722
1708437051.4945767,-2.143611431121826,-1.3343323034099122,-2.5273435751544397,6.1157888052757166,1.0187212228775024,-2.7543419043170374
1708437051.4965944,-2.1436045169830322,-1.334376485352852,-2.527372185383932,6.115728604584493,1.0187005996704102,-2.7534690538989466
1708437051.4985955,-2.1436429023742676,-1.3343120080283661,-2.527384106312887,6.115627634316244,1.0187374353408813,-2.7525396982776087
1708437051.5006008,-2.143552541732788,-1.3343530309251328,-2.527391497288839,6.115523564606466,1.0187780857086182,-2.75169545808901
1708437051.502575,-2.1435253620147705,-1.3343615245870133,-2.5274246374713343,6.115439879685201,1.0187935829162598,-2.7507410685168665
1708437051.5045838,-2.1434519290924072,-1.3343005937388916,-2.5273824373828333,6.115458118706503,1.0187606811523438,-2.749894682561056
1708437051.506607,-2.1434388160705566,-1.3343657118133088,-2.5274322668658655,6.115380990296163,1.018784761428833,-2.748911444340841
1708437051.5085752,-2.1434130668640137,-1.3343170297196885,-2.5274110476123255,6.1152440188224695,1.0188175439834595,-2.748068634663717
1708437051.5106022,-2.143418550491333,-1.33428447068248,-2.527414147053854,6.11520396450118,1.0188088417053223,-2.7471147219287317
1708437051.512566,-2.1433777809143066,-1.3342928749373932,-2.5274351278888147,6.115136372834005,1.0188120603561401,-2.7462881247149866
1708437051.5145714,-2.1433167457580566,-1.3343212467483063,-2.5274844805346888,6.115131127625265,1.018816351890564,-2.7453416029559534
1708437051.5166059,-2.1433098316192627,-1.334288702612259,-2.527491871510641,6.115062463074484,1.0188729763031006,-2.744404379521505
1708437051.518584,-2.1432619094848633,-1.334256411795952,-2.527442518864767,6.114945041924276,1.018926739692688,-2.743439499531881
1708437051.5206032,-2.143270969390869,-1.3342767518809815,-2.527491871510641,6.114914285927572,1.0189146995544434,-2.7424944082843226
1708437051.5225787,-2.14316463470459,-1.3342206192067643,-2.5274906794177454,6.114866006165304,1.0189006328582764,-2.7415252367602747
1708437051.5245724,-2.1431894302368164,-1.3342809689095994,-2.5275116602527063,6.114761459618368,1.018880009651184,-2.7406540552722376
1708437051.5265875,-2.1431984901428223,-1.3342605990222474,-2.5275116602527063,6.114681112557211,1.018908143043518,-2.739680353795187
1708437051.528588,-2.143150806427002,-1.3342648309520264,-2.5275400320636194,6.1146583435829065,1.0189528465270996,-2.7387922445880335
1708437051.530571,-2.143089532852173,-1.3342241656831284,-2.5275309721576136,6.114651667862692,1.0190021991729736,-2.737875525151388
1708437051.532584,-2.1430816650390625,-1.3342613291791459,-2.5275474230395716,6.114599096566,1.0189814567565918,-2.7369797865497034
1708437051.5345805,-2.1430184841156006,-1.334269793038704,-2.5275474230395716,6.114466655045309,1.019005298614502,-2.736041847859518
1708437051.5365713,-2.1430013179779053,-1.3342332702926178,-2.5275383631335657,6.114419090538778,1.0190250873565674,-2.735093657170431
1708437051.5385919,-2.143019199371338,-1.3342283976129075,-2.527588192616598,6.114345896034994,1.0190250873565674,-2.7341886202441614
1708437051.540589,-2.142942190170288,-1.3342214238694687,-2.527566973363058,6.114307629853048,1.0190491676330566,-2.733259979878561
1708437051.5425675,-2.1429262161254883,-1.3341727268746872,-2.527566973363058,6.114246952324667,1.0190657377243042,-2.732372585927145
1708437051.5445702,-2.142937183380127,-1.3341930520585557,-2.527579132710592,6.114240276604452,1.019073247909546,-2.7314298788653772
1708437051.5465786,-2.142878770828247,-1.3342129451087494,-2.527623955403463,6.1141806719596765,1.0191099643707275,-2.730529848729269
1708437051.5485816,-2.1428682804107666,-1.3342332702926178,-2.5276194254504603,6.114091980248251,1.0191056728363037,-2.7296250502215784
1708437051.5505664,-2.1428139209747314,-1.3342091751149674,-2.527628485356466,6.1140397665794275,1.0191376209259033,-2.7286563555346888
1708437051.5525744,-2.1427788734436035,-1.3341803562692185,-2.5275984446154993,6.113960373192587,1.0191051959991455,-2.7277689615832728
1708437051.5545719,-2.1427559852600098,-1.3341853630593796,-2.5276315847979944,6.113876211434164,1.0191203355789185,-2.7267592589007776
1708437051.5565767,-2.1427390575408936,-1.3341124218753357,-2.5276601950274866,6.113849270134725,1.019194483757019,-2.7258153597461146
1708437051.558585,-2.1427266597747803,-1.3341251772693177,-2.5276270548449915,6.113828885346212,1.0191901922225952,-2.7248430887805384
1708437051.560579,-2.1426913738250732,-1.3341453832438965,-2.5276435057269495,6.113769519120016,1.0191487073898315,-2.7239299456225794
1708437051.562579,-2.142721652984619,-1.3341527593186875,-2.5276556650744837,6.1136735556419275,1.019184947013855,-2.7229648272143763
1708437051.5645845,-2.142652750015259,-1.3341002327254792,-2.5276344458209437,6.113675343781271,1.0192545652389526,-2.7220638434039515
1708437051.5665815,-2.14255428314209,-1.3341412407210846,-2.527674976979391,6.113615262299337,1.019225001335144,-2.7210384050952356
1708437051.5685809,-2.1425960063934326,-1.3341570508531113,-2.527674976979391,6.113562929421224,1.0192502737045288,-2.7201131025897425
1708437051.5705771,-2.1425633430480957,-1.3341170114329834,-2.527679506932394,6.1134657738502405,1.0192656517028809,-2.7190569082843226
1708437051.5725784,-2.142535924911499,-1.3341213029674073,-2.527682367955343,6.1134424088294885,1.0192699432373047,-2.718130175267355
1708437051.5745847,-2.142519950866699,-1.334137738948204,-2.527686897908346,6.1133789894874475,1.0193103551864624,-2.717175070439474
1708437051.576584,-2.1424927711486816,-1.3341296923211594,-2.527728859578268,6.113307463913717,1.0193016529083252,-2.7161997000323694
1708437051.5785913,-2.1424543857574463,-1.3340974611094971,-2.527682367955343,6.113271462708273,1.019309163093567,-2.7152419726001185
1708437051.580587,-2.1424849033355713,-1.3341503602317353,-2.527673308049337,6.113235819130697,1.0193344354629517,-2.714261595402853
1708437051.582559,-2.142476797103882,-1.334109367137291,-2.5277231375323694,6.113196837693014,1.0193257331848145,-2.7132673899279993
1708437051.5845683,-2.1424450874328613,-1.3340283942273636,-2.527689758931295,6.113128053932943,1.019358515739441,-2.7122605482684534
1708437051.586564,-2.1423840522766113,-1.3341178458980103,-2.5277305285083216,6.113056170731344,1.0193825960159302,-2.711236302052633
1708437051.5885859,-2.1423611640930176,-1.3340771359256287,-2.5277276674853724,6.113057720452108,1.0193703174591064,-2.710231129323141
1708437051.590657,-2.1423680782318115,-1.3340368878892441,-2.5277231375323694,6.11304651477889,1.0193455219268799,-2.7092037836657923
1708437051.592736,-2.142331838607788,-1.3341016632369538,-2.5277515093432825,6.112920510559835,1.0194110870361328,-2.708217446004049
1708437051.5946226,-2.142329454421997,-1.3340572577765961,-2.5277770201312464,6.112832534104147,1.0194185972213745,-2.707201067601339
1708437051.5965893,-2.1423134803771973,-1.3341143292239686,-2.5277424494372767,6.1127885458763025,1.019435167312622,-2.706195656453268
1708437051.5985937,-2.1422266960144043,-1.3340536665967484,-2.5277965704547327,6.1127827046211145,1.0194098949432373,-2.705247942601339
1708437051.6005805,-2.142265796661377,-1.3340453219464798,-2.5277753512011927,6.112696158676901,1.0194220542907715,-2.7043476740466517
1708437051.6025655,-2.1422364711761475,-1.33408975720916,-2.5277424494372767,6.112752306252279,1.0194141864776611,-2.7033427397357386
1708437051.6045732,-2.14219331741333,-1.333996982579567,-2.527803961430685,6.112630474358358,1.0194469690322876,-2.7024040857898157
1708437051.6065693,-2.1421730518341064,-1.3340337437442322,-2.52778131166567,6.1125573990638635,1.0194416046142578,-2.7014289538012903
1708437051.6085787,-2.1421456336975098,-1.3340579581311722,-2.527823511754171,6.112538206368246,1.0194751024246216,-2.700400177632467
1708437051.6105745,-2.1421525478363037,-1.3340536665967484,-2.527787510548727,6.112506139069357,1.0194578170776367,-2.699475351964132
1708437051.6125655,-2.142125129699707,-1.334049553876259,-2.527799431477682,6.112422811775961,1.0195189714431763,-2.698496405278341
1708437051.6145828,-2.1420719623565674,-1.3340095740607758,-2.527794901524679,6.112351047783651,1.0194528102874756,-2.697529379521505
1708437051.616603,-2.142064094543457,-1.33400051415477,-2.527828041707174,6.112292635231771,1.019482135772705,-2.696559015904562
1708437051.6185713,-2.1420414447784424,-1.3340423566154023,-2.5278189818011683,6.11222933509902,1.0195268392562866,-2.6956103483783167
1708437051.620598,-2.142050266265869,-1.3340182167342682,-2.5278354326831263,6.112243282585897,1.0194929838180542,-2.694665495549337
1708437051.6225705,-2.1420254707336426,-1.3340168458274384,-2.5278309027301233,6.112216222077169,1.019516944885254,-2.693677012120382
1708437051.624581,-2.1419777870178223,-1.3340093952468415,-2.5278144518481653,6.112147319107809,1.0195543766021729,-2.692739550267355
1708437051.6265616,-2.1419122219085693,-1.3339732897332688,-2.5278549830066126,6.112104403763571,1.0195375680923462,-2.691695515309469
1708437051.6285973,-2.141908645629883,-1.334034488802292,-2.5278382937060755,6.112047183304586,1.0195868015289307,-2.6907947699176233
1708437051.630589,-2.141934633255005,-1.3340032261661072,-2.5278354326831263,6.1119717238243005,1.0195987224578857,-2.68970495859255
1708437051.632602,-2.1419007778167725,-1.334010810857155,-2.5278759638415735,6.1119598028953455,1.019566297531128,-2.6888116041766565
1708437051.634594,-2.1418633460998535,-1.3339974594167252,-2.5278804937945765,6.111920463829794,1.0195980072021484,-2.687779966984884
