Eg3-git/Classifiers/Data Collection/u5/u5star2_ur3e_joint_states.csv
time,elbow_joint,shoulder_lift_joint,shoulder_pan_joint,wrist_1_joint,wrist_2_joint,wrist_3_joint
1708436998.900535,-2.141941547393799,-1.3334005636027833,-2.5264163653003138,6.110409724503317,1.0171136856079102,-3.1990624109851282
1708436998.902531,-2.141953945159912,-1.3334041398814698,-2.526423994694845,6.110434520035543,1.0170937776565552,-3.1990917364703577
1708436998.904515,-2.141921281814575,-1.333396242266037,-2.526367489491598,6.110402810364523,1.0170730352401733,-3.199092690144674
1708436998.9065323,-2.141921281814575,-1.3333508533290406,-2.5264318625079554,6.110393154412069,1.0170804262161255,-3.1990180651294153
1708436998.9085152,-2.1419670581817627,-1.3333800596049805,-2.52641207376589,6.110447513848104,1.0170893669128418,-3.1990636030780237
1708436998.9105082,-2.141941547393799,-1.3334128123572846,-2.526342217122213,6.110454785614767,1.0171056985855103,-3.199071232472555
1708436998.9125376,-2.1419460773468018,-1.3334006083062668,-2.526367489491598,6.1104270098503015,1.0170730352401733,-3.1990841070758265
1708436998.9145129,-2.1419460773468018,-1.3333833825639267,-2.526407543812887,6.110487568169393,1.0170774459838867,-3.199047390614645
1708436998.916565,-2.141983985900879,-1.3333757531693955,-2.5263662973987024,6.110441911011495,1.017080307006836,-3.1990798155414026
1708436998.9185452,-2.141937255859375,-1.3333595407060166,-2.526391331349508,6.110409724503317,1.017114520072937,-3.1991003195392054
1708436998.9205298,-2.1419286727905273,-1.3333638322404404,-2.526383701954977,6.1104503748710535,1.0171270370483398,-3.1990721861468714
1708436998.9225144,-2.141958236694336,-1.3334127825549622,-2.5263705889331263,6.110389816551962,1.017118215560913,-3.1990225950824183
1708436998.9245396,-2.141958236694336,-1.3333638471416016,-2.526419464741842,6.110447633057394,1.0171270370483398,-3.1990841070758265
1708436998.9265213,-2.141930103302002,-1.3333595556071778,-2.526403252278463,6.110435592919149,1.01706862449646,-3.199047390614645
1708436998.9285264,-2.141958236694336,-1.3333713871291657,-2.526358668004171,6.110368239670553,1.01706862449646,-3.1990440527545374
1708436998.9305274,-2.1418967247009277,-1.3333875995925446,-2.526391331349508,6.110422599106588,1.0171226263046265,-3.199031178151266
1708436998.9325306,-2.141953945159912,-1.3333919656327744,-2.52641207376589,6.110414731293478,1.0170444250106812,-3.199076477681295
1708436998.9345229,-2.1419496536254883,-1.3333962720683594,-2.52637488046755,6.110389816551962,1.0170893669128418,-3.1990559736834925
1708436998.9365513,-2.141962766647339,-1.3334449094584961,-2.5263825098620813,6.110405313759603,1.0170730352401733,-3.1991005579577845
1708436998.938514,-2.141930103302002,-1.3334128570607682,-2.5264325777636927,6.110397445946493,1.0171101093292236,-3.199003044758932
1708436998.9405198,-2.141908884048462,-1.3333800447038193,-2.5263705889331263,6.110410439759054,1.0170356035232544,-3.1990559736834925
1708436998.942511,-2.142019748687744,-1.3334005338004609,-2.52641207376589,6.110475408821859,1.0170849561691284,-3.199019257222311
1708436998.9445233,-2.1419177055358887,-1.3334449094584961,-2.5263870398150843,6.1104270098503015,1.0171012878417969,-3.1990602652179163
1708436998.9465263,-2.141930103302002,-1.3333757829717179,-2.52638823190798,6.110422599106588,1.0170310735702515,-3.199125115071432
1708436998.9485166,-2.141930103302002,-1.3334171038917084,-2.5263662973987024,6.110422599106588,1.0170893669128418,-3.1990559736834925
1708436998.9505124,-2.141979455947876,-1.3333843064359208,-2.5263870398150843,6.110466706543722,1.0170700550079346,-3.199047390614645
1708436998.9525304,-2.1419670581817627,-1.3333681386760254,-2.526358668004171,6.110378014832296,1.0171270370483398,-3.199019257222311
1708436998.9545097,-2.141925573348999,-1.3334243905595322,-2.52637488046755,6.110414731293478,1.0170444250106812,-3.198981825505392
1708436998.956514,-2.141941547393799,-1.3333353859237214,-2.526367489491598,6.110475408821859,1.01706862449646,-3.1990721861468714
1708436998.9585428,-2.141934394836426,-1.3333713573268433,-2.526375118886129,6.110438811569967,1.0170730352401733,-3.199031178151266
1708436998.9605188,-2.141908884048462,-1.3333551299623032,-2.5264044443713587,6.110365021019735,1.0170981884002686,-3.1990073362933558
1708436998.9625094,-2.141930103302002,-1.3333430600217362,-2.526395622883932,6.110495197563925,1.0170774459838867,-3.1990321318255823
1708436998.964519,-2.141934394836426,-1.3333516132882615,-2.5264163653003138,6.110475408821859,1.0170655250549316,-3.1990321318255823
1708436998.9665165,-2.141883373260498,-1.3333386343768616,-2.526419464741842,6.110438811569967,1.0171271562576294,-3.1990116278277796
1708436998.9685543,-2.1419460773468018,-1.3333834272674103,-2.5264044443713587,6.110470998078146,1.0171101093292236,-3.19900352159609
1708436998.9705858,-2.141930103302002,-1.333371416931488,-2.52638823190798,6.110423433571615,1.0170981884002686,-3.1989460627185267
1708436998.9725351,-2.1419496536254883,-1.3333919805339356,-2.526391331349508,6.110466706543722,1.0170445442199707,-3.198951546345846
1708436998.97453,-2.1419994831085205,-1.3333962720683594,-2.526391331349508,6.110466706543722,1.0170700550079346,-3.1989319960223597
1708436998.9765284,-2.141983985900879,-1.3333843809417267,-2.52641207376589,6.110406029015341,1.0170730352401733,-3.198862139378683
1708436998.978531,-2.141934394836426,-1.3333681386760254,-2.526407782231466,6.110430228501119,1.017064094543457,-3.1989408175097864
1708436998.9805245,-2.141930103302002,-1.3333919954350968,-2.526363197957174,6.110393154412069,1.0170774459838867,-3.1989195982562464
1708436998.9825475,-2.1419169902801514,-1.333379105930664,-2.526395861302511,6.110486495285787,1.0170401334762573,-3.198977533970968
1708436998.984528,-2.141962766647339,-1.3334200245193024,-2.5263455549823206,6.110434520035543,1.0170818567276,-3.198927704487936
1708436998.9865096,-2.141937255859375,-1.333350957637169,-2.5263498465167444,6.110401737480917,1.0170533657073975,-3.198862139378683
1708436998.9885385,-2.1419460773468018,-1.3333886873773118,-2.526432816182272,6.110385405808248,1.0170567035675049,-3.1988988558398646
1708436998.9905398,-2.141930103302002,-1.3333973449519654,-2.526403252278463,6.110418307572164,1.017086386680603,-3.1989482084857386
1708436998.992527,-2.141883611679077,-1.3333962720683594,-2.526428286229269,6.110462415009298,1.0170567035675049,-3.1988988558398646
1708436998.9945385,-2.141962766647339,-1.3333559793284913,-2.526379410420553,6.110446202545919,1.0170818567276,-3.198911968861715
1708436998.9965324,-2.141995429992676,-1.3334286969951172,-2.5264044443713587,6.110446202545919,1.0170567035675049,-3.1989482084857386
1708436998.9985137,-2.1419882774353027,-1.333424375658371,-2.526403252278463,6.110441911011495,1.0170818567276,-3.1988988558398646
1708436999.0005133,-2.141925573348999,-1.3333713871291657,-2.5263870398150843,6.110388743668356,1.0170533657073975,-3.1989076773272913
1708436999.0025122,-2.141937255859375,-1.3334286969951172,-2.5263763109790247,6.110430228501119,1.0171012878417969,-3.1989195982562464
1708436999.0045197,-2.141937255859375,-1.3333757680705567,-2.526444975529806,6.110487568169393,1.0170533657073975,-3.198927704487936
1708436999.006522,-2.14198637008667,-1.3333725345185776,-2.5263825098620813,6.11045919635848,1.0170282125473022,-3.1989107767688196
1708436999.008541,-2.1419169902801514,-1.3334214848330994,-2.5263705889331263,6.110454785614767,1.017074465751648,-3.1989076773272913
1708436999.0105274,-2.1419169902801514,-1.3333887320807953,-2.526379410420553,6.110478985100546,1.017037034034729,-3.1989365259753626
1708436999.012523,-2.141892194747925,-1.3333800298026581,-2.5263498465167444,6.110421526222982,1.0170818567276,-3.1989319960223597
1708436999.0145206,-2.141925573348999,-1.3333595854095002,-2.526367489491598,6.110430228501119,1.0170533657073975,-3.198878351842062
1708436999.0165377,-2.141921281814575,-1.3333515983871003,-2.5263870398150843,6.110458123474874,1.0170981884002686,-3.1989319960223597
1708436999.0185168,-2.141953945159912,-1.3334085208228608,-2.526407543812887,6.110409724503317,1.0170326232910156,-3.1988914648639124
1708436999.0205383,-2.141934394836426,-1.3333430153182526,-2.526375118886129,6.110430228501119,1.017037034034729,-3.1989319960223597
1708436999.0225258,-2.141962766647339,-1.333363876943924,-2.5264371077166956,6.110520112305441,1.0170818567276,-3.1989439169513147
1708436999.0245442,-2.1419503688812256,-1.3334406924298783,-2.5263705889331263,6.110446202545919,1.0170567035675049,-3.1989107767688196
1708436999.026519,-2.141925573348999,-1.3334005338004609,-2.526407543812887,6.110418188362875,1.0170818567276,-3.1988826433764856
1708436999.0285194,-2.1419460773468018,-1.3333595556071778,-2.5264089743243616,6.110434520035543,1.0170655250549316,-3.198977533970968
1708436999.030536,-2.141941547393799,-1.3333956462195893,-2.526407543812887,6.110462415009298,1.0170700550079346,-3.1989365259753626
1708436999.0325289,-2.1419496536254883,-1.3334005338004609,-2.526428286229269,6.110458123474874,1.0170774459838867,-3.198923412953512
1708436999.0345285,-2.1419503688812256,-1.3334158223918458,-2.5263376871692103,6.110462415009298,1.0170655250549316,-3.1989319960223597
1708436999.0365102,-2.141974925994873,-1.3334085208228608,-2.526350800191061,6.110518204956808,1.0170700550079346,-3.19892388979067
1708436999.0385137,-2.141941547393799,-1.333334432249405,-2.526379410420553,6.11058663108901,1.0170488357543945,-3.1988988558398646
1708436999.0405288,-2.1420154571533203,-1.3334286969951172,-2.526383701954977,6.1106018898780725,1.0170730352401733,-3.1989806334124964
1708436999.0425107,-2.141953945159912,-1.3334214848330994,-2.526383701954977,6.110572325974264,1.0170027017593384,-3.1988988558398646
1708436999.0445204,-2.141904592514038,-1.3333876144937058,-2.526419464741842,6.110625731735983,1.0170488357543945,-3.1989107767688196
1708436999.046531,-2.141941547393799,-1.3333430153182526,-2.526358668004171,6.110596525460043,1.0170459747314453,-3.1989250818835657
1708436999.0485384,-2.141953945159912,-1.3333713871291657,-2.526363197957174,6.110665786057272,1.0170533657073975,-3.198923412953512
1708436999.0505245,-2.1419670581817627,-1.333432988529541,-2.526395622883932,6.110593187599935,1.017020344734192,-3.1989150683032435
1708436999.0525203,-2.141953945159912,-1.3334041398814698,-2.5263376871692103,6.110621440201559,1.0170655250549316,-3.1989076773272913
1708436999.0545495,-2.141934394836426,-1.3333962720683594,-2.5263825098620813,6.110670196800985,1.0170247554779053,-3.1989319960223597
1708436999.0565476,-2.1419003009796143,-1.3333757680705567,-2.526403252278463,6.110641228943624,1.0170533657073975,-3.198949400578634
1708436999.0585241,-2.141962766647339,-1.3333672148040314,-2.526358668004171,6.11060510852889,1.0170444250106812,-3.1989319960223597
1708436999.0605297,-2.141941547393799,-1.3333962720683594,-2.5264325777636927,6.110673415451803,1.0170711278915405,-3.198928181325094
1708436999.0625174,-2.1419715881347656,-1.3334041398814698,-2.526379410420553,6.110657202988424,1.0170488357543945,-3.1989195982562464
1708436999.0645165,-2.1419460773468018,-1.333413527613022,-2.526346508656637,6.110673415451803,1.0170952081680298,-3.1989033857928675
1708436999.0665145,-2.141962766647339,-1.3333559793284913,-2.526395861302511,6.110677706986227,1.0170400142669678,-3.1988945643054407
1708436999.0685506,-2.1419460773468018,-1.3333843511394043,-2.526395622883932,6.110678779869833,1.017037034034729,-3.1989451090442103
1708436999.07059,-2.141934394836426,-1.333360270862915,-2.526403252278463,6.110669123917379,1.0170459747314453,-3.198928181325094
1708436999.0725675,-2.141941547393799,-1.333437369470932,-2.526391331349508,6.110665666847982,1.0170533657073975,-3.1989365259753626
1708436999.0745206,-2.141925573348999,-1.3333962720683594,-2.52641207376589,6.110673415451803,1.0170700550079346,-3.1989319960223597
1708436999.0765274,-2.141934394836426,-1.333383397465088,-2.526400152836935,6.110608446388998,1.0170700550079346,-3.198923412953512
1708436999.0785327,-2.141913414001465,-1.3334085208228608,-2.526375118886129,6.110641228943624,1.0170414447784424,-3.198874060307638
1708436999.0805488,-2.141921281814575,-1.3333595556071778,-2.526358668004171,6.110596525460043,1.0170577764511108,-3.198927704487936
1708436999.082541,-2.141925573348999,-1.333432988529541,-2.5263970533954065,6.110649812012472,1.017037034034729,-3.198928181325094
1708436999.0845163,-2.141990900039673,-1.3334214848330994,-2.526395861302511,6.110665786057272,1.017032504081726,-3.1989689509021204
1708436999.0865238,-2.141925573348999,-1.3333843511394043,-2.52637488046755,6.110649812012472,1.0170414447784424,-3.1989408175097864
1708436999.0885365,-2.1419620513916016,-1.3334171038917084,-2.526375118886129,6.110702621727743,1.0170084238052368,-3.1989482084857386
1708436999.0905244,-2.1419453620910645,-1.3334128123572846,-2.5263989607440394,6.110580312996664,1.0170533657073975,-3.1989408175097864
1708436999.092548,-2.141953945159912,-1.3333875995925446,-2.5264163653003138,6.110706913262167,1.017037034034729,-3.1989195982562464
1708436999.0945268,-2.141941547393799,-1.3334200245193024,-2.526403252278463,6.110670196800985,1.0170788764953613,-3.19892388979067
1708436999.096567,-2.141958236694336,-1.3334214848330994,-2.526391331349508,6.110655057221212,1.0170577764511108,-3.1989408175097864
1708436999.0985234,-2.141941547393799,-1.3333183389953156,-2.5263333956347864,6.110633241921224,1.017021894454956,-3.1989482084857386
1708436999.1005325,-2.141974925994873,-1.3333473068526764,-2.526350800191061,6.110649812012472,1.0170459747314453,-3.198923412953512
1708436999.1025317,-2.141941547393799,-1.3333638471416016,-2.5263825098620813,6.110637652664938,1.0170129537582397,-3.1989365259753626
1708436999.10452,-2.141953945159912,-1.3333713871291657,-2.52638823190798,6.110670196800985,1.0170533657073975,-3.1989195982562464
1708436999.1065335,-2.1419460773468018,-1.3334128123572846,-2.5263553301440638,6.110654222756185,1.0170382261276245,-3.198928181325094
1708436999.108524,-2.1419496536254883,-1.3334200245193024,-2.526358668004171,6.110624658852377,1.017037034034729,-3.1989365259753626
1708436999.1105278,-2.141932964324951,-1.3333595556071778,-2.526400152836935,6.110645520478048,1.0170084238052368,-3.1989319960223597
1708436999.1125445,-2.1419284343719482,-1.3334005636027833,-2.5263662973987024,6.110665786057272,1.0170665979385376,-3.1989365259753626
1708436999.1145256,-2.141941547393799,-1.333334432249405,-2.5263705889331263,6.110681998520651,1.0170292854309082,-3.1989439169513147
1708436999.1165578,-2.1419284343719482,-1.3333473068526764,-2.526379410420553,6.11071132400588,1.017037034034729,-3.1989527384387415
1708436999.1185226,-2.1419241428375244,-1.333437369470932,-2.526358668004171,6.110621440201559,1.017075538635254,-3.1989319960223597
1708436999.1205175,-2.141953945159912,-1.3334005636027833,-2.526375118886129,6.110681998520651,1.017021894454956,-3.198928181325094
1708436999.1225648,-2.141962766647339,-1.333399937754013,-2.526400152836935,6.110670077591696,1.0170414447784424,-3.1988914648639124
1708436999.124545,-2.141921281814575,-1.3334171336940308,-2.5263870398150843,6.110604154854574,1.0170414447784424,-3.198906485234396
1708436999.126545,-2.141953945159912,-1.3333681386760254,-2.5264163653003138,6.110654222756185,1.017074465751648,-3.198890272771017
1708436999.1285381,-2.141930103302002,-1.3333725196174164,-2.526383701954977,6.110625731735983,1.0170336961746216,-3.1989319960223597
1708436999.1305113,-2.141883373260498,-1.3334049445441742,-2.526334349309103,6.110593187599935,1.0170459747314453,-3.1989107767688196
1708436999.1325386,-2.1419460773468018,-1.3333876144937058,-2.5263498465167444,6.110645639687338,1.0170459747314453,-3.1988945643054407
1708436999.1345093,-2.141990900039673,-1.333379105930664,-2.526375118886129,6.110674488335409,1.0170459747314453,-3.1988914648639124
1708436999.1365316,-2.1419663429260254,-1.3333757680705567,-2.526395622883932,6.110670196800985,1.0170382261276245,-3.198923412953512
1708436999.1385243,-2.141937255859375,-1.3333962720683594,-2.526400152836935,6.110637652664938,1.017004132270813,-3.198927704487936
1708436999.1405237,-2.141887664794922,-1.3334406179240723,-2.526346508656637,6.1106170294578455,1.0170084238052368,-3.198939625416891
1708436999.1425416,-2.1419951915740967,-1.3333999526551743,-2.526379410420553,6.110580193787374,1.0170292854309082,-3.198923412953512
1708436999.144526,-2.141941547393799,-1.3334329438260575,-2.526371781026022,6.110646354943075,1.017032504081726,-3.1988826433764856
1708436999.146551,-2.141953945159912,-1.3333628934672852,-2.526428286229269,6.110633241921224,1.0170503854751587,-3.1989319960223597
1708436999.1485665,-2.1419663429260254,-1.3333919805339356,-2.5263543764697474,6.1106008169944666,1.0169962644577026,-3.1989107767688196
1708436999.1505153,-2.1419663429260254,-1.3333757680705567,-2.526400152836935,6.110637652664938,1.0170503854751587,-3.1989482084857386
1708436999.1525376,-2.141962766647339,-1.3333386939815064,-2.5263386408435267,6.110613810807028,1.0170084238052368,-3.1989644209491175
1708436999.1545203,-2.1419453620910645,-1.3333638471416016,-2.526367489491598,6.110707032471456,1.0170129537582397,-3.19892388979067
1708436999.1565292,-2.141982078552246,-1.3333919805339356,-2.526330057774679,6.110593187599935,1.017000675201416,-3.1989319960223597
1708436999.1585207,-2.141982078552246,-1.3333887320807953,-2.5264325777636927,6.110572325974264,1.0170336961746216,-3.1989076773272913
1708436999.1605182,-2.1419453620910645,-1.3334005636027833,-2.5264208952533167,6.110609519272604,1.0170292854309082,-3.198919121419088
1708436999.1625714,-2.1419284343719482,-1.333461121921875,-2.5263662973987024,6.1105888960655115,1.0170084238052368,-3.1989601294146937
1708436999.1645176,-2.1419906616210938,-1.3334320348552247,-2.526407782231466,6.110597598343649,1.0170173645019531,-3.198923412953512
1708436999.1665475,-2.1419496536254883,-1.3334041398814698,-2.526383701954977,6.110584604531088,1.0170129537582397,-3.1989319960223597
1708436999.168533,-2.141962766647339,-1.3333757680705567,-2.5264151732074183,6.1106008169944666,1.0170292854309082,-3.198927704487936
1708436999.1706016,-2.141958236694336,-1.3333430153182526,-2.52635103860964,6.1106300232704065,1.0170173645019531,-3.1989689509021204
1708436999.172577,-2.1419777870178223,-1.3333875399878998,-2.526367489491598,6.110593306809225,1.0169962644577026,-3.1989319960223597
1708436999.174531,-2.141970634460449,-1.3334362369826813,-2.526407543812887,6.110662805825033,1.017037034034729,-3.1989851633654993
1708436999.1765165,-2.141974925994873,-1.3333800447038193,-2.526350800191061,6.1106018898780725,1.0170623064041138,-3.1989033857928675
1708436999.1785274,-2.1419777870178223,-1.3333757680705567,-2.526367489491598,6.110645520478048,1.017021894454956,-3.198919121419088
1708436999.180536,-2.141937255859375,-1.3334127825549622,-2.5264151732074183,6.110641944199362,1.0170247554779053,-3.1989195982562464
1708436999.182508,-2.141941547393799,-1.3333430153182526,-2.5263763109790247,6.1106289503868005,1.0170336961746216,-3.1989601294146937
1708436999.1845284,-2.141970634460449,-1.3334171038917084,-2.526379410420553,6.110580312996664,1.0170336961746216,-3.1989408175097864
1708436999.1865265,-2.141990900039673,-1.3334200245193024,-2.526391331349508,6.110658514290609,1.0169918537139893,-3.198916260396139
1708436999.1885319,-2.141979455947876,-1.3334244054606934,-2.52641207376589,6.1106759188468835,1.0170263051986694,-3.198902193699972
1708436999.190535,-2.1419663429260254,-1.3333757680705567,-2.5263500849353235,6.110646354943075,1.0170292854309082,-3.1988988558398646
1708436999.1925266,-2.141974925994873,-1.333381102686264,-2.5263870398150843,6.11063443401412,1.0170129537582397,-3.1989365259753626
1708436999.1945145,-2.141958236694336,-1.3333800596049805,-2.526358668004171,6.110625731735983,1.0170129537582397,-3.198897902165548
1708436999.1965144,-2.1419124603271484,-1.3334041398814698,-2.52641207376589,6.110613810807028,1.0170140266418457,-3.1989319960223597
1708436999.1985147,-2.1419453620910645,-1.3333876591971894,-2.526407782231466,6.110556113510885,1.0170336961746216,-3.198906485234396
1708436999.2005105,-2.141937255859375,-1.3334158223918458,-2.52635103860964,6.110646354943075,1.0170129537582397,-3.1989439169513147
1708436999.202513,-2.1419663429260254,-1.3333353859237214,-2.526358668004171,6.110589015274801,1.0169962644577026,-3.1989601294146937
1708436999.2045243,-2.1419663429260254,-1.3334286969951172,-2.526395622883932,6.110584485321798,1.0170292854309082,-3.1989482084857386
1708436999.20651,-2.1419496536254883,-1.3333473068526764,-2.5263870398150843,6.110597598343649,1.017000675201416,-3.198951546345846
1708436999.208545,-2.1419620513916016,-1.3333681386760254,-2.5263543764697474,6.110625731735983,1.0170623064041138,-3.1989195982562464
1708436999.2105386,-2.141932964324951,-1.3334448349526902,-2.52637488046755,6.110633241921224,1.0170469284057617,-3.1989720503436487
1708436999.2127743,-2.141995429992676,-1.3334170591882248,-2.526350800191061,6.110581028252401,1.017000675201416,-3.1989644209491175
1708436999.2145147,-2.1419241428375244,-1.3334084910205384,-2.526379410420553,6.110650646477499,1.0170292854309082,-3.199013058339254
1708436999.216523,-2.141989231109619,-1.3333843511394043,-2.5263376871692103,6.110622513085165,1.0169962644577026,-3.198902193699972
1708436999.2185256,-2.141982078552246,-1.333399937754013,-2.526395861302511,6.110626923828878,1.0170129537582397,-3.1989319960223597
1708436999.2210333,-2.1419663429260254,-1.3333473068526764,-2.526383701954977,6.110665666847982,1.017037034034729,-3.198983971272604
1708436999.2225065,-2.141953945159912,-1.333367185001709,-2.526400152836935,6.110621440201559,1.0170459747314453,-3.1989365259753626
1708436999.2245262,-2.1419777870178223,-1.333367185001709,-2.526379410420553,6.110597598343649,1.0169918537139893,-3.198919121419088
1708436999.2265325,-2.141970634460449,-1.3333724749139328,-2.5263333956347864,6.110597598343649,1.0170292854309082,-3.198951546345846
1708436999.2285435,-2.1419453620910645,-1.3334041398814698,-2.526358668004171,6.110662805825033,1.0170665979385376,-3.1989319960223597
1708436999.2305362,-2.14198637008667,-1.3334049445441742,-2.5263705889331263,6.110646235733785,1.017037034034729,-3.1989601294146937
1708436999.2325149,-2.14198637008667,-1.3333559793284913,-2.526358668004171,6.110585319786825,1.017054796218872,-3.1989763418780726
1708436999.2345417,-2.141932964324951,-1.3334041398814698,-2.5263825098620813,6.110584485321798,1.0170247554779053,-3.1990001837359827
1708436999.236522,-2.1419241428375244,-1.3333962720683594,-2.52641207376589,6.11063431480483,1.0170425176620483,-3.1989644209491175
1708436999.2385333,-2.141993522644043,-1.333399937754013,-2.526400152836935,6.11067150810317,1.017075538635254,-3.198963467274801
1708436999.2405138,-2.141997814178467,-1.3334085208228608,-2.526386801396505,6.110613810807028,1.0170173645019531,-3.198967758809225
1708436999.2425199,-2.141989231109619,-1.3334243607572098,-2.526383701954977,6.110576617508688,1.0169918537139893,-3.1989763418780726
1708436999.2445273,-2.1420021057128906,-1.3333595556071778,-2.5264151732074183,6.11063443401412,1.0170247554779053,-3.198897902165548
1708436999.2465303,-2.141990900039673,-1.3334085208228608,-2.526346747075216,6.110638725548544,1.017005205154419,-3.1989527384387415
1708436999.2485642,-2.1419496536254883,-1.3333397668651124,-2.526367489491598,6.1106018898780725,1.0169800519943237,-3.198951546345846
1708436999.2505472,-2.141970634460449,-1.3334171038917084,-2.52638823190798,6.1106018898780725,1.0170503854751587,-3.1989763418780726
1708436999.2525148,-2.1419777870178223,-1.3333768111518403,-2.526379410420553,6.110631215363302,1.0170084238052368,-3.198983971272604
1708436999.2545245,-2.1419577598571777,-1.3333962720683594,-2.526379410420553,6.110576617508688,1.0170129537582397,-3.19897967973818
1708436999.2565143,-2.1419496536254883,-1.3334373098662873,-2.526395861302511,6.110622513085165,1.0169711112976074,-3.1989591757403772
1708436999.2585092,-2.1419408321380615,-1.333371416931488,-2.526383701954977,6.1105679152305505,1.017000675201416,-3.1989968458758753
1708436999.2605236,-2.141953945159912,-1.333432988529541,-2.5264089743243616,6.110560405045309,1.017021894454956,-3.198967758809225
1708436999.2625306,-2.1419620513916016,-1.333411530857422,-2.52635103860964,6.110638844757833,1.0170292854309082,-3.1989720503436487
1708436999.2645187,-2.1419408321380615,-1.3334128123572846,-2.526358668004171,6.11063443401412,1.017005205154419,-3.1989265123950403
1708436999.266551,-2.141974925994873,-1.3333301407149811,-2.5263376871692103,6.110618102341451,1.0170129537582397,-3.198918883000509
1708436999.2685378,-2.14201021194458,-1.3333956462195893,-2.526379410420553,6.11061059215621,1.0170292854309082,-3.1989882628070276
1708436999.270601,-2.1419577598571777,-1.333412767653801,-2.526391331349508,6.110560405045309,1.0169962644577026,-3.198947254811422
1708436999.2725527,-2.141932964324951,-1.333432988529541,-2.526363197957174,6.110606300621786,1.0170096158981323,-3.1989644209491175
1708436999.2745166,-2.1419692039489746,-1.3333757680705567,-2.526371781026022,6.110654938011923,1.017021894454956,-3.1989601294146937
1708436999.2765207,-2.1419496536254883,-1.3333800596049805,-2.526342217122213,6.110576736717977,1.0170129537582397,-3.1990001837359827
1708436999.278537,-2.141997814178467,-1.3333551746657868,-2.526391331349508,6.110594141274252,1.016982913017273,-3.1989591757403772
1708436999.2805274,-2.1419620513916016,-1.3334200245193024,-2.5264044443713587,6.110589730530538,1.017021894454956,-3.198983971272604
1708436999.2825131,-2.1419081687927246,-1.3333843511394043,-2.526400152836935,6.1105984328086755,1.0170140266418457,-3.198995892201559
1708436999.284518,-2.141953468322754,-1.3333595407060166,-2.5263870398150843,6.110552894860067,1.017021894454956,-3.1990163961993616
1708436999.286513,-2.141982078552246,-1.3333681386760254,-2.526391331349508,6.110609519272604,1.017000675201416,-3.198967758809225
1708436999.2885213,-2.1419734954833984,-1.3333473068526764,-2.526379410420553,6.110573518067159,1.0169962644577026,-3.198947254811422
1708436999.2905257,-2.141937255859375,-1.3333430153182526,-2.526363197957174,6.110593306809225,1.0170336961746216,-3.1989873091327112
1708436999.29251,-2.1419496536254883,-1.3333962571671982,-2.526383701954977,6.110659348755636,1.0170247554779053,-3.199033323918478
1708436999.2945192,-2.1419408321380615,-1.333408461218216,-2.5264208952533167,6.110569107323446,1.0170173645019531,-3.198991600667135
1708436999.2965128,-2.141982078552246,-1.3333833527616044,-2.526391331349508,6.110610711365499,1.017005205154419,-3.198975388203756
1708436999.2985163,-2.1419777870178223,-1.3333919805339356,-2.526400152836935,6.110638725548544,1.0170292854309082,-3.1989827791797083
1708436999.3005152,-2.141989231109619,-1.3334005338004609,-2.52635103860964,6.110618102341451,1.0169888734817505,-3.1990204493152063
1708436999.302508,-2.14198637008667,-1.3334244054606934,-2.526383701954977,6.110594141274252,1.0170247554779053,-3.199033323918478
1708436999.3045182,-2.1419849395751953,-1.3333672148040314,-2.526383701954977,6.110585319786825,1.0170247554779053,-3.1990321318255823
1708436999.3065226,-2.1419663429260254,-1.3333515983871003,-2.526342217122213,6.110495435982504,1.0170173645019531,-3.1990397612201136
1708436999.3085344,-2.14198637008667,-1.3333551746657868,-2.526407782231466,6.110663759499349,1.0170292854309082,-3.199075524006979
1708436999.310511,-2.1419777870178223,-1.333411530857422,-2.526379410420553,6.11061059215621,1.0170292854309082,-3.19908315340151
1708436999.3125396,-2.1419453620910645,-1.333334432249405,-2.52641207376589,6.110556113510885,1.017054796218872,-3.1991291681872767
1708436999.314529,-2.141989231109619,-1.3333919805339356,-2.5264416376696985,6.110597598343649,1.0170173645019531,-3.199066940938131
1708436999.316546,-2.1419496536254883,-1.3333558601192017,-2.526342217122213,6.110569107323446,1.017054796218872,-3.1991074720965784
1708436999.318558,-2.1419663429260254,-1.3333713871291657,-2.52641207376589,6.1105984328086755,1.017037034034729,-3.1990743319140833
1708436999.3205187,-2.1419734954833984,-1.3333875995925446,-2.526400152836935,6.1105689881141565,1.0170247554779053,-3.199124876652853
1708436999.3225737,-2.1419777870178223,-1.3333843660405655,-2.526371781026022,6.110545027046957,1.0170129537582397,-3.199071232472555
1708436999.3245232,-2.1419663429260254,-1.3333551597646256,-2.526367489491598,6.1106018898780725,1.017000675201416,-3.1990593115436
1708436999.3265083,-2.1419734954833984,-1.3334005636027833,-2.526358668004171,6.110618102341451,1.017054796218872,-3.1991079489337366
1708436999.3285303,-2.141997814178467,-1.3333919805339356,-2.526375118886129,6.110573518067159,1.0170382261276245,-3.199103657399313
1708436999.330515,-2.14201021194458,-1.333399937754013,-2.526371781026022,6.11063443401412,1.0170129537582397,-3.1991074720965784
1708436999.3325388,-2.141936779022217,-1.3334200096181412,-2.526395861302511,6.110573518067159,1.0170503854751587,-3.1991117636310022
1708436999.334518,-2.1419365406036377,-1.3334158223918458,-2.526395622883932,6.110613810807028,1.0169918537139893,-3.199078623448507
1708436999.3365154,-2.14203143119812,-1.3333551746657868,-2.526379410420553,6.11061059215621,1.016982913017273,-3.1991074720965784
1708436999.3385286,-2.1420066356658936,-1.333400548701622,-2.5263705889331263,6.110615002899923,1.0170173645019531,-3.19914418855776
1708436999.340533,-2.141970634460449,-1.3334041398814698,-2.5263870398150843,6.11053620555953,1.0170084238052368,-3.199127976094381
1708436999.3425262,-2.141997814178467,-1.3334214252284546,-2.526400152836935,6.110581028252401,1.0170503854751587,-3.1991031805621546
1708436999.3445141,-2.1420059204101562,-1.3333713871291657,-2.526391331349508,6.110572325974264,1.0170414447784424,-3.199094835911886
1708436999.3465319,-2.1419408321380615,-1.3334406179240723,-2.5263543764697474,6.110607015877523,1.0170129537582397,-3.1990917364703577
1708436999.3485568,-2.1419284343719482,-1.3334158223918458,-2.526379410420553,6.110585319786825,1.0170247554779053,-3.1991117636310022
1708436999.350519,-2.1420023441314697,-1.333334432249405,-2.526379410420553,6.110564815789022,1.0169962644577026,-3.199132506047384
1708436999.3525312,-2.1419777870178223,-1.3333757680705567,-2.5263705889331263,6.110594022064962,1.0170204639434814,-3.199120585118429
1708436999.3545086,-2.1420023441314697,-1.3333875846913834,-2.5263212362872522,6.110511648445883,1.0170952081680298,-3.19916803041567
1708436999.3565233,-2.1419198513031006,-1.3334049743464966,-2.526400152836935,6.110585319786825,1.0170577764511108,-3.199094835911886
1708436999.3585124,-2.1419496536254883,-1.3334049445441742,-2.5263825098620813,6.110613810807028,1.0170336961746216,-3.199087444935934
1708436999.360511,-2.14198637008667,-1.3333430153182526,-2.526371781026022,6.110606300621786,1.0169874429702759,-3.1991074720965784
1708436999.362571,-2.1419453620910645,-1.3333875995925446,-2.526395622883932,6.110564815789022,1.0170533657073975,-3.199136797581808
1708436999.3645468,-2.1419577598571777,-1.3333595556071778,-2.5264089743243616,6.110573518067159,1.0170292854309082,-3.1991117636310022
1708436999.3665257,-2.141970634460449,-1.3333800596049805,-2.5263705889331263,6.110597598343649,1.0170577764511108,-3.199094835911886
1708436999.3685553,-2.1420016288757324,-1.3333919954350968,-2.526379410420553,6.110606300621786,1.0170459747314453,-3.1990461985217493
1708436999.3705912,-2.1419577598571777,-1.3333713871291657,-2.526367489491598,6.110646235733785,1.0170667171478271,-3.199090544377462
1708436999.372601,-2.1419577598571777,-1.333334432249405,-2.526346508656637,6.1106018898780725,1.0170459747314453,-3.199078623448507
1708436999.3746207,-2.141993522644043,-1.3333510619452973,-2.5264325777636927,6.110576617508688,1.0169843435287476,-3.1991193930255335
1708436999.376558,-2.1419777870178223,-1.3333800596049805,-2.526325527821676,6.110643136292257,1.0170007944107056,-3.199136797581808
1708436999.3785152,-2.142019033432007,-1.333411530857422,-2.5263705889331263,6.110598313599386,1.0170414447784424,-3.199120585118429
1708436999.380537,-2.1419692039489746,-1.3334214848330994,-2.526383701954977,6.110618102341451,1.0170173645019531,-3.1990988890277308
1708436999.3825605,-2.141993522644043,-1.3333999526551743,-2.526363197957174,6.110597598343649,1.0170459747314453,-3.199078623448507
1708436999.3845527,-2.1419620513916016,-1.3333638620427628,-2.526346508656637,6.110593187599935,1.0170503854751587,-3.1991398970233362
1708436999.386557,-2.141993522644043,-1.3333962273648758,-2.5263763109790247,6.1106148836906335,1.0170292854309082,-3.1991236845599573
1708436999.388526,-2.142031192779541,-1.3333887320807953,-2.526400152836935,6.110615002899923,1.0170292854309082,-3.1990743319140833
1708436999.3905373,-2.1419620513916016,-1.3334406179240723,-2.5264044443713587,6.110589730530538,1.017037034034729,-3.199120585118429
1708436999.3925552,-2.1419496536254883,-1.3333757829717179,-2.5263333956347864,6.110622513085165,1.017037034034729,-3.19908315340151
1708436999.3945262,-2.141982078552246,-1.3333713871291657,-2.5264163653003138,6.110613810807028,1.017004132270813,-3.199066940938131
1708436999.3965416,-2.14201021194458,-1.3334244054606934,-2.5263376871692103,6.110585319786825,1.0170623064041138,-3.1991117636310022
1708436999.3985233,-2.141989231109619,-1.3333956462195893,-2.526391331349508,6.110572325974264,1.0170577764511108,-3.199116293584005
1708436999.4005399,-2.1420226097106934,-1.3334085208228608,-2.526407543812887,6.1105865118797205,1.0170459747314453,-3.199160401021139
1708436999.4025373,-2.1419496536254883,-1.3334362220815201,-2.5264163653003138,6.110589730530538,1.0170533657073975,-3.1991313139544886
1708436999.4045405,-2.1420226097106934,-1.333375723367073,-2.526363197957174,6.110590803414144,1.017020344734192,-3.1991193930255335
1708436999.4065375,-2.1419734954833984,-1.3333962273648758,-2.526342217122213,6.11061059215621,1.0170503854751587,-3.19914418855776
1708436999.4085395,-2.1419734954833984,-1.3333919805339356,-2.5263553301440638,6.110626923828878,1.0170665979385376,-3.199087444935934
1708436999.4105318,-2.1419620513916016,-1.3334128272584458,-2.526358668004171,6.110609519272604,1.0170129537582397,-3.1990538279162806
1708436999.4125662,-2.1419663429260254,-1.3333956015161057,-2.52641207376589,6.110597598343649,1.017054796218872,-3.199078623448507
1708436999.414518,-2.142014741897583,-1.3333800596049805,-2.526346508656637,6.110594022064962,1.0170173645019531,-3.19908315340151
1708436999.4165647,-2.1419777870178223,-1.3333800596049805,-2.5264163653003138,6.110609519272604,1.0170129537582397,-3.19908315340151
1708436999.4185145,-2.1419496536254883,-1.3333595556071778,-2.526400152836935,6.110654938011923,1.0170084238052368,-3.19914418855776
1708436999.4205508,-2.1419577598571777,-1.3333999079516907,-2.526371781026022,6.11063431480483,1.0169918537139893,-3.199087444935934
1708436999.422528,-2.14201021194458,-1.3334005188992997,-2.52638823190798,6.110606300621786,1.0169962644577026,-3.199078623448507
1708436999.424531,-2.141993522644043,-1.3333586317351838,-2.526342217122213,6.110556113510885,1.0170488357543945,-3.1991692225085657
1708436999.4265192,-2.1419973373413086,-1.3333962869695206,-2.526428286229269,6.110573518067159,1.0170173645019531,-3.199078623448507
1708436999.4285195,-2.141993522644043,-1.3334200245193024,-2.526367489491598,6.110585319786825,1.0170173645019531,-3.19914418855776
1708436999.4305568,-2.1419849395751953,-1.333399937754013,-2.526371781026022,6.110581028252401,1.0170621871948242,-3.199103657399313
1708436999.4325428,-2.141989231109619,-1.3333510172418137,-2.52641207376589,6.110573518067159,1.0170459747314453,-3.1991074720965784
1708436999.4345105,-2.1420226097106934,-1.3334128123572846,-2.5264413992511194,6.110618102341451,1.0170577764511108,-3.199116293584005
1708436999.436566,-2.1419849395751953,-1.3333800447038193,-2.526375118886129,6.110622513085165,1.0170085430145264,-3.1991193930255335
1708436999.4385068,-2.141989231109619,-1.333383397465088,-2.526379410420553,6.110576617508688,1.0170621871948242,-3.199094835911886
1708436999.4405117,-2.1420226097106934,-1.3333713871291657,-2.526391331349508,6.110585319786825,1.0170292854309082,-3.199094835911886
1708436999.4425519,-2.1420466899871826,-1.3333757829717179,-2.5264208952533167,6.110569107323446,1.0170621871948242,-3.1990917364703577
1708436999.4444942,-2.1419732570648193,-1.3334158223918458,-2.5264044443713587,6.110609519272604,1.017037034034729,-3.199116293584005
1708436999.4465408,-2.1420297622680664,-1.333404154782631,-2.5263705889331263,6.110613810807028,1.017004132270813,-3.199124876652853
1708436999.448507,-2.1420140266418457,-1.3333843362382432,-2.526375118886129,6.110600697785177,1.017020344734192,-3.199136797581808
1708436999.4505086,-2.142016649246216,-1.3334005636027833,-2.526375118886129,6.1106629250343225,1.0169874429702759,-3.199136797581808
1708436999.4525154,-2.1420209407806396,-1.3334277433208008,-2.526391331349508,6.110609519272604,1.017020344734192,-3.1991074720965784
1708436999.4545016,-2.1420679092407227,-1.3333919805339356,-2.526383701954977,6.110584604531088,1.0170292854309082,-3.199136797581808
1708436999.4565237,-2.1420466899871826,-1.3334005636027833,-2.526395622883932,6.110593187599935,1.0170502662658691,-3.199099365864889
1708436999.458498,-2.1420183181762695,-1.3334127825549622,-2.526363197957174,6.110650527268209,1.0170382261276245,-3.1991410891162317
1708436999.4605112,-2.1419761180877686,-1.3334171038917084,-2.5263553301440638,6.110613810807028,1.0170382261276245,-3.199055020009176
1708436999.4625275,-2.1420633792877197,-1.3334085208228608,-2.52638823190798,6.110638844757833,1.0170129537582397,-3.199071232472555
1708436999.464504,-2.1420679092407227,-1.3333595854095002,-2.526330057774679,6.110633241921224,1.0170382261276245,-3.199136797581808
1708436999.4665143,-2.1420254707336426,-1.3333962720683594,-2.52635103860964,6.110572325974264,1.0169888734817505,-3.1990507284747522
1708436999.4685292,-2.142009735107422,-1.3334244054606934,-2.526371781026022,6.110616910248556,1.0170096158981323,-3.1990538279162806
1708436999.470574,-2.142009735107422,-1.333371402030327,-2.526346508656637,6.110699403076925,1.0169888734817505,-3.1990593115436
1708436999.4725528,-2.1420297622680664,-1.3334041100791474,-2.526325527821676,6.110683071404257,1.0169646739959717,-3.1991079489337366
1708436999.4745123,-2.1420297622680664,-1.3334610623172303,-2.5263596216784876,6.110600697785177,1.0169525146484375,-3.199055020009176
1708436999.4765418,-2.142005205154419,-1.3334200245193024,-2.5263269583331507,6.110670196800985,1.016940712928772,-3.1991122404681605
1708436999.4785116,-2.142042398452759,-1.3333843511394043,-2.526313606892721,6.110621440201559,1.0169451236724854,-3.1990917364703577
1708436999.4805348,-2.142073154449463,-1.3333956462195893,-2.5263553301440638,6.110658514290609,1.0168958902359009,-3.1990593115436
1708436999.4825087,-2.142012357711792,-1.3334449094584961,-2.526334349309103,6.110686409264364,1.0169121026992798,-3.199019257222311
1708436999.4845302,-2.1420907974243164,-1.3333875995925446,-2.526318136845724,6.110665666847982,1.0169342756271362,-3.1990636030780237
1708436999.4865022,-2.142106533050537,-1.3334170889905472,-2.52635103860964,6.110707032471456,1.016897201538086,-3.199010435734884
1708436999.488521,-2.1420812606811523,-1.3334320199540635,-2.526371781026022,6.110649812012472,1.0168551206588745,-3.1990073362933558
1708436999.490538,-2.14211106300354,-1.33344920099292,-2.526334349309103,6.110686409264364,1.016926884651184,-3.199052874241964
1708436999.4925516,-2.142057418823242,-1.333380089407303,-2.5263474623309534,6.110681998520651,1.0169017314910889,-3.199047390614645
1708436999.4945104,-2.1420645713806152,-1.333419070844986,-2.5263388792621058,6.110688793450155,1.016877293586731,-3.1990321318255823
1708436999.4965165,-2.1421022415161133,-1.3334041398814698,-2.5263474623309534,6.110676634102621,1.0168728828430176,-3.1990159193622034
1708436999.4985347,-2.142106533050537,-1.3334158223918458,-2.5263312498675745,6.110671388893881,1.0168861150741577,-3.199069086705343
1708436999.5005472,-2.1420891284942627,-1.3334244054606934,-2.5263312498675745,6.110721337586202,1.0168534517288208,-3.1989429632769983
1708436999.5025172,-2.1421048641204834,-1.3334085208228608,-2.526306215916769,6.110794174462118,1.0168416500091553,-3.1989591757403772
1708436999.5045192,-2.142129898071289,-1.3334158223918458,-2.5263193289386194,6.110715853958883,1.0168204307556152,-3.198939625416891
1708436999.5065353,-2.1421048641204834,-1.333371402030327,-2.5263031164752405,6.110794174462118,1.0167831182479858,-3.198935333882467
1708436999.5085409,-2.1421456336975098,-1.3334244054606934,-2.5262911955462855,6.110834228783407,1.016793131828308,-3.19895583788027
1708436999.5105324,-2.1421005725860596,-1.3333843660405655,-2.526283327733175,6.110813605576315,1.0168054103851318,-3.198923412953512
1708436999.5125444,-2.1421093940734863,-1.3333834123662491,-2.526267115269796,6.1108248112495325,1.0167723894119263,-3.1989076773272913
1708436999.5145178,-2.142186164855957,-1.333351032142975,-2.526222292576925,6.110844242363729,1.0167618989944458,-3.19890004793276
1708436999.5165174,-2.142091751098633,-1.3333757680705567,-2.5262635389911097,6.110906111985006,1.0167574882507324,-3.1988795439349573
1708436999.518519,-2.142137050628662,-1.3334128123572846,-2.5262354055987757,6.110925543099203,1.0166959762573242,-3.1988676230060022
1708436999.5205295,-2.1421256065368652,-1.3334200245193024,-2.5262561480151575,6.110933410912313,1.016749382019043,-3.1989086310016077
1708436999.5225482,-2.1421780586242676,-1.3334115606597443,-2.5262768904315394,6.110982525139608,1.0166881084442139,-3.198904339467184
1708436999.5245178,-2.142160654067993,-1.3333834272674103,-2.5261991659747522,6.110924827843466,1.0166926383972168,-3.198855702077047
1708436999.5265093,-2.1422133445739746,-1.3334085059216996,-2.5261948744403284,6.110939729004659,1.016709327697754,-3.198815647755758
1708436999.5285342,-2.14219331741333,-1.3333595556071778,-2.526203457509176,6.1109845516975305,1.0166552066802979,-3.198771063481466
1708436999.530511,-2.1421518325805664,-1.333399922852852,-2.5261829535113733,6.1109845516975305,1.016635537147522,-3.198848072682516
1708436999.5325234,-2.142209053039551,-1.333363876943924,-2.5261829535113733,6.1110737202461145,1.0166488885879517,-3.198796097432272
1708436999.534523,-2.1422252655029297,-1.3334085506251832,-2.5262070337878626,6.111040937691488,1.0166369676589966,-3.198825184498922
1708436999.5365171,-2.1422410011291504,-1.3333962869695206,-2.5261219183551233,6.111126053124227,1.0165965557098389,-3.1988254229175013
1708436999.5385115,-2.142213821411133,-1.3334611517241974,-2.526142660771505,6.1110607264335535,1.0165635347366333,-3.198754612599508
1708436999.5405269,-2.142209529876709,-1.3334128123572846,-2.52613073984255,6.111096370011129,1.0166099071502686,-3.1987720171557825
1708436999.5425425,-2.1422295570373535,-1.3334199798158188,-2.5261765162097376,6.111095654755392,1.0165483951568604,-3.1987808386432093
1708436999.5445468,-2.142228126525879,-1.333407239322998,-2.5261765162097376,6.111156332283773,1.016581416130066,-3.198794666920797
1708436999.5465126,-2.142219305038452,-1.3334115457585831,-2.526097599660055,6.11117576339797,1.0165032148361206,-3.1987572352038782
1708436999.5485542,-2.142277240753174,-1.3334286969951172,-2.5261240641223353,6.111261713295736,1.016549825668335,-3.198716465626852
1708436999.5505345,-2.1422886848449707,-1.333415837293007,-2.5261195341693323,6.111211764603414,1.0164631605148315,-3.198712174092428
1708436999.5525212,-2.1423099040985107,-1.3333713722280045,-2.5260945002185267,6.111214744835653,1.0165046453475952,-3.198683563862936
1708436999.5545166,-2.142324924468994,-1.333399937754013,-2.5261195341693323,6.111268150597372,1.0164268016815186,-3.1987131277667444
1708436999.5565064,-2.14227294921875,-1.3333919805339356,-2.526095692311422,6.111299741059103,1.016447901725769,-3.198730770741598
1708436999.5585182,-2.1423380374908447,-1.3334200394204636,-2.5260751883136194,6.111314999848165,1.0164027214050293,-3.198681894932882
1708436999.5605178,-2.1423540115356445,-1.3334396940520783,-2.526034657155172,6.1113191721733,1.0163909196853638,-3.1986613909350794
1708436999.5625114,-2.1423654556274414,-1.3334085059216996,-2.526039187108175,6.111318099289694,1.0164282321929932,-3.1986411253558558
1708436999.5645087,-2.142390012741089,-1.3334244203618546,-2.5260632673846644,6.111429083138265,1.0163952112197876,-3.198616329823629
1708436999.5665324,-2.1423654556274414,-1.3334200245193024,-2.5260642210589808,6.1113823530967615,1.0163878202438354,-3.198596779500143
1708436999.5685043,-2.142397165298462,-1.3334115755609055,-2.526010576878683,6.111391055374899,1.0163545608520508,-3.1986172834979456
1708436999.5705588,-2.14235258102417,-1.333411530857422,-2.5260313192950647,6.111422765045919,1.0163846015930176,-3.198632542287008
1708436999.5725663,-2.142408847808838,-1.3334041100791474,-2.5260444323169153,6.111459243088522,1.0163604021072388,-3.1986218134509485
1708436999.5745318,-2.1423752307891846,-1.3334244054606934,-2.5259953180896204,6.111458527832784,1.0163229703903198,-3.1985774675952356
1708436999.5765283,-2.1424503326416016,-1.3334567707828064,-2.5260489622699183,6.111510741501608,1.0163440704345703,-3.198503080998556
1708436999.5785234,-2.1424827575683594,-1.3334200096181412,-2.5260239283191126,6.111551153450765,1.0162748098373413,-3.1985605398761194
1708436999.5805273,-2.142453670501709,-1.3334041398814698,-2.5259702841388147,6.111546742707052,1.0162992477416992,-3.198557202016012
1708436999.582518,-2.142449378967285,-1.333411530857422,-2.5259833971606653,6.111574637680807,1.0162837505340576,-3.198524777089254
1708436999.5845373,-2.1424365043640137,-1.3334286671927948,-2.5259864966021937,6.111534583359518,1.016288161277771,-3.1984880606280726
1708436999.5865307,-2.1424407958984375,-1.333399937754013,-2.5260117689715784,6.1116031287010095,1.0162358283996582,-3.198512856160299
1708436999.588555,-2.142423152923584,-1.3333757829717179,-2.5259953180896204,6.111610638886251,1.0162147283554077,-3.19845158258547
1708436999.5905213,-2.1424715518951416,-1.3334330183318635,-2.526004139577047,6.1116214869316,1.0162147283554077,-3.198500935231344
1708436999.5925663,-2.142517328262329,-1.3333870035460968,-2.5259342829333704,6.111634480744161,1.016190767288208,-3.198468033467428
1708436999.5945332,-2.142488479614258,-1.3333875995925446,-2.5259624163257044,6.11171184757308,1.0161995887756348,-3.1984646956073206
1708436999.5965333,-2.142533302307129,-1.3334158223918458,-2.5259223620044153,6.1117063639457605,1.0162073373794556,-3.198493305836813
1708436999.598558,-2.1425578594207764,-1.3333956462195893,-2.525947395955221,6.111629354744711,1.0161787271499634,-3.1984203497516077
1708436999.6005266,-2.1425693035125732,-1.3334200096181412,-2.5259223620044153,6.1117379544074915,1.0161876678466797,-3.1984246412860315
1708436999.602509,-2.142536163330078,-1.3334234666875382,-2.525951687489645,6.111770498543539,1.0161757469177246,-3.1984246412860315
1708436999.6045341,-2.142540454864502,-1.3333713424256821,-2.525931183491842,6.1117498753364465,1.0161550045013428,-3.1983965078936976
1708436999.6065123,-2.142536163330078,-1.3334085059216996,-2.5259278456317347,6.111798631935873,1.0161771774291992,-3.198405090962545
1708436999.6085415,-2.1425554752349854,-1.3334200245193024,-2.5259397665606897,6.1118061421211145,1.0161683559417725,-3.198449436818258
1708436999.6105857,-2.1425554752349854,-1.3333999526551743,-2.525874201451437,6.111834752350607,1.0161558389663696,-3.1984127203570765
1708436999.6125097,-2.142585515975952,-1.3334041696837922,-2.525907341633932,6.11178885677413,1.0161231756210327,-3.198425594960348
1708436999.6145144,-2.1425511837005615,-1.3333999526551743,-2.5259323755847376,6.111829268723287,1.0161350965499878,-3.198409382496969
1708436999.616506,-2.1426005363464355,-1.3333628636649628,-2.5259161631213587,6.111857521324911,1.016127586364746,-3.198425594960348
1708436999.618515,-2.1426444053649902,-1.3333913844874878,-2.5259247461902063,6.1118695614631555,1.016127586364746,-3.1983676592456263
1708436999.62054,-2.142587423324585,-1.3333913844874878,-2.5259204546557825,6.111860978394308,1.0161112546920776,-3.19833213487734
1708436999.6225026,-2.1426401138305664,-1.3334041249803086,-2.5258591810809534,6.111857402115621,1.016127586364746,-3.198327604924337
1708436999.624519,-2.1426568031311035,-1.3334439557841797,-2.5258947054492396,6.111900675087728,1.0160620212554932,-3.198401991521017
1708436999.626511,-2.1426401138305664,-1.333476648931839,-2.5258753935443323,6.111905085831442,1.016115665435791,-3.1983774344073694
1708436999.6285484,-2.1426568031311035,-1.3334439408830185,-2.5258916060077112,6.111954200058737,1.0160796642303467,-3.198292080556051
1708436999.6305318,-2.142643928527832,-1.3334524047425766,-2.5258992354022425,6.111933457642355,1.016115665435791,-3.198364559804098
1708436999.6325283,-2.1426475048065186,-1.3334723722985764,-2.5258546511279505,6.11194537857131,1.0161244869232178,-3.1983373800860804
1708436999.6345491,-2.1426563262939453,-1.3334482175162812,-2.5258665720569056,6.11195324638442,1.0160752534866333,-3.1983493010150355
1708436999.6365066,-2.142622709274292,-1.333435298209526,-2.525851551686422,6.112002122193136,1.016127586364746,-3.198312584553854
1708436999.6385007,-2.142683506011963,-1.3334561896375199,-2.5258472601519983,6.111965167313375,1.0161288976669312,-3.1983006636248987
1708436999.640505,-2.1426520347595215,-1.333395631318428,-2.5258916060077112,6.1119717238243005,1.016028642654419,-3.198280159627096
1708436999.642521,-2.1427371501922607,-1.333439664249756,-2.5258873144732874,6.111968385964193,1.0160841941833496,-3.1983049551593226
1708436999.6445506,-2.1426546573638916,-1.3334353131106873,-2.525867764149801,6.111993300705709,1.0160300731658936,-3.1983330885516565
1708436999.6465547,-2.1427125930786133,-1.333492950802185,-2.525867764149801,6.112024771958151,1.0160959959030151,-3.1983049551593226
1708436999.648562,-2.1426830291748047,-1.3334524196437378,-2.5258384386645716,6.1120290634925745,1.0160796642303467,-3.1983535925494593
1708436999.6505265,-2.142739772796631,-1.3334234368852158,-2.525867764149801,6.112032282143392,1.0161004066467285,-3.198369805012838
1708436999.6525252,-2.142735481262207,-1.3334234666875382,-2.5258427301989954,6.111967432289877,1.0161244869232178,-3.19831353822817
1708436999.6545148,-2.142739772796631,-1.333456204538681,-2.525912348424093,6.112089979439535,1.0160675048828125,-3.198374096547262
1708436999.6565156,-2.1427154541015625,-1.3334105622819443,-2.52592116991152,6.11207269409255,1.0160508155822754,-3.198341671620504
1708436999.658512,-2.142690896987915,-1.333419070844986,-2.5258591810809534,6.111999738007345,1.0161004066467285,-3.1983006636248987
1708436999.6605241,-2.1427648067474365,-1.3334439408830185,-2.525896135960714,6.112060773163595,1.0160664319992065,-3.1983092466937464
1708436999.6625097,-2.1427478790283203,-1.3333899092725296,-2.5258546511279505,6.112118589669027,1.0160586833953857,-3.1982675234424036
1708436999.6644998,-2.1427197456359863,-1.3334918779185791,-2.5258546511279505,6.112020361214437,1.0161288976669312,-3.198296372090475
1708436999.6665177,-2.1427154541015625,-1.3334562194398423,-2.5258634726153772,6.112036692887106,1.016088604927063,-3.1983006636248987
1708436999.668505,-2.1427390575408936,-1.3334475320628663,-2.5259037653552454,6.112085687905111,1.0160553455352783,-3.1983330885516565
1708436999.6705267,-2.1427066326141357,-1.333504856829979,-2.5258916060077112,6.1120595810706995,1.016115665435791,-3.198329750691549
1708436999.6726055,-2.1427884101867676,-1.3334799271873017,-2.525867764149801,6.112044560700216,1.016046404838562,-3.198329750691549
1708436999.6745932,-2.142810344696045,-1.3335004460862656,-2.525912348424093,6.112128960877218,1.0160629749298096,-3.1983092466937464
1708436999.6765757,-2.1427390575408936,-1.333491863017418,-2.5258918444262903,6.112101185112753,1.0160841941833496,-3.198334280644552
1708436999.6785564,-2.1427223682403564,-1.3334713888219376,-2.5258503595935267,6.112043368607321,1.0161288976669312,-3.198306147252218
1708436999.6805189,-2.142697811126709,-1.333495558505394,-2.525900427495138,6.112112986832418,1.016115665435791,-3.198318068181173
1708436999.6825337,-2.1427972316741943,-1.3335127395442505,-2.5258503595935267,6.1121325371559045,1.0160915851593018,-3.1982598940478724
1708436999.684508,-2.1427717208862305,-1.333527685408928,-2.5258753935443323,6.112095701485433,1.0160752534866333,-3.1982362906085413
1708436999.6865528,-2.142730474472046,-1.3335199815085907,-2.5258458296405237,6.112080204277792,1.016133427619934,-3.198264185582296
1708436999.688517,-2.1427559852600098,-1.3335352700999756,-2.5258265177356165,6.112075912743368,1.0161319971084595,-3.198256794606344
1708436999.690521,-2.1427931785583496,-1.3335114282420655,-2.5258873144732874,6.112153160362997,1.0161244869232178,-3.198216740285055
1708436999.6925335,-2.1427674293518066,-1.333530918960907,-2.5259035269366663,6.112117397576132,1.0160664319992065,-3.198221031819479
1708436999.6945148,-2.1427841186523438,-1.3335233491710206,-2.5258753935443323,6.112088906555929,1.0161482095718384,-3.198228422795431
1708436999.6965542,-2.1427690982818604,-1.333551825290062,-2.5258427301989954,6.112099993019857,1.016161561012268,-3.1982577482806605
1708436999.6985328,-2.1427435874938965,-1.3335266274264832,-2.525879685078756,6.1120794890220544,1.0161319971084595,-3.1982179323779505
1708436999.700534,-2.14277982711792,-1.33354805529628,-2.5258384386645716,6.112141239434042,1.0161771774291992,-3.1981640497790735
1708436999.702532,-2.1427605152130127,-1.333494172697403,-2.5258916060077112,6.112080204277792,1.0161482095718384,-3.1981404463397425
1708436999.7045522,-2.142747402191162,-1.3335028749755402,-2.5258591810809534,6.112088191300192,1.0161395072937012,-3.1981242338763636
1708436999.7065516,-2.1427559852600098,-1.3335388761809845,-2.5258753935443323,6.112126099854269,1.0161558389663696,-3.198209587727682
1708436999.708541,-2.1427559852600098,-1.333543137913086,-2.525912348424093,6.112088310509481,1.0161638259887695,-3.198129479085104
1708436999.7105088,-2.142730474472046,-1.3335560870221634,-2.5258992354022425,6.112075912743368,1.0161305665969849,-3.1980889479266565
1708436999.7125552,-2.1427674293518066,-1.3335561466268082,-2.5258470217334192,6.1121617434318445,1.0161558389663696,-3.1980889479266565
1708436999.7145152,-2.1427390575408936,-1.3335636121085663,-2.5258916060077112,6.112105595856466,1.0162039995193481,-3.198016945515768
1708436999.7165434,-2.1427559852600098,-1.3335603487542649,-2.5259116331683558,6.11216293552474,1.016180157661438,-3.1980298201190394
1708436999.7185245,-2.1427884101867676,-1.333584190612175,-2.5259116331683558,6.112166154175558,1.0161876678466797,-3.1979945341693323
1708436999.7205343,-2.142763137817383,-1.333530844455101,-2.5259116331683558,6.112080204277792,1.016219139099121,-3.1979945341693323
1708436999.7225518,-2.1427605152130127,-1.3335147362998505,-2.525896135960714,6.112099993019857,1.0162732601165771,-3.197881523762838
1708436999.7245352,-2.1427478790283203,-1.3335680228522797,-2.525869671498434,6.112117516785421,1.0162479877471924,-3.1978276411639612
1708436999.7265348,-2.1427111625671387,-1.333514691596367,-2.525898520146505,6.112080204277792,1.016243577003479,-3.1978006998645228
1708436999.7285228,-2.1427347660064697,-1.3335517954877396,-2.5259116331683558,6.112063991814413,1.0162599086761475,-3.1978471914874476
1708436999.7305386,-2.1427180767059326,-1.3335233342698594,-2.5258904139148157,6.112115967064657,1.0162643194198608,-3.1978395620929163
1708436999.7325914,-2.142751693725586,-1.333555058842041,-2.5259116331683558,6.112071740418234,1.016243577003479,-3.197754685078756
1708436999.7345207,-2.1427762508392334,-1.3335309040597458,-2.5258942286120813,6.112068402558126,1.0162792205810547,-3.197726551686422
1708436999.736547,-2.1427886486053467,-1.333510400061943,-2.5259116331683558,6.112068402558126,1.016309142112732,-3.197690788899557
1708436999.7385151,-2.1427347660064697,-1.3335679930499573,-2.5259223620044153,6.112128960877218,1.0162959098815918,-3.197601620350973
1708436999.7405214,-2.1427648067474365,-1.3335797947696229,-2.525980059300558,6.1121617434318445,1.0163289308547974,-3.1975906530963343
1708436999.7425363,-2.1426870822906494,-1.3335352850011368,-2.5259636084186,6.112145411759176,1.0162959098815918,-3.197603766118185
1708436999.7445316,-2.142702341079712,-1.3335560423186799,-2.525980059300558,6.1120924828346155,1.0162948369979858,-3.1975510756122034
1708436999.7465308,-2.142686367034912,-1.3335798245719452,-2.525971237813131,6.112104403763571,1.016306757926941,-3.1974130312549036
1708436999.7485263,-2.142686367034912,-1.3334869903377076,-2.525992218648092,6.112040269165792,1.016351580619812,-3.1974108854876917
1708436999.7505248,-2.1427268981933594,-1.333559365277626,-2.5260282198535364,6.112088906555929,1.0163767337799072,-3.197346274052755
1708436999.7525609,-2.142735481262207,-1.3335885566524048,-2.5260117689715784,6.112075912743368,1.016339659690857,-3.19728666940798
1708436999.7545218,-2.1427066326141357,-1.333563671713211,-2.5260477701770228,6.112121808319845,1.0163756608963013,-3.1972673575030726
1708436999.7565382,-2.1427762508392334,-1.3335560721210022,-2.5260239283191126,6.112068402558126,1.0164085626602173,-3.1971142927752894
1708436999.758506,-2.14278507232666,-1.3335680228522797,-2.5260029474841517,6.112081277161398,1.016404151916504,-3.1970627943622034
1708436999.7605133,-2.1427435874938965,-1.333543823366501,-2.5260477701770228,6.112031566887655,1.0164533853530884,-3.1969743410693567
1708436999.7625241,-2.1427154541015625,-1.3335518550923844,-2.526026789342062,6.112056362419882,1.0164523124694824,-3.196897331868307
1708436999.7644992,-2.1427223682403564,-1.3334984195283432,-2.526010576878683,6.112035858422079,1.0164445638656616,-3.1968558470355433
1708436999.7664962,-2.142789125442505,-1.3335309040597458,-2.526083771382467,6.112040149956503,1.0164941549301147,-3.1967268625842493
1708436999.768527,-2.1427648067474365,-1.3335395467332383,-2.52605110803713,6.112052190094747,1.016497254371643,-3.1966803709613245
1708436999.770538,-2.1427083015441895,-1.3335352700999756,-2.52608830133547,6.112052190094747,1.016512155532837,-3.196523968373434
1708436999.77259,-2.1426827907562256,-1.3335680079511185,-2.526055399571554,6.112008559494772,1.0165032148361206,-3.1963987986194056
1708436999.774572,-2.142756700515747,-1.3335474294475098,-2.526083771382467,6.111992227822103,1.0164958238601685,-3.196308437977926
1708436999.7765272,-2.1426916122436523,-1.3335309040597458,-2.526067558919088,6.112008559494772,1.0165528059005737,-3.196216885243551
1708436999.7785163,-2.1426873207092285,-1.3335233342698594,-2.526083771382467,6.112005340843954,1.016576886177063,-3.1960673967944544
1708436999.7805064,-2.142728328704834,-1.3335308742574234,-2.526083771382467,6.111944544106283,1.0165812969207764,-3.19596511522402
1708436999.78252,-2.14272403717041,-1.3335309338620682,-2.5260871092425745,6.1120139239128015,1.016588807106018,-3.1957388559924524
1708436999.784533,-2.1427414417266846,-1.3335233491710206,-2.5260377565967005,6.1119857905204675,1.0166383981704712,-3.1956098715411585
1708436999.7865565,-2.1426589488983154,-1.3335884821465989,-2.5260914007769983,6.111970770149984,1.016608476638794,-3.1955016295062464
1708436999.7885342,-2.142704486846924,-1.3335473996451874,-2.5260501543628138,6.111862647324362,1.0166577100753784,-3.195301357899801
1708436999.790513,-2.1426749229431152,-1.3335636270097275,-2.5261314550982874,6.111819374352255,1.0166488885879517,-3.195085589085714
1708436999.7925422,-2.1426877975463867,-1.3335431528142472,-2.5260914007769983,6.111917245178976,1.0166488885879517,-3.194927994404928
1708436999.794507,-2.1426353454589844,-1.3335146766952057,-2.5260663668261927,6.111905205040731,1.0165985822677612,-3.194723431264059
1708436999.7965026,-2.142672061920166,-1.3335265976241608,-2.5261109511004847,6.1118695614631555,1.0167104005813599,-3.1945226828204554
1708436999.798515,-2.1426563262939453,-1.3335146766952057,-2.5261226336108606,6.111865269928732,1.016709327697754,-3.1943402926074427
1708436999.8005977,-2.142639636993408,-1.3335146468928833,-2.52614409128298,6.111836778908529,1.0166970491409302,-3.1941373983966272
1708436999.8025043,-2.1426806449890137,-1.3335560721210022,-2.526097599660055,6.1118050692375085,1.0167255401611328,-3.193963352833883
1708436999.8045056,-2.1426525115966797,-1.3335352700999756,-2.526135269795553,6.111757385521688,1.016671895980835,-3.19366962114443
1708436999.8065193,-2.1426920890808105,-1.3335920733264466,-2.5261226336108606,6.111761081009664,1.0166794061660767,-3.193441931401388
1708436999.8085132,-2.142669200897217,-1.3335679781487961,-2.52616793314089,6.11175416687087,1.016704797744751,-3.1931987444507044
1708436999.810511,-2.1426172256469727,-1.3335561019233246,-2.52614409128298,6.111762988358297,1.0167123079299927,-3.192975107823507
1708436999.8125236,-2.1425838470458984,-1.3335352551988144,-2.5262003580676478,6.11173044422225,1.0167242288589478,-3.1926801840411585
1708436999.8145168,-2.1426172256469727,-1.3335517954877396,-2.526159111653463,6.111669051438131,1.0167618989944458,-3.1923943201648157
1708436999.8165464,-2.1426286697387695,-1.3335679930499573,-2.5262091795550745,6.111620771675863,1.016769289970398,-3.1921234766589563
1708436999.8185422,-2.1425838470458984,-1.3335603338531037,-2.526191536580221,6.111670124321737,1.0167856216430664,-3.1918485800372522
1708436999.820512,-2.142563581466675,-1.3335233938745041,-2.5261545817004603,6.1116171953971765,1.0168054103851318,-3.191458527241842
1708436999.8225102,-2.1425795555114746,-1.3335431528142472,-2.5261710325824183,6.1116182682807825,1.01676344871521,-3.1912112871753138
1708436999.8245192,-2.142559766769409,-1.3335560423186799,-2.5261576811419886,6.111635672837057,1.0168293714523315,-3.190843168889181
1708436999.8265111,-2.142547607421875,-1.3336008203080674,-2.5261829535113733,6.111616122513571,1.016808271408081,-3.19054085413088
1708436999.8285327,-2.1426055431365967,-1.3335603487542649,-2.526236597691671,6.111562716751852,1.016829490661621,-3.190144125615255
1708436999.8305378,-2.142564296722412,-1.3335798245719452,-2.5262277762042444,6.111481177597799,1.0168038606643677,-3.1897760073291224
1708436999.832515,-2.1425561904907227,-1.3335266274264832,-2.526257340108053,6.111535775452413,1.0168579816818237,-3.1894341150866907
1708436999.8345068,-2.142564296722412,-1.3335308742574234,-2.5262025038348597,6.111466038018026,1.0168787240982056,-3.1890013853656214
1708436999.836516,-2.1425318717956543,-1.3335308593562623,-2.5262442270862024,6.111373650818624,1.0168534517288208,-3.188639227543966
1708436999.838511,-2.142544746398926,-1.333547444348671,-2.5261948744403284,6.111438977509298,1.0168817043304443,-3.1881912390338343
1708436999.840516,-2.142529010772705,-1.3335352700999756,-2.526236597691671,6.1113693592842,1.0168609619140625,-3.1877997557269495
1708436999.842509,-2.142484188079834,-1.3335233193686982,-2.526226584111349,6.111423837929525,1.0169061422348022,-3.1873326937304896
1708436999.844517,-2.142529010772705,-1.33357226968322,-2.526214663182394,6.111325728684225,1.0168609619140625,-3.1869476477252405
1708436999.8465142,-2.1425251960754395,-1.3335028749755402,-2.526198212300436,6.111371624260702,1.0168850421905518,-3.186492983494894
1708436999.8485963,-2.1424927711486816,-1.3335309040597458,-2.52621037164797,6.111400830536642,1.0169342756271362,-3.1860275904284876
1708436999.8505187,-2.1424548625946045,-1.3335603487542649,-2.5262354055987757,6.1113518355186365,1.0168895721435547,-3.1855765024768274
1708436999.8525114,-2.1424973011016846,-1.3335352700999756,-2.526254955922262,6.111290085106649,1.016876220703125,-3.1851208845721644
1708436999.854528,-2.1424548625946045,-1.3334826242974778,-2.52621037164797,6.111286747246542,1.0168683528900146,-3.184702221547262
1708436999.8565235,-2.142460823059082,-1.333547444348671,-2.526292149220602,6.111266958504476,1.0168895721435547,-3.1841986815081995
1708436999.8585165,-2.1424407958984375,-1.3334997457316895,-2.526259247456686,6.1112345335777185,1.0168683528900146,-3.1836875120746058
1708436999.860508,-2.142460823059082,-1.3335233491710206,-2.5262635389911097,6.111251818924703,1.0168728828430176,-3.1831963698016565
1708436999.8625016,-2.1424002647399902,-1.333519072537758,-2.5262518564807337,6.111227738648214,1.0169017314910889,-3.182702128087179
1708436999.8645177,-2.142411708831787,-1.3334912669709702,-2.526243034993307,6.1111923334892175,1.0169179439544678,-3.1821590105639856
1708436999.8665166,-2.1423842906951904,-1.3335233491710206,-2.5262473265277308,6.111135351448812,1.016909122467041,-3.1815508047686976
1708436999.8685386,-2.1423637866973877,-1.3335523915341874,-2.526280228291647,6.111095654755392,1.0168883800506592,-3.1810196081744593
1708436999.8705275,-2.142401933670044,-1.3335689169219513,-2.526243034993307,6.111099946289816,1.016953945159912,-3.1805084387408655
1708436999.872555,-2.1424105167388916,-1.3334985238364716,-2.52630860010256,6.11108015754775,1.0169332027435303,-3.179941479359762
1708436999.874581,-2.142381191253662,-1.3335395467332383,-2.526243034993307,6.111031162529745,1.0169692039489746,-3.17936617532839
1708436999.8765593,-2.1423075199127197,-1.333519072537758,-2.526287619267599,6.111023533135214,1.0169165134429932,-3.1787307898150843
1708436999.8785486,-2.142390012741089,-1.3335114282420655,-2.526292149220602,6.111012804299154,1.016921043395996,-3.1781192461596888
1708436999.880523,-2.14229679107666,-1.3335395467332383,-2.526259247456686,6.110959636956014,1.017011046409607,-3.1775170008288782
1708436999.8825085,-2.142324924468994,-1.3335028451732178,-2.52627140680422,6.110964166909017,1.0169780254364014,-3.1769140402423304
1708436999.884534,-2.142301082611084,-1.3335362088731308,-2.526267115269796,6.110871302872457,1.0169451236724854,-3.1762548128711146
1708436999.8864992,-2.1422812938690186,-1.3335233491710206,-2.526267115269796,6.1108518717582605,1.0169824361801147,-3.175701681767599
1708436999.8885028,-2.142305612564087,-1.3334660989097138,-2.5262582937823694,6.110894310265341,1.0169737339019775,-3.1750410238849085
1708436999.8905103,-2.1422410011291504,-1.3335645508817215,-2.5263074080096644,6.110829102783956,1.0169451236724854,-3.1743925253497522
1708436999.8925283,-2.1422367095947266,-1.3335233491710206,-2.5263355414019983,6.1107919094856165,1.0170066356658936,-3.173779074345724
1708436999.8945155,-2.142209529876709,-1.3334832054427643,-2.5263400713550013,6.110760676651754,1.0169813632965088,-3.173072640095846
1708436999.8965123,-2.1421916484832764,-1.3335199815085907,-2.526328150426046,6.1107040522392175,1.017000675201416,-3.172300640736715
1708436999.89852,-2.142209053039551,-1.333519072537758,-2.5263150374041956,6.110709416657247,1.017018437385559,-3.171609942113058
1708436999.9005163,-2.142226457595825,-1.333495558505394,-2.5262911955462855,6.11072992065505,1.0169976949691772,-3.170830313359396
1708436999.9025471,-2.1421737670898438,-1.3334832203439255,-2.5263312498675745,6.110584604531088,1.0169481039047241,-3.1700993219958704
1708436999.9045134,-2.1421256065368652,-1.3335276258042832,-2.5263848940478724,6.1105559943015955,1.0169932842254639,-3.1694183985339563
1708436999.9065511,-2.142108678817749,-1.33347903311763,-2.5263596216784876,6.110589730530538,1.016972541809082,-3.1686626116382044
1708436999.908516,-2.1420679092407227,-1.3335071516088028,-2.5263431707965296,6.110517132073202,1.0170140266418457,-3.167874876652853
1708436999.9105139,-2.1420443058013916,-1.3335361939719697,-2.5263553301440638,6.1104973433311365,1.0170173645019531,-3.1671581904040735
1708436999.9125566,-2.142057418823242,-1.3335071516088028,-2.526325527821676,6.110494124680319,1.0169681310653687,-3.166347328816549
1708436999.9145186,-2.142050266265869,-1.3334670227817078,-2.5263553301440638,6.110433089524069,1.017005205154419,-3.1655564943896692
1708436999.9165406,-2.1419754028320312,-1.3335071516088028,-2.526371781026022,6.110441911011495,1.017038106918335,-3.164734427128927
1708436999.9185066,-2.1420140266418457,-1.3335480254939576,-2.5263870398150843,6.110418307572164,1.0169888734817505,-3.1639586130725306
1708436999.9205484,-2.141932964324951,-1.33347903311763,-2.526318136845724,6.110313522606649,1.0169681310653687,-3.1630926767932337
1708436999.9225397,-2.141900062561035,-1.3334912669709702,-2.5263925234424036,6.110290992050924,1.0170831680297852,-3.162241045628683
1708436999.9244983,-2.141885280609131,-1.3334799420884629,-2.5264087359057825,6.110164987831869,1.017054796218872,-3.1613414923297327
1708436999.9264956,-2.141918182373047,-1.3334832054427643,-2.526383701954977,6.110170233040609,1.0170533657073975,-3.1605079809771937
1708436999.928491,-2.1418585777282715,-1.3334832054427643,-2.5263925234424036,6.11015151718215,1.0170994997024536,-3.1595752874957483
1708436999.9305315,-2.1417899131774902,-1.3335041117719193,-2.526403252278463,6.110066044121542,1.0170621871948242,-3.1586630980121058
1708436999.9325123,-2.1417572498321533,-1.3335004311851044,-2.526375118886129,6.110002982407369,1.0170414447784424,-3.1577275435077112
1708436999.9345114,-2.141749143600464,-1.333491863017418,-2.526428286229269,6.109995949059286,1.0170238018035889,-3.156764332448141
1708436999.9365304,-2.1417622566223145,-1.3334594529918213,-2.5263870398150843,6.109854924469747,1.0170743465423584,-3.1557987372027796
1708436999.938506,-2.1416900157928467,-1.3334234666875382,-2.5263705889331263,6.109855043679037,1.0170159339904785,-3.1548448244677942
1708436999.9405184,-2.141632556915283,-1.3334147793105622,-2.5263662973987024,6.109796273499288,1.0170533657073975,-3.1538596788989466
1708436999.942529,-2.141666889190674,-1.333435298209526,-2.526419464741842,6.10967897155837,1.0170488357543945,-3.1529067198382776
1708436999.9445205,-2.1416025161743164,-1.3334148240140458,-2.5264151732074183,6.109602796822347,1.0169953107833862,-3.151973072682516
1708436999.9465516,-2.141545057296753,-1.3334200096181412,-2.5264230410205286,6.1095101712043665,1.0170818567276,-3.1509490648852747
1708436999.9485452,-2.141509771347046,-1.3333834272674103,-2.5264151732074183,6.109512793808737,1.0170445442199707,-3.1499009768115442
1708436999.9505756,-2.1414225101470947,-1.3334610623172303,-2.5263989607440394,6.10942434051589,1.0170655250549316,-3.148905579243795
1708436999.9525445,-2.141390562057495,-1.3333834272674103,-2.5264840761767786,6.109373080521383,1.0170818567276,-3.1478686968432825
1708436999.9545124,-2.141342878341675,-1.3334072691253205,-2.5264676252948206,6.1092439768608,1.017118215560913,-3.146902863179342
1708436999.956547,-2.141281843185425,-1.3333791357329865,-2.5264645258532923,6.109217750817098,1.01706862449646,-3.1457372347461146
1708436999.9585235,-2.1412386894226074,-1.3333919805339356,-2.5264959971057337,6.109142768173971,1.0170488357543945,-3.1447630564319056
1708436999.9605422,-2.1412289142608643,-1.3334524196437378,-2.5264914671527308,6.109013545304098,1.0170774459838867,-3.1437624136554163
1708436999.9625385,-2.1411094665527344,-1.3333913844874878,-2.526548449193136,6.108910071640768,1.0170774459838867,-3.1427257696734827
1708436999.9645433,-2.1410675048828125,-1.3334170591882248,-2.526527706776754,6.108862149506368,1.017118215560913,-3.141651455556051
1708436999.9665437,-2.140995740890503,-1.333439664249756,-2.5265842119800013,6.108754741936483,1.0171136856079102,-3.1405518690692347
1708436999.9685504,-2.1409356594085693,-1.3334286671927948,-2.5265842119800013,6.108659016876974,1.0170893669128418,-3.1394296328174036
1708436999.9705393,-2.1408755779266357,-1.3333913844874878,-2.5265799204455774,6.108507144242086,1.017118215560913,-3.138355557118551
1708436999.9725895,-2.140796184539795,-1.3334115457585831,-2.5265591780291956,6.108485209732809,1.017096757888794,-3.137256924306051
1708436999.9746199,-2.1406989097595215,-1.3334286671927948,-2.526604239140646,6.108373153000631,1.0171582698822021,-3.1361926237689417
1708436999.9765744,-2.1406807899475098,-1.3334320199540635,-2.5266085306750696,6.108240592270651,1.0171136856079102,-3.1350956598864954
1708436999.9785116,-2.1405675411224365,-1.3333672148040314,-2.526623551045553,6.108141529351034,1.0171375274658203,-3.13401967683901
1708436999.9805107,-2.140517234802246,-1.3334439408830185,-2.526578728352682,6.107985007553854,1.0171167850494385,-3.132895056401388
1708436999.9825494,-2.14046049118042,-1.3334405434182663,-2.5266860167132776,6.107886183052816,1.0171867609024048,-3.13173491159548
1708436999.9845257,-2.140380859375,-1.3334320199540635,-2.5266838709460657,6.107729661255636,1.0171571969985962,-3.1305983702289026
1708436999.986555,-2.1402812004089355,-1.3334072840264817,-2.5266881624804896,6.107593524246969,1.0171735286712646,-3.1294401327716272
1708436999.9885304,-2.1401655673980713,-1.3334561896375199,-2.5266509691821497,6.107490408211508,1.0171661376953125,-3.1282170454608362
1708436999.9905326,-2.140117645263672,-1.3334439408830185,-2.526662890111105,6.107331502228536,1.017176866531372,-3.1270344893084925
1708436999.992556,-2.1399686336517334,-1.3334439408830185,-2.526715103779928,6.107159125595846,1.0172064304351807,-3.1257665793048304
1708436999.9945145,-2.139890193939209,-1.3334482175162812,-2.5266616980182093,6.107061016350546,1.0172260999679565,-3.1246185938464563
1708436999.9965305,-2.1398184299468994,-1.3333913844874878,-2.526740376149313,6.106855380326071,1.0172185897827148,-3.1234317461596888
1708436999.9985344,-2.1397221088409424,-1.3334072691253205,-2.526727263127462,6.1066839573676965,1.01723051071167,-3.1221910158740442
1708437000.0005097,-2.139638900756836,-1.3334200096181412,-2.5267751852618616,6.1065618870551965,1.0172468423843384,-3.120983902608053
1708437000.0025616,-2.139495372772217,-1.333370493059494,-2.526820961629049,6.106373178749838,1.017241358757019,-3.1197765509234827
1708437000.0045218,-2.139340877532959,-1.3334610623172303,-2.52675444284548,6.10623465755538,1.0172488689422607,-3.118476215993063
1708437000.0065234,-2.1392760276794434,-1.3334267449430008,-2.526815954838888,6.10597716548995,1.0172817707061768,-3.1172998587237757
1708437000.0085187,-2.1391515731811523,-1.3334029030850907,-2.52682334581484,6.10586832740859,1.0173428058624268,-3.116070810948507
1708437000.0105503,-2.1389925479888916,-1.3334670227817078,-2.5268471876727503,6.105578052788534,1.0173265933990479,-3.114826027547018
1708437000.0125382,-2.1389007568359375,-1.3334482175162812,-2.5268753210650843,6.105453240662374,1.017317771911621,-3.113645378743307
1708437000.0145082,-2.138749599456787,-1.3334961396506806,-2.5269323031054896,6.1052898047264,1.0172685384750366,-3.1124547163592737
1708437000.0165086,-2.138617992401123,-1.333438978796341,-2.526923481618063,6.1049890396888635,1.0173629522323608,-3.1112492720233362
1708437000.0185225,-2.138415575027466,-1.3334842187217255,-2.526959482823507,6.104826795845785,1.017337679862976,-3.1099842230426233
1708437000.0205154,-2.1382815837860107,-1.3335480254939576,-2.5269880930529993,6.104599463730612,1.0173988342285156,-3.108779493962423
1708437000.0225227,-2.138092041015625,-1.3334790033153077,-2.5270207563983362,6.1043563959892175,1.017439603805542,-3.1075292269336146
1708437000.0245469,-2.1379566192626953,-1.3335190576365967,-2.52702242532839,6.104160535126486,1.0174229145050049,-3.1062966028796595
1708437000.0265152,-2.137798547744751,-1.3336082708886643,-2.5271111170398157,6.103921043663778,1.0174052715301514,-3.10506254831423
1708437000.0285287,-2.1376473903656006,-1.3335791540196915,-2.527083937321798,6.103682267456808,1.0175007581710815,-3.1038439909564417
1708437000.0305111,-2.1374595165252686,-1.3336158257773896,-2.527106825505392,6.103415000229635,1.017432451248169,-3.1024964491473597
1708437000.0325193,-2.137246608734131,-1.3335910749486466,-2.527114216481344,6.103114950447836,1.0174707174301147,-3.1012802759753626
1708437000.0345564,-2.13708758354187,-1.3336439591697236,-2.5272093454944056,6.1028809426124475,1.017465353012085,-3.0999675432788294
1708437000.0365138,-2.1368675231933594,-1.3336678755334397,-2.5272114912616175,6.102613317757406,1.017510175704956,-3.0987470785724085
1708437000.0385044,-2.1366686820983887,-1.3336225312999268,-2.5272114912616175,6.102301466255941,1.0175505876541138,-3.097384277974264
1708437000.040498,-2.1364364624023438,-1.3336952489665528,-2.527210299168722,6.101949083596029,1.0175671577453613,-3.0960331598864954
1708437000.0425036,-2.1362743377685547,-1.3336661917022248,-2.527283493672506,6.101646768837728,1.0176316499710083,-3.0946207682238978
1708437000.044557,-2.1360673904418945,-1.3337114614299317,-2.5272823015796106,6.101258623390951,1.017639398574829,-3.093302551900045
1708437000.046504,-2.1357951164245605,-1.3337429028800507,-2.5273433367358606,6.100993740349569,1.017691731452942,-3.0918896834002894
1708437000.048539,-2.13557767868042,-1.3338038188270112,-2.5273926893817347,6.100639331131735,1.0176784992218018,-3.09061843553652
1708437000.0505009,-2.135359764099121,-1.3337461960366745,-2.5273662249194544,6.100325095444479,1.0177693367004395,-3.089221779500143
1708437000.0525305,-2.1351373195648193,-1.3337627214244385,-2.52744704881777,6.099944460182943,1.0176984071731567,-3.0879412333117884
1708437000.0545106,-2.1349081993103027,-1.3338192862323304,-2.5274797121631067,6.099650966912069,1.0177385807037354,-3.0864396731006067
1708437000.0565162,-2.13462495803833,-1.3338384342244645,-2.527491633092062,6.0992236016090295,1.0177881717681885,-3.085135285054342
1708437000.0585122,-2.1343421936035156,-1.3338788908771058,-2.5275352636920374,6.098869550019064,1.0177748203277588,-3.083710495625631
1708437000.0605285,-2.134053945541382,-1.3339106303504487,-2.5275505224811,6.098478066712179,1.0178195238113403,-3.082479778920309
1708437000.0625083,-2.1338038444519043,-1.3339502674392243,-2.5276652018176478,6.098116147309103,1.0178152322769165,-3.0810697714435022
1708437000.0645232,-2.133507490158081,-1.3339259040406723,-2.527679506932394,6.097745168000021,1.0178481340408325,-3.079775873814718
1708437000.0665178,-2.133239507675171,-1.3339745265296479,-2.527674976979391,6.0973126766975305,1.017863392829895,-3.078458372746603
1708437000.0685425,-2.1329360008239746,-1.333965854053833,-2.5277558008777063,6.096882092743673,1.017894983291626,-3.0771072546588343
1708437000.0705278,-2.1326279640197754,-1.334022269850113,-2.5278168360339563,6.096497165947714,1.0179232358932495,-3.075719658528463
1708437000.0725644,-2.1322929859161377,-1.3340052229217072,-2.5278683344470423,6.095945107727804,1.0179756879806519,-3.0743942896472376
1708437000.0746355,-2.131969928741455,-1.3340698343566437,-2.5278921763049524,6.095518696099081,1.0180197954177856,-3.073089901600973
1708437000.0765667,-2.1316094398498535,-1.3341144782355805,-2.5278952757464808,6.095003235131063,1.0180555582046509,-3.071646515523092
1708437000.0785654,-2.1313488483428955,-1.3341255348971863,-2.5279672781573694,6.094569909363546,1.018087387084961,-3.070373837147848
1708437000.080534,-2.1309759616851807,-1.3341255497983475,-2.5280228296863,6.094120609551229,1.0181081295013428,-3.06897741953005
1708437000.0825427,-2.130591630935669,-1.3341377836516877,-2.5281124750720423,6.093565332680502,1.018130898475647,-3.0675669352160853
1708437000.0845273,-2.13020920753479,-1.3342299622348328,-2.528172318135397,6.093127476959982,1.018196702003479,-3.0661445299731653
1708437000.0865023,-2.129849672317505,-1.3342494529536744,-2.528220240269796,6.092564213066854,1.018233060836792,-3.0647366682635706
1708437000.0885549,-2.1294140815734863,-1.3342775267413636,-2.5282684008227747,6.092006552010336,1.01826012134552,-3.063183609639303
1708437000.090518,-2.1290407180786133,-1.3343005937388916,-2.5283358732806605,6.091435420304098,1.0183038711547852,-3.061835829411642
1708437000.0925207,-2.1286213397979736,-1.3343659055284043,-2.528416935597555,6.090853202133932,1.0183683633804321,-3.06036883989443
1708437000.0945199,-2.128192663192749,-1.3343723577312012,-2.5284929911242884,6.090335714607992,1.018388032913208,-3.058955256138937
1708437000.0965064,-2.127774715423584,-1.3344007295421143,-2.528527800236837,6.089798795967855,1.0184732675552368,-3.0575245062457483
1708437000.098515,-2.127380132675171,-1.3345052760890503,-2.528587881718771,6.089178788452902,1.018549919128418,-3.0560887495623987
1708437000.1005456,-2.126980781555176,-1.3345005077174683,-2.5286598841296595,6.08865367153243,1.0186177492141724,-3.0547013918506067
1708437000.102541,-2.126569986343384,-1.3345407855561753,-2.528769079838888,6.088030922203817,1.0186283588409424,-3.0532737413989466
1708437000.1045365,-2.1261205673217773,-1.3345680695823212,-2.528827730809347,6.0874003050620935,1.0187138319015503,-3.0519004503833216
1708437000.1065164,-2.125716209411621,-1.3346491318992157,-2.5288921038257044,6.086795079499044,1.0187410116195679,-3.0505366961108606
1708437000.108528,-2.1252453327178955,-1.3346517396024247,-2.5289509932147425,6.086131918221273,1.0188024044036865,-3.0491374174701136
1708437000.1105535,-2.1247987747192383,-1.3347079020789643,-2.529071871434347,6.085546719818868,1.0188624858856201,-3.0477574507342737
1708437000.112555,-2.1243231296539307,-1.334731177692749,-2.5291605631457728,6.084933864861288,1.0188478231430054,-3.0463832060443323
1708437000.1145122,-2.123892307281494,-1.3347629469684144,-2.5292282740222376,6.084259736328878,1.018946647644043,-3.0450404326068323
1708437000.1165328,-2.123394250869751,-1.3348993521979828,-2.529311720524923,6.083578097611227,1.0190141201019287,-3.043680493031637
1708437000.1185231,-2.1229026317596436,-1.334960089331009,-2.529400412236349,6.082863199501791,1.019086480140686,-3.0423434416400355
1708437000.1205416,-2.122391700744629,-1.334966854458191,-2.529480044041769,6.082230436592855,1.0191632509231567,-3.041025225316183
1708437000.1225474,-2.1218957901000977,-1.3349867922118683,-2.5296128431903284,6.0815690634544275,1.0191903114318848,-3.0396550337420862
1708437000.1245234,-2.1214258670806885,-1.3350378435901185,-2.529658619557516,6.080891477852621,1.0192582607269287,-3.0383463541613978
1708437000.1265173,-2.1209189891815186,-1.3351707619479676,-2.5297799746142786,6.08017252662734,1.019338846206665,-3.036941115056173
1708437000.1285238,-2.1203620433807373,-1.3352059882930298,-2.529872719441549,6.079462516098776,1.0193946361541748,-3.035590950642721
1708437000.1305296,-2.119849920272827,-1.335237519150116,-2.5299719015704554,6.078721153527059,1.0194997787475586,-3.0342279116259974
1708437000.132521,-2.1193060874938965,-1.3353580695441742,-2.530072275792257,6.078004228859701,1.0195958614349365,-3.032764259968893
1708437000.1345296,-2.1187472343444824,-1.33541792750869,-2.530114714299337,6.077306735306539,1.0196800231933594,-3.031334940587179
1708437000.1365275,-2.1182003021240234,-1.3355218780091782,-2.530247751866476,6.07653163650588,1.0197194814682007,-3.029990021382467
1708437000.1385272,-2.1176207065582275,-1.3355453175357361,-2.530351463948385,6.075781690865316,1.0198153257369995,-3.0286806265460413
1708437000.140505,-2.1170666217803955,-1.33558443308387,-2.5305052439319056,6.075049149781027,1.0198966264724731,-3.0272162596331995
1708437000.1425104,-2.1164391040802,-1.3357046407512208,-2.530555311833517,6.074272382050314,1.0199640989303589,-3.0258947054492396
1708437000.144512,-2.115839958190918,-1.3357645285180588,-2.530658785496847,6.073453652649679,1.020068883895874,-3.024499003087179
1708437000.1465077,-2.115255117416382,-1.3358354729465027,-2.530767027531759,6.072722780495443,1.0201776027679443,-3.0230894724475306
1708437000.1485193,-2.1146163940429688,-1.335963712339737,-2.5309491793261927,6.071843969612875,1.020233154296875,-3.0217981974231165
1708437000.150521,-2.1139748096466064,-1.3360601675561448,-2.5310450235949915,6.071093189507284,1.0203907489776611,-3.0204361120807093
1708437000.1525235,-2.113314628601074,-1.3360984486392518,-2.53113562265505,6.070243227272787,1.0204660892486572,-3.0191383997546595
1708437000.154508,-2.112671375274658,-1.336230830555298,-2.5312729517566126,6.069408166199484,1.0205501317977905,-3.017752710972921
1708437000.1565402,-2.112074613571167,-1.3363069754889985,-2.531334940587179,6.068558680802145,1.0206416845321655,-3.0165398756610315
1708437000.158525,-2.1114113330841064,-1.3364028644612809,-2.5314868132220667,6.067747461586752,1.020705223083496,-3.015209499989645
1708437000.1605074,-2.1107771396636963,-1.336494119172432,-2.5316272417651575,6.066918360977926,1.0208386182785034,-3.0138729254352015
1708437000.1625147,-2.110111713409424,-1.3365693402341385,-2.531743113194601,6.066069710045614,1.020987629890442,-3.01254111925234
1708437000.164524,-2.1093966960906982,-1.336689518099167,-2.5319493452655237,6.065164911537924,1.0210464000701904,-3.0112221876727503
1708437000.1665127,-2.1087374687194824,-1.3368306171945115,-2.532065216694967,6.064426052361288,1.021187424659729,-3.0099485556231897
1708437000.1685305,-2.1080665588378906,-1.3369049441865464,-2.5322120825396937,6.063476788788595,1.0212911367416382,-3.0086644331561487
1708437000.1705124,-2.107351541519165,-1.3370250922492524,-2.532360378895895,6.062606560974874,1.0213706493377686,-3.007304016743795
1708437000.172537,-2.106605291366577,-1.3370629113963624,-2.532447640095846,6.061677562981405,1.0215286016464233,-3.005958620701925
1708437000.1746063,-2.105964183807373,-1.3371840578368683,-2.5325871149646204,6.060792076378622,1.0216413736343384,-3.004669729863302
1708437000.1765344,-2.1051321029663086,-1.3373198372176667,-2.5327475706683558,6.059896695404806,1.0217241048812866,-3.003360096608297
1708437000.178518,-2.1044259071350098,-1.3374307614615937,-2.5328882376300257,6.058965551644125,1.0219100713729858,-3.002002779637472
1708437000.1805308,-2.1037094593048096,-1.3375309121659775,-2.533044163380758,6.058053123741903,1.0220168828964233,-3.0006609598742884
1708437000.1825204,-2.102978467941284,-1.337670923476555,-2.5331345240222376,6.057140457421102,1.0221459865570068,-2.9992952982531946
1708437000.1845355,-2.1022160053253174,-1.337773786192276,-2.533351723347799,6.056125747948446,1.0223101377487183,-2.997993055974142
1708437000.1865163,-2.1014580726623535,-1.3379257184318085,-2.5335283915149134,6.055188405304708,1.0224498510360718,-2.9966583887683313
1708437000.1885216,-2.1006784439086914,-1.3379964244416733,-2.533679787312643,6.0542229292686365,1.0225952863693237,-2.995406452809469
1708437000.1905403,-2.099916458129883,-1.3382175129703064,-2.5338285605060022,6.053271281510153,1.022682785987854,-2.994075600300924
1708437000.1925385,-2.0991172790527344,-1.338349537258484,-2.534020487462179,6.052293646126547,1.0228432416915894,-2.992737356816427
1708437000.1945043,-2.098384380340576,-1.3384357702783127,-2.5341764132129114,6.051288234978475,1.0229381322860718,-2.9915342966662806
1708437000.1965327,-2.0975329875946045,-1.3386076849750062,-2.534339729939596,6.050254452019491,1.0231032371520996,-2.990190092717306
1708437000.1985102,-2.0967679023742676,-1.3387433898499985,-2.534560267125265,6.049191820412435,1.0232644081115723,-2.988955322896139
1708437000.2005212,-2.0959413051605225,-1.338878260259964,-2.534725014363424,6.0482239601905725,1.0234742164611816,-2.9877596537219446
1708437000.202539,-2.095090389251709,-1.3390174520066758,-2.534863297139303,6.047247636109152,1.0235962867736816,-2.986490313206808
1708437000.204516,-2.094379186630249,-1.339181275372841,-2.535100046788351,6.046255099564352,1.0237867832183838,-2.9852636496173304
1708437000.206537,-2.093520402908325,-1.3393456649831315,-2.535293165837423,6.045264351158895,1.0238717794418335,-2.9839988390551966
1708437000.2085216,-2.0926718711853027,-1.3395098608783265,-2.535456720982687,6.044345485955038,1.0240486860275269,-2.9828339258777063
1708437000.2105143,-2.091845989227295,-1.3396772307208558,-2.5355833212481897,6.043298709183492,1.0242140293121338,-2.981661383305685
1708437000.212552,-2.091085195541382,-1.339819685821869,-2.5357916990863245,6.042310702591696,1.0243198871612549,-2.9804251829730433
1708437000.2145224,-2.090238094329834,-1.339881570344307,-2.535996739064352,6.0413012383277795,1.0245475769042969,-2.9792686144458216
1708437000.2165658,-2.089421033859253,-1.3401478987983246,-2.5361512343036097,6.040275919228353,1.0247070789337158,-2.9781022707568567
1708437000.218544,-2.0886642932891846,-1.3402781200459977,-2.5363803545581263,6.039291250496664,1.0248662233352661,-2.9769352118121546
1708437000.2205179,-2.087761163711548,-1.3404208284667511,-2.536551539097921,6.038241016655721,1.025064468383789,-2.975752655659811
1708437000.22256,-2.0868663787841797,-1.340593234901764,-2.536755625401632,6.037204015045919,1.0252357721328735,-2.9745951334582728
1708437000.2245045,-2.085996150970459,-1.340767816906311,-2.536943260823385,6.0361965773399255,1.025449275970459,-2.9733787218676966
1708437000.2265363,-2.08514666557312,-1.3409838390401383,-2.5371714274035853,6.035232531815328,1.0256133079528809,-2.972282950078146
1708437000.2285526,-2.0843114852905273,-1.3411674809506913,-2.537379566823141,6.034243571549215,1.025826334953308,-2.9710686842547815
1708437000.2305229,-2.0834505558013916,-1.341326044206955,-2.5376041571246546,6.033262240677633,1.0259891748428345,-2.969926420842306
1708437000.2325268,-2.082580804824829,-1.3415707808784028,-2.5377917925464075,6.032322037010946,1.0261496305465698,-2.9686999956714075
1708437000.2345212,-2.0816941261291504,-1.3417904388955613,-2.5380330721484583,6.031311976700582,1.0263837575912476,-2.9675472418414515
1708437000.236541,-2.0807807445526123,-1.34194469571624,-2.538211170827047,6.030257928162374,1.0265674591064453,-2.9664323965655726
1708437000.238526,-2.079890727996826,-1.342107744222023,-2.53837496439089,6.029249417572775,1.0267386436462402,-2.9653547445880335
1708437000.2405386,-2.0789601802825928,-1.3422989559224625,-2.538652006779806,6.028192388802328,1.0269641876220703,-2.9641714731799524
1708437000.242559,-2.078141212463379,-1.3424286854318161,-2.5388460795031946,6.0271187899406335,1.0271673202514648,-2.963045660649435
1708437000.2445204,-2.0772078037261963,-1.342689411049225,-2.5390751997577112,6.026210653572836,1.0273926258087158,-2.961961094533102
1708437000.2465272,-2.076345920562744,-1.3429178607514878,-2.539311949406759,6.025157677918234,1.0275760889053345,-2.960891310368673
1708437000.2485352,-2.075402021408081,-1.3430349391749878,-2.539568010960714,6.024137842446127,1.0277940034866333,-2.959802214299337
1708437000.2505367,-2.074437379837036,-1.3433035922101517,-2.5397871176349085,6.023101079254904,1.028026819229126,-2.9587417284594935
1708437000.2525272,-2.0735647678375244,-1.3434861165336152,-2.540043656026022,6.022076475411215,1.0282952785491943,-2.957689348851339
1708437000.254514,-2.0726511478424072,-1.3437501055053254,-2.5402794520007532,6.020924675255575,1.0284864902496338,-2.9566455523120325
1708437000.256506,-2.071730375289917,-1.3439330470613022,-2.540556017552511,6.019916760712423,1.028735876083374,-2.9556148687945765
1708437000.2585177,-2.0707638263702393,-1.3442174804261704,-2.540778938923971,6.01887475231246,1.02895188331604,-2.9546645323382776
1708437000.260524,-2.0698165893554688,-1.3444404315999527,-2.541043821965353,6.017867314606466,1.0292084217071533,-2.953585211430685
1708437000.2625341,-2.068887948989868,-1.3446764957955857,-2.541295591984884,6.01681004741744,1.0293625593185425,-2.9525907675372522
1708437000.2645369,-2.0679311752319336,-1.3448547732881089,-2.5415924231158655,6.015821563988485,1.0296281576156616,-2.951655689870016
1708437000.2665098,-2.0670413970947266,-1.345074326997139,-2.541802946721212,6.014898168831625,1.0299010276794434,-2.9506312052356165
1708437000.268512,-2.066080093383789,-1.3453495365432282,-2.542123858128683,6.013815510063925,1.0301690101623535,-2.949627463017599
1708437000.2705069,-2.065096616744995,-1.345600114469864,-2.542353693638937,6.012790310173788,1.0303770303726196,-2.9485889116870325
1708437000.2725146,-2.064122438430786,-1.3459124130061646,-2.542630974446432,6.01171766498641,1.0306915044784546,-2.947674814854757
1708437000.2746081,-2.063138246536255,-1.3460974109223862,-2.54297644296755,6.010604488640585,1.0310206413269043,-2.94669753709902
1708437000.276544,-2.0621492862701416,-1.3464635473540802,-2.5432186762439173,6.00955485084609,1.031288504600525,-2.9457693735705774
1708437000.2785354,-2.061183452606201,-1.3466764849475403,-2.543555561696188,6.008588659554281,1.0315974950790405,-2.944789711629049
1708437000.2805493,-2.0601999759674072,-1.3469067972949524,-2.543814007435934,6.007523762970724,1.031817078590393,-2.9438989798175257
1708437000.282534,-2.0592052936553955,-1.3472349655679245,-2.544135872517721,6.006530630379476,1.0320936441421509,-2.9429343382464808
1708437000.2845364,-2.058201551437378,-1.3475293976119538,-2.544415060673849,6.00549207904891,1.0323747396469116,-2.942052189503805
1708437000.286526,-2.057227849960327,-1.3477688443711777,-2.5447595755206507,6.004381644516744,1.0326719284057617,-2.94104248682131
1708437000.2885375,-2.056171417236328,-1.348039211039879,-2.5451164881335657,6.003369796067037,1.0329766273498535,-2.9401562849627894
1708437000.2905269,-2.055108070373535,-1.3483863186887284,-2.545419518147604,6.00228892543868,1.033358097076416,-2.939145628605978
1708437000.292544,-2.0541064739227295,-1.348741964702942,-2.5457585493670862,6.00126730182723,1.0336543321609497,-2.9382622877704065
1708437000.2945437,-2.0530359745025635,-1.3491015446237107,-2.5461157003985804,6.000215518265524,1.0340192317962646,-2.9372690359698694
1708437000.2965498,-2.051955223083496,-1.3493472349694748,-2.546438995991842,5.999116170197286,1.0343067646026611,-2.9363821188556116
1708437000.298512,-2.0509395599365234,-1.349686623816826,-2.5468035379992884,5.9981292364890955,1.0346804857254028,-2.9354944864856165
1708437000.3005264,-2.0499064922332764,-1.350017176275589,-2.5471559206592005,5.997130977898397,1.0350017547607422,-2.934622112904684
1708437000.302516,-2.0488407611846924,-1.3502997618964692,-2.547511402760641,5.996103989868917,1.035276174545288,-2.9337852636920374
1708437000.3045206,-2.0477302074432373,-1.3506541413119812,-2.5479069391833704,5.995042788773336,1.03569495677948,-2.9328957239734095
1708437000.3065155,-2.046638011932373,-1.3510614943555375,-2.5482750574695032,5.9940048334892175,1.0360465049743652,-2.932044569646017
1708437000.308535,-2.045511484146118,-1.3514617544463654,-2.548678223286764,5.992937910347738,1.0364075899124146,-2.9311466852771204
1708437000.3105106,-2.044335126876831,-1.3518161189607163,-2.549128595982687,5.991809832840719,1.0368341207504272,-2.9302757422076624
1708437000.3125393,-2.0433216094970703,-1.352226884370186,-2.549506966267721,5.990755545883932,1.0371739864349365,-2.9294310251819056
1708437000.3145313,-2.0422165393829346,-1.3525442045978089,-2.5498865286456507,5.98959647396163,1.0375347137451172,-2.928673330937521
1708437000.3165228,-2.0410637855529785,-1.3529400837472458,-2.5503326098071497,5.988578665047445,1.0378835201263428,-2.9278984705554407
1708437000.318511,-2.0399527549743652,-1.3532821101001282,-2.550662104283468,5.9875398752983,1.0382243394851685,-2.9269912878619593
1708437000.3205228,-2.0387563705444336,-1.3537345093539734,-2.5511027018176478,5.986500370293417,1.038634181022644,-2.9262808004962366
1708437000.322502,-2.0375771522521973,-1.3540960115245362,-2.551600758229391,5.985386359482565,1.039022445678711,-2.925488058720724
1708437000.3245208,-2.036432981491089,-1.3545310360244294,-2.552073065434591,5.984258162766256,1.0395162105560303,-2.924643103276388
1708437000.3265078,-2.0352096557617188,-1.3549860131791611,-2.5524829069720667,5.983219373017111,1.0399855375289917,-2.923941198979513
1708437000.3285542,-2.0340137481689453,-1.355435849433281,-2.552960459386007,5.982177006989279,1.0404380559921265,-2.9231610933886927
1708437000.3305447,-2.0329020023345947,-1.3558224004558106,-2.5534279982196253,5.98109661319808,1.040817141532898,-2.922417227421896
1708437000.3325584,-2.031649589538574,-1.356329621081688,-2.5538178125964563,5.980054962425985,1.0412511825561523,-2.9216488043414515
1708437000.3345041,-2.030491590499878,-1.3567273926785965,-2.5542901198016565,5.978962528496542,1.0417050123214722,-2.920870606099264
1708437000.3365197,-2.0292394161224365,-1.3571282488158722,-2.5547917524920862,5.977881896286764,1.0421572923660278,-2.92021614709963
1708437000.3384953,-2.028113842010498,-1.3576692354730149,-2.555185619984762,5.9768316624458215,1.0425323247909546,-2.9195342699633997
1708437000.340504,-2.0269343852996826,-1.3581269842437287,-2.555746857319967,5.97574411609725,1.0430068969726562,-2.918892208729879
1708437000.3425028,-2.025744676589966,-1.3585682076266785,-2.5561981836902063,5.974656569748678,1.0434513092041016,-2.918124500905172
1708437000.3445032,-2.0244972705841064,-1.359050677423813,-2.556694809590475,5.973585831909933,1.0439786911010742,-2.917419974003927
1708437000.346515,-2.02323842048645,-1.3595827233842392,-2.557206455861227,5.97248254993514,1.0444133281707764,-2.9168055693255823
1708437000.3485162,-2.021962881088257,-1.3600158256343384,-2.557737414036886,5.971265899925985,1.0449553728103638,-2.9161091486560267
1708437000.3505,-2.020749568939209,-1.3605183970979233,-2.5582857767688196,5.97024821022109,1.0454695224761963,-2.91541296640505
1708437000.3525064,-2.0194549560546875,-1.361007721429207,-2.5587475935565394,5.969233023911276,1.0459293127059937,-2.914743725453512
1708437000.3545156,-2.018190860748291,-1.361453966503479,-2.5593252817737024,5.96815441825942,1.0463908910751343,-2.9140997568713587
1708437000.356552,-2.0168874263763428,-1.3620096010020752,-2.5598040262805384,5.96702395656661,1.0468299388885498,-2.9133837858783167
1708437000.3585064,-2.015627861022949,-1.362475411300995,-2.5603612104998987,5.966042864113607,1.0472133159637451,-2.9127884546863
1708437000.3605134,-2.014308214187622,-1.3630382281592865,-2.5609012285815638,5.964989650040426,1.0476793050765991,-2.9121034781085413
1708437000.3625078,-2.0129916667938232,-1.363555685882904,-2.561417881642477,5.963884460717001,1.048270583152771,-2.9114680925952356
1708437000.3645132,-2.0116541385650635,-1.3640982520631333,-2.5620299021350306,5.96277021148757,1.0488475561141968,-2.9108427206622522
1708437000.3665185,-2.010291576385498,-1.3646889340928574,-2.562606159840719,5.961614239006796,1.0494933128356934,-2.910187307988302
1708437000.368525,-2.0089352130889893,-1.3652073752931138,-2.563226286564962,5.9604989168937585,1.0500861406326294,-2.9095595518695276
1708437000.3705056,-2.00757098197937,-1.365757406955101,-2.563860003148214,5.959332692414083,1.0506434440612793,-2.9089389483081263
1708437000.37251,-2.00616455078125,-1.3662867409041901,-2.5644105116473597,5.958262312203207,1.0511844158172607,-2.908286158238546
1708437000.3745885,-2.0047945976257324,-1.366870478992798,-2.5650180021869105,5.957128512650289,1.0516313314437866,-2.9076736609088343
1708437000.3765962,-2.0034141540527344,-1.3674361866763611,-2.5655699411975306,5.95601366737441,1.052133321762085,-2.9070511499988
1708437000.3786657,-2.0019962787628174,-1.367981107240059,-2.5662503878222864,5.954788553505697,1.0526591539382935,-2.906458918248312
1708437000.3805668,-2.000540256500244,-1.3686084163239975,-2.566916052495138,5.953632819443502,1.0532901287078857,-2.905868117009298
1708437000.3825574,-1.999084234237671,-1.3692093801549454,-2.567550245915548,5.952514278679647,1.0539112091064453,-2.9052799383746546
1708437000.3845537,-1.9976520538330078,-1.3698311758092423,-2.568223301564352,5.9513882277305505,1.0545926094055176,-2.9047277609454554
1708437000.386533,-1.9961705207824707,-1.370384232406952,-2.5689638296710413,5.950301992684164,1.055195927619934,-2.9041155020343226
1708437000.3885603,-1.9947148561477661,-1.3710135382464905,-2.569599215184347,5.949163305550375,1.0557762384414673,-2.9035478273974817
1708437000.3905118,-1.9932781457901,-1.3716003161719819,-2.5702462832080286,5.947909939080038,1.056375503540039,-2.902994696293966
1708437000.3925169,-1.9917947053909302,-1.372239426975586,-2.5709150473224085,5.946796881943502,1.0570050477981567,-2.902496878300802
