Eg3-git/Classifiers/Data Collection/u5/u5star5_ur3e_joint_states.csv
time,elbow_joint,shoulder_lift_joint,shoulder_pan_joint,wrist_1_joint,wrist_2_joint,wrist_3_joint
1708437075.5886464,-2.1422135829925537,-1.3335003864816208,-2.5261548201190394,6.110882746964254,1.0165321826934814,-2.848363701497213
1708437075.5906866,-2.14219331741333,-1.3335047376206894,-2.526191536580221,6.110944020539083,1.0165646076202393,-2.848342005406515
1708437075.5926485,-2.1421637535095215,-1.3334225130132218,-2.5261829535113733,6.110911237984457,1.0165603160858154,-2.8483594099627894
1708437075.5946553,-2.1422181129455566,-1.3335126352361222,-2.526187245045797,6.110969769745626,1.0165483951568604,-2.8483756224261683
1708437075.5966575,-2.142200231552124,-1.3334875863841553,-2.526203457509176,6.110948550492086,1.0165364742279053,-2.848391834889547
1708437075.5986187,-2.1421730518341064,-1.333434672360756,-2.526220146809713,6.110969650536337,1.0165973901748657,-2.848416868840353
1708437075.6006236,-2.14219331741333,-1.3334756654552002,-2.526196066533224,6.110923158913412,1.0165646076202393,-2.8483269850360315
1708437075.602646,-2.1422362327575684,-1.3334799271873017,-2.5261710325824183,6.1109574911888025,1.0165354013442993,-2.848358217869894
1708437075.6046011,-2.142199993133545,-1.3334475618651886,-2.526191536580221,6.1109845516975305,1.016568899154663,-2.84833008447756
1708437075.606607,-2.1422181129455566,-1.3334875863841553,-2.526175324116842,6.111008393555441,1.0165973901748657,-2.848358217869894
1708437075.6086514,-2.1421754360198975,-1.3334918481162568,-2.5261417070971888,6.111003982811727,1.0165603160858154,-2.848337475453512
1708437075.6106074,-2.14219331741333,-1.333467037682869,-2.526219908391134,6.111012923508444,1.0165973901748657,-2.8484037558185022
1708437075.6126292,-2.1422135829925537,-1.333527610903122,-2.526187245045797,6.111074316292562,1.0165159702301025,-2.8483670393573206
1708437075.614636,-2.142191171646118,-1.333443285231926,-2.5261786619769495,6.111065375595846,1.01651930809021,-2.8483508268939417
1708437075.6166208,-2.142199993133545,-1.3334790480187912,-2.5261991659747522,6.111129271775045,1.0165811777114868,-2.8483951727496546
1708437075.6186352,-2.14220929145813,-1.3334961247495194,-2.526187245045797,6.111071097641744,1.0165646076202393,-2.848358217869894
1708437075.620619,-2.1421797275543213,-1.333455206160881,-2.5261710325824183,6.1111042378242395,1.0165646076202393,-2.848367993031637
1708437075.6226282,-2.1422228813171387,-1.3335212481072922,-2.5262077490436,6.111152994423666,1.0165355205535889,-2.8483713308917444
1708437075.624603,-2.1422431468963623,-1.3334353131106873,-2.526203457509176,6.1110890982444666,1.0165811777114868,-2.8483875433551233
1708437075.6266203,-2.1421637535095215,-1.3334475618651886,-2.5262077490436,6.111066806107321,1.0165364742279053,-2.848362747822897
1708437075.62862,-2.1421561241149902,-1.3334714037230988,-2.526187245045797,6.111105429917135,1.016593098640442,-2.848351780568258
1708437075.6306353,-2.1422271728515625,-1.3334875863841553,-2.5262330214129847,6.111087548523702,1.0165724754333496,-2.848358217869894
1708437075.6326292,-2.1422271728515625,-1.3334799271873017,-2.5261948744403284,6.111063825875082,1.016555905342102,-2.848412577305929
1708437075.6346316,-2.142195701599121,-1.3334875863841553,-2.5261881987201136,6.111071097641744,1.0165603160858154,-2.848334614430563
1708437075.636625,-2.1422455310821533,-1.3334875863841553,-2.526175324116842,6.111075746804037,1.0165646076202393,-2.84836990038027
1708437075.6386278,-2.1421797275543213,-1.3334918481162568,-2.526203457509176,6.111071216851034,1.016576886177063,-2.8483508268939417
1708437075.6406772,-2.1422455310821533,-1.3334799271873017,-2.5261545817004603,6.111096489220419,1.0164904594421387,-2.848412100468771
1708437075.6426573,-2.142213821411133,-1.3334714037230988,-2.526191536580221,6.111078727036276,1.0165441036224365,-2.8484037558185022
1708437075.644635,-2.1422181129455566,-1.3334594827941437,-2.526175324116842,6.111087548523702,1.0165646076202393,-2.8484206835376185
1708437075.6466167,-2.1421773433685303,-1.3334225130132218,-2.526175324116842,6.111120331078329,1.0165396928787231,-2.8483594099627894
1708437075.6486135,-2.142181873321533,-1.3334637445262452,-2.526203457509176,6.111113178520956,1.0165646076202393,-2.8483744303332728
1708437075.6506293,-2.1421682834625244,-1.3335083735040207,-2.5261710325824183,6.111071097641744,1.0165483951568604,-2.8484163920031946
1708437075.6526458,-2.1422181129455566,-1.3334723722985764,-2.5261710325824183,6.111122119217672,1.016556978225708,-2.8484163920031946
1708437075.654608,-2.1422317028045654,-1.333443285231926,-2.526147190724508,6.11102174499587,1.0165278911590576,-2.848362747822897
1708437075.6566205,-2.1422135829925537,-1.333544747238495,-2.526179615651266,6.1111113903816126,1.0165441036224365,-2.848407570515768
1708437075.6586127,-2.1422317028045654,-1.333446667795517,-2.526187245045797,6.111109959870138,1.0165396928787231,-2.848429028187887
1708437075.660624,-2.142245292663574,-1.3334594827941437,-2.526220146809713,6.111047374993124,1.016593098640442,-2.848358217869894
1708437075.6626315,-2.1422135829925537,-1.3334475618651886,-2.526175324116842,6.11108015754775,1.0166016817092896,-2.8483861128436487
1708437075.664623,-2.1422317028045654,-1.3334997457316895,-2.526187245045797,6.111087548523702,1.0165321826934814,-2.848429266606466
1708437075.666617,-2.142204761505127,-1.3335608702949067,-2.5261710325824183,6.111145722657003,1.016573190689087,-2.8483906427966517
1708437075.6686218,-2.1421773433685303,-1.3334832352450867,-2.526187245045797,6.111113178520956,1.0165441036224365,-2.8483789602862757
1708437075.6706202,-2.1422455310821533,-1.3334832352450867,-2.526175324116842,6.111092078476705,1.0165364742279053,-2.8483832518206995
1708437075.6726322,-2.1422228813171387,-1.3334181618741532,-2.5261829535113733,6.111099827080526,1.0165724754333496,-2.848362747822897
1708437075.674631,-2.142204761505127,-1.333455206160881,-2.526179615651266,6.111092078476705,1.0165973901748657,-2.8483994642840784
1708437075.6766443,-2.142195701599121,-1.3334508550218125,-2.5261829535113733,6.111096489220419,1.0165396928787231,-2.84836990038027
1708437075.678617,-2.1422135829925537,-1.3334799271873017,-2.526203457509176,6.111087548523702,1.016593098640442,-2.8483951727496546
1708437075.6806493,-2.1422135829925537,-1.3334997457316895,-2.526191536580221,6.1111042378242395,1.0165973901748657,-2.8483832518206995
1708437075.6826336,-2.1421866416931152,-1.3334670972875138,-2.5261710325824183,6.11108015754775,1.0165321826934814,-2.84836990038027
1708437075.68464,-2.1422340869903564,-1.3334508550218125,-2.526179615651266,6.111101019173422,1.0165354013442993,-2.8483744303332728
1708437075.686634,-2.142188787460327,-1.3334475618651886,-2.526175324116842,6.111091005593099,1.0165526866912842,-2.848412100468771
1708437075.6886725,-2.1422386169433594,-1.3334961545518418,-2.526224438344137,6.1111042378242395,1.0165234804153442,-2.8483744303332728
1708437075.6906745,-2.142259120941162,-1.3334508550218125,-2.526203457509176,6.111120331078329,1.0165603160858154,-2.848419968281881
1708437075.6926477,-2.1422295570373535,-1.333467037682869,-2.526196066533224,6.111178743630209,1.0165613889694214,-2.84836990038027
1708437075.694631,-2.1422476768493652,-1.3334304851344605,-2.5261667410479944,6.111091005593099,1.016576886177063,-2.848407570515768
1708437075.696631,-2.1421730518341064,-1.3334561747363587,-2.526191536580221,6.1111042378242395,1.0165483951568604,-2.8484156767474573
1708437075.6986375,-2.1422340869903564,-1.3334637445262452,-2.5261829535113733,6.111101019173422,1.0165321826934814,-2.8484156767474573
1708437075.7006476,-2.142184257507324,-1.3334390831044693,-2.5261052290545862,6.1111042378242395,1.0165603160858154,-2.8483994642840784
1708437075.7026358,-2.142199993133545,-1.3334261786988755,-2.5261839071856897,6.111129271775045,1.0165483951568604,-2.848419968281881
1708437075.7046213,-2.142200231552124,-1.3335404259017487,-2.526175324116842,6.1111042378242395,1.0165441036224365,-2.8484156767474573
1708437075.706629,-2.14220929145813,-1.3334628653577347,-2.5262003580676478,6.111157524376669,1.0165278911590576,-2.848440710698263
1708437075.7086487,-2.1421797275543213,-1.3334310364774247,-2.5262165705310267,6.111136662750997,1.0165364742279053,-2.848440710698263
1708437075.7106276,-2.142184257507324,-1.3334304851344605,-2.5261667410479944,6.111123430519857,1.016515851020813,-2.8484113852130335
1708437075.7126627,-2.1421797275543213,-1.3335003864816208,-2.5261340777026575,6.111106979637899,1.0165321826934814,-2.848445240651266
1708437075.7146387,-2.1422250270843506,-1.3334310364774247,-2.526219908391134,6.111095416336813,1.0165646076202393,-2.848429028187887
1708437075.7166321,-2.142195701599121,-1.3334790480187912,-2.526159111653463,6.111136662750997,1.0165116786956787,-2.8484156767474573
1708437075.7186248,-2.1421754360198975,-1.333455206160881,-2.526195828114645,6.111120331078329,1.0165321826934814,-2.848381821309225
1708437075.720632,-2.1421797275543213,-1.333447591667511,-2.526195828114645,6.111136662750997,1.0165396928787231,-2.848419968281881
1708437075.7226253,-2.1422295570373535,-1.3334799271873017,-2.526187245045797,6.111152994423666,1.0164991617202759,-2.848377529774801
1708437075.7246344,-2.1421751976013184,-1.3334552210620423,-2.5261710325824183,6.111165392189779,1.0165526866912842,-2.848424498234884
1708437075.7266245,-2.1422226428985596,-1.3334714037230988,-2.526220146809713,6.111078727036276,1.0165483951568604,-2.8484113852130335
1708437075.728628,-2.1422226428985596,-1.3335126352361222,-2.526187245045797,6.111127841263571,1.0165483951568604,-2.848473135625021
1708437075.730621,-2.142151355743408,-1.3334552210620423,-2.526163403187887,6.111083137779989,1.0165646076202393,-2.848440710698263
1708437075.732636,-2.1422135829925537,-1.3335199666074296,-2.5262120405780237,6.111127841263571,1.016556978225708,-2.8484438101397913
1708437075.7346685,-2.142254590988159,-1.3334790480187912,-2.5262120405780237,6.1111159203346155,1.0165321826934814,-2.848398749028341
1708437075.7366235,-2.142209053039551,-1.3334594678929825,-2.526151482258932,6.111193644791403,1.016556978225708,-2.8484633604632776
1708437075.738654,-2.14220929145813,-1.333488554959633,-2.526203457509176,6.111129271775045,1.0165245532989502,-2.8484318892108362
1708437075.7406466,-2.142204761505127,-1.3334509295276185,-2.526147190724508,6.11106966713027,1.0165159702301025,-2.8484318892108362
1708437075.7426414,-2.142254590988159,-1.3334267747453232,-2.5262046496020716,6.111153113632955,1.0165364742279053,-2.848398272191183
1708437075.7446449,-2.142275810241699,-1.333439664249756,-2.5261548201190394,6.111120331078329,1.016494870185852,-2.848419968281881
1708437075.7466197,-2.1422204971313477,-1.3335126352361222,-2.526147190724508,6.111136662750997,1.0165159702301025,-2.848419968281881
1708437075.7486296,-2.14220929145813,-1.333488554959633,-2.526187245045797,6.111106979637899,1.0165451765060425,-2.8484275976764124
1708437075.7506175,-2.142204761505127,-1.333467037682869,-2.5261383692370813,6.111095416336813,1.0165202617645264,-2.848448101674215
1708437075.7526128,-2.1422455310821533,-1.3334552359632035,-2.526195828114645,6.111118900566854,1.016507625579834,-2.8484438101397913
1708437075.7546215,-2.142204761505127,-1.3334875863841553,-2.526163403187887,6.111123430519857,1.0165290832519531,-2.848480526600973
1708437075.7566311,-2.142195701599121,-1.3334997457316895,-2.5262003580676478,6.111078727036276,1.016512155532837,-2.848403040562765
1708437075.758619,-2.1421549320220947,-1.3334961247495194,-2.5261548201190394,6.111152994423666,1.0164752006530762,-2.8484438101397913
1708437075.7606368,-2.1421730518341064,-1.3335199666074296,-2.526163403187887,6.111111509590902,1.0165207386016846,-2.8484395186053675
1708437075.762632,-2.1422340869903564,-1.333446667795517,-2.526179615651266,6.111098038941183,1.0165207386016846,-2.8484438101397913
1708437075.7646382,-2.1422410011291504,-1.3335003864816208,-2.526147190724508,6.111177313118734,1.0164753198623657,-2.8484318892108362
1708437075.766638,-2.1422364711761475,-1.333508388405182,-2.526179615651266,6.111135232239523,1.0165077447891235,-2.848424498234884
1708437075.7686486,-2.142249822616577,-1.333434746866562,-2.526191536580221,6.111102449684896,1.0164635181427002,-2.848476235066549
1708437075.7706404,-2.142204761505127,-1.333443285231926,-2.526179615651266,6.111135232239523,1.016495943069458,-2.8484557310687464
1708437075.7726548,-2.142249822616577,-1.3334961247495194,-2.526130978261129,6.111106979637899,1.016479730606079,-2.8484438101397913
1708437075.7746563,-2.1422715187072754,-1.333455206160881,-2.5261710325824183,6.111144172936239,1.0165250301361084,-2.8484070936786097
1708437075.7766335,-2.1422250270843506,-1.3335114282420655,-2.526219908391134,6.111160981446066,1.016497015953064,-2.848448101674215
1708437075.778622,-2.142259120941162,-1.3334842038205643,-2.5261719862567347,6.111144172936239,1.016484022140503,-2.8484395186053675
1708437075.7806602,-2.142209053039551,-1.3334714037230988,-2.5261266867267054,6.11115192154006,1.0164883136749268,-2.848448101674215
1708437075.7826333,-2.1422410011291504,-1.3334714037230988,-2.526167694722311,6.111144172936239,1.0164883136749268,-2.8484113852130335
1708437075.7846363,-2.1422181129455566,-1.3335169118693848,-2.5261266867267054,6.111189234047689,1.0164926052093506,-2.848496739064352
1708437075.7866402,-2.142200231552124,-1.3334842038205643,-2.526151482258932,6.111165392189779,1.016484022140503,-2.8484557310687464
1708437075.7886627,-2.1422791481018066,-1.33345519125972,-2.5261266867267054,6.111123430519857,1.0165250301361084,-2.848403040562765
1708437075.7907052,-2.1422410011291504,-1.3334832203439255,-2.5261428991900843,6.111156451493063,1.0164883136749268,-2.848488155995504
1708437075.7926774,-2.1422622203826904,-1.3335071516088028,-2.526195828114645,6.111098038941183,1.016497015953064,-2.8484318892108362
1708437075.7946544,-2.142195701599121,-1.333491863017418,-2.526163403187887,6.11121033409194,1.0164555311203003,-2.8484438101397913
1708437075.7966537,-2.142191171646118,-1.3334466230920334,-2.526151482258932,6.111156451493063,1.0164480209350586,-2.848468605672018
1708437075.7986474,-2.142191171646118,-1.3334875863841553,-2.526167694722311,6.11117576339797,1.0164480209350586,-2.8484438101397913
1708437075.8006408,-2.1422207355499268,-1.3334997457316895,-2.526195828114645,6.111163842469015,1.0164685249328613,-2.8485050837146204
1708437075.8026488,-2.1422364711761475,-1.3334961396506806,-2.5261710325824183,6.111168253212728,1.0164480209350586,-2.848398510609762
1708437075.8046489,-2.1422367095947266,-1.33347903311763,-2.526151482258932,6.111102449684896,1.0164721012115479,-2.84846002260317
1708437075.806632,-2.1422410011291504,-1.3335276258042832,-2.526147190724508,6.111189234047689,1.0164567232131958,-2.8484318892108362
1708437075.8086686,-2.14220929145813,-1.3334561747363587,-2.526159111653463,6.11119698265151,1.0164850950241089,-2.84846002260317
1708437075.8106375,-2.1422340869903564,-1.3334432703307648,-2.526175324116842,6.1111711142356775,1.0164480209350586,-2.848452393208639
1708437075.8126464,-2.142216205596924,-1.3334594678929825,-2.5261266867267054,6.111241328507223,1.0164480209350586,-2.8484557310687464
1708437075.8146384,-2.1422321796417236,-1.3334912222674866,-2.526135269795553,6.111216175347128,1.0164488554000854,-2.8484438101397913
1708437075.8166366,-2.1422836780548096,-1.3334585440209885,-2.526139561329977,6.11122344711379,1.0164480209350586,-2.8484395186053675
1708437075.8186533,-2.1422321796417236,-1.3334832203439255,-2.5261266867267054,6.111177551537313,1.0164152383804321,-2.8484557310687464
1708437075.8206263,-2.1422207355499268,-1.333508388405182,-2.5261839071856897,6.111272918968954,1.0164271593093872,-2.8484514395343226
1708437075.8226252,-2.1422181129455566,-1.3334961396506806,-2.526151482258932,6.1112356064613245,1.0164685249328613,-2.848476235066549
1708437075.8246336,-2.1422321796417236,-1.3335041117719193,-2.5261383692370813,6.111275779991903,1.0164480209350586,-2.848488155995504
1708437075.8266506,-2.1422622203826904,-1.3334875863841553,-2.526147190724508,6.1112791178520105,1.0164523124694824,-2.8484395186053675
1708437075.8286579,-2.142200231552124,-1.3334875863841553,-2.5262003580676478,6.111263859062948,1.016431450843811,-2.8484395186053675
1708437075.8306346,-2.1422533988952637,-1.3334756654552002,-2.526130978261129,6.111296999245443,1.0164598226547241,-2.848468605672018
1708437075.8326712,-2.142191171646118,-1.333508388405182,-2.5261383692370813,6.111270177155294,1.0164642333984375,-2.848448101674215
1708437075.8346424,-2.142216205596924,-1.3335041117719193,-2.5261881987201136,6.111259448319235,1.0163954496383667,-2.8484965006457728
1708437075.836625,-2.1422364711761475,-1.333491863017418,-2.5261839071856897,6.111255037575521,1.0164685249328613,-2.8484557310687464
1708437075.8386617,-2.1422667503356934,-1.3334918779185791,-2.526147190724508,6.111299860268392,1.0164488554000854,-2.8484395186053675
1708437075.8406446,-2.142249822616577,-1.333491863017418,-2.5261383692370813,6.111248957901754,1.016403079032898,-2.848448101674215
1708437075.8426504,-2.1422488689422607,-1.3335168969682236,-2.5261505285846155,6.111304509430685,1.0164523124694824,-2.8484514395343226
1708437075.8446352,-2.142261505126953,-1.3334714037230988,-2.526163403187887,6.111275779991903,1.016444444656372,-2.8484471479998987
1708437075.846638,-2.1422903537750244,-1.3334961247495194,-2.526159111653463,6.11131631115035,1.0164610147476196,-2.848488155995504
1708437075.8486285,-2.1422295570373535,-1.333455206160881,-2.526151482258932,6.111283647805013,1.0164326429367065,-2.8484438101397913
1708437075.850609,-2.142216205596924,-1.333495558505394,-2.526195828114645,6.111361014633932,1.0164642333984375,-2.8484719435321253
1708437075.8526673,-2.1422204971313477,-1.3334670823863526,-2.526147190724508,6.11131631115035,1.0164729356765747,-2.8484719435321253
1708437075.854643,-2.1422488689422607,-1.333443285231926,-2.5261264483081263,6.111274587899008,1.016419529914856,-2.8484471479998987
1708437075.8566184,-2.1422533988952637,-1.3334832203439255,-2.5261557737933558,6.111319291382589,1.0164369344711304,-2.8484633604632776
1708437075.8586297,-2.1423017978668213,-1.3335114282420655,-2.52613073984255,6.111288058548727,1.0164480209350586,-2.8484965006457728
1708437075.8606133,-2.1422791481018066,-1.333491326575615,-2.526187245045797,6.111325251847067,1.0164436101913452,-2.848442618046896
1708437075.862619,-2.1422791481018066,-1.3334997457316895,-2.526175324116842,6.111328232079305,1.0164326429367065,-2.8484676519977015
1708437075.864636,-2.1422975063323975,-1.333495558505394,-2.5261221567737024,6.111349093704977,1.0164436101913452,-2.8485050837146204
1708437075.8666558,-2.142240285873413,-1.333524228339531,-2.526130978261129,6.111265766411581,1.0164567232131958,-2.8484838644610804
1708437075.8686364,-2.1422278881073,-1.333491863017418,-2.5261557737933558,6.111302959709921,1.0164567232131958,-2.8484965006457728
1708437075.8706212,-2.142272710800171,-1.3334997457316895,-2.526139561329977,6.111331212311544,1.0164850950241089,-2.8484352270709437
1708437075.8726232,-2.142244577407837,-1.3334832203439255,-2.5262208620654505,6.111328232079305,1.016444444656372,-2.8485081831561487
1708437075.874621,-2.1422321796417236,-1.3335317832282563,-2.5261557737933558,6.111338722496786,1.0164271593093872,-2.8485007921801966
1708437075.8766308,-2.1422815322875977,-1.3335361939719697,-2.5261603037463587,6.111344682961263,1.016431450843811,-2.8484676519977015
1708437075.8786154,-2.1423144340515137,-1.333495558505394,-2.5262089411364954,6.111331212311544,1.0164239406585693,-2.8484750429736536
1708437075.8806305,-2.142240285873413,-1.3334628206542511,-2.5261881987201136,6.1113717434699915,1.0164488554000854,-2.8484965006457728
1708437075.8826194,-2.1422886848449707,-1.3334747415832062,-2.526130978261129,6.111347543984213,1.0164357423782349,-2.8484750429736536
1708437075.88464,-2.1422815322875977,-1.3335233491710206,-2.5261765162097376,6.111331212311544,1.0164685249328613,-2.8485363165484827
1708437075.886621,-2.1423144340515137,-1.33347903311763,-2.526130978261129,6.111326682358541,1.0164282321929932,-2.84849197069277
1708437075.8886373,-2.1423189640045166,-1.3335318279317399,-2.526159111653463,6.111289489060201,1.0164567232131958,-2.8484459559070032
1708437075.890701,-2.142261505126953,-1.3334832203439255,-2.5261428991900843,6.111397015839376,1.0164480209350586,-2.84851581255068
1708437075.8927307,-2.142272710800171,-1.3334670227817078,-2.526167694722311,6.111397015839376,1.0163986682891846,-2.8485081831561487
1708437075.894649,-2.142261505126953,-1.3335352700999756,-2.526118342076437,6.111352073937216,1.0164357423782349,-2.8485007921801966
1708437075.8966439,-2.142322540283203,-1.3335233491710206,-2.526184145604269,6.111331212311544,1.0164401531219482,-2.848499600087301
1708437075.8986204,-2.142338514328003,-1.3334475469640275,-2.526147190724508,6.111331212311544,1.0164357423782349,-2.848487679158346
1708437075.9006243,-2.142279624938965,-1.3335318279317399,-2.5261600653277796,6.111338722496786,1.016403079032898,-2.8485363165484827
1708437075.9026234,-2.1422886848449707,-1.333495558505394,-2.5261603037463587,6.111276018410482,1.0164567232131958,-2.848527733479635
1708437075.9046082,-2.142327070236206,-1.3335071069053193,-2.526135269795553,6.111334192543783,1.0164729356765747,-2.8485081831561487
1708437075.9066155,-2.14233136177063,-1.3335285496762772,-2.5261557737933558,6.111347543984213,1.016419529914856,-2.8485234419452112
1708437075.9086337,-2.142279624938965,-1.3334670227817078,-2.5261765162097376,6.1113672135169885,1.0164326429367065,-2.8484910170184534
1708437075.9106236,-2.1422922611236572,-1.3334670078805466,-2.5261428991900843,6.111429798394003,1.0164772272109985,-2.848466459904806
1708437075.9126189,-2.1422832012176514,-1.333508388405182,-2.5262003580676478,6.111399876862325,1.016444444656372,-2.848543945943014
1708437075.914629,-2.142263650894165,-1.3335233491710206,-2.526163403187887,6.1113717434699915,1.0164610147476196,-2.8484578768359583
1708437075.9166293,-2.1423180103302,-1.3334912669709702,-2.5261719862567347,6.111379134445944,1.0164401531219482,-2.848503891621725
1708437075.918624,-2.142327070236206,-1.3334875863841553,-2.5261839071856897,6.11137472370223,1.0164729356765747,-2.848555866871969
1708437075.9206173,-2.142329454421997,-1.3335028451732178,-2.5261927286731165,6.111379134445944,1.0164567232131958,-2.848588291798727
1708437075.9226224,-2.142338514328003,-1.3334832203439255,-2.526175324116842,6.111338722496786,1.0164480209350586,-2.8485384623156946
1708437075.9246325,-2.1423180103302,-1.3334997457316895,-2.526151482258932,6.111415135651388,1.0164729356765747,-2.848584000264303
1708437075.9266574,-2.142324924468994,-1.333515615468361,-2.526175324116842,6.111391055374899,1.0163986682891846,-2.848579708729879
1708437075.9286387,-2.1423089504241943,-1.3334875863841553,-2.526135269795553,6.111462938576498,1.0164555311203003,-2.8485592047320765
1708437075.9306295,-2.1422877311706543,-1.3335028749755402,-2.5261228720294397,6.111407387047567,1.016444444656372,-2.8485878149615687
1708437075.9326506,-2.142296552658081,-1.333483250146248,-2.5261719862567347,6.111420857697286,1.0164523124694824,-2.848579708729879
1708437075.934623,-2.1423497200012207,-1.3334585440209885,-2.526135269795553,6.111407387047567,1.0164685249328613,-2.8485997358905237
1708437075.9366376,-2.1423134803771973,-1.3334869605353852,-2.5261064211474817,6.111402976303854,1.016465425491333,-2.8485665957080286
1708437075.9386237,-2.1423656940460205,-1.3335318130305787,-2.526139561329977,6.111468541413107,1.0164357423782349,-2.8486128489123743
1708437075.9406214,-2.142324924468994,-1.3334997457316895,-2.5261839071856897,6.111433017044821,1.0164610147476196,-2.848657194768087
1708437075.9426398,-2.142357587814331,-1.3334912669709702,-2.5261839071856897,6.111428606301107,1.0164567232131958,-2.8485878149615687
1708437075.9446213,-2.142336368560791,-1.33355666816745,-2.5261271635638636,6.111415135651388,1.0164729356765747,-2.8485754171954554
1708437075.9466581,-2.142362117767334,-1.333508388405182,-2.526179615651266,6.11142252662734,1.0164357423782349,-2.848657194768087
1708437075.9486287,-2.14237904548645,-1.3334997457316895,-2.526159111653463,6.1114433882530115,1.0164610147476196,-2.8485878149615687
1708437075.950619,-2.142331838607788,-1.3335318279317399,-2.526151482258932,6.111418115883627,1.0164523124694824,-2.848583523427145
1708437075.9526718,-2.1423046588897705,-1.33347903311763,-2.5261428991900843,6.111488091736593,1.0164567232131958,-2.8486159483539026
1708437075.9546204,-2.1423442363739014,-1.3335276258042832,-2.5261839071856897,6.111401903420248,1.0164488554000854,-2.8485997358905237
1708437075.9566276,-2.1423532962799072,-1.3335155856660386,-2.5261428991900843,6.111467349320211,1.0163911581039429,-2.8485923449145716
1708437075.958638,-2.1423566341400146,-1.3335242730430146,-2.5261264483081263,6.111437189369955,1.0164436101913452,-2.8485966364489954
1708437075.9606435,-2.1423566341400146,-1.333495558505394,-2.526130978261129,6.111449467926779,1.0164326429367065,-2.8486247698413294
1708437075.9626436,-2.142336368560791,-1.333515615468361,-2.526139561329977,6.111486661225118,1.016374945640564,-2.8486645857440394
1708437075.9646294,-2.142324924468994,-1.3335041117719193,-2.5261228720294397,6.1114776013191126,1.0164859294891357,-2.8485546747790735
1708437075.9666471,-2.1423070430755615,-1.3334912669709702,-2.526139561329977,6.111465799599447,1.0164895057678223,-2.848579231892721
1708437075.9686177,-2.1423611640930176,-1.3334628206542511,-2.526097838078634,6.111449467926779,1.016431450843811,-2.8486364523517054
1708437075.9706278,-2.1423442363739014,-1.3335114133409043,-2.526147190724508,6.111527073174276,1.0164772272109985,-2.8486040274249476
1708437075.972615,-2.1423399448394775,-1.3334997308305283,-2.5261603037463587,6.111510741501608,1.0164488554000854,-2.848558012639181
1708437075.974618,-2.142336368560791,-1.3335041117719193,-2.5261438528644007,6.1114985821540735,1.0164488554000854,-2.8486040274249476
1708437075.9766278,-2.1423611640930176,-1.3335276258042832,-2.526139561329977,6.111527192383566,1.0164401531219482,-2.848562304173605
1708437075.9786067,-2.142397403717041,-1.3335233491710206,-2.526135269795553,6.111444818764486,1.0164436101913452,-2.848623577748434
1708437075.9806213,-2.1423726081848145,-1.333515615468361,-2.5261645952807825,6.111576306610861,1.0164401531219482,-2.8485868612872522
1708437075.9826243,-2.142352342605591,-1.3335040670684357,-2.5261228720294397,6.111506330757894,1.0164642333984375,-2.8486247698413294
1708437075.9846325,-2.1423885822296143,-1.333495558505394,-2.5261557737933558,6.1115256426628015,1.016431450843811,-2.8486321608172815
1708437075.9866076,-2.1423442363739014,-1.33347903311763,-2.5261438528644007,6.111548054009237,1.0164282321929932,-2.8486159483539026
1708437075.9886177,-2.1423275470733643,-1.3335041266730805,-2.526139561329977,6.111506330757894,1.016444444656372,-2.8485708872424524
1708437075.9907165,-2.1423656940460205,-1.3335233342698594,-2.5261557737933558,6.111592757492819,1.0164567232131958,-2.8485997358905237
1708437075.9926903,-2.1424269676208496,-1.3335559976151963,-2.5261884371386927,6.111574756890096,1.0164850950241089,-2.8485954443561
1708437075.9946332,-2.1424224376678467,-1.333547980790474,-2.526159111653463,6.111616837769308,1.0164488554000854,-2.848673407231466
1708437075.9966416,-2.142392873764038,-1.3335308742574234,-2.5261221567737024,6.111542451172628,1.016481637954712,-2.848579231892721
1708437075.9986322,-2.1423840522766113,-1.3335276258042832,-2.526163403187887,6.111533391266622,1.0164239406585693,-2.8485706488238733
1708437076.0006297,-2.1423590183258057,-1.3335233342698594,-2.5261228720294397,6.111574756890096,1.0164488554000854,-2.848591152821676
1708437076.0026407,-2.142343044281006,-1.3335233193686982,-2.5261109511004847,6.111603367119589,1.0164685249328613,-2.848558012639181
1708437076.0046182,-2.1423795223236084,-1.3335156303695221,-2.5261710325824183,6.111568796425619,1.0164282321929932,-2.8485868612872522
1708437076.0066507,-2.1424202919006348,-1.3335317981294175,-2.5261557737933558,6.111590015679159,1.0164357423782349,-2.8486202398883265
1708437076.0086584,-2.1423840522766113,-1.3335318279317399,-2.52614409128298,6.111598956375875,1.0164029598236084,-2.848611656819479
1708437076.0106285,-2.1423840522766113,-1.3335114282420655,-2.526135269795553,6.111619818001547,1.0164895057678223,-2.848583523427145
1708437076.0126362,-2.1423635482788086,-1.3334912669709702,-2.5261765162097376,6.111577737122335,1.0164567232131958,-2.8486526648150843
1708437076.0146363,-2.1424384117126465,-1.3334997457316895,-2.5261557737933558,6.111556875496664,1.0164073705673218,-2.84861928621401
1708437076.0166254,-2.142413377761841,-1.33347903311763,-2.526167694722311,6.111633169441976,1.0164653062820435,-2.848553721104757
1708437076.0186317,-2.142441749572754,-1.3335276407054444,-2.526135269795553,6.111599075585165,1.0164239406585693,-2.848603073750631
1708437076.020635,-2.1424291133880615,-1.3335199815085907,-2.526118342076437,6.111556756287374,1.0164401531219482,-2.848611656819479
1708437076.0226316,-2.1424179077148438,-1.3334832203439255,-2.526151482258932,6.111592876702108,1.0164401531219482,-2.848558012639181
1708437076.024638,-2.142437219619751,-1.3334997308305283,-2.5261557737933558,6.111577737122335,1.0164326429367065,-2.848639790211813
1708437076.026629,-2.1424508094787598,-1.3335233491710206,-2.526151482258932,6.111585485726156,1.016431450843811,-2.8486278692828577
1708437076.0286558,-2.1423840522766113,-1.3334997457316895,-2.52614409128298,6.111573207169332,1.0164480209350586,-2.848684851323263
1708437076.0306177,-2.142392873764038,-1.3335146766952057,-2.526139561329977,6.111622679024496,1.0164936780929565,-2.8486159483539026
1708437076.0326228,-2.142408847808838,-1.3334832054427643,-2.526114050542013,6.111601936608114,1.016419529914856,-2.848635498677389
1708437076.0346313,-2.1424450874328613,-1.3335318130305787,-2.526118342076437,6.111606347351827,1.0163955688476562,-2.8486364523517054
1708437076.0366137,-2.142437219619751,-1.3334997457316895,-2.5261483828174036,6.1116182682807825,1.016419529914856,-2.848635498677389
1708437076.0386229,-2.1424450874328613,-1.333508388405182,-2.5261271635638636,6.111639129906454,1.0164239406585693,-2.848623577748434
1708437076.0406399,-2.142493963241577,-1.3335523915341874,-2.5261719862567347,6.111627208977499,1.0164567232131958,-2.8486409823047083
1708437076.0426228,-2.1423909664154053,-1.3335169565728684,-2.5262134710894983,6.111655819206991,1.0164729356765747,-2.8485987822162073
1708437076.0446255,-2.142428159713745,-1.3334942174008866,-2.5261271635638636,6.1116301892097376,1.0164239406585693,-2.8485954443561
1708437076.0466123,-2.142406940460205,-1.3334660989097138,-2.5261603037463587,6.111606347351827,1.016444444656372,-2.848611656819479
1708437076.048629,-2.142428159713745,-1.3335028302720566,-2.526130978261129,6.111634599953451,1.0164239406585693,-2.848591152821676
1708437076.050633,-2.1424405574798584,-1.3334704649499436,-2.5261226336108606,6.1116301892097376,1.0164152383804321,-2.848603073750631
1708437076.0526295,-2.1424450874328613,-1.3335028749755402,-2.5261314550982874,6.111604797631063,1.0164239406585693,-2.8486149946795862
1708437076.0546234,-2.142428159713745,-1.3335028749755402,-2.5261271635638636,6.111639129906454,1.0164282321929932,-2.8485954443561
1708437076.0566144,-2.1424148082733154,-1.3335645508817215,-2.5261557737933558,6.1116301892097376,1.0164488554000854,-2.8485997358905237
1708437076.058626,-2.142456531524658,-1.3335233491710206,-2.5261226336108606,6.111642348557272,1.0164567232131958,-2.84861928621401
1708437076.0606363,-2.1424269676208496,-1.3335190874389191,-2.5262089411364954,6.111688124924459,1.0164523124694824,-2.8486807982074183
1708437076.0626142,-2.1424496173858643,-1.3335807633451005,-2.5261109511004847,6.111616837769308,1.016403079032898,-2.848631207142965
1708437076.0646758,-2.142461061477661,-1.3335352700999756,-2.526135269795553,6.111621129303732,1.0164326429367065,-2.8486278692828577
1708437076.066661,-2.1425018310546875,-1.3334876161864777,-2.5261109511004847,6.111663329392233,1.016419529914856,-2.84861928621401
1708437076.068645,-2.142472505569458,-1.3335560423186799,-2.5261152426349085,6.111637937813558,1.0164326429367065,-2.848623577748434
1708437076.0706522,-2.142472505569458,-1.3335276407054444,-2.5261109511004847,6.111625659256735,1.0164029598236084,-2.8486440817462366
1708437076.072661,-2.1424477100372314,-1.3335395020297547,-2.5261221567737024,6.1116793034370325,1.0164239406585693,-2.848607365285055
1708437076.0746233,-2.1425063610076904,-1.333515615468361,-2.526167694722311,6.111625659256735,1.0164152383804321,-2.8486321608172815
1708437076.0766177,-2.1424317359924316,-1.333539531832077,-2.52614409128298,6.111601936608114,1.016444444656372,-2.8485954443561
1708437076.0786207,-2.142489194869995,-1.3334899854711075,-2.5261064211474817,6.111691105156698,1.0164567232131958,-2.84861928621401
1708437076.080661,-2.142458915710449,-1.3335199815085907,-2.5261603037463587,6.111654269486227,1.0164523124694824,-2.848611656819479
1708437076.0826497,-2.1424849033355713,-1.333543823366501,-2.5261109511004847,6.111629116326132,1.0164685249328613,-2.8486278692828577
1708437076.0846412,-2.142463445663452,-1.333515615468361,-2.5261226336108606,6.111633527069845,1.0164895057678223,-2.8486278692828577
1708437076.0866337,-2.1424973011016846,-1.333491326575615,-2.5261064211474817,6.111715423851766,1.0164772272109985,-2.848645273839132
1708437076.0886257,-2.1424927711486816,-1.333527610903122,-2.5261271635638636,6.111633527069845,1.016419529914856,-2.8486159483539026
1708437076.0906808,-2.1424849033355713,-1.3334870052388688,-2.52614409128298,6.111694562226095,1.016431450843811,-2.84861928621401
1708437076.0926876,-2.142522096633911,-1.3334628206542511,-2.52614409128298,6.111661541252889,1.0164436101913452,-2.848603073750631
1708437076.09464,-2.1425132751464844,-1.3335190576365967,-2.5261226336108606,6.111699092179098,1.016444444656372,-2.848603073750631
1708437076.0966294,-2.1425256729125977,-1.3335276407054444,-2.5261109511004847,6.111673342972555,1.016414761543274,-2.8485954443561
1708437076.098679,-2.1424498558044434,-1.3334997457316895,-2.5261357466327112,6.111665951996603,1.0164772272109985,-2.848603073750631
1708437076.100653,-2.1424996852874756,-1.3335275960019608,-2.5261314550982874,6.111685502320089,1.0164356231689453,-2.848611656819479
1708437076.102643,-2.1424973011016846,-1.333495558505394,-2.5261645952807825,6.111633527069845,1.0164523124694824,-2.848574940358297
1708437076.1046333,-2.1425018310546875,-1.3334869754365464,-2.5261195341693323,6.111673342972555,1.0164523124694824,-2.8486278692828577
1708437076.1066654,-2.1425347328186035,-1.3334869754365464,-2.526090208684103,6.111694562226095,1.0164239406585693,-2.8486440817462366
1708437076.1086433,-2.142467975616455,-1.333514766102173,-2.5260828177081507,6.111663329392233,1.0164029598236084,-2.848603073750631
1708437076.1106286,-2.1425132751464844,-1.3334832352450867,-2.5261314550982874,6.111656892090597,1.0164401531219482,-2.848579231892721
1708437076.112646,-2.1425087451934814,-1.3335317981294175,-2.5260914007769983,6.111688244133749,1.0164401531219482,-2.8486159483539026
1708437076.1146264,-2.1425347328186035,-1.333515615468361,-2.526123825703756,6.1116301892097376,1.016444444656372,-2.848639790211813
1708437076.116635,-2.1424803733825684,-1.3335199815085907,-2.5260778109179896,6.111752855568685,1.0164326429367065,-2.848639790211813
1708437076.11862,-2.1424882411956787,-1.333547444348671,-2.5260871092425745,6.111624586373129,1.0164659023284912,-2.848591152821676
1708437076.1206536,-2.1424996852874756,-1.3335276258042832,-2.5260794798480433,6.1116957543189905,1.0163832902908325,-2.848651711140768
1708437076.1226287,-2.1424927711486816,-1.333531768327095,-2.526092592869894,6.11171971538619,1.0163997411727905,-2.8486149946795862
1708437076.1246545,-2.142467975616455,-1.333519072537758,-2.5260008017169397,6.111703383713522,1.016411542892456,-2.8485878149615687
1708437076.1266253,-2.1424756050109863,-1.3334997308305283,-2.5260587374316614,6.111640918045797,1.0164116621017456,-2.8486483732806605
1708437076.1286378,-2.1425392627716064,-1.333515615468361,-2.5260313192950647,6.111668813019552,1.0164412260055542,-2.84861928621401
1708437076.1306126,-2.142472505569458,-1.333504096870758,-2.526043478642599,6.111715423851766,1.0163836479187012,-2.8485997358905237
1708437076.1326191,-2.142483949661255,-1.3335147064975281,-2.5260282198535364,6.111682283669271,1.0164610147476196,-2.848631207142965
1708437076.1346135,-2.142467975616455,-1.3335233640721817,-2.526027027760641,6.111649858742513,1.0164191722869873,-2.848639790211813
1708437076.1366196,-2.1425254344940186,-1.3335071516088028,-2.5260356108294886,6.111677872925558,1.0163952112197876,-2.848607365285055
1708437076.1386175,-2.1425254344940186,-1.3335437935641785,-2.526015106831686,6.111676561623373,1.0164239406585693,-2.8486278692828577
1708437076.140625,-2.1424803733825684,-1.333531842832901,-2.526027027760641,6.1116454479988,1.016416072845459,-2.8486483732806605
1708437076.1426349,-2.1425347328186035,-1.333519072537758,-2.526027027760641,6.111703383713522,1.016395092010498,-2.8486278692828577
1708437076.1446445,-2.1425132751464844,-1.3335190576365967,-2.526043478642599,6.111649858742513,1.0164369344711304,-2.848611656819479
1708437076.1466093,-2.142483949661255,-1.3335438084653397,-2.5260193983661097,6.111682283669271,1.016432762145996,-2.848583523427145
1708437076.148629,-2.1425302028656006,-1.3335147213986893,-2.526015106831686,6.111636388092794,1.0164371728897095,-2.848607365285055
1708437076.1506166,-2.142516613006592,-1.3335191023400803,-2.526015106831686,6.111637937813558,1.0164326429367065,-2.8486040274249476
1708437076.1526103,-2.1424973011016846,-1.333576501612999,-2.5260193983661097,6.111629116326132,1.0164401531219482,-2.848639790211813
1708437076.1546156,-2.1425559520721436,-1.333556057219841,-2.5260282198535364,6.111649858742513,1.016404151916504,-2.8485868612872522
1708437076.1566172,-2.142516613006592,-1.3334997755340119,-2.5260477701770228,6.1117228148277185,1.0164490938186646,-2.848591152821676
1708437076.1586206,-2.1425347328186035,-1.3335191321424027,-2.5260356108294886,6.1116524813468835,1.016416072845459,-2.8485954443561
1708437076.1606395,-2.1424927711486816,-1.3335233491710206,-2.5260356108294886,6.111694562226095,1.0164371728897095,-2.848591152821676
1708437076.1626382,-2.1425132751464844,-1.3335352551988144,-2.5260520617114466,6.111665951996603,1.0164203643798828,-2.8486040274249476
1708437076.164662,-2.1424713134765625,-1.3335560274175187,-2.5260477701770228,6.111682283669271,1.016416072845459,-2.848562304173605
1708437076.1666362,-2.1425211429595947,-1.333527610903122,-2.525998655949728,6.111665951996603,1.01639986038208,-2.848591152821676
1708437076.1686313,-2.1425132751464844,-1.3334790480187912,-2.526039187108175,6.111649858742513,1.016416072845459,-2.848657194768087
1708437076.170624,-2.142512083053589,-1.3335146766952057,-2.526010815297262,6.111636388092794,1.0163997411727905,-2.8485923449145716
1708437076.1726487,-2.1424882411956787,-1.333556057219841,-2.5260193983661097,6.111703383713522,1.0164116621017456,-2.8485503832446497
1708437076.174631,-2.1424803733825684,-1.3334790480187912,-2.5260401407824915,6.111579644470968,1.0163967609405518,-2.8486085573779505
1708437076.1766193,-2.1425087451934814,-1.3335352700999756,-2.526010815297262,6.111661541252889,1.0163832902908325,-2.8485878149615687
1708437076.178643,-2.1424927711486816,-1.333556057219841,-2.5260401407824915,6.1116747734840295,1.0164204835891724,-2.8486278692828577
1708437076.1806383,-2.1424803733825684,-1.3335603040507813,-2.5260608831988733,6.111654269486227,1.0164026021957397,-2.8486085573779505
1708437076.1826687,-2.1424973011016846,-1.3335603189519425,-2.5260356108294886,6.111703383713522,1.0163906812667847,-2.848583523427145
1708437076.1846852,-2.1424882411956787,-1.333527610903122,-2.526027027760641,6.111609208374777,1.0163787603378296,-2.848562304173605
1708437076.1866229,-2.1424667835235596,-1.3335479658893128,-2.5260313192950647,6.111665951996603,1.0164203643798828,-2.848558012639181
1708437076.1886437,-2.1425132751464844,-1.3334985387376328,-2.5260565916644495,6.111625659256735,1.0163906812667847,-2.848562304173605
1708437076.1906605,-2.1424927711486816,-1.3335438084653397,-2.5260029474841517,6.111682283669271,1.0164371728897095,-2.8486085573779505
1708437076.1926725,-2.1424477100372314,-1.3335317981294175,-2.5260019938098353,6.111656892090597,1.0164371728897095,-2.8485310713397425
1708437076.194633,-2.1425018310546875,-1.3335104596665879,-2.5260356108294886,6.111694562226095,1.0163787603378296,-2.848562304173605
1708437076.1966417,-2.1424849033355713,-1.3334985387376328,-2.5260968844043177,6.111665951996603,1.0163506269454956,-2.8485754171954554
1708437076.1986403,-2.142537832260132,-1.333547980790474,-2.526055399571554,6.111677872925558,1.016404151916504,-2.848574940358297
1708437076.2006598,-2.1424973011016846,-1.3334870350411911,-2.5260639826404017,6.111665951996603,1.0163954496383667,-2.8485546747790735
1708437076.2026567,-2.1425583362579346,-1.3334912967732926,-2.5260477701770228,6.111637937813558,1.0164085626602173,-2.8485503832446497
1708437076.2046242,-2.142472505569458,-1.3335437935641785,-2.5260348955737513,6.111682283669271,1.016416072845459,-2.8486040274249476
1708437076.206643,-2.1424386501312256,-1.333539531832077,-2.526092592869894,6.111663329392233,1.016404151916504,-2.8485966364489954
1708437076.2086256,-2.1425302028656006,-1.333556057219841,-2.5260923544513147,6.111592876702108,1.016404151916504,-2.8485878149615687
1708437076.2106388,-2.142489194869995,-1.3335437935641785,-2.5260477701770228,6.111637937813558,1.0163832902908325,-2.8485954443561
1708437076.2126777,-2.1424973011016846,-1.333530918960907,-2.52599007288088,6.111672270088949,1.0164369344711304,-2.8485665957080286
1708437076.2146335,-2.1424882411956787,-1.3335233491710206,-2.526050869618551,6.111654269486227,1.0164085626602173,-2.8485503832446497
1708437076.2166567,-2.1424927711486816,-1.333556057219841,-2.5260565916644495,6.111592757492819,1.0164490938186646,-2.848584000264303
1708437076.218613,-2.142463445663452,-1.333507166509964,-2.5260639826404017,6.111667740135946,1.0164026021957397,-2.8485384623156946
1708437076.2206209,-2.1425132751464844,-1.333527610903122,-2.526043478642599,6.111592876702108,1.0163743495941162,-2.8485708872424524
1708437076.2226226,-2.1424520015716553,-1.3335352700999756,-2.5260477701770228,6.111642348557272,1.0164204835891724,-2.8485148588763636
1708437076.2246237,-2.1425063610076904,-1.333539531832077,-2.5260608831988733,6.111633527069845,1.0163792371749878,-2.8485878149615687
1708437076.226625,-2.142467975616455,-1.333507166509964,-2.5259812513934534,6.111621129303732,1.0163911581039429,-2.8485592047320765
1708437076.2286232,-2.1424477100372314,-1.333527610903122,-2.526027027760641,6.111692654877462,1.0163878202438354,-2.848584000264303
1708437076.2306263,-2.142463445663452,-1.333527610903122,-2.5260356108294886,6.1116301892097376,1.0164417028427124,-2.8485592047320765
1708437076.2326643,-2.1424803733825684,-1.333556057219841,-2.5261088053332728,6.111610758095541,1.0164371728897095,-2.8485429922686976
1708437076.2346292,-2.1424803733825684,-1.333556057219841,-2.526043478642599,6.1116301892097376,1.0164536237716675,-2.8485546747790735
1708437076.2366302,-2.142458915710449,-1.333527610903122,-2.526043478642599,6.111667859345236,1.0164282321929932,-2.8485267798053187
1708437076.2386224,-2.1424758434295654,-1.3335395616343995,-2.526027027760641,6.11157642582015,1.0164130926132202,-2.8485925833331507
1708437076.2406456,-2.1425178050994873,-1.3335233342698594,-2.526015106831686,6.111598956375875,1.016432762145996,-2.8485029379474085
1708437076.2426605,-2.142476797103882,-1.333495558505394,-2.526027027760641,6.1116182682807825,1.0164295434951782,-2.848572079335348
1708437076.2446268,-2.142463445663452,-1.3335233491710206,-2.5260356108294886,6.111610758095541,1.0164657831192017,-2.848572079335348
1708437076.2466464,-2.1424973011016846,-1.3335028898767014,-2.526027027760641,6.11156593540267,1.0164238214492798,-2.8485191504107874
1708437076.2486293,-2.142463445663452,-1.3335561019233246,-2.526076141987936,6.111570346146383,1.0163997411727905,-2.848579708729879
1708437076.2506218,-2.1424927711486816,-1.3335190874389191,-2.5260477701770228,6.111544954567709,1.0164250135421753,-2.8485243956195276
1708437076.2526717,-2.1424849033355713,-1.3334870350411911,-2.526059691105978,6.111500370293417,1.0163997411727905,-2.848532025014059
1708437076.2546365,-2.1424803733825684,-1.3334870350411911,-2.5260477701770228,6.111485111504354,1.0163952112197876,-2.8485127131091517
1708437076.2566304,-2.142467975616455,-1.333527610903122,-2.526071850453512,6.111510741501608,1.0164490938186646,-2.8484557310687464
1708437076.2586122,-2.1424450874328613,-1.3334832352450867,-2.526043478642599,6.111555802613058,1.0164238214492798,-2.8484795729266565
1708437076.2606246,-2.1424477100372314,-1.3334912967732926,-2.526027027760641,6.111527073174276,1.0164204835891724,-2.8484514395343226
1708437076.262652,-2.142472505569458,-1.333495558505394,-2.526055399571554,6.111502992897787,1.016387701034546,-2.8484514395343226
1708437076.264628,-2.142397880554199,-1.3334826690009614,-2.526059691105978,6.111465799599447,1.016404151916504,-2.8484557310687464
1708437076.266642,-2.142472505569458,-1.3334912967732926,-2.526043478642599,6.111412155419149,1.0163787603378296,-2.8484275976764124
1708437076.2686489,-2.142456531524658,-1.3334912967732926,-2.526059691105978,6.111516582756796,1.0163878202438354,-2.8484719435321253
1708437076.2706234,-2.142461061477661,-1.3335028749755402,-2.526055399571554,6.1115208742912195,1.016404151916504,-2.848452393208639
1708437076.2727344,-2.142526626586914,-1.3334985387376328,-2.526076141987936,6.111434566765585,1.0163710117340088,-2.8484438101397913
1708437076.274639,-2.1425108909606934,-1.333507166509964,-2.52605110803713,6.111474740296163,1.0163832902908325,-2.8484233061419886
1708437076.2766392,-2.1424362659454346,-1.3335275960019608,-2.526055399571554,6.111406194954672,1.0164371728897095,-2.8484233061419886
1708437076.2786214,-2.1424973011016846,-1.3335190874389191,-2.526092592869894,6.111440646439352,1.0163710117340088,-2.848480526600973
1708437076.2806265,-2.142498254776001,-1.3335147213986893,-2.5260639826404017,6.111431467324056,1.0163952112197876,-2.848456923161642
1708437076.282652,-2.142493724822998,-1.333530918960907,-2.5260313192950647,6.111452448159017,1.0164250135421753,-2.8484275976764124
1708437076.2846453,-2.1424362659454346,-1.333527610903122,-2.5260639826404017,6.111462819367208,1.0163997411727905,-2.848448101674215
1708437076.2866466,-2.142465591430664,-1.3334875863841553,-2.526039187108175,6.1113775847251794,1.0164371728897095,-2.84843618074526
1708437076.2886252,-2.142432689666748,-1.3335317981294175,-2.52605110803713,6.111415135651388,1.0163544416427612,-2.848461453114645
1708437076.2906327,-2.142489433288574,-1.3335603189519425,-2.526067558919088,6.111433017044821,1.0163711309432983,-2.8483901659594935
1708437076.2926779,-2.142437219619751,-1.3335147213986893,-2.526095692311422,6.111374604492941,1.016411542892456,-2.8484190146075647
1708437076.2946224,-2.142415761947632,-1.3335437786630173,-2.52605110803713,6.111386525421896,1.016432762145996,-2.848403040562765
1708437076.2966378,-2.1424496173858643,-1.333495558505394,-2.526071850453512,6.111362802773275,1.0163666009902954,-2.848398749028341
1708437076.2986228,-2.142437219619751,-1.333543823366501,-2.52605110803713,6.111301290779867,1.0163997411727905,-2.848412100468771
1708437076.3006148,-2.1424202919006348,-1.3334876012853165,-2.526018206273214,6.111347663193502,1.0163967609405518,-2.848407570515768
1708437076.3026524,-2.142465353012085,-1.333536149268486,-2.526043478642599,6.111293899803915,1.0163878202438354,-2.848403040562765
1708437076.3046255,-2.142432689666748,-1.3335352700999756,-2.526076380406515,6.111331212311544,1.0163832902908325,-2.8484156767474573
1708437076.3066516,-2.142432689666748,-1.3335603487542649,-2.526043478642599,6.111317741661825,1.016404151916504,-2.848330322896139
1708437076.3086388,-2.1423752307891846,-1.3335276258042832,-2.526043478642599,6.111331212311544,1.0164132118225098,-2.848448101674215
1708437076.3106215,-2.1424238681793213,-1.3334912669709702,-2.526059691105978,6.111322271614828,1.0163878202438354,-2.848403040562765
1708437076.3126807,-2.1424291133880615,-1.3335199815085907,-2.526043478642599,6.1113672135169885,1.0164340734481812,-2.8483994642840784
1708437076.3146307,-2.142437219619751,-1.3334704649499436,-2.5260348955737513,6.111314761429586,1.0163967609405518,-2.8483951727496546
1708437076.3166697,-2.142413377761841,-1.333527610903122,-2.526039187108175,6.111286508827963,1.016351580619812,-2.8483906427966517
1708437076.3186204,-2.142474412918091,-1.333527610903122,-2.5260348955737513,6.111331212311544,1.0164130926132202,-2.8483670393573206
1708437076.320625,-2.142432689666748,-1.3335156452706833,-2.5260685125934046,6.111299860268392,1.0163425207138062,-2.848398749028341
1708437076.322639,-2.1423840522766113,-1.3334869903377076,-2.526043478642599,6.111309039383688,1.0163878202438354,-2.848408047352926
1708437076.3246248,-2.1424460411071777,-1.3334912669709702,-2.5260260740863245,6.111320841103353,1.0163967609405518,-2.8483670393573206
1708437076.326629,-2.142408847808838,-1.3335275960019608,-2.5260632673846644,6.111319291382589,1.0163588523864746,-2.848334614430563
1708437076.3286684,-2.1424405574798584,-1.3335517954877396,-2.526055399571554,6.111250388413229,1.0163633823394775,-2.848330322896139
1708437076.330728,-2.142400026321411,-1.3335071367076416,-2.5260639826404017,6.111270057946005,1.0163633823394775,-2.8483756224261683
1708437076.3326533,-2.1423659324645996,-1.3335071516088028,-2.5260303656207483,6.111259448319235,1.0163021087646484,-2.8483226935016077
1708437076.3346195,-2.142428159713745,-1.3335603487542649,-2.526039187108175,6.11123405674056,1.0163229703903198,-2.8483713308917444
1708437076.3366156,-2.142437219619751,-1.333507166509964,-2.526039187108175,6.111265647202291,1.0163846015930176,-2.8483756224261683
1708437076.338623,-2.1423885822296143,-1.3335071516088028,-2.5260632673846644,6.111238586693563,1.016339659690857,-2.8484206835376185
1708437076.3406184,-2.142408847808838,-1.3335308593562623,-2.526095692311422,6.111283528595724,1.0163723230361938,-2.8483756224261683
1708437076.3426385,-2.142408847808838,-1.3335437786630173,-2.52605110803713,6.111250388413229,1.0163723230361938,-2.8483551184283655
1708437076.3446312,-2.1424291133880615,-1.3335114282420655,-2.526010815297262,6.111250388413229,1.0163229703903198,-2.8483193556415003
1708437076.3466198,-2.1424291133880615,-1.3335275811007996,-2.5260632673846644,6.111226665764608,1.0163559913635254,-2.848391834889547
1708437076.3486276,-2.1424248218536377,-1.3335438084653397,-2.5260468165027063,6.111222255020895,1.0163649320602417,-2.848363701497213
1708437076.3506198,-2.1424179077148438,-1.3335233342698594,-2.5260849634753626,6.111217725067892,1.016385793685913,-2.8483474890338343
1708437076.3526592,-2.142397403717041,-1.3334660840085526,-2.526043478642599,6.111218917160787,1.016318440437317,-2.8483951727496546
1708437076.354644,-2.1424202919006348,-1.3335028302720566,-2.5260894934283655,6.111231195717611,1.0163486003875732,-2.8484037558185022
1708437076.356647,-2.1423795223236084,-1.3334870350411911,-2.526083771382467,6.111284839897909,1.0163273811340332,-2.848367993031637
1708437076.3586242,-2.1423840522766113,-1.3335114282420655,-2.5260260740863245,6.111227857857504,1.0163694620132446,-2.8483713308917444
1708437076.360641,-2.142432689666748,-1.333515615468361,-2.526018206273214,6.1112356064613245,1.0163110494613647,-2.848351780568258
1708437076.362672,-2.1424202919006348,-1.3334997755340119,-2.526027027760641,6.111178982048788,1.0163171291351318,-2.8483756224261683
1708437076.364632,-2.142406463623047,-1.3335233640721817,-2.526076380406515,6.111244547158041,1.0162945985794067,-2.8483431974994105
1708437076.3666518,-2.1424179077148438,-1.3335308742574234,-2.526026789342062,6.111256587296285,1.0162991285324097,-2.848351780568258
1708437076.368634,-2.142413377761841,-1.3334705543569108,-2.5260313192950647,6.111158001213827,1.0162991285324097,-2.848346535359518
1708437076.3706124,-2.1423885822296143,-1.3335071814111252,-2.5260313192950647,6.111209976464071,1.0163319110870361,-2.8483431974994105
1708437076.3726766,-2.1423635482788086,-1.3335071963122864,-2.5261088053332728,6.111199843674459,1.0163486003875732,-2.8483312765704554
1708437076.3746486,-2.142406463623047,-1.3335438084653397,-2.526088062916891,6.111273038178243,1.0163408517837524,-2.848363701497213
1708437076.3766437,-2.1424338817596436,-1.3335361939719697,-2.526022736226217,6.111253487854757,1.016319990158081,-2.8483594099627894
1708437076.378628,-2.1424248218536377,-1.3335233342698594,-2.526043478642599,6.111187922745504,1.0163036584854126,-2.848367993031637
1708437076.3806314,-2.142406463623047,-1.333556057219841,-2.526067558919088,6.111174690514364,1.016308069229126,-2.848367993031637
1708437076.3826606,-2.1423749923706055,-1.333510385160782,-2.526059691105978,6.111253487854757,1.0163244009017944,-2.848379913960592
1708437076.3846343,-2.142401933670044,-1.3335156303695221,-2.526059691105978,6.111157882004537,1.0162913799285889,-2.8483431974994105
1708437076.3866332,-2.1424338817596436,-1.3335071367076416,-2.525998655949728,6.111208903580465,1.0162538290023804,-2.8483226935016077
1708437076.388638,-2.142397403717041,-1.333515615468361,-2.5260639826404017,6.111187922745504,1.0162419080734253,-2.848318401967184
1708437076.3906302,-2.1423680782318115,-1.3335233342698594,-2.526076141987936,6.111204373627462,1.016312599182129,-2.8483594099627894
1708437076.3927042,-2.14241099357605,-1.3335156601718445,-2.5260632673846644,6.111129510193624,1.016255497932434,-2.8483594099627894
1708437076.3946807,-2.1423771381378174,-1.333515615468361,-2.5260468165027063,6.111168253212728,1.0162509679794312,-2.84831411043276
1708437076.3966773,-2.1423680782318115,-1.3335317981294175,-2.526043478642599,6.111135232239523,1.016288161277771,-2.8483713308917444
1708437076.3986506,-2.1423590183258057,-1.3334997457316895,-2.5260806719409388,6.111144292145529,1.016243577003479,-2.848400417958395
1708437076.400619,-2.1423726081848145,-1.3335403364947815,-2.526022736226217,6.111144172936239,1.0162718296051025,-2.8483431974994105
1708437076.402605,-2.142392873764038,-1.3334466975978394,-2.526043478642599,6.111127841263571,1.0163004398345947,-2.848363701497213
1708437076.4046206,-2.1423263549804688,-1.3335679930499573,-2.526092592869894,6.111074197083273,1.0162674188613892,-2.848372284566061
1708437076.4066248,-2.142401933670044,-1.333539531832077,-2.526027027760641,6.111118781357565,1.016276240348816,-2.848351780568258
1708437076.4086242,-2.142397403717041,-1.3335233640721817,-2.526039187108175,6.111136662750997,1.0162674188613892,-2.8483875433551233
1708437076.4106514,-2.1423680782318115,-1.3334790629199524,-2.526055399571554,6.111123430519857,1.0162792205810547,-2.848379913960592
1708437076.4126256,-2.142352342605591,-1.3335317981294175,-2.5260348955737513,6.1111042378242395,1.016288161277771,-2.8483594099627894
1708437076.4146435,-2.1423399448394775,-1.3334875863841553,-2.526055399571554,6.111120331078329,1.0163171291351318,-2.848367993031637
1708437076.4166343,-2.1423885822296143,-1.333536149268486,-2.526092592869894,6.111099827080526,1.0162718296051025,-2.8482988516436976
1708437076.4186392,-2.142397403717041,-1.333515615468361,-2.5260685125934046,6.111066806107321,1.0162718296051025,-2.848372284566061
1708437076.4206598,-2.1423635482788086,-1.3335114133409043,-2.526043478642599,6.1111042378242395,1.016288161277771,-2.848351780568258
1708437076.4226418,-2.1423840522766113,-1.333515615468361,-2.526055399571554,6.111057865410604,1.0162674188613892,-2.848318401967184
1708437076.4246197,-2.142392873764038,-1.3335190874389191,-2.526059691105978,6.111120331078329,1.0162807703018188,-2.8483269850360315
1708437076.4266331,-2.1423399448394775,-1.3335114282420655,-2.526055399571554,6.111074197083273,1.0162479877471924,-2.8483312765704554
1708437076.4286406,-2.1423656940460205,-1.333507166509964,-2.526043478642599,6.111099827080526,1.0162643194198608,-2.8483312765704554
1708437076.4306245,-2.1423354148864746,-1.3335446876338501,-2.5260639826404017,6.111136662750997,1.016276240348816,-2.848379913960592
1708437076.4326541,-2.1423726081848145,-1.333507166509964,-2.526027027760641,6.1111159203346155,1.0162509679794312,-2.8483927885638636
1708437076.434636,-2.1423611640930176,-1.3335233491710206,-2.5260313192950647,6.111068236618795,1.0162599086761475,-2.8483269850360315
1708437076.4366648,-2.1423680782318115,-1.333467037682869,-2.526076141987936,6.111141192704,1.0162179470062256,-2.8483389059649866
1708437076.4386225,-2.1423771381378174,-1.3335317981294175,-2.526076141987936,6.111092078476705,1.0162807703018188,-2.84829026857485
1708437076.4406555,-2.1423275470733643,-1.3334832352450867,-2.5260520617114466,6.111099827080526,1.0162479877471924,-2.8483756224261683
1708437076.4426575,-2.1423726081848145,-1.333467037682869,-2.526022736226217,6.111099827080526,1.0162599086761475,-2.848367993031637
1708437076.4446306,-2.142392873764038,-1.333524228339531,-2.5260477701770228,6.111120331078329,1.016276240348816,-2.848379913960592
1708437076.446622,-2.142320394515991,-1.3334912967732926,-2.5260685125934046,6.1111159203346155,1.0162479877471924,-2.8483551184283655
1708437076.4486225,-2.1423442363739014,-1.3334912967732926,-2.526043478642599,6.111124861031332,1.016239047050476,-2.848351780568258
1708437076.4506583,-2.1423487663269043,-1.3335114431432267,-2.526022736226217,6.111157643585958,1.016255497932434,-2.848367993031637
1708437076.4526274,-2.1423771381378174,-1.3335517954877396,-2.526043478642599,6.111074197083273,1.0162853002548218,-2.8482988516436976
1708437076.454634,-2.142401933670044,-1.3334790480187912,-2.5260477701770228,6.111063825875082,1.016239047050476,-2.8483150641070765
1708437076.4566495,-2.1423399448394775,-1.333504096870758,-2.52605110803713,6.111034023552694,1.0162599086761475,-2.848335568104879
1708437076.4586272,-2.142331838607788,-1.3334875863841553,-2.5260639826404017,6.111117708473959,1.016239047050476,-2.848351780568258
1708437076.4606578,-2.142397403717041,-1.3335317981294175,-2.5260313192950647,6.1110384342964075,1.0162807703018188,-2.8483312765704554
1708437076.4626398,-2.1423532962799072,-1.3335533154061814,-2.5260477701770228,6.111083137779989,1.0162643194198608,-2.8483226935016077
1708437076.4646306,-2.1423442363739014,-1.333467037682869,-2.526055399571554,6.11108015754775,1.0162718296051025,-2.848335568104879
1708437076.4666104,-2.1423699855804443,-1.3334870350411911,-2.526043478642599,6.1111501334007166,1.0162267684936523,-2.8483551184283655
1708437076.4686205,-2.1423487663269043,-1.3335317981294175,-2.5260356108294886,6.111129271775045,1.0162525177001953,-2.8483474890338343
1708437076.4706235,-2.1423442363739014,-1.3334985387376328,-2.526043478642599,6.1111159203346155,1.016255497932434,-2.848363701497213
1708437076.4726245,-2.142331838607788,-1.333539531832077,-2.526043478642599,6.11115454414443,1.016276240348816,-2.848351780568258
1708437076.4746215,-2.14237904548645,-1.333527610903122,-2.526039187108175,6.111071097641744,1.0162267684936523,-2.848356072102682
1708437076.4766247,-2.1423699855804443,-1.3335028898767014,-2.5260806719409388,6.111092078476705,1.0162479877471924,-2.8483312765704554
1708437076.478617,-2.142320394515991,-1.333507166509964,-2.5260923544513147,6.111108767777242,1.0162689685821533,-2.848290030156271
1708437076.480621,-2.1423532962799072,-1.333547980790474,-2.5260685125934046,6.111120331078329,1.0162643194198608,-2.8483150641070765
1708437076.482622,-2.1423134803771973,-1.3334918481162568,-2.526043478642599,6.111096489220419,1.0162479877471924,-2.848367993031637
1708437076.4846137,-2.1423161029815674,-1.3335266423276444,-2.5260849634753626,6.111113297730245,1.0162643194198608,-2.8483226935016077
1708437076.4866426,-2.1423442363739014,-1.3335156005671998,-2.5260520617114466,6.111096489220419,1.016239047050476,-2.8483193556415003
1708437076.4886308,-2.142357587814331,-1.3335317981294175,-2.526039187108175,6.111092078476705,1.0162643194198608,-2.848351780568258
1708437076.4906187,-2.1423001289367676,-1.333564506178238,-2.5260401407824915,6.111117708473959,1.016243577003479,-2.848363701497213
1708437076.4927213,-2.1423161029815674,-1.3335114282420655,-2.5260303656207483,6.111071097641744,1.016243577003479,-2.8483431974994105
1708437076.494661,-2.1423487663269043,-1.3335190874389191,-2.526043478642599,6.111083137779989,1.016255497932434,-2.8483269850360315
1708437076.4966316,-2.1423745155334473,-1.3334790480187912,-2.5260589758502405,6.111113297730245,1.016255497932434,-2.848334614430563
1708437076.4986274,-2.1423497200012207,-1.3334714037230988,-2.526076141987936,6.11108015754775,1.0162643194198608,-2.848356072102682
1708437076.5006466,-2.1422786712646484,-1.333515615468361,-2.526067558919088,6.111063825875082,1.016292691230774,-2.8482819239245813
1708437076.5026174,-2.1423699855804443,-1.3335233491710206,-2.526027027760641,6.111101019173422,1.0162509679794312,-2.8483269850360315
1708437076.5046284,-2.142301082611084,-1.3335199666074296,-2.526067558919088,6.111084568291464,1.0162853002548218,-2.848351780568258
1708437076.5066237,-2.1423451900482178,-1.3334543269923707,-2.526076141987936,6.111071097641744,1.0162807703018188,-2.8483150641070765
1708437076.508639,-2.1422312259674072,-1.3334997457316895,-2.5260477701770228,6.111101019173422,1.0162479877471924,-2.8483474890338343
1708437076.5106282,-2.142296552658081,-1.3334628653577347,-2.5260914007769983,6.11108015754775,1.0162599086761475,-2.8483193556415003
1708437076.5126195,-2.1422932147979736,-1.333426223402359,-2.5260639826404017,6.1110890982444666,1.016276240348816,-2.8483551184283655
1708437076.5146477,-2.142296552658081,-1.333515615468361,-2.526055399571554,6.111092078476705,1.016243577003479,-2.8483431974994105
1708437076.5166302,-2.1422922611236572,-1.3334875863841553,-2.5260477701770228,6.111026274948873,1.0162643194198608,-2.8483269850360315
1708437076.5186288,-2.142329454421997,-1.333536149268486,-2.526039187108175,6.111084568291464,1.016239047050476,-2.8483389059649866
1708437076.5206525,-2.142322540283203,-1.3334985387376328,-2.5260589758502405,6.111060845642843,1.0162479877471924,-2.848351780568258
1708437076.5226266,-2.1422841548919678,-1.3334747862866898,-2.526015106831686,6.111105429917135,1.0162509679794312,-2.8483193556415003
1708437076.5246403,-2.142327070236206,-1.333504096870758,-2.5260468165027063,6.111113297730245,1.016239047050476,-2.8483431974994105
1708437076.5266328,-2.14231014251709,-1.333524228339531,-2.526055399571554,6.111026155739584,1.0162674188613892,-2.848379913960592
1708437076.5286436,-2.14225697517395,-1.3334747862866898,-2.5260356108294886,6.11103521564559,1.0162599086761475,-2.8482819239245813
1708437076.5306246,-2.142343044281006,-1.333495558505394,-2.526092592869894,6.1110384342964075,1.0162479877471924,-2.848344151173727
1708437076.5326383,-2.14233136177063,-1.3334508550218125,-2.5260639826404017,6.110995042115011,1.0162510871887207,-2.848335568104879
1708437076.5346453,-2.142338514328003,-1.333515615468361,-2.526034657155172,6.111063825875082,1.0162688493728638,-2.848379913960592
1708437076.5366447,-2.142279624938965,-1.333507166509964,-2.526055399571554,6.111048567086019,1.016304850578308,-2.8483594099627894
1708437076.5386522,-2.1423180103302,-1.3334705096534272,-2.526076141987936,6.111081707268514,1.016276240348816,-2.8483474890338343
1708437076.5406346,-2.1422975063323975,-1.33352846026931,-2.5259977022754114,6.110953318863668,1.0163229703903198,-2.8483594099627894
1708437076.5426412,-2.142230987548828,-1.333467037682869,-2.526067558919088,6.111053097039022,1.016239047050476,-2.848334614430563
1708437076.5446393,-2.142275094985962,-1.333458588724472,-2.526034657155172,6.111014354019918,1.0162792205810547,-2.848318401967184
1708437076.5466216,-2.14227032661438,-1.333495558505394,-2.526055399571554,6.111018764763632,1.016292691230774,-2.848363701497213
1708437076.548663,-2.142272710800171,-1.3334875863841553,-2.526055399571554,6.110985982209005,1.0163049697875977,-2.8483508268939417
1708437076.5506396,-2.142272710800171,-1.3334918481162568,-2.5260794798480433,6.111053097039022,1.016288161277771,-2.848332468663351
1708437076.552634,-2.1422932147979736,-1.333547980790474,-2.526071850453512,6.111023175507345,1.0162807703018188,-2.8483312765704554
1708437076.5546489,-2.14231014251709,-1.333458588724472,-2.5260806719409388,6.1110726473625085,1.016292691230774,-2.848290506993429
1708437076.5566375,-2.142265796661377,-1.3335199666074296,-2.5260923544513147,6.111039626389303,1.016288161277771,-2.8483594099627894
1708437076.5586321,-2.1422488689422607,-1.3334670227817078,-2.526043478642599,6.111044156342306,1.0162509679794312,-2.848356072102682
1708437076.5606358,-2.1422839164733887,-1.3335233491710206,-2.526071850453512,6.111003982811727,1.0162718296051025,-2.848363701497213
1708437076.5626364,-2.14227032661438,-1.333446667795517,-2.5260806719409388,6.11112807968215,1.0163260698318481,-2.8483269850360315
1708437076.5646503,-2.142277240753174,-1.3334832352450867,-2.5260468165027063,6.111015903740682,1.016309380531311,-2.8483312765704554
1708437076.5666409,-2.1422278881073,-1.3334832352450867,-2.526039187108175,6.110990512162008,1.0162628889083862,-2.848351780568258
1708437076.5686488,-2.1422975063323975,-1.333504096870758,-2.526071850453512,6.111018883972921,1.0162913799285889,-2.848335568104879
1708437076.5706363,-2.1422975063323975,-1.3335126352361222,-2.526083771382467,6.111032235413351,1.0162959098815918,-2.848318401967184
1708437076.5726616,-2.142308473587036,-1.3335199666074296,-2.526039187108175,6.11103521564559,1.0162792205810547,-2.848363701497213
1708437076.5746312,-2.1422579288482666,-1.333491863017418,-2.526059691105978,6.111024725228109,1.016319990158081,-2.8483551184283655
1708437076.5766342,-2.1422579288482666,-1.3334912967732926,-2.526043478642599,6.111057507782736,1.0162991285324097,-2.848351780568258
1708437076.5786378,-2.1422815322875977,-1.333515615468361,-2.5260348955737513,6.110999452858724,1.016312599182129,-2.848335568104879
1708437076.5806837,-2.1422321796417236,-1.333532766704895,-2.526088062916891,6.11098729351119,1.016361951828003,-2.8483312765704554
1708437076.5826595,-2.1422488689422607,-1.333515615468361,-2.526043478642599,6.110995042115011,1.016303539276123,-2.848372284566061
1708437076.5846405,-2.1422410011291504,-1.3335317981294175,-2.526071850453512,6.111012923508444,1.0163334608078003,-2.848335568104879
1708437076.586622,-2.1422321796417236,-1.3335285049727936,-2.526088062916891,6.111049997597494,1.0163363218307495,-2.848323647175924
1708437076.5886414,-2.1422746181488037,-1.3334543269923707,-2.526026789342062,6.110963809281149,1.0163486003875732,-2.848262373601095
1708437076.590622,-2.1422278881073,-1.3334628653577347,-2.526043478642599,6.111024844437399,1.0163604021072388,-2.848332468663351
1708437076.5927145,-2.1422791481018066,-1.3334756654552002,-2.5260348955737513,6.111048567086019,1.0163440704345703,-2.8482754866229456
1708437076.5946908,-2.1422278881073,-1.3334832352450867,-2.526039187108175,6.11100064495162,1.0163229703903198,-2.848300282155172
1708437076.5966842,-2.1422340869903564,-1.3334918481162568,-2.526104513798849,6.1110620377357385,1.0163694620132446,-2.84819466272463
1708437076.5986774,-2.14220929145813,-1.3334997457316895,-2.5260587374316614,6.110947358399191,1.016335129737854,-2.848210875188009
1708437076.6006384,-2.142200231552124,-1.333524228339531,-2.526039187108175,6.110991704254904,1.0163979530334473,-2.8481839338885706
1708437076.602659,-2.142244577407837,-1.333515615468361,-2.5260422865497034,6.110968220024862,1.016405701637268,-2.8481720129596155
1708437076.6046503,-2.1422295570373535,-1.3334875863841553,-2.526055399571554,6.1109845516975305,1.016387701034546,-2.8481064478503626
1708437076.6066206,-2.1422579288482666,-1.3334997457316895,-2.5260468165027063,6.110977041512289,1.0164085626602173,-2.848074499760763
1708437076.6086333,-2.1422295570373535,-1.3335028898767014,-2.526050869618551,6.110935079842367,1.0163711309432983,-2.848046366368429
1708437076.610646,-2.142249822616577,-1.333507166509964,-2.526104513798849,6.1109951613243005,1.0163922309875488,-2.8480101267444056
1708437076.612648,-2.1421751976013184,-1.333434672360756,-2.526100222264425,6.110924708634176,1.0164130926132202,-2.848039452229635
1708437076.614752,-2.1422295570373535,-1.333504096870758,-2.526142422352926,6.110891568451681,1.016404151916504,-2.847955052052633
1708437076.6166513,-2.142195701599121,-1.3335126352361222,-2.5260658899890345,6.110877024918356,1.016404151916504,-2.8479636351214808
1708437076.618646,-2.1422431468963623,-1.333524228339531,-2.5260868708239954,6.110787141114034,1.0164490938186646,-2.8478949705706995
1708437076.620696,-2.1421797275543213,-1.3334918481162568,-2.5260914007769983,6.110845434456625,1.016416072845459,-2.847846571599142
1708437076.6226807,-2.1422226428985596,-1.3335114282420655,-2.5261243025409144,6.110841023712911,1.016416072845459,-2.8478272596942347
1708437076.624663,-2.1422431468963623,-1.3335489493659516,-2.5261197725879114,6.110800611763754,1.0164523124694824,-2.847774330769674
1708437076.626665,-2.1422181129455566,-1.333536149268486,-2.5260942617999476,6.110838162689962,1.0164192914962769,-2.847745720540182
1708437076.6286569,-2.14220929145813,-1.3335114282420655,-2.526135031376974,6.11085735538558,1.0164523124694824,-2.847693983708517
1708437076.6306705,-2.1421751976013184,-1.3334912967732926,-2.526156012211935,6.110858905106344,1.0164310932159424,-2.8476415316211146
1708437076.63266,-2.1422431468963623,-1.3335126352361222,-2.5261428991900843,6.110788571625509,1.0164552927017212,-2.8475993315326136
1708437076.634674,-2.142181873321533,-1.333504096870758,-2.5262156168567103,6.110845434456625,1.0164973735809326,-2.8475261370288294
1708437076.6366549,-2.1421561241149902,-1.3334713888219376,-2.5261698404895228,6.110807883530416,1.0164809226989746,-2.8474703470813196
1708437076.638625,-2.1422181129455566,-1.3334637445262452,-2.5261991659747522,6.110833632736959,1.0164597034454346,-2.8473990599261683
1708437076.640629,-2.142204761505127,-1.3335041117719193,-2.5262113253222864,6.110751497536459,1.016485333442688,-2.847359005604879
1708437076.642641,-2.142188787460327,-1.3334714037230988,-2.5261903444873255,6.11080943325118,1.0164763927459717,-2.847290102635519
1708437076.6446247,-2.142188787460327,-1.333458588724472,-2.5262320677386683,6.110800611763754,1.0164597034454346,-2.847161833439962
1708437076.6466727,-2.1421773433685303,-1.3335126352361222,-2.5261991659747522,6.110854494362631,1.0164674520492554,-2.847095314656393
1708437076.6486309,-2.1422317028045654,-1.3334714037230988,-2.526219193135397,6.110838162689962,1.0164927244186401,-2.846999470387594
1708437076.6506276,-2.14219331741333,-1.333495558505394,-2.5262766520129603,6.110784160881796,1.0165165662765503,-2.8468712011920374
1708437076.6526372,-2.1421515941619873,-1.3334381443313141,-2.5261741320239466,6.110816943436422,1.0165210962295532,-2.8468034903155726
1708437076.6546202,-2.14220929145813,-1.3334433150342484,-2.526187245045797,6.110825884133138,1.0165201425552368,-2.8466208616839808
1708437076.6566458,-2.14219331741333,-1.3334585440209885,-2.5262234846698206,6.110829102783956,1.0165245532989502,-2.8465262095080774
1708437076.6586428,-2.142160654067993,-1.3334790480187912,-2.5262604395495813,6.110812413483419,1.0165692567825317,-2.8464258352862757
1708437076.660637,-2.142199754714966,-1.333504096870758,-2.5262280146228235,6.110788690834799,1.016543984413147,-2.8462582270251673
1708437076.6626506,-2.142127752304077,-1.333508388405182,-2.5262325445758265,6.110800492554464,1.016581416130066,-2.8460784594165247
1708437076.6646304,-2.14213228225708,-1.3335533899119874,-2.5262354055987757,6.110818373947897,1.0165468454360962,-2.845917526875631
1708437076.6666749,-2.14213228225708,-1.3334918481162568,-2.5262280146228235,6.110742437630453,1.016629695892334,-2.845750395451681
1708437076.6686482,-2.1421658992767334,-1.3335028898767014,-2.5261903444873255,6.110769259720602,1.0166341066360474,-2.8456149736987513
1708437076.670635,-2.1421828269958496,-1.3334594678929825,-2.526219193135397,6.110838043480673,1.0166488885879517,-2.8454352060901087
1708437076.6726367,-2.142134189605713,-1.3334714037230988,-2.5262396971331995,6.110788690834799,1.0166206359863281,-2.845254961644308
1708437076.6746113,-2.1421046257019043,-1.3334628206542511,-2.5262325445758265,6.110769259720602,1.0166281461715698,-2.8450220266925257
1708437076.6766417,-2.1421456336975098,-1.3334670227817078,-2.5262399355517786,6.110781180649557,1.0166116952896118,-2.8448429743396204
1708437076.6786387,-2.14212965965271,-1.3335361641696473,-2.5262158552752894,6.110802042275228,1.0166116952896118,-2.8446016947375696
1708437076.6806674,-2.1420719623565674,-1.3334997457316895,-2.5262354055987757,6.11076174953536,1.0166206359863281,-2.844325367604391
1708437076.6826427,-2.1420958042144775,-1.3335041117719193,-2.5262473265277308,6.110794532089987,1.0166534185409546,-2.8441291491137903
1708437076.684644,-2.1420934200286865,-1.333455206160881,-2.5263007322894495,6.110764729767599,1.0166579484939575,-2.8438900152789515
1708437076.6866343,-2.1421048641204834,-1.333536149268486,-2.526221815739767,6.110719787865438,1.0166746377944946,-2.843691889439718
1708437076.6886227,-2.1420934200286865,-1.3335083437016984,-2.52622634569277,6.110775339394369,1.0166852474212646,-2.843403164540426
1708437076.6906166,-2.1420719623565674,-1.3334799271873017,-2.526280466710226,6.1107544777686975,1.0166685581207275,-2.843092981969015
1708437076.692663,-2.1421308517456055,-1.3335082840970536,-2.526283327733175,6.11070333698348,1.0166926383972168,-2.8428621927844446
1708437076.6947107,-2.1420934200286865,-1.3335404259017487,-2.526266876851217,6.110787260323324,1.0166926383972168,-2.842557493840353
1708437076.6966653,-2.1420888900756836,-1.333409698014595,-2.526304070149557,6.1107287285621545,1.016709327697754,-2.842262331639425
1708437076.6986165,-2.1420979499816895,-1.3334747415832062,-2.52625018755068,6.11067961433486,1.0166881084442139,-2.841893021260397
1708437076.7006364,-2.1420528888702393,-1.3334747415832062,-2.526300017033712,6.110711085587301,1.0167195796966553,-2.84157377878298
1708437076.7026193,-2.142085552215576,-1.3335114282420655,-2.52625018755068,6.110718476563253,1.0167359113693237,-2.841267172490255
1708437076.7046077,-2.142024517059326,-1.3335126650384446,-2.526300017033712,6.110664355545797,1.0167195796966553,-2.8408952395068567
1708437076.7066162,-2.142073154449463,-1.3335317981294175,-2.5262704531299036,6.1106231091316126,1.0167620182037354,-2.84047776857485
1708437076.7086244,-2.1420199871063232,-1.3335003864816208,-2.526300017033712,6.110685336380758,1.0168020725250244,-2.8401671091662806
1708437076.7106197,-2.142011880874634,-1.3335041117719193,-2.5263519922839563,6.110624301224508,1.0168066024780273,-2.839698139821188
1708437076.7126322,-2.142050266265869,-1.333504096870758,-2.5263031164752405,6.11060785034255,1.016785740852356,-2.839400116597311
1708437076.7146504,-2.142033338546753,-1.3334875714829941,-2.5263312498675745,6.110637652664938,1.0168172121047974,-2.8389397303210657
1708437076.716639,-2.142042398452759,-1.3334713888219376,-2.5263522307025355,6.110592949181356,1.0168037414550781,-2.838555637990133
1708437076.7186224,-2.1420094966888428,-1.333504096870758,-2.5263283888446253,6.110618221550741,1.016812801361084,-2.838067595158712
1708437076.7206538,-2.142042398452759,-1.3334670227817078,-2.5263357798205774,6.110664474755087,1.0168534517288208,-2.837656084691183
1708437076.722644,-2.1420061588287354,-1.3334594827941437,-2.5263477007495325,6.110564338951864,1.0168907642364502,-2.83720833459963
1708437076.7246375,-2.1420016288757324,-1.3334790480187912,-2.5263689200030726,6.110589730530538,1.016832709312439,-2.8367329279529017
1708437076.7266479,-2.1420185565948486,-1.3334756654552002,-2.5263341108905237,6.110567080765524,1.0168653726577759,-2.8362281958209437
1708437076.7286358,-2.1419689655303955,-1.3334423464587708,-2.526400391255514,6.11052571514205,1.0168654918670654,-2.835759703313009
1708437076.730605,-2.141982316970825,-1.3334799420884629,-2.526379410420553,6.110476243286886,1.0168941020965576,-2.8353174368487757
1708437076.7326338,-2.142002582550049,-1.3334790182164689,-2.526350800191061,6.11046730259017,1.0169017314910889,-2.8348122278796595
1708437076.7346098,-2.141925573348999,-1.3334181618741532,-2.526383940373556,6.1104479906852625,1.016893982887268,-2.8343334833728235
1708437076.7366378,-2.141995906829834,-1.3334756654552002,-2.526407543812887,6.1104327318962,1.0169047117233276,-2.833768431340353
1708437076.738618,-2.1419177055358887,-1.3334670227817078,-2.5263658205615442,6.1104211685951135,1.0169332027435303,-2.8332884947406214
1708437076.7406223,-2.1419007778167725,-1.3334670674851914,-2.526400391255514,6.110446202545919,1.0169585943222046,-2.8326593081103724
1708437076.7426672,-2.1419131755828857,-1.3335361939719697,-2.526391331349508,6.110380637436666,1.0169782638549805,-2.8321810404406946
1708437076.7446265,-2.1419222354888916,-1.3334337782910843,-2.5263822714435022,6.1103776572044275,1.0169658660888672,-2.8316360155688685
1708437076.7466543,-2.141930103302002,-1.3334714037230988,-2.5264151732074183,6.110374676972189,1.0169737339019775,-2.8311107794391077
1708437076.748616,-2.141864538192749,-1.3335041117719193,-2.5264650026904505,6.110344517021932,1.0169512033462524,-2.8305278460132044
1708437076.750643,-2.1418867111206055,-1.3334714037230988,-2.5264559427844446,6.110313045769491,1.0170308351516724,-2.8298824469195765
1708437076.752644,-2.1418497562408447,-1.3334961247495194,-2.5264857451068323,6.110375988274374,1.0170292854309082,-2.8292482534991663
1708437076.7546237,-2.1418585777282715,-1.333455206160881,-2.5264650026904505,6.110265362053671,1.0170577764511108,-2.8285961786853235
1708437076.7566464,-2.141791820526123,-1.3334961247495194,-2.5264812151538294,6.110302912979879,1.0170414447784424,-2.827956740056173
1708437076.7586272,-2.141831159591675,-1.333504096870758,-2.5264468828784388,6.110200989037313,1.0171102285385132,-2.8273049036609095
1708437076.7606385,-2.141852617263794,-1.3335083735040207,-2.5265052954303187,6.110207426338949,1.0170893669128418,-2.8266623655902308
1708437076.7626264,-2.1418099403381348,-1.3335285049727936,-2.526475254689352,6.110236871033468,1.017092227935791,-2.8259907404529017
1708437076.7646384,-2.141798496246338,-1.3334747862866898,-2.526496235524313,6.11012481430129,1.0171136856079102,-2.8252902666675013
1708437076.7666292,-2.1417622566223145,-1.333434672360756,-2.526479784642355,6.110142695694723,1.017133116722107,-2.8246117273913782
1708437076.7686408,-2.1417534351348877,-1.3335114282420655,-2.526520315800802,6.110093581467428,1.0171825885772705,-2.8238616625415247
1708437076.7706506,-2.1417667865753174,-1.3334756654552002,-2.526511255894796,6.1100549576576135,1.0171616077423096,-2.8231027762042444
1708437076.7726398,-2.1417713165283203,-1.3334842187217255,-2.526511255894796,6.110046970635214,1.0172065496444702,-2.8224127928363245
1708437076.7746317,-2.1417429447174072,-1.3334637892297287,-2.5265443960772913,6.11006377914504,1.0172260999679565,-2.8216610590564173
1708437076.776676,-2.1417348384857178,-1.3334594678929825,-2.5265591780291956,6.110039698868551,1.0172053575515747,-2.820857111607687
1708437076.778645,-2.141711950302124,-1.3334756654552002,-2.5265427271472376,6.109994637757101,1.0172053575515747,-2.8199790159808558
1708437076.780675,-2.141690731048584,-1.3334875863841553,-2.5265637079821985,6.110024916916647,1.0172789096832275,-2.819225613270895
1708437076.7826247,-2.141584634780884,-1.3334424060634156,-2.5265710989581507,6.109951603203573,1.017278790473938,-2.818413321171896
1708437076.784637,-2.141650915145874,-1.333491863017418,-2.526587788258688,6.10992323139266,1.0172772407531738,-2.8175953070269983
1708437076.786626,-2.1416022777557373,-1.3335083735040207,-2.526670042668478,6.10991536357955,1.017317771911621,-2.8166564146624964
1708437076.788643,-2.1415696144104004,-1.3334466230920334,-2.5266311804400843,6.109835135727682,1.017346739768982,-2.815834347401754
1708437076.7906315,-2.14153790473938,-1.3334680062583466,-2.526656691228048,6.109873878746786,1.017358422279358,-2.8149495760547083
1708437076.7926748,-2.1415140628814697,-1.3334918779185791,-2.5266431013690394,6.109800565033712,1.0173912048339844,-2.8140466848956507
1708437076.7947373,-2.141515016555786,-1.333508388405182,-2.5266717115985315,6.109751331597128,1.0173945426940918,-2.8131516615497034
1708437076.7966635,-2.141516923904419,-1.3334680211595078,-2.5266838709460657,6.109773862152853,1.0174472332000732,-2.81223971048464
1708437076.798632,-2.141467332839966,-1.3335169565728684,-2.526712242756979,6.1096465466316126,1.017417311668396,-2.8112664858447474
1708437076.8006382,-2.1414411067962646,-1.33345519125972,-2.526707712803976,6.109643685608663,1.017433762550354,-2.810355250035421
1708437076.8026428,-2.1413912773132324,-1.3334842187217255,-2.52674371400942,6.109604942589559,1.0174998044967651,-2.80936843553652
1708437076.8046515,-2.1413559913635254,-1.33345182359729,-2.526706043873922,6.109582412033834,1.0175236463546753,-2.808371369038717
1708437076.80663,-2.141357183456421,-1.3334832352450867,-2.5267558733569544,6.109525668412008,1.017498254776001,-2.8073564211474817
1708437076.8086603,-2.141303777694702,-1.3334680211595078,-2.5267301241504114,6.109491216927328,1.0175386667251587,-2.806295696889059
1708437076.8106332,-2.1412808895111084,-1.3334799420884629,-2.5268080870257776,6.109396922379293,1.017529845237732,-2.8052991072284144
1708437076.8126373,-2.141251802444458,-1.3334875863841553,-2.526832405720846,6.109341728478231,1.0175325870513916,-2.8042505423175257
1708437076.8146346,-2.1412041187286377,-1.3334756654552002,-2.526789967213766,6.109240042954244,1.017615556716919,-2.8032525221454065
1708437076.8166444,-2.1411969661712646,-1.3334680211595078,-2.526802364979879,6.109163868218221,1.017589807510376,-2.802190605794088
1708437076.8186338,-2.141115665435791,-1.33345082521949,-2.5268591086017054,6.109178769379415,1.017675518989563,-2.8011837641345423
1708437076.8206348,-2.1410927772521973,-1.3334961396506806,-2.5268755594836634,6.109086143761434,1.017687439918518,-2.800108257924215
1708437076.8226216,-2.1410725116729736,-1.3334594678929825,-2.5269373098956507,6.108981358795919,1.0177327394485474,-2.799076859151022
1708437076.8246255,-2.1410157680511475,-1.3334637445262452,-2.526956621800558,6.108888613968649,1.017723798751831,-2.7980108896838587
1708437076.8266244,-2.140885591506958,-1.33345519125972,-2.526931111012594,6.108804929047384,1.017729640007019,-2.7968719641314905
1708437076.8286269,-2.140920400619507,-1.3334637445262452,-2.5269928614245813,6.108746993332662,1.0178078413009644,-2.7957950274096888
1708437076.8306646,-2.1408185958862305,-1.3335004311851044,-2.5269792715655726,6.108670460968771,1.0177944898605347,-2.794699494038717
1708437076.8326666,-2.1408116817474365,-1.33355666816745,-2.5269911924945276,6.108618366509237,1.0178349018096924,-2.793612305318014
1708437076.834675,-2.140768527984619,-1.3334466230920334,-2.527090136204855,6.108531343727865,1.0178635120391846,-2.7925244013415735
1708437076.8366287,-2.140716314315796,-1.3334713739207764,-2.527085844670431,6.108459579735555,1.0178875923156738,-2.791450087224142
1708437076.8386464,-2.1406311988830566,-1.333524228339531,-2.5270960966693323,6.108380424767294,1.0179232358932495,-2.790344540272848
1708437076.840656,-2.1405961513519287,-1.333508388405182,-2.5271034876452845,6.108292567520895,1.0179475545883179,-2.7891884485827845
1708437076.8426175,-2.140582323074341,-1.3334714037230988,-2.527160708104269,6.10816382148818,1.017971396446228,-2.7880287806140345
1708437076.8446276,-2.140500783920288,-1.3334875863841553,-2.527175490056173,6.108059274941244,1.0180362462997437,-2.7869136969195765
1708437076.84662,-2.140416145324707,-1.3334961396506806,-2.5271619001971644,6.108020055084982,1.018076777458191,-2.7856441179858606
1708437076.848651,-2.1402947902679443,-1.3335083735040207,-2.5271785894977015,6.107798921852865,1.018105387687683,-2.784459654484884
1708437076.8506074,-2.14025616645813,-1.3335114282420655,-2.527193609868185,6.107761609345236,1.0181294679641724,-2.783257786427633
1708437076.852623,-2.140226364135742,-1.3334628653577347,-2.5272565523730677,6.107629883080282,1.0181233882904053,-2.782107178364889
1708437076.854614,-2.1401164531707764,-1.3334875863841553,-2.5272730032550257,6.107547867089071,1.0181922912597656,-2.7808976809131067
1708437076.8566136,-2.1400363445281982,-1.3335285496762772,-2.5272672812091272,6.1074432013328455,1.0182075500488281,-2.7797043959247034
1708437076.858615,-2.139958620071411,-1.3335242730430146,-2.5273285547839563,6.107316124230184,1.0182437896728516,-2.778465811406271
1708437076.8606358,-2.1398727893829346,-1.3334713888219376,-2.5273314158069056,6.107236969261923,1.0183457136154175,-2.7772746721850794
1708437076.8626142,-2.1398022174835205,-1.3334912818721314,-2.527376715336935,6.107014405518331,1.0183652639389038,-2.775921408330099
1708437076.864629,-2.1396775245666504,-1.3334670227817078,-2.5274036566363733,6.106878387718954,1.0184060335159302,-2.774663750325338
1708437076.8666277,-2.13965106010437,-1.333508388405182,-2.5274110476123255,6.106730329781332,1.0184494256973267,-2.773264233266012
1708437076.8686552,-2.1394994258880615,-1.333515615468361,-2.5274515787707728,6.106609093933859,1.0184571743011475,-2.7719815413104456
1708437076.8706453,-2.139418840408325,-1.3335028749755402,-2.527500931416647,6.106506097107687,1.0184931755065918,-2.7707603613482874
1708437076.872634,-2.1392860412597656,-1.333495558505394,-2.527491871510641,6.106304394989767,1.0185322761535645,-2.7694523970233362
1708437076.874663,-2.139202117919922,-1.3334790480187912,-2.5275219122516077,6.1061251042182825,1.0185188055038452,-2.768247667943136
1708437076.8766148,-2.1391124725341797,-1.3335233491710206,-2.5275548140155237,6.105981576233663,1.0186209678649902,-2.766989294682638
1708437076.878617,-2.139005422592163,-1.333543823366501,-2.527545754109518,6.105912554055013,1.0186736583709717,-2.7656760851489466
1708437076.8806415,-2.1388649940490723,-1.3335041117719193,-2.5275939146624964,6.105609285622396,1.0186928510665894,-2.7644222418414515
1708437076.8826323,-2.1387245655059814,-1.3335114431432267,-2.5276389757739466,6.105473148613729,1.018754482269287,-2.7631126085864466
1708437076.8846352,-2.138563394546509,-1.3335276258042832,-2.527707878743307,6.105280029564657,1.0188359022140503,-2.7618327776538294
1708437076.8866193,-2.1384928226470947,-1.3335766059211274,-2.5277395884143274,6.105044114380636,1.0188448429107666,-2.760519329701559
1708437076.888622,-2.138291597366333,-1.3335437935641785,-2.5277724901782435,6.104866134911337,1.0188974142074585,-2.7592085043536585
1708437076.8906283,-2.138152837753296,-1.3335061979344864,-2.5277753512011927,6.10467957237319,1.0189542770385742,-2.7578960100757044
1708437076.8926396,-2.1379876136779785,-1.3335679930499573,-2.527828041707174,6.104434478073873,1.0190116167068481,-2.75653583208193
1708437076.8947177,-2.1378774642944336,-1.333526612525322,-2.5278518835650843,6.1042237160499475,1.0190671682357788,-2.755223576222555
1708437076.8967,-2.137742042541504,-1.3334856641343613,-2.52789551416506,6.104008424073019,1.0190658569335938,-2.7538631598102015
1708437076.89867,-2.137495756149292,-1.3335635376027604,-2.527907435094015,6.103778111725607,1.0191680192947388,-2.7524846235858362
1708437076.9006398,-2.137397527694702,-1.3335464757731934,-2.5280049482928675,6.103559481888571,1.019202709197998,-2.7510300318347376
1708437076.9026203,-2.1371686458587646,-1.3335583818009873,-2.528015438710348,6.103304016381063,1.0192461013793945,-2.74964148203005
1708437076.9046397,-2.1370389461517334,-1.3336039793542405,-2.528048578892843,6.103003966599264,1.0192863941192627,-2.7482243219958704
1708437076.906617,-2.1368517875671387,-1.3336601567319413,-2.5280678907977503,6.102785575180807,1.0193469524383545,-2.7468443552600306
1708437076.908618,-2.136676788330078,-1.3337124300054093,-2.5280993620501917,6.102567302971639,1.0194278955459595,-2.745439116154806
1708437076.91061,-2.136427164077759,-1.3336592328599473,-2.528151814137594,6.102244126587667,1.0194593667984009,-2.7440207640277308
1708437076.9126446,-2.1362409591674805,-1.3336747598699112,-2.5282164255725306,6.1019197581108,1.0195149183273315,-2.74252158800234
1708437076.9146233,-2.1360294818878174,-1.3337275993875046,-2.528252426777975,6.101600038796224,1.0195389986038208,-2.741058413182394
1708437076.916697,-2.1358416080474854,-1.333771289592125,-2.5282674471484583,6.101319181710043,1.0195945501327515,-2.7397118250476282
1708437076.9186223,-2.1356306076049805,-1.3337505620769043,-2.528327290211813,6.101058470993795,1.0196174383163452,-2.7381790320025843
1708437076.9206414,-2.135410785675049,-1.3337505620769043,-2.5283871332751673,6.100628363877096,1.0197120904922485,-2.7367950121508997
1708437076.922674,-2.1351318359375,-1.3338397157243271,-2.5284727255450647,6.1003562090690515,1.0197962522506714,-2.7353745142566126
1708437076.9246693,-2.134931802749634,-1.3338021796992798,-2.5284577051745813,6.099986898690023,1.0198637247085571,-2.7340379397021692
1708437076.9266284,-2.134713649749756,-1.3339078587344666,-2.5285478273974817,6.099692451744833,1.0199205875396729,-2.73255163828005
1708437076.9286442,-2.1344451904296875,-1.3338375401547928,-2.528612200413839,6.099313008576193,1.019985556602478,-2.731274668370382
1708437076.9306314,-2.1342084407806396,-1.3339628738215943,-2.528618399296896,6.099036323815145,1.0200034379959106,-2.729734245930807
1708437076.9326572,-2.1339268684387207,-1.333958239560463,-2.5287156740771692,6.098665463715353,1.02005934715271,-2.7283335367785853
1708437076.9346302,-2.13364577293396,-1.3339246672442933,-2.5287712256061,6.098236548691549,1.0201489925384521,-2.726962153111593
1708437076.9366252,-2.133457660675049,-1.3340427291444321,-2.5288191477404993,6.097919690399923,1.0202122926712036,-2.7255223433123987
1708437076.938619,-2.133103609085083,-1.3340295118144532,-2.5288718382464808,6.097396719246664,1.0203012228012085,-2.7240787188159388
1708437076.9406211,-2.132779359817505,-1.3340421629003067,-2.5289483706103724,6.097097265511312,1.020344614982605,-2.722649399434225
1708437076.9426284,-2.1324987411499023,-1.3340698194554825,-2.528970543538229,6.096606123238363,1.0203973054885864,-2.7212095896350306
1708437076.9446366,-2.1322402954101562,-1.3341213029674073,-2.5290725866900843,6.096189725189962,1.0204769372940063,-2.719780747090475
1708437076.9466257,-2.1319451332092285,-1.3341169965318223,-2.529095236455099,6.095825660019674,1.0205624103546143,-2.7183831373797815
1708437076.9486217,-2.1316332817077637,-1.3341696721366425,-2.5291927496539515,6.0953441736991785,1.0205684900283813,-2.717020813618795
1708437076.951084,-2.1312711238861084,-1.334176929002144,-2.52921969095339,6.094955193787374,1.0206873416900635,-2.7155233065234583
1708437076.9526627,-2.1309776306152344,-1.3342580211213608,-2.5293248335467737,6.094472753792562,1.0206886529922485,-2.7140820662127894
1708437076.9546099,-2.1306746006011963,-1.3343182665160676,-2.529351536427633,6.093990075379171,1.0207773447036743,-2.7126129309283655
1708437076.9566486,-2.130269765853882,-1.3342928898385544,-2.5293906370746058,6.093511450081625,1.0208046436309814,-2.711102549229757
1708437076.958631,-2.129981756210327,-1.3343213361552735,-2.5295210520373743,6.0929884789283655,1.0209141969680786,-2.7095330397235315
1708437076.9606233,-2.1295697689056396,-1.3343246591142197,-2.52958852449526,6.092538583069601,1.0209864377975464,-2.708205048237936
1708437076.962643,-2.129258871078491,-1.3343807768872757,-2.529651467000143,6.09204517582015,1.0210374593734741,-2.7066760698901575
1708437076.9646432,-2.1288516521453857,-1.3343757551959534,-2.5297041575061243,6.091565477638998,1.0211187601089478,-2.7051969210254114
1708437076.9666452,-2.128528118133545,-1.3344406348517914,-2.5297308603869837,6.091051089554586,1.021178960800171,-2.7038944403277796
1708437076.9686477,-2.128117561340332,-1.33450901628051,-2.5298073927508753,6.090525018959799,1.021255612373352,-2.7024739424334925
1708437076.970642,-2.1277544498443604,-1.3344963502934952,-2.529882256184713,6.09000192859725,1.0212867259979248,-2.7010284105883997
1708437076.9726605,-2.1273012161254883,-1.3345569384149094,-2.5300009886371058,6.089460718422689,1.021416187286377,-2.699698034917013
1708437076.97463,-2.126919746398926,-1.3345841628364106,-2.5300594011889856,6.088861095696249,1.0215078592300415,-2.6982770601855677
1708437076.9766707,-2.1265101432800293,-1.3346279573491593,-2.53014046350588,6.088246810227194,1.0215637683868408,-2.696909014378683
1708437076.9786263,-2.126082420349121,-1.3346720945886155,-2.530182186757223,6.087650406151571,1.0215859413146973,-2.6954808870898646
1708437076.9806278,-2.1256425380706787,-1.3346594137004395,-2.5302467981921595,6.087030398636617,1.021658182144165,-2.6941216627704065
1708437076.9826322,-2.1251797676086426,-1.3347070974162598,-2.530339781438009,6.0865222094352625,1.0217888355255127,-2.6927505175219935
1708437076.9846578,-2.124678611755371,-1.3347875636867066,-2.530435625706808,6.085884320526876,1.0217949151992798,-2.69129187265505
1708437076.9866326,-2.1242451667785645,-1.3348156076720734,-2.5305455366717737,6.085253584175863,1.021916389465332,-2.6899011770831507
1708437076.9886527,-2.123782157897949,-1.334822566514351,-2.5305872599231165,6.084517705231466,1.0219722986221313,-2.6884892622577112
1708437076.9906292,-2.1232831478118896,-1.3348866266063233,-2.53072959581484,6.083868729859152,1.022032380104065,-2.686967436467306
1708437076.9926424,-2.122767925262451,-1.3349592101624985,-2.530752245579855,6.083175170212545,1.0221046209335327,-2.6855467001544397
1708437076.9947367,-2.1222572326660156,-1.335039184694626,-2.530827347432272,6.08248912075118,1.0222456455230713,-2.6841235796557825
1708437076.9967144,-2.121717691421509,-1.3350301545909424,-2.5309038797961634,6.081839787750997,1.0222879648208618,-2.68269926706423
1708437076.9986384,-2.1212310791015625,-1.3350573492101212,-2.53101617494692,6.081130373268881,1.022343635559082,-2.6812999884234827
1708437077.0006282,-2.1207008361816406,-1.335141898398735,-2.531088177357809,6.080386984139242,1.0224156379699707,-2.6798551718341272
1708437077.0026546,-2.1201441287994385,-1.335270495419838,-2.5311675707446497,6.0796862719352625,1.022510051727295,-2.6783700625049036
1708437077.0046356,-2.119565486907959,-1.3353265535882493,-2.5312894026385706,6.078895318299093,1.0226186513900757,-2.677060667668478
1708437077.0066605,-2.1190109252929688,-1.3353783798268815,-2.5313430468188685,6.0781839964683435,1.0226725339889526,-2.67558199564089
1708437077.008669,-2.118379831314087,-1.335393266086914,-2.5314675013171595,6.077398645668783,1.0228034257888794,-2.674170796071188
1708437077.0106344,-2.1177563667297363,-1.3355134588531037,-2.5315709749804896,6.0766039965446375,1.0228573083877563,-2.6727660338031214
1708437077.0126517,-2.1172070503234863,-1.3355887097171326,-2.5316596666919153,6.07583366611556,1.022934079170227,-2.671443764363424
1708437077.0146344,-2.1165692806243896,-1.3356039983085175,-2.531804625188009,6.074902522354879,1.02301824092865,-2.670074526463644
1708437077.0166454,-2.115895986557007,-1.335712657575943,-2.531901184712545,6.074088084488668,1.0230827331542969,-2.6686723867999476
1708437077.0186412,-2.1152865886688232,-1.3357348901084443,-2.53197151819338,6.0732552883918665,1.0231791734695435,-2.6673429648028772
1708437077.0206418,-2.1146044731140137,-1.3359122735312958,-2.5321078936206263,6.072345959931173,1.023242473602295,-2.6659496466266077
1708437077.0226562,-2.113940954208374,-1.3359390062144776,-2.53223687807192,6.071476924210348,1.023340106010437,-2.6645968596087855
1708437077.0246282,-2.1132030487060547,-1.336083860402443,-2.532311503087179,6.070669042855062,1.023452639579773,-2.6632538477527063
1708437077.0266366,-2.1124699115753174,-1.3361191165498276,-2.532424513493673,6.069675910263815,1.0235443115234375,-2.6618316809283655
1708437077.0286286,-2.1117286682128906,-1.3361981821111222,-2.5325608889209192,6.068739402085104,1.0236073732376099,-2.6604512373553675
1708437077.0306349,-2.1109821796417236,-1.3363026243499299,-2.5326388517962855,6.067734110146322,1.0237576961517334,-2.6591275374041956
1708437077.0326464,-2.110323667526245,-1.33644653976474,-2.5327842871295374,6.066887366562643,1.0237953662872314,-2.657752815877096
1708437077.0346508,-2.1095991134643555,-1.3365017783692856,-2.5328996817218226,6.065970527916708,1.0239410400390625,-2.6563432852374476
1708437077.0366402,-2.108794689178467,-1.3366219711354752,-2.533048216496603,6.065021860390463,1.0240041017532349,-2.654999319707052
1708437077.038633,-2.1080498695373535,-1.3367014241269608,-2.5331392923938196,6.063976037293234,1.0241303443908691,-2.653609100972311
1708437077.040632,-2.107213020324707,-1.3368454587510605,-2.533313576375143,6.062969314842977,1.0241965055465698,-2.6521833578692835
1708437077.0426693,-2.1063942909240723,-1.3368802231601258,-2.533387009297506,6.061942207604208,1.0243301391601562,-2.6507580916034144
1708437077.0446227,-2.1055026054382324,-1.3370565187982102,-2.5335236231433313,6.060831892281332,1.0243843793869019,-2.6493008772479456
1708437077.04668,-2.1046745777130127,-1.3371363890222092,-2.5337048212634485,6.05977879741744,1.024542212486267,-2.6478846708880823
1708437077.048621,-2.1039178371429443,-1.3372475665858765,-2.5337966124164026,6.0587350008781335,1.0246624946594238,-2.646430555974142
1708437077.050631,-2.1030194759368896,-1.337419570689537,-2.5339236895190638,6.057644116669454,1.0247795581817627,-2.6451860109912317
1708437077.0526605,-2.1021647453308105,-1.3375187081149598,-2.5341039339648646,6.056498396187582,1.0248501300811768,-2.6437116304980677
1708437077.0546167,-2.1012730598449707,-1.3376391691020508,-2.5342822710620325,6.055456149369039,1.0249751806259155,-2.642343584691183
1708437077.056632,-2.1004228591918945,-1.3377987307361145,-2.534412686024801,6.054245579033651,1.0250741243362427,-2.640972916279928
1708437077.0586226,-2.099433660507202,-1.3378747713616868,-2.5345566908465784,6.05301712730483,1.0252243280410767,-2.63966948190798
1708437077.0606263,-2.0985004901885986,-1.3379978251508255,-2.534733597432272,6.051861631661215,1.025286078453064,-2.6382668654071253
1708437077.0626369,-2.0975537300109863,-1.338157282476761,-2.5348804632769983,6.050586688309469,1.0254229307174683,-2.6370039621936243
1708437077.0646284,-2.096580743789673,-1.3382726472667237,-2.535011116658346,6.049349415093221,1.0255476236343384,-2.6356263796435755
1708437077.0666754,-2.0955770015716553,-1.3383541864207764,-2.535192314778463,6.04818211772994,1.0256272554397583,-2.6342714468585413
1708437077.068638,-2.0946576595306396,-1.3385593754104157,-2.53538161913027,6.046948778420248,1.0258225202560425,-2.632979218159811
1708437077.0706525,-2.093686580657959,-1.3386823248914261,-2.5354788939105433,6.045745837479391,1.0259710550308228,-2.631662432347433
1708437077.072635,-2.092686653137207,-1.3388913434794922,-2.5357099215136927,6.044559228211202,1.026053786277771,-2.630349938069479
1708437077.0746312,-2.0916500091552734,-1.3390392822078248,-2.535795275365011,6.043350803643026,1.0261411666870117,-2.6289709250079554
1708437077.076671,-2.0906901359558105,-1.339194194679596,-2.5360007921801966,6.04208384731368,1.026273488998413,-2.6276994387256067
1708437077.0786219,-2.089613676071167,-1.3394153726151963,-2.536173168812887,6.040780532151022,1.0263683795928955,-2.626308266316549
1708437077.080682,-2.0885894298553467,-1.339501054292061,-2.5363038221942347,6.039474117546835,1.0265378952026367,-2.6249998251544397
