Eg3-git/Classifiers/Data Collection/u5/u5star1_ur3e_joint_states.csv
time,elbow_joint,shoulder_lift_joint,shoulder_pan_joint,wrist_1_joint,wrist_2_joint,wrist_3_joint
1708436968.684529,-2.1541366577148438,-1.3367043298533936,-2.52415639558901,6.1387518523033044,1.0127251148223877,-2.7791243235217493
1708436968.686504,-2.154123067855835,-1.3367170554450531,-2.524168316517965,6.138768183975973,1.0127251148223877,-2.7791572252856653
1708436968.6884906,-2.1540732383728027,-1.3367170703462143,-2.524172846470968,6.138723361283102,1.0127251148223877,-2.7791200319873255
1708436968.690489,-2.1541571617126465,-1.3366597306779404,-2.5241358915912073,6.138723361283102,1.0127010345458984,-2.7791453043567103
1708436968.6925058,-2.1541242599487305,-1.3367009174874802,-2.5241316000567835,6.1387648461158655,1.01276695728302,-2.779149595891134
1708436968.6944969,-2.154083490371704,-1.3367009919932862,-2.5241196791278284,6.1387332556541345,1.0127296447753906,-2.7791155020343226
1708436968.6965277,-2.1540822982788086,-1.3366802644780655,-2.5241196791278284,6.138687717705526,1.0127296447753906,-2.7791288534747522
1708436968.6984816,-2.154078960418701,-1.3366725456765671,-2.5241392294513147,6.13868414142684,1.0127084255218506,-2.7790990511523646
1708436968.7004852,-2.1540958881378174,-1.3366399717381974,-2.5241239706622522,6.138639795571127,1.0127129554748535,-2.7791526953326624
1708436968.7025235,-2.154083490371704,-1.3366527122310181,-2.5241108576404017,6.138669001847067,1.0127084255218506,-2.779109541569845
1708436968.7045112,-2.154066562652588,-1.3365761798671265,-2.5241151491748255,6.138649332314291,1.0126752853393555,-2.7791124025927942
1708436968.7065217,-2.154046058654785,-1.3365769398263474,-2.5241478125201624,6.138641822129049,1.0127325057983398,-2.779133383427755
1708436968.7084851,-2.154066562652588,-1.3365846437266846,-2.524144474660055,6.138527738838949,1.0127038955688477,-2.779088083897726
1708436968.710495,-2.154066562652588,-1.3365888905576249,-2.5241521040545862,6.1385244009788416,1.0127207040786743,-2.779130522404806
1708436968.7125154,-2.1540143489837646,-1.3365812760642548,-2.5241521040545862,6.138503777771749,1.012727975845337,-2.779109541569845
1708436968.714479,-2.1539769172668457,-1.3365812760642548,-2.5241273085223597,6.138497102051534,1.0127251148223877,-2.779116932545797
1708436968.7165537,-2.1540098190307617,-1.3365523529103776,-2.5241761843310755,6.138439285546102,1.0127415657043457,-2.779125992451803
1708436968.7184918,-2.1539623737335205,-1.3365693849376221,-2.5241521040545862,6.138415443688192,1.0127415657043457,-2.7790971438037317
1708436968.720517,-2.1539969444274902,-1.3365528595498581,-2.5241273085223597,6.138322818070211,1.0127038955688477,-2.7790523211108606
1708436968.722503,-2.1539597511291504,-1.3365528148463746,-2.5241718927966517,6.138360845833578,1.0126785039901733,-2.779076162968771
1708436968.7244964,-2.1539552211761475,-1.3365367215922852,-2.5241597334491175,6.1383283016975305,1.0127415657043457,-2.779031578694479
1708436968.72649,-2.153968572616577,-1.3364964139512558,-2.5241640249835413,6.13827263095931,1.0127578973770142,-2.7790494600879114
1708436968.7284994,-2.1539406776428223,-1.3365366917899628,-2.524168316517965,6.138293492584982,1.0127370357513428,-2.779048029576437
1708436968.7305088,-2.153873920440674,-1.3365854632905503,-2.5241227785693567,6.13827799537734,1.0127578973770142,-2.7790404001819056
1708436968.7324793,-2.1538712978363037,-1.3365735423615952,-2.5241640249835413,6.138175594597616,1.0127896070480347,-2.7790775934802454
1708436968.7344856,-2.1538758277893066,-1.3365077835372468,-2.5241640249835413,6.138205158501425,1.01276433467865,-2.7790420691119593
1708436968.7364757,-2.1538431644439697,-1.3365248006633301,-2.5241478125201624,6.13816915729598,1.0128228664398193,-2.7790585199939173
1708436968.738513,-2.1538190841674805,-1.336520568733551,-2.5241273085223597,6.138125645905294,1.012780785560608,-2.779004160557882
1708436968.7405622,-2.1538245677948,-1.3365205836347123,-2.5241969267474573,6.138055908470907,1.0128092765808105,-2.778982464467184
1708436968.742522,-2.153759241104126,-1.3365324896625062,-2.524172608052389,6.137996184616842,1.0127911567687988,-2.778975311909811
1708436968.7445824,-2.1537511348724365,-1.3365367215922852,-2.5241554419146937,6.138021099358358,1.0127924680709839,-2.778991762791769
1708436968.746517,-2.153794050216675,-1.3365693253329773,-2.5241761843310755,6.137968766480245,1.0128166675567627,-2.7789188067065638
1708436968.7484992,-2.1536991596221924,-1.3365855675986786,-2.5241392294513147,6.137941467552938,1.0128498077392578,-2.7790349165545862
1708436968.750493,-2.153642177581787,-1.3365172010711213,-2.5241435209857386,6.137852060585775,1.0128331184387207,-2.7789068857776087
1708436968.7524998,-2.1536672115325928,-1.336520568733551,-2.524134699498312,6.137812840729513,1.01287841796875,-2.778966728840963
1708436968.7544763,-2.1536648273468018,-1.3364678484252472,-2.5241554419146937,6.137802111893453,1.0129021406173706,-2.7788706461535853
1708436968.7564733,-2.153592348098755,-1.3365536791137238,-2.5241435209857386,6.13774203041152,1.0129021406173706,-2.778883997594015
1708436968.7585053,-2.1536011695861816,-1.336549551492073,-2.524195973073141,6.13769410827712,1.0129249095916748,-2.77887207666506
1708436968.760479,-2.1536147594451904,-1.3365697723678132,-2.5241554419146937,6.1376168606574915,1.012965440750122,-2.7788572947131556
1708436968.7624743,-2.153548002243042,-1.336484895353653,-2.524195973073141,6.137565839081564,1.0129371881484985,-2.77881104150881
1708436968.7645147,-2.153524160385132,-1.3364763420871277,-2.524228636418478,6.13755892494277,1.0129399299621582,-2.7788408438311976
1708436968.7665036,-2.1534595489501953,-1.336436153655388,-2.5242045561419886,6.137400972634115,1.0129897594451904,-2.7788119951831263
1708436968.7684813,-2.153473138809204,-1.336484895353653,-2.52421218553652,6.13736520984725,1.0130016803741455,-2.778809134160177
1708436968.7704918,-2.153411865234375,-1.3364402514747162,-2.524252716694967,6.1373140690620325,1.0130209922790527,-2.778775755559103
1708436968.7724953,-2.153383731842041,-1.3364695620587845,-2.5242396036731165,6.137279259949484,1.0130586624145508,-2.7787817160235804
1708436968.7745006,-2.1533360481262207,-1.3364572686007996,-2.524285380040304,6.137179124146261,1.01308274269104,-2.7787445227252405
1708436968.776509,-2.1533281803131104,-1.3363837909749527,-2.5242767969714563,6.1370452521140955,1.0130572319030762,-2.778696362172262
1708436968.778481,-2.15325665473938,-1.3364291948131104,-2.5242396036731165,6.136977541237631,1.0130994319915771,-2.778663698826925
1708436968.7804875,-2.1532397270202637,-1.3363965314677735,-2.5243049303637903,6.13693522193984,1.0130903720855713,-2.778656069432394
1708436968.7824862,-2.1532177925109863,-1.3364093464664002,-2.5242679754840296,6.136772739678182,1.0131396055221558,-2.7786696592914026
1708436968.784506,-2.1531522274017334,-1.3363731515458603,-2.524303738270895,6.136758553772726,1.0130977630615234,-2.7785988489734095
1708436968.786477,-2.153148651123047,-1.3363363307765503,-2.5242863337146204,6.136629092484274,1.0131216049194336,-2.7785916964160364
1708436968.7884874,-2.1530725955963135,-1.336385802631714,-2.5243199507342737,6.13649736621932,1.0131595134735107,-2.778588596974508
1708436968.790482,-2.153090715408325,-1.336369351749756,-2.5243974367724817,6.1364338276679895,1.01318359375,-2.778605047856466
1708436968.7924733,-2.1530160903930664,-1.3363251251033326,-2.524356190358297,6.136330473213949,1.01316237449646,-2.7785354296313685
1708436968.7944937,-2.152994394302368,-1.3363497418216248,-2.524400774632589,6.136279213219442,1.0132027864456177,-2.778548781071798
1708436968.7965198,-2.1529228687286377,-1.3363582503846665,-2.5243757406817835,6.136130916863241,1.0132014751434326,-2.778504196797506
1708436968.7984927,-2.1528537273406982,-1.3363171082786103,-2.5243669191943567,6.136034357338705,1.0132014751434326,-2.778475824986593
1708436968.8004813,-2.152836799621582,-1.3363094937852402,-2.5244327227221888,6.135955798416891,1.0132628679275513,-2.7784305254565638
1708436968.8024764,-2.152770757675171,-1.3363018047860642,-2.5244532267199915,6.135860073357382,1.013253927230835,-2.778446976338522
1708436968.804481,-2.1527299880981445,-1.3362933558276673,-2.524411741887228,6.135777222901144,1.0132901668548584,-2.7783711592303675
1708436968.8064756,-2.152665615081787,-1.3362772327712555,-2.5244434515582483,6.135583269387045,1.0133187770843506,-2.778405253087179
1708436968.8085122,-2.1526427268981934,-1.3362695139697571,-2.524440113698141,6.135454642563619,1.0133470296859741,-2.778360191975729
1708436968.8105,-2.152595043182373,-1.336249904041626,-2.524447743092672,6.135351168900289,1.013329029083252,-2.77834660211672
1708436968.812488,-2.1525261402130127,-1.336218075161316,-2.5244882742511194,6.135215031891622,1.0133652687072754,-2.7783499399768274
1708436968.8144875,-2.15248966217041,-1.3362130385688324,-2.5245121161090296,6.135092007904806,1.0134193897247314,-2.778332773839132
1708436968.816495,-2.152435064315796,-1.336193547849991,-2.5245209375964563,6.134979831963339,1.0133938789367676,-2.778275791798727
1708436968.8184958,-2.1523988246917725,-1.3361898225596924,-2.524487082158224,6.134831654816427,1.0134525299072266,-2.778202835713522
1708436968.8205113,-2.1523354053497314,-1.336226688032486,-2.524531666432516,6.134736883431234,1.0134389400482178,-2.7781997362719935
1708436968.8225002,-2.1522672176361084,-1.3361416918090363,-2.5245023409472864,6.134596335678854,1.0135093927383423,-2.7781456152545374
1708436968.824517,-2.152207136154175,-1.3361620765975495,-2.5245636145221155,6.134468900948324,1.013515830039978,-2.778147045766012
1708436968.8265188,-2.152147054672241,-1.336121679549553,-2.5245917479144495,6.134338128357687,1.013522982597351,-2.778156105672018
1708436968.8284903,-2.152087926864624,-1.336114065056183,-2.5246124903308313,6.13414083698348,1.0135397911071777,-2.778095547352926
1708436968.830521,-2.1519815921783447,-1.3361107271960755,-2.5246287027942103,6.1339603541191,1.0135470628738403,-2.778074328099386
1708436968.8324997,-2.151897430419922,-1.3361069124988099,-2.5246155897723597,6.1338775036628626,1.0135879516601562,-2.777994219456808
1708436968.8345075,-2.1518590450286865,-1.336049960260727,-2.5246198813067835,6.133721816330709,1.0136611461639404,-2.7779622713672083
1708436968.8365216,-2.1517865657806396,-1.336041436796524,-2.52466065088381,6.133582818299093,1.013671875,-2.777973000203268
1708436968.8384967,-2.1517691612243652,-1.3360626858523865,-2.524663750325338,6.133357155113973,1.0136795043945312,-2.7778919378863733
1708436968.840527,-2.1516523361206055,-1.3359815937331696,-2.5246594587909144,6.133267628937521,1.013666033744812,-2.7778754870044153
1708436968.8425019,-2.151563882827759,-1.3359824430993577,-2.524729315434591,6.1331063387687585,1.0137395858764648,-2.7778635660754603
1708436968.8445613,-2.1515071392059326,-1.33598746479068,-2.524750057850973,6.132935392647543,1.013768196105957,-2.7778030077563685
1708436968.846593,-2.151427984237671,-1.3359424334815522,-2.5247207323657435,6.132772075920858,1.0137875080108643,-2.7777465025531214
1708436968.848504,-2.151348352432251,-1.3359313917211075,-2.5246997515307825,6.132615911751547,1.0138119459152222,-2.777714554463522
1708436968.8504848,-2.1513006687164307,-1.3359106195024033,-2.5247400442706507,6.132427680283346,1.0138028860092163,-2.7776997725116175
1708436968.8524737,-2.1512463092803955,-1.3358584505370636,-2.524738852177755,6.132202851563253,1.013838529586792,-2.7776172796832483
1708436968.8545172,-2.1511542797088623,-1.3358099919608613,-2.524755303059713,6.132059800415792,1.0138294696807861,-2.7775989214526575
1708436968.8564885,-2.1510400772094727,-1.3357862395099183,-2.524837080632345,6.13188790062026,1.0138702392578125,-2.7775781790362757
1708436968.8584888,-2.150981903076172,-1.3358150881579895,-2.5248034636126917,6.131797182350912,1.0139272212982178,-2.777555290852682
1708436968.860501,-2.1508843898773193,-1.3357466024211426,-2.5248358885394495,6.131593572884359,1.0139439105987549,-2.777477804814474
1708436968.8624942,-2.150846004486084,-1.3357997995666047,-2.5248523394214075,6.131436931877889,1.0139440298080444,-2.7774174849139612
1708436968.8644962,-2.1507859230041504,-1.3357840937427063,-2.5248547236071985,6.1313058016593835,1.014003872871399,-2.7773857752429407
1708436968.8664992,-2.150670051574707,-1.3357721728137513,-2.524912420903341,6.131073939591207,1.0139858722686768,-2.7773709932910364
1708436968.8685122,-2.15061354637146,-1.3357365292361756,-2.524940792714254,6.130853163986959,1.0140340328216553,-2.777314011250631
1708436968.8705032,-2.1505136489868164,-1.3356834065965195,-2.5248950163470667,6.130710112839498,1.0141167640686035,-2.777290169392721
1708436968.8725097,-2.1504499912261963,-1.3356596243432541,-2.5249484221087855,6.1305227158363245,1.0141361951828003,-2.777238909398214
1708436968.8745115,-2.1503748893737793,-1.3356927794269104,-2.524942938481466,6.130282151490011,1.0141600370407104,-2.777165476475851
1708436968.876498,-2.1503283977508545,-1.3355912429145356,-2.5249710718738,6.130167591362753,1.0142250061035156,-2.777163569127218
1708436968.8784919,-2.150226593017578,-1.3355547946742554,-2.5250206629382532,6.1299311993415735,1.0142369270324707,-2.7770853678332728
1708436968.8804934,-2.150177478790283,-1.3355555993369599,-2.5250442663775843,6.12971972206191,1.0142428874969482,-2.7770305315600794
1708436968.8824787,-2.150038242340088,-1.3355517846396943,-2.525031391774313,6.1295732138450525,1.0143136978149414,-2.776984993611471
1708436968.8845,-2.149998188018799,-1.3355644804290314,-2.5250607172595423,6.1293115494544885,1.014319658279419,-2.7769508997546595
1708436968.886474,-2.1498963832855225,-1.3355525893023987,-2.52509576479067,6.129128324776449,1.0143810510635376,-2.776896063481466
1708436968.8885148,-2.1497952938079834,-1.3354879480651398,-2.525046412144796,6.128965604096212,1.0144219398498535,-2.7769113222705286
1708436968.8905206,-2.1496944427490234,-1.3354391318610688,-2.52508789697756,6.128773677140035,1.0144411325454712,-2.7768004576312464
1708436968.8924925,-2.149603843688965,-1.3354845953038712,-2.525144640599386,6.12862645366744,1.014444351196289,-2.77681547800173
1708436968.8944867,-2.1495444774627686,-1.3353916567615052,-2.525140349064962,6.128377663880148,1.0145015716552734,-2.776705567036764
1708436968.8965025,-2.1494765281677246,-1.3353958141854783,-2.5251522699939173,6.128210651665487,1.0145914554595947,-2.7767191568957728
1708436968.8984933,-2.1494016647338867,-1.3354128164104004,-2.5251885096179407,6.127974498062887,1.0145734548568726,-2.7766335646258753
1708436968.9005113,-2.149308681488037,-1.3353682619384308,-2.525224272404806,6.127875792771139,1.0145599842071533,-2.776586119328634
1708436968.9025004,-2.1492791175842285,-1.3353359562209626,-2.525203529988424,6.1275988695915125,1.0146384239196777,-2.776515309010641
1708436968.9045105,-2.1490707397460938,-1.335364894276001,-2.525200430546896,6.1274675009544275,1.014694094657898,-2.7764976660357874
1708436968.9065266,-2.1490705013275146,-1.3353002232364197,-2.525207821522848,6.127227175026693,1.014701247215271,-2.7764702478991907
1708436968.908496,-2.1489572525024414,-1.3352557581714173,-2.5252397696124476,6.127068269043722,1.0147464275360107,-2.7764084974872034
1708436968.9105012,-2.1488869190216064,-1.335325763826706,-2.5252516905414026,6.126908647805013,1.0147736072540283,-2.7763829866992396
1708436968.912511,-2.1488184928894043,-1.335272656088211,-2.5252724329577845,6.1266846535499475,1.0148260593414307,-2.7763307730304163
1708436968.914482,-2.1487302780151367,-1.335245208149292,-2.5253246466266077,6.126512396126547,1.014866828918457,-2.776240650807516
1708436968.9165273,-2.1486258506774902,-1.3352616888335724,-2.5253081957446497,6.126265156060018,1.014862298965454,-2.7762253920184534
1708436968.9185185,-2.148562431335449,-1.3352213662913819,-2.5253236929522913,6.12612138965682,1.0149809122085571,-2.776181761418478
1708436968.920521,-2.1484715938568115,-1.3351813715747376,-2.525409762059347,6.125913846283712,1.0149493217468262,-2.776137177144186
1708436968.9225094,-2.148432731628418,-1.3351975244334717,-2.5253148714648646,6.12570487239913,1.0149731636047363,-2.776073996220724
1708436968.9245276,-2.148353338241577,-1.335149036054947,-2.5253637472735804,6.125505196839132,1.0150302648544312,-2.7760308424579065
1708436968.926547,-2.1483101844787598,-1.3351496321013947,-2.5253923575030726,6.125346171646871,1.0150666236877441,-2.775989596043722
1708436968.9285223,-2.1481809616088867,-1.335121528511383,-2.525391403828756,6.125088918000021,1.015065312385559,-2.77598220506777
1708436968.930519,-2.148118495941162,-1.335097686653473,-2.5254207293139856,6.124958383827963,1.0151402950286865,-2.7759345213519495
1708436968.9325178,-2.1479928493499756,-1.3350327473929902,-2.5254064241992396,6.124784457474508,1.015129804611206,-2.775841776524679
1708436968.9344995,-2.1478805541992188,-1.3350701493075867,-2.525440279637472,6.124538051873007,1.0151658058166504,-2.7758505980121058
1708436968.9365168,-2.1478452682495117,-1.3350539964488526,-2.5254183451281946,6.124411809235372,1.0152230262756348,-2.7757719198810022
1708436968.938527,-2.1477138996124268,-1.33508716643367,-2.5255284945117396,6.124163138657369,1.0152018070220947,-2.7756956259356897
1708436968.9405124,-2.1476659774780273,-1.3349490624717255,-2.5255077520953577,6.1240118620689294,1.0152050256729126,-2.7756808439837855
1708436968.942552,-2.147589921951294,-1.3349943918040772,-2.525515381489889,6.12385259845809,1.0152618885040283,-2.775653902684347
1708436968.9445794,-2.14750599861145,-1.334978775387146,-2.5255842844592493,6.123644816666403,1.0153428316116333,-2.7756014505969446
1708436968.9465654,-2.1473958492279053,-1.334938035612442,-2.5255559126483362,6.123472678452291,1.015333890914917,-2.775536123906271
1708436968.9485018,-2.147305488586426,-1.3349138361266633,-2.5255842844592493,6.123297440796652,1.0153673887252808,-2.7755077520953577
1708436968.9504957,-2.1472339630126953,-1.3349147003940125,-2.5256410280810755,6.123105633049764,1.0154061317443848,-2.7755020300494593
1708436968.9525309,-2.1471669673919678,-1.3348713380149384,-2.5256040732013147,6.122941005020895,1.0153896808624268,-2.77541953722109
1708436968.9545033,-2.14711594581604,-1.3348993223956604,-2.525627915059225,6.122749435692587,1.015425682067871,-2.775433127080099
1708436968.9565275,-2.1469945907592773,-1.3348343831351777,-2.525672499333517,6.122577178269186,1.0155279636383057,-2.7753563562976282
1708436968.958508,-2.1469199657440186,-1.3348670166781922,-2.525656286870138,6.1224944470222376,1.015526533126831,-2.775303904210226
1708436968.9605005,-2.1469101905822754,-1.3348551851562043,-2.525721851979391,6.122352111130514,1.0155130624771118,-2.7753053347217005
1708436968.9625194,-2.1468307971954346,-1.3347987097552796,-2.5256343523608606,6.122148263245382,1.01559579372406,-2.775252644215719
1708436968.9645014,-2.1466948986053467,-1.3348437261632462,-2.525675598775045,6.121988761215963,1.0156525373458862,-2.7752259413348597
1708436968.9665327,-2.146660804748535,-1.3347383302501221,-2.5257237593280237,6.121775853424825,1.015660285949707,-2.7751925627337855
1708436968.9685068,-2.1465749740600586,-1.334726170902588,-2.5257399717914026,6.1216362593467615,1.0156826972961426,-2.775133196507589
1708436968.9705033,-2.146533489227295,-1.3347430986217041,-2.5257108847247522,6.121476280480184,1.0157281160354614,-2.775104824696676
1708436968.9725413,-2.146470069885254,-1.3347473305514832,-2.5257228056537073,6.121395098954,1.0157684087753296,-2.7750561873065394
1708436968.9744945,-2.146390676498413,-1.334719256763794,-2.5257347265826624,6.121183025627889,1.0157877206802368,-2.775062147771017
1708436968.976631,-2.1462717056274414,-1.3347070974162598,-2.5257795492755335,6.121056902199545,1.0158286094665527,-2.7749839464770716
1708436968.9785068,-2.146204710006714,-1.3346747916987916,-2.5257957617389124,6.120879637985983,1.0158106088638306,-2.7749484221087855
1708436968.9804957,-2.146141529083252,-1.334638164644577,-2.525766436253683,6.120716678887167,1.0158919095993042,-2.774879280720846
1708436968.9825227,-2.146073341369629,-1.334614412193634,-2.525782887135641,6.1205612299735925,1.0158841609954834,-2.7748971621142786
1708436968.984498,-2.145993947982788,-1.3346550923636933,-2.5258362928973597,6.1204025624092,1.0159111022949219,-2.774832073842184
1708436968.9865203,-2.1459245681762695,-1.3347001832774659,-2.525855843220846,6.120249974518575,1.0159565210342407,-2.7748246828662317
1708436968.98849,-2.145918846130371,-1.3346389395049592,-2.5258265177356165,6.120070802956381,1.0159969329833984,-2.7747519651996058
1708436968.9904852,-2.1458306312561035,-1.3346236509135743,-2.5258591810809534,6.119918572693624,1.0159969329833984,-2.774728838597433
1708436968.9925108,-2.1457715034484863,-1.334599570637085,-2.5258622805224817,6.119755494385519,1.0160164833068848,-2.774684254323141
1708436968.99449,-2.14571475982666,-1.3345825535110016,-2.5258873144732874,6.119640576630392,1.0160269737243652,-2.7746768633471888
1708436968.9964907,-2.1456716060638428,-1.3346157234958191,-2.5259278456317347,6.119497048645773,1.0160553455352783,-2.7746873537646692
1708436968.9984944,-2.1456148624420166,-1.3345791858485718,-2.5259323755847376,6.119345891266622,1.0160343647003174,-2.7746086756335657
1708436969.0004807,-2.1455605030059814,-1.3345595759204407,-2.5259397665606897,6.119222867279806,1.0161411762237549,-2.7745967547046106
1708436969.002488,-2.1455118656158447,-1.334588424568512,-2.5259550253497522,6.119082557946005,1.0161938667297363,-2.774545733128683
1708436969.004496,-2.145460605621338,-1.3345441979220887,-2.5259559790240687,6.1188979027564905,1.016208529472351,-2.7745545546161097
1708436969.006506,-2.1453769207000732,-1.3345280450633545,-2.526020590459005,6.118775117188253,1.0162253379821777,-2.7744601408587855
1708436969.0085256,-2.145306348800659,-1.3345238131335755,-2.5259342829333704,6.118664252548971,1.016249418258667,-2.7744601408587855
1708436969.0104985,-2.145280361175537,-1.3345039647868653,-2.5259791056262415,6.118508803635397,1.0162312984466553,-2.77446157137026
1708436969.012497,-2.1452155113220215,-1.334556983118393,-2.5259626547442835,6.118445741921224,1.0163017511367798,-2.7743971983539026
1708436969.0145018,-2.14518141746521,-1.3345081967166443,-2.5259833971606653,6.118351208954611,1.0162463188171387,-2.7743709723102015
1708436969.016513,-2.1450841426849365,-1.334479884510376,-2.526015106831686,6.118214118271627,1.0163004398345947,-2.774332586918966
1708436969.0185077,-2.145040988922119,-1.334459738140442,-2.5260313192950647,6.1180912134941,1.016319990158081,-2.774344507847921
1708436969.020504,-2.1449851989746094,-1.334492490892746,-2.526076141987936,6.117954122811117,1.0162824392318726,-2.774292532597677
1708436969.0225353,-2.1449332237243652,-1.3344236475280304,-2.526071850453512,6.117862808495321,1.0163768529891968,-2.7742815653430384
1708436969.0244882,-2.144847869873047,-1.3344364327243348,-2.526092592869894,6.117755400925436,1.0163800716400146,-2.774250094090597
1708436969.0265062,-2.144838809967041,-1.3344083589366456,-2.526095692311422,6.117619383126058,1.0163724422454834,-2.774233881627218
1708436969.0284877,-2.1447935104370117,-1.3344007593444367,-2.5261240641223353,6.117553102761068,1.0164086818695068,-2.7741552034961146
1708436969.030497,-2.1447460651397705,-1.3344083589366456,-2.526140276585714,6.117411720543661,1.0164086818695068,-2.7741316000567835
1708436969.0325418,-2.1447205543518066,-1.3343511086753388,-2.5261483828174036,6.117333519249716,1.016449213027954,-2.774099651967184
1708436969.0344863,-2.1446142196655273,-1.3343926531127472,-2.5261483828174036,6.117237555771627,1.0164823532104492,-2.774130169545309
1708436969.0365298,-2.1445372104644775,-1.3343692284873505,-2.52613073984255,6.117121445923605,1.0164854526519775,-2.7740922609912317
1708436969.0384877,-2.1444761753082275,-1.3343487542918702,-2.5261603037463587,6.117078888207235,1.0164809226989746,-2.7740610281573694
1708436969.040493,-2.144507646560669,-1.3343280416778107,-2.5261557737933558,6.116935360222616,1.0165210962295532,-2.774020258580343
1708436969.042526,-2.1444146633148193,-1.3343085211566468,-2.526191536580221,6.116827952652731,1.016512155532837,-2.774003807698385
1708436969.0445642,-2.1443827152252197,-1.334321306352951,-2.5261502901660364,6.116665828018942,1.016512155532837,-2.773930374776022
1708436969.0465431,-2.144338846206665,-1.3343127530864258,-2.526159111653463,6.1166268465812585,1.0165337324142456,-2.7739725748645228
1708436969.0484927,-2.1442863941192627,-1.3343090575984498,-2.5261948744403284,6.116510498314657,1.0165648460388184,-2.7739184538470667
1708436969.0505204,-2.144287586212158,-1.3343493801406403,-2.5261948744403284,6.116464841156759,1.0165889263153076,-2.773958746586935
1708436969.052507,-2.144235372543335,-1.334219829445221,-2.526191536580221,6.116327750473776,1.0165889263153076,-2.7738807837115687
1708436969.0544944,-2.1442487239837646,-1.3342359823039551,-2.5262277762042444,6.1162603972251794,1.016603946685791,-2.7739091555224817
1708436969.056483,-2.1441922187805176,-1.3342444461635132,-2.526264731084005,6.116222488671102,1.016625165939331,-2.7738896051989954
1708436969.0585358,-2.144155979156494,-1.3342613738826294,-2.5262277762042444,6.116048443108358,1.0166912078857422,-2.7738118807422083
1708436969.0604987,-2.144094944000244,-1.334216372375824,-2.5262277762042444,6.115985619812765,1.0166534185409546,-2.7738524119006556
1708436969.062516,-2.144038200378418,-1.3342571419528504,-2.5262561480151575,6.1159179089363,1.0167016983032227,-2.773816172276632
1708436969.064493,-2.1440651416778564,-1.334212915306427,-2.526219193135397,6.1157851097877405,1.0166761875152588,-2.773841444646017
1708436969.0664966,-2.144012928009033,-1.3342341643622895,-2.52621037164797,6.115692841797628,1.0166926383972168,-2.773801390324728
1708436969.0685017,-2.144005060195923,-1.3342290681651612,-2.5262518564807337,6.115691768914022,1.0166763067245483,-2.773768488560812
1708436969.0704863,-2.1439857482910156,-1.3341888350299378,-2.526287619267599,6.115550386696615,1.0166881084442139,-2.7737775484668177
1708436969.0724974,-2.1439030170440674,-1.3341522079757233,-2.5263248125659388,6.115499484329977,1.0167375802993774,-2.773719851170675
1708436969.0745113,-2.14388370513916,-1.334189699297287,-2.526292149220602,6.115455972939291,1.0167405605316162,-2.7737396399127405
1708436969.0765324,-2.143890142440796,-1.3341570657542725,-2.526267115269796,6.115364420204916,1.016733169555664,-2.7737062613116663
1708436969.078541,-2.1438405513763428,-1.3341527444175263,-2.52627140680422,6.115313517838278,1.016797661781311,-2.773667875920431
1708436969.080487,-2.1437795162200928,-1.3342503172210236,-2.5262747446643274,6.115225541382589,1.0167529582977295,-2.773691717778341
1708436969.0824854,-2.1438257694244385,-1.3341539365104218,-2.526316229497091,6.115149485855856,1.0167603492736816,-2.7736766974078577
1708436969.084493,-2.143706798553467,-1.3341453832438965,-2.526249710713522,6.115040766983785,1.0167887210845947,-2.7736812273608606
1708436969.086484,-2.1437408924102783,-1.3341250878623505,-2.526311699544088,6.114951717644491,1.0168218612670898,-2.7736642996417444
1708436969.0885212,-2.1437249183654785,-1.334116981630661,-2.526316229497091,6.114974486618795,1.016791820526123,-2.7736688295947474
1708436969.0904877,-2.1437461376190186,-1.3341539365104218,-2.5262869040118616,6.114902364998617,1.016829490661621,-2.773644987736837
1708436969.0924878,-2.1436941623687744,-1.3340728443912049,-2.5263193289386194,6.114867794304647,1.0168462991714478,-2.773691002522604
1708436969.094514,-2.1436657905578613,-1.3341297668269654,-2.5263269583331507,6.114738571434774,1.0168581008911133,-2.7736077944384974
1708436969.096503,-2.1436588764190674,-1.3341297668269654,-2.5263517538653772,6.114723193436422,1.0168581008911133,-2.773600165043966
1708436969.098491,-2.143587589263916,-1.3341334623149415,-2.5263312498675745,6.1146429655845544,1.0168519020080566,-2.7735794226275843
1708436969.1005073,-2.143601179122925,-1.3340529215386887,-2.5263150374041956,6.114603388100424,1.0168683528900146,-2.773625437413351
1708436969.1024823,-2.143548011779785,-1.3340898615172883,-2.5263312498675745,6.114579665451803,1.0168728828430176,-2.773583952580587
1708436969.104489,-2.1435749530792236,-1.334085540180542,-2.5263553301440638,6.114548194199362,1.0168850421905518,-2.773588244115011
1708436969.1065345,-2.143558979034424,-1.334085540180542,-2.526371781026022,6.114467727928915,1.0168941020965576,-2.773604694996969
1708436969.1085057,-2.1435227394104004,-1.334045262341835,-2.526379410420553,6.114387261658468,1.0169227123260498,-2.7735565344439905
1708436969.1105168,-2.1434617042541504,-1.3340171438506623,-2.526371781026022,6.114400374680319,1.0169299840927124,-2.7735772768603724
1708436969.112506,-2.1434545516967773,-1.3340422225049515,-2.5263553301440638,6.1143154976661584,1.0168850421905518,-2.7735446135150355
1708436969.114505,-2.14341402053833,-1.3340422076037903,-2.52635103860964,6.114255654602804,1.016913652420044,-2.7735326925860804
1708436969.11649,-2.1433777809143066,-1.3340666604093094,-2.526375118886129,6.114204871445455,1.0169181823730469,-2.7734954992877405
1708436969.1184855,-2.143357276916504,-1.3340378564647217,-2.52641207376589,6.114171969681539,1.0169165134429932,-2.7734881083117884
1708436969.1204972,-2.1433708667755127,-1.3340137761882325,-2.5263946692096155,6.1141371605689905,1.016921043395996,-2.77350885072817
1708436969.1225,-2.143293857574463,-1.3340213310769578,-2.5263989607440394,6.114044654160299,1.0169659852981567,-2.77354604402651
1708436969.1245031,-2.143282413482666,-1.3339943152717133,-2.526403252278463,6.114032733231344,1.0169405937194824,-2.7734840551959437
1708436969.1264973,-2.143249750137329,-1.3340061467937012,-2.526452366505758,6.113952266960897,1.016928791999817,-2.7734747568713587
1708436969.128507,-2.143266439437866,-1.333964855676033,-2.526419464741842,6.113855826645651,1.0169495344161987,-2.7734394709216517
1708436969.130493,-2.1432507038116455,-1.3339856576970597,-2.526403252278463,6.113852250366964,1.0169813632965088,-2.773461643849508
1708436969.1324856,-2.143263101577759,-1.333969147210457,-2.5263739267932337,6.1138590452964685,1.0169782638549805,-2.77345854440798
1708436969.1345305,-2.1431827545166016,-1.3339331311038514,-2.526423756276266,6.113781440048971,1.0170023441314697,-2.7734556833850306
1708436969.1365025,-2.1431779861450195,-1.3339820516160508,-2.5264316240893763,6.113759028702535,1.017005205154419,-2.7734792868243616
1708436969.1385074,-2.143157720565796,-1.3339331311038514,-2.526419464741842,6.11367820480422,1.0169645547866821,-2.7734766642199915
1708436969.1404989,-2.143146276473999,-1.3339331311038514,-2.5264514128314417,6.113642442017355,1.0170097351074219,-2.7735357920276087
1708436969.142484,-2.1431100368499756,-1.333884821539261,-2.5264108816729944,6.113615262299337,1.017026424407959,-2.7734394709216517
1708436969.1445322,-2.143122434616089,-1.3339096915772934,-2.5264230410205286,6.113558518677511,1.017021894454956,-2.7734885851489466
1708436969.1465418,-2.1431314945220947,-1.3339062494090577,-2.5264273325549524,6.113519656449117,1.0169707536697388,-2.7734318415271204
1708436969.148571,-2.1430985927581787,-1.3339459610036393,-2.5264273325549524,6.113500106125631,1.0170338153839111,-2.7734766642199915
1708436969.150505,-2.1431031227111816,-1.3339666438153763,-2.5264392534839075,6.113366234093466,1.0170505046844482,-2.7734809557544153
1708436969.1524856,-2.143033027648926,-1.333963082437851,-2.52643067041506,6.113346683769979,1.0170578956604004,-2.7734645048724573
1708436969.1544929,-2.143059730529785,-1.3338778924993058,-2.526479784642355,6.113368499069967,1.0170005559921265,-2.7734301725970667
1708436969.156504,-2.1430420875549316,-1.3338976961425324,-2.526442591344015,6.113303530007162,1.0170460939407349,-2.7734482924090784
1708436969.1584914,-2.143064260482788,-1.33391489208255,-2.5264514128314417,6.11328803279952,1.0170488357543945,-2.7734482924090784
1708436969.1605046,-2.143005847930908,-1.3338488203338166,-2.526442591344015,6.113271701126852,1.0170791149139404,-2.7734690348254603
1708436969.1624963,-2.143003225326538,-1.3339112412980576,-2.526475254689352,6.113223898201742,1.0170655250549316,-2.7734437624560755
1708436969.1645067,-2.142958164215088,-1.3338745099357148,-2.526470963154928,6.113201129227438,1.0170865058898926,-2.7734602133380335
1708436969.166498,-2.142990827560425,-1.3338583272746583,-2.526442591344015,6.113128292351522,1.0170685052871704,-2.7734275499926966
1708436969.1684914,-2.1429600715637207,-1.3338788759759446,-2.5264721552478235,6.113136994629659,1.0170938968658447,-2.7734556833850306
1708436969.1704977,-2.1429476737976074,-1.3338659715703507,-2.526499334965841,6.113101231842794,1.0170774459838867,-2.7734809557544153
1708436969.1724954,-2.142951011657715,-1.3338504445603867,-2.5265079180346888,6.11303590515212,1.0170729160308838,-2.7734230200396937
1708436969.1744902,-2.1429193019866943,-1.3338711720756073,-2.5265329519854944,6.113045799523153,1.017098307609558,-2.7734363714801233
1708436969.1765068,-2.1429057121276855,-1.3338788908771058,-2.526466433201925,6.1130010960395715,1.0171056985855103,-2.7734559218036097
1708436969.1784904,-2.1429238319396973,-1.3338669699481507,-2.526470963154928,6.112965333252706,1.017122745513916,-2.7734721342669886
1708436969.1804943,-2.142876148223877,-1.3338711720756073,-2.526499334965841,6.112949001580038,1.0171318054199219,-2.7734809557544153
1708436969.1825275,-2.1429035663604736,-1.3338299703649064,-2.5264697710620325,6.112954604416647,1.0171210765838623,-2.773501698170797
1708436969.184502,-2.1429035663604736,-1.3338470172933121,-2.5264950434314173,6.1129140732581995,1.0171256065368652,-2.7734602133380335
1708436969.1864982,-2.142885208129883,-1.3338150095990677,-2.52651554742922,6.112841117172994,1.0171419382095337,-2.7734928766833704
1708436969.1884918,-2.1428682804107666,-1.3338021647981186,-2.52651554742922,6.112866508751669,1.0171092748641968,-2.7734766642199915
1708436969.1904874,-2.1428399085998535,-1.333797888164856,-2.526511255894796,6.112814175873556,1.0171419382095337,-2.773518149052755
1708436969.192516,-2.142801523208618,-1.333794118171074,-2.5264697710620325,6.112704503327169,1.0171046257019043,-2.7734628359424036
1708436969.1944985,-2.1428239345550537,-1.3337823015502472,-2.52651554742922,6.112795817642965,1.0171464681625366,-2.773518149052755
1708436969.196497,-2.1428239345550537,-1.3337908399156113,-2.526531998311178,6.112681376724996,1.0170966386795044,-2.773518149052755
1708436969.1984973,-2.142747163772583,-1.3337984842113038,-2.5265026728259485,6.112681376724996,1.0171629190444946,-2.773534361516134
1708436969.200497,-2.1427934169769287,-1.3338070225766678,-2.526555840169088,6.11265109756545,1.0171583890914917,-2.7735372225390833
1708436969.2025168,-2.142725706100464,-1.3337865632823487,-2.52651554742922,6.112593400269308,1.0171751976013184,-2.773592774068014
1708436969.204508,-2.1427674293518066,-1.3337789189866562,-2.526499334965841,6.112578260689535,1.017100214958191,-2.7735639254199427
1708436969.2065027,-2.1427345275878906,-1.3338027459434052,-2.526527706776754,6.112549769669332,1.0171616077423096,-2.773567501698629
1708436969.2084966,-2.1427524089813232,-1.333770365720131,-2.5265069643603724,6.112534987717428,1.0171464681625366,-2.773621145878927
1708436969.2104883,-2.142756938934326,-1.33370095611129,-2.526536528264181,6.112490165024557,1.0171706676483154,-2.773604694996969
1708436969.2125313,-2.1426913738250732,-1.333790810113289,-2.5265310446368616,6.112495410233297,1.0171570777893066,-2.7736991087542933
1708436969.2145002,-2.1426913738250732,-1.333770365720131,-2.5265396277057093,6.112406599312582,1.0171735286712646,-2.7736642996417444
1708436969.2165275,-2.142688035964966,-1.3337713491967698,-2.5265069643603724,6.112447726517477,1.0171902179718018,-2.7737467924701136
1708436969.2184892,-2.142695903778076,-1.3338113290122529,-2.526527706776754,6.112407672196188,1.0171616077423096,-2.7737377325641077
1708436969.2205083,-2.142713785171509,-1.3337461960366745,-2.5265515486346644,6.112338769226827,1.0171706676483154,-2.773762289677755
1708436969.2225108,-2.1426312923431396,-1.3337267351201554,-2.5265234152423304,6.112318146019735,1.0172066688537598,-2.7738075892077845
1708436969.2245114,-2.142669677734375,-1.3337461960366745,-2.526543919240133,6.112312066345968,1.0171902179718018,-2.7738266626941126
1708436969.2265043,-2.142643690109253,-1.3338037145188828,-2.5265069643603724,6.112259495049276,1.017176628112793,-2.773857895527975
1708436969.228523,-2.142599582672119,-1.333795116548874,-2.52657658258547,6.112255084305563,1.0171735286712646,-2.773841444646017
1708436969.230479,-2.1426331996917725,-1.3337376874736329,-2.5265472571002405,6.1122238514717,1.0171812772750854,-2.7738824526416224
1708436969.232532,-2.1426005363464355,-1.333758444791176,-2.5265472571002405,6.112216222077169,1.0171598196029663,-2.7739060560809534
1708436969.2345028,-2.1426174640655518,-1.3338037741235276,-2.5265148321734827,6.112192380219259,1.017214298248291,-2.7738969961749476
1708436969.236495,-2.1426174640655518,-1.3337670874646683,-2.526493851338522,6.112192380219259,1.0171676874160767,-2.7739573160754603
1708436969.2384846,-2.1425633430480957,-1.3337309968522568,-2.5265234152423304,6.11214445808486,1.0172053575515747,-2.7739363352404993
1708436969.2404797,-2.1425721645355225,-1.3337182265571137,-2.526517931615011,6.112128245621481,1.0172233581542969,-2.7739935556994837
1708436969.2425094,-2.142564296722412,-1.3337515157512208,-2.5265234152423304,6.112126099854269,1.0172216892242432,-2.7739830652820032
1708436969.244506,-2.142519950866699,-1.3336900782636185,-2.526554886494772,6.112031328469076,1.0172593593597412,-2.77405816713442
1708436969.2465541,-2.142551898956299,-1.3337062460235138,-2.5265472571002405,6.112036692887106,1.017209768295288,-2.7740522066699427
1708436969.2485244,-2.1425564289093018,-1.3337028932622452,-2.526554886494772,6.111996638565817,1.0172457695007324,-2.774066750203268
1708436969.250479,-2.1425211429595947,-1.3337062311223526,-2.526554886494772,6.111980306893148,1.0172245502471924,-2.774179283772604
1708436969.2524865,-2.142537832260132,-1.333690957432129,-2.5265753904925745,6.111924874573507,1.0172381401062012,-2.7742021719561976
1708436969.2545187,-2.1425132751464844,-1.3337514859488984,-2.5265591780291956,6.111932265549459,1.0172216892242432,-2.774262015019552
1708436969.2565048,-2.1424849033355713,-1.3337798428586503,-2.5265753904925745,6.11191605308608,1.0172126293182373,-2.7742605845080774
1708436969.2584949,-2.142476797103882,-1.3336943548968812,-2.526554886494772,6.111926066666403,1.0172667503356934,-2.774345938359396
1708436969.2604885,-2.1424520015716553,-1.3337309968522568,-2.526604239140646,6.1119422791297815,1.0172290802001953,-2.774393622075216
1708436969.262505,-2.142428159713745,-1.3336986017278214,-2.526554886494772,6.111917245178976,1.0172502994537354,-2.7743926684008997
1708436969.264481,-2.1424450874328613,-1.3337114316276093,-2.526550356541769,6.111878382950582,1.0172621011734009,-2.7744906584369105
1708436969.2664979,-2.1424520015716553,-1.3336539429477234,-2.526595417653219,6.111811864167013,1.0172576904296875,-2.7745516935931605
1708436969.2684863,-2.142392873764038,-1.3336747598699112,-2.5266292730914515,6.111882793694296,1.0172576904296875,-2.7745819727527063
1708436969.2704835,-2.142467498779297,-1.3336834025434037,-2.526550356541769,6.111808645516195,1.017253041267395,-2.7745967547046106
1708436969.2725058,-2.142441749572754,-1.3337471944144745,-2.526578966771261,6.111789929657736,1.0172621011734009,-2.7746992746936243
1708436969.2745097,-2.1423840522766113,-1.3337158870748063,-2.526611630116598,6.111757385521688,1.0172607898712158,-2.7747095266925257
1708436969.276488,-2.1423840522766113,-1.3337275844863434,-2.5266247431384485,6.11179136016921,1.0173403024673462,-2.774778668080465
1708436969.2784958,-2.1423749923706055,-1.333670438533165,-2.526550356541769,6.111696469574728,1.0173267126083374,-2.7748261133777063
1708436969.2804832,-2.142392873764038,-1.3336668771556397,-2.526619259511129,6.1117379544074915,1.0172772407531738,-2.774858061467306
1708436969.282519,-2.1423726081848145,-1.3336344820312043,-2.526595417653219,6.111677872925558,1.017334222793579,-2.7748897711383265
1708436969.2844987,-2.142324924468994,-1.3336995852044602,-2.526578966771261,6.111726987152853,1.0173512697219849,-2.77494985262026
1708436969.2864985,-2.1423161029815674,-1.3336258244565506,-2.526628080998556,6.1116864559944055,1.0172849893569946,-2.7750473658191126
1708436969.2884872,-2.1423158645629883,-1.3336258244565506,-2.526623551045553,6.111605155258932,1.0173132419586182,-2.775029246007101
1708436969.2904937,-2.142292022705078,-1.3336952340653916,-2.526611630116598,6.111594426422872,1.0173267126083374,-2.7750278154956263
1708436969.2924867,-2.142345428466797,-1.3336301159909745,-2.526607338582174,6.1116182682807825,1.017346739768982,-2.7750960032092493
1708436969.2945032,-2.142301082611084,-1.3336635392955323,-2.526640001927511,6.111603247910299,1.0173331499099731,-2.775142017995016
1708436969.2965727,-2.142329454421997,-1.3336790365031739,-2.526607338582174,6.111570346146383,1.017370343208313,-2.7752230803119105
1708436969.2984905,-2.142268180847168,-1.3336996001056214,-2.5266149679767054,6.111578929215231,1.0173659324645996,-2.7752304712878626
1708436969.300519,-2.14231014251709,-1.333650679593422,-2.526639763508932,6.111526953964987,1.0173569917678833,-2.7752824465381067
1708436969.302481,-2.142279624938965,-1.3337114316276093,-2.526623551045553,6.111546742707052,1.0173778533935547,-2.775276486073629
1708436969.3045063,-2.142263650894165,-1.3336268377355118,-2.5266311804400843,6.1115020392234705,1.0173615217208862,-2.7754042784320276
1708436969.3065329,-2.142274856567383,-1.3336797219565888,-2.5266431013690394,6.1115020392234705,1.0173496007919312,-2.775407854710714
1708436969.3085067,-2.1423189640045166,-1.333651677971222,-2.5265942255603235,6.111502873688497,1.0173568725585938,-2.775424305592672
1708436969.3104918,-2.1422932147979736,-1.3336344820312043,-2.5266268889056605,6.1115314839179895,1.0173568725585938,-2.7754388491259974
1708436969.3124845,-2.142261505126953,-1.3336268377355118,-2.5266509691821497,6.111486661225118,1.0173733234405518,-2.7754836718188685
1708436969.3144886,-2.1422250270843506,-1.3336430352977295,-2.5266431013690394,6.111462819367208,1.017397403717041,-2.7754717508899134
1708436969.3164787,-2.1422579288482666,-1.3336711388877411,-2.5266881624804896,6.111466038018026,1.0174140930175781,-2.7754583994494837
1708436969.3185241,-2.1422994136810303,-1.3336711537889023,-2.5266431013690394,6.111454117089071,1.017418622970581,-2.775421206151144
1708436969.3204904,-2.1422410011291504,-1.3336668771556397,-2.5266509691821497,6.111450660019674,1.0174427032470703,-2.775421206151144
1708436969.322515,-2.1422340869903564,-1.3336473119309922,-2.5266714731799524,6.1114680645759485,1.017423152923584,-2.775400225316183
1708436969.3244917,-2.1421797275543213,-1.333675430422165,-2.5266671816455286,6.111370432167806,1.0174753665924072,-2.7754419485675257
1708436969.3264937,-2.142188787460327,-1.3336103123477479,-2.5266552607165735,6.111410844116964,1.0174262523651123,-2.7754254976855677
1708436969.3284924,-2.1421730518341064,-1.3336473119309922,-2.5266836325274866,6.111427056580343,1.0174472332000732,-2.7753809134112757
1708436969.3304825,-2.1421773433685303,-1.3336668771556397,-2.526691261922018,6.111389863282003,1.0174472332000732,-2.7753639856921595
1708436969.3325055,-2.142197847366333,-1.3336517077735444,-2.526723925267355,6.111370432167806,1.0174753665924072,-2.775360886250631
1708436969.3345132,-2.142120838165283,-1.3336145889810105,-2.526670519505636,6.111325728684225,1.0174753665924072,-2.7753081957446497
1708436969.336475,-2.1421525478363037,-1.333638758664467,-2.5267446676837366,6.111383425980367,1.0174620151519775,-2.7753081957446497
1708436969.3385165,-2.142164945602417,-1.3336840879968186,-2.526654068623678,6.1113672135169885,1.0175162553787231,-2.7753053347217005
1708436969.3404894,-2.14219069480896,-1.333638758664467,-2.526682440434591,6.111362921982565,1.0174787044525146,-2.775278155003683
1708436969.3424826,-2.1421217918395996,-1.3336268377355118,-2.526686731969015,6.111346232682028,1.0174787044525146,-2.775200668965475
1708436969.3445697,-2.142112970352173,-1.3336060357144852,-2.526736084614889,6.111318099289694,1.0174787044525146,-2.7751970926867884
1708436969.3465507,-2.142138719558716,-1.333635465507843,-2.526691261922018,6.111318099289694,1.0175026655197144,-2.775165859852926
1708436969.348605,-2.1421217918395996,-1.3336145740798493,-2.526731554661886,6.111331212311544,1.0174819231033325,-2.775078360234396
1708436969.3505135,-2.142112970352173,-1.3335973781398316,-2.5267065207110804,6.111331212311544,1.0174938440322876,-2.775097910557882
1708436969.3525157,-2.1421093940734863,-1.3336145889810105,-2.526710812245504,6.111344206124105,1.017493724822998,-2.774982515965597
1708436969.3545017,-2.1421024799346924,-1.333651677971222,-2.526710812245504,6.11133228519515,1.0175387859344482,-2.7749794165240687
1708436969.356505,-2.1421308517456055,-1.3336635094932099,-2.526710812245504,6.111323582917013,1.017529845237732,-2.7749856154071253
1708436969.3584912,-2.1421265602111816,-1.3336182993701478,-2.526727263127462,6.111311661988058,1.0175641775131226,-2.774911944066183
1708436969.3604963,-2.1420323848724365,-1.3336030852845688,-2.5267391840564173,6.111266958504476,1.0175507068634033,-2.7748475710498255
1708436969.362474,-2.142106771469116,-1.3336354804090043,-2.5267556349383753,6.111234414368429,1.0175461769104004,-2.7747681776629847
1708436969.3645194,-2.14205265045166,-1.3336396676352997,-2.5267348925219935,6.1112475273902795,1.0175251960754395,-2.774684254323141
1708436969.366477,-2.142073154449463,-1.3336060357144852,-2.5267751852618616,6.111244308739462,1.0175628662109375,-2.774607006703512
1708436969.3684952,-2.142057180404663,-1.3336189550212403,-2.5267675558673304,6.11126064041213,1.0175868272781372,-2.7745559851275843
1708436969.3704908,-2.1420483589172363,-1.3336103123477479,-2.526750151311056,6.111191260605612,1.0176454782485962,-2.774409596120016
1708436969.3724895,-2.1420819759368896,-1.3336592328599473,-2.5268002192126673,6.1112780449684045,1.0175868272781372,-2.7742701212512415
1708436969.3745067,-2.142024517059326,-1.33359448731456,-2.5267348925219935,6.111171352654257,1.0175704956054688,-2.7742353121386927
1708436969.3764856,-2.1420912742614746,-1.3337005984834214,-2.526782814656393,6.111159550934591,1.0175987482070923,-2.7740817705737513
1708436969.3784916,-2.142045736312866,-1.3336679351380845,-2.52675444284548,6.111156332283773,1.017606496810913,-2.773970905934469
1708436969.380496,-2.14202880859375,-1.3336189550212403,-2.5267913977252405,6.111130940705099,1.017606496810913,-2.7737446467029017
1708436969.382484,-2.142073154449463,-1.3336146038821717,-2.5267837683307093,6.111127841263571,1.0176184177398682,-2.773641888295309
1708436969.3844957,-2.142066240310669,-1.3336396676352997,-2.5267871061908167,6.111132252007284,1.0176093578338623,-2.7734654585467737
1708436969.3864837,-2.14199161529541,-1.3336189848235627,-2.526770893727438,6.111139762192526,1.0176184177398682,-2.773313824330465
1708436969.388509,-2.1420300006866455,-1.3336354804090043,-2.5267871061908167,6.111087667732992,1.017626166343689,-2.7731199900256556
1708436969.390497,-2.142037868499756,-1.333667815928795,-2.5267913977252405,6.111083376198568,1.0176829099655151,-2.7729931513415735
1708436969.3924873,-2.1420254707336426,-1.333606020813324,-2.526848379765646,6.111099946289816,1.0177173614501953,-2.7728856245623987
1708436969.394501,-2.142063856124878,-1.3336274337819596,-2.5267959276782435,6.111092078476705,1.0176993608474731,-2.772663418446676
1708436969.3964965,-2.1419711112976074,-1.3336516630700608,-2.526832167302267,6.111083376198568,1.0176620483398438,-2.772475783024923
1708436969.3985074,-2.142037868499756,-1.3336145889810105,-2.5268071333514612,6.1111042378242395,1.0176904201507568,-2.772316280995504
1708436969.4005034,-2.1420016288757324,-1.3336189699224015,-2.526799027119772,6.111067163735189,1.017723798751831,-2.772156063710348
1708436969.4024901,-2.1419970989227295,-1.3336473119309922,-2.526839558278219,6.11108015754775,1.0176740884780884,-2.771923844014303
1708436969.4044995,-2.141984701156616,-1.3336797219565888,-2.5268071333514612,6.1110267517860315,1.017723798751831,-2.771764341984884
1708436969.4064925,-2.1420388221740723,-1.3336473119309922,-2.5268059412585657,6.1110572693641565,1.0177028179168701,-2.7715240160571497
1708436969.4085124,-2.1420016288757324,-1.3336189550212403,-2.526851479207174,6.11108015754775,1.0176894664764404,-2.771287266408102
1708436969.410486,-2.142010450363159,-1.3337005388787766,-2.5267983118640345,6.1110607264335535,1.0177429914474487,-2.7710896174060267
1708436969.412482,-2.1419970989227295,-1.3336145740798493,-2.5268920103656214,6.111044156342306,1.0177552700042725,-2.7708409468280237
1708436969.4144955,-2.141989231109619,-1.33360310018573,-2.5268591086017054,6.111047613411703,1.0177416801452637,-2.7705958525287073
1708436969.4164824,-2.141928195953369,-1.3336231422475358,-2.5268428961383265,6.111022341042318,1.0177249908447266,-2.7703726927386683
1708436969.4185119,-2.1419618129730225,-1.333647297029831,-2.5268667379962366,6.111020433693685,1.0177626609802246,-2.7701132933246058
1708436969.4205065,-2.1420071125030518,-1.3336473119309922,-2.5268753210650843,6.111044156342306,1.0177717208862305,-2.7698116938220423
1708436969.422511,-2.1419663429260254,-1.333623157148697,-2.5269036928759974,6.11105631568984,1.0177702903747559,-2.7695847193347376
1708436969.424526,-2.1419708728790283,-1.333692566757538,-2.5268920103656214,6.11099539974288,1.0177748203277588,-2.7693446318255823
1708436969.4265318,-2.1419506072998047,-1.3336439591697236,-2.5268994013415735,6.111032235413351,1.0177748203277588,-2.7690468470202845
1708436969.4285047,-2.1419618129730225,-1.3336268228343506,-2.5269115606891077,6.110986697464742,1.0177702903747559,-2.768716875706808
1708436969.4305036,-2.141930103302002,-1.3336268377355118,-2.526923481618063,6.111045348435201,1.0178271532058716,-2.7684574762927454
1708436969.4325027,-2.141925573348999,-1.3336030554822464,-2.526878897343771,6.111027943878927,1.0177825689315796,-2.7681949774371546
1708436969.4345117,-2.141953945159912,-1.3336473268321534,-2.526881996785299,6.1110583422477625,1.0178108215332031,-2.76789361635317
1708436969.436511,-2.1419177055358887,-1.333659217958786,-2.5269323031054896,6.1110291359718225,1.0178602933883667,-2.7675567309008997
1708436969.4384987,-2.1419389247894287,-1.3336103123477479,-2.526898447667257,6.110959636956014,1.017804741859436,-2.767263952885763
1708436969.4404862,-2.141907215118408,-1.333655835395195,-2.5269277731524866,6.110952007561483,1.0178499221801758,-2.766939703618185
1708436969.44251,-2.141918420791626,-1.3336189550212403,-2.526898447667257,6.11096082904891,1.0178499221801758,-2.766686026250021
1708436969.444508,-2.1419026851654053,-1.3335868430188675,-2.526935640965597,6.111008393555441,1.0178618431091309,-2.766386095677511
1708436969.4465656,-2.1418709754943848,-1.3336558800986786,-2.526939932500021,6.1109564183051965,1.017915964126587,-2.7660658995257776
1708436969.4485254,-2.1418755054473877,-1.3336430501988907,-2.5269463698016565,6.110993253975668,1.017890453338623,-2.765752379094259
1708436969.4505098,-2.1418633460998535,-1.3336354804090043,-2.526947323475973,6.110972630768575,1.0178905725479126,-2.765383545552389
1708436969.4525473,-2.1418631076812744,-1.333650679593422,-2.5268972555743616,6.110916006356039,1.017906904220581,-2.7650185267077845
1708436969.4544866,-2.141850709915161,-1.3336225611022492,-2.5269463698016565,6.110932338028707,1.0179448127746582,-2.76463228860964
1708436969.4565167,-2.141817808151245,-1.3336146038821717,-2.526937786732809,6.110949742584982,1.0179188251495361,-2.7642996946917933
1708436969.4584892,-2.141805410385132,-1.3336668771556397,-2.5269420782672327,6.110900628357687,1.0179475545883179,-2.7638962904559534
1708436969.4605005,-2.141777992248535,-1.3336430352977295,-2.527048651372091,6.110904919892111,1.0179550647735596,-2.7635367552386683
1708436969.462504,-2.141787052154541,-1.3336387437633057,-2.5270074049579065,6.110841023712911,1.0179007053375244,-2.7632139364825647
1708436969.4644976,-2.1417667865753174,-1.3336103123477479,-2.5270567576037806,6.110820400505819,1.0179550647735596,-2.762820068989889
1708436969.4665112,-2.1417622566223145,-1.3336438697627564,-2.5270775000201624,6.11079620102004,1.0179836750030518,-2.7624483744250696
1708436969.4685502,-2.1417596340179443,-1.333650679593422,-2.526990000401632,6.110805022507467,1.01796555519104,-2.762038532887594
1708436969.4704945,-2.1417031288146973,-1.3336344522288819,-2.5270524660693567,6.110769259720602,1.017991065979004,-2.7617338339435022
1708436969.4725392,-2.141657829284668,-1.3337081980756302,-2.527108971272604,6.110728847771444,1.0179941654205322,-2.7613077799426478
1708436969.4745,-2.14164662361145,-1.3336549413255234,-2.5270989576922815,6.1106265662010095,1.0180317163467407,-2.7609272638904017
1708436969.476573,-2.1416101455688477,-1.333720089202263,-2.5270589033709925,6.110636818199911,1.018034815788269,-2.760474507008688
1708436969.4784942,-2.1415445804595947,-1.3337081682733078,-2.5270913282977503,6.110633241921224,1.0180600881576538,-2.760103766118185
1708436969.4804935,-2.1415512561798096,-1.3336592030576249,-2.5270989576922815,6.1105559943015955,1.0181082487106323,-2.759677235280172
1708436969.482523,-2.1415352821350098,-1.3336549562266846,-2.5270946661578577,6.1105984328086755,1.018087387084961,-2.759253803883688
1708436969.4845169,-2.1414706707000732,-1.3336747747710724,-2.5271318594561976,6.1105127213294885,1.018087387084961,-2.758869473134176
1708436969.486522,-2.141446828842163,-1.3336420369199296,-2.5271721521960657,6.110448467522421,1.0181324481964111,-2.758444611226217
1708436969.4884841,-2.1414151191711426,-1.3336582493833085,-2.527123037968771,6.11047791221694,1.0181732177734375,-2.7579880396472376
1708436969.490483,-2.1413514614105225,-1.3336216074279328,-2.527159039174215,6.110434520035543,1.0181896686553955,-2.7574971357928675
1708436969.4925432,-2.1412858963012695,-1.3337233376554032,-2.527175251637594,6.110406029015341,1.0181924104690552,-2.7571070829974573
1708436969.4944842,-2.1412675380706787,-1.3336952042630692,-2.5271909872638147,6.110353696137228,1.018200159072876,-2.756662670766012
1708436969.4965034,-2.141201972961426,-1.3337267351201554,-2.527210299168722,6.1103625176246545,1.0182197093963623,-2.756235424672262
1708436969.4985209,-2.141122579574585,-1.3337309968522568,-2.5272191206561487,6.110261547356405,1.0182691812515259,-2.7558072249041956
1708436969.5005023,-2.1410863399505615,-1.3337556731751938,-2.527288023625509,6.110283124237814,1.0183019638061523,-2.755263868962423
1708436969.5024993,-2.1410884857177734,-1.3337462109378357,-2.5272954146014612,6.1101571200187585,1.0183011293411255,-2.754894797001974
1708436969.504515,-2.1410744190216064,-1.3337547940066834,-2.5273521582232874,6.110117780953207,1.0183038711547852,-2.7543631235705774
1708436969.5065336,-2.1409354209899902,-1.333741934304573,-2.5273433367358606,6.110061514168539,1.018341064453125,-2.7539895216571253
1708436969.5085168,-2.140866279602051,-1.3337960702231904,-2.5274086634265345,6.110039698868551,1.0183942317962646,-2.753540817891256
1708436969.5104926,-2.140805959701538,-1.3338079911521454,-2.5273762384997767,6.109984504967489,1.0183639526367188,-2.7530105749713343
1708436969.512512,-2.1407463550567627,-1.3337865483811875,-2.5273991266833704,6.109862434654989,1.018388032913208,-2.752604309712545
1708436969.5144892,-2.1406679153442383,-1.3338183921626587,-2.5274274984942835,6.109763371735372,1.018399953842163,-2.752101008092062
1708436969.5165212,-2.140632390975952,-1.333854616885521,-2.527422014866964,6.109727728157797,1.01846444606781,-2.7516716162311
1708436969.5185072,-2.1405563354492188,-1.333814100628235,-2.527475182210104,6.109607088356771,1.0184555053710938,-2.7511447111712855
1708436969.5204866,-2.140476942062378,-1.3338669550469895,-2.5274997393237513,6.109559166222372,1.018484115600586,-2.750706736241476
1708436969.5225172,-2.1403398513793945,-1.3338497889092942,-2.527572218571798,6.109473454743185,1.0185621976852417,-2.7502458731280726
1708436969.5244973,-2.14025616645813,-1.3339310598424454,-2.5275591055499476,6.10935257652358,1.0185233354568481,-2.749794308339254
1708436969.5265253,-2.140174627304077,-1.333877907400467,-2.527611796055929,6.109163391381063,1.0185728073120117,-2.749289337788717
1708436969.5284994,-2.14005970954895,-1.3339343529990693,-2.527623716984884,6.109076130181112,1.0186315774917603,-2.748878065739767
1708436969.530525,-2.1399636268615723,-1.3339624565890809,-2.5276642481433313,6.109017836838522,1.0186582803726196,-2.748349730168478
1708436969.532546,-2.1398773193359375,-1.3340190064958115,-2.5277074019061487,6.108800518303671,1.0186973810195923,-2.747977081929342
1708436969.53451,-2.1397793292999268,-1.3339734238437195,-2.527698818837301,6.108739483147421,1.0186973810195923,-2.7474504152881067
1708436969.5364895,-2.1396660804748535,-1.3339814257672806,-2.5277231375323694,6.108611333161154,1.0187005996704102,-2.747057024632589
1708436969.5385163,-2.1394994258880615,-1.3340495389750977,-2.527754608784811,6.108397829323568,1.018795132637024,-2.746578041707174
1708436969.5405211,-2.1393487453460693,-1.3341102612069626,-2.5277786890613,6.108238327294149,1.018768072128296,-2.7460933367358606
1708436969.5424948,-2.1392102241516113,-1.334057242875435,-2.5278800169574183,6.108119714051046,1.0188539028167725,-2.745629612599508
1708436969.5445096,-2.139054775238037,-1.3341708940318604,-2.5278592745410364,6.107927429467001,1.018865704536438,-2.745173756276266
1708436969.5465882,-2.1389265060424805,-1.3341581237367173,-2.527886692677633,6.107740390091696,1.018897533416748,-2.7447410265551966
1708436969.548536,-2.1387202739715576,-1.3341938120177765,-2.527964178715841,6.107569682389059,1.0189380645751953,-2.74431020418276
1708436969.5505335,-2.1385748386383057,-1.3341930520585557,-2.528019730244772,6.107320773392477,1.0190099477767944,-2.7438374201404017
1708436969.5525439,-2.138371706008911,-1.334196464424469,-2.5280030409442347,6.107109772949972,1.0190417766571045,-2.743484083806173
1708436969.5545037,-2.1381711959838867,-1.334229053264,-2.5280500094043177,6.106947648316183,1.0190807580947876,-2.742976967488424
1708436969.556494,-2.138007879257202,-1.334249423151352,-2.52813965479006,6.1067120907600305,1.0191259384155273,-2.742487970982687
1708436969.558502,-2.1377933025360107,-1.3343005937388916,-2.5282095114337366,6.106425869255819,1.0192281007766724,-2.7420182863818567
1708436969.5605001,-2.137543201446533,-1.3343607050231476,-2.5282321611987513,6.10627709606246,1.0192582607269287,-2.741582457219259
1708436969.5624938,-2.137345314025879,-1.3343487691930314,-2.528238836918966,6.105985748558798,1.019294261932373,-2.7411707083331507
1708436969.564518,-2.1370689868927,-1.3344286990216752,-2.5283151308642786,6.105712997704305,1.0194083452224731,-2.740772549306051
1708436969.5664845,-2.1368257999420166,-1.3344287139228364,-2.528379503880636,6.1054518101509,1.0194638967514038,-2.7403395811664026
1708436969.568483,-2.1365268230438232,-1.3344358813813706,-2.5284557978259485,6.105164873390951,1.0195209980010986,-2.7398772875415247
1708436969.5704741,-2.13627290725708,-1.3345327389291306,-2.528503958378927,6.104866015702047,1.0195798873901367,-2.739453379307882
1708436969.5724802,-2.136017322540283,-1.3345280301621933,-2.5285759607898157,6.1045464155967615,1.0196564197540283,-2.739074770604269
1708436969.5744872,-2.1356842517852783,-1.3346490275910874,-2.528648916875021,6.104235517769613,1.0196995735168457,-2.73859674135317
1708436969.5765252,-2.135359287261963,-1.3346080493978043,-2.5287163893329065,6.103890645294943,1.0197975635528564,-2.738208595906393
1708436969.5784795,-2.1351022720336914,-1.3346993190101166,-2.528726402913229,6.103511559754171,1.0198441743850708,-2.7378297487842005
1708436969.580499,-2.134737253189087,-1.3347070676139374,-2.5288353602038782,6.103133070259847,1.0198907852172852,-2.737385336552755
1708436969.5825152,-2.13440203666687,-1.334706501369812,-2.5289531389819544,6.102702724724569,1.019963026046753,-2.736969296132223
1708436969.5844796,-2.1340434551239014,-1.33481980979953,-2.5289748350726526,6.1023210165794275,1.0200892686843872,-2.736551825200216
1708436969.5864801,-2.133676767349243,-1.3348513704589386,-2.5290918985949915,6.101889240532675,1.0201570987701416,-2.7361391226397913
1708436969.5884824,-2.1333041191101074,-1.3349231344512482,-2.529163662587301,6.101507532387533,1.0202622413635254,-2.7357505003558558
1708436969.5905166,-2.132967710494995,-1.334966854458191,-2.529275957738058,6.1010358212287805,1.0203372240066528,-2.735410753880636
1708436969.592494,-2.1326074600219727,-1.33500291526828,-2.529322926198141,6.100597131043234,1.0204046964645386,-2.735051218663351
1708436969.594481,-2.132124423980713,-1.3350659173778077,-2.5294888655291956,6.100143301277914,1.020469307899475,-2.734757725392477
1708436969.59651,-2.1317150592803955,-1.335154579286911,-2.529522482548849,6.099582302361288,1.0205820798873901,-2.734380308781759
1708436969.5984902,-2.131265878677368,-1.3352229756167908,-2.5296435991870325,6.099185454636373,1.0206784009933472,-2.7340598742114466
1708436969.6004932,-2.1307952404022217,-1.3352734756520768,-2.5297964254962366,6.098630296974935,1.0207773447036743,-2.7336908022509974
1708436969.602471,-2.130361795425415,-1.3353203547051926,-2.5298596064196985,6.0981002924735925,1.0209158658981323,-2.733347479497091
1708436969.6045067,-2.1299054622650146,-1.335429848437645,-2.5300329367267054,6.097529995232382,1.020986557006836,-2.733027521763937
1708436969.6065037,-2.129448652267456,-1.335493118768074,-2.5301037470446985,6.096910702973165,1.0211323499679565,-2.7327099482165735
1708436969.6085165,-2.128952980041504,-1.3356252026608963,-2.5302327314959925,6.096406924515524,1.0211907625198364,-2.7324071566211146
1708436969.6105132,-2.1284103393554688,-1.3356681776097794,-2.5303316752063196,6.095881688385763,1.0213454961776733,-2.7321017424212855
1708436969.6125083,-2.1278867721557617,-1.3357364547303696,-2.5304814020739954,6.095212566643514,1.021395206451416,-2.7317853609668177
1708436969.6145005,-2.1273388862609863,-1.3358603578856965,-2.530604426060812,6.094598400383749,1.0215650796890259,-2.731497589741842
1708436969.6164937,-2.126777410507202,-1.3359636676362534,-2.5307372252093714,6.093953478127279,1.0216761827468872,-2.731212917958395
1708436969.618492,-2.12615966796875,-1.3361119639924546,-2.530848805104391,6.09324740150527,1.0218385457992554,-2.730941120778219
1708436969.6204984,-2.125572443008423,-1.3361591559699555,-2.5309882799731653,6.092560875206747,1.0219290256500244,-2.73065692583193
1708436969.6225104,-2.125000476837158,-1.3362949353507538,-2.531128708516256,6.091901409416952,1.0220533609390259,-2.730462376271383
1708436969.6244898,-2.124389886856079,-1.3364058595946808,-2.5312116781817835,6.091198313027181,1.0221784114837646,-2.7301772276507776
1708436969.6264849,-2.1237833499908447,-1.3365304333022614,-2.531372372304098,6.090505230217733,1.0223467350006104,-2.7298923174487513
1708436969.6284938,-2.1231729984283447,-1.3365693253329773,-2.531524960194723,6.0897419331367395,1.0224382877349854,-2.7296279112445276
1708436969.630476,-2.1224846839904785,-1.3367179048112412,-2.5316644350634974,6.089024293213644,1.022591471672058,-2.7294488588916224
1708436969.632484,-2.1219115257263184,-1.336821125154831,-2.5317917505847376,6.088331329613485,1.0227102041244507,-2.7291837374316614
1708436969.6345081,-2.121236801147461,-1.3369277727654953,-2.5319493452655237,6.087586152344503,1.0228636264801025,-2.728976313267843
1708436969.6365077,-2.1205573081970215,-1.337076337342598,-2.5320754686938685,6.086760628014364,1.0230003595352173,-2.728792730961935
1708436969.6384954,-2.1198508739471436,-1.3371915382197876,-2.532215181981222,6.085906493454733,1.0231610536575317,-2.728567663823263
1708436969.6405084,-2.1191561222076416,-1.3373954904130478,-2.5324083010302942,6.085062014847555,1.0232797861099243,-2.728400532399313
1708436969.642492,-2.118429183959961,-1.3374429953149338,-2.5325520674334925,6.084199297219076,1.023431658744812,-2.728243652974264
1708436969.644517,-2.117736339569092,-1.337577686910965,-2.532712523137228,6.083395707398214,1.0235595703125,-2.728107992802755
1708436969.6465213,-2.1169564723968506,-1.3377182644656678,-2.532846752797262,6.082579123764791,1.0237038135528564,-2.727905575429098
1708436969.6485684,-2.1162266731262207,-1.337878019814827,-2.533011261616842,6.0816242573554895,1.0239201784133911,-2.727763001118795
1708436969.650532,-2.1154897212982178,-1.3380093437484284,-2.5332163015948694,6.08078299739913,1.0240254402160645,-2.727635447178976
1708436969.6525047,-2.1146771907806396,-1.3381356012872239,-2.533372227345602,6.07986997345046,1.024165153503418,-2.7274914423571985
1708436969.6545002,-2.1138710975646973,-1.3382956695607682,-2.533588472996847,6.078986155777731,1.0243138074874878,-2.7273429075824183
1708436969.6564994,-2.1130197048187256,-1.338544563656189,-2.5337279478656214,6.0780032751853845,1.0245320796966553,-2.727185074483053
1708436969.6585076,-2.1121928691864014,-1.33870321631942,-2.533957068120138,6.077128517418661,1.0247197151184082,-2.7271717230426233
1708436969.6605117,-2.111421823501587,-1.3389007461122056,-2.5341160933123987,6.076211559563436,1.0248711109161377,-2.7270482222186487
1708436969.6625125,-2.1105167865753174,-1.3389984530261536,-2.534299437199728,6.075177776604452,1.0250684022903442,-2.727025334035055
1708436969.6644976,-2.10965895652771,-1.3392139685205002,-2.534520451222555,6.074233996659078,1.0252381563186646,-2.7269044558154505
1708436969.6665452,-2.1088080406188965,-1.3394215416959305,-2.534760300313131,6.073241579323568,1.0253688097000122,-2.726802651082174
1708436969.6685176,-2.107940912246704,-1.3395934265903016,-2.5349319616900843,6.072271692543783,1.0256034135818481,-2.726734463368551
1708436969.670495,-2.1070220470428467,-1.3397641491940995,-2.535144631062643,6.0712365982826135,1.0257177352905273,-2.726719681416647
1708436969.6725094,-2.1060945987701416,-1.340024785404541,-2.535323444996969,6.070171820908346,1.0258723497390747,-2.7267211119281214
1708436969.6744926,-2.1051766872406006,-1.340150610809662,-2.5355644861804407,6.069026219635763,1.0261188745498657,-2.726713005696432
1708436969.6765015,-2.1041693687438965,-1.3403702092221756,-2.5358381907092493,6.067973840027609,1.0263158082962036,-2.726717535649435
1708436969.6784878,-2.1032443046569824,-1.3405336302569886,-2.536004130040304,6.066931831627645,1.026508092880249,-2.72669226328005
1708436969.6804922,-2.102311134338379,-1.3407936257174988,-2.536163393651144,6.065891611367025,1.0266629457473755,-2.7267285029040735
1708436969.6824992,-2.101348638534546,-1.3409359467080613,-2.5363791624652308,6.064864504128256,1.0268522500991821,-2.726860586796896
1708436969.684503,-2.1003952026367188,-1.3411837083152314,-2.536635700856344,6.06375943401412,1.0270463228225708,-2.726892058049337
1708436969.6864915,-2.0993194580078125,-1.3414194744876404,-2.536855761204855,6.062711465149679,1.0272248983383179,-2.7268858591662806
1708436969.6885138,-2.0983548164367676,-1.3416824054769059,-2.5371647516833704,6.061534154206075,1.027482271194458,-2.726994339619772
1708436969.6904933,-2.0973129272460938,-1.3418606382659455,-2.5373802820788782,6.060415494232931,1.0276578664779663,-2.727075163518087
1708436969.69251,-2.0963072776794434,-1.342062996034958,-2.5375993887530726,6.059213387757101,1.0279316902160645,-2.7271795908557337
1708436969.6944952,-2.0953025817871094,-1.3423426014235993,-2.537896219884054,6.058073031693258,1.0281342267990112,-2.727238480244772
1708436969.6965158,-2.094195604324341,-1.3426446330598374,-2.538135830556051,6.056875097542562,1.0284167528152466,-2.727269474660055
1708436969.6985047,-2.0931766033172607,-1.342861832385399,-2.5383756796466272,6.055683362274923,1.0285910367965698,-2.7273903528796595
1708436969.7005525,-2.0921010971069336,-1.3430152547410508,-2.5386810938464563,6.054475056916036,1.0288164615631104,-2.7275386492358606
1708436969.7025414,-2.091028928756714,-1.3433209371617814,-2.538875404988424,6.053253161698141,1.029051423072815,-2.7276397387133997
1708436969.7045047,-2.0899341106414795,-1.3435835552266617,-2.5391557852374476,6.052007901459493,1.0293127298355103,-2.7277866045581263
1708436969.706524,-2.088838815689087,-1.3439109933427353,-2.539448324834005,6.05076156833724,1.029565453529358,-2.7280057112323206
1708436969.7084923,-2.0876832008361816,-1.3441373717835923,-2.539670769368307,6.049411523133077,1.0298044681549072,-2.728185240422384
1708436969.7104964,-2.086587905883789,-1.3444324892810364,-2.539987627659933,6.048180329590597,1.0301154851913452,-2.7283807436572474
1708436969.7125165,-2.085345983505249,-1.344675437813141,-2.5402920881854456,6.046857702523031,1.0303634405136108,-2.7286298910724085
1708436969.7144928,-2.0842273235321045,-1.3449825507453461,-2.540548626576559,6.045636164933004,1.030635118484497,-2.728804890309469
1708436969.7165086,-2.0831384658813477,-1.3453241002610703,-2.5408645311938685,6.044376480370321,1.030885100364685,-2.729025904332296
1708436969.718481,-2.0819830894470215,-1.3455566477826615,-2.5410783926593226,6.043102133065023,1.0310922861099243,-2.729273859654562
1708436969.720481,-2.08084774017334,-1.3458393973163147,-2.541374985371725,6.041758167534628,1.0313447713851929,-2.7295661608325403
1708436969.7225008,-2.079662322998047,-1.3461499375155945,-2.5416837374316614,6.040478932648458,1.0316500663757324,-2.729781691228048
1708436969.724492,-2.0784642696380615,-1.3464817267707367,-2.542006794606344,6.0391743061836145,1.0319310426712036,-2.7300899664508265
1708436969.7264938,-2.0772993564605713,-1.3468088519624253,-2.5423484484301966,6.037865865021505,1.03224778175354,-2.7304237524615687
1708436969.7284892,-2.076115369796753,-1.3470956695130845,-2.5426557699786585,6.036591398506918,1.032581090927124,-2.730694595967428
1708436969.7304785,-2.0749213695526123,-1.347394199376442,-2.5429349581347864,6.0352587578590295,1.0328327417373657,-2.731056038533346
1708436969.7324886,-2.073713779449463,-1.3477372390082856,-2.543255631123678,6.033909070282736,1.0330842733383179,-2.7313385645495813
1708436969.734494,-2.072500228881836,-1.348055661921837,-2.543563191090719,6.032653915673055,1.0334311723709106,-2.7317000071154993
1708436969.7365322,-2.0713143348693848,-1.3484282356551667,-2.5438793341266077,6.0313453553016565,1.033686876296997,-2.7320244948016565
1708436969.738497,-2.0700786113739014,-1.3487383884242554,-2.5442362467395228,6.029946791916647,1.0340206623077393,-2.732354466115133
1708436969.7405066,-2.0688328742980957,-1.3490285885385056,-2.5445688406573694,6.028631794243612,1.0343456268310547,-2.7327900568591517
1708436969.7425551,-2.0675432682037354,-1.3494451504996796,-2.544887367879049,6.027268516808309,1.0346814393997192,-2.7331984678851526
1708436969.7445173,-2.0662903785705566,-1.34976218760524,-2.5453198591815394,6.025900709420004,1.0349823236465454,-2.733593765889303
1708436969.7465217,-2.0650503635406494,-1.3501134675792237,-2.5456441084491175,6.024560916214742,1.0353235006332397,-2.7339842955218714
1708436969.748545,-2.063754081726074,-1.3504723620465775,-2.545966927205221,6.023221957474508,1.0356556177139282,-2.7344680468188685
1708436969.7504992,-2.0625195503234863,-1.3508557391217728,-2.546359364186422,6.021825063019552,1.0359424352645874,-2.734863583241598
1708436969.7525215,-2.0612573623657227,-1.3511377733996888,-2.5467003027545374,6.020526277809896,1.0362387895584106,-2.735340420399801
1708436969.754488,-2.0600075721740723,-1.351549671297409,-2.5470967928515833,6.019161093025961,1.0365442037582397,-2.7358105818377894
1708436969.7565172,-2.0587387084960938,-1.351880059843399,-2.5474639574633997,6.017789590149679,1.03692626953125,-2.7362223307238978
1708436969.7584784,-2.057502031326294,-1.3522744488767167,-2.5477867762195032,6.016437279969015,1.037266731262207,-2.736661736165182
1708436969.7604945,-2.0562286376953125,-1.3526407194188614,-2.5481630007373255,6.015150534897604,1.037575125694275,-2.737114969884054
1708436969.7624884,-2.0549936294555664,-1.3530573856881638,-2.5485544840442103,6.013846385269918,1.0379780530929565,-2.737631146107809
1708436969.7644827,-2.053704261779785,-1.353443221454956,-2.5489514509784144,6.012479054718771,1.0383083820343018,-2.738119427357809
1708436969.766483,-2.052417516708374,-1.3537682008794327,-2.5493314901935022,6.011049258499899,1.0386377573013306,-2.7386115233050745
1708436969.768478,-2.0511093139648438,-1.3541673582843323,-2.549701754246847,6.009681093483724,1.039040446281433,-2.7391520182238978
1708436969.7704816,-2.0499017238616943,-1.35454115391288,-2.55009109178652,6.008395540505209,1.0393848419189453,-2.7396939436541956
1708436969.7724977,-2.048694372177124,-1.3549565833858033,-2.550422016774313,6.0070311901863,1.0396839380264282,-2.74025541940798
1708436969.774482,-2.047428607940674,-1.35532699645076,-2.550817314778463,6.005716192513265,1.040004014968872,-2.7408438364612024
1708436969.7764902,-2.0461819171905518,-1.3557540488294144,-2.551185194646017,6.004378068238058,1.0403567552566528,-2.741359535847799
1708436969.7784839,-2.0448672771453857,-1.3561759305051346,-2.55156118074526,6.003066289215841,1.0408008098602295,-2.7418981234179896
1708436969.7804754,-2.0436112880706787,-1.356619418864586,-2.5520275274859827,6.001670229225912,1.0411975383758545,-2.742467466984884
1708436969.7825267,-2.0423734188079834,-1.3570380818894883,-2.5523977915393274,6.000312912255087,1.0415892601013184,-2.7430902163134974
1708436969.7844913,-2.0411109924316406,-1.3574725103429337,-2.552870814000265,5.9988897917564294,1.0419563055038452,-2.7436779181109827
1708436969.7865033,-2.039881706237793,-1.3578950476697464,-2.553213659917013,5.997685062676229,1.0424237251281738,-2.7442954222308558
1708436969.7884922,-2.038634777069092,-1.3583380591920395,-2.553662363682882,5.9963087914283655,1.0428112745285034,-2.7449031511889856
1708436969.7904847,-2.0373857021331787,-1.3587162357619782,-2.553972307835714,5.9950153706367395,1.0432292222976685,-2.7456756273852747
1708436969.7924793,-2.0361483097076416,-1.35918244839225,-2.5544214884387415,5.993699896126547,1.0435811281204224,-2.7462950388537806
1708436969.7944953,-2.034911632537842,-1.3595642757466813,-2.55481201807131,5.99238549449996,1.0439401865005493,-2.746845308934347
1708436969.796487,-2.0335817337036133,-1.3600108486464997,-2.555277411137716,5.99101887920455,1.044329047203064,-2.747441832219259
1708436969.7984824,-2.0323281288146973,-1.3604815763286133,-2.555702034627096,5.989658582001486,1.0447922945022583,-2.7481234709369105
1708436969.8004932,-2.031014919281006,-1.360878349547722,-2.556096855794088,5.988298404007711,1.0452085733413696,-2.7487764994250696
1708436969.8024843,-2.02980375289917,-1.361358256345131,-2.556509319935934,5.986960637360372,1.045616865158081,-2.7493160406695765
1708436969.8044844,-2.0285425186157227,-1.361861990099289,-2.557009522114889,5.985691773682394,1.0460293292999268,-2.7500396410571497
1708436969.806486,-2.0273361206054688,-1.3622469317964097,-2.557371441517965,5.984394299774923,1.046445369720459,-2.7507322470294397
1708436969.8085144,-2.0261054039001465,-1.3626301747611542,-2.5577834288226526,5.983104812889852,1.0468469858169556,-2.7514689604388636
1708436969.8104937,-2.0248727798461914,-1.3630602222732087,-2.558239761983053,5.981825339585104,1.0472514629364014,-2.7521286646472376
1708436969.8124852,-2.0236034393310547,-1.363518701200821,-2.5586677233325403,5.9805054543311975,1.047721266746521,-2.752831522618429
1708436969.8144884,-2.022374391555786,-1.363992841248848,-2.559086863194601,5.979205000191488,1.0481948852539062,-2.7535021940814417
1708436969.8164895,-2.0210494995117188,-1.3644884836724778,-2.5596240202533167,5.977886068611898,1.048691987991333,-2.7542153040515345
1708436969.8184896,-2.0198371410369873,-1.3649256539395829,-2.5600102583514612,5.976607787400045,1.0491400957107544,-2.7549002806292933
1708436969.8204873,-2.018540620803833,-1.3654334259084244,-2.5605230967151087,5.975325572281637,1.049626350402832,-2.755679432545797
1708436969.8224838,-2.0172698497772217,-1.3658374708941956,-2.5609946886645716,5.974073517113485,1.0500705242156982,-2.756456438695089
1708436969.8245091,-2.0160086154937744,-1.3663332623294373,-2.5614612738238733,5.972835409432211,1.0504623651504517,-2.757115189229147
1708436969.826516,-2.014669179916382,-1.3667592120221634,-2.5619006792651575,5.971620666771688,1.0508755445480347,-2.757902208958761
1708436969.828505,-2.0134971141815186,-1.367262364631035,-2.562347952519552,5.97034906128005,1.0512769222259521,-2.7586687246905726
1708436969.8305185,-2.012202739715576,-1.3677291584065934,-2.5628159681903284,5.969128834992208,1.0516797304153442,-2.7594872156726282
1708436969.832495,-2.0108745098114014,-1.368235559468605,-2.563334290181295,5.967881667404928,1.05214262008667,-2.760207716618673
1708436969.8345077,-2.0095789432525635,-1.3687624645284195,-2.56384522119631,5.9666597721870325,1.0526736974716187,-2.760962788258688
1708436969.8364832,-2.0082759857177734,-1.369206727748253,-2.5642836729632776,5.965436804085531,1.0532432794570923,-2.761812988911764
1708436969.8384838,-2.007024049758911,-1.369730145936348,-2.5648368040667933,5.9641973851020715,1.053737998008728,-2.7625883261310022
1708436969.840487,-2.0057060718536377,-1.3702396911433716,-2.565336290990011,5.962958085327902,1.0542830228805542,-2.763418499623434
1708436969.8425057,-2.004502296447754,-1.3707309079221268,-2.5657997767077845,5.96170591095046,1.0547757148742676,-2.764137331639425
1708436969.8445327,-2.0031893253326416,-1.3711609554341813,-2.566336218510763,5.960484015732565,1.0552600622177124,-2.765000645314352
1708436969.8465357,-2.0019679069519043,-1.3716503095677872,-2.5668445269214075,5.95920883396224,1.0558280944824219,-2.7657912413226526
1708436969.8485606,-2.0006215572357178,-1.3721639674953003,-2.567385737095968,5.957943784981527,1.0563936233520508,-2.7666292826281946
1708436969.8505497,-1.9994125366210938,-1.3727043134025116,-2.567892376576559,5.956608521729269,1.056970477104187,-2.7674461046801966
1708436969.8525045,-1.9981492757797241,-1.3732554030469437,-2.568387571965353,5.95534239986495,1.0575231313705444,-2.7682698408709925
1708436969.854516,-1.9969050884246826,-1.3737361145070572,-2.568883244191305,5.954193579941549,1.058014988899231,-2.7690895239459437
1708436969.856484,-1.995609998703003,-1.374217004781105,-2.5694766680346888,5.952950703888693,1.0585362911224365,-2.769966427479879
1708436969.8585253,-1.994429111480713,-1.3747860503247757,-2.569947067891256,5.951771604805746,1.0590907335281372,-2.7708609739886683
1708436969.8604908,-1.9931731224060059,-1.3752920490554352,-2.570495907460348,5.9505724785621545,1.059586763381958,-2.771683994923727
1708436969.8625271,-1.9918791055679321,-1.3758397859385987,-2.5709624926196497,5.949335920601644,1.0600905418395996,-2.772574249898092
1708436969.8644974,-1.990670919418335,-1.3763993841460724,-2.5715232531176966,5.948117244034567,1.060668706893921,-2.7734342257129114
1708436969.8664908,-1.989427924156189,-1.3769587886384507,-2.5720139185534876,5.946948277741232,1.06121027469635,-2.7743106524096888
1708436969.8685098,-1.9882111549377441,-1.3774044823697587,-2.5725517908679407,5.94575725772933,1.0617222785949707,-2.7751429716693323
1708436969.8704903,-1.986946940422058,-1.3780052077821274,-2.573054615651266,5.944594013481893,1.0623172521591187,-2.7761436144458216
1708436969.8725016,-1.9857137203216553,-1.3785558950952073,-2.57363206544985,5.9433209774787805,1.0628739595413208,-2.7770069281207483
1708436969.8744977,-1.984450340270996,-1.3790911746076127,-2.5741878191577356,5.942145216255941,1.063495397567749,-2.777915064488546
1708436969.8765,-1.9832098484039307,-1.3796378833106537,-2.5746663252459925,5.940995561867513,1.0641090869903564,-2.7787814776050013
1708436969.8784904,-1.98191499710083,-1.38016793251548,-2.575239960347311,5.939819800644674,1.0646681785583496,-2.7796462217914026
1708436969.8804948,-1.9807381629943848,-1.3807155054858704,-2.575717035924093,5.9386645434196375,1.0652629137039185,-2.7805238405810755
1708436969.8824944,-1.9794979095458984,-1.3812182557633896,-2.5762909094439905,5.93756257274703,1.065781593322754,-2.781466309224264
1708436969.8844929,-1.9783191680908203,-1.3818062257817765,-2.5768020788775843,5.936425792961874,1.066372275352478,-2.7823711077319544
1708436969.8865163,-1.977016806602478,-1.3823529344848176,-2.5773897806750696,5.935288059502401,1.0669705867767334,-2.7832587401019495
1708436969.888506,-1.975744605064392,-1.3829025638154526,-2.5779460112201136,5.9341105101402185,1.0676040649414062,-2.78418213525881
1708436969.890492,-1.9745463132858276,-1.3835716259530564,-2.578538481389181,5.932920801430502,1.068178415298462,-2.7851033846484583
1708436969.8925183,-1.9732674360275269,-1.3841590595296402,-2.579134527836935,5.931787359505453,1.06882905960083,-2.786013666783468
1708436969.8945014,-1.972021460533142,-1.3846318286708375,-2.5797136465655726,5.930601703911581,1.0694489479064941,-2.786912266408102
1708436969.8965013,-1.9707601070404053,-1.3852198880961915,-2.5803428331958216,5.929447877198019,1.0700640678405762,-2.787882391606466
1708436969.8985012,-1.9695008993148804,-1.3857907366803666,-2.5808687845813196,5.928302275925436,1.0707170963287354,-2.7887402216540735
1708436969.9005027,-1.9682649374008179,-1.3863658022931595,-2.5814409891711634,5.927116620331564,1.0712350606918335,-2.789675776158468
1708436969.9024856,-1.9670051336288452,-1.3869287085584183,-2.581984345112936,5.925968038826742,1.0717995166778564,-2.7905615011798304
1708436969.9045253,-1.9657859802246094,-1.387464464907982,-2.582603995000021,5.924830543785848,1.0724091529846191,-2.7915049234973353
1708436969.9064925,-1.9645087718963623,-1.3881285947612305,-2.58323580423464,5.923715102463522,1.0730600357055664,-2.7924326101886194
1708436969.9085152,-1.9631989002227783,-1.388654739861824,-2.583900515233175,5.922473895340719,1.0737460851669312,-2.793319288884298
1708436969.910506,-1.961932897567749,-1.389285684829094,-2.584518019353048,5.921314704209127,1.0745128393173218,-2.794262949620382
1708436969.9125178,-1.9606237411499023,-1.3898351651481171,-2.5851460138904017,5.920214283257284,1.0752242803573608,-2.7951751391040247
1708436969.914502,-1.959338665008545,-1.3904632937959214,-2.58578068414797,5.919030415802755,1.075891375541687,-2.79610783258547
1708436969.9165142,-1.9580655097961426,-1.3910210591605683,-2.5863884131061,5.917962777405538,1.0764662027359009,-2.797055784855978
1708436969.9184966,-1.9567991495132446,-1.3916653406671067,-2.587027136479513,5.916747915535726,1.0770368576049805,-2.798011604939596
1708436969.920482,-1.9554792642593384,-1.392223597770073,-2.5876296202289026,5.915731656342306,1.0776792764663696,-2.7989309469806116
1708436969.9224873,-1.954177975654602,-1.3928539615920563,-2.588335100804464,5.914497363358297,1.0783483982086182,-2.799847427998678
1708436969.9245079,-1.9528303146362305,-1.3934684258750458,-2.5889280478106897,5.913363802223959,1.0791091918945312,-2.8008995691882532
1708436969.9264972,-1.9515162706375122,-1.3941157919219513,-2.589667860661642,5.912174331932821,1.0798102617263794,-2.801783863698141
1708436969.9285388,-1.9501491785049438,-1.394718424682953,-2.590294901524679,5.910984980850973,1.0804624557495117,-2.80284029642214
1708436969.9304924,-1.9488122463226318,-1.3953456741622468,-2.5909650961505335,5.909846293717184,1.0812057256698608,-2.8038395086871546
1708436969.9325216,-1.9475140571594238,-1.3959419292262574,-2.591609064732687,5.908712374954977,1.0817945003509521,-2.8048301378833216
1708436969.9345024,-1.9462027549743652,-1.3965589118054886,-2.5923214594470423,5.907535302429952,1.0824401378631592,-2.805760447178976
1708436969.9365296,-1.94485604763031,-1.3971854758313675,-2.5929763952838343,5.906482922821798,1.0831364393234253,-2.8068555037127894
1708436969.9384947,-1.943536639213562,-1.397860438828804,-2.5936546961413782,5.90527235248641,1.083944320678711,-2.807894293461935
1708436969.9405248,-1.9421783685684204,-1.3984836053899308,-2.594389025365011,5.904116380005636,1.0847291946411133,-2.808998409901754
1708436969.942508,-1.9407645463943481,-1.3991706532290955,-2.595121208821432,5.902873623162069,1.0854535102844238,-2.8099640051471155
1708436969.9444916,-1.9393389225006104,-1.3997929108193894,-2.595795456563131,5.901694881706991,1.0862501859664917,-2.8109377066241663
1708436969.9464922,-1.937974452972412,-1.4004663091949006,-2.596518580113546,5.900532471924581,1.0870611667633057,-2.8120084444629114
1708436969.9486172,-1.9366010427474976,-1.4011128109744568,-2.5972703138934534,5.899313914566793,1.0877752304077148,-2.8129780928241175
1708436969.9505482,-1.935200810432434,-1.4017598789981385,-2.5979886690722864,5.8981889365013025,1.0884944200515747,-2.8139079252826136
1708436969.9525201,-1.9338246583938599,-1.4024528425982972,-2.598659340535299,5.896986949234762,1.0892397165298462,-2.815070931111471
1708436969.9544876,-1.9324473142623901,-1.4030907464078446,-2.5994632879840296,5.895834672241964,1.090038537979126,-2.8160691897021692
1708436969.9565005,-1.9310065507888794,-1.4037439835122605,-2.6001959482776087,5.894519316941061,1.0907814502716064,-2.817010466252462
1708436969.9585032,-1.9295860528945923,-1.4045099479011078,-2.6009605566607874,5.8932992098625085,1.0916000604629517,-2.8180087248431605
1708436969.960498,-1.9281295537948608,-1.4051793080619355,-2.6016832033740442,5.892042028694906,1.0924007892608643,-2.8190515677081507
1708436969.962513,-1.9267131090164185,-1.4058545392802735,-2.6024509111987513,5.890780079155721,1.0932369232177734,-2.820094887410299
1708436969.9644856,-1.9252774715423584,-1.4065240186503907,-2.60325795808901,5.88958631733016,1.0940786600112915,-2.82103139558901
1708436969.966494,-1.9238585233688354,-1.4072677952102204,-2.603959862385885,5.888401973038473,1.0948461294174194,-2.822150532399313
1708436969.9684873,-1.922410488128662,-1.4078997832587739,-2.6047118345843714,5.887192237168112,1.095629334449768,-2.8231690565692347
1708436969.9704814,-1.920941948890686,-1.408681483273842,-2.605499331151144,5.885970341950216,1.096447467803955,-2.8240986506091517
1708436969.972503,-1.9194917678833008,-1.4093227845481415,-2.606257740651266,5.884832370072164,1.0972857475280762,-2.8251641432391565
1708436969.9745038,-1.9179584980010986,-1.4100903880647202,-2.6070616880999964,5.8835335848625085,1.098117709159851,-2.8261564413653772
1708436969.976538,-1.9164605140686035,-1.4107930076173325,-2.6078768412219446,5.882203089981832,1.0990017652511597,-2.827172819768087
1708436969.9784906,-1.9149420261383057,-1.4115443092635651,-2.608715359364645,5.881018268852987,1.0998976230621338,-2.8282738367663782
1708436969.980502,-1.9134039878845215,-1.4123166662505646,-2.609452549611227,5.879733669548788,1.100752592086792,-2.8292956987964075
1708436969.9825332,-1.9118856191635132,-1.4130383741906662,-2.6102805773364466,5.878525960236349,1.101601243019104,-2.8303189913379114
1708436969.98449,-1.910453200340271,-1.413678990011551,-2.6110737959491175,5.877205002098837,1.1024552583694458,-2.8314130941974085
1708436969.9865396,-1.908962368965149,-1.4145367604545136,-2.6119218508349817,5.876011597901144,1.1032782793045044,-2.8324719111071985
1708436969.988534,-1.9073859453201294,-1.4152216774276276,-2.6127448717700403,5.874779093056478,1.1040644645690918,-2.8334525267230433
1708436969.9905145,-1.9059302806854248,-1.4159362775138398,-2.6135719458209437,5.873575079232015,1.104943037033081,-2.8345349470721644
1708436969.9925418,-1.9044363498687744,-1.4166266334107895,-2.61440617242922,5.872354256897726,1.105809211730957,-2.8355699221240442
1708436969.9944904,-1.9029673337936401,-1.4174064260772248,-2.6152897516833704,5.871123778610983,1.1065642833709717,-2.8366366068469446
1708436969.9965227,-1.9014519453048706,-1.418121026163437,-2.616074864064352,5.869868385582723,1.1074098348617554,-2.8376594225512903
1708436969.9985054,-1.8998593091964722,-1.4188621801188965,-2.617019001637594,5.8685423014457605,1.1083121299743652,-2.8387749830829065
1708436970.000494,-1.898351788520813,-1.4196373683265229,-2.6178372542010706,5.867266881256857,1.109196424484253,-2.839830462132589
1708436970.0025141,-1.8967835903167725,-1.4203309577754517,-2.6187313238727015,5.865932333260336,1.110106110572815,-2.8408988157855433
1708436970.0044842,-1.8952196836471558,-1.4211237144521256,-2.6196253935443323,5.86472641208724,1.1109501123428345,-2.8418875376330774
1708436970.0065088,-1.8937656879425049,-1.4218829286149521,-2.620472256337301,5.863443958550253,1.1117455959320068,-2.842980925236837
1708436970.0084925,-1.892208218574524,-1.4226046663573761,-2.621338431035177,5.8621792671974084,1.1125327348709106,-2.843954626713888
1708436970.010487,-1.8907387256622314,-1.423286424284317,-2.6222172419177454,5.860954391747274,1.113378643989563,-2.8449764887439173
1708436970.0125132,-1.8891257047653198,-1.4240908038667222,-2.62309700647463,5.8595971939857385,1.1142743825912476,-2.846065107976095
1708436970.0144935,-1.887513518333435,-1.4248288583806534,-2.6239870230304163,5.858337509423055,1.115216612815857,-2.8471949736224573
1708436970.0165417,-1.8859390020370483,-1.4255674344352265,-2.6248660723315638,5.8570889113243005,1.1162225008010864,-2.8481324354754847
1708436970.0185227,-1.8843837976455688,-1.426284835939743,-2.6258202234851282,5.855752455979147,1.1171742677688599,-2.8492537180529993
1708436970.0205173,-1.8827943801879883,-1.4270808559707184,-2.6267386118518274,5.85447775104598,1.1180607080459595,-2.8501978556262415
1708436970.0225244,-1.8812270164489746,-1.4278066170266648,-2.6275604406939905,5.853229152947225,1.1190184354782104,-2.8512828985797327
1708436970.024547,-1.8797049522399902,-1.4285705250552674,-2.628467623387472,5.85202311256484,1.1198859214782715,-2.852325503026144
1708436970.0265136,-1.8781167268753052,-1.4293571275523682,-2.629400078450338,5.850694882660665,1.120816946029663,-2.85335880914797
1708436970.028534,-1.8765243291854858,-1.4301157158664246,-2.6303139368640345,5.849505293160238,1.12168288230896,-2.854316536580221
1708436970.030484,-1.874895453453064,-1.4308959704688569,-2.631249729787008,5.848148929863729,1.1226506233215332,-2.855358425770895
1708436970.0324993,-1.873266339302063,-1.4316569131663819,-2.63215142885317,5.84688566902236,1.12357759475708,-2.8563628832446497
1708436970.0345137,-1.871674656867981,-1.4324647647193451,-2.6330860296832483,5.8456647274787805,1.1245118379592896,-2.8573463598834437
1708436970.0365064,-1.8700345754623413,-1.433251054292061,-2.6340048948871058,5.844340193062582,1.1254397630691528,-2.8583596388446253
1708436970.038517,-1.8684401512145996,-1.4339719724706192,-2.6349032560931605,5.843088853150167,1.1263445615768433,-2.8593674341784876
1708436970.040497,-1.86685311794281,-1.4347637754729767,-2.6357978026019495,5.841760504036703,1.1272199153900146,-2.8603673616992396
1708436970.0425413,-1.8652551174163818,-1.4355389189771195,-2.636716429387228,5.840497243195333,1.1281416416168213,-2.8613768259631556
1708436970.0445065,-1.8636016845703125,-1.4363136005452652,-2.6376269499408167,5.839213955193319,1.129063606262207,-2.8623276392566126
1708436970.0464945,-1.8619492053985596,-1.4371241939118882,-2.638500515614645,5.837989198952474,1.1299713850021362,-2.8633366266833704
1708436970.0485668,-1.8603051900863647,-1.4378792655519028,-2.6395049730883997,5.836584794312277,1.130950689315796,-2.8643441835986536
1708436970.050514,-1.8586817979812622,-1.4386909019998093,-2.6404483954059046,5.835245597153463,1.131935477256775,-2.8653326670276087
1708436970.052519,-1.857020616531372,-1.4394530963948746,-2.6413829962359827,5.833898174553671,1.1329174041748047,-2.8663721720324915
1708436970.054496,-1.855348825454712,-1.4402388644269486,-2.6424027124988,5.8325068829353235,1.1339070796966553,-2.8674095312701624
1708436970.056487,-1.85373055934906,-1.4410177034190674,-2.6433194319354456,5.831187832146444,1.1348450183868408,-2.868420187626974
1708436970.0584886,-1.8520727157592773,-1.4417933833650132,-2.644294563923971,5.829833853035726,1.1358193159103394,-2.869446341191427
1708436970.0605083,-1.8504287004470825,-1.4425436568311234,-2.6452048460589808,5.828494179039755,1.1367230415344238,-2.8705361525165003
1708436970.0625522,-1.8487327098846436,-1.443356455569603,-2.646137777959005,5.827186929970541,1.1375796794891357,-2.871559445058004
1708436970.0644903,-1.8471367359161377,-1.4441637706807633,-2.6471110025988978,5.825872409134664,1.1384985446929932,-2.8725090662585657
1708436970.0665474,-1.845407485961914,-1.4449786853841324,-2.648179594670431,5.8244818327720544,1.139406442642212,-2.8735325972186487
1708436970.068512,-1.8437131643295288,-1.445785791879036,-2.649127785359518,5.823162901192465,1.140322208404541,-2.87457782426943
1708436970.070675,-1.8419740200042725,-1.446657547061779,-2.6501439253436487,5.82176827171401,1.1412959098815918,-2.8754800001727503
1708436970.0724938,-1.8402818441390991,-1.4474553254297753,-2.651158873234884,5.820455300598898,1.1422412395477295,-2.8764169851886194
1708436970.0745008,-1.838555097579956,-1.4482144129327317,-2.6520970503436487,5.819103109627523,1.1430929899215698,-2.8774283568011683
1708436970.0765038,-1.8368626832962036,-1.449135073726513,-2.653107468281881,5.817820417671957,1.1440107822418213,-2.87856108347048
1708436970.0784917,-1.8351576328277588,-1.44985435277734,-2.654107157384054,5.816456782608785,1.1449154615402222,-2.879441563283102
1708436970.0804825,-1.8335133790969849,-1.4506764125875016,-2.655095163975851,5.81507300117568,1.145804762840271,-2.88029653230776
1708436970.0824828,-1.8317248821258545,-1.4515194457820435,-2.6561599413501185,5.813640463143148,1.1467889547348022,-2.881258551274435
1708436970.0844944,-1.8299707174301147,-1.4523569208434601,-2.657177750264303,5.812301265984335,1.1477614641189575,-2.8822434584247034
1708436970.0865057,-1.8282580375671387,-1.4531726476601143,-2.658258024846212,5.810903179436483,1.1487423181533813,-2.8832157293902796
1708436970.0885184,-1.8264617919921875,-1.454023854141571,-2.659283224736349,5.809597003250875,1.1497222185134888,-2.884167496358053
1708436970.0904818,-1.8247063159942627,-1.4548607480577012,-2.6603222529040735,5.808090913086691,1.1505436897277832,-2.8851261774646204
1708436970.0924904,-1.8229961395263672,-1.455721915965416,-2.66136080423464,5.806703793793478,1.1514602899551392,-2.8860023657428187
1708436970.0944824,-1.8212473392486572,-1.456491508787014,-2.662329975758688,5.805362927704611,1.1524360179901123,-2.887012545262472
1708436970.096517,-1.8195384740829468,-1.45728653789077,-2.663379971181051,5.804008114128866,1.1533410549163818,-2.8879292646991175
1708436970.0985134,-1.8177250623703003,-1.4581215766123314,-2.664435688649313,5.802550899773397,1.1542365550994873,-2.888768259678976
1708436970.1004987,-1.8158875703811646,-1.459007517700531,-2.665494505559103,5.801096904068746,1.1552525758743286,-2.889758888875143
1708436970.1024888,-1.8140443563461304,-1.4598498058370133,-2.666511837636129,5.799571144371786,1.1561269760131836,-2.890719477330343
1708436970.1045074,-1.812296748161316,-1.4607012581876297,-2.667624537144796,5.7981663821037195,1.1571381092071533,-2.8916526476489466
1708436970.1065173,-1.8105063438415527,-1.4615720224431534,-2.66864258447756,5.796748268395223,1.1580283641815186,-2.8925603071795862
1708436970.1085258,-1.8086457252502441,-1.4624383685043831,-2.669704262410299,5.795336711197653,1.1589690446853638,-2.8934436480151575
1708436970.110504,-1.8068867921829224,-1.4631956827691575,-2.670748297368185,5.79396818855361,1.1598740816116333,-2.894371573125021
1708436970.1125324,-1.805107593536377,-1.4640959587744256,-2.6717775503741663,5.792616832047262,1.1607781648635864,-2.8952963987933558
1708436970.1145074,-1.8033286333084106,-1.4649446693113823,-2.6728854815112513,5.791163670807638,1.1617223024368286,-2.8961835543261927
1708436970.1165009,-1.8014919757843018,-1.4657533851316948,-2.673959795628683,5.789785015373983,1.1626628637313843,-2.8970771471606653
1708436970.1184998,-1.7996357679367065,-1.466561698620655,-2.674985472355978,5.788417088776388,1.1636368036270142,-2.897982422505514
1708436970.1205015,-1.7978888750076294,-1.4674355772188683,-2.676060740147726,5.786994921952047,1.1644986867904663,-2.8988800684558313
1708436970.122483,-1.7960357666015625,-1.468270407324173,-2.6771631876574915,5.785561787873068,1.1654014587402344,-2.899747912083761
1708436970.1245077,-1.7941546440124512,-1.469181129043438,-2.678260628377096,5.784145939141073,1.1662888526916504,-2.9006317297564905
1708436970.1264825,-1.7923489809036255,-1.4700109151056786,-2.679354969655172,5.782669889717855,1.1672228574752808,-2.9015405813800257
1708436970.1284864,-1.7904331684112549,-1.4708942261389275,-2.6804824511157435,5.781282293587484,1.1681270599365234,-2.902412716542379
1708436970.1304882,-1.7886523008346558,-1.4717910301736374,-2.6815648714648646,5.779870378762045,1.1690516471862793,-2.90328032175173
1708436970.1324937,-1.7868106365203857,-1.4726124864867707,-2.682570759450094,5.778504597931661,1.169859528541565,-2.9040959517108362
1708436970.1345155,-1.78496515750885,-1.4734468397549172,-2.683735434209005,5.777088153153219,1.170737862586975,-2.904935423527853
1708436970.136495,-1.783172845840454,-1.4742947083762665,-2.6847594420062464,5.775675642281332,1.1715223789215088,-2.9058359305011194
1708436970.138493,-1.7812949419021606,-1.4751169842532654,-2.685859505330221,5.7742100832755945,1.1723551750183105,-2.906677786503927
1708436970.1404934,-1.779420256614685,-1.4760768127492447,-2.6869826952563685,5.772697078972616,1.1732169389724731,-2.9074538389789026
1708436970.1424894,-1.7775123119354248,-1.4769562792829056,-2.688124481831686,5.7712894556816,1.1741386651992798,-2.908252779637472
1708436970.1445103,-1.7756129503250122,-1.4777777355960389,-2.689308468495504,5.7697768090064905,1.1751089096069336,-2.9091032187091272
1708436970.1464863,-1.7737195491790771,-1.4787090209177514,-2.690401617680685,5.76832007148818,1.1760609149932861,-2.90993577638735
1708436970.1485193,-1.7718232870101929,-1.4795599666288872,-2.6915319601642054,5.766872632294454,1.1769697666168213,-2.91069204012026
1708436970.150511,-1.7698721885681152,-1.4804426369122048,-2.6926541964160364,5.765308725624838,1.177704095840454,-2.911416832600729
1708436970.152499,-1.7679765224456787,-1.481366680269577,-2.693793837224142,5.76390956619338,1.1785842180252075,-2.9122851530658167
1708436970.154506,-1.7660605907440186,-1.4822170224836846,-2.6949077288257044,5.762490856438436,1.179370403289795,-2.913050953541891
1708436970.1564858,-1.7641183137893677,-1.4830868777683754,-2.696029249821798,5.761050808220663,1.1802641153335571,-2.91383940378298
1708436970.1585007,-1.7621821165084839,-1.4839932707003136,-2.6972342173205774,5.759513008385458,1.1811363697052002,-2.914621655141012
1708436970.160495,-1.7601699829101562,-1.4850018706968804,-2.698383871709005,5.758006441384115,1.1820344924926758,-2.915384833012716
1708436970.1624963,-1.758141279220581,-1.485953615312912,-2.6994927565204065,5.756458747177877,1.1828557252883911,-2.9161003271686
1708436970.1644998,-1.756232500076294,-1.486779385512211,-2.700648371373312,5.7549874661262415,1.1837388277053833,-2.9168599287616175
1708436970.1664844,-1.7542800903320312,-1.487679385845997,-2.7017834822284144,5.753491747170248,1.1845223903656006,-2.9175637404071253
1708436970.1684787,-1.7523078918457031,-1.4885367465070267,-2.7028897444354456,5.752030360489645,1.1853364706039429,-2.9182680288897913
1708436970.1704822,-1.7503355741500854,-1.4894161459854622,-2.7040181795703333,5.7505459664161584,1.1862393617630005,-2.918955151234762
1708436970.1724882,-1.7482839822769165,-1.490318977539875,-2.7052348295794886,5.74901972988204,1.1871081590652466,-2.9197335878955286
1708436970.174491,-1.746237874031067,-1.491282881503441,-2.706472460423605,5.747521865158834,1.1880165338516235,-2.9204114119159144
