Eg3-git/Classifiers/Data Collection/u5/u5www5_ur3e_joint_states.csv
time,elbow_joint,shoulder_lift_joint,shoulder_pan_joint,wrist_1_joint,wrist_2_joint,wrist_3_joint
1708437445.61978,-1.1146113872528076,-1.6766163311400355,-2.526907269154684,2.290872736568115,-1.0178597609149378,0.05367276817560196
1708437445.6217625,-1.1144788265228271,-1.6766473255553187,-2.526914660130636,2.2906951147266845,-1.0178197065936487,0.05379869416356087
1708437445.6238248,-1.1144328117370605,-1.676748891870016,-2.526902739201681,2.2906240659901123,-1.0178197065936487,0.053795792162418365
1708437445.625766,-1.1142795085906982,-1.676796098748678,-2.526902739201681,2.290496512050293,-1.0177791754352015,0.05384691804647446
1708437445.627781,-1.114180564880371,-1.6768437824644984,-2.526911799107687,2.2903966146656494,-1.0177791754352015,0.053887393325567245
1708437445.6297686,-1.1140553951263428,-1.6769033871092738,-2.5269444624530237,2.2902814584919433,-1.0178044478045862,0.05393076315522194
1708437445.6317961,-1.1139607429504395,-1.6769544086852015,-2.5269325415240687,2.2901498514362792,-1.0177925268756312,0.0540313720703125
1708437445.6337917,-1.113868236541748,-1.6769787273802699,-2.526914660130636,2.2900497156330566,-1.017763916646139,0.054083820432424545
1708437445.6358292,-1.1137430667877197,-1.6770712337889613,-2.526853148137228,2.2899574476429443,-1.0177839438067835,0.054145071655511856
1708437445.6378763,-1.1136301755905151,-1.677183290521139,-2.526874367390768,2.2898287016102294,-1.0177972952472132,0.05417225882411003
1708437445.6397927,-1.113555908203125,-1.677183290521139,-2.526878897343771,2.2897297578999023,-1.0177267233477991,0.05424389988183975
1708437445.6417706,-1.1135181188583374,-1.677225729028219,-2.526902739201681,2.289575977916382,-1.0177729765521448,0.05433676019310951
1708437445.643772,-1.1133805513381958,-1.6773354015746058,-2.5268426577197474,2.2894605833240966,-1.0177190939532679,0.05433526262640953
1708437445.645813,-1.1133497953414917,-1.6773044071593226,-2.526867930089132,2.2893971639820556,-1.0176909605609339,0.05441661179065704
1708437445.6478436,-1.1131296157836914,-1.677410741845602,-2.5268755594836634,2.289273424739502,-1.0177281538592737,0.054488178342580795
1708437445.649841,-1.1130621433258057,-1.677434583703512,-2.5268755594836634,2.2891978460499267,-1.0177324453936976,0.05451521649956703
1708437445.651849,-1.1129915714263916,-1.677481313745016,-2.5268636385547083,2.289137764567993,-1.0177324453936976,0.05452722683548927
1708437445.6538122,-1.1128911972045898,-1.677542348901266,-2.5268264452563685,2.289005680675171,-1.0177162329303187,0.05460366606712341
1708437445.6557996,-1.1128445863723755,-1.6776024303831996,-2.526835266743795,2.288930578822754,-1.0177000204669397,0.054684631526470184
1708437445.6578083,-1.1126902103424072,-1.6776462994017542,-2.526839796696798,2.2888552385517578,-1.0176919142352503,0.054666757583618164
1708437445.6598308,-1.1126434803009033,-1.6777059040465296,-2.526835266743795,2.2886976438709716,-1.0176757017718714,0.054764099419116974
1708437445.6618865,-1.1125684976577759,-1.6777416668333949,-2.5268026033984583,2.288653774852417,-1.0176709334002894,0.054783374071121216
1708437445.6638076,-1.1124882698059082,-1.6777941189207972,-2.526865069066183,2.288582964534424,-1.0176637808429163,0.054772961884737015
1708437445.6657736,-1.1124087572097778,-1.6778408489623011,-2.5268471876727503,2.288487120265625,-1.0176337401019495,0.05486779287457466
1708437445.6677709,-1.1123524904251099,-1.6779257259764613,-2.526790205632345,2.288414879436157,-1.01764423051943,0.05492004379630089
1708437445.6697907,-1.1122360229492188,-1.6779619656004847,-2.5268412272082728,2.2882906633564453,-1.0176027456866663,0.054930686950683594
1708437445.67178,-1.1121611595153809,-1.678009649316305,-2.526799027119772,2.2881905275532226,-1.0176470915423792,0.05496647581458092
1708437445.6738343,-1.1120641231536865,-1.678028245965475,-2.52675444284548,2.288167639369629,-1.0176070372210901,0.05505188927054405
1708437445.6757886,-1.1120004653930664,-1.6780487499632777,-2.52683669725527,2.288062496776245,-1.017616097127096,0.05510713532567024
1708437445.6777627,-1.11189866065979,-1.678124567071432,-2.5267825762378138,2.2879580694385986,-1.0175994078265589,0.05513138324022293
1708437445.6797638,-1.1118779182434082,-1.678159853021139,-2.526799027119772,2.287919207210205,-1.0176366011248987,0.05510127171874046
1708437445.6817777,-1.1118011474609375,-1.678216119805807,-2.526745382939474,2.2878352838703613,-1.0176413694964808,0.055186692625284195
1708437445.6837733,-1.1117228269577026,-1.678314825097555,-2.526799027119772,2.2877630430408935,-1.017555061970846,0.05522722750902176
1708437445.6857653,-1.1116694211959839,-1.6783319912352503,-2.5267706553088587,2.2876671987720947,-1.017604176198141,0.05525095388293266
1708437445.6877608,-1.1115520000457764,-1.6783434353270472,-2.5268123785602015,2.28766839086499,-1.0176294485675257,0.05531560629606247
1708437445.6897743,-1.1114791631698608,-1.6784092388548792,-2.526799027119772,2.287592573756836,-1.0176084677325647,0.055314064025878906
1708437445.6917794,-1.1114940643310547,-1.6784035168089808,-2.526766363774435,2.287454529399536,-1.0175707975970667,0.055413249880075455
1708437445.6937878,-1.1114311218261719,-1.678476949731344,-2.5267797152148646,2.2873987394520263,-1.0175593535052698,0.05537744611501694
1708437445.6958354,-1.1113451719284058,-1.6785084209837855,-2.526832405720846,2.2872866827198486,-1.0176008383380335,0.055443186312913895
1708437445.6978505,-1.1112639904022217,-1.6785766086974085,-2.5267706553088587,2.28723852216687,-1.0176218191729944,0.05549110844731331
1708437445.699833,-1.111196517944336,-1.6785890064635218,-2.5267751852618616,2.287240667934082,-1.0176261107074183,0.055531542748212814
1708437445.701883,-1.1111445426940918,-1.6785994968810023,-2.5267797152148646,2.2871598440357666,-1.0175727049456995,0.05553450435400009
1708437445.7038722,-1.1110888719558716,-1.6786843738951625,-2.5267959276782435,2.2870263296314697,-1.0175603071795862,0.055567216128110886
1708437445.7058263,-1.1110002994537354,-1.6786886654295863,-2.5267885367022913,2.2870229917713623,-1.0175393263446253,0.05564077943563461
1708437445.7078397,-1.1109691858291626,-1.678732534448141,-2.5267258326159876,2.2869927126118164,-1.0175603071795862,0.055560167878866196
1708437445.7098174,-1.110888123512268,-1.6787392101683558,-2.5267587343799036,2.286904497737549,-1.0175021330462855,0.055654190480709076
1708437445.7118886,-1.110903263092041,-1.6787587604918421,-2.5267346541034144,2.2867869573780517,-1.0175483862506312,0.05568575859069824
1708437445.7138674,-1.110812783241272,-1.678774972955221,-2.526781145726339,2.2867469030567626,-1.0175483862506312,0.055689048022031784
1708437445.715796,-1.1107696294784546,-1.6788069210448207,-2.5267587343799036,2.2867156702229003,-1.0176141897784632,0.055741406977176666
1708437445.7178502,-1.1106603145599365,-1.6788388691344203,-2.5267720858203333,2.28660695135083,-1.0175321737872522,0.05579047277569771
1708437445.7197871,-1.1106075048446655,-1.6788751087584437,-2.5267720858203333,2.286615772838257,-1.0175407568561,0.05581464245915413
1708437445.7217755,-1.1105763912200928,-1.6788622341551722,-2.5267513434039515,2.2865769106098632,-1.0175321737872522,0.05586288869380951
1708437445.7238836,-1.1105788946151733,-1.6789638004698695,-2.5267766157733362,2.2865330415913085,-1.0175660292254847,0.055833958089351654
1708437445.7257776,-1.1105058193206787,-1.6788889370360316,-2.5267766157733362,2.2864231306263427,-1.01750356355776,0.05588655546307564
1708437445.7277744,-1.1104592084884644,-1.6789466343321742,-2.5267425219165247,2.2863637644001464,-1.0175336042987269,0.05597187206149101
1708437445.7297716,-1.1104055643081665,-1.6789704761900843,-2.5267766157733362,2.2863196569630126,-1.01756459871401,0.05593036860227585
1708437445.731799,-1.1103495359420776,-1.6790129146971644,-2.5267601648913782,2.2862602907368164,-1.0175498167621058,0.055937767028808594
1708437445.7338464,-1.110289454460144,-1.6790348492064417,-2.5267346541034144,2.2862562376209716,-1.017508331929342,0.0559452548623085
1708437445.7358203,-1.1102372407913208,-1.6790434322752894,-2.5267601648913782,2.286245508784912,-1.0174911657916468,0.05596489831805229
1708437445.7378638,-1.1101919412612915,-1.6790906391539515,-2.5267062822925013,2.286209745998047,-1.0175378958331507,0.05602916330099106
1708437445.7398376,-1.1101489067077637,-1.6791025600829066,-2.526710573826925,2.2860511976429443,-1.0175045172320765,0.056081533432006836
1708437445.7418506,-1.1101430654525757,-1.679093977014059,-2.526736084614889,2.286109133357666,-1.0174673239337366,0.05604406073689461
1708437445.7438653,-1.1100574731826782,-1.6791969738402308,-2.5267227331744593,2.286073847407959,-1.0174711386310022,0.056110136210918427
1708437445.7458594,-1.110007643699646,-1.6791712246336878,-2.526723925267355,2.2859884935566406,-1.0174673239337366,0.056105613708496094
1708437445.7478592,-1.1100226640701294,-1.6792074642577113,-2.526710573826925,2.285944624538086,-1.0175092856036585,0.05616248771548271
1708437445.7498183,-1.1099705696105957,-1.6792313061156214,-2.526748005543844,2.2859131532856445,-1.0174630323993128,0.05619371309876442
1708437445.751787,-1.1098636388778687,-1.6792389355101527,-2.526682440434591,2.285872622127197,-1.0175092856036585,0.056164003908634186
1708437445.753873,-1.1098651885986328,-1.6792460880675257,-2.526719633732931,2.285808725947998,-1.0175002256976526,0.05619703233242035
1708437445.7558932,-1.1098380088806152,-1.679269929925436,-2.5267062822925013,2.2857884603687744,-1.0174930731402796,0.056250523775815964
1708437445.757863,-1.1097650527954102,-1.6793271503844203,-2.526707712803976,2.285741015071533,-1.017484490071432,0.056232698261737823
1708437445.7598436,-1.1097874641418457,-1.6792570553221644,-2.526682440434591,2.2857014375874023,-1.0174673239337366,0.05624048411846161
1708437445.7618434,-1.1097346544265747,-1.6792718372740687,-2.526703182850973,2.285677595729492,-1.0174482504474085,0.0563359372317791
1708437445.7638204,-1.1096476316452026,-1.6793819866576136,-2.526719633732931,2.285588188762329,-1.0174930731402796,0.0563136450946331
1708437445.7657955,-1.1096537113189697,-1.679373403588766,-2.526740614567892,2.285590334529541,-1.0174978415118616,0.056309204548597336
1708437445.7677844,-1.1096373796463013,-1.6793276272215785,-2.526665989552633,2.285562439555786,-1.0174897352801722,0.05635438859462738
1708437445.7698665,-1.1095561981201172,-1.6794501743712367,-2.526686731969015,2.285484953517578,-1.0174763838397425,0.056369271129369736
1708437445.7718136,-1.1095713376998901,-1.6794377766051234,-2.526731793080465,2.2853965002247314,-1.0174363295184534,0.05639786273241043
1708437445.7738433,-1.1094938516616821,-1.6794616184630335,-2.526719633732931,2.285355969066284,-1.0174434820758265,0.05635155364871025
1708437445.775768,-1.1094938516616821,-1.6794811687865199,-2.526719633732931,2.285365267390869,-1.017477814351217,0.056397803127765656
1708437445.777747,-1.10945463180542,-1.67944397548818,-2.5266733805285853,2.2853457170673828,-1.0174244085894983,0.05646652355790138
1708437445.7797673,-1.1093991994857788,-1.6794654331602992,-2.526694361363546,2.2852324682423095,-1.0174763838397425,0.05645023286342621
1708437445.7817593,-1.1093330383300781,-1.6795174084105433,-2.526707712803976,2.2852532106586914,-1.017482105885641,0.056436873972415924
1708437445.7837634,-1.109309196472168,-1.6795503101744593,-2.526731793080465,2.285172148341797,-1.017477814351217,0.05648181959986687
1708437445.7857635,-1.109277367591858,-1.6795736751952113,-2.526723925267355,2.2851766782947998,-1.0174482504474085,0.05649663880467415
1708437445.787788,-1.1092580556869507,-1.6795236072936,-2.5266671816455286,2.2851778703876953,-1.0174196402179163,0.05650997906923294
1708437445.7897606,-1.1092760562896729,-1.6795488796629847,-2.526703182850973,2.285076542491577,-1.0174287001239222,0.056513309478759766
1708437445.791747,-1.1091887950897217,-1.6796428165831507,-2.5266881624804896,2.2851151663013916,-1.0174196402179163,0.05654602125287056
1708437445.7937572,-1.1091294288635254,-1.67966951946401,-2.526691261922018,2.2850159841724853,-1.017449680958883,0.05657461658120155
1708437445.7958255,-1.1090840101242065,-1.6796461544432582,-2.5267046133624476,2.285022421474121,-1.0174616018878382,0.05658206716179848
1708437445.7978373,-1.1090483665466309,-1.6796533070006312,-2.526658360158102,2.284940643901489,-1.0174244085894983,0.05657016485929489
1708437445.7998264,-1.1090543270111084,-1.6796490154662074,-2.5266838709460657,2.2849299150654296,-1.0173915068255823,0.056630007922649384
1708437445.801832,-1.1089973449707031,-1.6796447239317835,-2.5267539660083216,2.284959240550659,-1.017416779194967,0.05665528401732445
1708437445.8038068,-1.1089987754821777,-1.6797100506224574,-2.52669865289797,2.284881754512451,-1.017421070729391,0.05666269734501839
1708437445.8058105,-1.1089584827423096,-1.6796895466246546,-2.5266342798816126,2.284825487727783,-1.017421070729391,0.056649349629879
1708437445.8078358,-1.1089459657669067,-1.6797386608519496,-2.5267165342914026,2.2848383623310546,-1.017421070729391,0.05672277882695198
1708437445.80983,-1.1089059114456177,-1.6797133884825648,-2.5267372767077845,2.284855766887329,-1.017437760029928,0.056680936366319656
1708437445.8117993,-1.1088858842849731,-1.6797181568541468,-2.526740614567892,2.2847296434589843,-1.017421070729391,0.056693077087402344
1708437445.8138657,-1.1088498830795288,-1.6797448597350062,-2.526670519505636,2.2847093778797607,-1.0174287001239222,0.05673469975590706
1708437445.8158412,-1.1088348627090454,-1.67974915126943,-2.526658360158102,2.2847344118305664,-1.0174019972430628,0.056684233248233795
1708437445.8178158,-1.1087613105773926,-1.6797272167601527,-2.5266881624804896,2.2846695619770507,-1.017416779194967,0.056745510548353195
1708437445.8197749,-1.1087567806243896,-1.6798435650267542,-2.5267165342914026,2.284621163005493,-1.017388645802633,0.05676627531647682
1708437445.8217783,-1.1087509393692017,-1.6797973118224085,-2.5267165342914026,2.2846011358448486,-1.017416779194967,0.05675734207034111
1708437445.8238323,-1.1086974143981934,-1.6798464260497035,-2.526604477559225,2.284557982082031,-1.0173972288714808,0.05677368491888046
1708437445.8257687,-1.1086490154266357,-1.6798330746092738,-2.5266626516925257,2.284480496043823,-1.017376724873678,0.05680227652192116
1708437445.8277824,-1.1086864471435547,-1.6798531017699183,-2.526646439229147,2.284493609065674,-1.0174019972430628,0.05681300163269043
1708437445.8297791,-1.108622431755066,-1.6798645458617152,-2.5266552607165735,2.2844204145618896,-1.0173853079425257,0.056808579713106155
1708437445.8318853,-1.1085985898971558,-1.679901739160055,-2.5266342798816126,2.28449456273999,-1.0174091498004358,0.0567622072994709
1708437445.8337982,-1.108560562133789,-1.6798402271666468,-2.5266431013690394,2.284397764796875,-1.017392937337057,0.05680406838655472
1708437445.8357923,-1.1085458993911743,-1.6799332104124964,-2.526658360158102,2.284397764796875,-1.0174139181720179,0.05683263763785362
1708437445.8378332,-1.1085339784622192,-1.6799575291075648,-2.5266597906695765,2.2843407827564697,-1.0173853079425257,0.0568237341940403
1708437445.8398168,-1.108510136604309,-1.6799079380431117,-2.5266881624804896,2.2843052583881835,-1.017392937337057,0.05687759444117546
1708437445.8417985,-1.1085445880889893,-1.67993225673818,-2.5266552607165735,2.284301920528076,-1.0173476378070276,0.056917689740657806
1708437445.8438034,-1.1084665060043335,-1.679927488366598,-2.5266805330859583,2.284256859416626,-1.0173643271075647,0.056917689740657806
1708437445.8457937,-1.1083637475967407,-1.6799560985960902,-2.526679340993063,2.2842535215565185,-1.0173643271075647,0.056925516575574875
1708437445.8478358,-1.108389139175415,-1.6800128422179164,-2.5266385714160364,2.2842256265827636,-1.017392937337057,0.05692850425839424
1708437445.8498209,-1.1083656549453735,-1.680000444451803,-2.5266476313220423,2.284259005183838,-1.0173524061786097,0.05695565789937973
1708437445.8518338,-1.1083537340164185,-1.6800085506834925,-2.5266431013690394,2.2841974931904296,-1.0173900763141077,0.056952256709337234
1708437445.8538206,-1.1083463430404663,-1.6800042591490687,-2.5266671816455286,2.284153385753296,-1.0173900763141077,0.056985270231962204
1708437445.8557794,-1.108371615409851,-1.6800147495665492,-2.5266431013690394,2.284139319057129,-1.0173524061786097,0.05699276924133301
1708437445.8577921,-1.108278751373291,-1.680028577844137,-2.5266805330859583,2.2841102319904785,-1.0173524061786097,0.056967463344335556
1708437445.8598373,-1.108290672302246,-1.680068155328268,-2.5266838709460657,2.284115715617798,-1.0173972288714808,0.0570213608443737
1708437445.8618283,-1.1082639694213867,-1.680051942864889,-2.5266311804400843,2.2840868669697265,-1.0173447767840784,0.057037703692913055
1708437445.8638086,-1.1082350015640259,-1.6800891361632289,-2.5266552607165735,2.284033938045166,-1.0173853079425257,0.05706477910280228
1708437445.8657806,-1.1082067489624023,-1.6801415882506312,-2.5266552607165735,2.2840017515369873,-1.0173566977130335,0.057069193571805954
1708437445.8677638,-1.1081337928771973,-1.6801163158812464,-2.5266311804400843,2.28395859777417,-1.0173900763141077,0.05713489651679993
1708437445.8697784,-1.1081092357635498,-1.6801697216429652,-2.5266476313220423,2.2838713365742187,-1.0173566977130335,0.05708111450076103
1708437445.8717709,-1.10814368724823,-1.6801120243468226,-2.5266223589526575,2.2839228349873046,-1.0173404852496546,0.05706772580742836
1708437445.8738544,-1.1080697774887085,-1.6801520786681117,-2.5266431013690394,2.2839359480091552,-1.0173609892474573,0.05712604895234108
1708437445.8757632,-1.108054280281067,-1.6801606617369593,-2.5266059080706995,2.283890886897705,-1.0174062887774866,0.057100772857666016
1708437445.8777719,-1.10805082321167,-1.6801682911314906,-2.5266926924334925,2.283825321788452,-1.0173819700824183,0.05710528418421745
1708437445.8797839,-1.1080732345581055,-1.6802417240538539,-2.526640001927511,2.283869667644165,-1.0173776785479944,0.05718589201569557
1708437445.8817627,-1.1079659461975098,-1.68017639736318,-2.5266431013690394,2.2838010030933837,-1.0173075834857386,0.05718887969851494
1708437445.8837788,-1.1079957485198975,-1.680216451684469,-2.5266686121570032,2.283822699184082,-1.0173404852496546,0.05717695876955986
1708437445.885754,-1.107947587966919,-1.6802574596800746,-2.526623789464132,2.2837740617939453,-1.0173447767840784,0.057142745703458786
1708437445.887774,-1.1079386472702026,-1.6802612743773402,-2.526635710393087,2.2837750154682617,-1.0173657576190394,0.057224880903959274
1708437445.88979,-1.1079204082489014,-1.6802522144713343,-2.5266266504870813,2.2837256628223876,-1.0173032919513147,0.057217471301555634
1708437445.891771,-1.107878565788269,-1.6802522144713343,-2.5266059080706995,2.283742590541504,-1.0173524061786097,0.05725347250699997
1708437445.893783,-1.1078556776046753,-1.6802345714964808,-2.5266640822040003,2.2836662965961914,-1.0173609892474573,0.05718772113323212
1708437445.8957882,-1.1078258752822876,-1.6803280315794886,-2.5266431013690394,2.283642454738281,-1.0173404852496546,0.05725016072392464
1708437445.8979156,-1.1077901124954224,-1.6802674732603968,-2.526640001927511,2.283662958736084,-1.0173490683185022,0.05726088210940361
1708437445.8998187,-1.1077781915664673,-1.6802674732603968,-2.5266597906695765,2.2835942941853027,-1.0173657576190394,0.05721902474761009
1708437445.9018319,-1.1077672243118286,-1.680319448510641,-2.5266104380237024,2.283557577724121,-1.0173237959491175,0.057214513421058655
1708437445.903825,-1.107776165008545,-1.6803184948363246,-2.5266431013690394,2.2835747438618164,-1.0173609892474573,0.057263877242803574
1708437445.9057996,-1.1077181100845337,-1.680373331109518,-2.526689354573385,2.283510370845459,-1.0173209349261683,0.05723852664232254
1708437445.9078166,-1.1076653003692627,-1.6803881130614222,-2.5266640822040003,2.2835888105579834,-1.0173328558551233,0.05733440816402435
1708437445.9097867,-1.1076817512512207,-1.6803676090636195,-2.5266686121570032,2.2835232454487304,-1.0173328558551233,0.05732988193631172
1708437445.9118116,-1.107674479484558,-1.6804095707335414,-2.5266686121570032,2.283508225078247,-1.0173371473895472,0.057324279099702835
1708437445.913888,-1.1076148748397827,-1.6804124317564906,-2.526651922856466,2.2834338384815673,-1.0173371473895472,0.057352542877197266
1708437445.9158435,-1.1076475381851196,-1.680464883843893,-2.526619259511129,2.2834111887165527,-1.0173166433917444,0.05734812095761299
1708437445.9178195,-1.1075984239578247,-1.6804405651488246,-2.5266597906695765,2.28339068471875,-1.0173566977130335,0.05731985718011856
1708437445.9197633,-1.1075621843338013,-1.6804067097105921,-2.5267046133624476,2.283440514201782,-1.0173447767840784,0.05737220123410225
1708437445.9217668,-1.1075711250305176,-1.680464883843893,-2.5266104380237024,2.2833618360706787,-1.0172789732562464,0.057364463806152344
1708437445.9238362,-1.1075844764709473,-1.6804758510985316,-2.5266223589526575,2.2833587366291503,-1.0173032919513147,0.05737662315368652
1708437445.9257617,-1.107542872428894,-1.6804396114745082,-2.5265820662127894,2.2833024698444824,-1.0173166433917444,0.057367779314517975
1708437445.9278138,-1.1075063943862915,-1.6805197201170863,-2.5265939871417444,2.2833315569111328,-1.0173328558551233,0.05740046501159668
1708437445.92978,-1.1074827909469604,-1.6804996929564417,-2.5266640822040003,2.283322973842285,-1.0173524061786097,0.05740930885076523
1708437445.931769,-1.1075124740600586,-1.680535455743307,-2.526644531880514,2.2832628923603515,-1.0173538366900843,0.05741238594055176
1708437445.9338002,-1.1074142456054688,-1.680493494073385,-2.526640001927511,2.2832228380390625,-1.0173285643206995,0.0574784129858017
1708437445.9357831,-1.1074097156524658,-1.680580278436178,-2.5266266504870813,2.2832109171101074,-1.0173371473895472,0.05745723098516464
1708437445.937877,-1.107460379600525,-1.680535455743307,-2.5265985170947474,2.2832445341297607,-1.0173285643206995,0.05744727700948715
1708437445.939867,-1.1073864698410034,-1.680580278436178,-2.5266686121570032,2.283212109203003,-1.0173657576190394,0.0574694462120533
1708437445.941841,-1.1073864698410034,-1.6805297336974085,-2.5266431013690394,2.283208056087158,-1.0173075834857386,0.05748143419623375
1708437445.9438586,-1.1073670387268066,-1.6806112728514613,-2.526635710393087,2.2831875520893554,-1.0172999540912073,0.057488810271024704
1708437445.945853,-1.1073806285858154,-1.680636545220846,-2.5265820662127894,2.2831474977680664,-1.0173447767840784,0.05750846862792969
1708437445.9478402,-1.1073670387268066,-1.6806112728514613,-2.526651922856466,2.283135100001953,-1.017313305531637,0.05750073119997978
1708437445.9498122,-1.1072770357131958,-1.680627008477682,-2.5266686121570032,2.28313057004895,-1.0173328558551233,0.05747999623417854
1708437445.9517868,-1.107311487197876,-1.6806055508055628,-2.5266552607165735,2.2831031519123535,-1.0173657576190394,0.05752180516719818
1708437445.9538312,-1.1072711944580078,-1.6806103191771449,-2.5266266504870813,2.2830988603779296,-1.0173404852496546,0.05746364966034889
1708437445.9558258,-1.107283115386963,-1.6806713543333949,-2.5266147295581263,2.283078117961548,-1.017358128224508,0.057496316730976105
1708437445.9578416,-1.107234001159668,-1.6807085476317347,-2.526623789464132,2.283071680659912,-1.0173371473895472,0.05758611857891083
1708437445.9598267,-1.1072711944580078,-1.6807381115355433,-2.526635710393087,2.2830511766621093,-1.0173299948321741,0.05753231793642044
1708437445.961775,-1.107202172279358,-1.6806985340514125,-2.526623551045553,2.283048077220581,-1.0173166433917444,0.057548634707927704
1708437445.9638226,-1.1072274446487427,-1.6807242832579554,-2.5266850630389612,2.2830192285725097,-1.0173075834857386,0.05752788856625557
1708437445.9657953,-1.1071947813034058,-1.6807357273497523,-2.526635710393087,2.2829910951801757,-1.0173538366900843,0.05757724493741989
1708437445.967847,-1.1072200536727905,-1.6807896099486292,-2.5266147295581263,2.2829672533222656,-1.0173118750201624,0.057589076459407806
1708437445.969827,-1.1071463823318481,-1.6807309589781703,-2.5265865961657923,2.282897396678589,-1.0173166433917444,0.05759654566645622
1708437445.971778,-1.1071590185165405,-1.6807309589781703,-2.5266178289996546,2.2829553323933105,-1.0172928015338343,0.05754754692316055
1708437445.973827,-1.1071019172668457,-1.680734773675436,-2.5266147295581263,2.282876892680786,-1.0173237959491175,0.057650402188301086
1708437445.9757524,-1.1071346998214722,-1.6808015308775843,-2.5265985170947474,2.2829157549091796,-1.0172956625567835,0.05764028802514076
1708437445.977843,-1.1071770191192627,-1.6807552776732386,-2.5266476313220423,2.282883329982422,-1.0173047224627894,0.057613227516412735
1708437445.9797826,-1.107082486152649,-1.6807953319945277,-2.526651922856466,2.282850905055664,-1.0173285643206995,0.05760882422327995
1708437445.9817712,-1.1070750951766968,-1.6807629070677699,-2.5266104380237024,2.2828432756611328,-1.0173490683185022,0.05761931091547012
1708437445.9838066,-1.1070505380630493,-1.6807910404601039,-2.5266552607165735,2.282862825984619,-1.017374340687887,0.057616233825683594
1708437445.98581,-1.1070551872253418,-1.680758615533346,-2.5266268889056605,2.2828306394764404,-1.0173285643206995,0.05761922150850296
1708437445.9877956,-1.1070014238357544,-1.680774827996725,-2.5266311804400843,2.282831831569336,-1.017395321522848,0.05761919543147087
1708437445.989776,-1.1070150136947632,-1.6807733974852503,-2.526651922856466,2.282811327571533,-1.0173285643206995,0.05761485919356346
1708437445.991763,-1.1070060729980469,-1.680814882318014,-2.5266760031329554,2.282815619105957,-1.0173371473895472,0.0576314702630043
1708437445.9938073,-1.1069703102111816,-1.6807948551573695,-2.5266266504870813,2.282726212138794,-1.017346207295553,0.05765366926789284
1708437445.9957902,-1.1069836616516113,-1.6807824573912562,-2.5266059080706995,2.2827302652546386,-1.0173328558551233,0.05769716948270798
1708437445.997845,-1.1070283651351929,-1.6808272800841273,-2.526628080998556,2.28274313985791,-1.0173490683185022,0.057698313146829605
1708437445.9997795,-1.106950283050537,-1.6808644733824671,-2.526644531880514,2.282677574748657,-1.017313305531637,0.05766856670379639
1708437446.0017853,-1.106947422027588,-1.6808387241759242,-2.5266104380237024,2.2827035623737792,-1.0173371473895472,0.05766861140727997
1708437446.0037928,-1.106921911239624,-1.6808792553343714,-2.526672903691427,2.282686157817505,-1.0172999540912073,0.05765083432197571
1708437446.0058105,-1.1069605350494385,-1.6808630428709925,-2.5266552607165735,2.2827035623737792,-1.0173118750201624,0.0576927475631237
1708437446.007762,-1.1068856716156006,-1.6808749637999476,-2.5266311804400843,2.28266350805249,-1.0173700491534632,0.057729799300432205
1708437446.0098138,-1.1069462299346924,-1.6808883152403773,-2.526656452809469,2.28266350805249,-1.017346207295553,0.05770766735076904
1708437446.0117798,-1.1068992614746094,-1.6808425388731898,-2.5266881624804896,2.2826596933552246,-1.0173447767840784,0.05770766735076904
1708437446.013803,-1.106863021850586,-1.6808587513365687,-2.526607338582174,2.2826358514973144,-1.0173328558551233,0.057691335678100586
1708437446.015882,-1.106846570968628,-1.6808496914305628,-2.5265865961657923,2.2825698095509033,-1.0173328558551233,0.05771948769688606
1708437446.0177708,-1.1068391799926758,-1.6808425388731898,-2.5266104380237024,2.2826120096394042,-1.0173328558551233,0.05770315229892731
1708437446.0197718,-1.1068228483200073,-1.6809035740294398,-2.526656452809469,2.282628222102783,-1.017325226460592,0.05770765617489815
1708437446.0218232,-1.1068525314331055,-1.680857320825094,-2.526619259511129,2.2825957971760253,-1.0173209349261683,0.057731743901968
1708437446.023825,-1.1068435907363892,-1.6808787784972132,-2.5266223589526575,2.282550736064575,-1.0173299948321741,0.05773615837097168
1708437446.0257907,-1.106787085533142,-1.6809317074217738,-2.526623789464132,2.2825183111378173,-1.017325226460592,0.05773621052503586
1708437446.0278437,-1.1067914962768555,-1.6809140644469203,-2.5266147295581263,2.28253881513562,-1.0173166433917444,0.057739242911338806
1708437446.029791,-1.1067744493484497,-1.6809140644469203,-2.526628080998556,2.2825519281574707,-1.0173328558551233,0.05772729590535164
1708437446.031794,-1.1067389249801636,-1.6809050045409144,-2.5266266504870813,2.2825562196918945,-1.0173538366900843,0.05774366483092308
1708437446.033827,-1.1067627668380737,-1.6809455356993617,-2.526619259511129,2.282564802760742,-1.017358128224508,0.05773172527551651
1708437446.0357985,-1.106706142425537,-1.6810037098326625,-2.5266147295581263,2.2825323778339843,-1.0173237959491175,0.057751014828681946
1708437446.037801,-1.1067314147949219,-1.6809455356993617,-2.5266147295581263,2.282524986858032,-1.0173090139972132,0.05777331069111824
1708437446.039771,-1.1067194938659668,-1.6809703312315882,-2.5266104380237024,2.2824582296558837,-1.0173447767840784,0.057746563106775284
1708437446.04179,-1.1066696643829346,-1.6809569797911585,-2.526628080998556,2.2824711042591552,-1.0173371473895472,0.057768791913986206
1708437446.043767,-1.1067285537719727,-1.6809412441649378,-2.526619259511129,2.282439871425293,-1.0173118750201624,0.057776302099227905
1708437446.0457985,-1.10667884349823,-1.6809946499266566,-2.5266266504870813,2.282456083888672,-1.0173490683185022,0.05779620260000229
1708437446.0477834,-1.1066741943359375,-1.680936952630514,-2.5266476313220423,2.282447500819824,-1.0173490683185022,0.05779337137937546
1708437446.0498073,-1.1067085266113281,-1.6809727154173792,-2.526651922856466,2.282427950496338,-1.0173209349261683,0.05778740718960762
1708437446.0518198,-1.1066997051239014,-1.6810008488097132,-2.5265775362597864,2.282391234035156,-1.0173118750201624,0.057816989719867706
1708437446.053797,-1.1066385507583618,-1.6810022793211878,-2.526607338582174,2.2824291425892334,-1.0173118750201624,0.05782157927751541
1708437446.0557804,-1.1066102981567383,-1.6810022793211878,-2.526623789464132,2.282387896175049,-1.017358128224508,0.05778287351131439
1708437446.0577955,-1.1066608428955078,-1.681080003777975,-2.5266104380237024,2.2824172216602783,-1.0173166433917444,0.05777107924222946
1708437446.05981,-1.1066445112228394,-1.6810585461058558,-2.5266266504870813,2.282400532359741,-1.0173047224627894,0.05784991756081581
1708437446.0618112,-1.106619119644165,-1.6810666523375453,-2.526651922856466,2.282311125392578,-1.0173657576190394,0.05783335864543915
1708437446.0638106,-1.1065938472747803,-1.6810666523375453,-2.526607338582174,2.2822863298603515,-1.0173118750201624,0.05777551606297493
1708437446.0657818,-1.1066491603851318,-1.6810218296446742,-2.5266268889056605,2.282311125392578,-1.0173209349261683,0.05782007426023483
1708437446.0677745,-1.1066535711288452,-1.681100984612936,-2.526651922856466,2.2823402124592285,-1.0173538366900843,0.05780375003814697
1708437446.0697582,-1.1065590381622314,-1.6810409031310023,-2.526602808629171,2.2823328214832763,-1.0173285643206995,0.05783222243189812
1708437446.071773,-1.106554627418518,-1.6810475788512171,-2.5265610853778284,2.282308979625366,-1.0173419157611292,0.05782448872923851
1708437446.0738008,-1.106559157371521,-1.6810580692686976,-2.5266552607165735,2.2822958666035156,-1.0172956625567835,0.05783224105834961
1708437446.0758564,-1.1065754890441895,-1.681051870385641,-2.5266385714160364,2.2823490339466552,-1.0173490683185022,0.057782962918281555
1708437446.0777771,-1.1065263748168945,-1.6810342274107875,-2.526619259511129,2.2822510439106445,-1.0173328558551233,0.05789043754339218
1708437446.0798168,-1.106485366821289,-1.6810251675047816,-2.526656452809469,2.2822746473499755,-1.0173490683185022,0.05780671536922455
1708437446.081788,-1.106485366821289,-1.6810995541014613,-2.5266311804400843,2.2822391229816894,-1.0173538366900843,0.05782008171081543
1708437446.0837786,-1.1064616441726685,-1.6810580692686976,-2.5266311804400843,2.28229205190625,-1.0172956625567835,0.05783975124359131
1708437446.0857866,-1.1064677238464355,-1.6810938320555628,-2.5265653769122522,2.282251997584961,-1.0173032919513147,0.05783979594707489
1708437446.0878012,-1.1065154075622559,-1.6810409031310023,-2.526640001927511,2.2822066980549316,-1.017325226460592,0.057860489934682846
1708437446.089784,-1.106488585472107,-1.6810819111266078,-2.5266686121570032,2.282231493587158,-1.0173371473895472,0.057856082916259766
1708437446.0917833,-1.1064543724060059,-1.6810771427550257,-2.5266266504870813,2.282186432475708,-1.0173075834857386,0.05783972144126892
1708437446.0937986,-1.106451392173767,-1.681096693078512,-2.5265939871417444,2.2822109895893554,-1.017358128224508,0.057844195514917374
1708437446.095779,-1.1064677238464355,-1.6811267338194789,-2.5266476313220423,2.282207651729248,-1.0173490683185022,0.05785944312810898
1708437446.0978673,-1.1064602136611938,-1.6810947857298792,-2.5266476313220423,2.2822038370319824,-1.0173328558551233,0.057864975184202194
1708437446.0997846,-1.1064319610595703,-1.6811267338194789,-2.5266013781176966,2.2821671205708007,-1.0173118750201624,0.0578845851123333
1708437446.1018023,-1.1064531803131104,-1.6810938320555628,-2.5265865961657923,2.2821919161030273,-1.017346207295553,0.057856082916259766
1708437446.1037772,-1.1064097881317139,-1.6811100445189417,-2.526647392903463,2.282150908107422,-1.0173447767840784,0.05788152664899826
1708437446.105782,-1.1064115762710571,-1.6810890636839808,-2.5266223589526575,2.2821671205708007,-1.0173075834857386,0.05785942077636719
1708437446.1077828,-1.1064190864562988,-1.681133886376852,-2.5266147295581263,2.2821551996418457,-1.0172880331622522,0.057875752449035645
1708437446.1098082,-1.1064456701278687,-1.6811791859068812,-2.5266762415515345,2.282200499171875,-1.0173538366900843,0.057892102748155594
1708437446.1117795,-1.1064280271530151,-1.6811672649779261,-2.5266104380237024,2.2821594911762695,-1.0173700491534632,0.057839713990688324
1708437446.1138334,-1.106432557106018,-1.681129594842428,-2.526651922856466,2.2821075159260253,-1.0174077192889612,0.057859402149915695
1708437446.1157827,-1.1063952445983887,-1.6811920605101527,-2.5266311804400843,2.282168074245117,-1.0173404852496546,0.057847198098897934
1708437446.1177678,-1.1063789129257202,-1.681124826470846,-2.5266147295581263,2.2821075159260253,-1.0173285643206995,0.057893529534339905
1708437446.1197731,-1.1063371896743774,-1.6811090908446253,-2.5266552607165735,2.282116098994873,-1.0173404852496546,0.05786827579140663
1708437446.1217697,-1.1063685417175293,-1.6811539135374964,-2.526651922856466,2.2821032243916015,-1.0173700491534632,0.05790088325738907
1708437446.1238341,-1.1063714027404785,-1.6811372242369593,-2.5266311804400843,2.2821079927631835,-1.0173237959491175,0.05788016319274902
1708437446.1257787,-1.1063714027404785,-1.6811791859068812,-2.526651922856466,2.2821249204822998,-1.017358128224508,0.05788016319274902
1708437446.1277623,-1.1063685417175293,-1.6811286411681117,-2.5266223589526575,2.2820917802998046,-1.0173657576190394,0.05788767710328102
1708437446.1297677,-1.1063144207000732,-1.6811939678587855,-2.5266147295581263,2.2820355135151367,-1.0173524061786097,0.057856082916259766
1708437446.1317616,-1.1063305139541626,-1.6812268696227015,-2.5266059080706995,2.282116098994873,-1.0173371473895472,0.05790536850690842
1708437446.1337633,-1.106335163116455,-1.6812263927855433,-2.5266059080706995,2.282088442439697,-1.0173729101764124,0.0578920841217041
1708437446.135758,-1.1063096523284912,-1.6811329327025355,-2.526635710393087,2.2820798593708496,-1.0173447767840784,0.057839762419462204
1708437446.1377835,-1.1063069105148315,-1.6811491451659144,-2.5266223589526575,2.282043142909668,-1.0173566977130335,0.05790841579437256
1708437446.1397967,-1.1062666177749634,-1.6811939678587855,-2.5266104380237024,2.282092733974121,-1.0173328558551233,0.05790403112769127
1708437446.1418426,-1.106274127960205,-1.6811729870238246,-2.5266147295581263,2.2820398050495605,-1.0172956625567835,0.0578845739364624
1708437446.1437898,-1.1063069105148315,-1.6811820469298304,-2.5266597906695765,2.2820066648670654,-1.0173371473895472,0.05782642960548401
1708437446.1458495,-1.1063247919082642,-1.6811849079527796,-2.5266552607165735,2.2820517259785156,-1.0173118750201624,0.05789649486541748
1708437446.1477852,-1.1062577962875366,-1.6812592945494593,-2.5265894571887415,2.282076521510742,-1.0173609892474573,0.05789951607584953
1708437446.1497898,-1.1062592267990112,-1.6811777553954066,-2.5266552607165735,2.2819699484058837,-1.0173075834857386,0.0579073429107666
1708437446.151782,-1.1062593460083008,-1.6811982593932093,-2.5265896956073206,2.2819947439381103,-1.0173566977130335,0.0578920841217041
1708437446.1537938,-1.1062506437301636,-1.6812178097166957,-2.5266266504870813,2.2819828230091552,-1.0173609892474573,0.057862430810928345
1708437446.1557958,-1.1062636375427246,-1.6812793217101039,-2.5266597906695765,2.2820777136036376,-1.0173357168780726,0.05783839896321297
1708437446.1578147,-1.1062546968460083,-1.6812387905516566,-2.5266059080706995,2.2820615011402587,-1.0173237959491175,0.05790088325738907
1708437446.1598241,-1.1062592267990112,-1.681230207482809,-2.5265896956073206,2.2819711404987792,-1.0173447767840784,0.05789951980113983
1708437446.161821,-1.1062755584716797,-1.6812135181822718,-2.5266597906695765,2.2820321756550292,-1.0173404852496546,0.05792948603630066
1708437446.1637933,-1.1062517166137695,-1.6811977825560511,-2.5266640822040003,2.282019777888916,-1.0173447767840784,0.057945817708969116
1708437446.1657906,-1.1062257289886475,-1.681230207482809,-2.526635710393087,2.28204528867688,-1.0173237959491175,0.057866841554641724
1708437446.167785,-1.106256127357483,-1.6812502346434535,-2.5266476313220423,2.2820121484943847,-1.0173524061786097,0.05790400505065918
1708437446.1698186,-1.1062517166137695,-1.6812416515746058,-2.5266059080706995,2.2820088106342773,-1.0173609892474573,0.057871364057064056
1708437446.1718383,-1.1062437295913696,-1.6812135181822718,-2.526635710393087,2.2820164400288085,-1.0173404852496546,0.0579206608235836
1708437446.1737885,-1.1062138080596924,-1.681291242639059,-2.5266597906695765,2.2819883066364746,-1.0173609892474573,0.05792064964771271
1708437446.175774,-1.1062020063400269,-1.6812416515746058,-2.526673142110006,2.281967802638672,-1.0173700491534632,0.05792064964771271
1708437446.1777873,-1.1062437295913696,-1.6812836132445277,-2.5266135374652308,2.2819298940845947,-1.0173609892474573,0.05789951980113983
1708437446.1797829,-1.1062393188476562,-1.6812197170653285,-2.5265894571887415,2.2819439607807617,-1.017327133809225,0.057896483689546585
1708437446.18178,-1.1062521934509277,-1.6812993488707484,-2.5266476313220423,2.2819601732441406,-1.0173700491534632,0.057896483689546585
1708437446.1838,-1.10621976852417,-1.681258340875143,-2.5266850630389612,2.281963511104248,-1.0173357168780726,0.05790402367711067
1708437446.1857884,-1.1061949729919434,-1.6812550030150355,-2.5266640822040003,2.281951590175293,-1.0173657576190394,0.05790400505065918
1708437446.187784,-1.1062244176864624,-1.6812674007811488,-2.526698414479391,2.2819644647785644,-1.0173566977130335,0.05789951980113983
1708437446.1898005,-1.106203556060791,-1.6812416515746058,-2.526646439229147,2.2819806772419433,-1.0173357168780726,0.05789951980113983
1708437446.1917706,-1.1062240600585938,-1.6812325916686,-2.5266385714160364,2.2819320398518066,-1.0173237959491175,0.05794136971235275
1708437446.1937838,-1.106215476989746,-1.6812178097166957,-2.526635710393087,2.2819687563129882,-1.0173476378070276,0.0579206608235836
1708437446.1957917,-1.1062240600585938,-1.6812416515746058,-2.5266640822040003,2.2819108205982666,-1.0173285643206995,0.05792064964771271
1708437446.197908,-1.1062244176864624,-1.681254049340719,-2.5266431013690394,2.2819151121326904,-1.0173819700824183,0.0579458512365818
1708437446.1998065,-1.1062283515930176,-1.681282182733053,-2.5266805330859583,2.281939669246338,-1.0174019972430628,0.0579206608235836
1708437446.2017934,-1.10621976852417,-1.681286474267477,-2.5266297499286097,2.2819601732441406,-1.0173357168780726,0.05792368948459625
1708437446.203819,-1.106175422668457,-1.68127503017568,-2.5267015139209192,2.2819644647785644,-1.0173609892474573,0.057932496070861816
1708437446.205787,-1.1061991453170776,-1.681254049340719,-2.5266297499286097,2.281923933620117,-1.0173686186419886,0.057953327894210815
1708437446.2078223,-1.1061553955078125,-1.6812416515746058,-2.5266104380237024,2.2819363313862304,-1.0173643271075647,0.05793248862028122
1708437446.209799,-1.106175422668457,-1.6812902889647425,-2.5266597906695765,2.2819108205982666,-1.0173686186419886,0.057953327894210815
1708437446.2117925,-1.1061872243881226,-1.681258340875143,-2.5266147295581263,2.281923933620117,-1.0173900763141077,0.05794438347220421
1708437446.2137907,-1.1061928272247314,-1.6812659702696742,-2.5266311804400843,2.281973286265991,-1.0173328558551233,0.05797407776117325
1708437446.215793,-1.1061217784881592,-1.681263109246725,-2.5266686121570032,2.2818915086933593,-1.0173986593829554,0.057916171848773956
1708437446.2177906,-1.1061722040176392,-1.681270261804098,-2.5266686121570032,2.281961365337036,-1.0174272696124476,0.05797736346721649
1708437446.2197864,-1.1061466932296753,-1.6812406979002894,-2.5266311804400843,2.2819363313862304,-1.0173900763141077,0.05796071141958237
1708437446.2217762,-1.1061261892318726,-1.6813270054259242,-2.5266385714160364,2.281916304225586,-1.0174225012408655,0.05799229070544243
1708437446.2238417,-1.1061933040618896,-1.6812778911986292,-2.5266223589526575,2.2819077211567382,-1.0173686186419886,0.05799233913421631
1708437446.2257915,-1.1061885356903076,-1.681319376031393,-2.5266147295581263,2.281932516688965,-1.0173729101764124,0.057967208325862885
1708437446.22782,-1.1061358451843262,-1.6812168560423792,-2.5266926924334925,2.281928225154541,-1.0173404852496546,0.05801650509238243
1708437446.2297745,-1.1060818433761597,-1.681282182733053,-2.5266671816455286,2.2818752962299804,-1.0173524061786097,0.05802832916378975
1708437446.231814,-1.1061633825302124,-1.6812955341734828,-2.5266059080706995,2.2818924623676757,-1.0173729101764124,0.05799872428178787
1708437446.233799,-1.1061304807662964,-1.6812325916686,-2.5266714731799524,2.2818590837666015,-1.0173943678485315,0.05802256613969803
1708437446.235774,-1.1061553955078125,-1.6812454662718714,-2.5266223589526575,2.281916304225586,-1.017371956502096,0.05808376520872116
1708437446.237796,-1.1061185598373413,-1.6812406979002894,-2.5266597906695765,2.281900091762207,-1.0173686186419886,0.05814937874674797
1708437446.2398636,-1.1061477661132812,-1.6813017330565394,-2.5266597906695765,2.2819248872944335,-1.0173729101764124,0.05816017463803291
1708437446.241776,-1.1061391830444336,-1.6812616787352503,-2.5266640822040003,2.2819205957600097,-1.0173595587359827,0.05820072069764137
1708437446.2438428,-1.1061304807662964,-1.6812364063658656,-2.5266385714160364,2.281900091762207,-1.0173314253436487,0.05826626718044281
1708437446.2457738,-1.1062002182006836,-1.6812735996642054,-2.5266147295581263,2.281912012691162,-1.017392937337057,0.05828937515616417
1708437446.2478943,-1.1060991287231445,-1.681315084496969,-2.5266552607165735,2.2819129663654785,-1.0173524061786097,0.05833274498581886
1708437446.2498288,-1.1061358451843262,-1.6812645397581996,-2.5266760031329554,2.281876249904297,-1.0173729101764124,0.05835210159420967
1708437446.2518282,-1.1061142683029175,-1.6812616787352503,-2.5266760031329554,2.281867666835449,-1.017306152974264,0.05835072696208954
1708437446.2538266,-1.1061229705810547,-1.6812526188292445,-2.5266760031329554,2.2818924623676757,-1.0173524061786097,0.058421093970537186
1708437446.2557836,-1.1061315536499023,-1.6812950573363246,-2.5266311804400843,2.2818514543720703,-1.0173552672015589,0.05848834663629532
1708437446.2578044,-1.1061153411865234,-1.6813341579832972,-2.5266626516925257,2.2819248872944335,-1.0174139181720179,0.05849587172269821
1708437446.259782,-1.106156349182129,-1.6812735996642054,-2.5266297499286097,2.281876249904297,-1.0173552672015589,0.05852746218442917
1708437446.2617896,-1.106110692024231,-1.6812817058958949,-2.5266881624804896,2.281855745906494,-1.0174139181720179,0.05861712992191315
1708437446.2639244,-1.10614013671875,-1.6812945804991664,-2.5266926924334925,2.2818848329731445,-1.0173729101764124,0.058582816272974014
1708437446.2658396,-1.1060872077941895,-1.681343217889303,-2.5265970865832728,2.28180639326062,-1.0173900763141077,0.058688919991254807
1708437446.2677567,-1.106144905090332,-1.6813255749144496,-2.5266717115985315,2.2818967539020996,-1.0174301306353968,0.05870860069990158
1708437446.2697697,-1.1060991287231445,-1.6812902889647425,-2.526656452809469,2.281904383296631,-1.0174182097064417,0.058756522834300995
1708437446.2717605,-1.1061358451843262,-1.681338449517721,-2.5266552607165735,2.2818569379993896,-1.017404858266012,0.0588376484811306
1708437446.2737617,-1.1061404943466187,-1.6813179455199183,-2.5266686121570032,2.2818924623676757,-1.017371956502096,0.058885570615530014
1708437446.2757826,-1.1060824394226074,-1.6813136539854945,-2.5266881624804896,2.2819055753895263,-1.0174005667315882,0.05892457440495491
1708437446.277772,-1.1060709953308105,-1.6812735996642054,-2.5266552607165735,2.281818314189575,-1.0173810164081019,0.058966778218746185
1708437446.2797914,-1.106149435043335,-1.6812735996642054,-2.5266717115985315,2.281848116511963,-1.01733905473818,0.05906837433576584
1708437446.281768,-1.1061487197875977,-1.6812817058958949,-2.5266881624804896,2.2818612295338134,-1.0173810164081019,0.05915229767560959
1708437446.2837653,-1.1060752868652344,-1.6813136539854945,-2.5266385714160364,2.2818731504627685,-1.0173972288714808,0.0592077411711216
1708437446.2857523,-1.106095790863037,-1.6813093624510707,-2.5266135374652308,2.2818612295338134,-1.0173972288714808,0.059308260679244995
1708437446.2877793,-1.1060633659362793,-1.6813298664488734,-2.5266552607165735,2.2818311887928466,-1.017371956502096,0.05940411239862442
1708437446.28976,-1.1060504913330078,-1.6813136539854945,-2.5266686121570032,2.2818612295338134,-1.0173643271075647,0.05950330197811127
1708437446.2917538,-1.1061002016067505,-1.6813470325865687,-2.5266805330859583,2.2818237978168945,-1.0174062887774866,0.059657346457242966
1708437446.2937734,-1.106083869934082,-1.681296011010641,-2.5266342798816126,2.2818400102802734,-1.0174062887774866,0.059798356145620346
1708437446.2957523,-1.1060595512390137,-1.6813379726805628,-2.5266597906695765,2.28184096395459,-1.0174301306353968,0.059888169169425964
1708437446.29785,-1.106050729751587,-1.6813818416991175,-2.5266597906695765,2.2817880350300292,-1.0173810164081019,0.06007687374949455
1708437446.2998228,-1.1060177087783813,-1.6813670597472132,-2.5266342798816126,2.2817913728901367,-1.0174139181720179,0.060172680765390396
1708437446.3018036,-1.1060311794281006,-1.681345125237936,-2.5266926924334925,2.2817837434956054,-1.0174139181720179,0.060373615473508835
1708437446.303773,-1.1060595512390137,-1.6813122234740199,-2.5266509691821497,2.2817396360584716,-1.017425839100973,0.06050397828221321
1708437446.3057666,-1.1060237884521484,-1.6813775501646937,-2.5266926924334925,2.281784697169922,-1.0174091498004358,0.06070909649133682
1708437446.3077695,-1.1060476303100586,-1.6813661060728968,-2.5266881624804896,2.2818009096333007,-1.017376724873678,0.060832392424345016
1708437446.3098335,-1.1060327291488647,-1.6814362011351527,-2.5266385714160364,2.2817396360584716,-1.017388645802633,0.061041977256536484
1708437446.3118355,-1.1060357093811035,-1.6813732586302699,-2.5266626516925257,2.2817322450825195,-1.0174301306353968,0.06117521971464157
1708437446.3137846,-1.1059709787368774,-1.6813866100706996,-2.5266881624804896,2.2817484575458984,-1.0173810164081019,0.06140774488449097
1708437446.3158083,-1.1060254573822021,-1.681434770623678,-2.5266223589526575,2.2817279535480957,-1.017392937337057,0.06166644021868706
1708437446.3177648,-1.1060254573822021,-1.681406637231344,-2.5266552607165735,2.281679316157959,-1.0173552672015589,0.06183641776442528
1708437446.3197725,-1.1059880256652832,-1.6813932857909144,-2.5266686121570032,2.281728907222412,-1.017392937337057,0.062129683792591095
1708437446.3217587,-1.1059398651123047,-1.6813932857909144,-2.5266178289996546,2.281677170390747,-1.017371956502096,0.06226987764239311
1708437446.3238037,-1.1059428453445435,-1.6814137897887171,-2.5266686121570032,2.281688852901123,-1.0174091498004358,0.06262603402137756
1708437446.3257632,-1.1059473752975464,-1.6814214191832484,-2.5266760031329554,2.281677170390747,-1.0174019972430628,0.06282824277877808
1708437446.3277638,-1.1058735847473145,-1.6813932857909144,-2.5266552607165735,2.2816390234180908,-1.017388645802633,0.06316976994276047
1708437446.3297625,-1.105894684791565,-1.6814424000182093,-2.5266476313220423,2.2816316324421386,-1.0173595587359827,0.06337136030197144
1708437446.3317554,-1.1059534549713135,-1.6814214191832484,-2.5266760031329554,2.2815872865864257,-1.0174744764911097,0.06368859857320786
1708437446.3337934,-1.1059080362319946,-1.6814500294127406,-2.5266881624804896,2.281574173564575,-1.0173710028277796,0.0639927014708519
1708437446.3357506,-1.1058837175369263,-1.681469579736227,-2.5266881624804896,2.2815958696552734,-1.017416779194967,0.06430010497570038
1708437446.337789,-1.105830192565918,-1.6814280949034632,-2.5266881624804896,2.2815260130115966,-1.0174287001239222,0.0646316409111023
1708437446.3398325,-1.1058152914047241,-1.681465288201803,-2.5266509691821497,2.2815682131000976,-1.0174630323993128,0.06501033157110214
1708437446.3418376,-1.1058152914047241,-1.6815515957274378,-2.5266509691821497,2.281507654781006,-1.017392937337057,0.0653684064745903
1708437446.3438318,-1.1057626008987427,-1.6815129719176234,-2.5266597906695765,2.281479521388672,-1.0174005667315882,0.06572103500366211
1708437446.3458726,-1.1057626008987427,-1.6815010509886683,-2.5266342798816126,2.2814838129230957,-1.0174244085894983,0.06610845774412155
1708437446.3478348,-1.1057312488555908,-1.6815339527525843,-2.5266385714160364,2.2814313608356933,-1.017404858266012,0.06651613116264343
1708437446.3498302,-1.1056832075119019,-1.6815358601012171,-2.526646439229147,2.281423731441162,-1.0174077192889612,0.06689145416021347
1708437446.3517818,-1.10564124584198,-1.6816517315306605,-2.526646439229147,2.2814246851154785,-1.017416779194967,0.0673552006483078
1708437446.3538413,-1.10564124584198,-1.6815968952574671,-2.526646439229147,2.281356020564697,-1.017453972493307,0.0678023099899292
1708437446.3559058,-1.1055901050567627,-1.6816159687437953,-2.5267091433154505,2.281364603633545,-1.0174363295184534,0.06830588728189468
1708437446.357896,-1.1056160926818848,-1.6816417179503382,-2.5266671816455286,2.2813569742390136,-1.0174601713763636,0.06879446655511856
1708437446.3598378,-1.1055827140808105,-1.6816493473448695,-2.526695791875021,2.281308813686035,-1.0174687544452112,0.06925752758979797
1708437446.3617804,-1.1055842638015747,-1.6816493473448695,-2.5266507307635706,2.281292601222656,-1.0174854437457483,0.06976065039634705
1708437446.363814,-1.1055768728256226,-1.6817060909666957,-2.5266838709460657,2.2812320429035644,-1.0174887816058558,0.07030458748340607
1708437446.3663118,-1.1054794788360596,-1.6817504368224085,-2.5267046133624476,2.2811621862598876,-1.0174911657916468,0.07085363566875458
1708437446.368373,-1.1054348945617676,-1.6817523441710414,-2.526686731969015,2.2812201219746093,-1.0175588766681116,0.07143895328044891
1708437446.3697808,-1.1054438352584839,-1.6818019352354945,-2.5267165342914026,2.281183643932007,-1.0175169149981897,0.07208705693483353
1708437446.3717744,-1.1053743362426758,-1.6817885837950648,-2.5266717115985315,2.281149073238037,-1.0174630323993128,0.07265377789735794
1708437446.3737729,-1.1053801774978638,-1.6818167171873988,-2.526686731969015,2.281092329616211,-1.0175259749041956,0.07324472069740295
1708437446.3757684,-1.1053439378738403,-1.681894441644186,-2.5266671816455286,2.281071825618408,-1.017524544392721,0.07394328713417053
1708437446.3777695,-1.1053037643432617,-1.6819259128966273,-2.526707712803976,2.281109495753906,-1.017552677785055,0.07463045418262482
1708437446.3797688,-1.1052137613296509,-1.6819678745665492,-2.5267284552203577,2.2809790807911376,-1.017524544392721,0.0752277821302414
1708437446.3817804,-1.1051959991455078,-1.6819201908507289,-2.526715103779928,2.280952139491699,-1.017524544392721,0.07589162886142731
1708437446.3837893,-1.1051915884017944,-1.681939264337057,-2.526752535496847,2.2808994489857177,-1.0175407568561,0.07665274292230606
1708437446.3858635,-1.105149269104004,-1.6820703945555628,-2.5266898314105433,2.280899925822876,-1.0175727049456995,0.07744671404361725
1708437446.3877845,-1.105059266090393,-1.6820737324156703,-2.5267391840564173,2.2807795244404296,-1.0176308790790003,0.0782213881611824
1708437446.3897936,-1.1050728559494019,-1.6821381054320277,-2.5267391840564173,2.280768557185791,-1.0176218191729944,0.07893118262290955
1708437446.3917868,-1.1049336194992065,-1.6821876964964808,-2.5267258326159876,2.280745192165039,-1.0175798575030726,0.07967560738325119
1708437446.3937764,-1.104910969734192,-1.6821638546385707,-2.5267391840564173,2.280672712916992,-1.017604176198141,0.08042235672473907
1708437446.395759,-1.1048537492752075,-1.6821876964964808,-2.5267632643329065,2.2806169229694824,-1.0175922552691858,0.08122686296701431
1708437446.3978858,-1.1047325134277344,-1.6822849712767542,-2.5267840067492884,2.2804877000996093,-1.0176366011248987,0.08213179558515549
1708437446.3998072,-1.104726791381836,-1.6823049984373988,-2.5268293062793177,2.2804640966602783,-1.0176485220538538,0.08305622637271881
1708437446.4018357,-1.1046472787857056,-1.6823331318297328,-2.526827875767843,2.2803842264362792,-1.017689053212301,0.08401232212781906
1708437446.403824,-1.104610800743103,-1.682406564752096,-2.5267913977252405,2.2802960115620117,-1.01770526567568,0.08498972654342651
1708437446.405803,-1.1045321226119995,-1.6824375591673792,-2.526844088231222,2.2802488046833496,-1.0176876227008265,0.08601419627666473
1708437446.4078374,-1.10438871383667,-1.6824366054930628,-2.5268026033984583,2.2801973062702636,-1.0176962057696741,0.08706892281770706
1708437446.409838,-1.1043518781661987,-1.6824890575804652,-2.5268471876727503,2.280099793071411,-1.0177176634417933,0.08804269880056381
1708437446.4118567,-1.1042211055755615,-1.682566305200094,-2.526879851018087,2.2799717622944335,-1.0177086035357874,0.08906631171703339
1708437446.4139009,-1.1041542291641235,-1.6825844250121058,-2.5269039312945765,2.2799116808125,-1.0177682081805628,0.09000162780284882
1708437446.4158173,-1.1040583848953247,-1.6825710735716761,-2.526911799107687,2.2798778253742675,-1.0177801291095179,0.09104382246732712
1708437446.4177763,-1.1039574146270752,-1.6826683483519496,-2.5269652048694056,2.2797533708759765,-1.0177748839007776,0.09204534441232681
1708437446.419772,-1.1039106845855713,-1.6827284298338832,-2.526907269154684,2.2796689706989746,-1.0177958647357386,0.09306977689266205
1708437446.4217734,-1.1037815809249878,-1.6827346287169398,-2.526919190083639,2.2795323568531494,-1.0178282896624964,0.09419982880353928
1708437446.4237761,-1.1037192344665527,-1.6828209362425746,-2.5269597212420862,2.2794527250477294,-1.0178807417498987,0.09531710296869278
1708437446.4257653,-1.1035213470458984,-1.6828438244261683,-2.526997152959005,2.2793609338947753,-1.017909351979391,0.09643269330263138
1708437446.4277694,-1.1034339666366577,-1.6829244099059046,-2.5269671122180384,2.27924029409375,-1.017911736165182,0.09761819243431091
1708437446.429775,-1.1033213138580322,-1.6829468212523402,-2.5270403067218226,2.2790800768085937,-1.0179527441607874,0.09879618138074875
1708437446.431781,-1.103149652481079,-1.6830245457091273,-2.526977841054098,2.2789601522633056,-1.0179227034198206,0.10003560036420822
1708437446.4338093,-1.1031118631362915,-1.6830727062621058,-2.5270853678332728,2.2789453703114013,-1.0179393927203577,0.10124087333679199
1708437446.4357708,-1.102945327758789,-1.683159967462057,-2.5270403067218226,2.2788054186054687,-1.0179632345782679,0.1024240180850029
1708437446.4377923,-1.1028251647949219,-1.6831714115538539,-2.527121130620138,2.278677149409912,-1.018024746571676,0.10366974771022797
1708437446.4398882,-1.1026647090911865,-1.6832219562926234,-2.5271485487567347,2.2785367208668212,-1.0180233160602015,0.10501279681921005
1708437446.441801,-1.102504849433899,-1.6832877598204554,-2.5271363894092005,2.278318329448364,-1.0180967489825647,0.10640987008810043
1708437446.4437993,-1.1023974418640137,-1.6833301983275355,-2.52714711824526,2.278257055873535,-1.0181368033038538,0.1076468825340271
1708437446.4457853,-1.1023004055023193,-1.6834756336607875,-2.527163569127218,2.2781340318867187,-1.0181472937213343,0.1090812087059021
1708437446.4478583,-1.1020909547805786,-1.6835433445372523,-2.5272250811206263,2.2779854971119384,-1.0181711355792444,0.11051083356142044
1708437446.4498348,-1.101949691772461,-1.6835786304869593,-2.5272279421435755,2.277775211925171,-1.0182488600360315,0.11182478815317154
1708437446.4518435,-1.1017768383026123,-1.6836382351317347,-2.527259174977438,2.277615948314331,-1.018247429524557,0.11328669637441635
1708437446.4538498,-1.10160493850708,-1.6837297878661097,-2.527283493672506,2.277367277736328,-1.0182550589190882,0.11479716002941132
1708437446.455791,-1.1014031171798706,-1.683871408502096,-2.527304474507467,2.277252359981201,-1.0183146635638636,0.11631299555301666
1708437446.4578083,-1.1013314723968506,-1.6839047871031703,-2.5273314158069056,2.2771166998096923,-1.0183880964862269,0.1179075613617897
1708437446.4598384,-1.101102590560913,-1.6840259037413539,-2.527379576359884,2.2769128519245605,-1.0184643904315394,0.11948253959417343
1708437446.4618764,-1.100885033607483,-1.6841503582396449,-2.5274036566363733,2.2767082887836914,-1.018569294606344,0.12108448892831802
1708437446.4638004,-1.1007215976715088,-1.6842338047423304,-2.5274232069598597,2.2765773969837646,-1.0185917059527796,0.12262391299009323
1708437446.4657795,-1.1005101203918457,-1.684263368646139,-2.5274558703051966,2.2763730722614746,-1.0186355749713343,0.12415757775306702
1708437446.4677906,-1.100268840789795,-1.6843959293761195,-2.5274952093707483,2.276181383723877,-1.0187400023089808,0.12570005655288696
1708437446.4698265,-1.1000981330871582,-1.6845747433104457,-2.5274909178363245,2.2759412962147216,-1.018808666859762,0.12731210887432098
1708437446.471763,-1.099898099899292,-1.68467440227651,-2.527538601552145,2.2757455545612792,-1.0188868681537073,0.12893426418304443
1708437446.4738483,-1.099682331085205,-1.6847311458983363,-2.527599875126974,2.2755414682575683,-1.0189183394061487,0.13059918582439423
1708437446.4757895,-1.0994162559509277,-1.6848765812315882,-2.5276194254504603,2.275366945857666,-1.0190232435809534,0.1323719024658203
1708437446.4778097,-1.0991482734680176,-1.6849924526610316,-2.5276718775378626,2.2751311498829345,-1.019118611012594,0.1341572105884552
1708437446.4798036,-1.0989294052124023,-1.6851793728270472,-2.5277286211596888,2.2748328882404785,-1.0192115942584437,0.13593336939811707
1708437446.4817734,-1.098713994026184,-1.6852714023985804,-2.5276570955859583,2.2746378618427734,-1.0192864576922815,0.13777916133403778
1708437446.48378,-1.0984156131744385,-1.6853815517821253,-2.5277753512011927,2.2744192320057373,-1.0193865934955042,0.1396511048078537
1708437446.4857726,-1.0981459617614746,-1.6855150661864222,-2.5278082529651087,2.274113817805908,-1.0193808714496058,0.14137642085552216
1708437446.487776,-1.0979351997375488,-1.6856705150999964,-2.527827803288595,2.2738749223896484,-1.0194767157184046,0.14330284297466278
1708437446.4897833,-1.0976879596710205,-1.6858974895873011,-2.5278757254229944,2.273559017772339,-1.0196188131915491,0.1452116072177887
1708437446.4917738,-1.097334384918213,-1.6859451733031214,-2.527928177510397,2.273230476970337,-1.0196979681598108,0.14729341864585876
1708437446.4938037,-1.097058653831482,-1.686101575891012,-2.5279927889453333,2.2730280595966796,-1.0198095480548304,0.14934496581554413
1708437446.4958093,-1.096738338470459,-1.686288972894186,-2.5279868284808558,2.2726546961018066,-1.0199225584613245,0.15138404071331024
1708437446.4978924,-1.096447229385376,-1.6864353619017542,-2.528076712285177,2.272382898921631,-1.0200188795672815,0.15337635576725006
1708437446.4998443,-1.0961384773254395,-1.6865955791869105,-2.5281322638141077,2.272097035045288,-1.0200966040240687,0.15541251003742218
1708437446.5018778,-1.09585440158844,-1.6868049106993617,-2.5282087961779993,2.2717506128498535,-1.0202253500567835,0.1574230045080185
1708437446.5038605,-1.0955157279968262,-1.686965127984518,-2.5282567183123987,2.271455689067505,-1.0203493277179163,0.15951398015022278
1708437446.5058146,-1.095175862312317,-1.6871072254576625,-2.528320852910177,2.2711352544971923,-1.0204194227801722,0.1615544855594635
1708437446.5078104,-1.094807505607605,-1.6873523197569789,-2.528339449559347,2.270864887828491,-1.0206049124347132,0.16376635432243347
1708437446.5097938,-1.0944470167160034,-1.6875068149962367,-2.5284276644336146,2.270540876979492,-1.020705525075094,0.16595052182674408
1708437446.5118327,-1.0940639972686768,-1.6877356968321742,-2.528529469166891,2.270155830974243,-1.020804230366842,0.168174609541893
1708437446.5139315,-1.093719244003296,-1.6879555187621058,-2.5286014715777796,2.2698044019886474,-1.0209644476519983,0.17046001553535461
1708437446.5158153,-1.0932738780975342,-1.6881662807860316,-2.5286362806903284,2.2694551187702636,-1.0211036841021937,0.1726456582546234
1708437446.517791,-1.0928912162780762,-1.6883441410460414,-2.528708044682638,2.269058867091797,-1.0212205092059534,0.1750313639640808
1708437446.5197873,-1.092512845993042,-1.6885940037169398,-2.5287967363940638,2.2687200742908935,-1.0213630835162562,0.1773070991039276
1708437446.5217705,-1.092116355895996,-1.6887814007201136,-2.528856341038839,2.268308325404785,-1.0214946905719202,0.17981480062007904
1708437446.5238087,-1.0917308330535889,-1.6890255413451136,-2.528940502797262,2.267883463496826,-1.0216386953936976,0.18212877213954926
1708437446.5257714,-1.0912929773330688,-1.6892363033690394,-2.528961722050802,2.267486258144043,-1.0218146483050745,0.1845933198928833
1708437446.5277789,-1.0908591747283936,-1.6894713840880335,-2.5291293303119105,2.267115278834961,-1.022031609212057,0.18697567284107208
1708437446.52977,-1.0904496908187866,-1.689744611779684,-2.5292373339282435,2.2666238981434326,-1.0221918264972132,0.18947169184684753
1708437446.5317662,-1.0899313688278198,-1.6899219952025355,-2.5293288866626185,2.2662052351185302,-1.0223372618304651,0.19193144142627716
1708437446.5338035,-1.0894781351089478,-1.6901852093138636,-2.5293710867511194,2.2657973009296875,-1.0225465933429163,0.1942950040102005
1708437446.5357509,-1.0890477895736694,-1.6904331646361292,-2.529529635106222,2.265345259303711,-1.0227144400226038,0.19682659208774567
1708437446.5377624,-1.0885261297225952,-1.6907545528807582,-2.529563013707296,2.2649001318165283,-1.0228365103351038,0.1993943154811859
1708437446.5398266,-1.0880999565124512,-1.6909076176085414,-2.529687229787008,2.2645503717609863,-1.02309495607485,0.2018292397260666
1708437446.5418246,-1.0876439809799194,-1.6911384067931117,-2.529759232197897,2.2640742498585205,-1.0232327620135706,0.20430856943130493
1708437446.5438,-1.087104082107544,-1.6914683781065882,-2.5299089590655726,2.2636260229298095,-1.023428742085592,0.2068769484758377
1708437446.5458372,-1.0866106748580933,-1.6917225323119105,-2.5300050417529505,2.263194962138794,-1.0236442724811,0.2094697803258896
1708437446.5478466,-1.0861235857009888,-1.691965719262594,-2.5301700274096888,2.262686176890991,-1.0238569418536585,0.2122044712305069
1708437446.5498204,-1.0855917930603027,-1.6921841106810511,-2.5302332083331507,2.262234612102173,-1.0240886847125452,0.21482336521148682
1708437446.5518303,-1.0850961208343506,-1.6924768886961878,-2.530381504689352,2.2617224889942626,-1.0243247191058558,0.21753738820552826
1708437446.5538,-1.0845189094543457,-1.6928183041014613,-2.530489508305685,2.261235399837158,-1.024538818989889,0.22015386819839478
1708437446.5558,-1.0840201377868652,-1.6930724583067835,-2.5305960814105433,2.260711832637451,-1.024799648915426,0.22286051511764526
1708437446.5578537,-1.083431601524353,-1.6932741604247035,-2.530769650136129,2.2601472574421386,-1.0250433127032679,0.22549229860305786
1708437446.5598125,-1.0828757286071777,-1.6935745678343714,-2.5308688322650355,2.259631319636963,-1.0252755323993128,0.2281634360551834
1708437446.5618124,-1.0823620557785034,-1.6938659153380335,-2.5309680143939417,2.2590667444416503,-1.025489632283346,0.23076681792736053
1708437446.5637753,-1.0817984342575073,-1.694193502465719,-2.5311160723315638,2.2586330610462646,-1.0257638136493128,0.23362159729003906
1708437446.565762,-1.081161618232727,-1.6944767437376917,-2.5312767664538782,2.2580854135700683,-1.02594501176943,0.23630385100841522
1708437446.5677843,-1.080578088760376,-1.6948000393309535,-2.5313966909991663,2.2575151163288574,-1.0262416044818323,0.23928393423557281
1708437446.5697923,-1.0798885822296143,-1.6950870953001917,-2.5315807501422327,2.256976290340088,-1.0264723936664026,0.24214351177215576
1708437446.5718381,-1.079293131828308,-1.6954437694945277,-2.531762425099508,2.256368322963379,-1.0267804304706019,0.24509961903095245
1708437446.5737813,-1.0786514282226562,-1.69572176555776,-2.5318644682513636,2.255774660701416,-1.0269902388202112,0.24792611598968506
1708437446.575789,-1.0781009197235107,-1.6960417232909144,-2.5320189634906214,2.2552825647541503,-1.0272920767413538,0.25080493092536926
1708437446.5778213,-1.077394723892212,-1.6963445148863734,-2.5321643988238733,2.254690571422241,-1.0275800863849085,0.2536565661430359
1708437446.5797894,-1.0767234563827515,-1.6967092953123988,-2.532369915639059,2.2540599542805175,-1.0278690497027796,0.2565878927707672
1708437446.581763,-1.076095700263977,-1.697075983087057,-2.5325570742236536,2.2534665304371337,-1.0281265417682093,0.25945279002189636
1708437446.583791,-1.0754033327102661,-1.697461267510885,-2.532675806676046,2.252894802684448,-1.028487507496969,0.2624708414077759
1708437446.58578,-1.0746723413467407,-1.6977540455260218,-2.532876793538229,2.2523040014454345,-1.028839413319723,0.26538440585136414
1708437446.5878074,-1.0740363597869873,-1.6980892620482386,-2.5330641905414026,2.2516180711933593,-1.029177490864889,0.2683989405632019
1708437446.5897725,-1.0732847452163696,-1.6985255680479945,-2.5332980791675013,2.250971480006836,-1.0295293966876429,0.27142030000686646
1708437446.5917618,-1.0726286172866821,-1.6988522015013636,-2.533445183430807,2.2502659994312744,-1.0298526922809046,0.2745164930820465
1708437446.5938013,-1.0719298124313354,-1.6992188892760218,-2.5336161295520228,2.2496391969868164,-1.0301879088031214,0.2775229513645172
1708437446.595765,-1.0712430477142334,-1.6995421848692835,-2.5338245073901575,2.2489959436604003,-1.0305283705340784,0.28062954545021057
1708437446.5978432,-1.070513129234314,-1.7000099621214808,-2.5340285936938685,2.248311682338379,-1.0309365431415003,0.2836982309818268
1708437446.5997837,-1.0697453022003174,-1.7003690205016078,-2.5342281500445765,2.247668667430542,-1.0312708059894007,0.28684526681900024
1708437446.601839,-1.0690094232559204,-1.7007557354369105,-2.5344651381122034,2.2470053869434814,-1.0317061583148401,0.28996360301971436
1708437446.6037993,-1.068307638168335,-1.7010895214476527,-2.534673277531759,2.2463740545460205,-1.0321429411517542,0.2931799292564392
1708437446.6058004,-1.067488431930542,-1.7015577755370082,-2.5348339716540735,2.2456347185322265,-1.0324443022357386,0.2963380217552185
1708437446.607782,-1.066773533821106,-1.7019273243346156,-2.5351246039019983,2.2450174528309326,-1.0328634420977991,0.2996023893356323
1708437446.60979,-1.0660085678100586,-1.7023798427977503,-2.535321060811178,2.2443789678760986,-1.0332797209369105,0.30278801918029785
1708437446.611777,-1.0652923583984375,-1.7028171024718226,-2.5355821291552942,2.2437240320393066,-1.033665959035055,0.3062525987625122
1708437446.6137693,-1.0644400119781494,-1.7031642399229945,-2.5357888380633753,2.243006868953369,-1.0341017881976526,0.3094404935836792
1708437446.615823,-1.0635987520217896,-1.7036320171751917,-2.535997454320089,2.2422591882893066,-1.0346110502826136,0.3127346336841583
1708437446.6177776,-1.0628255605697632,-1.7041002712645472,-2.5362282435046595,2.2414702612110595,-1.0350821653949183,0.31605860590934753
1708437446.6197762,-1.0619665384292603,-1.704458852807516,-2.5365055243121546,2.2406954008289794,-1.0355618635760706,0.31936830282211304
1708437446.621793,-1.0611310005187988,-1.7049552402892054,-2.536720577870504,2.23999206602063,-1.0359914938556116,0.3226225972175598
1708437446.6237755,-1.0604249238967896,-1.7053519688048304,-2.537006441746847,2.239272041911743,-1.0364764372455042,0.32608646154403687
1708437446.6257899,-1.0595232248306274,-1.7057963810362757,-2.5372536818133753,2.2385687071033935,-1.0368807951556605,0.3293364942073822
1708437446.6277618,-1.058699607849121,-1.7061974010863246,-2.537508789693014,2.237877293223999,-1.037353817616598,0.332681804895401
1708437446.6297889,-1.0578246116638184,-1.706714769402975,-2.5377936998950403,2.237027330989502,-1.0378568808185022,0.33611005544662476
1708437446.6317725,-1.056971549987793,-1.7071830234923304,-2.5380619207965296,2.2362775045582275,-1.0383976141559046,0.3396095335483551
1708437446.6338031,-1.0560461282730103,-1.7076183758177699,-2.538326088582174,2.235534592265747,-1.0389002005206507,0.3430325984954834
1708437446.635773,-1.0552126169204712,-1.7081018886961878,-2.5385525862323206,2.2347468572803955,-1.039370361958639,0.34654977917671204
1708437446.6377845,-1.0542926788330078,-1.708475729028219,-2.53880745569338,2.233975334758423,-1.0399020353900355,0.3499935567378998
1708437446.6398132,-1.053372859954834,-1.7089392147459925,-2.5391207377063196,2.233329935664795,-1.0404623190509241,0.353466272354126
1708437446.6418002,-1.0525480508804321,-1.709419389764303,-2.5394657293902796,2.2325567442127685,-1.0409758726703089,0.35697564482688904
1708437446.6437867,-1.0516650676727295,-1.7098738155760707,-2.5397563616382044,2.231809063548706,-1.0415404478656214,0.3605455756187439
1708437446.6458116,-1.0507287979125977,-1.7103892765440882,-2.539995257054464,2.230997009868286,-1.042103115712301,0.36402973532676697
1708437446.6478224,-1.049770712852478,-1.7107988796629847,-2.540320698414938,2.2302304941364746,-1.042666260396139,0.3677467703819275
1708437446.6498206,-1.0488550662994385,-1.7112990818419398,-2.5406649748431605,2.22941963254895,-1.0432289282428187,0.37140122056007385
1708437446.651813,-1.0479193925857544,-1.7117539844908656,-2.5409770647632044,2.228544159526489,-1.0437915960894983,0.3750270903110504
1708437446.653823,-1.046875238418579,-1.7122990093626917,-2.5413172880755823,2.2276901441761474,-1.0444038550006312,0.37858104705810547
1708437446.655818,-1.0459569692611694,-1.7127896747984828,-2.541640106831686,2.2269274431416015,-1.0449860731707972,0.38224148750305176
1708437446.6578047,-1.0450248718261719,-1.7132283649840296,-2.5419893900500696,2.22609989225354,-1.0456088224994105,0.38587629795074463
1708437446.6598244,-1.0440418720245361,-1.7137147388853968,-2.542382303868429,2.225311442012451,-1.0461762587176722,0.38954827189445496
1708437446.6618204,-1.0430911779403687,-1.7142464123167933,-2.542676035557882,2.2244791227528076,-1.0467503706561487,0.39312973618507385
1708437446.6637797,-1.0420920848846436,-1.7146436176695765,-2.5430002848254603,2.2236601549335937,-1.0473559538470667,0.3966980576515198
1708437446.6658158,-1.0411529541015625,-1.7152091465392054,-2.543365780507223,2.2228328424641113,-1.047993008290426,0.4004797339439392
1708437446.6677775,-1.0402249097824097,-1.7156373463072718,-2.543734614049093,2.2220865923115234,-1.0486438910113733,0.40403494238853455
1708437446.669782,-1.0392637252807617,-1.7160994015135707,-2.5440736452685755,2.2213291364857177,-1.0493386427508753,0.4076346158981323
1708437446.6717768,-1.0382907390594482,-1.7166277370848597,-2.544450346623556,2.2205118375965576,-1.0499537626849573,0.41122889518737793
1708437446.6737802,-1.0373339653015137,-1.7170855007567347,-2.5447726885425013,2.219663305873535,-1.0506861845599573,0.4149343967437744
1708437446.6757836,-1.0362918376922607,-1.717602392236227,-2.5451727549182337,2.218848391170166,-1.0514162222491663,0.4185832142829895
1708437446.6777616,-1.0353522300720215,-1.7180925808348597,-2.545497004185812,2.2180325227924804,-1.0520508925067347,0.42236554622650146
1708437446.679791,-1.034383773803711,-1.7185303173460902,-2.5458973089801233,2.2171644407459716,-1.0528186003314417,0.42595967650413513
1708437446.6817815,-1.0333757400512695,-1.7190748653807582,-2.54624849954714,2.2163490492054443,-1.0534809271441858,0.4298376739025116
1708437446.6837935,-1.0324301719665527,-1.7195283375182093,-2.5466278235064905,2.2155789571949462,-1.054169003163473,0.43344131112098694
1708437446.685793,-1.0314626693725586,-1.7200099430479945,-2.5470665136920374,2.2148119646259765,-1.0547917524920862,0.4372006058692932
1708437446.6877825,-1.030428171157837,-1.7206288776793421,-2.547436062489645,2.214003010387085,-1.0555418173419397,0.4408136308193207
1708437446.6898072,-1.029543399810791,-1.7210499248900355,-2.547849718724386,2.213211937541626,-1.0562241713153284,0.4445134997367859
1708437446.6918082,-1.0285061597824097,-1.7215434513487757,-2.5482781569110315,2.2124101358601074,-1.056976620350973,0.44818365573883057
1708437446.6938097,-1.0275243520736694,-1.7220093212523402,-2.548659865056173,2.211544914836548,-1.0576875845538538,0.4519542455673218
1708437446.6957855,-1.026513934135437,-1.722598215142721,-2.5491047541247767,2.2107831674763183,-1.0584352652179163,0.45567893981933594
1708437446.6978564,-1.0255374908447266,-1.7230802975096644,-2.549504105244772,2.2099434572407226,-1.0591867605792444,0.45941880345344543
1708437446.6998048,-1.0245494842529297,-1.7236134014525355,-2.5499070326434534,2.2091197210499267,-1.0599105993853968,0.4632457494735718
1708437446.7018106,-1.023532748222351,-1.7240292034544886,-2.5503116289721888,2.208341522807739,-1.0606654326068323,0.46690866351127625
1708437446.7038345,-1.0226001739501953,-1.7245575390257777,-2.550737444554464,2.2075952726551513,-1.061385456715719,0.4706972539424896
1708437446.7058122,-1.0216035842895508,-1.7249828777708949,-2.5511654059039515,2.2067534166523437,-1.0622647444354456,0.47435513138771057
1708437446.7078354,-1.020594596862793,-1.7255102596678675,-2.5515971819507044,2.206007881755493,-1.0630748907672327,0.47810763120651245
1708437446.7098126,-1.0195286273956299,-1.726058145562643,-2.5520530382739466,2.2052478033253173,-1.0638693014727991,0.4818997383117676
1708437446.7118917,-1.0185821056365967,-1.7265645466246546,-2.5525086561786097,2.204509897822998,-1.0647338072406214,0.48566651344299316
1708437446.713798,-1.0175824165344238,-1.72709383587026,-2.5529289881335657,2.2037247854420166,-1.0655582586871546,0.48946258425712585
1708437446.7158134,-1.016666293144226,-1.7274610004820765,-2.5533722082721155,2.202913208598755,-1.0663679281817835,0.4934689402580261
1708437446.7178087,-1.0156105756759644,-1.7280131779112757,-2.5537574926959437,2.202157660121582,-1.067171875630514,0.49720969796180725
1708437446.7197957,-1.014639139175415,-1.7285081348814906,-2.5542522112475794,2.2013754087635498,-1.0679381529437464,0.5011114478111267
1708437446.7217827,-1.0135538578033447,-1.7290154896178187,-2.554721180592672,2.200620337123535,-1.0687320868121546,0.504748523235321
1708437446.7237902,-1.0126073360443115,-1.7294837437071742,-2.5551474730121058,2.199847860927246,-1.069601837788717,0.508590042591095
1708437446.725802,-1.0116180181503296,-1.7300611935057582,-2.555561606084005,2.199113293285034,-1.0704129377948206,0.5122421383857727
1708437446.7277966,-1.010621428489685,-1.7305060825743617,-2.556080166493551,2.198423309917114,-1.071273152028219,0.5160849094390869
1708437446.7297964,-1.009645700454712,-1.7311021290221156,-2.5565553347217005,2.197704716319702,-1.072169605885641,0.5199207067489624
1708437446.731821,-1.0086363554000854,-1.731588979760641,-2.5570431391345423,2.1968716818043212,-1.0730322043048304,0.5238134264945984
1708437446.7338064,-1.0076695680618286,-1.7320181332030238,-2.5574937502490442,2.1961654859730224,-1.0738289991961878,0.5276361107826233
1708437446.7357717,-1.0066752433776855,-1.7325135670103968,-2.5579572359668177,2.1954001623341064,-1.0746458212481897,0.5315733551979065
1708437446.7378173,-1.0057326555252075,-1.733013769189352,-2.5584335962878626,2.1947054105946044,-1.075433079396383,0.535257875919342
1708437446.7398226,-1.0047975778579712,-1.7334581814207972,-2.5589585939990442,2.193974419231079,-1.076367203389303,0.5392044186592102
1708437446.7417927,-1.0037568807601929,-1.733986040154928,-2.5594587961779993,2.193251057262085,-1.077282730733053,0.5429423451423645
1708437446.7438192,-1.002761960029602,-1.7344562015929164,-2.5599375406848353,2.1925577360340576,-1.078219238911764,0.5469150543212891
1708437446.7458282,-1.0018606185913086,-1.7349521122374476,-2.560462299977438,2.1918162542530517,-1.0791214148150843,0.5507655739784241
1708437446.7478123,-1.0008416175842285,-1.7353979549803675,-2.5609288851367396,2.1911348539539794,-1.0800164381610315,0.5547939538955688
1708437446.7497919,-0.9998952746391296,-1.7359019718565882,-2.561455313359396,2.19043938695874,-1.0809066931353968,0.5586822628974915
1708437446.751823,-0.9990447759628296,-1.7363926372923792,-2.561929766331808,2.1896907526203613,-1.081860367451803,0.5626872777938843
1708437446.7538955,-0.9980348348617554,-1.7368718586363734,-2.562463108693258,2.1890649038502197,-1.082756821309225,0.5663548707962036
1708437446.7558112,-0.9971586465835571,-1.7372847996153773,-2.5629518667804163,2.188373251552246,-1.0837085882769983,0.5702673196792603
1708437446.7578638,-0.9962292313575745,-1.737755914727682,-2.563504997883932,2.187661333675049,-1.0847294966327112,0.5740206241607666
1708437446.7598295,-0.9952780604362488,-1.7382689915099085,-2.56396729150881,2.1870271402546386,-1.0856755415545862,0.5778643488883972
1708437446.7618022,-0.9943761229515076,-1.7387429676451625,-2.564507309590475,2.1862820821949462,-1.086625878010885,0.5816969871520996
1708437446.7638226,-0.9934449791908264,-1.7391497097411097,-2.5650270620929163,2.1856681543537597,-1.0876157919513147,0.5857508778572083
1708437446.765796,-0.9925774931907654,-1.739584585229391,-2.5655418078051966,2.1849896150776367,-1.0885894934283655,0.5896899700164795
1708437446.767772,-0.9916257262229919,-1.740026136437887,-2.5660739580737513,2.1843783098408203,-1.0894997755633753,0.5936471819877625
1708437446.7697942,-0.9908000826835632,-1.7404657802977503,-2.566598717366354,2.1837970453449707,-1.0904353300677698,0.5974541306495667
1708437446.7718825,-0.9899346828460693,-1.7409254513182582,-2.567167345677511,2.1831442552753906,-1.0914037863360804,0.6012666821479797
1708437446.7738204,-0.9890619516372681,-1.741331239739889,-2.5676336924182337,2.1826605039783935,-1.0923603216754358,0.6050048470497131
1708437446.7757819,-0.9881408214569092,-1.7417828045287074,-2.568134609852926,2.181992216701172,-1.0933030287372034,0.6088353395462036
1708437446.7777839,-0.9872654676437378,-1.7422181568541468,-2.568646017705099,2.181351585979126,-1.094233814870016,0.6126053929328918
1708437446.77979,-0.9864494204521179,-1.7425466976561488,-2.5692110697375696,2.1807941633411865,-1.0951898733722132,0.6165533065795898
1708437446.781799,-0.9855251908302307,-1.7429987392821253,-2.5697391668902796,2.1802195745655517,-1.0962722937213343,0.620354950428009
1708437446.7837744,-0.984700083732605,-1.7435008488097132,-2.5702250639544886,2.1796061235615234,-1.0972297827350062,0.6242613792419434
1708437446.7857869,-0.9838393926620483,-1.743812700311178,-2.5707078615771692,2.1790756422230224,-1.0981925169574183,0.6279761791229248
1708437446.787793,-0.982986330986023,-1.744277139703268,-2.5713182131396692,2.1784955698200683,-1.0991376082049769,0.6318239569664001
1708437446.7897835,-0.9821922779083252,-1.7446643314757289,-2.571791712437765,2.177936239833496,-1.1001279989825647,0.6355232000350952
1708437446.7917707,-0.9813703894615173,-1.7450024090208949,-2.5723093191729944,2.1774985033222656,-1.1010292212115687,0.6393285393714905
1708437446.7937973,-0.9805346131324768,-1.745434423486227,-2.5728371779071253,2.1769119936176757,-1.1020215193377894,0.6430194973945618
1708437446.795786,-0.9797312021255493,-1.7458116016783656,-2.573345724736349,2.176358624095581,-1.1029446760760706,0.6467276811599731
1708437446.7977865,-0.9789001941680908,-1.7461964092650355,-2.573880974446432,2.1758832174488525,-1.103940788899557,0.6505733132362366
1708437446.799815,-0.9781256318092346,-1.7466031513609828,-2.5743685404406946,2.1754368978687744,-1.104814354573385,0.6543481349945068
1708437446.8017864,-0.9773842096328735,-1.7468701801695765,-2.5748959223376673,2.17492858945813,-1.1057503859149378,0.6581952571868896
1708437446.803795,-0.9766005873680115,-1.7473217449583949,-2.575482432042257,2.1744534212299804,-1.1066845099078577,0.6619591116905212
1708437446.8058054,-0.9758532047271729,-1.7476183376707972,-2.5759690443622034,2.1739465433308105,-1.1076543966876429,0.6657156348228455
1708437446.807846,-0.9750457406044006,-1.7479969463744105,-2.576439444218771,2.1734773355671386,-1.1086199919330042,0.6694090366363525
1708437446.8097959,-0.9743777513504028,-1.7483707867064417,-2.5769553820239466,2.1729816633411865,-1.1094706694232386,0.6730878949165344
1708437446.8118181,-0.9735801219940186,-1.7487403355040492,-2.5775039831744593,2.1725517946430664,-1.1104562918292444,0.6767642498016357
1708437446.8137977,-0.9729281663894653,-1.7491070232787074,-2.578048292790548,2.172116203899048,-1.1113703886615198,0.6805886626243591
1708437446.8158438,-0.9722165465354919,-1.7494484386839808,-2.5785673300372522,2.171701117152832,-1.1123202482806605,0.6843204498291016
1708437446.8178468,-0.9715131521224976,-1.7497865162291468,-2.5791848341571253,2.1713015276142578,-1.113303009663717,0.6882513761520386
1708437446.8197868,-0.9708475470542908,-1.7500716648497523,-2.5796950499164026,2.1708573538013916,-1.1143396536456507,0.6918327808380127
1708437446.8218145,-0.9701751470565796,-1.7504250011839808,-2.5802272001849573,2.170477791423462,-1.1153119246112269,0.6955908536911011
1708437446.8237805,-0.9695242047309875,-1.750742097894186,-2.5807462374316614,2.1700636583515625,-1.116281811391012,0.6991878747940063
1708437446.8258145,-0.9688649773597717,-1.7511059246458949,-2.5812576452838343,2.169752283687256,-1.1171944777118128,0.7029180526733398
1708437446.8277814,-0.9682586789131165,-1.7513896427550257,-2.581778351460592,2.169384642238281,-1.1180999914752405,0.7064834237098694
1708437446.8297834,-0.9676043391227722,-1.7516519031920375,-2.5822814146624964,2.1689798074909667,-1.1189902464496058,0.7101752161979675
1708437446.831762,-0.9669297933578491,-1.7519365749754847,-2.582796875630514,2.1686083513447265,-1.1199992338763636,0.7138314843177795
1708437446.8337803,-0.9663721919059753,-1.7522365055479945,-2.5833354632007044,2.168292685145996,-1.1209209601031702,0.7176191210746765
1708437446.8357682,-0.9656922221183777,-1.7525016270079554,-2.583842102681295,2.1679739195057373,-1.1218526999102991,0.7212285399436951
1708437446.8377697,-0.9650859236717224,-1.7528530559935511,-2.584435049687521,2.167691155070923,-1.1228001753436487,0.7249690294265747
1708437446.8397903,-0.9645885825157166,-1.7531305752196253,-2.5849435965167444,2.167358322734497,-1.1237662474261683,0.7285881638526917
1708437446.8418212,-0.9639764428138733,-1.7534409962096156,-2.585424248372213,2.16711608945813,-1.1247037092791956,0.7322335839271545
1708437446.8437684,-0.963517427444458,-1.7537232838072718,-2.5859649817096155,2.1668237882801513,-1.1256087462054651,0.7358626127243042
1708437446.845777,-0.9628387689590454,-1.7540027103819789,-2.586435381566183,2.166527672404907,-1.1265371481524866,0.7394726276397705
1708437446.8477983,-0.9623396396636963,-1.7541867695250453,-2.586926523839132,2.1662115293690185,-1.127505127583639,0.7431806325912476
1708437446.8497906,-0.9617807269096375,-1.7544576130309046,-2.5874791781054896,2.16596428930249,-1.128411118184225,0.7468090653419495
1708437446.8517947,-0.9612985253334045,-1.7546717129149378,-2.5879724661456507,2.165691538447998,-1.1293605009662073,0.7505540251731873
1708437446.8537855,-0.9607913494110107,-1.7550369701781214,-2.5885008017169397,2.1654929357716064,-1.1303070227252405,0.7541166543960571
1708437446.855792,-0.9602929949760437,-1.7551986179747523,-2.5889394919024866,2.165294809932373,-1.131179157887594,0.7576847076416016
1708437446.8578084,-0.9598535895347595,-1.755350252191061,-2.5894790331469935,2.165066643352173,-1.1320708433734339,0.7612658739089966
1708437446.8598056,-0.9593252539634705,-1.7556010685362757,-2.589954201375143,2.1648427683063964,-1.1329157988177698,0.7648740410804749
1708437446.8617904,-0.9588610529899597,-1.755812784234518,-2.5904167334186,2.164658470744751,-1.1337774435626429,0.7683351635932922
1708437446.8638096,-0.9584512710571289,-1.7560721836485804,-2.590933624898092,2.164499207133911,-1.1345842520343226,0.7719042301177979
1708437446.8657904,-0.9580039978027344,-1.7562624416747035,-2.5913873354541224,2.1642653185078125,-1.1354783217059534,0.775463879108429
1708437446.8677948,-0.9575889706611633,-1.756448885003561,-2.5919204393969935,2.16413061201062,-1.136348072682516,0.7791692614555359
1708437446.869788,-0.9571381211280823,-1.7566501102843226,-2.5924280325519007,2.163963719005249,-1.1372388044940394,0.7827696800231934
1708437446.8717768,-0.9567142128944397,-1.7568384609618128,-2.592870060597555,2.163811131114624,-1.1381743589984339,0.7863377332687378
1708437446.873788,-0.9563308358192444,-1.757033487359518,-2.593321148549215,2.163651390666626,-1.1390789190875452,0.789842426776886
1708437446.875841,-0.9559393525123596,-1.7572080097594203,-2.5938332716571253,2.163540764445923,-1.1399605909930628,0.7933013439178467
1708437446.8777745,-0.9555354714393616,-1.757301469842428,-2.5942066351519983,2.1633974748798828,-1.1408174673663538,0.7968755960464478
1708437446.8797684,-0.955249547958374,-1.7574688396849574,-2.594760243092672,2.1633002000996093,-1.1417282263385218,0.8003221154212952
1708437446.8817744,-0.9548620581626892,-1.7576729259886683,-2.5951574484454554,2.163188858623169,-1.142580811177389,0.8039237260818481
1708437446.8837917,-0.9544981122016907,-1.7577716312804164,-2.5956619421588343,2.163125439281128,-1.1434748808490198,0.8074859380722046
1708437446.8857837,-0.9541800618171692,-1.7578894100584925,-2.5960968176471155,2.1630329328724365,-1.1443646589862269,0.8110435009002686
1708437446.8877802,-0.9538392424583435,-1.7580491505064906,-2.596560780202047,2.1629523473927,-1.1452263037311,0.8145264983177185
1708437446.8897855,-0.9535890817642212,-1.7581521473326625,-2.5970192591296595,2.162949486369751,-1.1460445562945765,0.8180420994758606
1708437446.891782,-0.953313410282135,-1.7583242855467738,-2.5975075403796595,2.162869616145752,-1.1468260923968714,0.8214268684387207
1708437446.8937716,-0.9529370665550232,-1.7584673366942347,-2.5979226271258753,2.16293112813916,-1.147578541432516,0.824833869934082
1708437446.8957896,-0.9527139663696289,-1.758533617059225,-2.5983856360064905,2.162857933635376,-1.1484139601336878,0.8283064961433411
1708437446.8978684,-0.9525070190429688,-1.7586399517455042,-2.598846737538473,2.162818117732666,-1.1491578261004847,0.8316649794578552
1708437446.8998156,-0.9522348642349243,-1.7587925396361292,-2.5992618242846888,2.162778063411377,-1.149982754384176,0.8351429104804993
1708437446.9018152,-0.9520846605300903,-1.758859773675436,-2.599663321171896,2.162813826198242,-1.150752369557516,0.8384367227554321
1708437446.9038117,-0.951788067817688,-1.7589718304076136,-2.6001082102404993,2.1628116804310302,-1.151480499898092,0.8419376015663147
1708437446.9057882,-0.9515394568443298,-1.759080549279684,-2.600518051777975,2.162823362941406,-1.1522939840899866,0.8453264832496643
1708437446.9077883,-0.9513520002365112,-1.759097238580221,-2.600968901311056,2.1628710466572265,-1.1530793348895472,0.848624050617218
1708437446.9098017,-0.9512132406234741,-1.7591716251769007,-2.6014390627490442,2.162935419673584,-1.153841797505514,0.8520053029060364
1708437446.9118106,-0.9510611295700073,-1.7592607937254847,-2.60173470178713,2.1629583078571777,-1.154517952595846,0.8552406430244446
1708437446.9137757,-0.9509221315383911,-1.759350439111227,-2.6022165457354944,2.163038893336914,-1.1552570501910608,0.8585079908370972
1708437446.9157789,-0.950721263885498,-1.7594367466368617,-2.602563206349508,2.163130922908447,-1.1560166517840784,0.8617452383041382
1708437446.9177876,-0.9505990147590637,-1.7593614063658656,-2.6029372851001185,2.1632115083881835,-1.1567342917071741,0.8650005459785461
1708437446.9197786,-0.9504711627960205,-1.7595082722105921,-2.603349272404806,2.1632556158253173,-1.1574481169330042,0.8683284521102905
1708437446.9217846,-0.9502934217453003,-1.7595559559264125,-2.603737179433004,2.1632770734974365,-1.1581009070025843,0.8716100454330444
1708437446.9237792,-0.9501975774765015,-1.7594925365843714,-2.6040833632098597,2.163386030788086,-1.1588199774371546,0.8749357461929321
1708437446.9258187,-0.9500570297241211,-1.7595936260619105,-2.6044548193561,2.163487120265625,-1.1595047155963343,0.8782099485397339
1708437446.927777,-0.9500014185905457,-1.7595564327635707,-2.6048594156848353,2.1635753351398925,-1.160224739705221,0.8814623355865479
1708437446.9297826,-0.9499027729034424,-1.7596379719176234,-2.605194870625631,2.1637167173572998,-1.1609285513507288,0.8846949338912964
1708437446.931792,-0.9498499631881714,-1.759648939172262,-2.6055496374713343,2.1637746530720214,-1.1616557280169886,0.8878244161605835
1708437446.9337838,-0.9497451782226562,-1.7596904240050257,-2.6059511343585413,2.1639155584522705,-1.1622970739947718,0.8909043669700623
1708437446.935775,-0.9497347474098206,-1.759648939172262,-2.6062241236316126,2.1640071111866455,-1.162912670766012,0.8939439058303833
1708437446.937777,-0.949727475643158,-1.759637018243307,-2.6065593401538294,2.164208336467407,-1.1635821501361292,0.8971683979034424
1708437446.939804,-0.9497125744819641,-1.7596575222411097,-2.606920305882589,2.1643106180378417,-1.1641753355609339,0.9002924561500549
1708437446.9418056,-0.9497702121734619,-1.7595564327635707,-2.6072710196124476,2.164475842113159,-1.1647527853595179,0.9035462737083435
1708437446.9438286,-0.9496627449989319,-1.7595120869078578,-2.607565943394796,2.1646391588398437,-1.1654012838946741,0.9067195653915405
1708437446.9457912,-0.9497661590576172,-1.759538312951559,-2.6079302469836634,2.1648642259785156,-1.1659639517413538,0.9099107384681702
1708437446.9478223,-0.9498234987258911,-1.75946106533193,-2.6082659403430384,2.165015144939087,-1.1665576140033167,0.9129922986030579
1708437446.9498641,-0.9498220086097717,-1.7594505749144496,-2.608568255101339,2.1652721601673584,-1.1671207586871546,0.9160626530647278
1708437446.9518173,-0.9498739838600159,-1.759428163568014,-2.608826224003927,2.1654671865650634,-1.1676023642169397,0.9190507531166077
1708437446.9538753,-0.9499251246452332,-1.7593347034850062,-2.609187904988424,2.1656946378895263,-1.168107811604635,0.9221107363700867
1708437446.9558144,-0.9500090479850769,-1.7593475780882777,-2.609459463750021,2.1659154134937744,-1.1686227957354944,0.9251367449760437
1708437446.9578073,-0.9501064419746399,-1.7592021427550257,-2.6098080317126673,2.166090889567993,-1.1691811720477503,0.9282855987548828
1708437446.9597898,-0.9501257538795471,-1.7591468296446742,-2.610066000615255,2.1662985521503906,-1.1697900930987757,0.9313561916351318
1708437446.9617898,-0.9502188563346863,-1.759103914300436,-2.610398832951681,2.1665515142628173,-1.1703246275531214,0.9344201683998108
1708437446.963783,-0.950265109539032,-1.7590276203551234,-2.6106980482684534,2.1667582231708984,-1.170863453541891,0.9375408887863159
1708437446.9658294,-0.9503320455551147,-1.7589718304076136,-2.610997502003805,2.167045994395874,-1.171354118977682,0.9405707120895386
1708437446.9677887,-0.9505014419555664,-1.7589003048338832,-2.6112359205829065,2.16720358907666,-1.1718013922320765,0.94358891248703
1708437446.9698286,-0.9505651593208313,-1.7588244877257289,-2.611548725758688,2.1675702768513183,-1.1723440329181116,0.9465133547782898
1708437446.971815,-0.9506881833076477,-1.7587696514525355,-2.6117902437793177,2.167874260539673,-1.172805134450094,0.9493776559829712
1708437446.973784,-0.9508001208305359,-1.7586900196471156,-2.6120508352862757,2.1681410509296875,-1.17328387895693,0.9523491859436035
1708437446.9757857,-0.9509764909744263,-1.758611341516012,-2.6123068968402308,2.1684369283863525,-1.1737507025348108,0.95524662733078
1708437446.9777641,-0.9511247277259827,-1.7584458790221156,-2.612561289464132,2.168761892909668,-1.174194637929098,0.9582616090774536
1708437446.9797673,-0.9512884616851807,-1.758371492425436,-2.6127846876727503,2.169064446086548,-1.1745904127704065,0.9612172245979309
1708437446.9817631,-0.9514927864074707,-1.758280416528219,-2.6130080858813685,2.1694163519093017,-1.17499286333193,0.9641351103782654
1708437446.9837627,-0.9516606330871582,-1.7581778965392054,-2.6132758299456995,2.169674797649048,-1.175387207661764,0.9671884775161743
1708437446.985761,-0.9518480896949768,-1.7580214939513148,-2.6135290304767054,2.1700021463581542,-1.1757972876178187,0.9701375961303711
1708437446.9877558,-0.9521158933639526,-1.7579261265196742,-2.6136823336230677,2.170348806972168,-1.1762450377093714,0.9730038642883301
1708437446.9897738,-0.9523084759712219,-1.7578231296935023,-2.6139066855060022,2.17065612852063,-1.1765864531146448,0.9758740067481995
1708437446.9917874,-0.9525351524353027,-1.7576757870116175,-2.614131275807516,2.17090551435437,-1.1769779364215296,0.9786663055419922
1708437446.9937778,-0.9528071284294128,-1.757515092889303,-2.614338461552755,2.1713120180317382,-1.1773632208453577,0.9815433025360107
1708437446.9957645,-0.9530794024467468,-1.757409235040182,-2.6145430246936243,2.1716770368763427,-1.1777589956866663,0.984337568283081
1708437446.9977953,-0.9533313512802124,-1.7572947941222132,-2.6147335211383265,2.1719912725635986,-1.1781252066241663,0.9872339963912964
1708437446.9997847,-0.9536305069923401,-1.757129808465475,-2.6149163881884974,2.1723593908497314,-1.1784704367267054,0.9900254607200623
1708437447.001779,-0.9539508819580078,-1.756991525689596,-2.615084234868185,2.1726700502583007,-1.1788542906390589,0.9929203987121582
1708437447.003787,-0.9541491866111755,-1.7568732700743617,-2.6152921358691614,2.1730498510548095,-1.1791966597186487,0.9957631826400757
1708437447.0057802,-0.9545109272003174,-1.7566572628416957,-2.615472141896383,2.173458977336548,-1.1794822851764124,0.9986398220062256
1708437447.0079565,-0.9547937512397766,-1.7564732036986292,-2.615565363560812,2.173818750972412,-1.1797974745379847,1.0014432668685913
1708437447.0098093,-0.9550853371620178,-1.7563063106932582,-2.6157997290240687,2.174229307765625,-1.1800678412066858,1.0042791366577148
1708437447.0117662,-0.9554376602172852,-1.7561809025206507,-2.615976397191183,2.1746131616779785,-1.180359188710348,1.0070558786392212
1708437447.0138712,-0.9557769298553467,-1.7560297451415003,-2.616077486668722,2.1750611501881103,-1.1806133429156702,1.0097891092300415
1708437447.015771,-0.956120491027832,-1.7558099232115687,-2.616258684788839,2.1754860120960693,-1.1808598677264612,1.0125435590744019
1708437447.0177932,-0.9564883708953857,-1.755651136437887,-2.616403643284933,2.1758197981068115,-1.1810830275165003,1.015317678451538
1708437447.0197926,-0.9567664861679077,-1.7554856739439906,-2.6165266672717493,2.176267548198364,-1.1813214460956019,1.0178589820861816
1708437447.021784,-0.9571958780288696,-1.7552687130370082,-2.6166954676257532,2.176691933269165,-1.1815760771380823,1.0205914974212646
1708437447.023791,-0.957506000995636,-1.7550918064513148,-2.6167410055743616,2.177119656200073,-1.1818731466876429,1.0232887268066406
1708437447.0258243,-0.9579190015792847,-1.7548543415465296,-2.6168533007251185,2.1774541574665527,-1.1820061842547815,1.0259679555892944
1708437447.0278018,-0.9582170248031616,-1.754686018029684,-2.616971794758932,2.1778570848652343,-1.1822784582721155,1.0286436080932617
1708437447.0298204,-0.958596408367157,-1.7545234165587367,-2.6171255747424524,2.1782609659382324,-1.182509724293844,1.0313544273376465
1708437447.0317693,-0.959026575088501,-1.7541967831053675,-2.6172006765948694,2.178677483195923,-1.182732407246725,1.0340077877044678
1708437447.0338438,-0.9593730568885803,-1.7540565929808558,-2.6172803084002894,2.1790970998951416,-1.1828659216510218,1.0365787744522095
1708437447.035786,-0.9597929120063782,-1.7538792095580042,-2.617315117512838,2.179537459010742,-1.1830657164203089,1.0392361879348755
1708437447.0378063,-0.9601398706436157,-1.753700395623678,-2.617427412663595,2.1799589830585937,-1.183282200490133,1.041664719581604
1708437447.0397885,-0.9605799913406372,-1.7534858189024867,-2.6174781958209437,2.1803878980823974,-1.1834171454059046,1.0443153381347656
1708437447.0417957,-0.960974931716919,-1.7532249889769496,-2.6175783316241663,2.18082778036084,-1.1835888067828577,1.0467174053192139
1708437447.0437815,-0.9613695740699768,-1.753047605554098,-2.6176417509662073,2.181314392680786,-1.183707062398092,1.049340844154358
1708437447.0457754,-0.961811363697052,-1.7528230152525843,-2.6177430788623255,2.181706352824829,-1.1838744322406214,1.051728367805481
1708437447.0477908,-0.9621842503547668,-1.7525197468199671,-2.61786395708193,2.1821624475666503,-1.1839779059039515,1.054384708404541
1708437447.0498126,-0.9626221656799316,-1.7523423633971156,-2.617870632802145,2.1826059061237792,-1.184084717427389,1.0568394660949707
1708437447.05177,-0.9630514979362488,-1.7521497211852015,-2.6179545561419886,2.183051033610962,-1.1841614882098597,1.0594496726989746
1708437447.053826,-0.9634742140769958,-1.7518249950804652,-2.617981735860006,2.1834847170063476,-1.1842358748065394,1.0619970560073853
1708437447.0557857,-0.9639031887054443,-1.751610895196432,-2.6180952231036585,2.1839236456104736,-1.184303108845846,1.0644536018371582
1708437447.057773,-0.9643791317939758,-1.751324316064352,-2.618142906819479,2.184373303050659,-1.1844165960894983,1.066888451576233
1708437447.0597935,-0.9647734761238098,-1.7511798344054164,-2.6181283632861536,2.18477909147229,-1.1844671408282679,1.0693355798721313
1708437447.0617955,-0.9652743935585022,-1.750836034814352,-2.6182103792773646,2.185238762492798,-1.1844947973834437,1.0716924667358398
1708437447.0638068,-0.9657254219055176,-1.7506176433958949,-2.6182661692248743,2.1856960493275146,-1.1845305601703089,1.0740834474563599
1708437447.0658,-0.9662409424781799,-1.7503181896605433,-2.6183019320117396,2.1861466604420166,-1.1845734755145472,1.0764120817184448
1708437447.0677733,-0.9666709303855896,-1.7500764332213343,-2.6183257738696497,2.1865977483936767,-1.1846306959735315,1.078694224357605
1708437447.0698066,-0.9671304821968079,-1.749805589715475,-2.618366305028097,2.187026186580322,-1.1845935026751917,1.081054449081421
1708437447.071799,-0.9675655364990234,-1.7496534786620082,-2.618305031453268,2.1874441343494873,-1.1846378485309046,1.0834299325942993
1708437447.0737972,-0.9680771231651306,-1.7493373356261195,-2.618354145680563,2.1879336076923828,-1.184624497090475,1.0857970714569092
1708437447.0758233,-0.9685897827148438,-1.74900545696401,-2.618366305028097,2.188361330623291,-1.1846173445331019,1.0881931781768799
1708437447.0777795,-0.9690601229667664,-1.7487718067564906,-2.618308130894796,2.188889904613159,-1.1846502462970179,1.090523362159729
1708437447.079774,-0.9695201516151428,-1.7484938106932582,-2.61828858057131,2.1893209654041748,-1.1845601240741175,1.0928525924682617
1708437447.08178,-0.9699869751930237,-1.748277326623434,-2.6182363669024866,2.189755840892456,-1.1845110098468226,1.0950886011123657
1708437447.083772,-0.9704914689064026,-1.7479940853514613,-2.6182003656970423,2.190248652095459,-1.1845081488238733,1.0974832773208618
1708437447.086057,-0.9709943532943726,-1.747695108453268,-2.6181228796588343,2.1906770902821044,-1.184476677571432,1.099696159362793
