Eg3-git/Classifiers/Data Collection/u5/u5www1_ur3e_joint_states.csv
time,elbow_joint,shoulder_lift_joint,shoulder_pan_joint,wrist_1_joint,wrist_2_joint,wrist_3_joint
1708437352.175411,-1.1320977210998535,-1.667321344415182,-2.5234673658954065,2.3079747396656494,-1.011564079915182,0.5242350697517395
1708437352.1774375,-1.132115364074707,-1.6673866711058558,-2.5234878698932093,2.3080031114765625,-1.0115564505206507,0.5241977572441101
1708437352.1794302,-1.1320884227752686,-1.667370458642477,-2.523492161427633,2.3079051214405517,-1.0115731398211878,0.5241933465003967
1708437352.1814098,-1.1320812702178955,-1.667321344415182,-2.5235000292407435,2.3079542356678466,-1.011531178151266,0.5242394804954529
1708437352.1834462,-1.1320884227752686,-1.6673280201353968,-2.5234957377063196,2.307973785991333,-1.0115779081927698,0.5242056250572205
1708437352.1854043,-1.1321269273757935,-1.667370458642477,-2.5234554449664515,2.307957335109375,-1.0115397612201136,0.5241889953613281
1708437352.187422,-1.132127046585083,-1.6673866711058558,-2.523475948964254,2.307990236873291,-1.0115488211261194,0.5241889953613281
1708437352.1893992,-1.1321362257003784,-1.667349477807516,-2.5235326925860804,2.307973785991333,-1.0115025679217737,0.5242174863815308
1708437352.19139,-1.132115364074707,-1.6673795185484828,-2.5234835783587855,2.3079258638569335,-1.0115445295916956,0.5241638422012329
1708437352.1934164,-1.132127046585083,-1.667323728600973,-2.5234716574298304,2.307994528407715,-1.011510197316305,0.5241889953613281
1708437352.1954303,-1.1321243047714233,-1.66734041790151,-2.523492161427633,2.307957335109375,-1.0114577452289026,0.5241770148277283
1708437352.197451,-1.1320972442626953,-1.6673747501769007,-2.5235043207751673,2.307949944133423,-1.0115159193622034,0.5242218971252441
1708437352.199432,-1.1320884227752686,-1.6673146686949671,-2.5235000292407435,2.3079704481312255,-1.0115445295916956,0.5242130756378174
1708437352.2013915,-1.1321016550064087,-1.6673165760436,-2.5234392325030726,2.3079823690601806,-1.0115206877337855,0.5242100358009338
1708437352.203421,-1.1320977210998535,-1.6672831974425257,-2.5234835783587855,2.3079332548328857,-1.0114668051349085,0.5242099761962891
1708437352.2054086,-1.1321181058883667,-1.6673690281310023,-2.5235000292407435,2.3079628187366943,-1.0115039984332483,0.5242416262626648
1708437352.207432,-1.13215970993042,-1.6673280201353968,-2.5234790484057825,2.3079704481312255,-1.01149827638735,0.5242232084274292
1708437352.2094755,-1.1320858001708984,-1.6673361263670863,-2.5234389940844935,2.3079585272022705,-1.0114668051349085,0.5242056250572205
1708437352.2113924,-1.1320884227752686,-1.6673571072020472,-2.523492161427633,2.3079866605946044,-1.0115159193622034,0.5242336988449097
1708437352.2134461,-1.1320977210998535,-1.6673656902708949,-2.5234673658954065,2.307917042369507,-1.0115039984332483,0.5242099761962891
1708437352.215451,-1.1320929527282715,-1.667361398736471,-2.5234509150134485,2.3079051214405517,-1.0114834944354456,0.5241933465003967
1708437352.2174485,-1.1320765018463135,-1.6673656902708949,-2.5234835783587855,2.3079823690601806,-1.0114668051349085,0.5242218971252441
1708437352.2194226,-1.132102131843567,-1.667295595208639,-2.5234509150134485,2.307917042369507,-1.0114715735064905,0.5241475701332092
1708437352.2214384,-1.132092833518982,-1.6673747501769007,-2.5234878698932093,2.3079704481312255,-1.0115206877337855,0.5242337584495544
1708437352.223449,-1.1320884227752686,-1.667349477807516,-2.523464028035299,2.3079866605946044,-1.0114968458758753,0.5242218971252441
1708437352.2254553,-1.132102131843567,-1.667349477807516,-2.5234597365008753,2.307967110271118,-1.0114834944354456,0.5241879820823669
1708437352.2274308,-1.1320929527282715,-1.6673504314818324,-2.523492161427633,2.307920380229614,-1.0114639441119593,0.5242218375205994
1708437352.2294478,-1.132102131843567,-1.6673370800414027,-2.523492161427633,2.307971640224121,-1.0114758650409144,0.5242219567298889
1708437352.2314045,-1.13206946849823,-1.6673628292479457,-2.5234509150134485,2.307917042369507,-1.0114262739764612,0.5242381691932678
1708437352.2334507,-1.1320720911026,-1.6673370800414027,-2.523492161427633,2.3079139429279785,-1.0114429632769983,0.5242130756378174
1708437352.2354288,-1.1320929527282715,-1.6673280201353968,-2.5234716574298304,2.30792681753125,-1.0114143530475062,0.524217426776886
1708437352.2374172,-1.132060170173645,-1.6672951183714808,-2.5234673658954065,2.3079585272022705,-1.0114520231830042,0.5242130756378174
1708437352.2394042,-1.1321110725402832,-1.667382379571432,-2.5235253016101282,2.307938738460205,-1.0114157835589808,0.5242174863815308
1708437352.241393,-1.132081389427185,-1.667323728600973,-2.5235372225390833,2.3079301553913574,-1.011439625416891,0.5242130756378174
1708437352.2434185,-1.132064938545227,-1.667354246179098,-2.523529593144552,2.307995482082031,-1.0114200750934046,0.5241801738739014
1708437352.2454128,-1.132102131843567,-1.6673079929747523,-2.523475948964254,2.307922525996826,-1.0114143530475062,0.5242381691932678
1708437352.2474718,-1.1321406364440918,-1.667354246179098,-2.5234716574298304,2.3079301553913574,-1.011411492024557,0.5242294073104858
1708437352.249455,-1.132102131843567,-1.667398592034811,-2.523513142262594,2.3079301553913574,-1.0114038626300257,0.5241801738739014
1708437352.251435,-1.13206946849823,-1.6673866711058558,-2.5234835783587855,2.30795065938916,-1.0113423506366175,0.5242087244987488
1708437352.2534378,-1.132115364074707,-1.667318960229391,-2.523496452962057,2.3079301553913574,-1.0114081541644495,0.5242042541503906
1708437352.2554092,-1.1320438385009766,-1.6674019298949183,-2.5234835783587855,2.3079585272022705,-1.011411492024557,0.5242130756378174
1708437352.2574742,-1.13206946849823,-1.6673122845091761,-2.5235121885882776,2.3079585272022705,-1.0113876501666468,0.5241879820823669
1708437352.2594154,-1.1320858001708984,-1.6673432789244593,-2.523475948964254,2.307967110271118,-1.0114367643939417,0.5242205262184143
1708437352.2614381,-1.1320468187332153,-1.6674076519408167,-2.523496452962057,2.307959480876587,-1.0114038626300257,0.5242087244987488
1708437352.2634723,-1.132102131843567,-1.667389532128805,-2.523489061986105,2.3079704481312255,-1.0113666693316858,0.5242262482643127
1708437352.2654243,-1.1320858001708984,-1.667382379571432,-2.5234716574298304,2.307884617442749,-1.0113876501666468,0.5241967439651489
1708437352.2674365,-1.1320765018463135,-1.6673361263670863,-2.523484532033102,2.3079628187366943,-1.0114129225360315,0.5242117643356323
1708437352.2694159,-1.132053017616272,-1.667318960229391,-2.523464028035299,2.307967348689697,-1.0113995710956019,0.524217426776886
1708437352.271463,-1.13206946849823,-1.6673361263670863,-2.523508612309591,2.307917042369507,-1.0113800207721155,0.5242249965667725
1708437352.2735207,-1.132102131843567,-1.667415281335348,-2.5234878698932093,2.30792681753125,-1.0113876501666468,0.5242161750793457
1708437352.2754407,-1.1320720911026,-1.6673451862730921,-2.523475948964254,2.307955189342163,-1.0114277044879358,0.5242490768432617
1708437352.277396,-1.132064938545227,-1.6673451862730921,-2.523484532033102,2.307938738460205,-1.0113919417010706,0.5242609977722168
1708437352.2794824,-1.13211989402771,-1.6673523388304652,-2.5234554449664515,2.307943268413208,-1.0113800207721155,0.5242294073104858
1708437352.2814255,-1.1320991516113281,-1.6673733196654261,-2.523475948964254,2.307922525996826,-1.0114172140704554,0.5242371559143066
1708437352.2834146,-1.1320858001708984,-1.667398592034811,-2.5234771410571497,2.307922525996826,-1.0113499800311487,0.5242522954940796
1708437352.285415,-1.1320929527282715,-1.6673571072020472,-2.523496452962057,2.307882233256958,-1.0113547484027308,0.5242447257041931
1708437352.287399,-1.13206946849823,-1.6673866711058558,-2.523480240498678,2.307922525996826,-1.0114129225360315,0.5243306159973145
1708437352.2894063,-1.132102131843567,-1.6673165760436,-2.523475948964254,2.307894154185913,-1.0114157835589808,0.5242979526519775
1708437352.291403,-1.1320738792419434,-1.6674019298949183,-2.523475948964254,2.307910605067871,-1.0114129225360315,0.5243011116981506
1708437352.2934132,-1.1320438385009766,-1.6673690281310023,-2.523480240498678,2.3079072672077636,-1.0113423506366175,0.5243086814880371
1708437352.2953856,-1.1321066617965698,-1.667361398736471,-2.5234878698932093,2.3078407484241943,-1.0113962332354944,0.524263858795166
1708437352.2973945,-1.1320858001708984,-1.667382379571432,-2.52344781557192,2.3078788953968505,-1.0113590399371546,0.5243206024169922
1708437352.299414,-1.13206946849823,-1.6673733196654261,-2.523472611104147,2.3078746038624267,-1.0113638083087366,0.5243741273880005
1708437352.3013968,-1.132115364074707,-1.667349477807516,-2.523475948964254,2.3078505235859375,-1.0113423506366175,0.5243415832519531
1708437352.3034012,-1.132081389427185,-1.6673761806883753,-2.523468319569723,2.3078831869312744,-1.0113876501666468,0.5243293046951294
1708437352.3054023,-1.132064938545227,-1.667318960229391,-2.523468319569723,2.3078581529804687,-1.0113638083087366,0.524316132068634
1708437352.307419,-1.1320366859436035,-1.6673480472960414,-2.5234597365008753,2.3078624445148925,-1.0113962332354944,0.5243293046951294
1708437352.3094215,-1.1320663690567017,-1.6673852405943812,-2.5234597365008753,2.307903929347656,-1.0113709608661097,0.5243240594863892
1708437352.3114047,-1.1320456266403198,-1.6674062214293421,-2.5234716574298304,2.3078624445148925,-1.0113680998431605,0.5243293046951294
1708437352.3134365,-1.132053017616272,-1.6674229107298792,-2.5234227816211146,2.3079158502766113,-1.0113843123065394,0.5242911577224731
1708437352.315419,-1.1320619583129883,-1.6673881016173304,-2.523480240498678,2.3079158502766113,-1.0113638083087366,0.524316132068634
1708437352.31742,-1.1320858001708984,-1.667429109612936,-2.5234673658954065,2.307866020793579,-1.0113709608661097,0.5243206024169922
1708437352.3194,-1.1320991516113281,-1.6675158939757289,-2.5234597365008753,2.3078667360493164,-1.0113680998431605,0.5242880582809448
1708437352.3214145,-1.1320619583129883,-1.667460104028219,-2.52345854440798,2.3078788953968505,-1.0113919417010706,0.5243403315544128
1708437352.3234746,-1.132027506828308,-1.667539735833639,-2.5234771410571497,2.3078462320515136,-1.0113514105426233,0.5243609547615051
1708437352.325465,-1.1320858001708984,-1.6674572430052699,-2.5234435240374964,2.3078908163258056,-1.0113638083087366,0.5243459343910217
1708437352.327433,-1.1320977210998535,-1.6675025425352992,-2.523492161427633,2.3078014093586425,-1.0113347212420862,0.5243653059005737
1708437352.32944,-1.1320947408676147,-1.6674853763976039,-2.5234597365008753,2.307788534755371,-1.0113862196551722,0.5243535041809082
1708437352.3314037,-1.1320947408676147,-1.6674844227232875,-2.5234509150134485,2.3078059393116455,-1.0113981405841272,0.5243372321128845
1708437352.3334625,-1.1320947408676147,-1.6674677334227503,-2.523468319569723,2.30787102758374,-1.0113800207721155,0.5243578553199768
1708437352.3354154,-1.1320977210998535,-1.6674629650511683,-2.52344781557192,2.3078386026569824,-1.0114143530475062,0.5243535041809082
1708437352.3374171,-1.1320765018463135,-1.6675707302489222,-2.5234554449664515,2.3078951078602294,-1.0113466421710413,0.5243490934371948
1708437352.3394077,-1.132053017616272,-1.6675383053221644,-2.5234597365008753,2.3078667360493164,-1.0114038626300257,0.524307370185852
1708437352.341391,-1.132102131843567,-1.6675216160216273,-2.523456398640768,2.3078996378132324,-1.0113638083087366,0.5243284106254578
1708437352.343413,-1.1320858001708984,-1.6674934826292933,-2.523475948964254,2.3078581529804687,-1.0114219824420374,0.5243043303489685
1708437352.345394,-1.132110595703125,-1.6674891910948695,-2.5234270731555384,2.3078624445148925,-1.0113466421710413,0.524316132068634
1708437352.347487,-1.1320929527282715,-1.6675383053221644,-2.523452107106344,2.3078462320515136,-1.0113890806781214,0.5243074297904968
1708437352.3494477,-1.1320902109146118,-1.6674958668150843,-2.523480240498678,2.3078996378132324,-1.0113638083087366,0.5243240594863892
1708437352.3514395,-1.1320858001708984,-1.6674720249571742,-2.5234196821795862,2.307825489635132,-1.0113843123065394,0.5243653059005737
1708437352.3534408,-1.1320765018463135,-1.6675383053221644,-2.523452107106344,2.3078581529804687,-1.0113709608661097,0.5243653059005737
1708437352.355463,-1.132064938545227,-1.6674891910948695,-2.5234270731555384,2.307809038753174,-1.0113843123065394,0.5243860483169556
1708437352.3574567,-1.132053017616272,-1.6675249538817347,-2.5234316031085413,2.30787102758374,-1.0113981405841272,0.5243327617645264
1708437352.359509,-1.132081389427185,-1.6674934826292933,-2.5234552065478724,2.307833119029663,-1.0113843123065394,0.5243446826934814
1708437352.3614576,-1.132131814956665,-1.6675383053221644,-2.523489061986105,2.3078996378132324,-1.0113547484027308,0.5243446826934814
1708437352.363416,-1.1320321559906006,-1.6675712070860804,-2.523475948964254,2.307853861446045,-1.0114291349994105,0.5243534445762634
1708437352.3654332,-1.132064938545227,-1.6675049267210902,-2.523452107106344,2.3078831869312744,-1.0114291349994105,0.5243117809295654
1708437352.3675098,-1.1320738792419434,-1.667513986627096,-2.523452107106344,2.307833119029663,-1.0113876501666468,0.5242705345153809
1708437352.3694918,-1.1321154832839966,-1.6675340137877406,-2.523472611104147,2.307863636607788,-1.0113423506366175,0.5243043899536133
1708437352.3714478,-1.132087230682373,-1.667513986627096,-2.523468319569723,2.30787102758374,-1.0113680998431605,0.52434903383255
1708437352.3734686,-1.132020354270935,-1.6675263843932093,-2.52342397371401,2.3078951078602294,-1.0113680998431605,0.52434903383255
1708437352.3754532,-1.132081389427185,-1.6674934826292933,-2.5234435240374964,2.3078877168842773,-1.0113547484027308,0.5243772268295288
1708437352.3774152,-1.132057547569275,-1.6675306759276332,-2.523464028035299,2.3078996378132324,-1.0113680998431605,0.5243772268295288
1708437352.379459,-1.1320947408676147,-1.667509218255514,-2.5234316031085413,2.3078343111225585,-1.0113514105426233,0.5243239998817444
1708437352.3814414,-1.1320500373840332,-1.6675473652281703,-2.5234597365008753,2.3078951078602294,-1.0113843123065394,0.5243240594863892
1708437352.3834412,-1.1320663690567017,-1.6674853763976039,-2.5234835783587855,2.3078221517750244,-1.0113723913775843,0.5243249535560608
1708437352.3854852,-1.132057547569275,-1.6674844227232875,-2.5234389940844935,2.3078746038624267,-1.0113680998431605,0.5242955684661865
1708437352.387417,-1.132041096687317,-1.6675173244872035,-2.523496691380636,2.30787102758374,-1.0113843123065394,0.5243521928787231
1708437352.3894181,-1.1320247650146484,-1.6675383053221644,-2.52350885072817,2.307825489635132,-1.0113933722125452,0.5243859887123108
1708437352.391407,-1.1321156024932861,-1.6675249538817347,-2.5234716574298304,2.307825489635132,-1.0113800207721155,0.524295449256897
1708437352.3934062,-1.1320708990097046,-1.6674844227232875,-2.52344781557192,2.30784194051709,-1.0113514105426233,0.5243327617645264
1708437352.3954263,-1.1320991516113281,-1.6675173244872035,-2.5234878698932093,2.3078221517750244,-1.0113557020770472,0.5243403315544128
1708437352.3974266,-1.13206946849823,-1.6674801311888636,-2.523452107106344,2.30784194051709,-1.0113800207721155,0.5243653059005737
1708437352.399764,-1.1321110725402832,-1.6675125561156214,-2.523492161427633,2.3078877168842773,-1.0113514105426233,0.5243415236473083
1708437352.4014046,-1.1320902109146118,-1.6675216160216273,-2.5234509150134485,2.3078505235859375,-1.0113275686847132,0.524398148059845
1708437352.4034216,-1.1321110725402832,-1.6675216160216273,-2.523452107106344,2.3078908163258056,-1.0114248434649866,0.5243522524833679
1708437352.4054053,-1.1320902109146118,-1.6675502262511195,-2.5234552065478724,2.307875557536743,-1.0113466421710413,0.5244069695472717
1708437352.407404,-1.13206946849823,-1.6675182781615199,-2.5234597365008753,2.3078386026569824,-1.0113962332354944,0.5243415832519531
1708437352.4094183,-1.132057547569275,-1.6675545177855433,-2.523475948964254,2.307853861446045,-1.0114010016070765,0.5243359804153442
1708437352.411438,-1.1320738792419434,-1.6675473652281703,-2.523456398640768,2.3078831869312744,-1.0113514105426233,0.5243937969207764
1708437352.4134552,-1.1320663690567017,-1.6675263843932093,-2.52350098291506,2.3078788953968505,-1.0113638083087366,0.5243685841560364
1708437352.4154654,-1.132057547569275,-1.6675173244872035,-2.5234597365008753,2.3078059393116455,-1.0114081541644495,0.524372935295105
1708437352.4174871,-1.1320902109146118,-1.6674934826292933,-2.523468319569723,2.3078505235859375,-1.0113843123065394,0.5243534445762634
1708437352.4194205,-1.1320619583129883,-1.6675454578795375,-2.5234435240374964,2.307825489635132,-1.0114081541644495,0.5243446826934814
1708437352.4214182,-1.1320947408676147,-1.6675425968565882,-2.5234316031085413,2.307837410564087,-1.0114010016070765,0.5242749452590942
1708437352.4234316,-1.1320619583129883,-1.6675182781615199,-2.523413960133688,2.3078505235859375,-1.0114052931415003,0.5243685245513916
1708437352.4254594,-1.132041096687317,-1.6674801311888636,-2.523468319569723,2.3078343111225585,-1.0113800207721155,0.5243161916732788
1708437352.4274907,-1.13206946849823,-1.6675216160216273,-2.523480240498678,2.307870312328003,-1.0113466421710413,0.5243118405342102
1708437352.4294755,-1.1320991516113281,-1.6675049267210902,-2.523452107106344,2.3078300195881347,-1.0114010016070765,0.5243074893951416
1708437352.4313939,-1.1320337057113647,-1.667460104028219,-2.523472611104147,2.3078788953968505,-1.0114129225360315,0.5243478417396545
1708437352.433411,-1.132087230682373,-1.6674982510008753,-2.5234316031085413,2.3078951078602294,-1.0113590399371546,0.5243446826934814
1708437352.4354475,-1.1320663690567017,-1.6675273380675257,-2.523480240498678,2.3078877168842773,-1.0114129225360315,0.5243206024169922
1708437352.4374218,-1.1320456266403198,-1.6674891910948695,-2.523464028035299,2.307837410564087,-1.0113890806781214,0.5243566036224365
1708437352.4394135,-1.1320337057113647,-1.667460104028219,-2.523464028035299,2.3078624445148925,-1.0113800207721155,0.5243653059005737
1708437352.4414485,-1.1320708990097046,-1.6674720249571742,-2.523435894642965,2.3079287248798828,-1.0113709608661097,0.5243685841560364
1708437352.4434266,-1.1320337057113647,-1.667513986627096,-2.523440186177389,2.3078133302875976,-1.0114081541644495,0.5243609547615051
1708437352.4453988,-1.1320456266403198,-1.6674844227232875,-2.5234878698932093,2.307853861446045,-1.0114038626300257,0.5243446826934814
1708437352.447459,-1.132053017616272,-1.6674891910948695,-2.523435656224386,2.3078788953968505,-1.0113876501666468,0.5243653059005737
1708437352.4494407,-1.1320977210998535,-1.6675216160216273,-2.52344781557192,2.3078462320515136,-1.0113547484027308,0.5243740677833557
1708437352.4514565,-1.132081389427185,-1.667506834069723,-2.523480240498678,2.3078343111225585,-1.0114172140704554,0.5243372321128845
1708437352.4534345,-1.132053017616272,-1.6674720249571742,-2.5234435240374964,2.3078877168842773,-1.0113638083087366,0.5243327617645264
1708437352.4554236,-1.1320828199386597,-1.6674958668150843,-2.5234673658954065,2.3078996378132324,-1.0114038626300257,0.524303138256073
1708437352.4574165,-1.1320738792419434,-1.66748108486318,-2.523464028035299,2.3078877168842773,-1.0114081541644495,0.5243196487426758
1708437352.4594262,-1.1320902109146118,-1.6674677334227503,-2.523513142262594,2.307870312328003,-1.0114248434649866,0.5243284106254578
1708437352.4614842,-1.1320619583129883,-1.6674677334227503,-2.523472611104147,2.3078300195881347,-1.0113638083087366,0.5243653059005737
1708437352.463438,-1.1320828199386597,-1.6674677334227503,-2.523452107106344,2.307859106654785,-1.0113499800311487,0.5243741869926453
1708437352.4654675,-1.1320902109146118,-1.6675545177855433,-2.523480240498678,2.307825489635132,-1.0113638083087366,0.5242912173271179
1708437352.46745,-1.1320902109146118,-1.6675225696959437,-2.5234554449664515,2.3078343111225585,-1.0113638083087366,0.5242912173271179
1708437352.4694164,-1.132053017616272,-1.6674677334227503,-2.5234435240374964,2.307837410564087,-1.0113680998431605,0.52434903383255
1708437352.4714127,-1.1320291757583618,-1.6674934826292933,-2.5234716574298304,2.307845039958618,-1.0113962332354944,0.5243327617645264
1708437352.4734206,-1.1320902109146118,-1.6674758396544398,-2.52344781557192,2.307849331493042,-1.0113423506366175,0.5243535041809082
1708437352.4754443,-1.1320902109146118,-1.6675216160216273,-2.523480240498678,2.307892008418701,-1.0114129225360315,0.5243697166442871
1708437352.4774814,-1.1320544481277466,-1.6674982510008753,-2.5234878698932093,2.307882233256958,-1.0114129225360315,0.52434903383255
1708437352.4794643,-1.1320902109146118,-1.6674844227232875,-2.5234435240374964,2.3078417020985107,-1.0113876501666468,0.5243446826934814
1708437352.4814093,-1.1320159435272217,-1.66748108486318,-2.523492161427633,2.3078624445148925,-1.0113919417010706,0.5243535041809082
1708437352.483447,-1.1320902109146118,-1.6674558124937953,-2.5234716574298304,2.3078364568897705,-1.0113962332354944,0.5243578553199768
1708437352.4854198,-1.1320291757583618,-1.667460104028219,-2.5234554449664515,2.3078712660023193,-1.0114577452289026,0.5243161916732788
1708437352.4874308,-1.1320619583129883,-1.6674844227232875,-2.523435894642965,2.3078624445148925,-1.0114081541644495,0.5243327617645264
1708437352.489433,-1.1320782899856567,-1.667490144769186,-2.52344781557192,2.3078746038624267,-1.0114458242999476,0.5243206024169922
1708437352.4913967,-1.1320991516113281,-1.667436262170309,-2.5234435240374964,2.3078951078602294,-1.0113876501666468,0.5243161916732788
1708437352.4934256,-1.1320379972457886,-1.667490144769186,-2.5234509150134485,2.3078908163258056,-1.0114038626300257,0.5243161916732788
1708437352.4954028,-1.1320738792419434,-1.6674720249571742,-2.5234196821795862,2.3078667360493164,-1.0114038626300257,0.5243161916732788
1708437352.4974115,-1.132057547569275,-1.6674734554686488,-2.523472611104147,2.3078877168842773,-1.0114010016070765,0.524357795715332
1708437352.4994047,-1.1320708990097046,-1.6674391231932582,-2.5234432856189173,2.3078996378132324,-1.0114038626300257,0.5242836475372314
1708437352.5013907,-1.1320619583129883,-1.6674801311888636,-2.523517433797018,2.307837410564087,-1.0114081541644495,0.5242761373519897
1708437352.5034811,-1.1320991516113281,-1.6674944363036097,-2.5234316031085413,2.307816906566284,-1.0113876501666468,0.5243284106254578
1708437352.5054235,-1.1320991516113281,-1.6674558124937953,-2.523456398640768,2.307870312328003,-1.0113738218890589,0.5243206024169922
1708437352.5074396,-1.1320663690567017,-1.6674767933287562,-2.523480240498678,2.3078746038624267,-1.0114038626300257,0.5243327617645264
1708437352.5094385,-1.1320738792419434,-1.6674853763976039,-2.5235253016101282,2.3078908163258056,-1.0114157835589808,0.5242880582809448
1708437352.51144,-1.1320782899856567,-1.6675306759276332,-2.523464028035299,2.3078831869312744,-1.0114200750934046,0.5243293046951294
1708437352.5134337,-1.1320782899856567,-1.6675216160216273,-2.523452107106344,2.307821198100708,-1.0114200750934046,0.524296760559082
1708437352.515435,-1.1320366859436035,-1.6674648723998011,-2.523496452962057,2.307892008418701,-1.011390511189596,0.524276077747345
1708437352.5174665,-1.1320456266403198,-1.667460104028219,-2.523472611104147,2.307821198100708,-1.0114200750934046,0.5242761373519897
1708437352.5194352,-1.1320619583129883,-1.667460104028219,-2.5235007444964808,2.307870312328003,-1.0114319960223597,0.5242836475372314
1708437352.5214605,-1.1320947408676147,-1.6674419842162074,-2.523468319569723,2.30787102758374,-1.0114038626300257,0.5242552161216736
1708437352.5234778,-1.1320782899856567,-1.6674558124937953,-2.523440186177389,2.3078996378132324,-1.0114319960223597,0.5243043303489685
1708437352.5254834,-1.132057547569275,-1.6674958668150843,-2.523468319569723,2.307914896602295,-1.0114439169513147,0.5242924094200134
1708437352.527444,-1.132020354270935,-1.6674934826292933,-2.523480240498678,2.30780474721875,-1.01146108308901,0.524333655834198
1708437352.5294986,-1.1320486068725586,-1.6674515209593714,-2.5234554449664515,2.307833119029663,-1.011439625416891,0.5243173837661743
1708437352.5314274,-1.132103681564331,-1.6674982510008753,-2.5234716574298304,2.307849569911621,-1.01141864458193,0.5243293046951294
1708437352.533442,-1.13206946849823,-1.667436262170309,-2.523513142262594,2.3078788953968505,-1.0114501158343714,0.5242999196052551
1708437352.5354154,-1.1320782899856567,-1.6675006351866664,-2.5234270731555384,2.3078581529804687,-1.0114367643939417,0.5243415236473083
1708437352.5374236,-1.1320858001708984,-1.667506834069723,-2.5234878698932093,2.3078908163258056,-1.011468235646383,0.5243249535560608
1708437352.5394163,-1.1320947408676147,-1.6675306759276332,-2.5234347025500696,2.3078831869312744,-1.011430565510885,0.5242718458175659
1708437352.5414126,-1.1320291757583618,-1.6675306759276332,-2.523472611104147,2.3078788953968505,-1.011423412953512,0.5242880582809448
1708437352.5434206,-1.1320708990097046,-1.6674844227232875,-2.5234597365008753,2.3078996378132324,-1.011423412953512,0.5243130326271057
1708437352.5454032,-1.1320500373840332,-1.6674677334227503,-2.5235043207751673,2.3078126150318603,-1.0114520231830042,0.5243502855300903
1708437352.5474346,-1.1320544481277466,-1.6675425968565882,-2.5234878698932093,2.3078712660023193,-1.01146108308901,0.5242804884910583
1708437352.5494432,-1.1320128440856934,-1.667431970635885,-2.523475948964254,2.3078505235859375,-1.0114596525775355,0.5243217945098877
1708437352.551446,-1.1320425271987915,-1.6674648723998011,-2.523492161427633,2.3079072672077636,-1.0114520231830042,0.5243206024169922
1708437352.5534685,-1.1320470571517944,-1.667513986627096,-2.5234878698932093,2.3078953462788085,-1.0114758650409144,0.5242880582809448
1708437352.555451,-1.1319549083709717,-1.6675049267210902,-2.5234878698932093,2.3078386026569824,-1.0114968458758753,0.524333655834198
1708437352.557432,-1.1319730281829834,-1.6674767933287562,-2.5234878698932093,2.3078505235859375,-1.0114968458758753,0.5243284106254578
1708437352.5594323,-1.131956696510315,-1.6675425968565882,-2.523475948964254,2.307830734843872,-1.0114787260638636,0.5243664979934692
1708437352.5614207,-1.1319581270217896,-1.6675263843932093,-2.5234628359424036,2.3078059393116455,-1.0114386717425745,0.52434903383255
1708437352.5634236,-1.1319328546524048,-1.6675383053221644,-2.523442331944601,2.307826443309448,-1.0115116278277796,0.5243161916732788
1708437352.565429,-1.1319597959518433,-1.6675383053221644,-2.5234597365008753,2.307798309917114,-1.0115564505206507,0.5243697166442871
1708437352.5674453,-1.1319389343261719,-1.6675411663451136,-2.5235164801227015,2.3077995020100097,-1.0115445295916956,0.5244026184082031
1708437352.5694575,-1.1318800449371338,-1.6675588093199671,-2.5234835783587855,2.307753487224243,-1.011559788380758,0.5244176387786865
1708437352.5714364,-1.1318693161010742,-1.6675950489439906,-2.5234790484057825,2.307717486018799,-1.0115397612201136,0.5244120955467224
1708437352.573458,-1.1318737268447876,-1.6675487957396449,-2.523414198552267,2.3077143865772705,-1.0115192572223108,0.5244283676147461
1708437352.5754194,-1.1318047046661377,-1.667582174340719,-2.523496452962057,2.307715340251587,-1.0115507284747522,0.5244643688201904
1708437352.5774667,-1.131754994392395,-1.667555948297018,-2.523550097142355,2.3076750475117187,-1.011543099080221,0.5245001316070557
1708437352.579443,-1.1317520141601562,-1.667588850060934,-2.5234716574298304,2.3076628881641845,-1.0115836302386683,0.5244957208633423
1708437352.58142,-1.1317402124404907,-1.6676298580565394,-2.52344781557192,2.3075737196156005,-1.0115264097796839,0.5245317816734314
1708437352.583432,-1.131758213043213,-1.6676250896849574,-2.523541514073507,2.3075615602680664,-1.0116046110736292,0.524645984172821
1708437352.5854092,-1.1316890716552734,-1.6676622829832972,-2.523489061986105,2.3075715738483886,-1.011559788380758,0.5246776342391968
1708437352.5874326,-1.1316982507705688,-1.6676355801024378,-2.5234716574298304,2.3075191217609863,-1.011559788380758,0.5247014760971069
1708437352.5894208,-1.1316620111465454,-1.6676684818663539,-2.523475948964254,2.3075026708790283,-1.0116165320025843,0.5247284770011902
1708437352.5914063,-1.1316165924072266,-1.6676966152586878,-2.5234835783587855,2.307434006328247,-1.0115955511676233,0.5248211622238159
1708437352.593429,-1.1315689086914062,-1.667703767816061,-2.5235210100757044,2.307360811824463,-1.0115669409381312,0.5248243808746338
1708437352.5954018,-1.1315232515335083,-1.6677442989745082,-2.5234716574298304,2.3073739248463134,-1.0116074720965784,0.5248589515686035
1708437352.5974293,-1.1315158605575562,-1.6678225002684535,-2.52350885072817,2.307338162059448,-1.0116313139544886,0.5249266028404236
1708437352.5994408,-1.1314648389816284,-1.667779108087057,-2.5235522429095667,2.3073479372211914,-1.0116193930255335,0.5250205397605896
1708437352.6014252,-1.1314492225646973,-1.667795320550436,-2.5235000292407435,2.3072780805775146,-1.0117095152484339,0.5250788331031799
1708437352.6034303,-1.1313881874084473,-1.6678735218443812,-2.5235043207751673,2.307234688396118,-1.011695686970846,0.5251684188842773
1708437352.6054275,-1.1313356161117554,-1.6679140530028285,-2.5235210100757044,2.307182474727295,-1.011695686970846,0.5252758264541626
1708437352.6074016,-1.1312874555587769,-1.6678925953307093,-2.5235522429095667,2.3071867662617187,-1.011712376271383,0.5253310203552246
1708437352.6094103,-1.1312347650527954,-1.6679617367186488,-2.5235284010516565,2.307086153621338,-1.0116704146014612,0.5253824591636658
1708437352.6115234,-1.1311532258987427,-1.6679946384825648,-2.5234957377063196,2.3070296484180908,-1.0117195288287562,0.5254899263381958
1708437352.6134386,-1.1311637163162231,-1.6679803333678187,-2.523536030446188,2.306978388423584,-1.0117228666888636,0.5256762504577637
1708437352.6154513,-1.1310358047485352,-1.6680613956847132,-2.523527208958761,2.3069183069416503,-1.0117510000811976,0.525738000869751
1708437352.6174164,-1.1310302019119263,-1.6680346928038539,-2.5235348383532923,2.306837721461914,-1.0117180983172815,0.5258426070213318
1708437352.619445,-1.130993127822876,-1.6680294475951136,-2.52352744737734,2.306748314494751,-1.0117962996112269,0.5260024070739746
1708437352.6214375,-1.130884051322937,-1.6680947742857875,-2.5235677401172083,2.3067373472401123,-1.011771027241842,0.5260936617851257
1708437352.6234758,-1.1308941841125488,-1.6682011089720667,-2.5235558191882532,2.3066164690205078,-1.011815373097555,0.5262547135353088
1708437352.6254795,-1.1307939291000366,-1.668187757531637,-2.523621145878927,2.306593342418335,-1.011860195790426,0.5263572931289673
1708437352.6274295,-1.1307331323623657,-1.6682025394835414,-2.5236037413226526,2.3065923887440185,-1.0118683020221155,0.526497483253479
1708437352.6294563,-1.1306278705596924,-1.6682387791075648,-2.5236156622516077,2.3064629274555664,-1.0119026342975062,0.5265997648239136
1708437352.63141,-1.1305521726608276,-1.66831698040151,-2.5236693064319056,2.3063406187244873,-1.011895004902975,0.5267179608345032
1708437352.633492,-1.1305004358291626,-1.6683646641173304,-2.5236650148974817,2.306339665050171,-1.0118978659259241,0.526928186416626
1708437352.6354053,-1.1304115056991577,-1.6683584652342738,-2.5236473719226282,2.3061856466480712,-1.011946980153219,0.5270509123802185
1708437352.6374066,-1.1303224563598633,-1.6684314213194789,-2.5236473719226282,2.3061093527027587,-1.0120042006122034,0.5272383689880371
1708437352.639421,-1.130275845527649,-1.6684395275511683,-2.523705069218771,2.306058331126831,-1.0120399633990687,0.5274010300636292
1708437352.6414022,-1.1301333904266357,-1.6685482464232386,-2.5237160364734095,2.3059329229542236,-1.0120356718646448,0.5275893211364746
1708437352.6434357,-1.1301240921020508,-1.6685720882811488,-2.5237160364734095,2.3058413702198486,-1.0121210257159632,0.5278341174125671
1708437352.6454108,-1.129949927330017,-1.6686202488341273,-2.5237160364734095,2.305785580272339,-1.0120838324176233,0.5280624628067017
1708437352.6474385,-1.129876971244812,-1.6686517200865687,-2.5237532297717493,2.3057028490253906,-1.0121267477618616,0.5282695889472961
1708437352.6495006,-1.1297531127929688,-1.6686698398985804,-2.523743216191427,2.305602713222168,-1.012146298085348,0.5284639596939087
1708437352.651438,-1.1296159029006958,-1.6687265835204066,-2.5237389246570032,2.3054706293293457,-1.0121586958514612,0.5286641716957092
1708437352.6534586,-1.1295126676559448,-1.668795724908346,-2.523788038884298,2.305382414455078,-1.0121610800372522,0.5288993120193481
1708437352.6553981,-1.1294496059417725,-1.6688610515990199,-2.5237956682788294,2.305328055019043,-1.0122392813311976,0.5290940403938293
1708437352.6574447,-1.1292837858200073,-1.6688796482481898,-2.523759667073385,2.30522005140271,-1.0122631231891077,0.5293216109275818
1708437352.6594381,-1.1292223930358887,-1.668948312798971,-2.5238402525531214,2.3050784307667236,-1.0122540632831019,0.5295648574829102
1708437352.6614454,-1.129135012626648,-1.6690246067442835,-2.5238078276263636,2.3049627977558593,-1.01231557527651,0.5298159718513489
1708437352.6634357,-1.1289327144622803,-1.669018407861227,-2.5238729158984583,2.304880066508911,-1.0123022238360804,0.5301118493080139
1708437352.6654298,-1.1288832426071167,-1.6690699062743128,-2.5238304773913782,2.3047470289417724,-1.0123260656939905,0.5303948521614075
1708437352.6674664,-1.1287078857421875,-1.6692129574217738,-2.523916784917013,2.3045736986347656,-1.0123336950885218,0.5307350754737854
1708437352.669411,-1.128617286682129,-1.6692234478392542,-2.5239155928241175,2.3044699865528564,-1.012341324483053,0.5310057401657104
1708437352.671604,-1.1284406185150146,-1.6692868671812953,-2.523940626774923,2.30437080442395,-1.0123279730426233,0.5312890410423279
1708437352.6734657,-1.1283701658248901,-1.6694213352599085,-2.5239973703967493,2.3042191702076416,-1.012414280568258,0.5315760970115662
1708437352.6754944,-1.1282176971435547,-1.669443746606344,-2.52399188676943,2.3040992456623535,-1.0124309698687952,0.5318634510040283
1708437352.6774256,-1.12810218334198,-1.6694961986937464,-2.52399188676943,2.3039957719990234,-1.0123966375934046,0.5321873426437378
1708437352.6794956,-1.1279418468475342,-1.6695262394347132,-2.5240278879748743,2.303823633784912,-1.0124457518206995,0.5325092077255249
1708437352.6814072,-1.1277707815170288,-1.6696459255614222,-2.5241132418261927,2.3036958414265136,-1.012510124837057,0.5328770875930786
1708437352.6834247,-1.1276719570159912,-1.6697403393187464,-2.5240846315967005,2.3035074907490234,-1.0125177542315882,0.5332762598991394
1708437352.685434,-1.127524495124817,-1.66972078899526,-2.5241294542895716,2.3033625322529296,-1.012522045766012,0.5336604118347168
1708437352.687425,-1.1274092197418213,-1.669816633264059,-2.524132792149679,2.303198738689087,-1.0125373045550745,0.5339940786361694
1708437352.689413,-1.1272906064987183,-1.669840475121969,-2.524172608052389,2.3030800062366943,-1.0125778357135218,0.5343682765960693
1708437352.6914463,-1.127088189125061,-1.669981142083639,-2.5241358915912073,2.30294053136792,-1.0126436392413538,0.5346904993057251
1708437352.6934102,-1.1269415616989136,-1.6700784168639125,-2.5241881052600306,2.3027846056171875,-1.0126612822162073,0.5351800918579102
1708437352.6954067,-1.1268094778060913,-1.6701203785338343,-2.5242329279529017,2.302656813258789,-1.0127304236041468,0.5355420112609863
1708437352.697407,-1.1266615390777588,-1.6701966724791468,-2.524252478276388,2.3024629789539794,-1.0127585569964808,0.5359605550765991
1708437352.6994169,-1.1264886856079102,-1.6702848873534144,-2.5242722670184534,2.302328034038208,-1.0127814451800745,0.5364775657653809
1708437352.701403,-1.1263089179992676,-1.6704017124571742,-2.5242679754840296,2.3021926122852783,-1.012820068989889,0.5369158983230591
1708437352.7034352,-1.126131534576416,-1.670518537560934,-2.524266783391134,2.3020858007618408,-1.0129311720477503,0.537269115447998
1708437352.7054043,-1.126032829284668,-1.6705976925291957,-2.524348799382345,2.301855965251587,-1.0129087607013147,0.5377402901649475
1708437352.707429,-1.1258442401885986,-1.6706801853575648,-2.52431565919985,2.3017403322407226,-1.012998406087057,0.5381711721420288
1708437352.7094142,-1.1257299184799194,-1.6707025967040003,-2.5243681112872522,2.301539583797119,-1.0130131880389612,0.5386050939559937
1708437352.7114296,-1.1256037950515747,-1.6708275280394496,-2.5243681112872522,2.301433725947998,-1.0131271521197718,0.5390403866767883
1708437352.7134674,-1.1254315376281738,-1.6709147892394007,-2.524411741887228,2.301220102901123,-1.0131166617022913,0.5395482778549194
1708437352.715421,-1.1252636909484863,-1.6710201702513636,-2.5244160334216517,2.3010360437580566,-1.0131858030902308,0.5399819612503052
1708437352.7174463,-1.125131607055664,-1.671103139916891,-2.524435822163717,2.300856037730835,-1.0132125059710901,0.5404931902885437
1708437352.719434,-1.1249257326126099,-1.671211381951803,-2.524489227925436,2.3006643491932373,-1.0132816473590296,0.5409959554672241
1708437352.7214127,-1.1247496604919434,-1.6713735065855921,-2.5245206991778772,2.3004931646534423,-1.0133636633502405,0.5415236353874207
1708437352.7234418,-1.1246066093444824,-1.6714149914183558,-2.5244928042041224,2.3002967077442626,-1.0133321920977991,0.5420013666152954
1708437352.7254462,-1.1244686841964722,-1.6715198955931605,-2.5244827906238,2.300125761623047,-1.0133965651141565,0.5425273180007935
1708437352.7274451,-1.1242990493774414,-1.6716119251646937,-2.5245066324817103,2.299945755595825,-1.0134204069720667,0.5430833697319031
1708437352.7294238,-1.124068021774292,-1.6717220745482386,-2.5246134440051478,2.2997702795216064,-1.0134146849261683,0.5435848236083984
1708437352.7314053,-1.1239210367202759,-1.6718479595580042,-2.5245960394488733,2.2996176916309814,-1.013480011616842,0.5441552996635437
1708437352.733458,-1.1237132549285889,-1.6719314060606898,-2.5245755354510706,2.299400730723999,-1.0135300795184534,0.5447062253952026
1708437352.7354252,-1.1235747337341309,-1.6720391712584437,-2.5246854464160364,2.2992655473896484,-1.0135238806353968,0.5453091263771057
1708437352.7374618,-1.1233575344085693,-1.6720816097655238,-2.5246484915362757,2.29917494832959,-1.0135224501239222,0.5459043979644775
1708437352.7394264,-1.1232014894485474,-1.6721612415709437,-2.52474552789797,2.2989985185810546,-1.0136120955096644,0.5464082360267639
1708437352.7414534,-1.1230638027191162,-1.6723181209959925,-2.5247281233416956,2.298839254970215,-1.0136898199664515,0.5469419360160828
1708437352.743434,-1.122796893119812,-1.6723476848998011,-2.524719540272848,2.2986344534107666,-1.0136931578265589,0.5474931597709656
1708437352.7454083,-1.122637391090393,-1.6725427112975062,-2.524735752736227,2.298506899470947,-1.0137155691729944,0.5481338500976562
1708437352.7474363,-1.1224339008331299,-1.6725551090636195,-2.524771753941671,2.2983476358601074,-1.0138128439532679,0.5487437844276428
1708437352.7494607,-1.1222586631774902,-1.672680517236227,-2.524816338215963,2.2981220918842773,-1.0138395468341272,0.5492963194847107
1708437352.7514398,-1.122045636177063,-1.6728178463377894,-2.5248239676104944,2.2979628282734375,-1.0139206091510218,0.5499114394187927
1708437352.7534783,-1.1218658685684204,-1.6729332409300746,-2.5249059836017054,2.2977589803883056,-1.013968292866842,0.5505586862564087
1708437352.755421,-1.1217108964920044,-1.6730247936644496,-2.524827305470602,2.297534390086792,-1.01408559480776,0.551257312297821
1708437352.7574508,-1.1215193271636963,-1.6731206379332484,-2.524907890950338,2.2974044519611816,-1.0140789190875452,0.5518539547920227
1708437352.7594295,-1.1213022470474243,-1.6732150516905726,-2.5249035994159144,2.2971266943165283,-1.0141390005694788,0.5525564551353455
1708437352.7614145,-1.1211092472076416,-1.6732708416380824,-2.5249725023852747,2.2969555097767334,-1.0141823927508753,0.553198516368866
1708437352.7634459,-1.120906114578247,-1.6733838520445765,-2.5249725023852747,2.2967843252369384,-1.0142396132098597,0.5539135336875916
1708437352.7654333,-1.12073814868927,-1.6735111675658167,-2.5250049273120325,2.296518250102661,-1.0142844359027308,0.5545952916145325
1708437352.767467,-1.1205579042434692,-1.6735950909056605,-2.525032345448629,2.296384258861206,-1.0143635908709925,0.5552034378051758
1708437352.7694254,-1.1203380823135376,-1.6736699543394984,-2.525036875401632,2.2961837488361816,-1.0143755117999476,0.5559311509132385
1708437352.7714162,-1.1201902627944946,-1.673807283441061,-2.525031391774313,2.296003981227539,-1.0143821875201624,0.5566420555114746
1708437352.7734437,-1.1199944019317627,-1.6739064655699671,-2.525104586278097,2.295833035106323,-1.0144475142108362,0.5572904944419861
1708437352.7754161,-1.1198147535324097,-1.6739889583983363,-2.525116507207052,2.2956148821064453,-1.014498535786764,0.5579648017883301
1708437352.7774463,-1.119647741317749,-1.6740485630431117,-2.5251315275775355,2.295489473933838,-1.0145462195025843,0.5586722493171692
1708437352.7794204,-1.119463562965393,-1.674157281915182,-2.5251765886889856,2.2952396112629394,-1.0145986715899866,0.5593578815460205
1708437352.7814388,-1.119312047958374,-1.674232622186178,-2.5251992384540003,2.295043392772339,-1.014630142842428,0.5601046085357666
1708437352.7834601,-1.119089961051941,-1.674399038354391,-2.525215450917379,2.294912739390991,-1.0147202650653284,0.5608448386192322
1708437352.7854166,-1.1189401149749756,-1.6744739017882289,-2.52523643175234,2.2946478563496093,-1.0147588888751429,0.5616002082824707
1708437352.7874706,-1.1187149286270142,-1.6745907268919886,-2.5252636114703577,2.2945167261311035,-1.0148232618915003,0.5623744130134583
1708437352.7894158,-1.118485689163208,-1.6746984920897425,-2.525344196950094,2.294296904201172,-1.0148785750018519,0.563098669052124
1708437352.7914214,-1.11833918094635,-1.6747452221312464,-2.5253964106189173,2.29413287221875,-1.0149477163897913,0.5638372898101807
1708437352.793436,-1.1181390285491943,-1.674905916253561,-2.52539569536318,2.294001980418823,-1.014982048665182,0.5645476579666138
1708437352.7954316,-1.1179072856903076,-1.6749450169005335,-2.5254161993609827,2.2937864500233154,-1.0150345007525843,0.5653017163276672
1708437352.797455,-1.1176984310150146,-1.6749946079649867,-2.525447670613424,2.2936155039020996,-1.0151022116290491,0.5661439895629883
1708437352.799423,-1.117571234703064,-1.675119539300436,-2.5254388491259974,2.2933971124836425,-1.0151498953448694,0.5669464468955994
1708437352.8014038,-1.1173524856567383,-1.6751982174315394,-2.5255120436297815,2.293163700694702,-1.0152190367328089,0.567785918712616
1708437352.8034432,-1.1171886920928955,-1.675303121606344,-2.525536123906271,2.292992516154907,-1.0152767340289515,0.5685128569602966
1708437352.805404,-1.1169592142105103,-1.6754480801024378,-2.525597159062521,2.2927934366413574,-1.015362564717428,0.5693077445030212
1708437352.8074644,-1.1168009042739868,-1.675514360467428,-2.5255635420428675,2.2926501470753173,-1.0154297987567347,0.5700821876525879
1708437352.8094466,-1.1166034936904907,-1.675655027429098,-2.525644365941183,2.292487307185791,-1.0155318419085901,0.5709028840065002
1708437352.8114476,-1.1163794994354248,-1.6757270298399867,-2.525684181843893,2.292294903392456,-1.015557114277975,0.5717582702636719
1708437352.8134332,-1.1162153482437134,-1.675859113732809,-2.5257206598864954,2.29211608945813,-1.0156081358539026,0.5725799798965454
1708437352.8154364,-1.1160565614700317,-1.6759187183775843,-2.525715176259176,2.291870041484497,-1.0157306830035608,0.573418378829956
1708437352.8174512,-1.1158894300460815,-1.6760145626463832,-2.525735680256979,2.29177634298291,-1.0157607237445276,0.5742192268371582
1708437352.8194406,-1.1156935691833496,-1.6761342487730921,-2.525832716618673,2.2915472227283935,-1.0158088842975062,0.5750851035118103
1708437352.8214245,-1.1155123710632324,-1.676225324670309,-2.525843922291891,2.291335030192993,-1.0159218947040003,0.5759385824203491
1708437352.823505,-1.115329623222351,-1.6763464413084925,-2.525872294102804,2.2911829191395263,-1.015949551259176,0.5768125057220459
1708437352.8254914,-1.115091323852539,-1.6763931713499964,-2.5258916060077112,2.291032238597534,-1.0160048643695276,0.5777176022529602
1708437352.8274934,-1.114923357963562,-1.6765009365477503,-2.5259323755847376,2.2908145624348144,-1.0160616079913538,0.5784778594970703
1708437352.8294098,-1.114768147468567,-1.676622053185934,-2.525971237813131,2.290684147472046,-1.0161216894732874,0.5792771577835083
1708437352.8314428,-1.1146095991134644,-1.6767593822874964,-2.5260444323169153,2.2904745775410156,-1.0161526838885706,0.5801356434822083
1708437352.8334715,-1.114437222480774,-1.6767837009825648,-2.526027027760641,2.290299816722534,-1.0161874930011194,0.581000804901123
1708437352.8354084,-1.1142702102661133,-1.6768509350218714,-2.52605110803713,2.290151997203491,-1.0162470976458948,0.5818701982498169
1708437352.837461,-1.1140397787094116,-1.6770168743529261,-2.5261359850512903,2.2899841505238037,-1.0163324514972132,0.5827560424804688
1708437352.8393998,-1.11388099193573,-1.677075525323385,-2.5261765162097376,2.2898198801228027,-1.0163787047015589,0.5837234258651733
1708437352.8413951,-1.113734245300293,-1.6771475277342738,-2.526187245045797,2.2896315294453125,-1.0164149443255823,0.5845809578895569
1708437352.8434837,-1.1135497093200684,-1.6773163280882777,-2.5262277762042444,2.289468212718628,-1.016519848500387,0.5855337381362915
1708437352.845409,-1.1133818626403809,-1.6773787937560023,-2.526254955922262,2.289308949107788,-1.0166195074664515,0.5864158868789673
1708437352.8475099,-1.1132092475891113,-1.677530427972311,-2.526315991078512,2.28914920865979,-1.0166710058795374,0.5873411893844604
1708437352.8494773,-1.1130292415618896,-1.677547117272848,-2.5263763109790247,2.289024992580078,-1.016780201588766,0.5882675051689148
1708437352.8514285,-1.1128495931625366,-1.6775924168028773,-2.5264044443713587,2.288824959392212,-1.0168150107013147,0.5892295837402344
1708437352.8534446,-1.112726092338562,-1.6777645550169886,-2.526428286229269,2.2886902528950195,-1.0169242064105433,0.5900740623474121
1708437352.8554003,-1.112567663192749,-1.6778270206847132,-2.526468817387716,2.2884489732929687,-1.0169675985919397,0.5909935832023621
1708437352.857423,-1.1123878955841064,-1.6779095135130824,-2.526487175618307,2.2883381086536865,-1.0169933477984827,0.591979444026947
1708437352.859432,-1.112141489982605,-1.678051610986227,-2.526503626500265,2.2881504732319335,-1.0170858542071741,0.5928652882575989
1708437352.8614583,-1.1120233535766602,-1.6781054935851039,-2.5265515486346644,2.2879363733479003,-1.0171740690814417,0.5938513875007629
1708437352.863465,-1.1118346452713013,-1.6782623730101527,-2.5266085306750696,2.287805958385132,-1.0172413031207483,0.5947108864784241
1708437352.8654103,-1.1116989850997925,-1.6783343754210414,-2.5266311804400843,2.287686272258423,-1.0172770659076136,0.5956739187240601
1708437352.867438,-1.1115148067474365,-1.6784168682494105,-2.5267043749438685,2.287533922786377,-1.017358128224508,0.5966157913208008
1708437352.8694124,-1.1113498210906982,-1.6784726581969203,-2.526679340993063,2.2873825269886474,-1.0174582640277308,0.5975879430770874
1708437352.8714387,-1.1111786365509033,-1.6785770855345667,-2.526797119771139,2.2872177797504882,-1.0175588766681116,0.5985291004180908
1708437352.8734446,-1.1110186576843262,-1.678664346734518,-2.526815954838888,2.2870465952106933,-1.0175603071795862,0.5995078086853027
1708437352.8754349,-1.1108582019805908,-1.6787315807738246,-2.526860300694601,2.2868615823933105,-1.0177019278155726,0.6004582047462463
1708437352.8774443,-1.1106826066970825,-1.6788197956480921,-2.5268753210650843,2.2866694170185546,-1.0177505652057093,0.6014111638069153
1708437352.8794057,-1.1105103492736816,-1.6788197956480921,-2.5268994013415735,2.2865542608448486,-1.0178254286395472,0.6024134755134583
1708437352.8814247,-1.1103209257125854,-1.6790157757201136,-2.526939932500021,2.286398096675537,-1.0178807417498987,0.6034275889396667
1708437352.8834112,-1.110141396522522,-1.67905916790151,-2.5270043055163782,2.286254568690918,-1.0179899374591272,0.6043808460235596
1708437352.885409,-1.11002779006958,-1.679253717462057,-2.5270031134234827,2.2861355978199462,-1.018045727406637,0.6053295731544495
1708437352.887415,-1.1099088191986084,-1.6792761288084925,-2.527055565510885,2.285979910487793,-1.0180967489825647,0.6063512563705444
1708437352.8894,-1.1097480058670044,-1.6792894802489222,-2.527140442525045,2.2858800131031494,-1.0181768576251429,0.6074013710021973
1708437352.8914032,-1.1095384359359741,-1.6793858013548792,-2.527191702519552,2.285675211543701,-1.0182727018939417,0.6084192395210266
1708437352.8934014,-1.109423279762268,-1.6795069179930628,-2.527252737675802,2.285506411189697,-1.0183213392840784,0.609456479549408
1708437352.8953981,-1.1092802286148071,-1.6795784435667933,-2.5273008982287806,2.2853597837635498,-1.018411938344137,0.6104094386100769
1708437352.897404,-1.1090871095657349,-1.6796580753722132,-2.52731162706484,2.2851740556904296,-1.0185139814959925,0.6115204691886902
1708437352.8994238,-1.1089205741882324,-1.6797553501524867,-2.5273106733905237,2.2850591379353027,-1.0185516516314905,0.6125698685646057
1708437352.9013882,-1.1087331771850586,-1.6798554859557093,-2.5273552576648157,2.2849036890217285,-1.018667999898092,0.6136028170585632
1708437352.9033933,-1.1086312532424927,-1.6798621616759242,-2.5274274984942835,2.2847837644764404,-1.018768612538473,0.6146525144577026
1708437352.9054103,-1.108455777168274,-1.6799828014769496,-2.5275211969958704,2.2846531110950927,-1.0187743345843714,0.6156878471374512
1708437352.9074006,-1.108269214630127,-1.6800457439818324,-2.527482811604635,2.284496708507202,-1.0189045111285608,0.6167705655097961
1708437352.9094133,-1.1081470251083374,-1.680105825463766,-2.5275755564319056,2.284442110652588,-1.0189722220050257,0.6178397536277771
1708437352.9114969,-1.1080193519592285,-1.6801492176451625,-2.5275748411761683,2.284256859416626,-1.0190275351153772,0.6188240051269531
1708437352.9134157,-1.1078046560287476,-1.680244585076803,-2.5275986830340784,2.284109278316162,-1.019116226826803,0.6199143528938293
1708437352.915406,-1.1076629161834717,-1.6803752384581507,-2.5276954809771937,2.2839767175861816,-1.0191696325885218,0.6209791302680969
1708437352.9174225,-1.1075025796890259,-1.6803766689696253,-2.5277281443225306,2.2838198381611328,-1.0193012396441858,0.6220493912696838
1708437352.9194136,-1.1073368787765503,-1.680455823937887,-2.5277555624591272,2.283712788219116,-1.019296948109762,0.6231788992881775
1708437352.9214315,-1.1072489023208618,-1.6805535755553187,-2.5277708212481897,2.2835888105579834,-1.0193808714496058,0.6241501569747925
1708437352.923409,-1.1071330308914185,-1.6806580028929652,-2.5278518835650843,2.283466024989746,-1.0195062796222132,0.625318169593811
1708437352.925438,-1.1069203615188599,-1.6806804142394007,-2.5278921763049524,2.283329411143921,-1.019545857106344,0.6263617873191833
1708437352.9274318,-1.1068048477172852,-1.6808225117125453,-2.527919117604391,2.283214254970215,-1.0195921103106897,0.6274036765098572
1708437352.929412,-1.1066279411315918,-1.6808411083617152,-2.527964178715841,2.2830607134052734,-1.0196803251849573,0.6285703778266907
1708437352.9314108,-1.1065174341201782,-1.680883070031637,-2.5279913584338587,2.2829488950916748,-1.01982289949526,0.6297009587287903
1708437352.933407,-1.1064053773880005,-1.681014200250143,-2.528048102055685,2.2828261095234375,-1.0198524633990687,0.630715548992157
1708437352.935402,-1.106187105178833,-1.6810232601561488,-2.528165642415182,2.282693787212036,-1.0199602285968226,0.6319090127944946
1708437352.9373994,-1.106106162071228,-1.6810981235899867,-2.5281932989703577,2.2825612264820556,-1.020062271748678,0.6329289674758911
1708437352.9393954,-1.1059279441833496,-1.6812087498106898,-2.5281296412097376,2.2824956613728027,-1.0201461950885218,0.6340599656105042
1708437352.9414105,-1.1058075428009033,-1.6812178097166957,-2.5281909147845667,2.282301111812256,-1.0202129522906702,0.6350911855697632
1708437352.9434063,-1.1056725978851318,-1.6813270054259242,-2.5282724539386194,2.2821528154560546,-1.020263973866598,0.6362834572792053
1708437352.9454098,-1.105515718460083,-1.681422849694723,-2.528255049382345,2.282062454814575,-1.0203164259540003,0.6373316645622253
1708437352.9474056,-1.1054259538650513,-1.6814996204771937,-2.5283761660205286,2.281935377711914,-1.0203960577594202,0.6384735703468323
1708437352.9494808,-1.1052753925323486,-1.681563516656393,-2.528432909642355,2.28180639326062,-1.0205209890948694,0.6395248770713806
1708437352.95146,-1.1051809787750244,-1.681568285027975,-2.5284069220172327,2.2816836076923828,-1.0205352942096155,0.6406674981117249
1708437352.9534774,-1.10504949092865,-1.6816936932005824,-2.528438393269674,2.281512899989746,-1.020672623311178,0.6416915059089661
1708437352.9554353,-1.1049411296844482,-1.681704660455221,-2.528532091771261,2.281425877208374,-1.0207284132586878,0.6427454948425293
1708437352.9574912,-1.1048345565795898,-1.6818167171873988,-2.5285354296313685,2.2813309866138916,-1.0208328405963343,0.6438817977905273
1708437352.9594889,-1.1046738624572754,-1.6819306812682093,-2.5285759607898157,2.2811783987232666,-1.0208824316607874,0.6450161933898926
1708437352.9614491,-1.1045005321502686,-1.6819902859129847,-2.5286031405078333,2.281115933055542,-1.020975414906637,0.6461417078971863
1708437352.9634445,-1.1043843030929565,-1.6820126972594203,-2.528618637715475,2.2809347349354248,-1.0210354963885706,0.6473011374473572
1708437352.96542,-1.1042975187301636,-1.6821428738036097,-2.528703276311056,2.280883713359497,-1.0211432615863245,0.6484038233757019
1708437352.9674857,-1.104123592376709,-1.6821571789183558,-2.5287635962115687,2.280804319972656,-1.0212400595294397,0.6494641900062561
1708437352.9694738,-1.104024887084961,-1.682263036767477,-2.528754774724142,2.2806190687366943,-1.0213030020343226,0.6506385803222656
1708437352.9714506,-1.1039061546325684,-1.6823002300658167,-2.528823200856344,2.2805232244678955,-1.0213630835162562,0.6517493724822998
1708437352.973472,-1.1037503480911255,-1.6823846302428187,-2.5288146177874964,2.2804154592701416,-1.0214470068561,0.6529172658920288
1708437352.975439,-1.1035765409469604,-1.682472368279928,-2.528940025960104,2.280369444484375,-1.0215018431292933,0.6539955735206604
1708437352.9774644,-1.1034584045410156,-1.6825038395323695,-2.5289552847491663,2.2801388937183837,-1.0215309301959437,0.6551041007041931
1708437352.9794126,-1.1033755540847778,-1.6825877628722132,-2.5289748350726526,2.280099793071411,-1.021578613911764,0.6562700271606445
1708437352.9814162,-1.1031897068023682,-1.68272127727651,-2.528998915349142,2.280000849361084,-1.0216086546527308,0.6572946310043335
1708437352.9835036,-1.1030484437942505,-1.6827718220152796,-2.5290101210223597,2.2798639970966796,-1.021698300038473,0.6584213972091675
1708437352.9854023,-1.1029062271118164,-1.6828614674010218,-2.5291112104998987,2.279698057765625,-1.0217250029193323,0.6595331430435181
1708437352.9874232,-1.102782964706421,-1.6828786335387171,-2.529114548360006,2.279644413585327,-1.0218303839312952,0.6606191396713257
1708437352.9894013,-1.1025973558425903,-1.6829725704588832,-2.5291882197009485,2.2795204359241943,-1.0219300428973597,0.6617270112037659
1708437352.9914284,-1.1024701595306396,-1.6830445728697718,-2.5292192141162317,2.2793966966816406,-1.0219858328448694,0.6627991795539856
1708437352.993405,-1.1023799180984497,-1.6830860577025355,-2.529255215321676,2.2792724806019287,-1.022057835255758,0.6638794541358948
1708437352.9953911,-1.102203130722046,-1.68316712001943,-2.5292542616473597,2.27917663633313,-1.0220955053912562,0.6649880409240723
1708437352.9974442,-1.102054476737976,-1.683240076104635,-2.5292986075030726,2.279029055232666,-1.0221555868731897,0.6660112738609314
1708437352.9993927,-1.1019196510314941,-1.683265825311178,-2.5293501059161585,2.2788805204578857,-1.0222333113299769,0.6671355366706848
1708437353.0014036,-1.1017248630523682,-1.6833216152586878,-2.5294116179095667,2.278780384654663,-1.0223076979266565,0.6682266592979431
1708437353.0034182,-1.1016186475753784,-1.6834145985045375,-2.529426399861471,2.2786525922962646,-1.0223797003375452,0.6693267822265625
1708437353.005408,-1.1014500856399536,-1.6835438213744105,-2.5294669310199183,2.278491421336792,-1.0224559942828577,0.6704440116882324
1708437353.0074224,-1.1012614965438843,-1.6836186848082484,-2.529550854359762,2.2783636289783935,-1.0224874655352991,0.6716042757034302
1708437353.0094118,-1.1010981798171997,-1.6836863956847132,-2.529599730168478,2.2783095079609375,-1.0225518385516565,0.672599196434021
1708437353.011412,-1.1009624004364014,-1.6837130985655726,-2.5296064058886927,2.278157873744629,-1.0226123968707483,0.6736910343170166
1708437353.01344,-1.1007722616195679,-1.6838752231993617,-2.529638115559713,2.277996464366577,-1.0226672331439417,0.6748038530349731
1708437353.015397,-1.1006423234939575,-1.6839748821654261,-2.529691521321432,2.2778846460529785,-1.022719685231344,0.6759364008903503
1708437353.0174296,-1.1004091501235962,-1.6839858494200648,-2.5297399202929896,2.2777485090443115,-1.0227959791766565,0.6769835352897644
1708437353.0194037,-1.100253939628601,-1.684126993218893,-2.529754940663473,2.2775730329700927,-1.0228589216815394,0.6781390309333801
1708437353.0214086,-1.100037932395935,-1.6842104397215785,-2.529806915913717,2.27743308126416,-1.0229604879962366,0.6791577935218811
1708437353.023413,-1.0998859405517578,-1.6842733822264613,-2.5298550764666956,2.277273579234741,-1.023020092641012,0.6803752183914185
1708437353.0254793,-1.0997694730758667,-1.684427400628561,-2.529870335255758,2.2771286207386474,-1.0230429808246058,0.6813867688179016
1708437353.0274575,-1.0995190143585205,-1.684427877465719,-2.5298944155322474,2.2769977289387207,-1.023130242024557,0.6825041174888611
1708437353.029456,-1.09931480884552,-1.6845976314940394,-2.529954258595602,2.276850386256836,-1.0232237021075647,0.6835305094718933
1708437353.0313997,-1.099123239517212,-1.6846281490721644,-2.52997070947756,2.2767068582722167,-1.0232704321490687,0.6846368312835693
1708437353.0334558,-1.098893642425537,-1.6847192249693812,-2.5300381819354456,2.2765142160603027,-1.0233319441424769,0.6857200860977173
1708437353.0354252,-1.0986851453781128,-1.6848226986327113,-2.5300918261157435,2.27635304510083,-1.0234034697162073,0.6867039799690247
1708437353.0374224,-1.0984482765197754,-1.6849633655943812,-2.530086342488424,2.27613274633374,-1.0234554449664515,0.6877633929252625
1708437353.0393944,-1.0981916189193726,-1.685132165948385,-2.5301013628589075,2.275998278255127,-1.0234654585467737,0.6887418031692505
1708437353.0414047,-1.0979814529418945,-1.685235162774557,-2.5301509539233606,2.2757653433033447,-1.02354604402651,0.6898115277290344
1708437353.0434408,-1.0977171659469604,-1.6853767834105433,-2.530186478291647,2.2755283552357177,-1.0235851446734827,0.690888524055481
1708437353.0454202,-1.097556710243225,-1.6854926548399867,-2.53027588525881,2.2754151064106445,-1.0236333052264612,0.6918072700500488
1708437353.0474396,-1.0972323417663574,-1.6855713329710902,-2.5302422682391565,2.2752222257801513,-1.023714844380514,0.692847490310669
1708437353.0494473,-1.097015380859375,-1.6857177219786585,-2.530320469533102,2.274977131480835,-1.0237258116351526,0.6938378214836121
1708437353.0514672,-1.096676230430603,-1.6858536205687464,-2.530335013066427,2.27474491178479,-1.0237649122821253,0.6948965191841125
1708437353.0534573,-1.0964133739471436,-1.6860395870604457,-2.5303714911090296,2.2745491701313476,-1.0238531271563929,0.6958557963371277
1708437353.0554187,-1.0960739850997925,-1.686227937737936,-2.530430618916647,2.274338408107422,-1.023865048085348,0.6967917084693909
1708437353.057426,-1.0957154035568237,-1.6863590679564417,-2.5304418245898646,2.2740577894398193,-1.0239489714251917,0.6977982521057129
1708437353.059417,-1.0954368114471436,-1.6865273914732875,-2.5304792563067835,2.2737931448170166,-1.024017635975973,0.6987609267234802
1708437353.0614805,-1.0950732231140137,-1.6866570911803187,-2.5305519739734095,2.273566408748291,-1.024090592061178,0.6997575759887695
1708437353.063469,-1.094730257987976,-1.6868416271605433,-2.5305302778827112,2.2733353811451416,-1.024071995412008,0.7007713317871094
1708437353.0654628,-1.0943490266799927,-1.6870666942992152,-2.5306246916400355,2.2730752664753417,-1.0241292158709925,0.7017347812652588
1708437353.0674632,-1.0940054655075073,-1.6872087917723597,-2.5306273142444056,2.2728404241749267,-1.0241602102862757,0.7026875615119934
1708437353.069429,-1.0936431884765625,-1.6873680553831996,-2.530675474797384,2.272470160121582,-1.0242546240436,0.7036200165748596
1708437353.0714219,-1.093228816986084,-1.6875478229918421,-2.5307024160968226,2.272284432048462,-1.0242813269244593,0.7044310569763184
1708437353.07345,-1.0928655862808228,-1.6877647838988246,-2.530743185673849,2.271911306972168,-1.0242961088763636,0.7052755355834961
1708437353.0754466,-1.0924729108810425,-1.687996049920553,-2.5307863394366663,2.271667404765747,-1.0243819395648401,0.7062369585037231
1708437353.0774782,-1.0919582843780518,-1.68812956432485,-2.530834738408224,2.2713238435932617,-1.0243876616107386,0.7071323990821838
1708437353.0794241,-1.0915439128875732,-1.6883870563902796,-2.530886713658468,2.271000548,-1.0244539419757288,0.7081027030944824
1708437353.081432,-1.0910383462905884,-1.6886917553343714,-2.5308690706836146,2.2705997663685302,-1.024517838154928,0.7089605331420898
1708437353.0834498,-1.0905702114105225,-1.6888443432249964,-2.5309510866748255,2.270263834590576,-1.0245283285724085,0.709837794303894
1708437353.085426,-1.0901188850402832,-1.6891213856139125,-2.5309951941119593,2.2698439794727783,-1.0245345274554651,0.710747241973877
1708437353.0874321,-1.0896484851837158,-1.689341207543844,-2.5310307184802454,2.269509955043457,-1.02458364168276,0.7115862965583801
1708437353.0894063,-1.089098334312439,-1.6895796261229457,-2.531070057545797,2.2691101270863037,-1.024616543446676,0.7124033570289612
1708437353.0914028,-1.0885822772979736,-1.689873834649557,-2.5311105887042444,2.2687579828449707,-1.0246313253985804,0.7132360935211182
1708437353.093433,-1.088063359260559,-1.6900869808592738,-2.5311625639544886,2.268427773112915,-1.024651352559225,0.7140944600105286
1708437353.0954533,-1.0874526500701904,-1.69041170696401,-2.5312345663653772,2.267963333720825,-1.024740997944967,0.7148650884628296
1708437353.0974061,-1.0869115591049194,-1.690685888329977,-2.531278435383932,2.2675599294849853,-1.0248144308673304,0.7156853675842285
1708437353.0994172,-1.0862748622894287,-1.690949102441305,-2.5312698523150843,2.2670952516743164,-1.024853531514303,0.716539740562439
1708437353.1013958,-1.0856304168701172,-1.6912433109679164,-2.5313339869128626,2.2665909963795166,-1.0248611609088343,0.7173073291778564
1708437353.1034298,-1.0849608182907104,-1.6916243038573207,-2.5313950220691126,2.266111298198364,-1.0248997847186487,0.7180555462837219
1708437353.1054008,-1.0843504667282104,-1.6918860874571742,-2.5314555803882044,2.265671654338501,-1.024919335042135,0.7188790440559387
1708437353.1074188,-1.0836507081985474,-1.6922670803465785,-2.531511131917135,2.2652084070393066,-1.0249431769000452,0.7196475267410278
1708437353.1094058,-1.0829293727874756,-1.6925879917540492,-2.531555954610006,2.2646993833729248,-1.0249584356891077,0.7203307151794434
1708437353.1114044,-1.0822060108184814,-1.6928941212096156,-2.5315995852099817,2.264216347331665,-1.0249865690814417,0.7210084795951843
1708437353.1134515,-1.0814785957336426,-1.6933266125121058,-2.531642738972799,2.2636803823658447,-1.025060002003805,0.7217817306518555
1708437353.1154358,-1.080730676651001,-1.6936975918211878,-2.5317075888263147,2.2631229597279052,-1.0250466505633753,0.7225238084793091
1708437353.1174233,-1.0799015760421753,-1.6940976581969203,-2.531722609196798,2.2626144128986816,-1.0251076857196253,0.7231703400611877
1708437353.1194658,-1.0791022777557373,-1.6944219074644984,-2.5318153540240687,2.2620207506367187,-1.0251439253436487,0.7239091396331787
1708437353.121424,-1.0782443284988403,-1.6948801479735316,-2.531863514577047,2.2613956171223144,-1.0251873175250452,0.7245538234710693
1708437353.1234522,-1.077429175376892,-1.6952454052367152,-2.5318949858294886,2.2608131605335693,-1.0252140204059046,0.7252349257469177
1708437353.125422,-1.0765167474746704,-1.6956612072386683,-2.531921927128927,2.260223074550293,-1.0252965132342737,0.7258514761924744
1708437353.1275582,-1.0756293535232544,-1.6961361370482386,-2.532048050557272,2.2595342832752685,-1.025271240864889,0.7265533804893494
1708437353.1294572,-1.0747445821762085,-1.6964956722655238,-2.5320711771594446,2.258922501201294,-1.0253141562091272,0.7271937131881714
1708437353.1313977,-1.0738166570663452,-1.6969877682127894,-2.5321343580829065,2.258270187968872,-1.0253384749041956,0.7278289794921875
1708437353.133433,-1.0728795528411865,-1.6973821125426234,-2.532182518635885,2.2575861650654296,-1.0253880659686487,0.7284696698188782
1708437353.1354167,-1.0719541311264038,-1.6978775463499964,-2.532254997883932,2.2569138246723632,-1.025381867085592,0.7290858626365662
1708437353.1374564,-1.0709187984466553,-1.6984130344786585,-2.5323389212237757,2.256173773402832,-1.0254433790790003,0.729744553565979
1708437353.1394212,-1.0699045658111572,-1.6989036999144496,-2.532414976750509,2.2554868894764404,-1.0254986921893519,0.7303329706192017
1708437353.1414185,-1.0688508749008179,-1.6993004284300746,-2.5324376265155237,2.254710837001465,-1.0254939238177698,0.7309234738349915
1708437353.1434216,-1.0678939819335938,-1.6999460659422816,-2.5325096289264124,2.2539591032215576,-1.025527302418844,0.7314555048942566
1708437353.1454282,-1.0667831897735596,-1.7004162273802699,-2.5326274077044886,2.253183050746582,-1.025529686604635,0.7320950627326965
1708437353.147425,-1.065734624862671,-1.7009173832335414,-2.5326741377459925,2.252378149623535,-1.0255048910724085,0.7326889038085938
1708437353.149437,-1.0646460056304932,-1.7014652691283167,-2.5327995459186,2.251664324397705,-1.0255497137652796,0.7332421541213989
1708437353.151481,-1.0635405778884888,-1.7020207844176234,-2.532889191304342,2.250884695644043,-1.0256598631488245,0.7338922619819641
1708437353.153439,-1.0624560117721558,-1.702599664727682,-2.532935444508688,2.250028534526489,-1.0256465117083948,0.7344096302986145
1708437353.1554337,-1.0612963438034058,-1.7031175098814906,-2.532954756413595,2.249183340663574,-1.0256784597979944,0.7349030375480652
1708437353.1574697,-1.0601156949996948,-1.7037197552123011,-2.5330093542682093,2.2483653265186767,-1.0256813208209437,0.7354730367660522
1708437353.159449,-1.058919906616211,-1.704299112359518,-2.5331302324878138,2.247506781215332,-1.0258086363421839,0.7359991073608398
1708437353.1614342,-1.0576562881469727,-1.70497526744985,-2.5331979433642786,2.2466258245655517,-1.0258100668536585,0.736473023891449
1708437353.1634123,-1.0564961433410645,-1.7055407963194789,-2.5333030859576624,2.245786591167114,-1.025879208241598,0.7370216250419617
1708437353.1654212,-1.0552129745483398,-1.706174989739889,-2.5334036985980433,2.244825525874756,-1.0259507338153284,0.7375245690345764
1708437353.1674042,-1.0539648532867432,-1.7068025074400843,-2.533475701008932,2.244039459819458,-1.0260151068316858,0.7380580902099609
1708437353.1695144,-1.0527182817459106,-1.7074228725829066,-2.533616367970602,2.2430893617817382,-1.0260494391070765,0.7385115623474121
1708437353.1714313,-1.0514631271362305,-1.7080737553038539,-2.5336957613574427,2.242225094432495,-1.02602464357485,0.73895663022995
1708437353.173443,-1.0501049757003784,-1.7087933025755824,-2.5337756315814417,2.241248293513916,-1.0261004606830042,0.7394638061523438
1708437353.1754339,-1.0488040447235107,-1.7094150982298792,-2.5339089075671595,2.2402970033833007,-1.0261648336993616,0.7399294376373291
1708437353.1774223,-1.0474193096160889,-1.7100936375060023,-2.53394323984255,2.23928086339917,-1.0261920134173792,0.7403879165649414
1708437353.1794312,-1.046006202697754,-1.7108165226378382,-2.5340798536883753,2.238260193462036,-1.0263026396380823,0.7408301830291748
1708437353.1814158,-1.044606328010559,-1.711498876611227,-2.534164015446798,2.2372769552418212,-1.0263822714435022,0.7412394881248474
1708437353.1834586,-1.0432051420211792,-1.712224622766012,-2.534283463154928,2.2361690241047363,-1.0263970533954065,0.7416418194770813
1708437353.185431,-1.0417208671569824,-1.7129384479918421,-2.5344248453723353,2.2352256017872314,-1.0264280478106897,0.7420440912246704
1708437353.1874557,-1.0402657985687256,-1.7137342892088832,-2.534494940434591,2.2342113691517334,-1.0264270941363733,0.7424545884132385
1708437353.189425,-1.0387812852859497,-1.714457174340719,-2.5346151033984583,2.2332076269337158,-1.0264719168292444,0.7428491711616516
1708437353.191403,-1.037298321723938,-1.715161462823385,-2.534682814274923,2.23212639867749,-1.0265496412860315,0.7432597875595093
1708437353.1934097,-1.0357425212860107,-1.7159625492491664,-2.534823481236593,2.2310396867939453,-1.026552979146139,0.7436991333961487
1708437353.195417,-1.0342310667037964,-1.716776033441061,-2.5349181334124964,2.229994459743164,-1.026581112538473,0.7439671158790588
1708437353.197467,-1.032638669013977,-1.7175137005248011,-2.5351174513446253,2.228890581721924,-1.0266411940204065,0.7443099021911621
1708437353.1994011,-1.031058669090271,-1.7182451687254847,-2.535215441380636,2.2277864652821044,-1.0266888777362269,0.7447218298912048
1708437353.2013993,-1.0294123888015747,-1.7191230259337367,-2.535306517277853,2.226681872005127,-1.0267489592181605,0.7450041174888611
1708437353.2034135,-1.027809500694275,-1.7198459110655726,-2.535426441823141,2.225569887752197,-1.026792351399557,0.7454308271408081
1708437353.2054257,-1.026126503944397,-1.720717569390768,-2.535584274922506,2.224419279689453,-1.0269134680377405,0.7457007169723511
1708437353.2074485,-1.024415135383606,-1.7215315304198207,-2.535675589238302,2.2232350546070556,-1.0270136038409632,0.7460764646530151
1708437353.2094386,-1.0227731466293335,-1.7223645649352015,-2.535844866429464,2.2220963674732666,-1.0270512739764612,0.7463744878768921
1708437353.2114675,-1.0210587978363037,-1.7232314548888148,-2.5359981695758265,2.2208360868641357,-1.0272024313556116,0.7466895580291748
1708437353.2134354,-1.0194120407104492,-1.7241350613036097,-2.5360594431506556,2.219621105785034,-1.0272515455829065,0.74698406457901
1708437353.215448,-1.0176770687103271,-1.7249685726561488,-2.536182467137472,2.2184030252644042,-1.0273311773883265,0.7473123073577881
1708437353.2175097,-1.0159265995025635,-1.725856443444723,-2.53632623354067,2.2170728880115966,-1.0274432341205042,0.7475404739379883
1708437353.2194417,-1.0140600204467773,-1.7267724476256312,-2.5365198294269007,2.2158683973499755,-1.0275228659259241,0.74782395362854
1708437353.221445,-1.0122908353805542,-1.7276278934874476,-2.536642853413717,2.2145609098621826,-1.027663532887594,0.7480746507644653
1708437353.2234674,-1.0105020999908447,-1.728528162042135,-2.5368452707873743,2.2133211332508544,-1.0277026335345667,0.7483499646186829
1708437353.2254415,-1.0086523294448853,-1.72949280361318,-2.537011448537008,2.212017222041748,-1.027717415486471,0.7485772967338562
1708437353.2275808,-1.0067768096923828,-1.7304240665831507,-2.5371347109424036,2.210733337993286,-1.0277937094317835,0.7488442063331604
1708437353.2294228,-1.0048836469650269,-1.7313691578307093,-2.537283007298605,2.2094179826923828,-1.0279195944415491,0.7490259408950806
1708437353.2313964,-1.0029616355895996,-1.7324253521361292,-2.5374913851367396,2.208143396968506,-1.0280035177813929,0.7492409944534302
1708437353.2334232,-1.0010309219360352,-1.7333952389159144,-2.53768498102297,2.206890507335327,-1.0280993620501917,0.7494649887084961
1708437353.2354038,-0.9991148114204407,-1.7343574963011683,-2.5378242174731653,2.205547972316406,-1.0281217733966272,0.74972003698349
1708437353.2374153,-0.9972136616706848,-1.7353021107115687,-2.537983481084005,2.2041501241871337,-1.028226677571432,0.7498506307601929
1708437353.2394195,-0.9951892495155334,-1.7362877331175746,-2.5381742159472864,2.2027601438709716,-1.0283106009112757,0.750090479850769
1708437353.2414083,-0.99319988489151,-1.737354417840475,-2.5384164492236536,2.201383038158081,-1.0283897558795374,0.750285267829895
1708437353.2434127,-0.9912115335464478,-1.7383672199644984,-2.538546148930685,2.199930353755615,-1.0285843054400843,0.7504274249076843
1708437353.2454054,-0.9891934990882874,-1.7393681011595667,-2.5387349764453333,2.1985437112995605,-1.0287235418902796,0.7506067156791687
1708437353.2474337,-0.9872488379478455,-1.7403670750060023,-2.5388932863818567,2.197189970607422,-1.0288150946246546,0.7507654428482056
1708437353.249427,-0.9851445555686951,-1.7415019474425257,-2.5391679445849817,2.1957132059284667,-1.0289095083819788,0.7509503960609436
1708437353.2514892,-0.9830767512321472,-1.7425428829588832,-2.539318386708395,2.1943232256123046,-1.029020134602682,0.751117467880249
1708437353.2534387,-0.9809222221374512,-1.7436748943724574,-2.539562527333395,2.1929055887409667,-1.0292704741107386,0.7513011693954468
1708437353.2554352,-0.9787846207618713,-1.7447716198363246,-2.5397632757769983,2.1913925844379882,-1.0294631163226526,0.7514089345932007
1708437353.257417,-0.9766240119934082,-1.7458836040892542,-2.53998309770693,2.1899301248737792,-1.0295656363116663,0.7515150904655457
1708437353.2594104,-0.9744340181350708,-1.7469803295531214,-2.540170733128683,2.1884829240986328,-1.0296972433673304,0.7516062259674072
1708437353.2614539,-0.9723008275032043,-1.7480689487852992,-2.5403338114367884,2.18699233114209,-1.0298107306109827,0.7517505884170532
1708437353.2634406,-0.9700372815132141,-1.7492333851256312,-2.540602747594015,2.185487909907959,-1.0299962202655237,0.7517966628074646
1708437353.2654502,-0.9678059816360474,-1.750319620172018,-2.5407701174365442,2.1839629846760253,-1.030173126851217,0.7519169449806213
1708437353.2674859,-0.9655648469924927,-1.7514802418150843,-2.54102331796755,2.1824981409260253,-1.0302961508380335,0.7520090341567993
1708437353.269446,-0.9633644223213196,-1.7526089153685511,-2.5412641207324427,2.1810266214558105,-1.0304396788226526,0.7520757913589478
1708437353.2714345,-0.9612410068511963,-1.753739973107809,-2.541515652333395,2.1795524793812255,-1.030604664479391,0.7521229386329651
1708437353.2734637,-0.9590331315994263,-1.7548877201476039,-2.5416739622699183,2.1781317430683593,-1.030776325856344,0.7521666288375854
1708437353.2754314,-0.9567698240280151,-1.7560183010497035,-2.541971747075216,2.176644487971924,-1.0308621565448206,0.7522550821304321
1708437353.2774744,-0.9546292424201965,-1.7571259937682093,-2.5422118345843714,2.1750776010700683,-1.0310686270343226,0.7522706985473633
1708437353.2794433,-0.9524101614952087,-1.758263727227682,-2.5424042383777063,2.173578663463257,-1.0311954657184046,0.7523260712623596
1708437353.2814398,-0.9501910209655762,-1.7594453297057093,-2.542614285145895,2.172097607249878,-1.0313380400287073,0.7524266839027405
1708437353.283418,-0.9480071067810059,-1.7605377636351527,-2.5428839365588587,2.1705004411884765,-1.031529728566305,0.7524301409721375
1708437353.2854273,-0.9457817673683167,-1.761684080163473,-2.5430896917926233,2.1689857679554443,-1.0316856543170374,0.7524908185005188
1708437353.2874386,-0.943527340888977,-1.7628566227354945,-2.5433653036700647,2.167450113887451,-1.0318244139300745,0.7525421977043152
1708437353.2894099,-0.9413543343544006,-1.7640043697752894,-2.5435827414142054,2.1659127908894042,-1.032018009816305,0.7526017427444458
1708437353.2914493,-0.9391896724700928,-1.7651168308653773,-2.5437780062304896,2.164480372066162,-1.032123867665426,0.7526336312294006
1708437353.2934382,-0.9370006918907166,-1.7662621937193812,-2.544013325368063,2.1629695135303955,-1.0322793165790003,0.7527016401290894
1708437353.2954187,-0.9347954392433167,-1.7673660717406214,-2.544257704411642,2.161510391826294,-1.0324190298663538,0.7527737021446228
1708437353.2974458,-0.9325932264328003,-1.7685228786864222,-2.544553343449728,2.1600238519855957,-1.0326569716082972,0.7527971863746643
1708437353.2994552,-0.9304078817367554,-1.7696482143797816,-2.544760290776388,2.1586097913929443,-1.032738987599508,0.7528290152549744
1708437353.3014455,-0.9282115697860718,-1.7707625828185023,-2.5450192133532923,2.157078667277954,-1.0329206625567835,0.7528850436210632
1708437353.303417,-0.9260469675064087,-1.7718759975829066,-2.5452502409564417,2.155578060741089,-1.033062760029928,0.7529615163803101
1708437353.3054109,-0.923863410949707,-1.7729841671385707,-2.545499626790182,2.154073877925537,-1.0331805388080042,0.7530209422111511
1708437353.3074272,-0.9216127395629883,-1.7741548023619593,-2.5457258860217493,2.1525563436695556,-1.0334160963641565,0.7530320882797241
1708437353.309401,-0.9194062948226929,-1.775299688378805,-2.545955244694845,2.1510066229053955,-1.033623997365133,0.7530474662780762
1708437353.3114684,-0.9172128438949585,-1.7763954601683558,-2.5462053457843226,2.1495441633411865,-1.0337660948382776,0.7531353235244751
1708437353.313438,-0.9150188565254211,-1.7775327167906703,-2.546429220830099,2.1480371195026855,-1.0339177290545862,0.753171443939209
1708437353.315449,-0.9128121733665466,-1.7786652050414027,-2.5466843287097376,2.1465343671986084,-1.0340192953692835,0.7532267570495605
1708437353.317498,-0.9106237888336182,-1.779851575891012,-2.5469077269183558,2.145094080562256,-1.0342047850238245,0.7532950639724731
1708437353.3194385,-0.9083807468414307,-1.7809845409789027,-2.5471370855914515,2.143610878581665,-1.0343816916095179,0.7533633708953857
1708437353.3214197,-0.9062459468841553,-1.7820831737914027,-2.547412935887472,2.1421732145496826,-1.0345895926104944,0.7533831000328064
1708437353.3234794,-0.9039806723594666,-1.783295293847555,-2.547628704701559,2.1406184869953613,-1.0347150007831019,0.7533738017082214
1708437353.325476,-0.9018096327781677,-1.7843080959715785,-2.547835890446798,2.1391653257557373,-1.0348714033709925,0.7534701228141785
1708437353.3274498,-0.8996010422706604,-1.7854720554747523,-2.548117462788717,2.137646360988281,-1.034947697316305,0.7534737586975098
1708437353.3294313,-0.8973788022994995,-1.7865425548949183,-2.5483532587634485,2.1361493307301025,-1.0351913611041468,0.7535707354545593
1708437353.3314545,-0.8952145576477051,-1.7877136669554652,-2.548588577901022,2.1346346574970703,-1.0353711287127894,0.7535972595214844
1708437353.3334317,-0.8930909037590027,-1.7888122997679652,-2.548821036015646,2.133190556163452,-1.035567585621969,0.7536332607269287
1708437353.335399,-0.8909115791320801,-1.7899214229979457,-2.5490685145007532,2.1316680151173095,-1.0357020537005823,0.753669261932373
1708437353.3374279,-0.8887079358100891,-1.7910357914366664,-2.5493486563311976,2.130183382625244,-1.0358131567584437,0.7537492513656616
1708437353.339416,-0.8865482211112976,-1.7921787701048792,-2.5495453516589563,2.1286565500446777,-1.0359686056720179,0.753780722618103
1708437353.3413985,-0.8842796087265015,-1.793345113793844,-2.549788300191061,2.127180739040039,-1.0361245314227503,0.753808319568634
1708437353.3434315,-0.8820485472679138,-1.794490476647848,-2.5499966780291956,2.12563864767041,-1.0363085905658167,0.7538721561431885
1708437353.3454056,-0.8798509240150452,-1.7956706486144007,-2.5502570311175745,2.1241349416920166,-1.0364730993853968,0.7539004683494568
1708437353.3474429,-0.8776732087135315,-1.796758314172262,-2.5504687468158167,2.122711344356201,-1.0366080443011683,0.7540216445922852
1708437353.3494327,-0.8753817677497864,-1.7979003391661585,-2.550687853490011,2.1212209898182373,-1.0367878119098108,0.7540122270584106
1708437353.3514879,-0.8731637597084045,-1.7990199528136195,-2.5509071985827845,2.1198081213184814,-1.036948029194967,0.7540797591209412
1708437353.3534825,-0.870929479598999,-1.8002287350096644,-2.5511751810656946,2.118355913753174,-1.0371077696429651,0.7541158199310303
1708437353.3555024,-0.8687564730644226,-1.8013106785216273,-2.5513957182513636,2.1168832021900634,-1.0372832457171839,0.7541753649711609
1708437353.3574557,-0.8666008114814758,-1.8024536571898402,-2.5516443888293665,2.1154367166706542,-1.0374558607684534,0.7542157173156738
1708437353.3594654,-0.864385724067688,-1.8035665951170863,-2.551904026662008,2.1139625745960693,-1.037651840840475,0.7542752623558044
1708437353.361508,-0.8622422218322754,-1.8047057590880335,-2.552091662083761,2.112490339870117,-1.0378192106830042,0.7543112635612488
1708437353.363424,-0.8600331544876099,-1.8058506451048792,-2.552335802708761,2.110975666637085,-1.0379422346698206,0.7543590068817139
1708437353.3654215,-0.857828676700592,-1.8070546589293421,-2.5525596777545374,2.109355850810669,-1.0381124655352991,0.7544270157814026
1708437353.3674576,-0.8555992841720581,-1.808141370812887,-2.5527754465686243,2.1078876692005615,-1.0383346716510218,0.754450261592865
1708437353.369517,-0.8533971309661865,-1.8092290363707484,-2.5530360380755823,2.106355829829834,-1.0384357611285608,0.7545475959777832
1708437353.371518,-0.8511847257614136,-1.8103910885252894,-2.5532715956317347,2.1047820287891845,-1.038654629384176,0.7545093297958374
1708437353.3734472,-0.8490232229232788,-1.8115540943541468,-2.5535154978381556,2.1033121782490234,-1.0387476126300257,0.7546308040618896
1708437353.375408,-0.8468708992004395,-1.8127032719054164,-2.553730312977926,2.1018120485493164,-1.0388959089862269,0.7546054124832153
1708437353.3774102,-0.844628095626831,-1.813833852807516,-2.553967301045553,2.10041253148999,-1.0390189329730433,0.754737913608551
1708437353.379427,-0.8424468040466309,-1.814939638177389,-2.554288927708761,2.0988287168690185,-1.0391948858844202,0.754716694355011
1708437353.3814895,-0.8402508497238159,-1.8161193333067835,-2.554434363042013,2.0973266798206787,-1.0393269697772425,0.7548053860664368
1708437353.383441,-0.8380425572395325,-1.8172413311400355,-2.5546379725085657,2.095906897182129,-1.039482895527975,0.7548372745513916
1708437353.3854365,-0.835868239402771,-1.8183275661864222,-2.554906193410055,2.0944439607807617,-1.039576832448141,0.7549214363098145
1708437353.387399,-0.8337018489837646,-1.8194519482054652,-2.5551701227771204,2.0929531294056396,-1.0397747198687952,0.7549651265144348
1708437353.3894277,-0.8315302133560181,-1.8206130466856898,-2.5554514567004603,2.09144036352124,-1.039978329335348,0.7550086379051208
1708437353.3914256,-0.8293271064758301,-1.8217631779112757,-2.5556796232806605,2.089881344432495,-1.0401700178729456,0.7550404071807861
1708437353.3933964,-0.8271505832672119,-1.8228751621642054,-2.5559268633471888,2.088458223933838,-1.0402968565570276,0.7550395131111145
1708437353.395442,-0.8248537182807922,-1.824000974694723,-2.556150499974386,2.0870060163685302,-1.040485684071676,0.7551560401916504
1708437353.3974607,-0.8226808905601501,-1.825158258477682,-2.556387011204855,2.0854455667683105,-1.0406249205218714,0.7552161812782288
1708437353.3994076,-0.8204798102378845,-1.8263589344420375,-2.5566673914538782,2.0840019422718505,-1.0407879988299769,0.7551793456077576
1708437353.401413,-0.8182439804077148,-1.8275367222227992,-2.55692702928652,2.082465334529541,-1.0409348646747034,0.7552077770233154
1708437353.403402,-0.8160076141357422,-1.828658243218893,-2.557199780141012,2.081108971233032,-1.041159454976217,0.7552111148834229
1708437353.405423,-0.813886284828186,-1.8297707043089808,-2.5573774019824427,2.0796679693409423,-1.0413034597979944,0.7552595734596252
1708437353.4074507,-0.8115946650505066,-1.830923696557516,-2.5576661268817347,2.0781659322926025,-1.0414426962481897,0.7552222013473511
1708437353.409471,-0.8094275593757629,-1.832043310204977,-2.5578976313220423,2.076655073756836,-1.0416401068316858,0.7553271055221558
1708437353.4114702,-0.8072242736816406,-1.8331629238524378,-2.558117691670553,2.0751656728931884,-1.0418108145343226,0.7553389668464661
1708437353.4134312,-0.8049780130386353,-1.8343235454955042,-2.558378283177511,2.0736357408710937,-1.042011562977926,0.7553747892379761
1708437353.4154854,-0.8027787208557129,-1.8353868923582972,-2.5585976282702845,2.072143240565918,-1.042210880910055,0.7554023265838623
1708437353.4174662,-0.8006598353385925,-1.8365503750243128,-2.5588653723346155,2.070697231883667,-1.0424769560443323,0.7554227113723755
1708437353.4194324,-0.7984602451324463,-1.8377324543394984,-2.5591824690448206,2.0692037779041748,-1.0426552931415003,0.7553946375846863
1708437353.4214623,-0.7963383197784424,-1.838848730126852,-2.559425417576925,2.067732496852539,-1.0428450743304651,0.7552898526191711
1708437353.423454,-0.7941337823867798,-1.8399731121458949,-2.5597053209887903,2.066278858775757,-1.0430377165423792,0.7553108930587769
1708437353.425495,-0.7919096946716309,-1.8410927257933558,-2.5599735418902796,2.06486098348584,-1.0432403723346155,0.7552579641342163
1708437353.4274657,-0.7897293567657471,-1.8422171078123988,-2.5602617899524134,2.0633420187183837,-1.043474022542135,0.7552791833877563
1708437353.4294279,-0.7875786423683167,-1.8434058628477992,-2.560488764439718,2.061833544368408,-1.0436270872699183,0.7552391886711121
1708437353.4314482,-0.7852950096130371,-1.8444668255248011,-2.5608251730548304,2.060487909907959,-1.0438173452960413,0.7551342844963074
1708437353.433425,-0.783062219619751,-1.8456760845580042,-2.5610809961902063,2.058976574535034,-1.0440328756915491,0.755110502243042
1708437353.4354284,-0.7808751463890076,-1.8468395672240199,-2.561434809361593,2.0575577455708007,-1.0441673437701624,0.7551112771034241
1708437353.437417,-0.7786311507225037,-1.8479391537108363,-2.561715904866354,2.056105776424072,-1.0444067160235804,0.7551079392433167
1708437353.4393995,-0.7764828205108643,-1.8491045437254847,-2.5619757811175745,2.054671450252197,-1.0445449987994593,0.7550514340400696
1708437353.4413917,-0.7742279767990112,-1.8502651653685511,-2.5622616449939173,2.05331198751416,-1.0448139349566858,0.7550199031829834
1708437353.4433975,-0.7720937132835388,-1.8513604603209437,-2.562526051198141,2.0518626409718017,-1.0450742880450647,0.7550080418586731
1708437353.4453988,-0.7698607444763184,-1.8525086841978968,-2.5628214518176478,2.0504118639179687,-1.045309845601217,0.754971981048584
1708437353.4473944,-0.7676985859870911,-1.8536697826781214,-2.5631950537311,2.048964186305664,-1.0456016699420374,0.7549319863319397
1708437353.4494045,-0.7655383348464966,-1.8548108539977015,-2.5634587446795862,2.0475241380878906,-1.045877758656637,0.7548398971557617
1708437353.4514625,-0.7632638812065125,-1.8559471569456996,-2.5637932459460657,2.0460962492176513,-1.046084229146139,0.7548003792762756
1708437353.4534886,-0.7610126733779907,-1.8571073017516078,-2.5640271345721644,2.044494076366089,-1.04633075395693,0.7547720074653625
1708437353.4554603,-0.7588098049163818,-1.858286520043844,-2.5643165747271937,2.0430404382893066,-1.046570126210348,0.7547047734260559
1708437353.4574192,-0.7566425204277039,-1.8594142399229945,-2.564672056828634,2.0415751177021484,-1.046830956135885,0.7546570897102356
1708437353.4594364,-0.754377543926239,-1.860523363152975,-2.564967219029562,2.0401686865040283,-1.0470183531390589,0.7545841336250305
1708437353.4614792,-0.7522199749946594,-1.8617035351195277,-2.5652902762042444,2.0387307840534667,-1.0471766630755823,0.7545450329780579
1708437353.463455,-0.7500677108764648,-1.8628813229002894,-2.565622154866354,2.037346287364624,-1.0474746862994593,0.7544939517974854
1708437353.4654648,-0.7478828430175781,-1.8640366993346156,-2.5659175554858606,2.0358473497578125,-1.0476768652545374,0.7543930411338806
1708437353.4674418,-0.7456516623497009,-1.865185400048727,-2.5662670771228235,2.034538431758545,-1.0479095617877405,0.7542774081230164
1708437353.4694753,-0.7434835433959961,-1.8662806950011195,-2.5666125456439417,2.0330239969440917,-1.0481322447406214,0.7542421221733093
1708437353.4714365,-0.7412543296813965,-1.867448469201559,-2.5669546763049524,2.031609221095703,-1.048356835042135,0.7541022896766663
1708437353.473438,-0.739088237285614,-1.8686329327025355,-2.5672457853900355,2.030193729991577,-1.048612419758932,0.7540509700775146
1708437353.4754386,-0.7369216680526733,-1.8697053394713343,-2.5675302187549036,2.0286895471760253,-1.0488627592669886,0.7539790868759155
1708437353.4774475,-0.7346770167350769,-1.8708721599974574,-2.5678938070880335,2.02732698499646,-1.049133602772848,0.7538954019546509
1708437353.479467,-0.7324295043945312,-1.8720528088011683,-2.5682581106769007,2.0259010034748535,-1.049432102833883,0.7537956237792969
1708437353.4814942,-0.7302317023277283,-1.8731514416136683,-2.5685251394854944,2.0244383054920654,-1.0496657530414026,0.7536672949790955
1708437353.4834461,-0.7280334234237671,-1.8744012318053187,-2.5688300768481653,2.022961302394531,-1.0498817602740687,0.7536332607269287
1708437353.4854178,-0.7258471250534058,-1.8755351505675257,-2.5692125002490442,2.0215677457996826,-1.0501273314105433,0.7535130977630615
1708437353.4874387,-0.7236159443855286,-1.8766819439330042,-2.569568459187643,2.0201942163654785,-1.0503805319415491,0.7533762454986572
1708437353.4894152,-0.7214341163635254,-1.877836366693014,-2.5698683897601526,2.0187956529804687,-1.050596062337057,0.7532809376716614
1708437353.4914076,-0.7192182540893555,-1.8790198765196742,-2.570171896611349,2.0172855097004394,-1.0508621374713343,0.7531944513320923
1708437353.4934406,-0.717011034488678,-1.8801800213255824,-2.5704928080188196,2.0158285337635498,-1.0511019865619105,0.7531026005744934
1708437353.495411,-0.714831531047821,-1.8813735447325648,-2.5708330313311976,2.014484329814575,-1.0513280073748987,0.7529708743095398
1708437353.497496,-0.7125969529151917,-1.8825026951231898,-2.571143452321188,2.013017101878784,-1.0516217390643519,0.7528588175773621
1708437353.4994113,-0.7103962302207947,-1.8836757145323695,-2.5715048948871058,2.0115994650074462,-1.0518654028521937,0.7527836561203003
1708437353.5014148,-0.7082058191299438,-1.884805818597311,-2.5718234221087855,2.0101722913929443,-1.052169148121969,0.7526277303695679
1708437353.5034351,-0.706074595451355,-1.885913988152975,-2.572110954915182,2.0087598997303466,-1.0524809996234339,0.7524998188018799
1708437353.5054066,-0.7039018869400024,-1.8870884380736292,-2.5724883715258997,2.007366104716919,-1.0527809301959437,0.7524611949920654
1708437353.5074413,-0.7016887664794922,-1.8882328472533167,-2.572819773350851,2.005915089244507,-1.0530684630023401,0.7523417472839355
1708437353.5094082,-0.6994664072990417,-1.8894058666624964,-2.573150698338644,2.004481716746948,-1.0533564726458948,0.7522500157356262
1708437353.5114686,-0.6972707509994507,-1.8906003437437953,-2.573461119328634,2.002985401744507,-1.053622070943014,0.7521459460258484
1708437353.5134833,-0.6950918436050415,-1.8917466602721156,-2.5738301912890833,2.0016040044971923,-1.0539153257953089,0.7520307898521423
1708437353.5154383,-0.6929082870483398,-1.8929101429381312,-2.574146572743551,2.000239296550415,-1.0541179815875452,0.7519308924674988
1708437353.517468,-0.6906402111053467,-1.8940421543517054,-2.574461285267965,1.9988414484211425,-1.0543172995196741,0.7517911195755005
1708437353.5194595,-0.6884329915046692,-1.8952304325499476,-2.574801746998922,1.9974261957355957,-1.0545867125140589,0.7516790628433228
1708437353.5214274,-0.6861829161643982,-1.8963819942870082,-2.575097147618429,1.9960087972828369,-1.0548275152789515,0.7515753507614136
1708437353.5234926,-0.6840312480926514,-1.8974510631956996,-2.5754268805133265,1.9946436124989013,-1.0550172964679163,0.7514362335205078
1708437353.525481,-0.6818112730979919,-1.8986369572081507,-2.575806442891256,1.9931947427937011,-1.0553138891803187,0.7513319253921509
1708437353.5274851,-0.6796101331710815,-1.899792333642477,-2.57612115541567,1.9918019014545898,-1.0556109587298792,0.7512122392654419
1708437353.5294454,-0.6774203777313232,-1.900980135003561,-2.5764299074756067,1.9903969007679443,-1.0558703581439417,0.7510645985603333
1708437353.5314488,-0.6752722859382629,-1.9021245441832484,-2.576791588460104,1.988978071803711,-1.056204620991842,0.7509852647781372
1708437353.533432,-0.6730462312698364,-1.9032699070372523,-2.5771713892566126,1.9876457887836914,-1.056483570729391,0.7508742213249207
1708437353.5354218,-0.6708843111991882,-1.9044586620726527,-2.577522579823629,1.9862064558216552,-1.0567291418658655,0.7507591247558594
1708437353.5374262,-0.6686186790466309,-1.9056250057616175,-2.577820364628927,1.9847487646290283,-1.057002369557516,0.7506841421127319
1708437353.5394208,-0.6664138436317444,-1.9067417583861292,-2.578240219746725,1.9832770067402343,-1.0572522322284144,0.7505399584770203
1708437353.5414252,-0.6641918420791626,-1.907903333703512,-2.578501049672262,1.9818400579639892,-1.0575249830829065,0.7504201531410217
1708437353.5434382,-0.6619808673858643,-1.9089848003783167,-2.5788777510272425,1.9803907114216308,-1.0577815214740198,0.7502676844596863
1708437353.5454133,-0.6598204374313354,-1.9101363621153773,-2.5792117754565638,1.9788984495350341,-1.058000389729635,0.750197172164917
1708437353.5474405,-0.6575807332992554,-1.9113627872862757,-2.5795698801623743,1.9774975019642334,-1.0582659880267542,0.7500483989715576
1708437353.549421,-0.655360758304596,-1.9124375782408656,-2.5799363295184534,1.9761368471333007,-1.0585253874408167,0.7499659657478333
1708437353.5514429,-0.6532086730003357,-1.9136730633177699,-2.580312792454855,1.974766417140625,-1.058749024068014,0.7498670816421509
1708437353.5535076,-0.6510825753211975,-1.9147211513915003,-2.580653492604391,1.973348780269287,-1.0590241591082972,0.7497670650482178
1708437353.5555067,-0.6489081978797913,-1.915854116479391,-2.580944840108053,1.9719101625629882,-1.0593212286578577,0.7496117353439331
1708437353.5575137,-0.6467503309249878,-1.9170400104918421,-2.5812483469592493,1.9704746442982177,-1.059565846120016,0.7494997978210449
1708437353.5594726,-0.6445310115814209,-1.9181658230223597,-2.581597153340475,1.9690372186848144,-1.0597994963275355,0.7494128346443176
1708437353.561497,-0.642350435256958,-1.919321676293844,-2.5819528738604944,1.967648907298706,-1.060096565877096,0.7493049502372742
1708437353.5634544,-0.640129029750824,-1.920455118218893,-2.5822599569903772,1.9662031370350341,-1.0604384581195276,0.7491443753242493
1708437353.5654342,-0.637884259223938,-1.9216329059996546,-2.5826523939715784,1.9647571283527832,-1.0606959501849573,0.7490738034248352
1708437353.567408,-0.6356228590011597,-1.9227568111815394,-2.5829952398883265,1.9633626180836181,-1.0609238783465784,0.7489825487136841
1708437353.5695164,-0.6334294080734253,-1.9239398441710414,-2.5833473841296595,1.9619764524647216,-1.061183277760641,0.7488552331924438
1708437353.5714827,-0.6311817765235901,-1.9251414738097132,-2.583724323903219,1.9605697828480224,-1.0613930861102503,0.7487354874610901
1708437353.5734782,-0.6289740800857544,-1.9263206921019496,-2.5840588251696985,1.9592084127613525,-1.061683479939596,0.7485748529434204
1708437353.5754528,-0.6267815828323364,-1.927420278588766,-2.584442917500631,1.9577569204517822,-1.0619953314410608,0.7484760284423828
1708437353.5774503,-0.6246128082275391,-1.9285427532591761,-2.584836784993307,1.9563938814350585,-1.0622294584857386,0.7483447790145874
1708437353.5794835,-0.6223872303962708,-1.9297572575011195,-2.5851591269122522,1.9550067621418457,-1.062596623097555,0.7482163906097412
1708437353.5814233,-0.620209813117981,-1.9308554134764613,-2.585527006779806,1.953598900432251,-1.0628517309771937,0.7480480670928955
1708437353.5834692,-0.6180036664009094,-1.9320460758604945,-2.5858989397632044,1.9521080690571289,-1.0631750265704554,0.747896671295166
1708437353.5854712,-0.6158020496368408,-1.933180948297018,-2.586294476185934,1.9506842333027343,-1.063495937977926,0.7477782964706421
1708437353.5874803,-0.6135479211807251,-1.9343210659422816,-2.586670223866598,1.949218435878418,-1.0638154188739222,0.7476025223731995
1708437353.5894368,-0.6114306449890137,-1.9355079136290492,-2.5870865027057093,1.9479102331348876,-1.064066235219137,0.7474642395973206
1708437353.591401,-0.6092652678489685,-1.9367476902403773,-2.587515179310934,1.9464866357990722,-1.0643985907184046,0.7472806572914124
1708437353.5934405,-0.6070367097854614,-1.9378301105894984,-2.5878732840167444,1.9450887876697998,-1.0647481123553675,0.7470763921737671
1708437353.5954256,-0.6049065589904785,-1.9391170940794886,-2.588337484990255,1.9437331396290283,-1.0650127569781702,0.746836245059967
1708437353.597472,-0.6026623249053955,-1.940225740472311,-2.5887373129474085,1.942300482387207,-1.0653460661517542,0.746632993221283
1708437353.5994108,-0.6004977822303772,-1.941394945184225,-2.589050356541769,1.9408392149158935,-1.0656216780291956,0.7464006543159485
1708437353.6014154,-0.5982288122177124,-1.9425269565977992,-2.5895195643054407,1.9394935804554443,-1.0659039656268519,0.7463333010673523
1708437353.6034367,-0.5960684418678284,-1.9437643490233363,-2.5899341742144983,1.9381629663654785,-1.0662606398211878,0.7460518479347229
1708437353.6054268,-0.5938487648963928,-1.9449063740172328,-2.590370003377096,1.9368266302296142,-1.0665887037860315,0.7458159327507019
1708437353.607422,-0.5916531085968018,-1.946108957330221,-2.5907982031451624,1.9355196195789794,-1.0669539610492151,0.7456705570220947
1708437353.609424,-0.5895248651504517,-1.9472910366454066,-2.5911997000323694,1.9341716009327392,-1.0672820250140589,0.7454107999801636
1708437353.611431,-0.5872743725776672,-1.9484316311278285,-2.591611687337057,1.932811899776123,-1.0676129500018519,0.7451910972595215
1708437353.6134536,-0.5851258039474487,-1.9495517216124476,-2.592015091572897,1.9314679342457275,-1.0679486433612269,0.7449478507041931
1708437353.6154845,-0.5828797221183777,-1.9508024654784144,-2.5924745241748255,1.9300803381153564,-1.0682767073260706,0.7447903752326965
1708437353.617415,-0.5807160139083862,-1.9519945583739222,-2.592890803013937,1.9286512571522216,-1.068664852772848,0.7446035146713257
1708437353.6194398,-0.5785591006278992,-1.9531508884825648,-2.593375031148092,1.927304430598877,-1.069000546132223,0.7442816495895386
1708437353.621426,-0.576349139213562,-1.954324861566061,-2.593820873891012,1.925990267390869,-1.0693443457232874,0.7440674304962158
1708437353.6234279,-0.5740923881530762,-1.9555226765074671,-2.5942569414721888,1.9246389108845214,-1.0696232954608362,0.7437962293624878
1708437353.6254234,-0.5719069838523865,-1.9566823444762171,-2.594748083745138,1.9232167440601806,-1.0699756781207483,0.7435376048088074
1708437353.6274142,-0.5696368217468262,-1.9578873119749964,-2.595191542302267,1.9217347341724853,-1.0703113714801233,0.7432907819747925
1708437353.629473,-0.5674511790275574,-1.9590569935240687,-2.5956276098834437,1.9203335481831054,-1.0706260840045374,0.7430722713470459
1708437353.631449,-0.5652324557304382,-1.9601580105223597,-2.5960829893695276,1.9189914900013427,-1.0710089842425745,0.7428280115127563
1708437353.6334133,-0.5630291104316711,-1.9613954029478968,-2.5965219179736536,1.9175988870808105,-1.0712421576129358,0.7425722479820251
1708437353.6354074,-0.5608371496200562,-1.9625607929625453,-2.5970502535449427,1.9163293081470947,-1.0716326872455042,0.7423464059829712
1708437353.6374164,-0.5586529970169067,-1.9637171230711878,-2.597542111073629,1.9148797231861572,-1.071979824696676,0.7420628666877747
1708437353.6394527,-0.5564621686935425,-1.964856287042135,-2.5979793707477015,1.9134861665913085,-1.0722973982440394,0.7417879700660706
1708437353.6414611,-0.5543165802955627,-1.9660269222655238,-2.5984466711627405,1.9121386247822265,-1.0725720564471644,0.741557776927948
1708437353.6434097,-0.5521140098571777,-1.9672075710692347,-2.598926369343893,1.9107226568409423,-1.072921101246969,0.7412613034248352
1708437353.6454265,-0.549893319606781,-1.9683901272215785,-2.5994232336627405,1.9093963342854003,-1.0732258001910608,0.7410546541213989
1708437353.6474137,-0.5477294921875,-1.9695798359312953,-2.599844042454855,1.9080745416828613,-1.0735371748553675,0.7407839894294739
1708437353.6494648,-0.5455572605133057,-1.9707051716246546,-2.6003530661212366,1.9067184168049316,-1.0738490263568323,0.7405449151992798
1708437353.6514559,-0.5433084964752197,-1.971957346002096,-2.600889031087057,1.9053377348133544,-1.0742271582232874,0.7402332425117493
1708437353.653531,-0.5410873889923096,-1.9730798206725062,-2.6013432184802454,1.903953953380249,-1.0745952765094202,0.739983081817627
