Eg3-git/Classifiers/Data Collection/u5/u5www3_ur3e_joint_states.csv
time,elbow_joint,shoulder_lift_joint,shoulder_pan_joint,wrist_1_joint,wrist_2_joint,wrist_3_joint
1708437399.8335989,-1.1358592510223389,-1.6659661732115687,-2.519636933003561,2.3101746278950195,-1.0043414274798792,0.32454875111579895
1708437399.8356366,-1.1358258724212646,-1.6659451923766078,-2.5196550528155726,2.310194416637085,-1.0043490568744105,0.3245399296283722
1708437399.8375945,-1.1358214616775513,-1.6659733257689417,-2.519575897847311,2.3101486402698974,-1.0043171087848108,0.3245559632778168
1708437399.839648,-1.1358214616775513,-1.6658626995482386,-2.5196715036975306,2.310194416637085,-1.0043414274798792,0.32454437017440796
1708437399.8415916,-1.1358428001403809,-1.6659733257689417,-2.519636933003561,2.3101727205463867,-1.004300896321432,0.3245691657066345
1708437399.8435967,-1.1358203887939453,-1.665959974328512,-2.5196130911456507,2.3101565080830078,-1.0043085257159632,0.32456472516059875
1708437399.8456404,-1.135850429534912,-1.665931840936178,-2.519658152257101,2.3101727205463867,-1.0043414274798792,0.3245156705379486
1708437399.8476355,-1.135796070098877,-1.6659733257689417,-2.519632403050558,2.310208721751831,-1.0043414274798792,0.32456040382385254
1708437399.8496068,-1.1358203887939453,-1.6659046612181605,-2.519636933003561,2.310176058406494,-1.0043624083148401,0.32454437017440796
1708437399.8516333,-1.1358294486999512,-1.6659122906126917,-2.519623343144552,2.3102664190479736,-1.0043342749225062,0.32455316185951233
1708437399.8535843,-1.1358548402786255,-1.665898939172262,-2.51967436472048,2.3101629453846435,-1.004284683858053,0.3245691955089569
1708437399.8555653,-1.1357916593551636,-1.6659823856749476,-2.5196250120746058,2.310159607524536,-1.004312817250387,0.32456040382385254
1708437399.8575964,-1.1357990503311157,-1.6658669910826625,-2.519620482121603,2.3102335172840576,-1.004291836415426,0.32457229495048523
1708437399.8595934,-1.1358717679977417,-1.6659242115416468,-2.519595209752218,2.3102335172840576,-1.0043037573443812,0.32449495792388916
1708437399.8615923,-1.1358124017715454,-1.6659122906126917,-2.5196130911456507,2.3102008539387207,-1.0042875448810022,0.3245399594306946
1708437399.8635955,-1.1358627080917358,-1.6659494839110316,-2.5196250120746058,2.310159607524536,-1.0043171087848108,0.32458552718162537
1708437399.86561,-1.1357916593551636,-1.665898939172262,-2.519620482121603,2.3102707105823974,-1.0043624083148401,0.3244950771331787
1708437399.8675902,-1.1358367204666138,-1.6658626995482386,-2.519686524068014,2.310192270869873,-1.0043252150165003,0.3245692253112793
1708437399.8696005,-1.1358449459075928,-1.6659332714476527,-2.519658152257101,2.31022493421521,-1.0043171087848108,0.32455316185951233
1708437399.8716033,-1.1358493566513062,-1.665877481500143,-2.519632403050558,2.310192270869873,-1.0043085257159632,0.32453545928001404
1708437399.873588,-1.1358864307403564,-1.6658927402892054,-2.51967436472048,2.3101846414753417,-1.0043171087848108,0.32455316185951233
1708437399.8756378,-1.1358449459075928,-1.6659332714476527,-2.51966101328005,2.3102120596119384,-1.0043252150165003,0.3245691657066345
1708437399.877591,-1.1358628273010254,-1.6659404240050257,-2.5196250120746058,2.310180349940918,-1.0043461958514612,0.3245457708835602
1708437399.879623,-1.1358747482299805,-1.665903230706686,-2.519670073186056,2.3101553159901123,-1.0043414274798792,0.3245457708835602
1708437399.8815877,-1.1358612775802612,-1.6659375629820765,-2.519653622304098,2.3102454382130126,-1.0043295065509241,0.32455316185951233
1708437399.883585,-1.1358791589736938,-1.6658884487547816,-2.5196250120746058,2.3101748663135986,-1.0043037573443812,0.32449498772621155
1708437399.8856285,-1.1358791589736938,-1.6658703289427699,-2.519649092351095,2.3102163511463623,-1.004300896321432,0.3244992792606354
1708437399.8876054,-1.135870099067688,-1.665846963922018,-2.519694153462545,2.3102194505878906,-1.0043461958514612,0.32454437017440796
1708437399.889596,-1.1359074115753174,-1.6659332714476527,-2.5196085611926478,2.310208721751831,-1.004312817250387,0.3245280385017395
1708437399.8915985,-1.1358983516693115,-1.6658884487547816,-2.519627873097555,2.310241146678589,-1.0043085257159632,0.32452014088630676
1708437399.893585,-1.1358864307403564,-1.6659332714476527,-2.5196130911456507,2.31022493421521,-1.0043209234820765,0.3245246410369873
1708437399.8955877,-1.135858416557312,-1.6659213505186976,-2.519620482121603,2.310204430217407,-1.0043252150165003,0.32456040382385254
1708437399.8976166,-1.1358493566513062,-1.6659242115416468,-2.5196085611926478,2.310164137477539,-1.0043209234820765,0.3245323598384857
1708437399.899583,-1.1358367204666138,-1.6659242115416468,-2.519636933003561,2.310180349940918,-1.0043371359454554,0.3244949281215668
1708437399.9015849,-1.1358537673950195,-1.6659494839110316,-2.519644562398092,2.3102215963551025,-1.0043209234820765,0.32453685998916626
1708437399.903612,-1.135902762413025,-1.665875097314352,-2.519632403050558,2.310208721751831,-1.0043161551104944,0.32455018162727356
1708437399.9055896,-1.1358493566513062,-1.6658884487547816,-2.519674603139059,2.3102454382130126,-1.004312817250387,0.3245368003845215
1708437399.9075992,-1.1358449459075928,-1.6658884487547816,-2.5196159521686,2.310236855144165,-1.0043085257159632,0.3245869278907776
1708437399.9095814,-1.1358731985092163,-1.6659332714476527,-2.519590679799215,2.3102454382130126,-1.0043342749225062,0.3245323896408081
1708437399.9115841,-1.1358656883239746,-1.6658603153624476,-2.5196788946734827,2.3102499681660156,-1.0043252150165003,0.32456210255622864
1708437399.9136136,-1.1358895301818848,-1.6659285030760707,-2.5196250120746058,2.310220642680786,-1.0043252150165003,0.3245127201080322
1708437399.915624,-1.1358612775802612,-1.6658841572203578,-2.5196788946734827,2.310241146678589,-1.0043624083148401,0.3245691955089569
1708437399.9176445,-1.135868787765503,-1.6659132442870082,-2.5196130911456507,2.3101956087299804,-1.0043161551104944,0.3245280385017395
1708437399.9196117,-1.1358656883239746,-1.665875097314352,-2.5195801893817347,2.310220642680786,-1.0043342749225062,0.32455018162727356
1708437399.921628,-1.1358612775802612,-1.6658884487547816,-2.519604031239645,2.310220642680786,-1.0042994658099573,0.3244993984699249
1708437399.9236283,-1.135836124420166,-1.6659170589842738,-2.5196250120746058,2.31028596937146,-1.004312817250387,0.3245413303375244
1708437399.9256086,-1.135902762413025,-1.6659823856749476,-2.51969558397402,2.3102237421223144,-1.0043533484088343,0.3245323896408081
1708437399.9276168,-1.1358939409255981,-1.6659213505186976,-2.519636933003561,2.310253306026123,-1.0043414274798792,0.3244874179363251
1708437399.9295893,-1.135902762413025,-1.6659041843810023,-2.519636933003561,2.3103107649036865,-1.0043280760394495,0.3245457708835602
1708437399.9315927,-1.1358864307403564,-1.6658579311766566,-2.5196250120746058,2.3102163511463623,-1.004312817250387,0.32452911138534546
1708437399.933594,-1.1358939409255981,-1.6659213505186976,-2.5196085611926478,2.3102163511463623,-1.0043252150165003,0.32449930906295776
1708437399.9355834,-1.1358776092529297,-1.6658884487547816,-2.5196548143969935,2.31022493421521,-1.0043414274798792,0.3245127201080322
1708437399.9376378,-1.1358983516693115,-1.6658841572203578,-2.5196085611926478,2.3101836878010253,-1.0043371359454554,0.324562132358551
1708437399.9396012,-1.135868787765503,-1.6658956013121546,-2.519636933003561,2.3101391035267334,-1.0043252150165003,0.3245413303375244
1708437399.9415894,-1.1358895301818848,-1.6659213505186976,-2.5196548143969935,2.310249014491699,-1.0043371359454554,0.3245201110839844
1708437399.943595,-1.135882019996643,-1.665842195550436,-2.519644562398092,2.310232563609741,-1.0043252150165003,0.3245037794113159
1708437399.9455943,-1.1358864307403564,-1.6658793888487757,-2.519686524068014,2.310236855144165,-1.0043280760394495,0.32451269030570984
1708437399.9476326,-1.1358449459075928,-1.6658793888487757,-2.519636933003561,2.31022493421521,-1.0042994658099573,0.32449641823768616
1708437399.9496105,-1.1358983516693115,-1.6659242115416468,-2.519640032445089,2.310236855144165,-1.0043161551104944,0.32451269030570984
1708437399.9516044,-1.1358776092529297,-1.6658703289427699,-2.519653622304098,2.3102292257496337,-1.0043533484088343,0.3245576024055481
1708437399.9536138,-1.1358524560928345,-1.6658669910826625,-2.519658152257101,2.3102499681660156,-1.0043414274798792,0.32450830936431885
1708437399.955633,-1.135918378829956,-1.6658884487547816,-2.5196159521686,2.3102173048206787,-1.0042827765094202,0.32451269030570984
1708437399.9576058,-1.1359058618545532,-1.6659375629820765,-2.519665543233053,2.310236855144165,-1.0043295065509241,0.3245457708835602
1708437399.959615,-1.1358851194381714,-1.6659041843810023,-2.519627873097555,2.310220642680786,-1.0043652693377894,0.32450076937675476
1708437399.9615846,-1.1358731985092163,-1.6659122906126917,-2.519691054021017,2.31018774091687,-1.0043371359454554,0.32453349232673645
1708437399.9636092,-1.1359102725982666,-1.6658207378783167,-2.5196459929095667,2.310192270869873,-1.0043161551104944,0.32455313205718994
1708437399.9656324,-1.1359190940856934,-1.6658998928465785,-2.519640032445089,2.3102282720753173,-1.004350487385885,0.3245665729045868
1708437399.9676263,-1.1358776092529297,-1.6658793888487757,-2.519606892262594,2.310213013286255,-1.0043743292437952,0.3245368003845215
1708437399.9696057,-1.1358747482299805,-1.6659213505186976,-2.5196250120746058,2.3101672369190673,-1.0043371359454554,0.32454437017440796
1708437399.9716046,-1.135882019996643,-1.6659041843810023,-2.5196250120746058,2.310220642680786,-1.0043447653399866,0.324517160654068
1708437399.9736278,-1.1358493566513062,-1.6659213505186976,-2.51967436472048,2.310265226955078,-1.0043252150165003,0.3245171308517456
1708437399.9756486,-1.1358568668365479,-1.6658717594542445,-2.519604269658224,2.3102585512348632,-1.0043533484088343,0.32453683018684387
1708437399.977631,-1.1359014511108398,-1.665837904016012,-2.519677702580587,2.3102456766315917,-1.004350487385885,0.3245531916618347
1708437399.9796557,-1.1358449459075928,-1.6659304104247035,-2.519599501286642,2.3102118211933593,-1.0043118635760706,0.3244755268096924
1708437399.9816742,-1.1358449459075928,-1.6659041843810023,-2.519632403050558,2.31022493421521,-1.0043862501727503,0.32450374960899353
1708437399.9836211,-1.1358851194381714,-1.665948053399557,-2.5196085611926478,2.310204191798828,-1.0043280760394495,0.32450827956199646
1708437399.9855742,-1.1359273195266724,-1.6658760509886683,-2.519620482121603,2.3102173048206787,-1.0043624083148401,0.3245457112789154
1708437399.9876108,-1.1358568668365479,-1.6658927402892054,-2.5196130911456507,2.310236855144165,-1.0043652693377894,0.324541300535202
1708437399.9895825,-1.1358612775802612,-1.6658669910826625,-2.5196459929095667,2.3101999002644042,-1.0043414274798792,0.32452014088630676
1708437399.99158,-1.1358731985092163,-1.6659614048399867,-2.5196879545794886,2.310192270869873,-1.0043037573443812,0.3245457410812378
1708437399.9936001,-1.135868787765503,-1.6658669910826625,-2.519653622304098,2.310249014491699,-1.0043209234820765,0.3245290517807007
1708437399.9955916,-1.1358731985092163,-1.6659122906126917,-2.5196250120746058,2.3102051454731445,-1.0043743292437952,0.32453349232673645
1708437399.9976032,-1.135870099067688,-1.6658951244749964,-2.519658152257101,2.31022493421521,-1.0043819586383265,0.3245367705821991
1708437399.9996245,-1.1358821392059326,-1.6659285030760707,-2.5196085611926478,2.31018774091687,-1.0043700377093714,0.3245457112789154
1708437400.001576,-1.1358895301818848,-1.6659170589842738,-2.5196295420276087,2.310220642680786,-1.0043280760394495,0.3245413303375244
1708437400.0036082,-1.13591468334198,-1.6658927402892054,-2.5196250120746058,2.3102454382130126,-1.0043609778033655,0.3245457112789154
1708437400.0055828,-1.1358776092529297,-1.6659089527525843,-2.5196414629565638,2.310241146678589,-1.0043209234820765,0.324462354183197
1708437400.0075932,-1.1358983516693115,-1.6659585438170375,-2.5196130911456507,2.3102163511463623,-1.0043237845050257,0.3245457410812378
1708437400.0096033,-1.1358568668365479,-1.6659451923766078,-2.5196624437915247,2.3102738100239257,-1.0043581167804163,0.32453346252441406
1708437400.0115826,-1.135882019996643,-1.6658841572203578,-2.519636933003561,2.3102335172840576,-1.0043328444110315,0.3244633972644806
1708437400.0135968,-1.1358656883239746,-1.6659089527525843,-2.519623581563131,2.310196562404297,-1.0043447653399866,0.32450374960899353
1708437400.0156298,-1.1358612775802612,-1.6659242115416468,-2.5196295420276087,2.3102499681660156,-1.0043609778033655,0.32452157139778137
1708437400.0176322,-1.135870099067688,-1.6658884487547816,-2.519686524068014,2.310208721751831,-1.0043533484088343,0.3245290517807007
1708437400.019643,-1.1358493566513062,-1.6659256420531214,-2.519658152257101,2.3102215963551025,-1.0043728987323206,0.32454872131347656
1708437400.021614,-1.1358747482299805,-1.6659509144225062,-2.519627873097555,2.31018774091687,-1.0043862501727503,0.32449638843536377
1708437400.0236294,-1.1358493566513062,-1.6658841572203578,-2.519649092351095,2.310171528453491,-1.0043490568744105,0.3245368003845215
1708437400.0256057,-1.135870099067688,-1.6658793888487757,-2.519670073186056,2.310196562404297,-1.0043819586383265,0.324541300535202
1708437400.0276024,-1.1358656883239746,-1.6658998928465785,-2.519636933003561,2.3102292257496337,-1.0043566862689417,0.32452160120010376
1708437400.029661,-1.1358449459075928,-1.6658884487547816,-2.519627873097555,2.310175819987915,-1.0043533484088343,0.3245290517807007
1708437400.0316002,-1.135891079902649,-1.6658793888487757,-2.519627873097555,2.310192270869873,-1.0043771902667444,0.32455772161483765
1708437400.0336285,-1.1359117031097412,-1.6658793888487757,-2.5196731726275843,2.3102051454731445,-1.0043862501727503,0.324541300535202
1708437400.035598,-1.1358323097229004,-1.6658908329405726,-2.519623581563131,2.3102173048206787,-1.0043399969684046,0.32454437017440796
1708437400.0375838,-1.1358493566513062,-1.6658951244749964,-2.519640032445089,2.3102215963551025,-1.0043700377093714,0.324541300535202
1708437400.0396056,-1.1358628273010254,-1.6659213505186976,-2.519623581563131,2.310180349940918,-1.0043533484088343,0.32457366585731506
1708437400.041585,-1.1358656883239746,-1.6659466228880824,-2.519632403050558,2.310253544444702,-1.0043771902667444,0.32450374960899353
1708437400.043652,-1.1358205080032349,-1.6658908329405726,-2.519611660634176,2.310213013286255,-1.0043118635760706,0.3245246410369873
1708437400.0455937,-1.1358294486999512,-1.6659213505186976,-2.519623581563131,2.310168429011963,-1.0043743292437952,0.3245368003845215
1708437400.0476022,-1.135902762413025,-1.6658884487547816,-2.519623581563131,2.3101889330097656,-1.0043280760394495,0.3245323896408081
1708437400.0495977,-1.1358457803726196,-1.6658841572203578,-2.519632403050558,2.3101770120808105,-1.0043490568744105,0.32453683018684387
1708437400.0516036,-1.1358214616775513,-1.6658841572203578,-2.519665543233053,2.310192270869873,-1.0043519178973597,0.32449930906295776
1708437400.0535932,-1.1358203887939453,-1.6658793888487757,-2.519698444996969,2.3102335172840576,-1.0043728987323206,0.3245457112789154
1708437400.055582,-1.1358457803726196,-1.6659285030760707,-2.519707504902975,2.310171528453491,-1.0043652693377894,0.3245246410369873
1708437400.0576038,-1.1358294486999512,-1.6658951244749964,-2.519686524068014,2.310204430217407,-1.0043371359454554,0.3245290517807007
1708437400.0595853,-1.135850429534912,-1.6659122906126917,-2.519640032445089,2.3101727205463867,-1.0043652693377894,0.3245156705379486
1708437400.0615742,-1.1358548402786255,-1.6659285030760707,-2.519644562398092,2.3102542597004394,-1.0043652693377894,0.3245037794113159
1708437400.0636065,-1.1358124017715454,-1.6659285030760707,-2.519665543233053,2.310168429011963,-1.0043819586383265,0.32457372546195984
1708437400.0656786,-1.1357753276824951,-1.6659213505186976,-2.519644562398092,2.3102051454731445,-1.0043280760394495,0.32453683018684387
1708437400.0675824,-1.1358095407485962,-1.6658841572203578,-2.5196357409106653,2.310147686595581,-1.0043700377093714,0.3245127201080322
1708437400.069614,-1.1358124017715454,-1.6659213505186976,-2.519636933003561,2.310168429011963,-1.0043399969684046,0.3244873881340027
1708437400.0715995,-1.135838508605957,-1.6659656963744105,-2.519656483327047,2.3102261263081054,-1.0043609778033655,0.3245368003845215
1708437400.073601,-1.135784387588501,-1.6658841572203578,-2.519636933003561,2.3101932245441894,-1.0043862501727503,0.32452908158302307
1708437400.0756054,-1.1358503103256226,-1.6659170589842738,-2.51968223253359,2.310192270869873,-1.0043819586383265,0.32453683018684387
1708437400.0776222,-1.1358340978622437,-1.66583313564443,-2.519670073186056,2.3101727205463867,-1.0043190161334437,0.3245457410812378
1708437400.0796192,-1.135796070098877,-1.6658464870848597,-2.519691054021017,2.310213728541992,-1.0043686071978968,0.3245457410812378
1708437400.081627,-1.1357190608978271,-1.665875097314352,-2.519670073186056,2.3101975160786132,-1.0043609778033655,0.32452014088630676
1708437400.0835898,-1.1357680559158325,-1.6659375629820765,-2.519649092351095,2.310168429011963,-1.0043771902667444,0.3244873583316803
1708437400.0855784,-1.1357812881469727,-1.6659242115416468,-2.519665543233053,2.310202046031616,-1.0043638388263147,0.3245127499103546
1708437400.0876188,-1.135784387588501,-1.6659122906126917,-2.5196731726275843,2.3101727205463867,-1.0043652693377894,0.32450827956199646
1708437400.089595,-1.1357768774032593,-1.6658998928465785,-2.519627873097555,2.3102094370075683,-1.0043237845050257,0.32450076937675476
1708437400.0915995,-1.1358095407485962,-1.6658669910826625,-2.519640032445089,2.3101932245441894,-1.0043399969684046,0.32454439997673035
1708437400.0935977,-1.1358095407485962,-1.665875097314352,-2.519644562398092,2.3101813036152343,-1.0044100920306605,0.3245127499103546
1708437400.095578,-1.1357812881469727,-1.665907999078268,-2.519649092351095,2.3101607996174316,-1.0043819586383265,0.3245457112789154
1708437400.0975802,-1.1358139514923096,-1.665875097314352,-2.519691054021017,2.3101116853901367,-1.0043490568744105,0.3245038092136383
1708437400.0995958,-1.1357976198196411,-1.6659332714476527,-2.5196250120746058,2.310194416637085,-1.0043609778033655,0.3245201110839844
1708437400.1016169,-1.1357945203781128,-1.6659213505186976,-2.519627873097555,2.3101529318043212,-1.0043519178973597,0.3245576024055481
1708437400.1035867,-1.135818362236023,-1.6659375629820765,-2.519627873097555,2.310141010875366,-1.0043981711017054,0.3245368003845215
1708437400.1055808,-1.1357367038726807,-1.665875097314352,-2.519627873097555,2.3101247984119873,-1.0043566862689417,0.3244844675064087
1708437400.107605,-1.1357547044754028,-1.6659242115416468,-2.519632403050558,2.3101693826862792,-1.0043566862689417,0.32453787326812744
1708437400.1096358,-1.1357932090759277,-1.6658841572203578,-2.5196414629565638,2.310112639064453,-1.0043728987323206,0.3245457410812378
1708437400.1116047,-1.1357812881469727,-1.6659285030760707,-2.519636933003561,2.3101205068775634,-1.0043771902667444,0.3245171010494232
1708437400.113587,-1.1357115507125854,-1.6658998928465785,-2.519636933003561,2.3100592333027343,-1.0043728987323206,0.3244786560535431
1708437400.1156285,-1.1358109712600708,-1.6658998928465785,-2.519620482121603,2.3100973802753906,-1.0044010321246546,0.324491947889328
1708437400.1176121,-1.1358020305633545,-1.6659170589842738,-2.519632403050558,2.310039682979248,-1.0043938795672815,0.32453683018684387
1708437400.1196094,-1.1357976198196411,-1.6659170589842738,-2.519665543233053,2.3100613790699462,-1.0043519178973597,0.32453349232673645
1708437400.1216137,-1.1357874870300293,-1.6658951244749964,-2.5196414629565638,2.310049458140991,-1.0043771902667444,0.3244919776916504
1708437400.1236587,-1.1357331275939941,-1.6659170589842738,-2.519670073186056,2.3100287157246093,-1.0043609778033655,0.3244711458683014
1708437400.1256008,-1.135785698890686,-1.6658951244749964,-2.519632403050558,2.3100287157246093,-1.0043194929706019,0.32447102665901184
1708437400.1276178,-1.1357605457305908,-1.6659213505186976,-2.519662682210104,2.3100570875355224,-1.0043891111956995,0.32453349232673645
1708437400.1296067,-1.1357812881469727,-1.6659170589842738,-2.519620482121603,2.3100036817738037,-1.0043490568744105,0.32453349232673645
1708437400.131583,-1.1357367038726807,-1.6659332714476527,-2.519686762486593,2.3099917608448486,-1.0043357054339808,0.3245469331741333
1708437400.1335928,-1.1357455253601074,-1.6658998928465785,-2.5196159521686,2.310021086330078,-1.0043638388263147,0.3245501220226288
1708437400.13561,-1.1357501745224,-1.6659122906126917,-2.5196159521686,2.3100897508808593,-1.0043686071978968,0.3245260715484619
1708437400.1376297,-1.13569974899292,-1.6659451923766078,-2.519636933003561,2.310058041209839,-1.0043891111956995,0.3244800865650177
1708437400.1396224,-1.1357160806655884,-1.6659375629820765,-2.519644562398092,2.3100485044666748,-1.0043519178973597,0.3245171308517456
1708437400.1416209,-1.1357331275939941,-1.6659704647459925,-2.519627873097555,2.3100647169300537,-1.0043967405902308,0.3245368003845215
1708437400.143589,-1.1357548236846924,-1.665866037408346,-2.51966101328005,2.3100408750721435,-1.0043638388263147,0.3244919776916504
1708437400.1456163,-1.1357455253601074,-1.6658998928465785,-2.519636933003561,2.310025377864502,-1.0043638388263147,0.32455459237098694
1708437400.1476252,-1.135737657546997,-1.665936132470602,-2.519636933003561,2.3100408750721435,-1.0043938795672815,0.3244558870792389
1708437400.1496186,-1.135716199874878,-1.6659494839110316,-2.519649092351095,2.310033007259033,-1.0044143835650843,0.324491947889328
1708437400.1515985,-1.1357251405715942,-1.6659242115416468,-2.5196414629565638,2.3099917608448486,-1.0043399969684046,0.32455456256866455
1708437400.1536286,-1.1357251405715942,-1.665907999078268,-2.519649092351095,2.31006567060437,-1.0044058004962366,0.3244800567626953
1708437400.1556373,-1.1357501745224,-1.665898939172262,-2.519649092351095,2.3100451666065673,-1.0043728987323206,0.3243933320045471
1708437400.1576316,-1.1358036994934082,-1.6659571133055628,-2.519566837941305,2.310053749675415,-1.004392449055807,0.3245171308517456
1708437400.1596334,-1.1357781887054443,-1.6659256420531214,-2.5196731726275843,2.3100365835377197,-1.0043967405902308,0.32450082898139954
1708437400.1616147,-1.1357043981552124,-1.6658793888487757,-2.519649092351095,2.310033007259033,-1.0043891111956995,0.3245096802711487
1708437400.1636086,-1.1357160806655884,-1.6659614048399867,-2.519703213368551,2.310081883067749,-1.0043891111956995,0.3244633972644806
1708437400.1657047,-1.1357331275939941,-1.6659375629820765,-2.519649092351095,2.310049458140991,-1.0044058004962366,0.32451412081718445
1708437400.1676178,-1.1357331275939941,-1.6658998928465785,-2.519670073186056,2.310033007259033,-1.0043681303607386,0.3245304524898529
1708437400.1696055,-1.1357043981552124,-1.6659242115416468,-2.519691054021017,2.3100949960895996,-1.0043891111956995,0.324542373418808
1708437400.1715963,-1.13566255569458,-1.6659332714476527,-2.5196731726275843,2.310053749675415,-1.0044010321246546,0.324521541595459
1708437400.1736193,-1.135716199874878,-1.665919920007223,-2.519665543233053,2.31006567060437,-1.0043757597552698,0.3245171308517456
1708437400.1756074,-1.1357547044754028,-1.665907999078268,-2.51968223253359,2.310033007259033,-1.0043757597552698,0.3244767189025879
1708437400.1776302,-1.1356761455535889,-1.6659285030760707,-2.51966101328005,2.3100287157246093,-1.0043967405902308,0.32450079917907715
1708437400.1796029,-1.1357251405715942,-1.6658951244749964,-2.519653622304098,2.310102625484131,-1.0044010321246546,0.32450971007347107
1708437400.1816504,-1.1357207298278809,-1.6659332714476527,-2.519670073186056,2.310037298793457,-1.0043476263629358,0.32450830936431885
1708437400.1836863,-1.1357420682907104,-1.665875097314352,-2.519653622304098,2.3100895124622802,-1.0044148604022425,0.3244558572769165
1708437400.1855967,-1.1357043981552124,-1.6658617458739222,-2.519649092351095,2.3099917608448486,-1.0044010321246546,0.32449641823768616
1708437400.187624,-1.1357284784317017,-1.6659451923766078,-2.5196686426745813,2.310004873866699,-1.0043967405902308,0.3244844377040863
1708437400.1895802,-1.1357420682907104,-1.6659404240050257,-2.519656483327047,2.310009165401123,-1.0043967405902308,0.3245634436607361
1708437400.1916053,-1.1357043981552124,-1.6658884487547816,-2.519623343144552,2.310033007259033,-1.0044224897967737,0.3245141804218292
1708437400.1936152,-1.1357331275939941,-1.6659451923766078,-2.519677702580587,2.3100451666065673,-1.0043728987323206,0.3244800567626953
1708437400.195573,-1.1357043981552124,-1.6659285030760707,-2.519640032445089,2.310058041209839,-1.0044058004962366,0.32445284724235535
1708437400.197593,-1.1357331275939941,-1.6659451923766078,-2.51966101328005,2.310041590327881,-1.0044100920306605,0.32445594668388367
1708437400.1995776,-1.1356924772262573,-1.6659494839110316,-2.519670073186056,2.3100365835377197,-1.004430119191305,0.3244515359401703
1708437400.2015839,-1.1357331275939941,-1.6659494839110316,-2.5196414629565638,2.3100125032612304,-1.0044058004962366,0.32446038722991943
1708437400.203601,-1.1357780694961548,-1.6659213505186976,-2.519632403050558,2.3100079733082275,-1.004366699849264,0.324444055557251
1708437400.2055664,-1.135695219039917,-1.6658884487547816,-2.519640032445089,2.3100167947956542,-1.00441819826235,0.3244933784008026
1708437400.2076216,-1.1357377767562866,-1.665936132470602,-2.519632403050558,2.310033007259033,-1.0044058004962366,0.3244365453720093
1708437400.209595,-1.135695219039917,-1.665875097314352,-2.519649092351095,2.310041590327881,-1.0044224897967737,0.3244440257549286
1708437400.2115822,-1.1357160806655884,-1.6658951244749964,-2.519670073186056,2.310033007259033,-1.0044048468219202,0.3244365453720093
1708437400.2136104,-1.1357420682907104,-1.6658669910826625,-2.519649092351095,2.309997006053589,-1.0044463316546839,0.3244662880897522
1708437400.2156417,-1.1357591152191162,-1.6659332714476527,-2.5196731726275843,2.310049458140991,-1.004359547291891,0.32437050342559814
1708437400.2176273,-1.1357251405715942,-1.665907999078268,-2.51966101328005,2.310033007259033,-1.0043805281268519,0.32443320751190186
1708437400.2196264,-1.135683536529541,-1.665907999078268,-2.5196731726275843,2.310049458140991,-1.0043805281268519,0.32438385486602783
1708437400.221596,-1.1357207298278809,-1.6659285030760707,-2.5196896235095423,2.310033007259033,-1.0044134298907679,0.32444214820861816
1708437400.2236266,-1.1357377767562866,-1.6659614048399867,-2.519640032445089,2.310058279628418,-1.004409138356344,0.32446619868278503
1708437400.2256227,-1.1357591152191162,-1.665936132470602,-2.519627873097555,2.3100005823322753,-1.0043938795672815,0.32443320751190186
1708437400.2275877,-1.1357377767562866,-1.6659585438170375,-2.519636933003561,2.3100005823322753,-1.004409138356344,0.32443320751190186
1708437400.2296302,-1.1357088088989258,-1.6658793888487757,-2.519649092351095,2.310069962138794,-1.004451100026266,0.3243872821331024
1708437400.2315874,-1.135716199874878,-1.6658998928465785,-2.519640032445089,2.310094042415283,-1.004430119191305,0.32444989681243896
1708437400.2336123,-1.1357043981552124,-1.6659494839110316,-2.519653622304098,2.3100613790699462,-1.004359547291891,0.3243916928768158
1708437400.2355866,-1.1357088088989258,-1.6659122906126917,-2.519670073186056,2.31006567060437,-1.00441819826235,0.3244301974773407
1708437400.237603,-1.1357160806655884,-1.665919920007223,-2.51966101328005,2.310049458140991,-1.0044010321246546,0.32446321845054626
1708437400.2395985,-1.1356968879699707,-1.6658841572203578,-2.5196850935565394,2.3100451666065673,-1.0043805281268519,0.32438385486602783
1708437400.241579,-1.1356863975524902,-1.6658951244749964,-2.519731346760885,2.310033007259033,-1.004392449055807,0.32441246509552
1708437400.2435765,-1.135716199874878,-1.6659523449339808,-2.519714895878927,2.3099874693104248,-1.004359547291891,0.3244287967681885
1708437400.2455804,-1.1357043981552124,-1.665877481500143,-2.519649092351095,2.3100079733082275,-1.0044210592852991,0.3243882954120636
1708437400.2476315,-1.1357421875,-1.665948053399557,-2.5196519533740442,2.3099960523792724,-1.0044134298907679,0.32445427775382996
1708437400.249615,-1.1356924772262573,-1.665877481500143,-2.51966101328005,2.310037298793457,-1.0044048468219202,0.3244454264640808
1708437400.2515852,-1.135733962059021,-1.665915151635641,-2.519698683415548,2.3100451666065673,-1.0044048468219202,0.3244345188140869
1708437400.253592,-1.1357500553131104,-1.665969034234518,-2.519644562398092,2.310041590327881,-1.0043671766864222,0.3244376480579376
1708437400.2556047,-1.1357251405715942,-1.6659285030760707,-2.51966101328005,2.310033007259033,-1.0043805281268519,0.32444217801094055
1708437400.2576094,-1.1357455253601074,-1.665915151635641,-2.519640032445089,2.310009165401123,-1.00441819826235,0.32438725233078003
1708437400.2596002,-1.1357251405715942,-1.6658884487547816,-2.519632403050558,2.3100625711628417,-1.004359547291891,0.3244587481021881
1708437400.2615778,-1.1356998682022095,-1.6659122906126917,-2.519665543233053,2.3100365835377197,-1.0043757597552698,0.3244212865829468
1708437400.2635965,-1.1357421875,-1.6658951244749964,-2.5196686426745813,2.3100296693989257,-1.0044134298907679,0.32443326711654663
1708437400.2656484,-1.13569974899292,-1.665990491906637,-2.519640032445089,2.3100125032612304,-1.0043805281268519,0.3244301974773407
1708437400.2676208,-1.1357088088989258,-1.6659404240050257,-2.51967436472048,2.3100690084644775,-1.0044344107257288,0.3244257867336273
1708437400.2696106,-1.1357043981552124,-1.665919920007223,-2.519665543233053,2.310077591533325,-1.0044391790973108,0.32441246509552
1708437400.2716305,-1.1356968879699707,-1.6659704647459925,-2.5196355024920862,2.3100125032612304,-1.0044344107257288,0.32437190413475037
1708437400.2736263,-1.1357207298278809,-1.665903230706686,-2.5197015444384974,2.3100408750721435,-1.0044463316546839,0.32437950372695923
1708437400.275608,-1.1357591152191162,-1.6660005054869593,-2.5196641127215784,2.310049458140991,-1.004409138356344,0.32438719272613525
1708437400.2776031,-1.1357043981552124,-1.665999551812643,-2.5196054617511194,2.310033007259033,-1.0044539610492151,0.3244376480579376
1708437400.279629,-1.1357043981552124,-1.665907999078268,-2.519677702580587,2.3100625711628417,-1.0043547789203089,0.32439613342285156
1708437400.281694,-1.1357132196426392,-1.665969034234518,-2.519677702580587,2.3100198942371826,-1.0044329802142542,0.3244168758392334
1708437400.283621,-1.1357465982437134,-1.665903230706686,-2.5196686426745813,2.3099841314503173,-1.0044239203082483,0.3243749141693115
1708437400.285574,-1.135655403137207,-1.665931840936178,-2.5196686426745813,2.3100625711628417,-1.0044539610492151,0.32440945506095886
1708437400.2876048,-1.1356761455535889,-1.665919920007223,-2.5197179953204554,2.3099796014973144,-1.0044463316546839,0.3244169056415558
1708437400.2895925,-1.1357176303863525,-1.665964742700094,-2.5196805636035364,2.3100122648426513,-1.0044406096087855,0.3244079649448395
1708437400.291604,-1.135689377784729,-1.665915151635641,-2.5196879545794886,2.310021086330078,-1.0044539610492151,0.324391633272171
1708437400.2935977,-1.135701298713684,-1.6659242115416468,-2.5197179953204554,2.3100287157246093,-1.004470173512594,0.32440492510795593
1708437400.2955806,-1.1357057094573975,-1.6659242115416468,-2.5197375456439417,2.3099838930317382,-1.0044687430011194,0.32438716292381287
1708437400.2975972,-1.1356701850891113,-1.665903230706686,-2.5197375456439417,2.310004873866699,-1.0044611136065882,0.32443320751190186
1708437400.2995808,-1.1356523036956787,-1.6659509144225062,-2.519782606755392,2.3099753099628906,-1.0044730345355433,0.32444098591804504
1708437400.3015895,-1.135644793510437,-1.665936132470602,-2.519785467778341,2.310041590327881,-1.0044778029071253,0.3244124948978424
1708437400.3035796,-1.1356818675994873,-1.6659509144225062,-2.51976448694338,2.309997006053589,-1.0044611136065882,0.32440945506095886
1708437400.3055916,-1.1356502771377563,-1.6659242115416468,-2.5197392145739954,2.309992714519165,-1.0044730345355433,0.32444652915000916
1708437400.3075993,-1.1356836557388306,-1.6659523449339808,-2.5198021570788782,2.30998079359021,-1.0044730345355433,0.3244421184062958
1708437400.3096044,-1.1356627941131592,-1.665936132470602,-2.5197930971728724,2.3099252420612792,-1.0044849554644983,0.32440054416656494
1708437400.311584,-1.1355767250061035,-1.665959974328512,-2.5198171774493616,2.3099123674580078,-1.0045087973224085,0.32437196373939514
1708437400.313585,-1.1356258392333984,-1.665964742700094,-2.5198004881488245,2.3099097448536376,-1.0044925848590296,0.32440057396888733
1708437400.3156285,-1.13554847240448,-1.665988107720846,-2.5198336283313196,2.309799833888672,-1.0045259634601038,0.32439616322517395
1708437400.317614,-1.1355150938034058,-1.6660052738585414,-2.5198455492602747,2.3098489481159667,-1.0045035521136683,0.32441383600234985
1708437400.3195996,-1.1355161666870117,-1.6659814320006312,-2.5198171774493616,2.3098129469105224,-1.0045660177813929,0.32441246509552
1708437400.321608,-1.1354951858520508,-1.6660009823241175,-2.51985747018923,2.3097726541706542,-1.0044854323016565,0.3244631290435791
1708437400.3236387,-1.1354514360427856,-1.6659790478148402,-2.519836489354269,2.309781237239502,-1.0045765081988733,0.32441246509552
1708437400.325605,-1.1354366540908813,-1.6660200558104457,-2.519803587590353,2.3096887308308105,-1.0045807997332972,0.32437196373939514
1708437400.3276107,-1.135412335395813,-1.6660200558104457,-2.519873921071188,2.3096775251575927,-1.0045927206622522,0.32442575693130493
1708437400.3296506,-1.1353840827941895,-1.6660744152464808,-2.519886080418722,2.309661312694214,-1.0046380201922815,0.3243928551673889
1708437400.3315918,-1.1353271007537842,-1.666067739526266,-2.5199056307422083,2.309584065074585,-1.0045927206622522,0.32441383600234985
1708437400.3335927,-1.1353447437286377,-1.6660710773863734,-2.519888941441671,2.3096133905598144,-1.0046575705157679,0.3243839144706726
1708437400.335606,-1.1352877616882324,-1.6661011181273402,-2.5198681990252894,2.3095642763325195,-1.004627529774801,0.3244301676750183
1708437400.3375978,-1.1352543830871582,-1.6661292515196742,-2.5199056307422083,2.309549017543457,-1.004693333302633,0.3244049847126007
1708437400.3395858,-1.135195016860962,-1.6661907635130824,-2.5199220816241663,2.309455557460449,-1.0047081152545374,0.3244421184062958
1708437400.3415813,-1.1351579427719116,-1.6661278210081996,-2.519888941441671,2.3094934660145263,-1.0047743956195276,0.3244079649448395
1708437400.3436084,-1.1351299285888672,-1.6661716900267542,-2.5199413935290735,2.3094608026691894,-1.004756275807516,0.3244212865829468
1708437400.345581,-1.1350609064102173,-1.6661998234190882,-2.5199580828296106,2.3094095426746826,-1.0047639052020472,0.32442253828048706
1708437400.3476,-1.1350452899932861,-1.6662117443480433,-2.5199700037585657,2.3093692499348144,-1.0047996679889124,0.3244825303554535
1708437400.3496008,-1.1350425481796265,-1.6662565670409144,-2.5199323336230677,2.309349461192749,-1.0048564116107386,0.32441246509552
1708437400.351601,-1.1349400281906128,-1.6663090191283167,-2.5199535528766077,2.309304638499878,-1.004854981099264,0.3244587779045105
1708437400.3536046,-1.1349462270736694,-1.6662913761534632,-2.519956413899557,2.309281035060547,-1.004866902028219,0.32437950372695923
1708437400.3555946,-1.134901523590088,-1.6663357220091761,-2.519994084035055,2.3091882902332763,-1.0049117247210901,0.32440489530563354
1708437400.357593,-1.1348408460617065,-1.6663795910277308,-2.5200346151935022,2.3091739851185302,-1.0049284140216272,0.3244572877883911
1708437400.3595977,-1.1347898244857788,-1.666370531121725,-2.5200255552874964,2.3090879160114746,-1.0049522558795374,0.3244168758392334
1708437400.3615997,-1.1347326040267944,-1.6664196453490199,-2.5200331846820276,2.309081478709839,-1.0049970785724085,0.3244287967681885
1708437400.3635864,-1.1347007751464844,-1.6664558849730433,-2.520089928303854,2.309042139644287,-1.0049837271319788,0.3244049549102783
1708437400.3655996,-1.1346502304077148,-1.6664658985533656,-2.5200780073748987,2.308908148402832,-1.0049989859210413,0.3243882954120636
1708437400.3675947,-1.1345720291137695,-1.6666118107237757,-2.520092789326803,2.3088559347340087,-1.0050275961505335,0.32436755299568176
1708437400.3695853,-1.1345291137695312,-1.666600843469137,-2.5201426188098353,2.3089024263569335,-1.0051048437701624,0.3243882358074188
1708437400.3716178,-1.1344436407089233,-1.666628976861471,-2.5201168696032923,2.3087729650684814,-1.0051243940936487,0.3244124948978424
1708437400.3736205,-1.1343762874603271,-1.6666490040221156,-2.5201528708087366,2.308757706279419,-1.0051844755755823,0.32440945506095886
1708437400.375581,-1.134257435798645,-1.6667062244811,-2.5201781431781214,2.3086160856434326,-1.0052173773394983,0.32443445920944214
1708437400.3776174,-1.134203553199768,-1.666699548760885,-2.520226542149679,2.3086017805286865,-1.0051873365985315,0.32442575693130493
1708437400.3795974,-1.1341174840927124,-1.6667052708067835,-2.5202084223376673,2.3085569578358154,-1.0052312056170862,0.32438090443611145
1708437400.3815982,-1.1340627670288086,-1.66679110149526,-2.5202534834491175,2.3084284502216796,-1.005329434071676,0.3244049549102783
1708437400.3835924,-1.1339454650878906,-1.6667701206602992,-2.5202489534961146,2.308421774501465,-1.0053232351886194,0.32439613342285156
1708437400.3856146,-1.1338813304901123,-1.6667758427061976,-2.520289484654562,2.308321400279663,-1.0054133574115198,0.3244212865829468
1708437400.3876016,-1.1337982416152954,-1.6668955288329066,-2.5203538576709192,2.3082288938709716,-1.0054720083819788,0.3244212567806244
1708437400.3896084,-1.1336719989776611,-1.6668664417662562,-2.5203447977649134,2.308116598720215,-1.0054720083819788,0.3244006335735321
1708437400.3916237,-1.1335757970809937,-1.6670123539366664,-2.5203447977649134,2.3080620008656005,-1.0055120627032679,0.3244345188140869
1708437400.3935816,-1.1334630250930786,-1.667013784448141,-2.520413939152853,2.307953043574951,-1.0055840651141565,0.3243676722049713
1708437400.3955727,-1.1334433555603027,-1.666980882684225,-2.520487133656637,2.307849331493042,-1.0056036154376429,0.32437950372695923
1708437400.3975954,-1.1333409547805786,-1.6670862636961878,-2.5204289595233362,2.307758017177246,-1.0056727568255823,0.32441821694374084
1708437400.399584,-1.1332001686096191,-1.6671716175475062,-2.5204768816577356,2.307650013560913,-1.0057442823993128,0.32440054416656494
1708437400.4016323,-1.133041501045227,-1.66717590908193,-2.520496431981222,2.307532234782837,-1.005721394215719,0.32439276576042175
1708437400.403645,-1.132991075515747,-1.6672431431212367,-2.520553175603048,2.3074495035358886,-1.00586444536318,0.3244301974773407
1708437400.4055798,-1.132858395576477,-1.667311807672018,-2.520557705556051,2.3073295789906005,-1.005909268056051,0.32440945506095886
1708437400.4076123,-1.1326791048049927,-1.6673594913878382,-2.520625416432516,2.3072706896015625,-1.0059312025653284,0.3244301676750183
1708437400.4096384,-1.132655382156372,-1.667398592034811,-2.520654026662008,2.307100697154663,-1.0060198942767542,0.3244094252586365
1708437400.4116132,-1.1324684619903564,-1.6673928699889125,-2.5206642786609095,2.306985064143799,-1.0060918966876429,0.32439279556274414
1708437400.4136086,-1.1323575973510742,-1.667506834069723,-2.5207093397723597,2.3068901735493164,-1.0061591307269495,0.3243604600429535
1708437400.4156525,-1.132215976715088,-1.6676069698729457,-2.520712439213888,2.3067330557056884,-1.006197754536764,0.32441383600234985
1708437400.417672,-1.1321048736572266,-1.6676489315428675,-2.520749870930807,2.3066536623188476,-1.0062578360186976,0.324383944272995
1708437400.4195914,-1.1319581270217896,-1.6676846943297328,-2.5208023230182093,2.3064934450336914,-1.0063584486590784,0.32441383600234985
1708437400.4216092,-1.1318395137786865,-1.6677986584105433,-2.520808283482687,2.30639831602063,-1.0064104239093226,0.3244258165359497
1708437400.4235942,-1.1316815614700317,-1.667825838128561,-2.520881954823629,2.3062328535267334,-1.0064733664142054,0.3243839144706726
1708437400.4256063,-1.1315540075302124,-1.6679545841612757,-2.5208683649646204,2.3061422544666748,-1.0065620581256312,0.3243318498134613
1708437400.4276295,-1.1314045190811157,-1.6680051289000453,-2.520944897328512,2.305952711696289,-1.0066593329059046,0.32439717650413513
1708437400.4300623,-1.131248116493225,-1.6680695019164027,-2.521031681691305,2.3058129984089355,-1.0067718664752405,0.32438090443611145
1708437400.4316185,-1.1311250925064087,-1.6681820354857386,-2.5210166613208216,2.305738850230835,-1.0068014303790491,0.3244094252586365
1708437400.4336407,-1.1309932470321655,-1.668224950829977,-2.5210707823382776,2.305553837413452,-1.0069063345538538,0.32430344820022583
1708437400.4356124,-1.130840539932251,-1.6682645283141078,-2.521090332661764,2.305401011104248,-1.0069735685931605,0.3243882656097412
1708437400.437626,-1.1306499242782593,-1.6684228382506312,-2.5211172739612024,2.3052899080463867,-1.00706655183901,0.3243648409843445
1708437400.4395936,-1.1304930448532104,-1.6684676609435023,-2.5211365858661097,2.3051294523426513,-1.0071290175067347,0.3243808448314667
1708437400.4416096,-1.1303201913833618,-1.668560644189352,-2.521177355443136,2.305018110866211,-1.0072129408465784,0.3243604898452759
1708437400.4435952,-1.130213737487793,-1.6685787640013636,-2.5212536493884485,2.30485908567395,-1.0073536078082483,0.32435160875320435
1708437400.4455986,-1.130098819732666,-1.668774267236227,-2.52128512064089,2.3047403532215576,-1.0074165503131312,0.3244103491306305
1708437400.4476473,-1.1298801898956299,-1.668804784814352,-2.521360222493307,2.304534359569214,-1.0075262228595179,0.3243764638900757
1708437400.4496698,-1.1296842098236084,-1.6688796482481898,-2.5213452021228235,2.3043455320545654,-1.00759202638735,0.32436755299568176
1708437400.451584,-1.1295323371887207,-1.6689421139159144,-2.521397892628805,2.3042594629475097,-1.0076730887042444,0.3243839144706726
1708437400.453586,-1.1293694972991943,-1.6690722904601039,-2.5214696566211146,2.3040873247333984,-1.0078180472003382,0.3243604898452759
1708437400.4556265,-1.129176378250122,-1.6691352329649867,-2.521522108708517,2.30387465536084,-1.007848087941305,0.324391633272171
1708437400.4575891,-1.1290199756622314,-1.6692029438414515,-2.5215535799609583,2.3037547308155517,-1.007927719746725,0.3244226276874542
1708437400.4595897,-1.1288403272628784,-1.669361253777975,-2.5215354601489466,2.3036317068287353,-1.008040730153219,0.3243838846683502
1708437400.4616017,-1.1286767721176147,-1.669398923913473,-2.521642271672384,2.3034724432178955,-1.008078400288717,0.32436758279800415
1708437400.463598,-1.1284995079040527,-1.6695620022215785,-2.5217228571521204,2.303234739894531,-1.008179012929098,0.3244212865829468
1708437400.46561,-1.128312349319458,-1.6695710621275843,-2.521738115941183,2.3030873972126464,-1.0082533995257776,0.32445424795150757
1708437400.4676592,-1.1281406879425049,-1.6696702442564906,-2.5217936674701136,2.3028663831898193,-1.0083888212787073,0.3244824707508087
1708437400.4696298,-1.1279643774032593,-1.6698194942870082,-2.521803919469015,2.3027311998554687,-1.008463207875387,0.32441553473472595
1708437400.4716039,-1.1277769804000854,-1.6698910198607386,-2.5219345728503626,2.302584095592163,-1.00859243074526,0.3244572877883911
1708437400.4736297,-1.1275845766067505,-1.6699210606017054,-2.521956984196798,2.3024443823048095,-1.0086100737201136,0.3244454562664032
1708437400.475614,-1.1274243593215942,-1.6700383625426234,-2.521996084843771,2.3022677141376953,-1.0087268988238733,0.32448557019233704
1708437400.477596,-1.1272610425949097,-1.6702114544310511,-2.522043768559591,2.3021010595509033,-1.0088227430926722,0.32448887825012207
1708437400.4796102,-1.1270538568496704,-1.6702338657774867,-2.5221129099475306,2.301912232036255,-1.0088990370379847,0.32455894351005554
1708437400.4816105,-1.1268565654754639,-1.6703211269774378,-2.522189442311422,2.3017849165150146,-1.0089786688434046,0.32453683018684387
1708437400.4836185,-1.1266573667526245,-1.6704164944090785,-2.5222538153277796,2.3016158777424316,-1.0090816656695765,0.3245844841003418
1708437400.4856088,-1.1265052556991577,-1.6705247364439906,-2.522273365651266,2.3014086919971923,-1.0091894308673304,0.32461273670196533
1708437400.4875863,-1.1262898445129395,-1.6706444225706996,-2.5223498980151575,2.301232262248657,-1.0093138853656214,0.3245861530303955
1708437400.489627,-1.1261168718338013,-1.6707283459105433,-2.522409979497091,2.3010727602192382,-1.00942308107485,0.3246576488018036
1708437400.4915745,-1.1259371042251587,-1.6708318195738734,-2.5224714914904993,2.3008438783833007,-1.009512726460592,0.3247010409832001
1708437400.4936318,-1.1257662773132324,-1.670948167840475,-2.5225420633899134,2.300672932262085,-1.0096715132342737,0.3247252106666565
1708437400.4955904,-1.1255319118499756,-1.67106356243276,-2.5225284735309046,2.300457163447998,-1.009756867085592,0.324739933013916
1708437400.497621,-1.1253612041473389,-1.6711846790709437,-2.52260929742922,2.3002847868153076,-1.00987416902651,0.32481634616851807
1708437400.4996433,-1.1251850128173828,-1.6712600193419398,-2.5226812998401087,2.300121231670044,-1.0099886099444788,0.324819415807724
1708437400.501617,-1.1250344514846802,-1.6713558636107386,-2.522738281880514,2.299945517177246,-1.0100849310504358,0.32488274574279785
1708437400.5036097,-1.124816656112671,-1.6715504131712855,-2.522763792668478,2.299783154124878,-1.010188404713766,0.32494354248046875
1708437400.505647,-1.1246532201766968,-1.6715742550291957,-2.5228613058673304,2.299618645305298,-1.0103004614459437,0.3250274658203125
1708437400.5075781,-1.124440312385559,-1.6717235050597132,-2.5228806177722376,2.29940049230542,-1.0103538672076624,0.325087308883667
1708437400.5096078,-1.1242939233779907,-1.6717988453307093,-2.5229361693011683,2.299294872874878,-1.0104878584491175,0.3251379728317261
1708437400.5115871,-1.1240448951721191,-1.6719557247557582,-2.5230189005481165,2.299069328899048,-1.0106328169452112,0.3252352178096771
1708437400.5135932,-1.1238532066345215,-1.6719895801939906,-2.5230818430529993,2.298921986217163,-1.0106795469867151,0.3253801167011261
1708437400.5156443,-1.1236897706985474,-1.6721264324583949,-2.5230966250049036,2.2988108831593017,-1.010815445576803,0.325464129447937
1708437400.5176282,-1.1235018968582153,-1.672204156915182,-2.523182217274801,2.2985734182545166,-1.0109160582171839,0.32557934522628784
1708437400.5196166,-1.1233091354370117,-1.6723467312254847,-2.523200337086813,2.2984184461781005,-1.011014763508932,0.3256582021713257
1708437400.5216222,-1.123105525970459,-1.6724096737303675,-2.523240629826681,2.29828326284375,-1.0111478010760706,0.3257783055305481
1708437400.5235956,-1.1229021549224854,-1.6725264988341273,-2.5233216921435755,2.2980543810078125,-1.0112679640399378,0.3259231150150299
1708437400.5256455,-1.122714877128601,-1.6726414165892542,-2.52340275446047,2.2978953558155517,-1.0113170782672327,0.3260219991207123
1708437400.5276456,-1.1225225925445557,-1.6726881466307582,-2.5234206358539026,2.297637863750122,-1.0114954153644007,0.32620736956596375
1708437400.5295947,-1.1223280429840088,-1.672903677026266,-2.523435656224386,2.297532005901001,-1.0115788618670862,0.32630160450935364
1708437400.5316145,-1.1220771074295044,-1.6729408703246058,-2.5235376993762415,2.297300024623535,-1.0116775671588343,0.32649433612823486
1708437400.5335915,-1.1219228506088257,-1.6729823551573695,-2.523569170628683,2.2971646028706054,-1.011761490498678,0.3266338109970093
1708437400.53562,-1.1217223405838013,-1.6731773815550746,-2.5236335436450403,2.296931429500244,-1.0118439833270472,0.32689517736434937
1708437400.5376382,-1.1215790510177612,-1.6732360325255335,-2.523672644292013,2.2967099386402587,-1.0119159857379358,0.32702237367630005
1708437400.5396059,-1.1213383674621582,-1.6733032665648402,-2.5237069765674036,2.2966133791157226,-1.0120280424701136,0.3271482288837433
1708437400.5415719,-1.121122121810913,-1.6734315357603968,-2.523752037678854,2.296419783229492,-1.0121119658099573,0.3273395895957947
1708437400.5435789,-1.1209516525268555,-1.6735063991942347,-2.5238614718066614,2.2962283331104736,-1.012167755757467,0.32755208015441895
1708437400.5455775,-1.120747447013855,-1.6736566028990687,-2.523876492177145,2.296010656947754,-1.0122302214251917,0.327828973531723
1708437400.5476391,-1.120546579360962,-1.6737734280028285,-2.5239620844470423,2.295879526729248,-1.0123112837420862,0.3280769884586334
1708437400.5496228,-1.1203755140304565,-1.673802991906637,-2.524038616810934,2.2957441049763183,-1.012423340474264,0.3282836079597473
1708437400.5516095,-1.1201415061950684,-1.6738602123656214,-2.5240967909442347,2.2955238062092285,-1.0124953428851526,0.3284899890422821
1708437400.553604,-1.120003581047058,-1.674002309838766,-2.524144951497213,2.2953483301350097,-1.0126312414752405,0.32878008484840393
1708437400.5555902,-1.1198489665985107,-1.6741076908507289,-2.5241687933551233,2.2951597410389404,-1.0126946608172815,0.32897764444351196
1708437400.5576158,-1.1196271181106567,-1.6741372547545375,-2.524191443120138,2.295020027751587,-1.012836758290426,0.3292693495750427
1708437400.5596075,-1.119434118270874,-1.6742168865599574,-2.5242648760425013,2.294815941447876,-1.012885872517721,0.32952505350112915
1708437400.561591,-1.1193211078643799,-1.674333234826559,-2.52435809770693,2.2946361738392334,-1.012994114552633,0.3296854496002197
1708437400.5636454,-1.119140863418579,-1.6743794880309046,-2.5243383089648646,2.2944649892994384,-1.0131571928607386,0.33003097772598267
1708437400.565595,-1.118898630142212,-1.6745172939696253,-2.524435822163717,2.2942892748066406,-1.0131781736956995,0.33032718300819397
1708437400.5676594,-1.118747353553772,-1.674589296380514,-2.5244718233691614,2.294112368220947,-1.0133321920977991,0.33065906167030334
1708437400.5696185,-1.1185342073440552,-1.674643178979391,-2.524519745503561,2.293945475215576,-1.0134075323687952,0.3310061991214752
1708437400.5716038,-1.1183589696884155,-1.6748000584044398,-2.5245962778674524,2.2937442499348144,-1.013510529194967,0.3313784897327423
1708437400.5735848,-1.118232011795044,-1.6748644314207972,-2.524672810231344,2.2936789232441406,-1.0135329405414026,0.3317658007144928
1708437400.5756106,-1.1180033683776855,-1.674974103967184,-2.524680201207296,2.2934984403797607,-1.0136616865741175,0.33208221197128296
1708437400.577591,-1.1178193092346191,-1.6750356159605921,-2.524735752736227,2.2932938772388916,-1.0137289206134241,0.3324698507785797
1708437400.5795913,-1.1177012920379639,-1.6751071415343226,-2.5248287359820765,2.2931670385548095,-1.013815704976217,0.33296453952789307
1708437400.581627,-1.1175082921981812,-1.6751953564085902,-2.5248480478869837,2.2929698663898925,-1.0139339605914515,0.3333330452442169
1708437400.5836122,-1.1173194646835327,-1.6753150425352992,-2.5248706976519983,2.292797728175781,-1.0139711538897913,0.33373934030532837
1708437400.5856237,-1.1171607971191406,-1.6754199467101039,-2.5249322096454065,2.2926787573048095,-1.0140631834613245,0.3342039883136749
1708437400.5875947,-1.1169838905334473,-1.6754213772215785,-2.524968210850851,2.2924977976032714,-1.0141480604754847,0.33471235632896423
1708437400.5896022,-1.1168620586395264,-1.6755787334837855,-2.5250073114978235,2.2923223215290527,-1.0142396132098597,0.3351876139640808
1708437400.5916018,-1.116684913635254,-1.6756955585875453,-2.525122944508688,2.292154474849365,-1.0143354574786585,0.335580974817276
1708437400.593584,-1.1165251731872559,-1.675784250298971,-2.525109354649679,2.2919816213795166,-1.0144732634173792,0.3360970616340637
1708437400.5956097,-1.1163870096206665,-1.675859113732809,-2.5251691977130335,2.2918764787861328,-1.0145271460162562,0.33658212423324585
1708437400.5975864,-1.1161977052688599,-1.6759797535338343,-2.525217119847433,2.291691227550171,-1.0146244207965296,0.33711352944374084
1708437400.5996273,-1.116053819656372,-1.6760503254332484,-2.525199000035421,2.291520043010376,-1.0146916548358362,0.33762115240097046
1708437400.6015747,-1.1158162355422974,-1.6760760746397914,-2.5252936522113245,2.291396065349243,-1.0147879759417933,0.3381325900554657
1708437400.6035864,-1.1157011985778809,-1.676197191277975,-2.525304142628805,2.2911857801624755,-1.0148876349078577,0.3386354148387909
1708437400.6055927,-1.1155369281768799,-1.6763297520079554,-2.525320593510763,2.291153593654297,-1.0149224440204065,0.3391910195350647
1708437400.6075935,-1.1153451204299927,-1.676377912560934,-2.5253356138812464,2.290968580836914,-1.0150135199176233,0.3398354947566986
1708437400.6096015,-1.1152052879333496,-1.6764351330199183,-2.5254138151751917,2.290869875545166,-1.0150850454913538,0.34039267897605896
1708437400.611578,-1.1150699853897095,-1.6765366993346156,-2.525461498891012,2.290696068401001,-1.015198055897848,0.3409923315048218
1708437400.6135862,-1.1149147748947144,-1.6766401729979457,-2.5254738966571253,2.290548010463379,-1.0152815024005335,0.34162741899490356
1708437400.6155858,-1.114741563796997,-1.6767040691771449,-2.525524441395895,2.2903804022022705,-1.0153911749469202,0.3421725928783417
1708437400.6176467,-1.1145488023757935,-1.676829000512594,-2.525536600743429,2.2901908594318847,-1.0154655615436,0.34286826848983765
1708437400.619603,-1.1143766641616821,-1.6769467792906703,-2.5255754629718226,2.290132923717163,-1.0156157652484339,0.3434757590293884
1708437400.6216478,-1.11430823802948,-1.6769467792906703,-2.525578323994772,2.289935751552246,-1.0156334082232874,0.3441827893257141
1708437400.623619,-1.1140943765640259,-1.677068372766012,-2.525693957005636,2.289768620128296,-1.0157187620746058,0.34482136368751526
1708437400.62562,-1.113950252532959,-1.677164217034811,-2.5256622473346155,2.2896737295338134,-1.0157530943499964,0.34563207626342773
1708437400.6276302,-1.1137772798538208,-1.6772190533080042,-2.52576452890505,2.289484425182007,-1.0157964865313929,0.34632232785224915
1708437400.629626,-1.1136338710784912,-1.6773292026915492,-2.5258141199695032,2.2893614011951904,-1.0158913771258753,0.34705251455307007
1708437400.6316411,-1.1134735345840454,-1.677436967889303,-2.5257914702044886,2.2892140585133056,-1.0159419218646448,0.34784066677093506
1708437400.6335988,-1.1132678985595703,-1.6774379215636195,-2.525851551686422,2.289058132762573,-1.015944782887594,0.34860002994537354
1708437400.6356456,-1.113174557685852,-1.6775685749449671,-2.5259252230273646,2.28888909398999,-1.0159838835345667,0.3493618965148926
1708437400.6376514,-1.1129984855651855,-1.677610536614889,-2.525972906743185,2.288745089168213,-1.016003433858053,0.3502293527126312
1708437400.639602,-1.1128305196762085,-1.6776653728880824,-2.5260043779956263,2.28857605039563,-1.0160797278033655,0.3510681390762329
1708437400.6415956,-1.1126651763916016,-1.677770277062887,-2.5260375181781214,2.288438244456909,-1.016167942677633,0.35193389654159546
1708437400.6436188,-1.1125255823135376,-1.677915712396139,-2.526121441517965,2.2883173662373046,-1.0162323156939905,0.3527708053588867
1708437400.6456459,-1.11233389377594,-1.6779257259764613,-2.52614409128298,2.28813020765271,-1.01628286043276,0.3536853492259979
1708437400.6476436,-1.112178087234497,-1.6780506573119105,-2.526179854069845,2.287970467204712,-1.0164087454425257,0.3546246886253357
1708437400.6496177,-1.11201012134552,-1.678068300286764,-2.5262370745288294,2.2878426748463134,-1.0165136496173304,0.3555856943130493
1708437400.6515992,-1.1118749380111694,-1.6781941852965296,-2.52627140680422,2.287662907237671,-1.0165436903582972,0.3565814793109894
1708437400.6535995,-1.1116695404052734,-1.6783362827696742,-2.52631646791567,2.287533922786377,-1.0166528860675257,0.3575632870197296
1708437400.6555877,-1.111604928970337,-1.678361555139059,-2.5263643900500696,2.2873868185230712,-1.0166786352740687,0.35855773091316223
1708437400.6576042,-1.111404299736023,-1.6785017452635707,-2.526437822972433,2.287226601237915,-1.0167830626117151,0.35964247584342957
1708437400.6595886,-1.1111727952957153,-1.6785813770689906,-2.5264483133899134,2.2870499330708007,-1.01685077348818,0.360575407743454
1708437400.661594,-1.1110472679138184,-1.6786462269225062,-2.526496235524313,2.2868656355091552,-1.0169671217547815,0.36166316270828247
1708437400.663655,-1.1108297109603882,-1.678688188592428,-2.5265067259417933,2.286698027248047,-1.0170767943011683,0.3626910150051117
1708437400.665635,-1.1106367111206055,-1.6788093052306117,-2.5265968481646937,2.2865497308918457,-1.017123047505514,0.3638429343700409
1708437400.6677003,-1.1105105876922607,-1.6788889370360316,-2.526583258305685,2.28643981992688,-1.0172036329852503,0.3649407625198364
1708437400.6696334,-1.1103419065475464,-1.6789514027037562,-2.5266688505755823,2.2862600523182373,-1.0172503630267542,0.36608290672302246
1708437400.6716373,-1.1102077960968018,-1.679093977014059,-2.5266175905810755,2.2861191469379882,-1.0173385779010218,0.36726707220077515
1708437400.6736224,-1.1100575923919678,-1.6792222462096156,-2.526724163685934,2.285960837001465,-1.0174554030047815,0.36861252784729004
1708437400.6756244,-1.1098005771636963,-1.6792808971800746,-2.526769463215963,2.285750551814697,-1.0175021330462855,0.36976638436317444
1708437400.677619,-1.1096209287643433,-1.6793629131712855,-2.52675706544985,2.2856032091328125,-1.0176189581500452,0.37101855874061584
1708437400.6796248,-1.1094834804534912,-1.6794258556761683,-2.526818815861837,2.28546850263562,-1.0176857153521937,0.37221014499664307
1708437400.6816435,-1.1092942953109741,-1.6795574627318324,-2.5268426577197474,2.2853121000477294,-1.0177610556231897,0.3735133707523346
1708437400.6836348,-1.1091234683990479,-1.6796523533263148,-2.526973311101095,2.2851180273243408,-1.0178983847247522,0.37474876642227173
1708437400.6856215,-1.1089601516723633,-1.679762979547018,-2.527001921330587,2.285012646312378,-1.0179570356952112,0.37591010332107544
1708437400.6876101,-1.1087300777435303,-1.6798097095885218,-2.5269792715655726,2.2847468095966796,-1.0179913679706019,0.3772900104522705
1708437400.6896186,-1.1085503101348877,-1.6799756489195765,-2.5270796457873743,2.284628077144287,-1.0181081930743616,0.3785821497440338
1708437400.69163,-1.1083463430404663,-1.6800757847227992,-2.5271201769458216,2.284414692515991,-1.0182178656207483,0.37990644574165344
1708437400.6935918,-1.1081428527832031,-1.6801463566222132,-2.52714711824526,2.2842394548603515,-1.018308464680807,0.38132816553115845
1708437400.6955817,-1.1079630851745605,-1.6802240810790003,-2.5272071997271937,2.284031553859375,-1.0183809439288538,0.38277754187583923
1708437400.6976178,-1.1077635288238525,-1.680345197717184,-2.5272682348834437,2.2839011388966064,-1.0184763113604944,0.38418516516685486
1708437400.6995804,-1.107563853263855,-1.680464883843893,-2.5272837320910853,2.283712072963379,-1.0184815565692347,0.3856021761894226
1708437400.7016337,-1.107322335243225,-1.6805669269957484,-2.5273435751544397,2.2835330206104736,-1.018667999898092,0.38712137937545776
1708437400.7035918,-1.1071428060531616,-1.6807223759093226,-2.5274246374713343,2.2832912641712646,-1.0187180677997034,0.3886148929595947
1708437400.7056122,-1.1069058179855347,-1.6807810268797816,-2.5274515787707728,2.2831527429768066,-1.018888298665182,0.39010918140411377
1708437400.7075968,-1.106706142425537,-1.6808649502196253,-2.527508799229757,2.282944365138672,-1.0189932028399866,0.3914138376712799
1708437400.7096229,-1.1065279245376587,-1.6810008488097132,-2.5275760332690638,2.2827114301868896,-1.0190427939044397,0.39289671182632446
1708437400.7115898,-1.1063028573989868,-1.6810924015440882,-2.527628485356466,2.282606764430664,-1.0191682020770472,0.39442622661590576
1708437400.71361,-1.1061031818389893,-1.68119539837026,-2.5276766459094446,2.2824224668690185,-1.019243065510885,0.39600783586502075
1708437400.7156308,-1.1058664321899414,-1.681345125237936,-2.527715269719259,2.282200976009033,-1.0193255583392542,0.39764368534088135
1708437400.7176762,-1.1056674718856812,-1.6813913784422816,-2.527749840413229,2.2818917471119384,-1.0194500128375452,0.39924877882003784
1708437400.7196195,-1.1054675579071045,-1.6815444431700648,-2.5278354326831263,2.281745596522949,-1.019562069569723,0.4009077548980713
1708437400.721605,-1.1052637100219727,-1.6816464863219203,-2.527911965047018,2.281508370036743,-1.0196417013751429,0.40248724818229675
1708437400.7236211,-1.105089783668518,-1.6817685566344203,-2.5279930273639124,2.281325502986572,-1.0198147932635706,0.40416160225868225
1708437400.7256155,-1.104852318763733,-1.6818720302977503,-2.527998749409811,2.2811588483997802,-1.0198643843280237,0.4057241678237915
1708437400.7275946,-1.1046324968338013,-1.6819797954955042,-2.5281084219561976,2.280869885081909,-1.0199721495257776,0.40736111998558044
1708437400.7296355,-1.1043784618377686,-1.6820503673949183,-2.528156344090597,2.2806574541279296,-1.0200961271869105,0.4090753495693207
1708437400.7316103,-1.1041145324707031,-1.6821705303587855,-2.5282328764544886,2.2804500299641113,-1.0202696959124964,0.41073372960090637
1708437400.7336073,-1.1039071083068848,-1.6822849712767542,-2.5283425490008753,2.2802509504505615,-1.0204222838031214,0.4124525487422943
1708437400.7355983,-1.1036100387573242,-1.6824680767455042,-2.528355900441305,2.279972477550171,-1.0205257574664515,0.41417017579078674
1708437400.7376761,-1.1034318208694458,-1.6825162372984828,-2.52842623392214,2.279850884074829,-1.0206368605243128,0.41590645909309387
1708437400.7396042,-1.103209376335144,-1.6827455959715785,-2.528483215962545,2.279570980662964,-1.0207894484149378,0.41764697432518005
1708437400.7415898,-1.1029654741287231,-1.6828304729857386,-2.528592888508932,2.2794031339832763,-1.0209015051471155,0.41951271891593933
1708437400.7436163,-1.1027132272720337,-1.6829906902708949,-2.528651301060812,2.2790979582020263,-1.0209763685809534,0.4212512969970703
1708437400.745585,-1.1024703979492188,-1.6830655537047328,-2.5287323633777063,2.278893395061157,-1.0211651960956019,0.42306309938430786
1708437400.7476215,-1.1021274328231812,-1.683216234246725,-2.528795305882589,2.2786995607563476,-1.021280590687887,0.424922376871109
1708437400.749634,-1.1019121408462524,-1.683345457116598,-2.528900210057394,2.2784954744526367,-1.02142841020693,0.4268590807914734
1708437400.7515986,-1.101608395576477,-1.683481832543844,-2.5289512316333216,2.2782394128986816,-1.0215843359576624,0.42881715297698975
1708437400.753589,-1.101344108581543,-1.6836687527098597,-2.5290396849261683,2.277982159251831,-1.0216253439532679,0.4307268261909485
1708437400.7555914,-1.1010761260986328,-1.6837464771666468,-2.529132668172018,2.2777835565754394,-1.0218222776996058,0.4326782822608948
1708437400.7576144,-1.1007746458053589,-1.683894773522848,-2.5291791597949427,2.2774907785603027,-1.022015396748678,0.4345463216304779
1708437400.7595987,-1.1004866361618042,-1.6840926609435023,-2.5293167273150843,2.277280254954956,-1.0221589247332972,0.4365786612033844
1708437400.7615967,-1.1002780199050903,-1.6842194996275843,-2.529344145451681,2.277036114329956,-1.0222895781146448,0.4384896159172058
1708437400.7636175,-1.0999979972839355,-1.6843873463072718,-2.5293996969806116,2.2767769533344726,-1.022454563771383,0.44044727087020874
1708437400.7656395,-1.099631905555725,-1.6844936809935511,-2.5295448938952845,2.276493473643921,-1.0226262251483362,0.4423431158065796
1708437400.7676153,-1.0993438959121704,-1.684629579583639,-2.5295990149127405,2.276158495540283,-1.0228059927569788,0.4444611072540283
1708437400.7696242,-1.0990594625473022,-1.6848350963988246,-2.529663387929098,2.2759248453327636,-1.0229247252093714,0.44644802808761597
1708437400.7715898,-1.0988131761550903,-1.68495573619985,-2.529759470616476,2.27561537801709,-1.0231669584857386,0.4485531151294708
1708437400.7735956,-1.0985389947891235,-1.6851545772948207,-2.529867474232809,2.2753726679035644,-1.0233014265643519,0.45062604546546936
1708437400.7756045,-1.0982340574264526,-1.6852852306761683,-2.5299513975726526,2.2751094537922363,-1.0235050360309046,0.4527100920677185
1708437400.7775998,-1.0978834629058838,-1.6854154072203578,-2.5300262610064905,2.274897976512573,-1.023693863545553,0.4547004699707031
1708437400.779609,-1.0975884199142456,-1.6856094799437464,-2.5301268736468714,2.274606390590332,-1.0238645712481897,0.456876665353775
1708437400.7815928,-1.0972645282745361,-1.685740133325094,-2.530252997075216,2.2743019300648193,-1.0240352789508265,0.45903661847114563
1708437400.7836318,-1.0969934463500977,-1.6858793697752894,-2.530311409627096,2.274000568980835,-1.0242531935321253,0.46127304434776306
1708437400.785595,-1.096680998802185,-1.6861621342101039,-2.530435625706808,2.273726626033447,-1.0244610945331019,0.46359923481941223
1708437400.7876377,-1.0963119268417358,-1.6862083874144496,-2.530548397694723,2.27344719945874,-1.0246437231646937,0.46578556299209595
1708437400.7896323,-1.0960052013397217,-1.686397214929098,-2.530672613774435,2.2731143671223144,-1.0248187224017542,0.46801960468292236
1708437400.7916136,-1.0956929922103882,-1.6866113148131312,-2.530768696461813,2.2728473383137207,-1.025006119404928,0.4701743721961975
1708437400.793596,-1.095319151878357,-1.6867619953551234,-2.530888621007101,2.272559090251587,-1.0252025763141077,0.47241121530532837
1708437400.795645,-1.0949792861938477,-1.686939378777975,-2.5309889952289026,2.272223396892212,-1.0253446737872522,0.47449061274528503
1708437400.797593,-1.094685435295105,-1.6871305904784144,-2.531104628239767,2.271967812175415,-1.0256112257586878,0.47680720686912537
1708437400.7996178,-1.0943540334701538,-1.6873098812498988,-2.531187121068136,2.2716232973286132,-1.0257366339312952,0.47902658581733704
1708437400.8015969,-1.0939310789108276,-1.6874057255186976,-2.531332317982809,2.2712511259266357,-1.0260017553912562,0.48142802715301514
1708437400.8035882,-1.0936418771743774,-1.687582632104391,-2.5315142313586634,2.271000786418579,-1.02618915239443,0.4837314188480377
1708437400.8055854,-1.0932613611221313,-1.6878277264037074,-2.5315514246570032,2.2706357675739746,-1.0264495054828089,0.48612746596336365
1708437400.8075895,-1.0929380655288696,-1.6879784069456996,-2.5317135492907923,2.270376368159912,-1.0265710989581507,0.48855605721473694
1708437400.8096266,-1.0925770998001099,-1.688174387017721,-2.5318122545825403,2.270068808192871,-1.0268328825580042,0.49090152978897095
1708437400.8115869,-1.0921977758407593,-1.6883164844908656,-2.5319400469409388,2.2697006899067382,-1.0269854704486292,0.4934164583683014
1708437400.8136044,-1.091894507408142,-1.6885248623290003,-2.532138172780172,2.269465847606323,-1.0272381941424769,0.49578210711479187
1708437400.8155866,-1.091509222984314,-1.68872131923818,-2.532221857701437,2.269108219737671,-1.027520004902975,0.49812909960746765
1708437400.8176994,-1.091135025024414,-1.6889096699156703,-2.532311741505758,2.268758698100708,-1.027710262929098,0.5005359053611755
1708437400.8196304,-1.090818166732788,-1.689070840875143,-2.5324109236346644,2.268444462413452,-1.027987305318014,0.5028637647628784
1708437400.8216436,-1.0904593467712402,-1.689230581323141,-2.5326598326312464,2.2681616979786376,-1.02822190919985,0.5052070617675781
1708437400.8236504,-1.0900336503982544,-1.6894718609251917,-2.532757345830099,2.2678369718739013,-1.0284741560565394,0.5075491666793823
1708437400.8256514,-1.089726448059082,-1.6896726093687953,-2.532806698475973,2.267522020930908,-1.0287254492389124,0.5100088119506836
1708437400.8276458,-1.0893099308013916,-1.68983854869985,-2.5329507032977503,2.2672173219868164,-1.0289929548846644,0.5123469829559326
1708437400.829639,-1.0889456272125244,-1.6900226078429164,-2.5331247488604944,2.26682893812146,-1.0291908423053187,0.5147995948791504
1708437400.8316348,-1.0885818004608154,-1.6901394329466761,-2.5332568327533167,2.266583128566406,-1.0294230620013636,0.5171708464622498
1708437400.8336275,-1.0882112979888916,-1.6903802357115687,-2.5333719889270228,2.2662104803272705,-1.0296834150897425,0.5196169018745422
1708437400.8355846,-1.0878527164459229,-1.69055237392568,-2.533484760914938,2.2659150797077636,-1.0299485365497034,0.5220606923103333
1708437400.8376582,-1.0874614715576172,-1.6907769642271937,-2.5336690584765833,2.265561981792114,-1.030215088521139,0.5246029496192932
1708437400.839594,-1.0870920419692993,-1.6909433803954066,-2.5337258020984095,2.265213652248047,-1.030471150075094,0.5271710157394409
1708437400.841602,-1.0866755247116089,-1.691167493859762,-2.533912007008688,2.264890356654785,-1.0307629744159144,0.5296300053596497
1708437400.8436093,-1.0862866640090942,-1.6913472614684046,-2.534097973500387,2.264582796687744,-1.031067196522848,0.5321937203407288
1708437400.8456328,-1.0859285593032837,-1.691587587396139,-2.5341954866992396,2.2642549711414794,-1.0313199202166956,0.5346465110778809
1708437400.8476627,-1.085548758506775,-1.6916848621764125,-2.534376923237936,2.263939543361328,-1.0316732565509241,0.5371636748313904
1708437400.8496342,-1.0851069688796997,-1.6919385395445765,-2.534513298665182,2.2636112409779052,-1.0319560209857386,0.5396783351898193
1708437400.8516157,-1.0847816467285156,-1.6921059093871058,-2.5346649328814905,2.2633487421223144,-1.032219711934225,0.5421724915504456
1708437400.8536165,-1.0843514204025269,-1.6923142872252406,-2.5347638765918177,2.263019486064575,-1.0324857870685022,0.5447250008583069
1708437400.855604,-1.0839674472808838,-1.6924592457213343,-2.534928862248556,2.2626632887073974,-1.0327208677874964,0.5473363399505615
1708437400.8576138,-1.0835880041122437,-1.6927257976927699,-2.5350845495807093,2.262364550227783,-1.0329697767840784,0.5497956275939941
1708437400.8596027,-1.0831708908081055,-1.6928750477232875,-2.5352166334735315,2.26202838003125,-1.03326923051943,0.5525200963020325
1708437400.8615882,-1.082829236984253,-1.6930953464903773,-2.535351816807882,2.261668844813965,-1.0334957281695765,0.5551199913024902
1708437400.8636253,-1.082434058189392,-1.6932860813536585,-2.5354955832110804,2.261288805598877,-1.0337560812579554,0.5578449368476868
1708437400.865587,-1.0820256471633911,-1.69352449993276,-2.535637919102804,2.2609609800526123,-1.0340312162982386,0.5603578090667725
1708437400.8676481,-1.0816541910171509,-1.6936279735960902,-2.5358405748950403,2.2606121736713867,-1.0343201796161097,0.5629700422286987
1708437400.8696334,-1.081265926361084,-1.6938659153380335,-2.535987440739767,2.260225220317505,-1.034623924885885,0.5654332041740417
1708437400.8716412,-1.0808653831481934,-1.6940890751280726,-2.53614050546755,2.259930058116577,-1.0348957220660608,0.5681116580963135
1708437400.8736405,-1.0804752111434937,-1.6942936382689417,-2.5363155047046106,2.2595745760151367,-1.035166088734762,0.5706465244293213
1708437400.8756115,-1.080025315284729,-1.6944552860655726,-2.536480728779928,2.2591685491749267,-1.035513703023092,0.5733246803283691
1708437400.877626,-1.079633116722107,-1.6946755848326625,-2.536618773137228,2.258817120189331,-1.0358293692218226,0.5758172273635864
1708437400.87962,-1.0792510509490967,-1.6949173412718714,-2.5368314425097864,2.258526011104248,-1.0361650625811976,0.5785301923751831
1708437400.8816075,-1.078838586807251,-1.6950298748412074,-2.536963764821188,2.2582151132770996,-1.0364349524127405,0.5811291337013245
1708437400.8836558,-1.0784403085708618,-1.6952082119383753,-2.5371106306659144,2.2579142290302734,-1.0366976896869105,0.5836391448974609
1708437400.8855896,-1.0780466794967651,-1.6954761944212855,-2.537315909062521,2.2576119142719726,-1.0369928518878382,0.5864669680595398
1708437400.8876526,-1.0776394605636597,-1.695625444451803,-2.5375471750842493,2.257279320354126,-1.0373294989215296,0.5892033576965332
1708437400.8896053,-1.0772446393966675,-1.6958080730833949,-2.537651840840475,2.25694386541333,-1.037617031727926,0.5918950438499451
1708437400.8916397,-1.0767669677734375,-1.6960154972472132,-2.5378080050097864,2.2566768366047363,-1.0379694143878382,0.594656765460968
1708437400.8935993,-1.0764127969741821,-1.696240087548727,-2.5379698912249964,2.256319685573242,-1.0382760206805628,0.5973079204559326
1708437400.895609,-1.0760583877563477,-1.6964107952513636,-2.5381723085986536,2.2559677797504882,-1.0386040846454065,0.6000342965126038
1708437400.8976207,-1.0755881071090698,-1.6965319118895472,-2.53831917444338,2.2556394773670654,-1.038919750844137,0.6026930809020996
1708437400.8995962,-1.0752817392349243,-1.696719308892721,-2.538506571446554,2.2553204733082275,-1.0392478148089808,0.6054221391677856
1708437400.9016423,-1.0748066902160645,-1.6969605884947718,-2.5387120882617396,2.2549518781849365,-1.0395215193377894,0.6080501079559326
1708437400.9036157,-1.0744348764419556,-1.6971937618651332,-2.53888446489443,2.2546486097523193,-1.0399110952960413,0.6108322739601135
1708437400.9055974,-1.0740686655044556,-1.6973687611021937,-2.5390811602221888,2.254394217128418,-1.0401971975909632,0.613460898399353
1708437400.9076128,-1.0736966133117676,-1.6975184879698695,-2.539237085972921,2.253983660335205,-1.0405128637896937,0.6163415312767029
1708437400.9096065,-1.0732771158218384,-1.6977759800352992,-2.539478365574972,2.2536849218555908,-1.0408437887774866,0.619085967540741
1708437400.9116087,-1.072823405265808,-1.6979557476439417,-2.539607350026266,2.2534064489552,-1.0411961714373987,0.621900200843811
1708437400.913606,-1.0724858045578003,-1.6981712780394496,-2.5397751967059534,2.2531258302875976,-1.0415027777301233,0.6246189475059509
1708437400.915646,-1.0720593929290771,-1.698400159875387,-2.539955202733175,2.252761049861572,-1.0418303648578089,0.6273099184036255
1708437400.9177287,-1.0716803073883057,-1.6984883747496546,-2.5401323477374476,2.25248305379834,-1.0421775023089808,0.629996657371521
1708437400.9196136,-1.0713118314743042,-1.6987587414183558,-2.5403061548816126,2.2521790701099853,-1.0425060431109827,0.6327725648880005
1708437400.9215996,-1.0709325075149536,-1.6989251575865687,-2.5404740015613,2.251882954234741,-1.0427992979632776,0.6355057954788208
1708437400.9236758,-1.0705736875534058,-1.6991321049132289,-2.5406931082354944,2.2515556055256347,-1.0431478659259241,0.6382502317428589
1708437400.92561,-1.0701972246170044,-1.6993032894530238,-2.540847365056173,2.2512146669575195,-1.043445889149801,0.6410142779350281
1708437400.9276817,-1.0698555707931519,-1.6995073757567347,-2.541067902241842,2.2509395319172363,-1.043804947529928,0.643671452999115
1708437400.9296253,-1.0693925619125366,-1.6996776066222132,-2.5412314573871058,2.250570221538208,-1.0441973845111292,0.6465954780578613
1708437400.9316194,-1.0690580606460571,-1.699906965295309,-2.5414086023913782,2.2503437238880615,-1.044544521962301,0.649433434009552
1708437400.933624,-1.0686861276626587,-1.7000819645323695,-2.541595760975973,2.24996201574292,-1.044875446950094,0.6522582173347473
1708437400.9355977,-1.0683417320251465,-1.7003346882262171,-2.54177433649172,2.2496389585682373,-1.0452469030963343,0.6550620794296265
1708437400.937659,-1.0680274963378906,-1.7005278072752894,-2.541969362889425,2.2493838506885986,-1.045595947896139,0.6578704714775085
1708437400.9395921,-1.0675315856933594,-1.7006398640074671,-2.542105499898092,2.24917380392041,-1.0459383169757288,0.6605328917503357
1708437400.9415863,-1.0673085451126099,-1.7008573017516078,-2.542318884526388,2.2488648134418945,-1.0462735334979456,0.6632579565048218
1708437400.9437087,-1.0669084787368774,-1.701028963128561,-2.542500082646505,2.2486209112354736,-1.0465882460223597,0.6659648418426514
1708437400.9455886,-1.066593885421753,-1.7012444935240687,-2.542696539555685,2.2483455377766113,-1.046964470540182,0.6686791777610779
1708437400.947634,-1.0662235021591187,-1.701346059838766,-2.5428348223315638,2.248049183482788,-1.0473278204547327,0.6713873147964478
1708437400.9496214,-1.065880537033081,-1.7015334568419398,-2.5430641810046595,2.247859402293823,-1.0476787726031702,0.6741534471511841
1708437400.9516091,-1.0654879808425903,-1.7017671070494593,-2.543251339589254,2.247537537212036,-1.048034969960348,0.6769261360168457
1708437400.9536314,-1.0652111768722534,-1.7019359074034632,-2.543427054082052,2.247313900584839,-1.0483654181109827,0.6797797083854675
1708437400.9556088,-1.0648558139801025,-1.7020946941771449,-2.5436280409442347,2.2470905023762207,-1.0487459341632288,0.6825571656227112
1708437400.9576368,-1.0645129680633545,-1.702245374719137,-2.5438151995288294,2.246781273479126,-1.0490811506854456,0.6853455901145935
1708437400.9596486,-1.0642117261886597,-1.7023521862425746,-2.54392916360964,2.246553583736084,-1.0493672529803675,0.688076376914978
1708437400.9616148,-1.0638434886932373,-1.702536245385641,-2.5441632906543177,2.2462782102772216,-1.0496671835528772,0.6906967759132385
1708437400.9636588,-1.0635207891464233,-1.70274080852651,-2.5443716684924524,2.2460431295582275,-1.0500195662127894,0.6934970617294312
1708437400.9656193,-1.063226342201233,-1.7028795681395472,-2.544535223637716,2.245762987727783,-1.0503714720355433,0.69613116979599
1708437400.9676368,-1.062888264656067,-1.703047891656393,-2.5446727911578577,2.24549047529187,-1.0506985823260706,0.69891756772995
1708437400.9696286,-1.0625351667404175,-1.703146596948141,-2.5449100176440638,2.245267315501831,-1.0510671774493616,0.7015425562858582
1708437400.9715974,-1.0622501373291016,-1.7033020458617152,-2.5450738112079065,2.245006962413452,-1.0514119307147425,0.704195499420166
1708437400.9736092,-1.0619093179702759,-1.7034861050047816,-2.545281712208883,2.244755907649658,-1.051750961934225,0.7069171071052551
1708437400.9756231,-1.0615956783294678,-1.7035681209959925,-2.5455039183246058,2.2445565897175292,-1.0520747343646448,0.7096068859100342
1708437400.9775908,-1.061264991760254,-1.7037073574461878,-2.5457034746753138,2.2442917066761474,-1.0523970762835901,0.7123815417289734
1708437400.9795902,-1.0609941482543945,-1.7038303814330042,-2.5458861033069056,2.2441088396259765,-1.0528033415423792,0.7150675654411316
1708437400.9816535,-1.0606133937835693,-1.704019685784811,-2.5460570494281214,2.2438852029987792,-1.0531418959247034,0.7178346514701843
1708437400.983583,-1.0603842735290527,-1.7041222057738246,-2.546269957219259,2.2437023359486084,-1.0535019079791468,0.7206151485443115
1708437400.985626,-1.060097336769104,-1.7042910061278285,-2.5464213530169886,2.2434212404438476,-1.0538657347308558,0.7232913374900818
1708437400.9876292,-1.0597795248031616,-1.7044350109496058,-2.5466209093676966,2.2432336050220947,-1.0541732946978968,0.7259916067123413
1708437400.9895945,-1.0595086812973022,-1.7045756779112757,-2.546835724507467,2.243025942439697,-1.05450946489443,0.7286734580993652
1708437400.991604,-1.059200406074524,-1.704672475854391,-2.547006432210104,2.2428461748310546,-1.0547836462603968,0.7314459681510925
1708437400.9935982,-1.058894395828247,-1.7048717937865199,-2.5472269693957728,2.2426010805317382,-1.0551236311541956,0.7340418100357056
1708437400.9955888,-1.0586268901824951,-1.7049976787962855,-2.5473738352404993,2.2423922258564453,-1.0555136839496058,0.7367562651634216
1708437400.9975877,-1.0583398342132568,-1.7051617107787074,-2.547598902379171,2.242243214244507,-1.055812184010641,0.7394591569900513
1708437400.9995942,-1.0580896139144897,-1.7053233585753382,-2.5477457682238978,2.2420541483112792,-1.056147877370016,0.7422127723693848
1708437401.0016122,-1.0577698945999146,-1.7054101429381312,-2.5479286352740687,2.241842194194458,-1.056450668965475,0.7449617385864258
1708437401.0035863,-1.0575847625732422,-1.7055121860899867,-2.548150602971212,2.2416576582142334,-1.056856934224264,0.7477381229400635
1708437401.00558,-1.0572963953018188,-1.7056437931456507,-2.548288408909933,2.2414986330219726,-1.057183567677633,0.7504396438598633
1708437401.0075903,-1.0570447444915771,-1.7057353458800257,-2.5484896341906946,2.2413181501575927,-1.0575116316424769,0.7530884742736816
1708437401.0095904,-1.05680251121521,-1.7058712444701136,-2.548616949711935,2.2411503034779052,-1.0578673521624964,0.7557135820388794
1708437401.0116205,-1.0565069913864136,-1.705961366693014,-2.548837486897604,2.240921898479126,-1.0581868330584925,0.7584053874015808
1708437401.0136998,-1.0563035011291504,-1.7060777149596156,-2.5490310827838343,2.2408034044453125,-1.0584982077227991,0.7609679698944092
1708437401.015592,-1.0560779571533203,-1.7061964474120082,-2.549168888722555,2.2406555849262695,-1.0588701407061976,0.7636836767196655
1708437401.01771,-1.0557982921600342,-1.7063127956786097,-2.5493741671191614,2.240516110057495,-1.0592029730426233,0.7663121819496155
1708437401.0196145,-1.0555670261383057,-1.7064982853331507,-2.5495289007769983,2.240323229427002,-1.0595391432391565,0.7689480185508728
1708437401.0215938,-1.0553158521652222,-1.7065655193724574,-2.549704138432638,2.240097923869751,-1.0598629156695765,0.7716979384422302
1708437401.0235918,-1.05506432056427,-1.7067252598204554,-2.5498886744128626,2.2400168615528564,-1.0601156393634241,0.7743780612945557
1708437401.0255947,-1.0548820495605469,-1.7068048916258753,-2.550077501927511,2.2398642736622314,-1.060406510029928,0.7770571708679199
1708437401.0276315,-1.054649829864502,-1.706893106500143,-2.550199095402853,2.2396506506153564,-1.060767952595846,0.7797884941101074
1708437401.0296233,-1.0544753074645996,-1.7069789371886195,-2.5503504912005823,2.2395810323902587,-1.0611212889300745,0.782444179058075
1708437401.0316443,-1.0541905164718628,-1.707132955590719,-2.550567928944723,2.2394532400318603,-1.0614245573626917,0.7850878834724426
1708437401.0336003,-1.0540659427642822,-1.707207819024557,-2.5507314840899866,2.239356680507324,-1.0617650190936487,0.7878099083900452
1708437401.035599,-1.053767204284668,-1.7072826824583949,-2.550891939793722,2.2391809660145263,-1.0620768705951136,0.7904254198074341
1708437401.0376291,-1.053581953048706,-1.7074319324889125,-2.5510972181903284,2.2390617567249755,-1.0624573866473597,0.7930670976638794
1708437401.0395958,-1.05339515209198,-1.7074576816954554,-2.551244322453634,2.2389368253895263,-1.0627272764789026,0.7956548929214478
1708437401.0415902,-1.0532035827636719,-1.7075368366637171,-2.5513909498797815,2.2388056951710205,-1.0630806128131312,0.7982839345932007
1708437401.0435846,-1.0529557466506958,-1.7076341114439906,-2.5515876452075403,2.2386812406727294,-1.0633791128741663,0.800930380821228
1708437401.0455906,-1.0528055429458618,-1.7077137432494105,-2.5517855326281946,2.2386092382618408,-1.0636909643756312,0.8036620616912842
1708437401.0475967,-1.0525572299957275,-1.7078257999815882,-2.551908556615011,2.2385544019886474,-1.0639622847186487,0.8063165545463562
1708437401.0496013,-1.0523897409439087,-1.7079092464842738,-2.5521050135241907,2.2384273248859863,-1.0642545858966272,0.8090090751647949
1708437401.0516336,-1.0522150993347168,-1.7079183063902796,-2.5522447268115442,2.238314314479492,-1.064554516469137,0.8116363286972046
1708437401.0536273,-1.052048921585083,-1.7081018886961878,-2.552419964467184,2.2381858068653564,-1.0648663679706019,0.8142542243003845
1708437401.055611,-1.051849126815796,-1.708107133904928,-2.5525878111468714,2.2381059366413574,-1.0651333967791956,0.8168476223945618
1708437401.0576022,-1.0516326427459717,-1.7082044086852015,-2.552727286015646,2.2379984098621826,-1.0654333273517054,0.8195383548736572
1708437401.0595984,-1.0514777898788452,-1.708280702630514,-2.5528741518603724,2.2378689485737304,-1.0657451788531702,0.8219983577728271
1708437401.0615892,-1.0512969493865967,-1.7083479366698207,-2.553093496953146,2.2377332884022216,-1.0659921805011194,0.8245623707771301
1708437401.0636814,-1.051154375076294,-1.7083989582457484,-2.55321175256838,2.2376949030109863,-1.0662725607501429,0.8271710872650146
1708437401.0656164,-1.0510189533233643,-1.7085043392577113,-2.553337875996725,2.2376226621815185,-1.0665887037860315,0.8295554518699646
1708437401.0676682,-1.0508716106414795,-1.7085544071593226,-2.553577248250143,2.23749749242749,-1.0668600241290491,0.8321570158004761
1708437401.0696232,-1.0507283210754395,-1.7086144886412562,-2.5536707083331507,2.237433596248291,-1.0671122709857386,0.8346273899078369
1708437401.0716357,-1.05060613155365,-1.7087069950499476,-2.553814713154928,2.2373787599750976,-1.0673430601703089,0.8372511863708496
1708437401.073657,-1.0504289865493774,-1.7087670765318812,-2.5540078322040003,2.237316532725952,-1.067611042653219,0.8398569822311401
1708437401.0756516,-1.0503184795379639,-1.7088591061034144,-2.5540784041034144,2.237255259151123,-1.0678709189044397,0.8424095511436462
1708437401.077609,-1.050108790397644,-1.7088867626585902,-2.5542882124530237,2.2371386724659423,-1.068143669758932,0.8449247479438782
1708437401.0795918,-1.0500236749649048,-1.7089253864684046,-2.554406706486837,2.2370874124714355,-1.068387810383932,0.8474298715591431
1708437401.081587,-1.0498387813568115,-1.709050794641012,-2.5545504728900355,2.2370363908955078,-1.0685809294330042,0.8497922420501709
1708437401.083634,-1.049718976020813,-1.7090288601317347,-2.5546661059008997,2.2370001512714843,-1.0689242521869105,0.8522905707359314
1708437401.0856223,-1.0496007204055786,-1.7091838322081507,-2.554781500493185,2.236952467555664,-1.069155518208639,0.8546454906463623
1708437401.0876148,-1.0494414567947388,-1.7091928921141566,-2.5549095312701624,2.23686329900708,-1.0693696180926722,0.857048749923706
1708437401.0895915,-1.0493285655975342,-1.7092744312682093,-2.5550411383258265,2.2368599611469726,-1.0696542898761194,0.8594335913658142
1708437401.091605,-1.049275517463684,-1.7093059025206507,-2.5552430788623255,2.236832304591797,-1.0699108282672327,0.8618829250335693
1708437401.0936048,-1.049103021621704,-1.70933260540151,-2.55528432527651,2.236739082927368,-1.0701330343829554,0.8643679618835449
1708437401.0956101,-1.049012303352356,-1.7094279728331507,-2.555511776600973,2.236691637630127,-1.0703771750079554,0.8668002486228943
1708437401.0976057,-1.0488725900650024,-1.7094642124571742,-2.555627409611837,2.236647768611572,-1.0706422964679163,0.8692763447761536
1708437401.099588,-1.048723816871643,-1.70949186901235,-2.5557220617877405,2.2366153436848144,-1.0708869139300745,0.8716737627983093
1708437401.101572,-1.0486091375350952,-1.7095233402647914,-2.555870596562521,2.2365550237843017,-1.0710919539081019,0.874150276184082
1708437401.1035974,-1.0485634803771973,-1.7096196613707484,-2.5559662024127405,2.2365280824848632,-1.0713079611407679,0.8764809966087341
1708437401.105604,-1.0483734607696533,-1.7096830807127894,-2.556105915700094,2.2364398676105957,-1.0715449492083948,0.878807783126831
1708437401.1075852,-1.0482958555221558,-1.709794660607809,-2.556246821080343,2.236412687892578,-1.071686093007223,0.881148099899292
1708437401.1095872,-1.048169732093811,-1.7097917995848597,-2.556289259587423,2.236363335246704,-1.0719030539142054,0.8835053443908691
1708437401.1116023,-1.0480505228042603,-1.7098146877684535,-2.55648380914797,2.236361189479492,-1.0721162001239222,0.8857398629188538
1708437401.113586,-1.0479888916015625,-1.7098924122252406,-2.556512419377462,2.236295624370239,-1.072294060383932,0.8880854845046997
1708437401.1155887,-1.0478368997573853,-1.709952016870016,-2.5566862265216272,2.236203594798706,-1.0724919478045862,0.890311062335968
1708437401.1176238,-1.0476988554000854,-1.7100001774229945,-2.5567806402789515,2.236174984569214,-1.0726507345782679,0.892464816570282
1708437401.1196065,-1.0475959777832031,-1.7100140057005824,-2.5568886438952845,2.2361652094074707,-1.0728309790240687,0.8947882056236267
1708437401.12159,-1.0474793910980225,-1.7100464306273402,-2.5570011774646204,2.2361623483845214,-1.0730345884906214,0.8970542550086975
1708437401.123618,-1.0474183559417725,-1.710156580010885,-2.5570598284350794,2.236088438625,-1.0731952826129358,0.8993102312088013
1708437401.1255968,-1.0472897291183472,-1.7101632557311,-2.5571885744677942,2.2360526758381347,-1.073362175618307,0.9016162753105164
1708437401.1276076,-1.047210931777954,-1.7102395496764125,-2.557317558919088,2.2359959322163085,-1.0735791365252894,0.9039051532745361
1708437401.1295989,-1.0470281839370728,-1.710221906701559,-2.557437245045797,2.2359883028217773,-1.0737784544574183,0.9062106013298035
1708437401.1316168,-1.0469474792480469,-1.710339685479635,-2.557533089314596,2.235919399852417,-1.0739777723895472,0.9084786772727966
1708437401.1335888,-1.0468108654022217,-1.7103382549681605,-2.5576587359057825,2.2359325128742675,-1.0741789976703089,0.9105443954467773
1708437401.1355839,-1.0466828346252441,-1.7103892765440882,-2.557716194783346,2.2358149725147705,-1.074395004902975,0.9127702116966248
1708437401.137597,-1.0465593338012695,-1.7104083500304164,-2.5578091780291956,2.235860987300537,-1.0745251814471644,0.9149658679962158
1708437401.1396058,-1.0464680194854736,-1.710466047326559,-2.5578811804400843,2.235807343120239,-1.074721638356344,0.9170700907707214
1708437401.1416001,-1.0463242530822754,-1.7105208835997523,-2.5579517523394983,2.2357889848896484,-1.0748561064349573,0.9191895127296448
1708437401.1436481,-1.046196460723877,-1.7105895481505335,-2.5580764452563685,2.235757036800049,-1.0750492254840296,0.9212173223495483
1708437401.1455796,-1.0460805892944336,-1.7106825313963832,-2.558193031941549,2.2357050615498046,-1.0752385298358362,0.9234050512313843
1708437401.147853,-1.0459295511245728,-1.7107464275755824,-2.558300797139303,2.2356642919727783,-1.0753405729876917,0.9254553318023682
1708437401.149604,-1.0458834171295166,-1.710766454736227,-2.5583446661578577,2.235604925746582,-1.0754721800433558,0.9276546835899353
1708437401.151674,-1.045759916305542,-1.7108007870116175,-2.5584405104266565,2.2355405527302246,-1.07560903230776,0.9297046065330505
1708437401.1536324,-1.0455420017242432,-1.7108570537962855,-2.558516804371969,2.235480232829712,-1.075716797505514,0.931855320930481
1708437401.1556704,-1.0453827381134033,-1.7108713589110316,-2.558596436177389,2.23541705190625,-1.0758112112628382,0.9338444471359253
1708437401.1576366,-1.0452758073806763,-1.7109648189940394,-2.5587101618396204,2.235315724010132,-1.0759237448321741,0.9359809160232544
1708437401.1596713,-1.0450921058654785,-1.711029668847555,-2.5587478319751185,2.235198660487793,-1.076043430958883,0.9379847645759583
1708437401.161645,-1.044952154159546,-1.7111388645567835,-2.558819834386007,2.2351435857960205,-1.0761635939227503,0.9400309324264526
1708437401.1637034,-1.0448510646820068,-1.7111922703185023,-2.558878723775045,2.235105200404785,-1.0763075987445276,0.9419576525688171
1708437401.1656032,-1.0446300506591797,-1.7112895450987757,-2.5589714686023157,2.2350050646015625,-1.0764511267291468,0.9439141154289246
1708437401.167646,-1.0444583892822266,-1.7113410435118617,-2.5590675512896937,2.2349211412617187,-1.076550308858053,0.9458604454994202
1708437401.169635,-1.0442448854446411,-1.7114201984801234,-2.559173647557394,2.2348529535480957,-1.076700512562887,0.9477218985557556
1708437401.1716177,-1.044144630432129,-1.7114483318724574,-2.55919057527651,2.2348221975513916,-1.0767782370196741,0.9495783448219299
1708437401.1736178,-1.0439565181732178,-1.7115560970702113,-2.5592876116382044,2.2346834379383544,-1.076836887990133,0.9514703154563904
1708437401.1756098,-1.0437273979187012,-1.7116161785521449,-2.559359852467672,2.2345992761799316,-1.0770147482501429,0.9532225131988525
1708437401.1776288,-1.043642282485962,-1.711712499658102,-2.5594077746020716,2.234511061305664,-1.0771153608905237,0.9549941420555115
1708437401.1796014,-1.0434097051620483,-1.7117582760252894,-2.5594590345965784,2.234505816096924,-1.0772159735309046,0.9568296670913696
1708437401.181608,-1.0432095527648926,-1.711858411828512,-2.5595606009112757,2.2343153196522216,-1.0773027578936976,0.9587075114250183
1708437401.1835928,-1.042974829673767,-1.711991926232809,-2.5595746676074427,2.2342356878468017,-1.0773823896991175,0.9605553150177002
1708437401.1856315,-1.04276704788208,-1.7121120891966761,-2.5596686045276087,2.2341365057178955,-1.0774615446673792,0.9623393416404724
1708437401.1876702,-1.0425560474395752,-1.7122661075987757,-2.5596988836871546,2.23401586591687,-1.0775745550738733,0.9640505313873291
1708437401.189691,-1.04232919216156,-1.7122703991331996,-2.5597315470324915,2.233851595515869,-1.077653710042135,0.96589195728302
1708437401.191595,-1.0421459674835205,-1.7124501667418421,-2.559791866933004,2.233731432552002,-1.0777304808246058,0.9675607681274414
1708437401.1936035,-1.0419052839279175,-1.7125069103636683,-2.5598397890674036,2.233628197307251,-1.0778215567218226,0.9693247675895691
1708437401.1955914,-1.0416871309280396,-1.7126146755614222,-2.5598791281329554,2.233520432109497,-1.0779054800616663,0.9709280729293823
1708437401.1975946,-1.0414037704467773,-1.7127295933165492,-2.5599432627307337,2.2333475786396484,-1.077949349080221,0.9725375175476074
1708437401.1995933,-1.0411527156829834,-1.7128659687437953,-2.559995714818136,2.2331549364277343,-1.0780423323260706,0.9741957187652588
1708437401.2016172,-1.0408035516738892,-1.713010927239889,-2.5600677172290247,2.2330118852802734,-1.0781453291522425,0.9757350087165833
1708437401.2035925,-1.040513038635254,-1.7131339512267054,-2.560087267552511,2.2327913480946044,-1.078214470540182,0.9774329662322998
1708437401.2056353,-1.040189504623413,-1.7133313618102015,-2.5601843039142054,2.232604427928589,-1.0782321135150355,0.9788402915000916
1708437401.2076077,-1.039842128753662,-1.7134329281248988,-2.5601864496814173,2.2324158388325195,-1.078285042439596,0.980366587638855
1708437401.2096066,-1.0395972728729248,-1.7136231861510218,-2.5602923075305384,2.232215567226074,-1.0783236662494105,0.9818335771560669
1708437401.2116256,-1.0391926765441895,-1.7137624226012171,-2.56033164659609,2.2320405679890136,-1.0783808867083948,0.9833304286003113
1708437401.213603,-1.0388582944869995,-1.7140008411803187,-2.5603840986834925,2.2317628103443603,-1.0783599058734339,0.9847803711891174
1708437401.2156062,-1.038461685180664,-1.7141286335387171,-2.560418669377462,2.231604738826416,-1.0784452597247522,0.9862450957298279
1708437401.2176187,-1.0380394458770752,-1.714299818078512,-2.5604592005359095,2.231351299876831,-1.0785139242755335,0.9876392483711243
1708437401.21976,-1.0376689434051514,-1.7145124874510707,-2.56055194536318,2.2310995298572998,-1.0785005728351038,0.9891126751899719
1708437401.2216024,-1.0372134447097778,-1.7147981129088343,-2.5605416933642786,2.230848713512085,-1.0785649458514612,0.9905129671096802
1708437401.2236376,-1.0367801189422607,-1.7149387798705042,-2.5606315771686,2.2305306631275634,-1.078608814870016,0.9918856024742126
1708437401.2256362,-1.0363421440124512,-1.7151252231993617,-2.5606301466571253,2.2302605348774414,-1.078677002583639,0.993203341960907
1708437401.227629,-1.0358210802078247,-1.7153665028014125,-2.560669485722677,2.229956551189087,-1.0786636511432093,0.9945515990257263
1708437401.2296274,-1.035405158996582,-1.7156602344908656,-2.5607829729663294,2.229651375407837,-1.0787704626666468,0.9958450198173523
1708437401.2316098,-1.034913420677185,-1.7158295116820277,-2.5608235041247767,2.229384346599243,-1.0787971655475062,0.9971415996551514
1708437401.2336476,-1.0344020128250122,-1.7161256275572718,-2.5608461538897913,2.229003353709839,-1.0788124243365687,0.9983543157577515
1708437401.235584,-1.0337797403335571,-1.7164002857603968,-2.5609357992755335,2.2286342817493896,-1.0788396040545862,0.9996452331542969
1708437401.2375972,-1.0332831144332886,-1.716642519036764,-2.5609172026263636,2.2283376890369873,-1.0788963476764124,1.0007970333099365
1708437401.2395887,-1.0326675176620483,-1.716996809045309,-2.5610109011279505,2.2278634744831542,-1.078895394002096,1.002018928527832
1708437401.2415977,-1.032092809677124,-1.7172924480833949,-2.5610840956317347,2.2274719911762695,-1.0789101759540003,1.0030806064605713
1708437401.2436068,-1.0315247774124146,-1.7175842724242152,-2.5610819498645228,2.2271007734486084,-1.0789836088763636,1.004219889640808
1708437401.2455895,-1.0308494567871094,-1.7179118595519007,-2.561117712651388,2.226663513774536,-1.0790327231036585,1.0052745342254639
1708437401.247594,-1.030199408531189,-1.7181064091124476,-2.5612192789660853,2.2262160021015625,-1.0789793173419397,1.0062963962554932
1708437401.2495987,-1.02948796749115,-1.7185331783690394,-2.56128698984255,2.2257436948963623,-1.0790236631976526,1.007326602935791
1708437401.251607,-1.0287946462631226,-1.7188755474486292,-2.5613518396960657,2.225304051036499,-1.0790193716632288,1.0083706378936768
1708437401.2535942,-1.0281007289886475,-1.719269414941305,-2.561383072529928,2.224869413966797,-1.0790193716632288,1.0093729496002197
1708437401.2555737,-1.0273646116256714,-1.7196523151793421,-2.5614596048938196,2.2243241506763916,-1.0789983908282679,1.0103446245193481
1708437401.2576053,-1.0266001224517822,-1.7200681171812953,-2.561479393635885,2.223869486446045,-1.0790312925921839,1.011299729347229
1708437401.2596042,-1.0258115530014038,-1.7204176388182582,-2.5615106264697474,2.223360701198242,-1.0790508429156702,1.0122432708740234
1708437401.2616045,-1.0250463485717773,-1.7208215198912562,-2.5615676085101526,2.222824974651001,-1.0790765921222132,1.0131733417510986
1708437401.263602,-1.0242743492126465,-1.7212606869139613,-2.561639372502462,2.2222298818775634,-1.0790703932391565,1.014077067375183
1708437401.265577,-1.0233663320541382,-1.7216798267760218,-2.5616710821734827,2.2216693597980957,-1.0790675322162073,1.0149368047714233
1708437401.267569,-1.0225591659545898,-1.7220527134337367,-2.561728302632467,2.2211269575306396,-1.0790870825396937,1.0157601833343506
1708437401.2696114,-1.0216816663742065,-1.7225796184935511,-2.5617504755603235,2.220424099559448,-1.0790751616107386,1.0165612697601318
1708437401.2716517,-1.0208408832550049,-1.7229892216124476,-2.5618556181537073,2.2198733526417236,-1.0791366736041468,1.0173996686935425
1708437401.2736168,-1.0199065208435059,-1.7234655819334925,-2.5619168917285364,2.219301624889038,-1.0791285673724573,1.0181471109390259
1708437401.27562,-1.0189613103866577,-1.7239514789977015,-2.5619517008410853,2.218625708217285,-1.079151455556051,1.0189799070358276
1708437401.2776039,-1.0180413722991943,-1.7244440517821253,-2.5619874636279505,2.2179488378712158,-1.0790975729571741,1.0197346210479736
1708437401.2795901,-1.0170795917510986,-1.7249232731261195,-2.562073055897848,2.217322512263916,-1.079179588948385,1.02055025100708
1708437401.2816362,-1.016093134880066,-1.7254325352110804,-2.5620744864093226,2.216496391887329,-1.0791962782489222,1.021279215812683
1708437401.2836099,-1.0150521993637085,-1.7259060345091761,-2.562176767979757,2.2158583837696533,-1.0791543165790003,1.0219913721084595
1708437401.2856116,-1.0140275955200195,-1.7264448604979457,-2.5622482935534876,2.2151471811481933,-1.0792248884784144,1.0226833820343018
1708437401.28763,-1.0130324363708496,-1.7269889316954554,-2.5622828642474573,2.214484139079712,-1.0791738669024866,1.0233361721038818
1708437401.289587,-1.0119307041168213,-1.727549215356344,-2.562342945729391,2.213789148921631,-1.0792277495013636,1.0240478515625
1708437401.291579,-1.0107918977737427,-1.728069921533102,-2.5624404589282435,2.2130459982105712,-1.0792234579669397,1.0246679782867432
1708437401.2935946,-1.0097326040267944,-1.7287074528136195,-2.5625034014331263,2.2123264509388427,-1.0792396704303187,1.0252643823623657
1708437401.2956018,-1.0085798501968384,-1.7293263874449671,-2.5625723044024866,2.2114767271229248,-1.0792277495013636,1.0258784294128418
1708437401.29757,-1.0074083805084229,-1.7298313579955042,-2.5626326243029993,2.210719271297119,-1.0791900793658655,1.02646005153656
1708437401.299576,-1.006196141242981,-1.7304536304869593,-2.56264573732485,2.2098793226429443,-1.0792964140521448,1.027017593383789
1708437401.3016107,-1.005002737045288,-1.7311011753477992,-2.5627313295947474,2.2090515333363037,-1.0793007055865687,1.0275837182998657
1708437401.3036132,-1.0038049221038818,-1.7317077122130335,-2.56279427209963,2.20830146848645,-1.079243008290426,1.0280073881149292
1708437401.3055952,-1.0025805234909058,-1.7323371372618617,-2.562903706227438,2.2073842722126464,-1.0792635122882288,1.0284525156021118
1708437401.30761,-1.001339316368103,-1.7330228290953578,-2.5629711786853235,2.20650498449292,-1.079231087361471,1.0289632081985474
1708437401.309608,-1.0000468492507935,-1.7336684666075648,-2.5630508104907435,2.2056314188190917,-1.0792353788958948,1.0293896198272705
