Eg3-git/Classifiers/Data Collection/u5/u5www2_ur3e_joint_states.csv
time,elbow_joint,shoulder_lift_joint,shoulder_pan_joint,wrist_1_joint,wrist_2_joint,wrist_3_joint
1708437376.1295242,-1.105582594871521,-1.6815172634520472,-2.5269039312945765,2.2814041811176757,-1.0178239981280726,0.6148478388786316
1708437376.1315649,-1.1056036949157715,-1.6815172634520472,-2.5269084612475794,2.281379385585449,-1.0178001562701624,0.6148269176483154
1708437376.1335359,-1.105582594871521,-1.6815296612181605,-2.526874367390768,2.2814084726520996,-1.0178268591510218,0.614811897277832
1708437376.1355035,-1.1056171655654907,-1.6815010509886683,-2.5268426577197474,2.2813922601887207,-1.0178330580340784,0.614831268787384
1708437376.1374955,-1.1055963039398193,-1.6814686260619105,-2.5268502871142786,2.2814084726520996,-1.0178120771991175,0.6148192882537842
1708437376.1394904,-1.1055961847305298,-1.6815124950804652,-2.5268383661853235,2.2814335066029052,-1.0177958647357386,0.6147987246513367
1708437376.1415272,-1.1055963039398193,-1.6815577946104945,-2.5269127527820032,2.2813548284718017,-1.0178239981280726,0.614822506904602
1708437376.1435106,-1.1055679321289062,-1.6815339527525843,-2.5268965403186243,2.281346245402954,-1.0178402105914515,0.6148478388786316
1708437376.1455805,-1.1055395603179932,-1.681549688378805,-2.5269206205951136,2.2814010816761474,-1.0178197065936487,0.614843487739563
1708437376.147537,-1.105565071105957,-1.6815339527525843,-2.526878897343771,2.281437798137329,-1.0178282896624964,0.6148355603218079
1708437376.1495974,-1.1055141687393188,-1.6815253696837367,-2.5269160906421106,2.2813398081013183,-1.0178359190570276,0.6148181557655334
1708437376.1515307,-1.105527639389038,-1.6815902195372523,-2.5268994013415735,2.2814041811176757,-1.0178239981280726,0.6147900223731995
1708437376.1535044,-1.1055634021759033,-1.6815859280028285,-2.5268877188311976,2.2813634115406494,-1.0178611914264124,0.6147778034210205
1708437376.1555083,-1.105560541152954,-1.6815663776793421,-2.5269084612475794,2.281388445491455,-1.0178239981280726,0.614822506904602
1708437376.157502,-1.1055105924606323,-1.6815644703307093,-2.5269280115710657,2.2813398081013183,-1.0178521315204065,0.6148237586021423
1708437376.159496,-1.1055532693862915,-1.6815902195372523,-2.526874367390768,2.2813765245625,-1.0177705923663538,0.6148062348365784
1708437376.1614885,-1.1055078506469727,-1.6815234623351039,-2.5268471876727503,2.281388445491455,-1.0178197065936487,0.6148356199264526
1708437376.163494,-1.1055033206939697,-1.681573053399557,-2.5269249121295374,2.2812740045734863,-1.0178239981280726,0.6147616505622864
1708437376.1654882,-1.1054823398590088,-1.681622167626852,-2.5268831888781946,2.2813288408466796,-1.0178268591510218,0.6148553490638733
1708437376.1675353,-1.1055243015289307,-1.681617876092428,-2.5268831888781946,2.281254692668579,-1.0178611914264124,0.6147865653038025
1708437376.1695433,-1.1054986715316772,-1.6815763912596644,-2.5268877188311976,2.2813045221516113,-1.0177987257586878,0.6147899627685547
1708437376.1715276,-1.1055151224136353,-1.6815763912596644,-2.5269160906421106,2.2813171583363037,-1.0177958647357386,0.6148269176483154
1708437376.173547,-1.105532169342041,-1.6816379032530726,-2.5268994013415735,2.281270905131958,-1.0178359190570276,0.614843487739563
1708437376.1754959,-1.1055197715759277,-1.6816092930235804,-2.5268753210650843,2.281247063274048,-1.0178654829608362,0.6148521304130554
1708437376.177527,-1.1054705381393433,-1.6816207371153773,-2.5269039312945765,2.2812678056904296,-1.0178316275226038,0.6148106455802917
1708437376.179518,-1.1054542064666748,-1.681629320184225,-2.526911799107687,2.2813045221516113,-1.0178387800799769,0.6148062348365784
1708437376.1815395,-1.105516791343689,-1.6816698513426722,-2.5268622080432337,2.281330032939575,-1.0178611914264124,0.614843487739563
1708437376.1835725,-1.1054631471633911,-1.6816698513426722,-2.5268710295306605,2.281280680293701,-1.0178478399859827,0.6148181557655334
1708437376.1855032,-1.1054586172103882,-1.6815926037230433,-2.5268831888781946,2.2812601762958984,-1.0178688208209437,0.6148640513420105
1708437376.18752,-1.1054750680923462,-1.6816493473448695,-2.526874367390768,2.281308813686035,-1.0178359190570276,0.6148182153701782
1708437376.1894994,-1.1054133176803589,-1.6816374264159144,-2.5268753210650843,2.281280680293701,-1.0178359190570276,0.6148878335952759
1708437376.1914978,-1.105446696281433,-1.6816579304137171,-2.526874367390768,2.2812515932270507,-1.0178197065936487,0.614831268787384
1708437376.1935248,-1.1055078506469727,-1.6816007099547328,-2.5268664995776575,2.2812763887592773,-1.0178568998919886,0.6148478388786316
1708437376.195493,-1.105467677116394,-1.6816121540465296,-2.5268753210650843,2.2812515932270507,-1.0178807417498987,0.6148791313171387
1708437376.1975205,-1.1054766178131104,-1.6816336117186488,-2.526874367390768,2.2812763887592773,-1.0178688208209437,0.6148093938827515
1708437376.1995647,-1.1054438352584839,-1.6816493473448695,-2.5268951098071497,2.28129689275708,-1.017822567616598,0.614871621131897
1708437376.20151,-1.1054450273513794,-1.6816078625121058,-2.5268622080432337,2.281280680293701,-1.0178239981280726,0.6148660778999329
1708437376.203529,-1.1054311990737915,-1.6816698513426722,-2.5268753210650843,2.281240625972412,-1.0178521315204065,0.6148378849029541
1708437376.2054904,-1.1054234504699707,-1.681629320184225,-2.5268951098071497,2.2812699514576416,-1.0178316275226038,0.6148390769958496
1708437376.2075362,-1.105415940284729,-1.6816121540465296,-2.52688175836672,2.281235380763672,-1.0178521315204065,0.6148138642311096
1708437376.2095072,-1.1054069995880127,-1.6816898785033167,-2.5268622080432337,2.281240625972412,-1.0178282896624964,0.6148629188537598
1708437376.2115042,-1.1054115295410156,-1.6816007099547328,-2.526829544697897,2.2812201219746093,-1.0178402105914515,0.6148138642311096
1708437376.2135172,-1.1053950786590576,-1.6816331348814906,-2.5268877188311976,2.2812482553669433,-1.0178568998919886,0.6148585677146912
1708437376.2155032,-1.1054024696350098,-1.6816288433470667,-2.5268664995776575,2.281224413509033,-1.0178521315204065,0.6148138046264648
1708437376.2175422,-1.1053742170333862,-1.6816250286498011,-2.5268831888781946,2.2812601762958984,-1.0178435484515589,0.6148616671562195
1708437376.2195225,-1.1053757667541504,-1.6816050014891566,-2.526878897343771,2.2812158304401855,-1.0178521315204065,0.6149163842201233
1708437376.221523,-1.1053876876831055,-1.681646009484762,-2.5268877188311976,2.281284971828125,-1.0178359190570276,0.6148509979248047
1708437376.223578,-1.105366826057434,-1.6816336117186488,-2.526890579854147,2.2811826902576904,-1.0178731123553675,0.6148509979248047
1708437376.2255235,-1.1053876876831055,-1.6816612682738246,-2.5269206205951136,2.281264467830322,-1.0178435484515589,0.6148869395256042
1708437376.2275386,-1.105350375175476,-1.6816331348814906,-2.526874367390768,2.2812537389942626,-1.0178850332843226,0.6149120330810547
1708437376.2295027,-1.1054085493087769,-1.681617876092428,-2.5268622080432337,2.281216784114502,-1.0178282896624964,0.614923894405365
1708437376.231533,-1.105404019355774,-1.6816898785033167,-2.5268951098071497,2.2812699514576416,-1.0178197065936487,0.6148660778999329
1708437376.233545,-1.1053787469863892,-1.6816164455809535,-2.52688175836672,2.281244917506836,-1.0178316275226038,0.6149076819419861
1708437376.235522,-1.1053593158721924,-1.6816374264159144,-2.5269160906421106,2.2811643320270996,-1.0178402105914515,0.6148945093154907
1708437376.2375257,-1.105338454246521,-1.6816207371153773,-2.5268576780902308,2.281151219005249,-1.0178688208209437,0.6148902177810669
1708437376.2394824,-1.1053951978683472,-1.6816579304137171,-2.5268664995776575,2.281172915095947,-1.0178568998919886,0.6149020195007324
1708437376.2414777,-1.1053847074508667,-1.6816655598082484,-2.526869837437765,2.281172915095947,-1.0178521315204065,0.6149524450302124
1708437376.2435331,-1.105342984199524,-1.6816207371153773,-2.5268502871142786,2.281172915095947,-1.0178149382220667,0.6149584650993347
1708437376.2455575,-1.1053712368011475,-1.6816450558104457,-2.526878897343771,2.2811524110981445,-1.0178688208209437,0.6149349212646484
1708437376.2475467,-1.105366826057434,-1.6816569767394007,-2.5268831888781946,2.28119341909375,-1.0178239981280726,0.6149552464485168
1708437376.2496085,-1.1053475141525269,-1.681624551812643,-2.5268664995776575,2.2811481195637207,-1.0178449789630335,0.6149263381958008
1708437376.2515416,-1.105339527130127,-1.6816407642760218,-2.5268664995776575,2.2811447817036132,-1.0178435484515589,0.6149306893348694
1708437376.253555,-1.1053682565689087,-1.6816493473448695,-2.5269325415240687,2.2811361986347656,-1.0178106466876429,0.6149097681045532
1708437376.2555692,-1.1053475141525269,-1.681685586968893,-2.5268831888781946,2.2811567026325683,-1.0178478399859827,0.6150281429290771
1708437376.2575355,-1.105339527130127,-1.6816207371153773,-2.5269160906421106,2.281181498164795,-1.0178282896624964,0.6149660348892212
1708437376.2595415,-1.1053385734558105,-1.6816536388792933,-2.5269325415240687,2.28119341909375,-1.0178149382220667,0.6149422526359558
1708437376.2615058,-1.105318546295166,-1.6816770039000453,-2.5269206205951136,2.28119341909375,-1.0177958647357386,0.6149660348892212
1708437376.2635405,-1.1053565740585327,-1.6816727123656214,-2.5268710295306605,2.281181498164795,-1.0178359190570276,0.6149945259094238
1708437376.2654932,-1.1053638458251953,-1.681652685204977,-2.5269160906421106,2.2811481195637207,-1.0178435484515589,0.6149747967720032
1708437376.2675543,-1.1053729057312012,-1.681636472741598,-2.5268951098071497,2.281160994166992,-1.0178330580340784,0.6149956583976746
1708437376.269516,-1.1053848266601562,-1.6816655598082484,-2.5269280115710657,2.281177206630371,-1.0178359190570276,0.6149704456329346
1708437376.2715118,-1.1053276062011719,-1.6816936932005824,-2.5268831888781946,2.281132860774658,-1.0178163687335413,0.6149585247039795
1708437376.2735777,-1.105314016342163,-1.681636472741598,-2.5268753210650843,2.2811404901691894,-1.0178568998919886,0.6149497628211975
1708437376.275488,-1.105302095413208,-1.681648393670553,-2.526878897343771,2.2811361986347656,-1.0178640524493616,0.6149747967720032
1708437376.2775562,-1.1053067445755005,-1.6816655598082484,-2.5268622080432337,2.2811524110981445,-1.0178492704974573,0.6150075793266296
1708437376.2795293,-1.1053529977798462,-1.681681295434469,-2.5268591086017054,2.281160994166992,-1.0178478399859827,0.6149782538414001
1708437376.281531,-1.105308175086975,-1.6816288433470667,-2.5268710295306605,2.2811447817036132,-1.0178449789630335,0.6149913668632507
1708437376.283543,-1.105281114578247,-1.6816727123656214,-2.526874367390768,2.2812139230915527,-1.0178568998919886,0.6149585247039795
1708437376.285519,-1.1053111553192139,-1.6816941700377406,-2.5268831888781946,2.2811199861713867,-1.0178316275226038,0.6149826049804688
1708437376.2874818,-1.1053365468978882,-1.681681295434469,-2.5268831888781946,2.281172915095947,-1.0178359190570276,0.6149988770484924
1708437376.2895138,-1.1053202152252197,-1.6816450558104457,-2.5268591086017054,2.281221552486084,-1.0178359190570276,0.6149901747703552
1708437376.2915165,-1.1053067445755005,-1.681681295434469,-2.5269206205951136,2.2811199861713867,-1.0178282896624964,0.6150361895561218
1708437376.2935371,-1.1052948236465454,-1.6816493473448695,-2.5268877188311976,2.281099720592163,-1.0178106466876429,0.6149694919586182
1708437376.295498,-1.1052948236465454,-1.6816321812071742,-2.526853386555807,2.281111403102539,-1.0178359190570276,0.6149857640266418
1708437376.2975008,-1.1053276062011719,-1.681636472741598,-2.5269160906421106,2.281132860774658,-1.0177910963641565,0.6150151491165161
1708437376.299545,-1.1053365468978882,-1.6816374264159144,-2.5269160906421106,2.2811073499866943,-1.0178402105914515,0.615005612373352
1708437376.3015692,-1.1052902936935425,-1.6816727123656214,-2.5268786589251917,2.2811285692402343,-1.0178316275226038,0.6150230169296265
1708437376.303516,-1.1053439378738403,-1.681685586968893,-2.5268786589251917,2.2811285692402343,-1.0178807417498987,0.6150716543197632
1708437376.3055003,-1.1053037643432617,-1.6816894016661585,-2.5268576780902308,2.2811524110981445,-1.0178106466876429,0.6149401068687439
1708437376.3075228,-1.1053484678268433,-1.6816941700377406,-2.5269413630114954,2.2811783987232666,-1.0178688208209437,0.6150186061859131
1708437376.3095434,-1.1053202152252197,-1.681680818597311,-2.5269039312945765,2.281177206630371,-1.0178688208209437,0.6150511503219604
1708437376.311769,-1.1053321361541748,-1.681615491906637,-2.526911799107687,2.2811524110981445,-1.0178640524493616,0.6150795221328735
1708437376.3138525,-1.1053439378738403,-1.6816894016661585,-2.5268710295306605,2.28119341909375,-1.0178316275226038,0.6150261759757996
1708437376.3155298,-1.1053200960159302,-1.6817056141295375,-2.5268951098071497,2.2811361986347656,-1.0178149382220667,0.6150839328765869
1708437376.3175483,-1.10528564453125,-1.681652685204977,-2.5269039312945765,2.2811285692402343,-1.0178435484515589,0.615021824836731
1708437376.319595,-1.1053699254989624,-1.6816441021361292,-2.5268951098071497,2.281165285701416,-1.0177987257586878,0.6150587201118469
1708437376.3215446,-1.105324625968933,-1.6816698513426722,-2.5268831888781946,2.2811567026325683,-1.0178478399859827,0.6150587201118469
1708437376.3235633,-1.1053484678268433,-1.6817056141295375,-2.5268877188311976,2.2811285692402343,-1.0178359190570276,0.6150467991828918
1708437376.3255033,-1.1053611040115356,-1.681692739526266,-2.5269039312945765,2.2811903196522216,-1.0178521315204065,0.6150424480438232
1708437376.3275433,-1.1053473949432373,-1.6816894016661585,-2.5268951098071497,2.2811404901691894,-1.0177868048297327,0.614968478679657
1708437376.3295138,-1.1053439378738403,-1.6816984615721644,-2.5268576780902308,2.281169815654419,-1.0178282896624964,0.6150142550468445
1708437376.33153,-1.1052693128585815,-1.6816569767394007,-2.526911799107687,2.281177206630371,-1.0178449789630335,0.6150872111320496
1708437376.3335428,-1.1053365468978882,-1.6816727123656214,-2.5269039312945765,2.2811524110981445,-1.0178731123553675,0.6150142550468445
1708437376.335516,-1.1053082942962646,-1.681681295434469,-2.5268502871142786,2.281094475383423,-1.0178316275226038,0.6150665283203125
1708437376.3375826,-1.1053231954574585,-1.6816770039000453,-2.526939932500021,2.2811481195637207,-1.0178359190570276,0.6150424480438232
1708437376.339508,-1.1053111553192139,-1.6816655598082484,-2.526879851018087,2.2811481195637207,-1.0178492704974573,0.6150261759757996
1708437376.3415244,-1.1053067445755005,-1.6816898785033167,-2.52690297762026,2.281160994166992,-1.0178568998919886,0.6150510907173157
1708437376.3435283,-1.1053484678268433,-1.6816979847350062,-2.5269294420825403,2.281120463008545,-1.0178568998919886,0.6150218844413757
1708437376.34555,-1.1052857637405396,-1.681636472741598,-2.526890579854147,2.28110854207959,-1.0178359190570276,0.6150543689727783
1708437376.347574,-1.1053484678268433,-1.681652685204977,-2.526911799107687,2.2811285692402343,-1.0178654829608362,0.6149977445602417
1708437376.3495936,-1.1053365468978882,-1.681685586968893,-2.5268664995776575,2.2811404901691894,-1.0178568998919886,0.6150543689727783
1708437376.3515275,-1.1053184270858765,-1.6816727123656214,-2.5269160906421106,2.281160994166992,-1.0178239981280726,0.615055501461029
1708437376.353506,-1.1053473949432373,-1.6816493473448695,-2.5268951098071497,2.281149073238037,-1.0178149382220667,0.6150424480438232
1708437376.3554978,-1.1053276062011719,-1.6817099056639613,-2.5268502871142786,2.2811319071003417,-1.0178030172931116,0.6150424480438232
1708437376.357526,-1.1052902936935425,-1.6816612682738246,-2.5268753210650843,2.2811686235615234,-1.0177987257586878,0.6150336861610413
1708437376.3595293,-1.1053611040115356,-1.6816407642760218,-2.5268920103656214,2.2811524110981445,-1.0178077856646937,0.6150752902030945
1708437376.3615122,-1.105365514755249,-1.6816770039000453,-2.5268877188311976,2.281197710628174,-1.0178449789630335,0.6150380969047546
1708437376.36351,-1.105370044708252,-1.6816407642760218,-2.5268548170672815,2.281172915095947,-1.0178568998919886,0.6150424480438232
1708437376.3655016,-1.1053067445755005,-1.6816655598082484,-2.526878897343771,2.2811404901691894,-1.0178359190570276,0.6150709390640259
1708437376.3675249,-1.1053231954574585,-1.681730409661764,-2.5268877188311976,2.28115360319104,-1.0178282896624964,0.6150796413421631
1708437376.3695247,-1.1053111553192139,-1.6816727123656214,-2.5269039312945765,2.281160994166992,-1.0178282896624964,0.6150348782539368
1708437376.371512,-1.1053276062011719,-1.6816727123656214,-2.5268951098071497,2.281205340022705,-1.0177958647357386,0.6150587201118469
1708437376.3736043,-1.1053729057312012,-1.6816612682738246,-2.5268710295306605,2.2811524110981445,-1.0178001562701624,0.6149969696998596
1708437376.3755395,-1.1053729057312012,-1.6816894016661585,-2.526869837437765,2.2811447817036132,-1.0178030172931116,0.6150708794593811
1708437376.3775227,-1.1053475141525269,-1.6816407642760218,-2.5268664995776575,2.281095429057739,-1.0177868048297327,0.6151120066642761
1708437376.3795223,-1.1053529977798462,-1.6816641292967738,-2.5268994013415735,2.281115694636963,-1.0178120771991175,0.615095853805542
1708437376.381525,-1.105323076248169,-1.6816727123656214,-2.5269368330584925,2.281189127559326,-1.0178120771991175,0.6150413155555725
1708437376.3835301,-1.105339527130127,-1.6816612682738246,-2.5269206205951136,2.2811524110981445,-1.0177910963641565,0.6150218844413757
1708437376.3855305,-1.1053348779678345,-1.6816092930235804,-2.526878897343771,2.2811524110981445,-1.0178373495685022,0.6150871515274048
1708437376.3875005,-1.1053276062011719,-1.6816278896727503,-2.526886288319723,2.281127615565918,-1.0177925268756312,0.6150456666946411
1708437376.3895025,-1.1053565740585327,-1.6816979847350062,-2.5268710295306605,2.2811567026325683,-1.0177958647357386,0.6150752305984497
1708437376.3915074,-1.1053967475891113,-1.6816493473448695,-2.526874367390768,2.2811600404926757,-1.0178163687335413,0.6150424480438232
1708437376.3935084,-1.1053348779678345,-1.6816569767394007,-2.5269368330584925,2.2811686235615234,-1.0177882353412073,0.6150543689727783
1708437376.3954833,-1.1053638458251953,-1.6816936932005824,-2.526874367390768,2.281160994166992,-1.017775837575094,0.6150708794593811
1708437376.3975244,-1.1053184270858765,-1.6816569767394007,-2.5268622080432337,2.2811848360249023,-1.0177801291095179,0.6150827407836914
1708437376.3995497,-1.1053184270858765,-1.6817261181273402,-2.5269039312945765,2.2811567026325683,-1.0177791754352015,0.6150336861610413
1708437376.4015098,-1.1053519248962402,-1.681681295434469,-2.5268831888781946,2.281143828029297,-1.0177462736712855,0.6150261759757996
1708437376.4035215,-1.1053638458251953,-1.6816655598082484,-2.526878897343771,2.281151219005249,-1.0177224318133753,0.6150510907173157
1708437376.4055042,-1.1053940057754517,-1.68170227626943,-2.5268130938159388,2.281172915095947,-1.0177891890155237,0.6150467395782471
1708437376.4075015,-1.1053757667541504,-1.6816321812071742,-2.5268502871142786,2.2812086778828125,-1.017731014882223,0.6150717735290527
1708437376.4095218,-1.1053682565689087,-1.6816321812071742,-2.5268996397601526,2.2811805444904785,-1.0177386442767542,0.6150838732719421
1708437376.411522,-1.1053712368011475,-1.6816493473448695,-2.5269249121295374,2.2811481195637207,-1.0177715460406702,0.6150621771812439
1708437376.413532,-1.105342984199524,-1.6816698513426722,-2.5268710295306605,2.2812256056019287,-1.0177267233477991,0.6150099635124207
1708437376.4155128,-1.1053847074508667,-1.6816112003722132,-2.5268753210650843,2.281183643932007,-1.0177682081805628,0.6150510907173157
1708437376.417546,-1.1053757667541504,-1.6816450558104457,-2.5268831888781946,2.281163139934204,-1.0177519957171839,0.6150510907173157
1708437376.419527,-1.1053712368011475,-1.6816450558104457,-2.5269084612475794,2.2811447817036132,-1.0177562872516077,0.6150587201118469
1708437376.4215682,-1.1053348779678345,-1.6816007099547328,-2.5269084612475794,2.281205340022705,-1.0177891890155237,0.6150381565093994
1708437376.423557,-1.1053847074508667,-1.681666990319723,-2.5268636385547083,2.2811567026325683,-1.017742935811178,0.6150424480438232
1708437376.4255178,-1.1053876876831055,-1.6816612682738246,-2.5268636385547083,2.281205340022705,-1.0177386442767542,0.615033745765686
1708437376.42757,-1.1053622961044312,-1.6816684208311976,-2.5268994013415735,2.281155748958252,-1.0177519957171839,0.6150630116462708
1708437376.429559,-1.105404019355774,-1.6816450558104457,-2.5268664995776575,2.2811686235615234,-1.017742935811178,0.6150381565093994
1708437376.4315152,-1.1053920984268188,-1.681636472741598,-2.5268383661853235,2.2812256056019287,-1.0177281538592737,0.6150305271148682
1708437376.4335823,-1.1054413318634033,-1.681685586968893,-2.5269084612475794,2.2812258440205078,-1.017763916646139,0.6150709390640259
1708437376.4355361,-1.1053831577301025,-1.6816851101317347,-2.5268920103656214,2.2811567026325683,-1.017731014882223,0.6150587201118469
1708437376.43752,-1.1054279804229736,-1.681652685204977,-2.5268664995776575,2.2811967569538574,-1.017735783253805,0.6150543689727783
1708437376.4394894,-1.1054250001907349,-1.6816851101317347,-2.5268877188311976,2.2811924654194335,-1.0177071730243128,0.6150012612342834
1708437376.441494,-1.1054248809814453,-1.681652685204977,-2.5268877188311976,2.2811924654194335,-1.01774770418276,0.6150586605072021
1708437376.443504,-1.1054538488388062,-1.68170227626943,-2.526900831853048,2.2811881738850097,-1.017742935811178,0.6151077151298523
1708437376.445523,-1.1054041385650635,-1.6816407642760218,-2.5268264452563685,2.281221314067505,-1.0177519957171839,0.6150499582290649
1708437376.4475749,-1.105427861213684,-1.6816727123656214,-2.526878897343771,2.281221314067505,-1.0177400747882288,0.6150012612342834
1708437376.4495842,-1.1053906679153442,-1.6816936932005824,-2.5268309752093714,2.281201048488281,-1.017735783253805,0.6150380969047546
1708437376.4515243,-1.105432391166687,-1.6816579304137171,-2.526879851018087,2.2811881738850097,-1.01774770418276,0.6149891018867493
1708437376.4535475,-1.1054404973983765,-1.6816936932005824,-2.5268264452563685,2.281221314067505,-1.0177519957171839,0.6151120066642761
1708437376.4555385,-1.1054404973983765,-1.6816493473448695,-2.526879851018087,2.281212492580078,-1.0177519957171839,0.6150218844413757
1708437376.4575558,-1.1054188013076782,-1.6816569767394007,-2.5268548170672815,2.281232996577881,-1.0177400747882288,0.6150467395782471
1708437376.459564,-1.1053906679153442,-1.6816936932005824,-2.5268130938159388,2.2811924654194335,-1.0177519957171839,0.615034818649292
1708437376.4615185,-1.1054404973983765,-1.6816569767394007,-2.5268502871142786,2.2812043863483886,-1.0177400747882288,0.6150186061859131
1708437376.4635122,-1.1053695678710938,-1.6816569767394007,-2.5268664995776575,2.2812039095112304,-1.017735783253805,0.6150186061859131
1708437376.4654865,-1.1054539680480957,-1.6816770039000453,-2.5269203821765345,2.281212492580078,-1.0177119413958948,0.615033745765686
1708437376.4675403,-1.1053977012634277,-1.6816655598082484,-2.5268622080432337,2.281240625972412,-1.0177071730243128,0.6150381565093994
1708437376.4695663,-1.105466604232788,-1.6816727123656214,-2.5268548170672815,2.2812256056019287,-1.01772386232485,0.615034818649292
1708437376.4714944,-1.1054311990737915,-1.681681295434469,-2.526792351399557,2.2812461095997314,-1.0177071730243128,0.6149846911430359
1708437376.4735394,-1.1054449081420898,-1.6816493473448695,-2.526879851018087,2.2812115389057617,-1.0177071730243128,0.6150586605072021
1708437376.4755213,-1.1054482460021973,-1.6816698513426722,-2.5268636385547083,2.281289263362549,-1.0177071730243128,0.615033745765686
1708437376.4775212,-1.105439305305481,-1.6816398106017054,-2.5268502871142786,2.281301184291504,-1.0177534262286585,0.6150348782539368
1708437376.4795191,-1.1054810285568237,-1.6816936932005824,-2.5268951098071497,2.281313105220459,-1.0176575819598597,0.6150262355804443
1708437376.481513,-1.1054482460021973,-1.6816784344115199,-2.5268753210650843,2.2812794882008056,-1.0177000204669397,0.6150218844413757
1708437376.4835787,-1.105435848236084,-1.6816121540465296,-2.5268753210650843,2.2812840181538085,-1.0177281538592737,0.6150305271148682
1708437376.4855278,-1.1054528951644897,-1.6816579304137171,-2.5268710295306605,2.281348391170166,-1.0177577177630823,0.6150467395782471
1708437376.4875903,-1.1054482460021973,-1.6817227802672328,-2.526851479207174,2.2812914091297607,-1.0177162329303187,0.6150099635124207
1708437376.4895194,-1.1054311990737915,-1.6816698513426722,-2.5268471876727503,2.281344099635742,-1.0177324453936976,0.6150261759757996
1708437376.49148,-1.1054311990737915,-1.6816493473448695,-2.5268383661853235,2.2813171583363037,-1.0177324453936976,0.6150305271148682
1708437376.4935098,-1.1054619550704956,-1.6816641292967738,-2.5269084612475794,2.281308336848877,-1.0177162329303187,0.6150064468383789
1708437376.495509,-1.1054575443267822,-1.6816493473448695,-2.526856009160177,2.2812914091297607,-1.0177400747882288,0.615043580532074
1708437376.4974906,-1.1054904460906982,-1.6816727123656214,-2.5268338362323206,2.281308336848877,-1.0177534262286585,0.6149815320968628
1708437376.4995284,-1.1054266691207886,-1.6816898785033167,-2.5268591086017054,2.281308813686035,-1.0177562872516077,0.6150467395782471
1708437376.501486,-1.1054601669311523,-1.6816407642760218,-2.526835266743795,2.2813333707996826,-1.0177372137652796,0.6150107979774475
1708437376.5035253,-1.1055094003677368,-1.6816450558104457,-2.5268264452563685,2.2813171583363037,-1.0177295843707483,0.6150761246681213
1708437376.5055056,-1.1054764986038208,-1.6816894016661585,-2.5268428961383265,2.2813116747089843,-1.0176952520953577,0.6149858236312866
1708437376.5075154,-1.1054720878601074,-1.6816770039000453,-2.526867930089132,2.281275196666382,-1.0177372137652796,0.6150230169296265
1708437376.5095437,-1.1054675579071045,-1.6816450558104457,-2.5269129912005823,2.281287117595337,-1.0177443663226526,0.6150392889976501
1708437376.5114841,-1.1054929494857788,-1.6816851101317347,-2.5268219153033655,2.281282826060913,-1.0177162329303187,0.6150195002555847
1708437376.513531,-1.1054840087890625,-1.6817108593382777,-2.526839796696798,2.281324549312256,-1.0177324453936976,0.6149945259094238
1708437376.515527,-1.105467677116394,-1.6816684208311976,-2.526888672505514,2.2812997537800292,-1.0176590124713343,0.6150020360946655
1708437376.5175164,-1.1054884195327759,-1.6816979847350062,-2.5268309752093714,2.281332178706787,-1.0177338759051722,0.6149782538414001
1708437376.5195696,-1.1054601669311523,-1.6816407642760218,-2.526867930089132,2.2813171583363037,-1.0176919142352503,0.6150064468383789
1708437376.5215113,-1.1054303646087646,-1.6816288433470667,-2.526806894932882,2.281275196666382,-1.0177043120013636,0.6150195002555847
1708437376.5235798,-1.1054720878601074,-1.6816936932005824,-2.526827637349264,2.2812883096882324,-1.0176919142352503,0.6149826645851135
1708437376.525503,-1.1054052114486694,-1.6816770039000453,-2.5268264452563685,2.281324549312256,-1.0177000204669397,0.6149334907531738
1708437376.527498,-1.1054645776748657,-1.6816450558104457,-2.526867930089132,2.2812997537800292,-1.0176757017718714,0.6149956583976746
1708437376.5295012,-1.1054738759994507,-1.6816493473448695,-2.5268753210650843,2.2813495832630615,-1.01770526567568,0.614922046661377
1708437376.5314982,-1.105455756187439,-1.6817056141295375,-2.5268591086017054,2.281315966243408,-1.0176680723773401,0.6149585247039795
1708437376.5335734,-1.105439305305481,-1.6815902195372523,-2.5268219153033655,2.2812957006641845,-1.0176351706134241,0.6149714589118958
1708437376.5355198,-1.1054601669311523,-1.6816698513426722,-2.5268426577197474,2.281390591258667,-1.0176399389850062,0.6149585247039795
1708437376.5375135,-1.1054973602294922,-1.6816612682738246,-2.5268755594836634,2.2813171583363037,-1.0176799933062952,0.6149669885635376
1708437376.5395136,-1.105439305305481,-1.6816936932005824,-2.52686053911318,2.2812909322926025,-1.0176604429828089,0.6149542331695557
1708437376.5415666,-1.1055138111114502,-1.681674142877096,-2.526851479207174,2.281320257777832,-1.0176070372210901,0.6148902773857117
1708437376.5435312,-1.1054438352584839,-1.6816851101317347,-2.526835266743795,2.281308336848877,-1.017656151448385,0.6149064898490906
1708437376.5455134,-1.1054675579071045,-1.6816164455809535,-2.5267980734454554,2.2813612657734375,-1.0176518599139612,0.6149552464485168
1708437376.547639,-1.1054556369781494,-1.6816612682738246,-2.526818815861837,2.2812840181538085,-1.017623249684469,0.6148934960365295
1708437376.5495503,-1.105451226234436,-1.681646009484762,-2.5268753210650843,2.2813333707996826,-1.017677132283346,0.6149227619171143
1708437376.5514972,-1.105439305305481,-1.6816655598082484,-2.5268471876727503,2.281308813686035,-1.017628018056051,0.6149595975875854
1708437376.5535052,-1.1054692268371582,-1.6816450558104457,-2.5268471876727503,2.2813002306171875,-1.01764423051943,0.6148978471755981
1708437376.5554938,-1.105439305305481,-1.6816684208311976,-2.52682334581484,2.2813002306171875,-1.01764423051943,0.6148859262466431
1708437376.5574992,-1.1054222583770752,-1.6817175350584925,-2.526835266743795,2.2812997537800292,-1.0176366011248987,0.6149064898490906
1708437376.5595136,-1.1054267883300781,-1.681648393670553,-2.5268426577197474,2.281370087260864,-1.017628018056051,0.6149523258209229
1708437376.5614805,-1.1054739952087402,-1.6816727123656214,-2.526839796696798,2.2812384802052,-1.017632309590475,0.6149356961250305
1708437376.563485,-1.1054303646087646,-1.6816612682738246,-2.5268471876727503,2.2812914091297607,-1.0176413694964808,0.6149195432662964
1708437376.5654902,-1.1054303646087646,-1.6816727123656214,-2.5268026033984583,2.2813002306171875,-1.0176532904254358,0.614902138710022
1708437376.567507,-1.1054884195327759,-1.6816569767394007,-2.526872460042135,2.2812957006641845,-1.0175994078265589,0.6149314045906067
1708437376.569577,-1.1054482460021973,-1.6816979847350062,-2.5268471876727503,2.2812914091297607,-1.017616097127096,0.6149349212646484
1708437376.5715485,-1.105439305305481,-1.681620260278219,-2.52682334581484,2.2812840181538085,-1.017632309590475,0.6149064898490906
1708437376.5735385,-1.1055021286010742,-1.6816684208311976,-2.526851479207174,2.2812763887592773,-1.0176399389850062,0.6148791909217834
1708437376.5755112,-1.1054692268371582,-1.681742330590719,-2.5268636385547083,2.28129689275708,-1.0176413694964808,0.6149076819419861
1708437376.5775495,-1.1054482460021973,-1.681652685204977,-2.5268145243274134,2.2813171583363037,-1.0176366011248987,0.6148585677146912
1708437376.579502,-1.1054810285568237,-1.681652685204977,-2.5268264452563685,2.2813045221516113,-1.017616097127096,0.6149031519889832
1708437376.5815372,-1.1054974794387817,-1.681681295434469,-2.5268383661853235,2.2812883096882324,-1.0176485220538538,0.6148617267608643
1708437376.5835416,-1.1054601669311523,-1.681730409661764,-2.5268636385547083,2.2812883096882324,-1.0176366011248987,0.6148858666419983
1708437376.5854993,-1.1054884195327759,-1.6816278896727503,-2.526818815861837,2.2812914091297607,-1.0176737944232386,0.6148423552513123
1708437376.5875063,-1.105439305305481,-1.681652685204977,-2.526872460042135,2.281334324473999,-1.0176203886615198,0.6148989200592041
1708437376.589502,-1.1054311990737915,-1.681681295434469,-2.5267980734454554,2.2812678056904296,-1.017632309590475,0.6148914098739624
1708437376.5915332,-1.1054437160491943,-1.6817175350584925,-2.526839796696798,2.2812678056904296,-1.017628018056051,0.6148672699928284
1708437376.5935485,-1.1054482460021973,-1.6816569767394007,-2.5268309752093714,2.2812957006641845,-1.0176695028888147,0.6148715615272522
1708437376.5954952,-1.1054601669311523,-1.6817013225951136,-2.526832167302267,2.2812678056904296,-1.0176532904254358,0.6148541569709778
1708437376.5975204,-1.1054885387420654,-1.6816851101317347,-2.5267937819110315,2.2813538747974853,-1.0176084677325647,0.6148586273193359
1708437376.5995307,-1.105455756187439,-1.6816569767394007,-2.526839796696798,2.281258984203003,-1.017632309590475,0.6148304343223572
1708437376.6015,-1.1053977012634277,-1.6816894016661585,-2.526827637349264,2.2813214498707275,-1.0176532904254358,0.6148509979248047
1708437376.6035178,-1.1054575443267822,-1.6816936932005824,-2.52682334581484,2.2813126283833007,-1.017611328755514,0.6148509979248047
1708437376.6055064,-1.1054482460021973,-1.6817175350584925,-2.526844088231222,2.2812720972248535,-1.017604176198141,0.6148149967193604
1708437376.6075063,-1.1054404973983765,-1.6817337475218714,-2.5268026033984583,2.2813045221516113,-1.0176366011248987,0.6148390769958496
1708437376.6095326,-1.1054188013076782,-1.6817456684508265,-2.526827637349264,2.281275196666382,-1.01758319536318,0.614822506904602
1708437376.6114914,-1.1054575443267822,-1.6816851101317347,-2.5268071333514612,2.281334324473999,-1.0176575819598597,0.6148509979248047
1708437376.613514,-1.1054575443267822,-1.681680818597311,-2.5268517176257532,2.2813045221516113,-1.017616097127096,0.614862859249115
1708437376.6155038,-1.1053860187530518,-1.6816970310606898,-2.5268099943744105,2.2813257414051513,-1.0176203886615198,0.6148051619529724
1708437376.6175115,-1.1054311990737915,-1.681704660455221,-2.526867930089132,2.281313105220459,-1.0176413694964808,0.6148423552513123
1708437376.6195729,-1.1054188013076782,-1.6817003689207972,-2.526806894932882,2.2812883096882324,-1.0176070372210901,0.6148390769958496
1708437376.621519,-1.1054528951644897,-1.6816917858519496,-2.526827637349264,2.2813045221516113,-1.0176203886615198,0.6148347854614258
1708437376.623659,-1.1054437160491943,-1.6817370853819789,-2.526818815861837,2.2812515932270507,-1.017604176198141,0.6148106455802917
1708437376.6255121,-1.1054482460021973,-1.6817370853819789,-2.526856009160177,2.2812763887592773,-1.0176604429828089,0.6147814393043518
1708437376.627582,-1.1054279804229736,-1.6817451916136683,-2.526856009160177,2.2812515932270507,-1.017616097127096,0.6148390769958496
1708437376.629556,-1.105435848236084,-1.6817132435240687,-2.5268471876727503,2.2812515932270507,-1.0176246801959437,0.6148182153701782
1708437376.6315389,-1.1054482460021973,-1.6817079983153285,-2.526818815861837,2.2812883096882324,-1.0176203886615198,0.6148509979248047
1708437376.6335778,-1.1054482460021973,-1.6817409000792445,-2.526835266743795,2.281301184291504,-1.017632309590475,0.614822506904602
1708437376.6355064,-1.105435848236084,-1.6817285023131312,-2.5268264452563685,2.281289263362549,-1.0175994078265589,0.6148467063903809
1708437376.6375477,-1.1054141521453857,-1.6817079983153285,-2.526790205632345,2.2812763887592773,-1.0176532904254358,0.6148390769958496
1708437376.6395547,-1.1054664850234985,-1.6817285023131312,-2.526832167302267,2.2812720972248535,-1.0175994078265589,0.6148138642311096
1708437376.6415105,-1.1054482460021973,-1.6817122898497523,-2.526856009160177,2.281268759364746,-1.0176456610309046,0.6148062944412231
1708437376.6435735,-1.1054024696350098,-1.6817776165404261,-2.526839796696798,2.2812396722980957,-1.0175874868976038,0.6148304343223572
1708437376.6455278,-1.1054188013076782,-1.6817242107787074,-2.526811424885885,2.2812201219746093,-1.0176485220538538,0.6148759722709656
1708437376.6475887,-1.1053932905197144,-1.6817695103087367,-2.526806894932882,2.2813097673603515,-1.017616097127096,0.6148889660835266
1708437376.6495483,-1.1054404973983765,-1.6817695103087367,-2.5268145243274134,2.281301184291504,-1.0176532904254358,0.6148269176483154
1708437376.6515193,-1.1054368019104004,-1.6817738018431605,-2.5267980734454554,2.281202955836914,-1.017623249684469,0.6148640513420105
1708437376.6535454,-1.1053906679153442,-1.6817242107787074,-2.52682334581484,2.2812115389057617,-1.0175908247577112,0.6148269176483154
1708437376.6555157,-1.1054069995880127,-1.6817847690977992,-2.526839796696798,2.28127305089917,-1.0175994078265589,0.614822506904602
1708437376.6575625,-1.1053876876831055,-1.68178190807485,-2.526790205632345,2.2812558847614746,-1.0175994078265589,0.6148509979248047
1708437376.659565,-1.1053950786590576,-1.68178190807485,-2.526839796696798,2.2812482553669433,-1.017632309590475,0.6148355603218079
1708437376.661494,-1.1054449081420898,-1.6817242107787074,-2.526856009160177,2.281264467830322,-1.017623249684469,0.6148423552513123
1708437376.6635258,-1.1053624153137207,-1.6816960773863734,-2.5268264452563685,2.281256838435791,-1.0176366011248987,0.6148467063903809
1708437376.6655264,-1.1053951978683472,-1.6817323170103968,-2.5268517176257532,2.2812363344379882,-1.0176366011248987,0.6148640513420105
1708437376.6675344,-1.105432391166687,-1.68178190807485,-2.526827875767843,2.281256838435791,-1.0175789038287562,0.6148355603218079
1708437376.669593,-1.1054279804229736,-1.6817242107787074,-2.5268071333514612,2.2812654215046386,-1.0175707975970667,0.6148553490638733
1708437376.6715386,-1.1053922176361084,-1.6817208729186,-2.526835266743795,2.281224413509033,-1.0176366011248987,0.6148509979248047
1708437376.6735435,-1.1054539680480957,-1.6817409000792445,-2.5268099943744105,2.2812256056019287,-1.017616097127096,0.6148390769958496
1708437376.6755433,-1.1054115295410156,-1.6817776165404261,-2.526818815861837,2.281221314067505,-1.0176413694964808,0.6148552894592285
1708437376.6776004,-1.1054413318634033,-1.6817370853819789,-2.526872460042135,2.281216784114502,-1.01764423051943,0.6148312091827393
1708437376.6795301,-1.1053906679153442,-1.6817652187743128,-2.5267937819110315,2.2811264234730224,-1.0176695028888147,0.6148269176483154
1708437376.6815095,-1.1053950786590576,-1.681760927239889,-2.5268426577197474,2.281163139934204,-1.0176070372210901,0.614831268787384
1708437376.6835573,-1.105427861213684,-1.6817165813841761,-2.52688438097109,2.2811567026325683,-1.017628018056051,0.6148181557655334
1708437376.6855361,-1.1053743362426758,-1.6817409000792445,-2.5268145243274134,2.281160994166992,-1.017632309590475,0.6148390769958496
1708437376.6875863,-1.105366826057434,-1.6817652187743128,-2.5268145243274134,2.2811404901691894,-1.01764423051943,0.6148478388786316
1708437376.6895094,-1.1053996086120605,-1.6817251644530238,-2.5268426577197474,2.281165285701416,-1.017616097127096,0.6148466467857361
1708437376.691527,-1.1054188013076782,-1.6817156277098597,-2.5268471876727503,2.2811404901691894,-1.0176070372210901,0.6148509979248047
1708437376.6935422,-1.1054188013076782,-1.6817480526366175,-2.5268264452563685,2.281132860774658,-1.0176485220538538,0.6148149967193604
1708437376.6955178,-1.1054024696350098,-1.6817652187743128,-2.5268176237689417,2.2811242777058105,-1.0176203886615198,0.614831268787384
1708437376.6975076,-1.1054538488388062,-1.6817037067809046,-2.5268309752093714,2.281165285701416,-1.0176532904254358,0.6147571802139282
1708437376.6994927,-1.1054071187973022,-1.681732793847555,-2.5268099943744105,2.2812022405811767,-1.0176399389850062,0.6148269176483154
1708437376.701503,-1.1053951978683472,-1.6817494831480921,-2.5268264452563685,2.2811567026325683,-1.0176413694964808,0.6148106455802917
1708437376.7035136,-1.1053950786590576,-1.6817695103087367,-2.526835266743795,2.2811285692402343,-1.0175994078265589,0.6148597598075867
1708437376.7055259,-1.105415940284729,-1.6817413769164027,-2.52688438097109,2.2811404901691894,-1.017665211354391,0.614819347858429
1708437376.707514,-1.1053459644317627,-1.6817623577513636,-2.526835266743795,2.2811967569538574,-1.017611328755514,0.614822506904602
1708437376.7095146,-1.1053996086120605,-1.6817652187743128,-2.5268264452563685,2.281197710628174,-1.0176575819598597,0.6147944331169128
1708437376.711504,-1.1054279804229736,-1.6817409000792445,-2.5268145243274134,2.2811242777058105,-1.017628018056051,0.6148181557655334
1708437376.713532,-1.1054115295410156,-1.6817089519896449,-2.526835266743795,2.2811447817036132,-1.017616097127096,0.614819347858429
1708437376.7155015,-1.1054041385650635,-1.6817079983153285,-2.52682334581484,2.2811199861713867,-1.0176399389850062,0.6148684024810791
1708437376.7175264,-1.1054115295410156,-1.68178190807485,-2.526785675679342,2.281160994166992,-1.0176366011248987,0.6148138642311096
1708437376.719581,-1.1053996086120605,-1.6816798649229945,-2.526811424885885,2.281189127559326,-1.0176695028888147,0.6148597002029419
1708437376.7215343,-1.105432391166687,-1.681753774682516,-2.526818815861837,2.2811319071003417,-1.017616097127096,0.6148639917373657
1708437376.723598,-1.105366826057434,-1.6817695103087367,-2.5268071333514612,2.2811242777058105,-1.01764423051943,0.6148355603218079
1708437376.7255273,-1.1053876876831055,-1.681732793847555,-2.5268145243274134,2.281171961421631,-1.01764423051943,0.6148107051849365
1708437376.7275312,-1.1054450273513794,-1.6817370853819789,-2.526867930089132,2.2811285692402343,-1.0176518599139612,0.6148759722709656
1708437376.729537,-1.1053624153137207,-1.6816722355284632,-2.526839796696798,2.2811073499866943,-1.017677132283346,0.614822506904602
1708437376.7315428,-1.1054368019104004,-1.6817285023131312,-2.526856009160177,2.281160994166992,-1.0176189581500452,0.614781379699707
1708437376.7335632,-1.1053757667541504,-1.6816960773863734,-2.5268309752093714,2.2811319071003417,-1.01764423051943,0.6148355603218079
1708437376.7355604,-1.1053996086120605,-1.6817165813841761,-2.526815954838888,2.2811242777058105,-1.0176857153521937,0.614822506904602
1708437376.7375498,-1.1053920984268188,-1.681753774682516,-2.526818815861837,2.281172915095947,-1.017693344746725,0.6148347854614258
1708437376.7395105,-1.1053876876831055,-1.6817409000792445,-2.526839796696798,2.2811319071003417,-1.0177024046527308,0.6148225665092468
1708437376.7415369,-1.1054041385650635,-1.6817285023131312,-2.5268145243274134,2.281111403102539,-1.0176604429828089,0.6148181557655334
1708437376.7435398,-1.1053578853607178,-1.6817413769164027,-2.526818815861837,2.2812129694172363,-1.01764423051943,0.614834725856781
1708437376.7455046,-1.105404019355774,-1.6817413769164027,-2.526856009160177,2.2812022405811767,-1.0176604429828089,0.614822506904602
1708437376.7476182,-1.1053950786590576,-1.6817366085448207,-2.526856009160177,2.2812258440205078,-1.017611328755514,0.6147987842559814
1708437376.7495494,-1.105458378791809,-1.6816960773863734,-2.5268099943744105,2.2811848360249023,-1.0176485220538538,0.6148062944412231
1708437376.7515047,-1.105371356010437,-1.6816884479918421,-2.526856009160177,2.28121726095166,-1.017684284840719,0.6148138642311096
1708437376.7535467,-1.1053906679153442,-1.6816884479918421,-2.526835266743795,2.2811361986347656,-1.0176575819598597,0.6147987246513367
1708437376.7555573,-1.105432391166687,-1.6817089519896449,-2.5268636385547083,2.28121726095166,-1.017684284840719,0.6148138642311096
1708437376.7675567,-1.1054234504699707,-1.6817251644530238,-2.526851479207174,2.2811762529560546,-1.0176485220538538,0.6148390769958496
1708437376.7695696,-1.105415940284729,-1.6816798649229945,-2.5267606417285364,2.281143828029297,-1.0177095572101038,0.6147944331169128
1708437376.7715108,-1.1054449081420898,-1.6817738018431605,-2.5268753210650843,2.281143828029297,-1.017677132283346,0.6148478388786316
1708437376.7736201,-1.1054404973983765,-1.6817456684508265,-2.5268026033984583,2.2812256056019287,-1.0176680723773401,0.614831268787384
1708437376.7755325,-1.1053578853607178,-1.681753774682516,-2.5268099943744105,2.2811643320270996,-1.0176351706134241,0.614843487739563
1708437376.777505,-1.1054115295410156,-1.681704660455221,-2.5268099943744105,2.2811967569538574,-1.017611328755514,0.614834725856781
1708437376.7795308,-1.105432391166687,-1.681692739526266,-2.5267606417285364,2.2812086778828125,-1.0176070372210901,0.6148521304130554
1708437376.7815201,-1.1054188013076782,-1.6816884479918421,-2.5268071333514612,2.2811924654194335,-1.0176604429828089,0.614843487739563
1708437376.7835224,-1.1054160594940186,-1.6817251644530238,-2.52682334581484,2.2811686235615234,-1.017628018056051,0.6148269176483154
1708437376.7855508,-1.1054311990737915,-1.6817242107787074,-2.5268309752093714,2.281143828029297,-1.017672363911764,0.6148062944412231
1708437376.787486,-1.1054368019104004,-1.6817413769164027,-2.5268026033984583,2.281221552486084,-1.0176814238177698,0.614843487739563
1708437376.7895203,-1.1054619550704956,-1.6817165813841761,-2.526818815861837,2.2811881738850097,-1.017672363911764,0.6148467063903809
1708437376.7915502,-1.1053977012634277,-1.6817337475218714,-2.5267980734454554,2.281179352397583,-1.017623249684469,0.6147900223731995
1708437376.7935517,-1.1054071187973022,-1.6817218265929164,-2.526818815861837,2.2812086778828125,-1.0176399389850062,0.6148845553398132
1708437376.7955022,-1.1054311990737915,-1.681652685204977,-2.5268517176257532,2.2811967569538574,-1.0176604429828089,0.614843487739563
1708437376.7975001,-1.1054619550704956,-1.6817208729186,-2.5267768541919153,2.281201048488281,-1.0176604429828089,0.6147832870483398
1708437376.7995274,-1.1054311990737915,-1.6817013225951136,-2.52682334581484,2.2812043863483886,-1.0176857153521937,0.6148182153701782
1708437376.8015068,-1.1054784059524536,-1.6817499599852503,-2.526839796696798,2.281167431468628,-1.0176604429828089,0.6148192882537842
1708437376.8035314,-1.1054311990737915,-1.6817003689207972,-2.5268517176257532,2.281232996577881,-1.01770526567568,0.6148149967193604
1708437376.805507,-1.1054620742797852,-1.6816655598082484,-2.52682334581484,2.2811998563953857,-1.017656151448385,0.6148149967193604
1708437376.80752,-1.1054267883300781,-1.681650777856344,-2.5268026033984583,2.2812375265308837,-1.017656151448385,0.6148182153701782
1708437376.8095016,-1.1054646968841553,-1.681624551812643,-2.5267487207995813,2.2812654215046386,-1.0176518599139612,0.6148597002029419
1708437376.8114946,-1.1054692268371582,-1.6816970310606898,-2.526811424885885,2.281167431468628,-1.017693344746725,0.6148269176483154
1708437376.8134954,-1.1054348945617676,-1.6816727123656214,-2.526839796696798,2.281212492580078,-1.017677132283346,0.6147987842559814
1708437376.8154855,-1.1054692268371582,-1.6816727123656214,-2.526778046284811,2.2812158304401855,-1.017672363911764,0.6148030757904053
1708437376.8175135,-1.1054266691207886,-1.681652685204977,-2.526835266743795,2.281224413509033,-1.0176189581500452,0.6148019433021545
1708437376.819524,-1.1054348945617676,-1.681648393670553,-2.52682334581484,2.2812320429035644,-1.0176265875445765,0.6147865056991577
1708437376.8215237,-1.105516791343689,-1.6816727123656214,-2.52682334581484,2.28127305089917,-1.0176604429828089,0.614822506904602
1708437376.823561,-1.1054885387420654,-1.6816374264159144,-2.526827637349264,2.281308813686035,-1.0176680723773401,0.6148236989974976
1708437376.8255098,-1.1054885387420654,-1.6816092930235804,-2.526839796696798,2.281287117595337,-1.017623249684469,0.6148597002029419
1708437376.8275397,-1.1054750680923462,-1.6816331348814906,-2.526794497166769,2.2813278871723632,-1.017665211354391,0.6148355603218079
1708437376.8295002,-1.1055467128753662,-1.6816121540465296,-2.526745382939474,2.2813731867023925,-1.0176680723773401,0.6147944331169128
1708437376.8315008,-1.1054869890213013,-1.681674142877096,-2.526811424885885,2.281344099635742,-1.0177143255816858,0.6148683428764343
1708437376.8335226,-1.1055033206939697,-1.6815968952574671,-2.526806894932882,2.2813731867023925,-1.0176962057696741,0.6148683428764343
1708437376.8355129,-1.1055034399032593,-1.6815883121886195,-2.526811424885885,2.2813688951679687,-1.0176399389850062,0.6148107051849365
1708437376.8375077,-1.1055123805999756,-1.6815806827940882,-2.5267871061908167,2.2813429075428466,-1.017656151448385,0.6148802638053894
1708437376.8394923,-1.1054915189743042,-1.6815644703307093,-2.526827637349264,2.2813116747089843,-1.0176485220538538,0.6147953271865845
1708437376.841527,-1.1055048704147339,-1.6816536388792933,-2.526799027119772,2.2813679414936523,-1.017672363911764,0.6148107051849365
1708437376.8434916,-1.1055241823196411,-1.6815935573973597,-2.526848618184225,2.2813355165668945,-1.017595116292135,0.6148477792739868
1708437376.8455029,-1.1054750680923462,-1.6815968952574671,-2.526745382939474,2.281364603633545,-1.017628018056051,0.6148269176483154
1708437376.8475618,-1.1055243015289307,-1.6815687618651332,-2.5268035570727747,2.2813970285603027,-1.017628018056051,0.614843487739563
1708437376.8495536,-1.1055197715759277,-1.6815935573973597,-2.526766363774435,2.2813688951679687,-1.0176070372210901,0.6148269176483154
1708437376.8515294,-1.1055123805999756,-1.681601186791891,-2.526782814656393,2.2813679414936523,-1.0176532904254358,0.6148269176483154
1708437376.853559,-1.1054986715316772,-1.6815773449339808,-2.5268033186541956,2.2814010816761474,-1.01758319536318,0.614822506904602
1708437376.8555171,-1.1055413484573364,-1.6816231213011683,-2.5267468134509485,2.2814346986958007,-1.017595116292135,0.6147900223731995
1708437376.8575654,-1.105527639389038,-1.681617876092428,-2.5267959276782435,2.2813965517231445,-1.0176695028888147,0.6148597002029419
1708437376.8595412,-1.1055078506469727,-1.6815859280028285,-2.5267558733569544,2.2813753324696044,-1.0176366011248987,0.6148107051849365
1708437376.861537,-1.105527639389038,-1.6815411053099574,-2.5267139116870325,2.2814335066029052,-1.0176695028888147,0.6148106455802917
1708437376.8635108,-1.1055351495742798,-1.6816021404662074,-2.5267391840564173,2.28135792791333,-1.0176737944232386,0.6148062348365784
1708437376.865522,-1.1055887937545776,-1.6815368137755335,-2.5267391840564173,2.2814289766499023,-1.01764423051943,0.6147778630256653
1708437376.8675218,-1.1055516004562378,-1.681589265862936,-2.5267391840564173,2.2814571100422363,-1.0176532904254358,0.6147909164428711
1708437376.869579,-1.1055516004562378,-1.681544920007223,-2.5267470518695276,2.2814084726520996,-1.0176518599139612,0.6148269176483154
1708437376.8715289,-1.1055306196212769,-1.681589265862936,-2.526743475590841,2.281395598048828,-1.01764423051943,0.6148683428764343
1708437376.873544,-1.1055232286453247,-1.6815935573973597,-2.526719395314352,2.2814203935810546,-1.0176976362811487,0.6148640513420105
1708437376.8755188,-1.10555899143219,-1.6815902195372523,-2.5267017523394983,2.2814366060444335,-1.0175994078265589,0.6148442625999451
1708437376.8775125,-1.1055798530578613,-1.6816379032530726,-2.526748005543844,2.2814485269733886,-1.0176695028888147,0.614843487739563
1708437376.879524,-1.1056036949157715,-1.6815196476378382,-2.5266898314105433,2.281451864833496,-1.0176485220538538,0.6147571802139282
1708437376.8815165,-1.1055617332458496,-1.6815968952574671,-2.526752535496847,2.281407518977783,-1.0176485220538538,0.6147987246513367
1708437376.883519,-1.105587363243103,-1.6815363369383753,-2.5266898314105433,2.28145615636792,-1.01764423051943,0.6147909164428711
1708437376.8854883,-1.1056036949157715,-1.681573053399557,-2.526682440434591,2.281439943904541,-1.017665211354391,0.614822506904602
1708437376.887496,-1.1056325435638428,-1.68162264446401,-2.526715103779928,2.2814711767384033,-1.017665211354391,0.6147865056991577
1708437376.889511,-1.1056280136108398,-1.6815597019591273,-2.526727263127462,2.28147999822583,-1.0176532904254358,0.6147865056991577
1708437376.8914955,-1.1056207418441772,-1.6816097698607386,-2.5266616980182093,2.28147999822583,-1.0176604429828089,0.6148118376731873
1708437376.8934922,-1.1056461334228516,-1.6815124950804652,-2.52674371400942,2.2814106184193115,-1.0176485220538538,0.6148355603218079
1708437376.8954937,-1.1056036949157715,-1.681584974328512,-2.526715103779928,2.2814885812946777,-1.017623249684469,0.6148521304130554
1708437376.897503,-1.1056190729141235,-1.6815620861449183,-2.526698891316549,2.28150121747937,-1.0176518599139612,0.6148269176483154
1708437376.8995225,-1.1056727170944214,-1.6815368137755335,-2.526736084614889,2.2814881044575195,-1.0176485220538538,0.6148355603218079
1708437376.901511,-1.105639934539795,-1.6816097698607386,-2.526715103779928,2.2814225393482666,-1.017632309590475,0.6148030757904053
1708437376.9034994,-1.1056280136108398,-1.6815406284727992,-2.526748005543844,2.281517429942749,-1.0176399389850062,0.614831268787384
1708437376.9054997,-1.1056846380233765,-1.6815210781493128,-2.526773516331808,2.2814838129230957,-1.0175860563861292,0.6148118376731873
1708437376.9075177,-1.1056890487670898,-1.6815082035460414,-2.526748005543844,2.28147999822583,-1.017595116292135,0.6148280501365662
1708437376.9095156,-1.105639934539795,-1.6815535030760707,-2.526752535496847,2.2814625936695556,-1.0176857153521937,0.6147778630256653
1708437376.9115021,-1.1056309938430786,-1.6815453968443812,-2.526677910481588,2.2814923959919433,-1.017623249684469,0.6147987842559814
1708437376.9135215,-1.105680227279663,-1.6815988026061,-2.526740614567892,2.281475468272827,-1.0176532904254358,0.6147540211677551
1708437376.9154873,-1.1056756973266602,-1.6815172634520472,-2.526710573826925,2.2814668852039794,-1.017628018056051,0.6147909164428711
1708437376.917497,-1.105656385421753,-1.6815620861449183,-2.526727263127462,2.281479521388672,-1.0176485220538538,0.6147909164428711
1708437376.9195077,-1.105639934539795,-1.6814891300597132,-2.526703182850973,2.281529350871704,-1.0176695028888147,0.6147539615631104
1708437376.9215078,-1.1056101322174072,-1.6815253696837367,-2.526703182850973,2.281508608455322,-1.017616097127096,0.6147995591163635
1708437376.9235256,-1.105663776397705,-1.6814967594542445,-2.526748005543844,2.281507654781006,-1.0176456610309046,0.6148030757904053
1708437376.9255257,-1.105618953704834,-1.6814891300597132,-2.526723925267355,2.2815000253864746,-1.0176203886615198,0.6147909164428711
1708437376.927551,-1.1056876182556152,-1.6815368137755335,-2.526736084614889,2.2815162378498535,-1.017611328755514,0.6147952675819397
1708437376.929511,-1.1056711673736572,-1.6814762554564417,-2.526731793080465,2.2815205293842773,-1.0176366011248987,0.6147334575653076
1708437376.9315,-1.1056846380233765,-1.6815339527525843,-2.526723925267355,2.2815043169208984,-1.0175994078265589,0.6147584319114685
1708437376.9335542,-1.1057344675064087,-1.6814481220641078,-2.526748005543844,2.281479521388672,-1.017628018056051,0.6147746443748474
1708437376.9355159,-1.105721116065979,-1.681549688378805,-2.5267062822925013,2.2815443712421875,-1.0176203886615198,0.6147540211677551
1708437376.9375334,-1.1057084798812866,-1.6815182171263636,-2.5267229715930384,2.28156487523999,-1.017604176198141,0.614778995513916
1708437376.9394975,-1.1056904792785645,-1.681509634057516,-2.5267229715930384,2.281503363246582,-1.0176532904254358,0.6147670745849609
1708437376.9415033,-1.1057029962539673,-1.6815391979613246,-2.5267229715930384,2.2815043169208984,-1.0175874868976038,0.6147832870483398
1708437376.9435244,-1.1057329177856445,-1.6814805469908656,-2.526727263127462,2.281536741847656,-1.0175965468036097,0.6148161292076111
1708437376.945493,-1.1057374477386475,-1.6814729175963343,-2.5267017523394983,2.281569166774414,-1.0175994078265589,0.6147627234458923
1708437376.9475663,-1.1057374477386475,-1.6814772091307582,-2.5267391840564173,2.281499071712158,-1.0176294485675257,0.6147702932357788
1708437376.949557,-1.1057522296905518,-1.6814848385252894,-2.526682440434591,2.28154103338208,-1.0176294485675257,0.6147833466529846
1708437376.9515376,-1.1056859493255615,-1.681521554986471,-2.526727263127462,2.2815894323536376,-1.0176246801959437,0.6147670745849609
1708437376.953562,-1.1056995391845703,-1.6814643345274867,-2.5267346541034144,2.2815281587788085,-1.0176499525653284,0.6147876977920532
1708437376.9555078,-1.1056740283966064,-1.6814805469908656,-2.5267184416400355,2.281491442317627,-1.0176218191729944,0.6147908568382263
1708437376.9575267,-1.105728268623352,-1.681509634057516,-2.526686731969015,2.281563921565674,-1.0176203886615198,0.6147465109825134
1708437376.9595034,-1.1057029962539673,-1.681481500665182,-2.526698891316549,2.2815562921711425,-1.0175994078265589,0.6147183775901794
1708437376.9615002,-1.10580575466156,-1.6814285717406214,-2.526723925267355,2.281510754222534,-1.0176246801959437,0.6147551536560059
1708437376.9635334,-1.105733036994934,-1.6814400158324183,-2.526731793080465,2.2815000253864746,-1.01764423051943,0.6147833466529846
1708437376.9655087,-1.1057403087615967,-1.681509634057516,-2.526707712803976,2.2814826208302,-1.0176413694964808,0.6148167848587036
1708437376.9675186,-1.1056740283966064,-1.6815053425230921,-2.526715103779928,2.2815162378498535,-1.0176246801959437,0.6147215962409973
1708437376.9695055,-1.1057119369506836,-1.6815053425230921,-2.526752535496847,2.2815520006367187,-1.0176575819598597,0.6147747039794922
1708437376.9715247,-1.10574471950531,-1.681493421594137,-2.526686731969015,2.281526966685913,-1.017628018056051,0.6147508025169373
1708437376.9735227,-1.1056859493255615,-1.681509634057516,-2.526715103779928,2.2815894323536376,-1.017604176198141,0.6147183179855347
1708437376.975518,-1.1057566404342651,-1.6815053425230921,-2.526736084614889,2.2815520006367187,-1.0176366011248987,0.6148247122764587
1708437376.9775164,-1.1057312488555908,-1.6814242802061976,-2.5267601648913782,2.2815767961689453,-1.0175922552691858,0.6147627234458923
1708437376.9795012,-1.1057641506195068,-1.6814476452269496,-2.5267558733569544,2.281519575709961,-1.0176084677325647,0.614709734916687
1708437376.9815097,-1.105710506439209,-1.681493421594137,-2.526715103779928,2.281526966685913,-1.0176413694964808,0.6147226691246033
1708437376.9835439,-1.1057640314102173,-1.6815129719176234,-2.526731793080465,2.2815720277973632,-1.0176337401019495,0.6147302985191345
1708437376.9855518,-1.1057506799697876,-1.6814772091307582,-2.526743475590841,2.2815720277973632,-1.0176294485675257,0.6148161292076111
1708437376.9875119,-1.1057640314102173,-1.681542535821432,-2.526731793080465,2.2815872865864257,-1.0175994078265589,0.6147876381874084
1708437376.9895093,-1.105787992477417,-1.6814309559264125,-2.5266616980182093,2.2816240030476074,-1.0176175276385706,0.6148038506507874
1708437376.9914973,-1.1057387590408325,-1.6814772091307582,-2.5267391840564173,2.2816521364399414,-1.0175965468036097,0.6147757172584534
1708437376.9935565,-1.1057223081588745,-1.6815382442870082,-2.5267558733569544,2.281606360072754,-1.0175707975970667,0.6147432327270508
1708437376.9954848,-1.105767011642456,-1.6815258465208949,-2.526743475590841,2.2816387849995117,-1.0176084677325647,0.6147627830505371
1708437376.997489,-1.1057685613632202,-1.6814857921996058,-2.5267062822925013,2.2816197115131835,-1.0175593535052698,0.6147226691246033
1708437376.9995208,-1.1057416200637817,-1.681493421594137,-2.526731793080465,2.2816945749470214,-1.017555061970846,0.6147345900535583
1708437377.001488,-1.1057626008987427,-1.681521554986471,-2.526723925267355,2.28168170034375,-1.0175798575030726,0.614750862121582
1708437377.0035028,-1.1057462692260742,-1.6815182171263636,-2.5267184416400355,2.2816240030476074,-1.0175874868976038,0.614750862121582
1708437377.0054963,-1.1057686805725098,-1.6815053425230921,-2.526698891316549,2.281656427974365,-1.0176294485675257,0.6147670745849609
1708437377.0075421,-1.105759620666504,-1.6815139255919398,-2.526723925267355,2.2816521364399414,-1.017604176198141,0.6147627830505371
1708437377.0095556,-1.1058043241500854,-1.6814857921996058,-2.5267720858203333,2.281610890025757,-1.0176294485675257,0.6147627830505371
1708437377.0115497,-1.105755090713501,-1.681471963922018,-2.526731793080465,2.2816271024891357,-1.0176175276385706,0.6147551536560059
1708437377.0135386,-1.1058088541030884,-1.6815344295897425,-2.5267558733569544,2.28168170034375,-1.0175707975970667,0.6147637963294983
1708437377.0155292,-1.1057924032211304,-1.6814848385252894,-2.5267229715930384,2.2816478449055175,-1.0175922552691858,0.614778995513916
1708437377.0175397,-1.105767011642456,-1.681509634057516,-2.526710573826925,2.28164450704541,-1.0175922552691858,0.6147713661193848
1708437377.0195167,-1.1057968139648438,-1.6814609966673792,-2.526748005543844,2.281582995052002,-1.0175727049456995,0.6147432327270508
1708437377.0215125,-1.105771541595459,-1.6814891300597132,-2.5267184416400355,2.2816521364399414,-1.0175841490374964,0.6147345900535583
1708437377.0235085,-1.105771541595459,-1.6814857921996058,-2.526727263127462,2.281656427974365,-1.0175965468036097,0.6147183775901794
1708437377.0255167,-1.1057552099227905,-1.681509634057516,-2.5267601648913782,2.2816271024891357,-1.0175727049456995,0.6147432327270508
1708437377.0275629,-1.1057506799697876,-1.681481500665182,-2.5267017523394983,2.2816271024891357,-1.0175841490374964,0.6147670745849609
1708437377.0295358,-1.1058013439178467,-1.6814762554564417,-2.5267346541034144,2.28164450704541,-1.0176056067096155,0.6147345900535583
1708437377.0315008,-1.105771541595459,-1.6815182171263636,-2.5267017523394983,2.281573935145996,-1.0175393263446253,0.6147551536560059
1708437377.0335162,-1.1057878732681274,-1.6814476452269496,-2.5267391840564173,2.281599207515381,-1.0175684134112757,0.6147832870483398
1708437377.0355246,-1.1057552099227905,-1.6815258465208949,-2.5267558733569544,2.281610890025757,-1.0175884405719202,0.6147432923316956
1708437377.0375252,-1.105771541595459,-1.6815382442870082,-2.526727263127462,2.2816154199787597,-1.0176008383380335,0.6147876381874084
1708437377.0395055,-1.105783462524414,-1.6815182171263636,-2.5267184416400355,2.2816240030476074,-1.0175769964801233,0.6147508025169373
1708437377.0415285,-1.105767011642456,-1.6815301380553187,-2.526731793080465,2.281660719508789,-1.0175965468036097,0.6148083209991455
1708437377.043526,-1.105767011642456,-1.681549688378805,-2.5267062822925013,2.281656427974365,-1.0175884405719202,0.6147865056991577
1708437377.0455,-1.105787992477417,-1.6814567051329554,-2.5267720858203333,2.2816316324421386,-1.0175884405719202,0.6147746443748474
1708437377.047525,-1.1058088541030884,-1.6815182171263636,-2.5267391840564173,2.2816433149525146,-1.0176098982440394,0.6148074865341187
1708437377.0495741,-1.1057626008987427,-1.6815139255919398,-2.526710573826925,2.281677170390747,-1.0175727049456995,0.6148074865341187
1708437377.0515397,-1.105771541595459,-1.6814967594542445,-2.526727263127462,2.281656427974365,-1.0175350348102015,0.6148355603218079
1708437377.0535476,-1.1057476997375488,-1.6814805469908656,-2.5267601648913782,2.2816478449055175,-1.0175841490374964,0.6148269176483154
1708437377.0555153,-1.1058213710784912,-1.6814891300597132,-2.52678090730776,2.2815872865864257,-1.0175684134112757,0.614843487739563
1708437377.0575354,-1.1057506799697876,-1.6814686260619105,-2.526710573826925,2.2816693025776367,-1.0176261107074183,0.6149044036865234
1708437377.059526,-1.1057626008987427,-1.6815043888487757,-2.526715103779928,2.2816478449055175,-1.0175817648517054,0.6149358153343201
1708437377.061518,-1.1057759523391724,-1.681521554986471,-2.526731793080465,2.28164450704541,-1.0175440947162073,0.6149479746818542
1708437377.0635378,-1.105755090713501,-1.6815339527525843,-2.526715103779928,2.28164450704541,-1.0175769964801233,0.6149437427520752
1708437377.0655172,-1.1057534217834473,-1.6815258465208949,-2.526748005543844,2.281588240260742,-1.0175440947162073,0.6149877309799194
1708437377.0674918,-1.1058043241500854,-1.6814967594542445,-2.5267229715930384,2.2816402155109863,-1.0175321737872522,0.6150490045547485
1708437377.0695338,-1.105799913406372,-1.6814891300597132,-2.5267229715930384,2.2815872865864257,-1.0175769964801233,0.6149782538414001
1708437377.0715165,-1.1057759523391724,-1.681493421594137,-2.5267885367022913,2.2816120821186523,-1.0176218191729944,0.6149988770484924
1708437377.0735276,-1.1057552099227905,-1.6814891300597132,-2.526736084614889,2.2816359239765625,-1.0175483862506312,0.6150020360946655
1708437377.0755258,-1.1058043241500854,-1.681493421594137,-2.5267017523394983,2.2816120821186523,-1.0175769964801233,0.614981472492218
1708437377.0775204,-1.1057626008987427,-1.6814609966673792,-2.526727263127462,2.2815753656574707,-1.0175727049456995,0.6150587201118469
1708437377.0795255,-1.105755090713501,-1.6814567051329554,-2.5267720858203333,2.2816402155109863,-1.0175483862506312,0.6150947213172913
1708437377.0815194,-1.105771541595459,-1.6815258465208949,-2.526727263127462,2.281599207515381,-1.0175440947162073,0.6150903701782227
1708437377.0835457,-1.1057298183441162,-1.6814891300597132,-2.526743475590841,2.281616373653076,-1.0175684134112757,0.615126371383667
1708437377.0855443,-1.1057476997375488,-1.6814686260619105,-2.5267675558673304,2.2816120821186523,-1.0175321737872522,0.6151542067527771
1708437377.0875552,-1.105787992477417,-1.6814686260619105,-2.5267558733569544,2.2816240030476074,-1.0175393263446253,0.6152188181877136
1708437377.0895078,-1.1056984663009644,-1.6814729175963343,-2.5267184416400355,2.281636877650879,-1.017552677785055,0.6152100563049316
1708437377.091531,-1.1057641506195068,-1.6815139255919398,-2.526727263127462,2.2815839487263183,-1.017569367085592,0.6152493357658386
1708437377.0935292,-1.1057476997375488,-1.6814595661559046,-2.5267062822925013,2.281578465098999,-1.0175817648517054,0.615326464176178
1708437377.095486,-1.1057759523391724,-1.6815468273558558,-2.5267513434039515,2.281616373653076,-1.0175393263446253,0.615353524684906
1708437377.0975246,-1.1057759523391724,-1.681481500665182,-2.526686731969015,2.2816120821186523,-1.0175483862506312,0.6154308319091797
1708437377.0995047,-1.1057759523391724,-1.6815020046629847,-2.526682440434591,2.2815958696552734,-1.0175483862506312,0.6154822111129761
1708437377.101534,-1.105787992477417,-1.681542535821432,-2.526727263127462,2.2816120821186523,-1.017552677785055,0.6155376434326172
1708437377.1035213,-1.1057850122451782,-1.6815382442870082,-2.526731793080465,2.281563921565674,-1.0175483862506312,0.6155929565429688
1708437377.1055021,-1.1058013439178467,-1.681493421594137,-2.526715103779928,2.281576319331787,-1.0175321737872522,0.6156364679336548
1708437377.1075437,-1.1057342290878296,-1.6815172634520472,-2.526743475590841,2.28158084928479,-1.0175440947162073,0.6157378554344177
1708437377.1095643,-1.1057759523391724,-1.6814772091307582,-2.5267346541034144,2.281592531795166,-1.0175483862506312,0.6158137917518616
1708437377.1115067,-1.105738639831543,-1.6815258465208949,-2.5267797152148646,2.2816175657459716,-1.0175274054156702,0.6158607006072998
1708437377.113547,-1.105698585510254,-1.681521554986471,-2.5267017523394983,2.2816411691853027,-1.0175483862506312,0.6159812211990356
1708437377.1155052,-1.1057432889938354,-1.6815053425230921,-2.5267303625689905,2.2816411691853027,-1.0175483862506312,0.6160295009613037
1708437377.1175435,-1.1057149171829224,-1.6814805469908656,-2.5267184416400355,2.281576319331787,-1.0175274054156702,0.6160881519317627
1708437377.119574,-1.1057403087615967,-1.6814595661559046,-2.526731793080465,2.281559391612671,-1.0175603071795862,0.6161732077598572
1708437377.1214998,-1.1057894229888916,-1.6815053425230921,-2.5267229715930384,2.281559391612671,-1.0175817648517054,0.6162776350975037
1708437377.123515,-1.10574471950531,-1.6815468273558558,-2.5267184416400355,2.281538887614868,-1.0175817648517054,0.6163287162780762
1708437377.1255155,-1.10574471950531,-1.6815043888487757,-2.526698891316549,2.281563921565674,-1.0175817648517054,0.6163560748100281
1708437377.127543,-1.1057685613632202,-1.681521554986471,-2.5266898314105433,2.2815520006367187,-1.0175727049456995,0.6164267063140869
1708437377.1295166,-1.1057476997375488,-1.6815172634520472,-2.52678090730776,2.281507654781006,-1.017569367085592,0.6165931224822998
1708437377.131502,-1.1057476997375488,-1.681542535821432,-2.5267184416400355,2.281529350871704,-1.01756459871401,0.6166559457778931
1708437377.1335337,-1.105761170387268,-1.6815053425230921,-2.5267766157733362,2.2814549642750244,-1.0175274054156702,0.616694450378418
1708437377.1355002,-1.1057521104812622,-1.6815453968443812,-2.5267229715930384,2.2813989359089355,-1.017557446156637,0.61677485704422
1708437377.137561,-1.1057194471359253,-1.6814953289427699,-2.5267558733569544,2.2814268308826904,-1.0175617376910608,0.6168672442436218
1708437377.139545,-1.1057432889938354,-1.6815296612181605,-2.526727263127462,2.281407518977783,-1.0175336042987269,0.6170194149017334
1708437377.1415157,-1.1057357788085938,-1.6815010509886683,-2.5267184416400355,2.2814604479023437,-1.01750356355776,0.6170990467071533
1708437377.1435533,-1.1057119369506836,-1.6815258465208949,-2.526764694844381,2.2814604479023437,-1.017552677785055,0.617239236831665
1708437377.1455276,-1.105716586112976,-1.6815053425230921,-2.5267391840564173,2.281439943904541,-1.0175498167621058,0.6173189282417297
1708437377.1475327,-1.1057403087615967,-1.6814686260619105,-2.526764694844381,2.281472368831299,-1.0175440947162073,0.6174057126045227
1708437377.1495664,-1.1057149171829224,-1.6815339527525843,-2.5267391840564173,2.2815016943165283,-1.0175483862506312,0.6175135374069214
1708437377.1515265,-1.1056694984436035,-1.6814924679198207,-2.526743475590841,2.281416102046631,-1.0175727049456995,0.6176375150680542
1708437377.1535397,-1.1057193279266357,-1.6815182171263636,-2.5267303625689905,2.281439943904541,-1.017536465321676,0.6177377700805664
1708437377.1555355,-1.105733036994934,-1.6815129719176234,-2.5267558733569544,2.281423731441162,-1.0175274054156702,0.617832601070404
1708437377.157539,-1.105716586112976,-1.6815053425230921,-2.5267720858203333,2.2814203935810546,-1.0175817648517054,0.6180380582809448
1708437377.1595058,-1.1056740283966064,-1.6814762554564417,-2.5266898314105433,2.281407518977783,-1.0175321737872522,0.6181173920631409
1708437377.1615038,-1.1057119369506836,-1.6815382442870082,-2.526748005543844,2.2813989359089355,-1.0175617376910608,0.6182196736335754
1708437377.1635063,-1.1057040691375732,-1.6815339527525843,-2.5267558733569544,2.2814323145100097,-1.017552677785055,0.618315577507019
1708437377.1655195,-1.105733036994934,-1.681521554986471,-2.5267558733569544,2.281428022975586,-1.0175202528582972,0.6184678077697754
1708437377.1675,-1.1057465076446533,-1.6814967594542445,-2.5267470518695276,2.2814647394367675,-1.0175274054156702,0.6185997724533081
1708437377.1695087,-1.1056339740753174,-1.6814762554564417,-2.5267558733569544,2.2814041811176757,-1.0175321737872522,0.6186704039573669
1708437377.1714904,-1.1056846380233765,-1.681549688378805,-2.5267062822925013,2.2814571100422363,-1.017552677785055,0.6188094615936279
1708437377.173554,-1.1056876182556152,-1.6815620861449183,-2.5267558733569544,2.2814084726520996,-1.0175169149981897,0.6189543604850769
1708437377.1755178,-1.1056785583496094,-1.681521554986471,-2.526743475590841,2.281399889583252,-1.017573658620016,0.6191437840461731
1708437377.1775517,-1.1056711673736572,-1.681521554986471,-2.526727263127462,2.281395598048828,-1.0175336042987269,0.6192178130149841
1708437377.179509,-1.1057255268096924,-1.6815296612181605,-2.5267184416400355,2.281444235438965,-1.017557446156637,0.6193451881408691
1708437377.1815164,-1.1056548357009888,-1.6815172634520472,-2.5266855398761194,2.2814010816761474,-1.017524544392721,0.6194854378700256
1708437377.1835608,-1.1056801080703735,-1.6815129719176234,-2.5267139116870325,2.2813922601887207,-1.0174825827227991,0.6196487545967102
1708437377.1855516,-1.1056711673736572,-1.6815382442870082,-2.5267751852618616,2.2813965517231445,-1.0175288359271448,0.619784951210022
1708437377.1875498,-1.1056383848190308,-1.6815172634520472,-2.5267346541034144,2.2814571100422363,-1.01750356355776,0.6199285387992859
1708437377.1895044,-1.1056383848190308,-1.6815382442870082,-2.5267062822925013,2.2814041811176757,-1.0175202528582972,0.6200513243675232
1708437377.1915061,-1.1057010889053345,-1.681549688378805,-2.5267391840564173,2.2813679414936523,-1.0175288359271448,0.6202602386474609
1708437377.193536,-1.1056383848190308,-1.6815210781493128,-2.5267303625689905,2.2813965517231445,-1.017536465321676,0.6203626990318298
1708437377.195515,-1.1056429147720337,-1.681544920007223,-2.5267601648913782,2.2813398081013183,-1.0175321737872522,0.6205030083656311
1708437377.1975365,-1.1056948900222778,-1.681549688378805,-2.5267558733569544,2.2813309866138916,-1.017508331929342,0.6207314133644104
1708437377.199523,-1.10565185546875,-1.6815411053099574,-2.5266647974597376,2.2813634115406494,-1.017552677785055,0.6208784580230713
1708437377.2015245,-1.105663776397705,-1.681509634057516,-2.5267391840564173,2.2813517290302734,-1.017552677785055,0.6210015416145325
1708437377.203506,-1.1056309938430786,-1.6815129719176234,-2.5267391840564173,2.2813970285603027,-1.017508331929342,0.621192991733551
1708437377.205486,-1.1056309938430786,-1.6814848385252894,-2.5267184416400355,2.281360312099121,-1.017524544392721,0.6213737726211548
1708437377.2074971,-1.1056309938430786,-1.6815411053099574,-2.5267229715930384,2.28135268270459,-1.017552677785055,0.6215409636497498
1708437377.2094991,-1.1056309938430786,-1.6815010509886683,-2.526731793080465,2.28129427015271,-1.017552677785055,0.6217042803764343
1708437377.21149,-1.1056653261184692,-1.6815453968443812,-2.52678090730776,2.281364603633545,-1.0175440947162073,0.6219043731689453
1708437377.2135267,-1.1056607961654663,-1.6815945110716761,-2.5266974608050745,2.2813073831745605,-1.0175321737872522,0.6221047043800354
1708437377.2154922,-1.105647325515747,-1.6815859280028285,-2.5267139116870325,2.281348391170166,-1.017524544392721,0.6222841143608093
1708437377.217501,-1.1056280136108398,-1.681523939172262,-2.5267346541034144,2.281360312099121,-1.017536465321676,0.6224271059036255
1708437377.219524,-1.105639934539795,-1.6815535030760707,-2.526707712803976,2.2813731867023925,-1.017486874257223,0.6225946545600891
1708437377.2215362,-1.1056280136108398,-1.6815453968443812,-2.5267601648913782,2.281364603633545,-1.0175407568561,0.6227489113807678
1708437377.2235494,-1.105639934539795,-1.6815992794432582,-2.526743475590841,2.2813851076313476,-1.017508331929342,0.6228715777397156
1708437377.2255569,-1.105639934539795,-1.6815339527525843,-2.526743475590841,2.2813407617756347,-1.017552677785055,0.6230872273445129
1708437377.2275167,-1.1056309938430786,-1.681544920007223,-2.5267513434039515,2.2813171583363037,-1.0175817648517054,0.6232874393463135
1708437377.2295096,-1.105599045753479,-1.6815620861449183,-2.5267601648913782,2.2812957006641845,-1.0175202528582972,0.6234509944915771
1708437377.231506,-1.1056236028671265,-1.6816188297667445,-2.5267558733569544,2.281324549312256,-1.0175188223468226,0.6236634254455566
1708437377.2335384,-1.1056252717971802,-1.6815129719176234,-2.5267346541034144,2.2812959390827636,-1.0175154844867151,0.623826265335083
1708437377.2355392,-1.1056371927261353,-1.6815129719176234,-2.5267346541034144,2.281308336848877,-1.0174959341632288,0.6240623593330383
1708437377.2374911,-1.105570912361145,-1.6814991436400355,-2.5267391840564173,2.2813171583363037,-1.017557446156637,0.6242332458496094
1708437377.2395005,-1.1056171655654907,-1.6815535030760707,-2.5267766157733362,2.281287117595337,-1.017524544392721,0.6244456171989441
1708437377.2415204,-1.1055855751037598,-1.6815535030760707,-2.5267766157733362,2.281324549312256,-1.017557446156637,0.6246569156646729
1708437377.2435038,-1.1056082248687744,-1.6815124950804652,-2.5267303625689905,2.2813495832630615,-1.017524544392721,0.624873161315918
1708437377.2455306,-1.105582594871521,-1.6815620861449183,-2.5267229715930384,2.2813002306171875,-1.0175202528582972,0.6250974535942078
1708437377.247514,-1.10555899143219,-1.6815859280028285,-2.526727263127462,2.2812794882008056,-1.017552677785055,0.625244140625
1708437377.249569,-1.1055917739868164,-1.6815773449339808,-2.5267391840564173,2.281247063274048,-1.0174992720233362,0.6254838705062866
1708437377.25155,-1.1055753231048584,-1.6815368137755335,-2.5267675558673304,2.2812914091297607,-1.0175407568561,0.6256143450737
1708437377.2534995,-1.1055634021759033,-1.681544920007223,-2.5267229715930384,2.281292601222656,-1.01750356355776,0.6258218884468079
1708437377.255511,-1.1055798530578613,-1.6816097698607386,-2.5267601648913782,2.2813002306171875,-1.0175407568561,0.6260342597961426
1708437377.2575386,-1.1056052446365356,-1.681584974328512,-2.5267391840564173,2.2813777166553955,-1.01750356355776,0.6262170672416687
1708437377.259513,-1.1055470705032349,-1.6816092930235804,-2.5267601648913782,2.2813045221516113,-1.0175321737872522,0.626441240310669
1708437377.261519,-1.105621576309204,-1.6815763912596644,-2.526743475590841,2.2812883096882324,-1.017552677785055,0.6266611814498901
1708437377.2634988,-1.105544090270996,-1.6815406284727992,-2.5267303625689905,2.2813045221516113,-1.017512623463766,0.6268154382705688
1708437377.2655256,-1.1055634021759033,-1.681622167626852,-2.5267139116870325,2.2812720972248535,-1.017512623463766,0.6270103454589844
1708437377.267489,-1.1055768728256226,-1.6816092930235804,-2.5267720858203333,2.2812601762958984,-1.017524544392721,0.62725430727005
1708437377.269501,-1.1054942607879639,-1.681629320184225,-2.5267391840564173,2.2813045221516113,-1.01756459871401,0.6274699568748474
1708437377.2715144,-1.105544090270996,-1.6816078625121058,-2.5267184416400355,2.281330032939575,-1.017524544392721,0.6276732683181763
1708437377.2735386,-1.1055649518966675,-1.681601186791891,-2.5267470518695276,2.281280680293701,-1.017552677785055,0.6278607845306396
1708437377.2755098,-1.105548620223999,-1.6816379032530726,-2.5267675558673304,2.2812601762958984,-1.017557446156637,0.6281000971794128
1708437377.2775114,-1.105506181716919,-1.681662221948141,-2.5267062822925013,2.2813002306171875,-1.017524544392721,0.6282513737678528
1708437377.279513,-1.10556960105896,-1.6816050014891566,-2.5267558733569544,2.2812957006641845,-1.0175154844867151,0.6285284161567688
1708437377.2815015,-1.1055368185043335,-1.681629320184225,-2.5267062822925013,2.2812840181538085,-1.017557446156637,0.6287027597427368
1708437377.2835093,-1.1055560111999512,-1.681646009484762,-2.5267558733569544,2.2812678056904296,-1.0175407568561,0.6289302110671997
1708437377.285592,-1.105548620223999,-1.6815926037230433,-2.5267141501056116,2.2813257414051513,-1.017545525227682,0.629093587398529
1708437377.2874973,-1.1055277585983276,-1.6816331348814906,-2.526727263127462,2.2813419538685302,-1.0174992720233362,0.6293011903762817
1708437377.2894976,-1.1055232286453247,-1.6816288433470667,-2.5267346541034144,2.2812515932270507,-1.01750356355776,0.6294475197792053
1708437377.2915115,-1.105548620223999,-1.6816250286498011,-2.5267391840564173,2.2812558847614746,-1.017569367085592,0.6297081708908081
1708437377.2935004,-1.1055197715759277,-1.6816250286498011,-2.5267227331744593,2.2813257414051513,-1.0175321737872522,0.629927933216095
1708437377.295497,-1.105489730834961,-1.681650301019186,-2.5267391840564173,2.2813257414051513,-1.0175407568561,0.6301065683364868
1708437377.2975078,-1.105527639389038,-1.6816979847350062,-2.526748005543844,2.2812558847614746,-1.017552677785055,0.6303102970123291
1708437377.2995045,-1.1055197715759277,-1.681674142877096,-2.5267303625689905,2.281292601222656,-1.0175069014178675,0.6305505037307739
1708437377.3015437,-1.1055413484573364,-1.681674142877096,-2.5267470518695276,2.2812601762958984,-1.0175483862506312,0.6307011246681213
1708437377.3034976,-1.1054942607879639,-1.6816007099547328,-2.5267184416400355,2.281275196666382,-1.0175321737872522,0.630953848361969
1708437377.305506,-1.1055241823196411,-1.6816493473448695,-2.5267391840564173,2.2812601762958984,-1.0175617376910608,0.6311529874801636
1708437377.3075225,-1.1055197715759277,-1.6816493473448695,-2.526719395314352,2.2812234598347167,-1.017552677785055,0.6313401460647583
1708437377.3095326,-1.1054778099060059,-1.6816050014891566,-2.5267513434039515,2.2812763887592773,-1.0175154844867151,0.6315850615501404
1708437377.3115184,-1.1055243015289307,-1.681652685204977,-2.5267632643329065,2.2812558847614746,-1.0175407568561,0.6317470669746399
1708437377.3134997,-1.1055105924606323,-1.6816164455809535,-2.5267346541034144,2.281235380763672,-1.0174825827227991,0.6320316791534424
1708437377.3155162,-1.1054986715316772,-1.6816135845580042,-2.5267346541034144,2.2812396722980957,-1.0175154844867151,0.6322199106216431
1708437377.317501,-1.1054959297180176,-1.6816250286498011,-2.5267470518695276,2.2812763887592773,-1.0175817648517054,0.6323660016059875
1708437377.3195522,-1.1054913997650146,-1.6816164455809535,-2.5268004576312464,2.2812558847614746,-1.0175407568561,0.632536768913269
1708437377.3215396,-1.105506181716919,-1.6816493473448695,-2.5267632643329065,2.281289263362549,-1.017557446156637,0.6327201128005981
1708437377.32352,-1.1055123805999756,-1.681646009484762,-2.5267513434039515,2.2812482553669433,-1.0175321737872522,0.6329766511917114
1708437377.325539,-1.1055457592010498,-1.6816164455809535,-2.5267391840564173,2.2812558847614746,-1.0175483862506312,0.6331433057785034
1708437377.327509,-1.1055033206939697,-1.6816121540465296,-2.5267601648913782,2.2812277513691406,-1.0175274054156702,0.6333749890327454
1708437377.3295038,-1.1055197715759277,-1.6816007099547328,-2.5266810099231165,2.2812277513691406,-1.017524544392721,0.6335791349411011
1708437377.3315167,-1.1055413484573364,-1.6816698513426722,-2.5267258326159876,2.281268759364746,-1.017552677785055,0.6337535381317139
1708437377.333505,-1.1055151224136353,-1.6816007099547328,-2.5267558733569544,2.281289263362549,-1.0175483862506312,0.6339779496192932
1708437377.335544,-1.1054869890213013,-1.6816207371153773,-2.5267346541034144,2.2812883096882324,-1.017477814351217,0.6341248154640198
1708437377.3375235,-1.1055413484573364,-1.6816536388792933,-2.5267303625689905,2.281330032939575,-1.017557446156637,0.6343566179275513
1708437377.3394885,-1.1055004596710205,-1.6816250286498011,-2.5267391840564173,2.281313105220459,-1.0175603071795862,0.634564220905304
1708437377.3415225,-1.1055241823196411,-1.681646009484762,-2.5267751852618616,2.2812482553669433,-1.017590347920553,0.6347721815109253
1708437377.3435555,-1.1055123805999756,-1.681674142877096,-2.5267391840564173,2.281219168300293,-1.017512623463766,0.6350117325782776
1708437377.345502,-1.1055105924606323,-1.6816727123656214,-2.5267303625689905,2.281313105220459,-1.0175483862506312,0.6351465582847595
1708437377.347531,-1.1055033206939697,-1.681592126885885,-2.5267229715930384,2.2812320429035644,-1.017512623463766,0.6353622078895569
1708437377.3495274,-1.105516791343689,-1.6816579304137171,-2.5267346541034144,2.2813054758259277,-1.0175617376910608,0.6355701088905334
1708437377.3516061,-1.1055243015289307,-1.6816979847350062,-2.5267346541034144,2.2812935548969726,-1.0175321737872522,0.6357375383377075
1708437377.3535423,-1.1054869890213013,-1.6816374264159144,-2.5267720858203333,2.281280680293701,-1.0175483862506312,0.635961651802063
1708437377.355541,-1.105528712272644,-1.6816288433470667,-2.5267303625689905,2.2812320429035644,-1.0175202528582972,0.6361076831817627
1708437377.3575168,-1.1054794788360596,-1.6816207371153773,-2.52678090730776,2.28129689275708,-1.0175769964801233,0.6363566517829895
1708437377.3595104,-1.105528712272644,-1.6816050014891566,-2.5267720858203333,2.2812601762958984,-1.017545525227682,0.6365566849708557
1708437377.3615425,-1.1054613590240479,-1.6815883121886195,-2.5267632643329065,2.2812720972248535,-1.017573658620016,0.6366536617279053
1708437377.3635335,-1.105533242225647,-1.6816374264159144,-2.5267470518695276,2.2812234598347167,-1.0175393263446253,0.6369027495384216
1708437377.3655846,-1.1054542064666748,-1.6816579304137171,-2.5267558733569544,2.2812720972248535,-1.017536465321676,0.6371107697486877
1708437377.367532,-1.1055576801300049,-1.6816007099547328,-2.5267425219165247,2.2812763887592773,-1.0175111929522913,0.6372738480567932
1708437377.3695436,-1.1055457592010498,-1.6816331348814906,-2.526727263127462,2.281252546901367,-1.0175321737872522,0.6374503970146179
1708437377.3715298,-1.1054840087890625,-1.6816092930235804,-2.526743475590841,2.2812720972248535,-1.017597500477926,0.6376125812530518
1708437377.373523,-1.1054959297180176,-1.6816050014891566,-2.5267601648913782,2.2812320429035644,-1.0175483862506312,0.637726902961731
1708437377.3755264,-1.1055413484573364,-1.6816536388792933,-2.5267558733569544,2.281284971828125,-1.017552677785055,0.6379716396331787
1708437377.3775482,-1.1055197715759277,-1.6816121540465296,-2.5267513434039515,2.2812720972248535,-1.017569367085592,0.6381587386131287
1708437377.3795104,-1.1055197715759277,-1.681646009484762,-2.5267558733569544,2.2812632757374267,-1.017545525227682,0.6383589506149292
1708437377.381516,-1.1054750680923462,-1.6816007099547328,-2.5267391840564173,2.2813002306171875,-1.0175483862506312,0.6384852528572083
1708437377.3835523,-1.1055107116699219,-1.6816164455809535,-2.5267229715930384,2.2812558847614746,-1.017536465321676,0.6386821269989014
1708437377.3855283,-1.105532169342041,-1.6816374264159144,-2.5267558733569544,2.2812763887592773,-1.0175483862506312,0.6388663649559021
1708437377.3875396,-1.1055078506469727,-1.6816135845580042,-2.5267346541034144,2.2812482553669433,-1.017524544392721,0.6390727758407593
1708437377.3895066,-1.1054986715316772,-1.6816250286498011,-2.5267470518695276,2.2812763887592773,-1.01750356355776,0.6392569541931152
1708437377.3915102,-1.1054986715316772,-1.6816417179503382,-2.5267346541034144,2.2812883096882324,-1.01750356355776,0.6394200325012207
1708437377.3935385,-1.1054959297180176,-1.6816050014891566,-2.5267391840564173,2.2813257414051513,-1.0175288359271448,0.6396116614341736
1708437377.395499,-1.1055368185043335,-1.6816135845580042,-2.5267558733569544,2.2813419538685302,-1.0175378958331507,0.6397594809532166
1708437377.3975224,-1.1055560111999512,-1.6816379032530726,-2.5267513434039515,2.2813002306171875,-1.0174911657916468,0.6399672627449036
1708437377.3995278,-1.1055368185043335,-1.6815926037230433,-2.5267513434039515,2.2812720972248535,-1.017486874257223,0.6401305794715881
1708437377.4015684,-1.105532169342041,-1.681629320184225,-2.5267184416400355,2.281308336848877,-1.0174959341632288,0.6402860283851624
1708437377.4035356,-1.1055560111999512,-1.681617876092428,-2.526743475590841,2.2813171583363037,-1.0174911657916468,0.6404582858085632
1708437377.4055176,-1.105548620223999,-1.6815968952574671,-2.5267229715930384,2.2813126283833007,-1.0174825827227991,0.640613853931427
1708437377.4075153,-1.1055151224136353,-1.6816417179503382,-2.5267470518695276,2.2813045221516113,-1.0175288359271448,0.6406997442245483
1708437377.4095225,-1.1055622100830078,-1.6817065678038539,-2.5267184416400355,2.2813126283833007,-1.017512623463766,0.6408803462982178
1708437377.4115412,-1.1055532693862915,-1.6815720997252406,-2.5266900698291224,2.2812763887592773,-1.017484490071432,0.640988290309906
1708437377.413523,-1.1055105924606323,-1.6815968952574671,-2.526727263127462,2.281324549312256,-1.0175002256976526,0.64113849401474
1708437377.4155066,-1.1055413484573364,-1.681650301019186,-2.5267601648913782,2.2813257414051513,-1.0175378958331507,0.6413352489471436
1708437377.4175344,-1.1055576801300049,-1.6816579304137171,-2.5267513434039515,2.281266613597534,-1.017512623463766,0.641486406326294
1708437377.419531,-1.1055514812469482,-1.6816288433470667,-2.5267062822925013,2.28135268270459,-1.0175169149981897,0.6416705846786499
1708437377.4215255,-1.1055232286453247,-1.6816288433470667,-2.526785198842184,2.2813028532215576,-1.0174959341632288,0.6418544054031372
1708437377.42355,-1.1055351495742798,-1.6816135845580042,-2.526727263127462,2.2813495832630615,-1.0175002256976526,0.6419979333877563
1708437377.4255135,-1.1055470705032349,-1.6816121540465296,-2.526736084614889,2.2813333707996826,-1.0174959341632288,0.642125129699707
1708437377.4275327,-1.1055560111999512,-1.6815763912596644,-2.5267346541034144,2.2813126283833007,-1.0175002256976526,0.6422765254974365
1708437377.4295533,-1.1055887937545776,-1.6815926037230433,-2.5267062822925013,2.281380816096924,-1.0174601713763636,0.6423872709274292
1708437377.4315467,-1.1055532693862915,-1.681662221948141,-2.526768986378805,2.281332178706787,-1.01747972169985,0.6425343751907349
1708437377.4335515,-1.1055634021759033,-1.6816207371153773,-2.5267229715930384,2.2813355165668945,-1.0174720923053187,0.6427143812179565
1708437377.4355242,-1.1055798530578613,-1.6816374264159144,-2.526715103779928,2.281315966243408,-1.0175045172320765,0.6428831219673157
1708437377.4375243,-1.1055798530578613,-1.6816545925536097,-2.5267601648913782,2.281360312099121,-1.0175021330462855,0.6429527997970581
1708437377.4395485,-1.1055933237075806,-1.6816379032530726,-2.526715103779928,2.281388445491455,-1.0174763838397425,0.6431493759155273
1708437377.4415262,-1.1056506633758545,-1.681622167626852,-2.52674371400942,2.281384153957031,-1.0174525419818323,0.6433254480361938
1708437377.4435103,-1.1055917739868164,-1.6816135845580042,-2.526752297078268,2.281322165126465,-1.0174315611468714,0.643447995185852
1708437377.4455323,-1.1055843830108643,-1.6816417179503382,-2.526748005543844,2.2814041811176757,-1.0174272696124476,0.6436360478401184
1708437377.4474998,-1.105570912361145,-1.681622167626852,-2.526727263127462,2.281395598048828,-1.0174525419818323,0.6437632441520691
1708437377.4495373,-1.1055635213851929,-1.681629320184225,-2.5267513434039515,2.281444235438965,-1.0174272696124476,0.6438949108123779
1708437377.451688,-1.1056126356124878,-1.681584974328512,-2.5267062822925013,2.281411810512207,-1.0174315611468714,0.6440255045890808
1708437377.4535599,-1.1055262088775635,-1.681601186791891,-2.5267677942859095,2.2814854818531494,-1.017477814351217,0.644210159778595
1708437377.4555745,-1.1055917739868164,-1.6815926037230433,-2.5267470518695276,2.2814647394367675,-1.0174363295184534,0.6443458199501038
1708437377.4575362,-1.1055963039398193,-1.6815558872618617,-2.526727263127462,2.2814969259449462,-1.0173752943622034,0.6444843411445618
1708437377.4595428,-1.1056280136108398,-1.681617876092428,-2.5267513434039515,2.281435652370117,-1.0174287001239222,0.6446231603622437
1708437377.4615345,-1.1055617332458496,-1.681584974328512,-2.526743475590841,2.2814313608356933,-1.0174525419818323,0.6447426080703735
1708437377.4635506,-1.1056115627288818,-1.6815773449339808,-2.526764694844381,2.281468077296875,-1.0173915068255823,0.6449233293533325
1708437377.465529,-1.105594515800476,-1.6816097698607386,-2.5267017523394983,2.281459255809448,-1.0173991362201136,0.645066499710083
1708437377.4675155,-1.1055901050567627,-1.6816264591612757,-2.5267096201526087,2.281444235438965,-1.0173872152911585,0.6452136635780334
1708437377.4695685,-1.1056444644927979,-1.6815673313536585,-2.526698891316549,2.28147999822583,-1.0174406210528772,0.6454069018363953
1708437377.4715376,-1.1055982112884521,-1.6816092930235804,-2.5267229715930384,2.2814463812061767,-1.0174153486834925,0.6455494165420532
1708437377.4736118,-1.1056280136108398,-1.6815062961974085,-2.5267303625689905,2.281508608455322,-1.0174196402179163,0.6456958055496216
1708437377.4755378,-1.1056727170944214,-1.681617876092428,-2.5267720858203333,2.281479521388672,-1.017449680958883,0.645857036113739
1708437377.4775317,-1.1056981086730957,-1.681601186791891,-2.5267346541034144,2.281545563335083,-1.017449680958883,0.6459587812423706
1708437377.479544,-1.105647325515747,-1.6815687618651332,-2.526719633732931,2.2815162378498535,-1.0174153486834925,0.6461178660392761
1708437377.4815285,-1.105639934539795,-1.6815859280028285,-2.526743475590841,2.2815562921711425,-1.0174616018878382,0.646266520023346
1708437377.483529,-1.1056965589523315,-1.6815315685667933,-2.5267229715930384,2.2814957338520507,-1.0174616018878382,0.6464297771453857
1708437377.4855065,-1.1056592464447021,-1.6816064320006312,-2.5267062822925013,2.2814957338520507,-1.017449680958883,0.6465528607368469
1708437377.4876018,-1.1056876182556152,-1.6815773449339808,-2.526776377354757,2.2814957338520507,-1.0174244085894983,0.646744966506958
1708437377.489568,-1.1057255268096924,-1.681495805779928,-2.526743475590841,2.28156487523999,-1.0174363295184534,0.646818995475769
1708437377.491512,-1.105716586112976,-1.6815086803831996,-2.5267229715930384,2.2815238672443847,-1.0173915068255823,0.6469946503639221
1708437377.4935281,-1.1056667566299438,-1.681549688378805,-2.526743475590841,2.281515284175537,-1.0173957983600062,0.6471623778343201
1708437377.4955308,-1.1057419776916504,-1.6815663776793421,-2.5267062822925013,2.2815443712421875,-1.0174287001239222,0.6473630666732788
1708437377.4975092,-1.1056784391403198,-1.6815339527525843,-2.526748005543844,2.2815281587788085,-1.017444912587301,0.6474978923797607
1708437377.4995086,-1.1057119369506836,-1.681521554986471,-2.5267184416400355,2.281588240260742,-1.017449680958883,0.6476772427558899
1708437377.5015633,-1.105728268623352,-1.6815020046629847,-2.5267391840564173,2.281550808543823,-1.017432991658346,0.6478286385536194
1708437377.5035024,-1.1057149171829224,-1.681497713128561,-2.526743475590841,2.281653328532837,-1.0174077192889612,0.6479306817054749
1708437377.50552,-1.1057493686676025,-1.6814772091307582,-2.526764694844381,2.2816776472279052,-1.0173957983600062,0.6480786204338074
1708437377.5075421,-1.1057074069976807,-1.6815053425230921,-2.526715103779928,2.2816776472279052,-1.0174124876605433,0.6482706665992737
1708437377.50953,-1.1057238578796387,-1.681481500665182,-2.526723925267355,2.28168170034375,-1.017444912587301,0.6484013199806213
1708437377.5115047,-1.1056859493255615,-1.681509634057516,-2.5267513434039515,2.281618519420288,-1.017449680958883,0.6485611796379089
1708437377.5135002,-1.1057566404342651,-1.6814600429930628,-2.52678090730776,2.281688852901123,-1.0174701849566858,0.6487446427345276
1708437377.5154958,-1.1057566404342651,-1.6814805469908656,-2.526764694844381,2.2816154199787597,-1.0174406210528772,0.6489002704620361
1708437377.5175083,-1.1056995391845703,-1.6814528904356898,-2.5266855398761194,2.2816690641590576,-1.0174034277545374,0.6490675210952759
1708437377.5195196,-1.1057283878326416,-1.681497713128561,-2.526743475590841,2.281685991878174,-1.0174244085894983,0.6492999792098999
1708437377.5215762,-1.105743169784546,-1.6814242802061976,-2.526748005543844,2.2816316324421386,-1.0174077192889612,0.649406909942627
1708437377.5235684,-1.1057641506195068,-1.681481500665182,-2.5267677942859095,2.2816478449055175,-1.017449680958883,0.6495523452758789
1708437377.5255327,-1.1057522296905518,-1.681493421594137,-2.5267184416400355,2.2816433149525146,-1.0174196402179163,0.6497531533241272
1708437377.5275357,-1.1057387590408325,-1.681481500665182,-2.526715103779928,2.2816359239765625,-1.0174153486834925,0.6499249339103699
1708437377.5295267,-1.105776071548462,-1.6814729175963343,-2.5267346541034144,2.2816690641590576,-1.0174616018878382,0.6500633358955383
1708437377.5315063,-1.1057641506195068,-1.6814848385252894,-2.5267229715930384,2.281656427974365,-1.0174287001239222,0.6502434611320496
1708437377.5335352,-1.1057268381118774,-1.681497713128561,-2.5267720858203333,2.281685991878174,-1.0174616018878382,0.6504350900650024
1708437377.5355608,-1.1058058738708496,-1.6814857921996058,-2.5267885367022913,2.281684561366699,-1.0174525419818323,0.6506190299987793
1708437377.5375571,-1.105771541595459,-1.681497713128561,-2.526756827031271,2.281688852901123,-1.0174763838397425,0.650830864906311
1708437377.5395055,-1.1057850122451782,-1.681493421594137,-2.5267141501056116,2.2816690641590576,-1.0174687544452112,0.6509403586387634
1708437377.5415077,-1.105771541595459,-1.6814848385252894,-2.5267720858203333,2.281688852901123,-1.0174363295184534,0.6511651873588562
1708437377.5435038,-1.1058348417282104,-1.6814891300597132,-2.526801649724142,2.281685991878174,-1.0174735228167933,0.6513445973396301
1708437377.5455127,-1.105767011642456,-1.6815053425230921,-2.5267513434039515,2.281705065364502,-1.0174687544452112,0.6515066027641296
1708437377.5475087,-1.1057461500167847,-1.6814481220641078,-2.52678090730776,2.281655712718628,-1.0174687544452112,0.6516424417495728
1708437377.5495276,-1.105771541595459,-1.6814891300597132,-2.5267885367022913,2.2816683489033203,-1.0175021330462855,0.6518219709396362
1708437377.5516758,-1.1058406829833984,-1.681481500665182,-2.5267513434039515,2.281688852901123,-1.0174930731402796,0.6519643068313599
1708437377.5535057,-1.105812430381775,-1.681509634057516,-2.5267391840564173,2.2816683489033203,-1.0174930731402796,0.6521729826927185
1708437377.555519,-1.105783462524414,-1.6814609966673792,-2.5267677942859095,2.2816385465809326,-1.0174806753741663,0.6523764133453369
1708437377.5575356,-1.1057626008987427,-1.6814772091307582,-2.526743475590841,2.281693382854126,-1.0174854437457483,0.652547299861908
1708437377.5594935,-1.1058077812194824,-1.681465288201803,-2.5267587343799036,2.281688852901123,-1.0175092856036585,0.6527438759803772
1708437377.5614874,-1.105787992477417,-1.6814738712706507,-2.5267184416400355,2.2816597658344726,-1.0174887816058558,0.6528934240341187
1708437377.5635056,-1.1057626008987427,-1.6815010509886683,-2.5267346541034144,2.281660242671631,-1.017484490071432,0.6531131863594055
1708437377.5654945,-1.105799913406372,-1.6814857921996058,-2.5267558733569544,2.2816802698322753,-1.0175169149981897,0.6533328890800476
1708437377.567508,-1.1057953834533691,-1.681481500665182,-2.52674371400942,2.281651182765625,-1.0175469557391565,0.6534879803657532
1708437377.569514,-1.105812430381775,-1.6814567051329554,-2.5267558733569544,2.281655712718628,-1.0175336042987269,0.6537032723426819
1708437377.571524,-1.1057924032211304,-1.681493421594137,-2.5267391840564173,2.281634493465088,-1.0175288359271448,0.6538598537445068
1708437377.5735252,-1.105799913406372,-1.68143953899526,-2.526743475590841,2.28162591039624,-1.0175321737872522,0.6540547013282776
1708437377.5755072,-1.1057789325714111,-1.6814729175963343,-2.5267720858203333,2.281688852901123,-1.0175560156451624,0.6542129516601562
1708437377.5775175,-1.105776071548462,-1.6815382442870082,-2.52675444284548,2.28164450704541,-1.017573658620016,0.6543879508972168
1708437377.5795016,-1.105743169784546,-1.6814967594542445,-2.5267258326159876,2.281677170390747,-1.0175684134112757,0.6546042561531067
1708437377.5814924,-1.1057387590408325,-1.6815129719176234,-2.5267794767962855,2.2816647726246337,-1.0175560156451624,0.6547957062721252
1708437377.5835204,-1.1057268381118774,-1.6815010509886683,-2.5268033186541956,2.2816690641590576,-1.0175769964801233,0.6549782752990723
1708437377.5855207,-1.1057522296905518,-1.6815010509886683,-2.526766363774435,2.2816647726246337,-1.0175841490374964,0.6551531553268433
1708437377.587507,-1.1056984663009644,-1.6815620861449183,-2.526799027119772,2.2816402155109863,-1.0176337401019495,0.6553741693496704
1708437377.5894969,-1.1056995391845703,-1.6816054783263148,-2.526844088231222,2.2816316324421386,-1.017595116292135,0.6556260585784912
1708437377.591486,-1.1056667566299438,-1.681573053399557,-2.5268636385547083,2.2815796571918945,-1.017628018056051,0.6556978821754456
1708437377.5935214,-1.1056592464447021,-1.6816097698607386,-2.5268965403186243,2.2815634447285156,-1.017632309590475,0.6559349298477173
1708437377.5955317,-1.1056071519851685,-1.6815763912596644,-2.5268710295306605,2.281576319331787,-1.0176470915423792,0.6561709046363831
1708437377.5975142,-1.1056115627288818,-1.6816331348814906,-2.5269039312945765,2.2814668852039794,-1.0176532904254358,0.6563500165939331
1708437377.5994868,-1.1055560111999512,-1.68170227626943,-2.526874367390768,2.281475468272827,-1.017656151448385,0.6565086245536804
1708437377.6015148,-1.1055232286453247,-1.6817261181273402,-2.526923481618063,2.2814809519001464,-1.017648998891012,0.6567400097846985
1708437377.6035044,-1.1054913997650146,-1.6817995510497035,-2.52692681947817,2.281399889583252,-1.0177009741412562,0.6568913459777832
1708437377.6055367,-1.1054840087890625,-1.6817738018431605,-2.526931111012594,2.2814289766499023,-1.0177133719073694,0.6570900678634644
1708437377.607544,-1.105439305305481,-1.6818014583983363,-2.5269134680377405,2.2813235956379394,-1.0176637808429163,0.657315194606781
1708437377.609535,-1.1054141521453857,-1.6818429432311,-2.5270031134234827,2.281308336848877,-1.0177295843707483,0.6574617028236389
1708437377.6115,-1.105354905128479,-1.681840559045309,-2.5270074049579065,2.2812997537800292,-1.0177400747882288,0.6577011346817017
1708437377.6135333,-1.10528564453125,-1.6818443737425746,-2.5270031134234827,2.281240625972412,-1.0177400747882288,0.6578605771064758
1708437377.6155133,-1.1052210330963135,-1.6819373569884242,-2.5271180311786097,2.2811826902576904,-1.0178301970111292,0.6580315828323364
1708437377.617541,-1.1051326990127563,-1.6819569073119105,-2.527072016392843,2.281155748958252,-1.0178640524493616,0.6582393646240234
