Eg3-git/Classifiers/Data Collection/u5/u5www4_ur3e_joint_states.csv
time,elbow_joint,shoulder_lift_joint,shoulder_pan_joint,wrist_1_joint,wrist_2_joint,wrist_3_joint
1708437424.5357072,-1.1346372365951538,-1.6655007801451625,-2.527591053639547,2.3126069742390136,-1.0190895239459437,0.4489857256412506
1708437424.5376937,-1.1346817016601562,-1.6654769382872523,-2.527545992528097,2.3125993448444824,-1.019073788319723,0.4489116370677948
1708437424.539719,-1.1346979141235352,-1.6655346355833949,-2.5275867621051233,2.312652750606201,-1.019024674092428,0.4489575922489166
1708437424.5417042,-1.1346826553344727,-1.6654888592162074,-2.5275660196887415,2.31264512121167,-1.0190323034869593,0.4489377737045288
1708437424.543677,-1.134674072265625,-1.6655050716795863,-2.5276106039630335,2.3125743108936767,-1.0189831892596644,0.44888338446617126
1708437424.5457187,-1.13468599319458,-1.6655141315855921,-2.5275822321521204,2.312603636378906,-1.0190160910235804,0.44889217615127563
1708437424.5477273,-1.13468599319458,-1.6655408344664515,-2.5275865236865442,2.312652750606201,-1.0190413633929651,0.44889652729034424
1708437424.5497262,-1.1346697807312012,-1.6655169926085414,-2.527656380330221,2.3125709730335693,-1.0190323034869593,0.44890961050987244
1708437424.551681,-1.1346817016601562,-1.6654888592162074,-2.527628008519308,2.3125743108936767,-1.019057575856344,0.4489116370677948
1708437424.553679,-1.1346904039382935,-1.6654769382872523,-2.5275660196887415,2.3125907617756347,-1.0190413633929651,0.44896191358566284
1708437424.55572,-1.134690284729004,-1.6654602489867152,-2.5275986830340784,2.3126112657734375,-1.0190990606891077,0.44888344407081604
1708437424.5577502,-1.1346535682678223,-1.665490289727682,-2.527628008519308,2.3126234251209716,-1.0190413633929651,0.4489290714263916
1708437424.559686,-1.134672999382019,-1.66550936321401,-2.527591053639547,2.3126322466083984,-1.019078556691305,0.4488724172115326
1708437424.5616925,-1.1346936225891113,-1.6655007801451625,-2.5275867621051233,2.312586231822632,-1.019078556691305,0.4489453136920929
1708437424.5637128,-1.134644865989685,-1.6654559574522914,-2.527607504521505,2.31260268270459,-1.019045654927389,0.44895848631858826
1708437424.5657442,-1.1347098350524902,-1.6655050716795863,-2.527628008519308,2.312619133586548,-1.0190947691546839,0.448892205953598
1708437424.5676835,-1.134702205657959,-1.6654440365233363,-2.5275943914996546,2.31260268270459,-1.0190413633929651,0.44893771409988403
1708437424.5696743,-1.1346817016601562,-1.6655050716795863,-2.527579132710592,2.3125907617756347,-1.0190485159503382,0.4489247798919678
1708437424.571727,-1.134690284729004,-1.6655141315855921,-2.5275867621051233,2.31260268270459,-1.0190442244159144,0.4488549828529358
1708437424.573679,-1.134714126586914,-1.665497442285055,-2.5275779406176966,2.312619133586548,-1.019073788319723,0.44884753227233887
1708437424.575704,-1.1346936225891113,-1.66550936321401,-2.527607266102926,2.3126765924641113,-1.019078556691305,0.44895848631858826
1708437424.5776982,-1.1347347497940063,-1.665469308892721,-2.527599875126974,2.3126396375843505,-1.019078556691305,0.4488922953605652
1708437424.5796854,-1.1347260475158691,-1.6654812298216761,-2.527541700993673,2.312610312099121,-1.01902944246401,0.4488886892795563
1708437424.581676,-1.134702205657959,-1.6655141315855921,-2.5275703112231653,2.312701626414917,-1.0191038290606897,0.4489465653896332
1708437424.583753,-1.1347185373306274,-1.6654111347594203,-2.5275748411761683,2.312598152751587,-1.0190323034869593,0.4488811492919922
1708437424.5857596,-1.1347217559814453,-1.6655127010741175,-2.527579132710592,2.312586231822632,-1.019057575856344,0.4488474428653717
1708437424.5877037,-1.1346492767333984,-1.6654931507506312,-2.5275583902942103,2.3126069742390136,-1.01909047762026,0.4488668739795685
1708437424.5897124,-1.1347472667694092,-1.6655422649779261,-2.527599636708395,2.312610312099121,-1.019073788319723,0.44884830713272095
1708437424.5917273,-1.134714126586914,-1.6654650173582972,-2.527607504521505,2.312619133586548,-1.019073788319723,0.44889652729034424
1708437424.5937004,-1.1347429752349854,-1.6655141315855921,-2.5276148954974573,2.3126603800007324,-1.0190947691546839,0.4489017426967621
1708437424.5957286,-1.1346893310546875,-1.665497442285055,-2.527607504521505,2.3126680093952636,-1.019078556691305,0.44889307022094727
1708437424.5977345,-1.1347460746765137,-1.6654635868468226,-2.5275538603412073,2.3126234251209716,-1.019078556691305,0.4489139914512634
1708437424.5997348,-1.1347460746765137,-1.6655141315855921,-2.527591053639547,2.3126441675373535,-1.0190337339984339,0.4488648474216461
1708437424.6017332,-1.1347503662109375,-1.6655050716795863,-2.5275583902942103,2.312610312099121,-1.0190323034869593,0.44891834259033203
1708437424.603722,-1.1346921920776367,-1.6654840908446253,-2.527541700993673,2.3126799303242187,-1.0190485159503382,0.44881144165992737
1708437424.6057177,-1.1348072290420532,-1.6654812298216761,-2.527566973363058,2.3126844602772216,-1.0190485159503382,0.4488799571990967
1708437424.6077719,-1.1347298622131348,-1.6655379734435023,-2.527558151875631,2.3126603800007324,-1.0191071669207972,0.44885706901550293
1708437424.6097023,-1.1347591876983643,-1.6655422649779261,-2.5275495688067835,2.312622233028076,-1.0190947691546839,0.44884392619132996
1708437424.6116831,-1.134738564491272,-1.6655141315855921,-2.5276029745685022,2.312622233028076,-1.0190938154803675,0.4488169550895691
1708437424.6136777,-1.134799838066101,-1.665469308892721,-2.527611796055929,2.312671347255371,-1.0190694967852991,0.44887804985046387
1708437424.6156752,-1.1347253322601318,-1.6654650173582972,-2.527623716984884,2.312683268184326,-1.0190771261798304,0.4488692879676819
1708437424.617689,-1.134737253189087,-1.6654840908446253,-2.5275865236865442,2.3127125936695556,-1.0191095511065882,0.44885706901550293
1708437424.6197028,-1.1347672939300537,-1.665502210656637,-2.5275865236865442,2.312671347255371,-1.019057575856344,0.4488331973552704
1708437424.621689,-1.134758472442627,-1.665490289727682,-2.527541700993673,2.312699480647705,-1.0190814177142542,0.4487627148628235
1708437424.6237204,-1.1347503662109375,-1.6654602489867152,-2.5275779406176966,2.3126789766499023,-1.019073788319723,0.4488855302333832
1708437424.625703,-1.134770393371582,-1.665478368798727,-2.5275703112231653,2.3126625257679443,-1.0191071669207972,0.44887441396713257
1708437424.627704,-1.134810447692871,-1.6654812298216761,-2.527623716984884,2.312699480647705,-1.0190532843219202,0.4488332271575928
1708437424.6296818,-1.1347415447235107,-1.6654602489867152,-2.5275374094592493,2.312704010600708,-1.0191023985492151,0.4488126337528229
1708437424.6316798,-1.1347084045410156,-1.6654888592162074,-2.5275748411761683,2.312715931529663,-1.0190814177142542,0.4488169550895691
1708437424.633738,-1.1347659826278687,-1.66544832805776,-2.5275867621051233,2.312727852458618,-1.0190160910235804,0.4488181173801422
1708437424.6356866,-1.1348234415054321,-1.6655007801451625,-2.5275748411761683,2.3127192693897705,-1.019111458455221,0.4487887918949127
1708437424.637729,-1.134786605834961,-1.6654855213561,-2.5275779406176966,2.3127192693897705,-1.019036595021383,0.448809415102005
1708437424.6396844,-1.1347630023956299,-1.66550936321401,-2.5276017824756067,2.312711639995239,-1.01909047762026,0.4488007128238678
1708437424.641724,-1.134786605834961,-1.6654650173582972,-2.5275538603412073,2.3127354818531494,-1.0191028753863733,0.4488256573677063
1708437424.6437001,-1.1348028182983398,-1.6654440365233363,-2.527607266102926,2.312657280559204,-1.0190981070147913,0.4487432539463043
1708437424.6456995,-1.134732961654663,-1.6654721699156703,-2.5275822321521204,2.3127433496662597,-1.019073788319723,0.448805034160614
1708437424.6477735,-1.1347910165786743,-1.66542448619985,-2.527595345173971,2.3126987653919677,-1.01909047762026,0.4487736225128174
1708437424.6497574,-1.1348353624343872,-1.6654406986632289,-2.5275779406176966,2.3126908975788574,-1.0190961996661585,0.44878119230270386
1708437424.6517413,-1.1347737312316895,-1.6654650173582972,-2.5276148954974573,2.312677784557007,-1.0191133658038538,0.44874078035354614
1708437424.6537461,-1.134758472442627,-1.665497442285055,-2.5276029745685022,2.312788887614868,-1.0191052595721644,0.4487483501434326
1708437424.6557295,-1.1348117589950562,-1.665490289727682,-2.5275660196887415,2.3127564626881103,-1.0190895239459437,0.44879427552223206
1708437424.657755,-1.1347780227661133,-1.665506502191061,-2.527579132710592,2.3126658636280517,-1.0190938154803675,0.44873327016830444
1708437424.6597111,-1.1348223686218262,-1.6654530964293421,-2.527640167866842,2.3127519327351074,-1.0191429297076624,0.44880181550979614
1708437424.6617014,-1.1347942352294922,-1.665490289727682,-2.5275822321521204,2.3127030569263916,-1.0190723578082483,0.4487289786338806
1708437424.663758,-1.1348191499710083,-1.6654855213561,-2.5275703112231653,2.312694235438965,-1.0191267172442835,0.4487658143043518
1708437424.6657357,-1.1347899436950684,-1.6654650173582972,-2.5276270548449915,2.312722368831299,-1.0191505591021937,0.44873642921447754
1708437424.6677308,-1.1348135471343994,-1.6654650173582972,-2.527619187031881,2.3127760130115966,-1.0191052595721644,0.44871702790260315
1708437424.6697056,-1.1348397731781006,-1.665506502191061,-2.527628008519308,2.3127760130115966,-1.0190680662738245,0.4486973285675049
1708437424.6717062,-1.1347942352294922,-1.665490289727682,-2.5275703112231653,2.3127640920826416,-1.0191295782672327,0.44871705770492554
1708437424.673717,-1.1347856521606445,-1.6654449901976527,-2.527607504521505,2.312734528178833,-1.0191338698016565,0.4487135708332062
1708437424.6756756,-1.1348267793655396,-1.6654736004271449,-2.527644459401266,2.312739058131836,-1.0191133658038538,0.44873765110969543
1708437424.677675,-1.1348148584365845,-1.665398736993307,-2.527583662663595,2.3127757745930175,-1.0191429297076624,0.44873762130737305
1708437424.6797063,-1.1348350048065186,-1.6655107937254847,-2.527611796055929,2.3127268987843017,-1.0191457907306116,0.44875505566596985
1708437424.681676,-1.1347973346710205,-1.66542448619985,-2.527619187031881,2.312800808543823,-1.0191667715655726,0.4487004578113556
1708437424.6838286,-1.1348267793655396,-1.6653839550414027,-2.527623716984884,2.312694235438965,-1.0191205183612269,0.4487669765949249
1708437424.6857255,-1.1348423957824707,-1.665457387963766,-2.5275779406176966,2.3127683836170654,-1.019137207661764,0.4487048387527466
1708437424.6877077,-1.1348261833190918,-1.6654492817320765,-2.5275822321521204,2.3127922254749755,-1.019116226826803,0.44875073432922363
1708437424.6896935,-1.1348092555999756,-1.6654426060118617,-2.5276148954974573,2.312750979060791,-1.019186798726217,0.44867318868637085
1708437424.6917021,-1.134821891784668,-1.6654006443419398,-2.527591053639547,2.31276719152417,-1.019182030354635,0.44874635338783264
1708437424.6937075,-1.1348261833190918,-1.6653973064818324,-2.5275986830340784,2.312746449107788,-1.0191534201251429,0.44875073432922363
1708437424.6956997,-1.1349049806594849,-1.6653601131834925,-2.5276029745685022,2.312750979060791,-1.019165341054098,0.44864505529403687
1708437424.6977105,-1.1348624229431152,-1.6654054127135218,-2.527591053639547,2.31282822668042,-1.019186798726217,0.44871363043785095
1708437424.6996856,-1.1348674297332764,-1.6654097042479457,-2.527640167866842,2.312779112453125,-1.019128147755758,0.44867658615112305
1708437424.701677,-1.1348466873168945,-1.6654187641539515,-2.5275822321521204,2.312791271800659,-1.019182030354635,0.44872668385505676
1708437424.7036848,-1.1347886323928833,-1.6653734646239222,-2.5275748411761683,2.3128489690968017,-1.019156281148092,0.4486810266971588
1708437424.7056947,-1.1348423957824707,-1.6654187641539515,-2.5276063124286097,2.3128434854694824,-1.0191848913775843,0.448694109916687
1708437424.7077556,-1.1348261833190918,-1.665356298486227,-2.5276389757739466,2.3128151136585693,-1.0191357771502894,0.4487103223800659
1708437424.7096865,-1.1348543167114258,-1.665377756158346,-2.5275824705706995,2.3128391939350585,-1.0191734472857874,0.4487135708332062
1708437424.71168,-1.1348466873168945,-1.6653896770873011,-2.527619187031881,2.3128349024006347,-1.0191519896136683,0.4486731290817261
1708437424.713676,-1.1348423957824707,-1.6653973064818324,-2.527619187031881,2.3128554063984375,-1.019144360219137,0.4486699104309082
1708437424.7157028,-1.1348843574523926,-1.665356298486227,-2.527618471776144,2.312880440349243,-1.019198242818014,0.4486699402332306
1708437424.7177935,-1.1348087787628174,-1.6653944454588832,-2.5276475588427942,2.31284682332959,-1.0191734472857874,0.44861215353012085
1708437424.7196894,-1.1348217725753784,-1.665356775323385,-2.5276313463794153,2.312818689937256,-1.0192015806781214,0.4487146735191345
1708437424.721664,-1.134896159172058,-1.6653896770873011,-2.527656380330221,2.3128716188618164,-1.0191972891436976,0.44867753982543945
1708437424.7236807,-1.134871244430542,-1.6653653583922328,-2.527619187031881,2.3128480154224853,-1.0192130247699183,0.4486536979675293
1708437424.7256792,-1.1348992586135864,-1.6653405628600062,-2.5276642481433313,2.3128554063984375,-1.0192058722125452,0.4486897587776184
1708437424.727679,-1.1348798274993896,-1.6653653583922328,-2.5276148954974573,2.312864227885864,-1.019221607838766,0.44867753982543945
1708437424.729696,-1.1348991394042969,-1.6653787098326625,-2.5275748411761683,2.3128761488148193,-1.0192254225360315,0.4486940801143646
1708437424.731771,-1.1348581314086914,-1.6653315029540003,-2.5276475588427942,2.3128511148640136,-1.0192015806781214,0.4486624300479889
1708437424.7337372,-1.1348992586135864,-1.665356298486227,-2.5276270548449915,2.312814159984253,-1.0192506949054163,0.4486331641674042
1708437424.7357035,-1.1348755359649658,-1.665323873559469,-2.5276432673083704,2.3128761488148193,-1.0192254225360315,0.4486331641674042
1708437424.737697,-1.1348755359649658,-1.665332933465475,-2.5276270548449915,2.3128020006367187,-1.0192506949054163,0.4486861824989319
1708437424.7397022,-1.134833574295044,-1.665386816064352,-2.5275986830340784,2.3128349024006347,-1.0192039648639124,0.4486905336380005
1708437424.7416837,-1.134882926940918,-1.665352006951803,-2.5276029745685022,2.3128673273273925,-1.0192254225360315,0.4486450254917145
1708437424.7436857,-1.1348743438720703,-1.6653372249998988,-2.5276361147509974,2.3128151136585693,-1.0192373434649866,0.44864505529403687
1708437424.7456899,-1.1348786354064941,-1.665353914300436,-2.5276475588427942,2.312814159984253,-1.0192583242999476,0.4486699402332306
1708437424.7477007,-1.1348655223846436,-1.665316721002096,-2.5276029745685022,2.3128511148640136,-1.0192492643939417,0.4486905336380005
1708437424.749782,-1.1349067687988281,-1.6653744182982386,-2.5276148954974573,2.3128673273273925,-1.0192611853228968,0.4486699402332306
1708437424.7517686,-1.134849190711975,-1.665414949456686,-2.5275779406176966,2.3128349024006347,-1.019223992024557,0.44870278239250183
1708437424.7537,-1.134882926940918,-1.6653124294676722,-2.5276270548449915,2.312864227885864,-1.0192402044879358,0.4486134350299835
1708437424.755678,-1.1348992586135864,-1.665443559686178,-2.5276227633105677,2.3128055769154052,-1.0192773977862757,0.44862523674964905
1708437424.7577436,-1.1349024772644043,-1.665352006951803,-2.5276389757739466,2.3128434854694824,-1.019268814717428,0.4486296474933624
1708437424.7596912,-1.1349111795425415,-1.6653653583922328,-2.5276346842395228,2.3128511148640136,-1.0192611853228968,0.4486331343650818
1708437424.7616875,-1.1348581314086914,-1.6653453312315882,-2.52761418024172,2.31284682332959,-1.019285027180807,0.4486331343650818
1708437424.763698,-1.1348862648010254,-1.665358682672018,-2.5276511351214808,2.312854452724121,-1.0193012396441858,0.448637455701828
1708437424.7656913,-1.1348743438720703,-1.665414949456686,-2.5276432673083704,2.312842531795166,-1.0193145910846155,0.4486992657184601
1708437424.7676945,-1.1349067687988281,-1.665398736993307,-2.527646843587057,2.3128837782093505,-1.019280735646383,0.4486580491065979
1708437424.769666,-1.134894847869873,-1.6653944454588832,-2.5276299158679407,2.312838001842163,-1.019247833882467,0.44862091541290283
1708437424.771656,-1.1348743438720703,-1.6653124294676722,-2.527658764516012,2.312833710307739,-1.0193012396441858,0.4486536979675293
1708437424.773668,-1.1348861455917358,-1.6653691730894984,-2.5276344458209437,2.3128956991383056,-1.0192611853228968,0.448637455701828
1708437424.775692,-1.1349148750305176,-1.665361066857809,-2.527642552052633,2.31284682332959,-1.019296948109762,0.4486461877822876
1708437424.7776923,-1.1348581314086914,-1.6653086147704066,-2.5276721159564417,2.312842531795166,-1.0192435423480433,0.4486580193042755
1708437424.7796733,-1.1348905563354492,-1.665391584435934,-2.527674976979391,2.312858744258545,-1.019252125416891,0.4486787021160126
1708437424.7817085,-1.1349148750305176,-1.6653372249998988,-2.5276675860034388,2.3128794866749267,-1.0192778746234339,0.4485764503479004
1708437424.78375,-1.134919285774231,-1.6653701267638148,-2.527674976979391,2.3129002290913085,-1.019355599080221,0.4486536979675293
1708437424.7856941,-1.1348979473114014,-1.6653701267638148,-2.5277236143695276,2.312830610866211,-1.019268814717428,0.4486830234527588
1708437424.7877042,-1.134877324104309,-1.665349622766012,-2.52769118944277,2.31284682332959,-1.0193136374102991,0.4486537575721741
1708437424.7896852,-1.1348730325698853,-1.6653791866698207,-2.527691427861349,2.312870903606079,-1.0192926565753382,0.4486461877822876
1708437424.7916734,-1.1349024772644043,-1.665361066857809,-2.52771503130068,2.3129076200672607,-1.019280735646383,0.4486624598503113
1708437424.7937067,-1.1349148750305176,-1.665332933465475,-2.5277567545520228,2.3128959375568847,-1.0192793051349085,0.44859597086906433
1708437424.7956882,-1.1349267959594727,-1.665377756158346,-2.5276783148394983,2.312887116069458,-1.0192926565753382,0.4486580193042755
1708437424.7977223,-1.1349225044250488,-1.665386816064352,-2.527686897908346,2.312896891231201,-1.0193002859698694,0.4486624300479889
1708437424.7997103,-1.134898066520691,-1.665356775323385,-2.527698818837301,2.31284682332959,-1.0192926565753382,0.4486449956893921
1708437424.8017132,-1.1349105834960938,-1.665361066857809,-2.5277074019061487,2.312826080913208,-1.0193093458758753,0.44864621758461
1708437424.8037183,-1.1349267959594727,-1.665361066857809,-2.5277074019061487,2.3128673273273925,-1.01933461824526,0.4486667811870575
1708437424.805692,-1.1349356174468994,-1.6653372249998988,-2.52769118944277,2.3128794866749267,-1.0193136374102991,0.4486667811870575
1708437424.8077264,-1.1349387168884277,-1.6653415165343226,-2.527654472981588,2.3128666120716552,-1.019296948109762,0.4486536979675293
1708437424.8096771,-1.134975552558899,-1.665332933465475,-2.5276575724231165,2.3129045206257324,-1.0193212668048304,0.4486331343650818
1708437424.8117266,-1.1348979473114014,-1.665316721002096,-2.5276663939105433,2.3128837782093505,-1.0192959944354456,0.448637455701828
1708437424.8136785,-1.1349310874938965,-1.665332933465475,-2.527703110371725,2.3128465849110107,-1.0193255583392542,0.4486536979675293
1708437424.8156788,-1.1349430084228516,-1.665349622766012,-2.5276783148394983,2.312821789378784,-1.0193050543414515,0.4486536979675293
1708437424.8177278,-1.134947419166565,-1.6653453312315882,-2.5276663939105433,2.31290785848584,-1.0193255583392542,0.4486505091190338
1708437424.8196669,-1.1349148750305176,-1.665332933465475,-2.527740542088644,2.31284682332959,-1.0193494001971644,0.4486861824989319
1708437424.821685,-1.1349430084228516,-1.6653405628600062,-2.527682606373922,2.3128456312366943,-1.0193169752704065,0.4486504793167114
1708437424.8236933,-1.1349668502807617,-1.665353914300436,-2.527682606373922,2.3129002290913085,-1.0193288961993616,0.4486624300479889
1708437424.825694,-1.1348975896835327,-1.665323873559469,-2.5276621023761194,2.312891407603882,-1.0193331877337855,0.4486417770385742
1708437424.827718,-1.1349310874938965,-1.665321489373678,-2.527686897908346,2.3128956991383056,-1.0193746725665491,0.4486536681652069
1708437424.8296878,-1.1348774433135986,-1.665328165093893,-2.527654472981588,2.312870903606079,-1.0193288961993616,0.4486904740333557
1708437424.831673,-1.1349518299102783,-1.6653744182982386,-2.527703110371725,2.312903328532837,-1.0193494001971644,0.4486331343650818
1708437424.8337178,-1.1349343061447144,-1.6653124294676722,-2.527686897908346,2.312899036998413,-1.0193255583392542,0.448637455701828
1708437424.8356924,-1.1349018812179565,-1.6654240093626917,-2.527698818837301,2.312866373653076,-1.0193036238299769,0.4486580193042755
1708437424.8377252,-1.1349267959594727,-1.6653415165343226,-2.527670685444967,2.312882824535034,-1.0193613211261194,0.44861340522766113
1708437424.8397264,-1.1349506378173828,-1.6653734646239222,-2.527698818837301,2.312891407603882,-1.0193288961993616,0.4486504793167114
1708437424.8416975,-1.1349138021469116,-1.665349622766012,-2.52776009241213,2.312854214305542,-1.0193331877337855,0.44860032200813293
1708437424.8436942,-1.1349549293518066,-1.665356298486227,-2.5276663939105433,2.3128666120716552,-1.0193660894977015,0.4486505091190338
1708437424.8456998,-1.1349300146102905,-1.665300031701559,-2.52771503130068,2.3128956991383056,-1.0193584601031702,0.448608934879303
1708437424.8477242,-1.1349223852157593,-1.6653372249998988,-2.5277276674853724,2.312878294582031,-1.0193451086627405,0.4486417770385742
1708437424.8497586,-1.1349138021469116,-1.665386816064352,-2.527703110371725,2.3128456312366943,-1.0193241278277796,0.4486536681652069
1708437424.8517144,-1.1349356174468994,-1.665356298486227,-2.527698818837301,2.312903328532837,-1.0193122068988245,0.44860899448394775
1708437424.8537364,-1.1349225044250488,-1.665361066857809,-2.527698818837301,2.3128794866749267,-1.0193288961993616,0.4486418068408966
1708437424.8557158,-1.13493013381958,-1.6653701267638148,-2.527703110371725,2.312858744258545,-1.0193050543414515,0.4486374258995056
1708437424.8577354,-1.1349225044250488,-1.6653782329955042,-2.52771503130068,2.3129405218311767,-1.0193241278277796,0.44858843088150024
1708437424.8597114,-1.1349387168884277,-1.6653629742064417,-2.5276783148394983,2.312919779414795,-1.0193331877337855,0.44865912199020386
1708437424.8617473,-1.134934425354004,-1.665358682672018,-2.527698818837301,2.3129374223896484,-1.0193584601031702,0.4486493468284607
1708437424.8637352,-1.1349387168884277,-1.665353914300436,-2.527682606373922,2.3128577905842285,-1.0193494001971644,0.4486123323440552
1708437424.865709,-1.1349300146102905,-1.665332933465475,-2.5276857058154505,2.312919779414795,-1.0193212668048304,0.4486461877822876
1708437424.8677287,-1.1349668502807617,-1.6653415165343226,-2.527714554463522,2.3129069048115234,-1.0193079153644007,0.44862961769104004
1708437424.8696852,-1.1349300146102905,-1.6653415165343226,-2.5277438799487513,2.312915487880371,-1.0193122068988245,0.4486122727394104
1708437424.8716831,-1.13491690158844,-1.665316721002096,-2.527686897908346,2.312915487880371,-1.0193451086627405,0.4486580193042755
1708437424.87371,-1.1349256038665771,-1.6653505764403285,-2.527703110371725,2.3129023748585205,-1.0193255583392542,0.4486580193042755
1708437424.8756876,-1.1349537372589111,-1.665349622766012,-2.527752463017599,2.312936230296753,-1.0193050543414515,0.44862091541290283
1708437424.8777044,-1.134979486465454,-1.6653372249998988,-2.5276945273028772,2.31290785848584,-1.0193703810321253,0.448682963848114
1708437424.8796835,-1.1349549293518066,-1.6653415165343226,-2.527686897908346,2.312915487880371,-1.0193331877337855,0.4486536681652069
1708437424.8816757,-1.1349550485610962,-1.665353914300436,-2.5277438799487513,2.312943859691284,-1.0192959944354456,0.448637455701828
1708437424.8837461,-1.134958028793335,-1.6652804813780726,-2.52771503130068,2.3129560190388183,-1.0193374792682093,0.4486296474933624
1708437424.8857312,-1.1349375247955322,-1.6653415165343226,-2.527654472981588,2.3129514890858154,-1.0193451086627405,0.44862523674964905
1708437424.8877108,-1.1349537372589111,-1.6653415165343226,-2.527752463017599,2.3129100042530517,-1.0193780104266565,0.44862207770347595
1708437424.8897054,-1.1349300146102905,-1.6653133831419886,-2.527698818837301,2.3129591184803466,-1.0193169752704065,0.44862523674964905
1708437424.89169,-1.134962558746338,-1.6653043232359828,-2.527658764516012,2.31295029699292,-1.0193660894977015,0.4485960304737091
1708437424.8937051,-1.1349749565124512,-1.6653462849059046,-2.5277274290667933,2.3129591184803466,-1.0193288961993616,0.4486818313598633
1708437424.8957117,-1.1349706649780273,-1.665300031701559,-2.527698818837301,2.3129710394093017,-1.0193660894977015,0.44860467314720154
1708437424.8977249,-1.134995698928833,-1.6653744182982386,-2.5277236143695276,2.3130244451710205,-1.0193002859698694,0.4486417770385742
1708437424.8997195,-1.134983777999878,-1.6653462849059046,-2.5276945273028772,2.312938614482544,-1.0193079153644007,0.4486624002456665
1708437424.9016926,-1.1349706649780273,-1.665353914300436,-2.527703110371725,2.3129872518726806,-1.0193865934955042,0.4486786127090454
1708437424.903727,-1.134962558746338,-1.6653701267638148,-2.5277274290667933,2.312962456340454,-1.0193288961993616,0.44862088561058044
1708437424.9056847,-1.1349549293518066,-1.6653677425780238,-2.527682606373922,2.3129514890858154,-1.0193002859698694,0.4486123323440552
1708437424.907707,-1.134995698928833,-1.665321489373678,-2.527719322835104,2.312982960338257,-1.0193050543414515,0.4486417770385742
1708437424.9096963,-1.1349636316299438,-1.6653415165343226,-2.527698818837301,2.3129591184803466,-1.0193780104266565,0.4486536979675293
1708437424.9117322,-1.134983777999878,-1.6653043232359828,-2.527682606373922,2.312982960338257,-1.0193212668048304,0.4486667215824127
1708437424.9137068,-1.13499116897583,-1.665316721002096,-2.5276663939105433,2.3129710394093017,-1.0193570295916956,0.44862091541290283
1708437424.9156885,-1.1349300146102905,-1.665325780908102,-2.527743641530172,2.312962456340454,-1.0193122068988245,0.4486948847770691
1708437424.9177148,-1.1349749565124512,-1.665358682672018,-2.527686897908346,2.3129915434071044,-1.0193494001971644,0.4486536979675293
1708437424.9197023,-1.1349706649780273,-1.6653405628600062,-2.527698818837301,2.312934084529541,-1.0193584601031702,0.4486699402332306
1708437424.9216876,-1.1349549293518066,-1.6652924023070277,-2.527703110371725,2.3129872518726806,-1.0193331877337855,0.4486860930919647
1708437424.9237578,-1.1349549293518066,-1.665300031701559,-2.5276783148394983,2.312995119685791,-1.0193408171283167,0.44860148429870605
1708437424.9257152,-1.1349668502807617,-1.6653629742064417,-2.527710739766256,2.312950535411499,-1.0193527380572718,0.44863393902778625
1708437424.927751,-1.1349749565124512,-1.6653372249998988,-2.5277021566974085,2.312978668803833,-1.0193241278277796,0.4486047327518463
1708437424.9296892,-1.1349375247955322,-1.6653415165343226,-2.527674976979391,2.3129915434071044,-1.0193613211261194,0.4486829340457916
1708437424.931701,-1.134995698928833,-1.665325780908102,-2.5276945273028772,2.312988443965576,-1.0193613211261194,0.4486624300479889
1708437424.9337304,-1.1349537372589111,-1.665316721002096,-2.527670685444967,2.312917633647583,-1.0193703810321253,0.4486004114151001
1708437424.935741,-1.1349537372589111,-1.665332933465475,-2.5276783148394983,2.312978668803833,-1.0193494001971644,0.4486623704433441
1708437424.9377136,-1.1349999904632568,-1.6653362713255824,-2.527748171483175,2.312934084529541,-1.0193360487567347,0.4486374855041504
1708437424.9397173,-1.1349749565124512,-1.6652804813780726,-2.5277276674853724,2.3129753309437255,-1.0193122068988245,0.4486209452152252
1708437424.9416742,-1.134979486465454,-1.6653043232359828,-2.5276621023761194,2.312950535411499,-1.0193584601031702,0.44871148467063904
1708437424.9436975,-1.1349332332611084,-1.6653372249998988,-2.5276945273028772,2.312966747874878,-1.0193494001971644,0.4486786127090454
1708437424.9457107,-1.1349880695343018,-1.6653653583922328,-2.527731959019796,2.3129429060169677,-1.0193212668048304,0.44864508509635925
1708437424.9477065,-1.1349711418151855,-1.6653415165343226,-2.52771503130068,2.312921925182007,-1.0193198362933558,0.4486699402332306
1708437424.9498007,-1.1349668502807617,-1.665325780908102,-2.5277231375323694,2.312995119685791,-1.019362751637594,0.4486580193042755
1708437424.9517481,-1.134995698928833,-1.6653133831419886,-2.527719322835104,2.312966747874878,-1.0193241278277796,0.4486655592918396
1708437424.9537382,-1.134958028793335,-1.6653372249998988,-2.527703110371725,2.3130082327076416,-1.0193288961993616,0.44862961769104004
1708437424.9556856,-1.1349711418151855,-1.665279050866598,-2.5277610460864466,2.313007040614746,-1.0193422476397913,0.44860467314720154
1708437424.957694,-1.13499116897583,-1.6652761898436488,-2.527698818837301,2.3129264551350097,-1.0193241278277796,0.4486536979675293
1708437424.9596665,-1.134983777999878,-1.6653439007201136,-2.527703110371725,2.312946005458496,-1.0193198362933558,0.4486948251724243
1708437424.9616725,-1.1349825859069824,-1.6652971706786097,-2.5277231375323694,2.3129710394093017,-1.0193408171283167,0.4486536979675293
1708437424.9637387,-1.135007381439209,-1.6652833424010218,-2.527748171483175,2.3129634100147705,-1.0193169752704065,0.4486786127090454
1708437424.965679,-1.135011911392212,-1.6653176746764125,-2.5276945273028772,2.3129634100147705,-1.0193169752704065,0.4486536979675293
1708437424.9676852,-1.1349537372589111,-1.6652971706786097,-2.527719322835104,2.3129710394093017,-1.0193660894977015,0.4486166834831238
1708437424.9696803,-1.1349537372589111,-1.6653133831419886,-2.5277236143695276,2.312934084529541,-1.0193451086627405,0.4486493766307831
1708437424.97168,-1.1349550485610962,-1.6653133831419886,-2.527748171483175,2.312950535411499,-1.0193288961993616,0.4486580193042755
1708437424.9736903,-1.1350030899047852,-1.6653439007201136,-2.527710739766256,2.3129591184803466,-1.0193169752704065,0.44860899448394775
1708437424.9756758,-1.134962558746338,-1.6652804813780726,-2.527686897908346,2.312966747874878,-1.0193451086627405,0.448637455701828
1708437424.9776897,-1.1349706649780273,-1.6653462849059046,-2.5277074019061487,2.312954826945923,-1.0193732420550745,0.44862449169158936
1708437424.9796817,-1.1349987983703613,-1.6653176746764125,-2.52773625055422,2.3129429060169677,-1.0193331877337855,0.4486904442310333
1708437424.9816816,-1.1349987983703613,-1.665319105187887,-2.527719322835104,2.3129710394093017,-1.0193494001971644,0.4486417770385742
1708437424.9837046,-1.13499116897583,-1.6653043232359828,-2.527682606373922,2.312974377269409,-1.0193122068988245,0.4486941695213318
1708437424.985749,-1.135011911392212,-1.665300031701559,-2.5277274290667933,2.312934084529541,-1.0193198362933558,0.44862091541290283
1708437424.9877725,-1.1349669694900513,-1.665279050866598,-2.5276532808886927,2.312962456340454,-1.0193374792682093,0.4486699402332306
1708437424.9897463,-1.1350243091583252,-1.665330549279684,-2.5276663939105433,2.3129796224781494,-1.0193660894977015,0.44862446188926697
1708437424.991717,-1.1350157260894775,-1.6653372249998988,-2.527686897908346,2.3129264551350097,-1.0193494001971644,0.4486861824989319
1708437424.9936972,-1.1350111961364746,-1.6653133831419886,-2.5276857058154505,2.312966747874878,-1.0193169752704065,0.44864508509635925
1708437424.995719,-1.1349749565124512,-1.665382524529928,-2.5276737848864954,2.3130244451710205,-1.0193241278277796,0.4486331343650818
1708437424.9977784,-1.13499116897583,-1.6653057537474574,-2.5277074019061487,2.3129634100147705,-1.0193408171283167,0.4486656188964844
1708437424.9997432,-1.1350274085998535,-1.6653629742064417,-2.5277074019061487,2.312999411220215,-1.0193451086627405,0.44864505529403687
1708437425.0017107,-1.1350030899047852,-1.6652761898436488,-2.5277274290667933,2.312966747874878,-1.0193451086627405,0.4486079514026642
1708437425.0036964,-1.1349706649780273,-1.6653787098326625,-2.527670685444967,2.312969847316406,-1.0193422476397913,0.44864514470100403
1708437425.005709,-1.1350243091583252,-1.6653086147704066,-2.5276783148394983,2.3129710394093017,-1.0193732420550745,0.4486624300479889
1708437425.0076833,-1.1349987983703613,-1.6653224430479945,-2.5277062098132532,2.312995119685791,-1.0193241278277796,0.44865691661834717
1708437425.009731,-1.1350069046020508,-1.6653348408141078,-2.5277074019061487,2.312934084529541,-1.0193331877337855,0.4486861824989319
1708437425.0116754,-1.135061264038086,-1.665267129937643,-2.5276783148394983,2.312950535411499,-1.0193422476397913,0.44869840145111084
1708437425.0136888,-1.1350319385528564,-1.6653224430479945,-2.527654472981588,2.3129090505787353,-1.0193451086627405,0.4486656188964844
1708437425.0156763,-1.1350111961364746,-1.6653224430479945,-2.527703110371725,2.31301133214917,-1.0193494001971644,0.4486537277698517
1708437425.0176709,-1.1350111961364746,-1.665321489373678,-2.5277074019061487,2.312966747874878,-1.0193660894977015,0.44867756962776184
1708437425.0197299,-1.1350111961364746,-1.6653176746764125,-2.527710739766256,2.3129710394093017,-1.0193212668048304,0.44864514470100403
1708437425.02167,-1.1350436210632324,-1.6652714214720667,-2.527686897908346,2.3130363660999755,-1.0193613211261194,0.44864508509635925
1708437425.0236719,-1.1350243091583252,-1.6652733288206996,-2.5276663939105433,2.3129872518726806,-1.0193212668048304,0.4486810564994812
1708437425.0256944,-1.1350067853927612,-1.6652804813780726,-2.527682606373922,2.312982960338257,-1.0193331877337855,0.44866129755973816
1708437425.027696,-1.1349856853485107,-1.6653176746764125,-2.5276737848864954,2.3130244451710205,-1.0193422476397913,0.44870591163635254
1708437425.0296934,-1.1350200176239014,-1.6653133831419886,-2.527703110371725,2.3130571085163574,-1.0193746725665491,0.44867315888404846
1708437425.0316844,-1.1350111961364746,-1.6652733288206996,-2.527686897908346,2.3129255014606933,-1.0193288961993616,0.4487188756465912
1708437425.0337055,-1.1349856853485107,-1.6653043232359828,-2.527703110371725,2.3130082327076416,-1.0193331877337855,0.4486940801143646
1708437425.0357172,-1.1349982023239136,-1.6652399502196253,-2.527703110371725,2.312950535411499,-1.0193002859698694,0.44866132736206055
1708437425.0377192,-1.1349899768829346,-1.6653014622130335,-2.52769118944277,2.312995119685791,-1.0193451086627405,0.4486854076385498
1708437425.0397298,-1.1350274085998535,-1.6653553448119105,-2.5276499430285853,2.3129591184803466,-1.0193002859698694,0.4486767053604126
1708437425.0417147,-1.1349812746047974,-1.6653133831419886,-2.5277074019061487,2.312929792995117,-1.0193093458758753,0.4486904442310333
1708437425.0437071,-1.1350319385528564,-1.6652733288206996,-2.527658526097433,2.312974377269409,-1.0193331877337855,0.4486645460128784
1708437425.04571,-1.1350599527359009,-1.6652852497496546,-2.527670685444967,2.3130201536365966,-1.0193331877337855,0.44866567850112915
1708437425.0477123,-1.1350393295288086,-1.6653348408141078,-2.527703110371725,2.312957926387451,-1.0193374792682093,0.4486731290817261
1708437425.0497565,-1.1350111961364746,-1.6653105221190394,-2.527698818837301,2.3130125242420654,-1.0193494001971644,0.4486853778362274
1708437425.0517645,-1.1350069046020508,-1.6653176746764125,-2.527698818837301,2.312974377269409,-1.0193050543414515,0.44867318868637085
1708437425.053719,-1.1350512504577637,-1.6652971706786097,-2.527670685444967,2.3130244451710205,-1.0193288961993616,0.4486810863018036
1708437425.0557077,-1.1350157260894775,-1.6652566395201625,-2.5276458899127405,2.312954826945923,-1.0193255583392542,0.4486656188964844
1708437425.057727,-1.1350469589233398,-1.6652895412840785,-2.527698818837301,2.312966747874878,-1.0193122068988245,0.4486493766307831
1708437425.059718,-1.1350111961364746,-1.6652237377562464,-2.527674976979391,2.312995119685791,-1.0192878882037562,0.4486972987651825
1708437425.0617058,-1.1350231170654297,-1.6653439007201136,-2.527719322835104,2.3129634100147705,-1.0193255583392542,0.44865694642066956
1708437425.0637064,-1.135043740272522,-1.6652351818480433,-2.527686897908346,2.313007040614746,-1.0193093458758753,0.4486972987651825
1708437425.0657125,-1.1350188255310059,-1.6653057537474574,-2.5276997725116175,2.31297413885083,-1.0193613211261194,0.4487548768520355
1708437425.067725,-1.134953260421753,-1.6653639278807582,-2.5277074019061487,2.312990828151367,-1.0193541685687464,0.44870591163635254
1708437425.069696,-1.135043740272522,-1.6652475796141566,-2.5276954809771937,2.312969847316406,-1.0192835966693323,0.44867753982543945
1708437425.0716815,-1.1350144147872925,-1.6653391323485316,-2.5277119318591517,2.3129872518726806,-1.0193050543414515,0.4486810863018036
1708437425.073695,-1.1350231170654297,-1.6652823887267054,-2.5276456514941614,2.3129753309437255,-1.0193212668048304,0.4487387239933014
1708437425.0756922,-1.1349942684173584,-1.6652823887267054,-2.5277281443225306,2.3130320745655517,-1.0192926565753382,0.4486972987651825
1708437425.077688,-1.1349693536758423,-1.6653462849059046,-2.527703110371725,2.312986298198364,-1.0193184057818812,0.4487386643886566
1708437425.0796876,-1.1350111961364746,-1.6653148136534632,-2.52771503130068,2.3129872518726806,-1.019268814717428,0.4486929178237915
1708437425.0816946,-1.1350394487380981,-1.6653105221190394,-2.5277074019061487,2.312974377269409,-1.0193465391742151,0.448738694190979
1708437425.083694,-1.1350111961364746,-1.6653391323485316,-2.527670447026388,2.312999411220215,-1.0192731062518519,0.44873762130737305
1708437425.0857255,-1.1350069046020508,-1.6652971706786097,-2.527658764516012,2.31301133214917,-1.0192983786212366,0.4487135410308838
1708437425.087776,-1.1350836753845215,-1.6652475796141566,-2.527698818837301,2.313007040614746,-1.0192731062518519,0.4486972987651825
1708437425.0897098,-1.134981393814087,-1.6652656994261683,-2.5276294390307825,2.3130573469349365,-1.019280735646383,0.44870486855506897
1708437425.0917125,-1.1350263357162476,-1.6652595005431117,-2.5277119318591517,2.312966747874878,-1.019285027180807,0.4486766457557678
1708437425.093725,-1.135002613067627,-1.6653057537474574,-2.527719322835104,2.313023253078125,-1.0193060080157679,0.44868436455726624
1708437425.0957046,-1.1350350379943848,-1.6653028927245082,-2.527703110371725,2.312995119685791,-1.0192983786212366,0.4487127959728241
1708437425.09771,-1.1349899768829346,-1.6652308903136195,-2.5276346842395228,2.3129872518726806,-1.0192449728595179,0.4487135410308838
1708437425.0997238,-1.1350436210632324,-1.6653028927245082,-2.527698818837301,2.3130156236835937,-1.0192893187152308,0.44875815510749817
1708437425.1017368,-1.1350350379943848,-1.6653224430479945,-2.5276663939105433,2.312966747874878,-1.0192773977862757,0.4487452507019043
1708437425.103747,-1.135043740272522,-1.6653057537474574,-2.52771503130068,2.312957926387451,-1.0192535559283655,0.4488028287887573
1708437425.1057346,-1.1349982023239136,-1.6652895412840785,-2.5276575724231165,2.312990828151367,-1.0192654768573206,0.4488028883934021
1708437425.1076946,-1.1350350379943848,-1.6653014622130335,-2.527686897908346,2.3130287367054443,-1.0192330519305628,0.4488429129123688
1708437425.1096828,-1.1350101232528687,-1.6653133831419886,-2.5277119318591517,2.3129796224781494,-1.0192492643939417,0.44880175590515137
1708437425.1116765,-1.1350188255310059,-1.6652685604491175,-2.527679506932394,2.313015862102173,-1.0192773977862757,0.44878455996513367
1708437425.1136851,-1.1350263357162476,-1.6653176746764125,-2.52769118944277,2.312999411220215,-1.0192864576922815,0.44878455996513367
1708437425.115837,-1.1350761651992798,-1.6653133831419886,-2.527682606373922,2.3129591184803466,-1.0192449728595179,0.44881370663642883
1708437425.117722,-1.1349982023239136,-1.6652852497496546,-2.527719322835104,2.312990828151367,-1.0192163626300257,0.4488753378391266
1708437425.119696,-1.1350393295288086,-1.665325780908102,-2.5276501814471644,2.3130406576343994,-1.0192373434649866,0.44881799817085266
1708437425.1216962,-1.1350058317184448,-1.6653391323485316,-2.527654472981588,2.312999411220215,-1.0192821661578577,0.448805034160614
1708437425.1236894,-1.1350350379943848,-1.6653224430479945,-2.5276511351214808,2.312946005458496,-1.0192163626300257,0.4488385319709778
1708437425.1256902,-1.1350350379943848,-1.6652733288206996,-2.527674976979391,2.312978668803833,-1.0192492643939417,0.4487769305706024
1708437425.12771,-1.135055661201477,-1.6652866802611292,-2.5276621023761194,2.313007040614746,-1.0192163626300257,0.4488256275653839
1708437425.1296835,-1.1350469589233398,-1.6652642689146937,-2.527646843587057,2.312974377269409,-1.0192654768573206,0.44881367683410645
1708437425.131688,-1.1350188255310059,-1.6653057537474574,-2.527670685444967,2.3129753309437255,-1.0192449728595179,0.4488255977630615
1708437425.1337283,-1.1350306272506714,-1.6653057537474574,-2.5276835600482386,2.312954826945923,-1.0192402044879358,0.4487888514995575
1708437425.135693,-1.1350231170654297,-1.6652823887267054,-2.527682606373922,2.3129536348530273,-1.0192087332354944,0.44882991909980774
1708437425.137726,-1.1350469589233398,-1.6652823887267054,-2.5276663939105433,2.3129872518726806,-1.0192821661578577,0.4488093852996826
1708437425.1397026,-1.1350350379943848,-1.6652852497496546,-2.527707640324728,2.3129872518726806,-1.0192449728595179,0.4488332271575928
1708437425.14171,-1.135014533996582,-1.6652804813780726,-2.5276663939105433,2.312950535411499,-1.0192821661578577,0.44886666536331177
1708437425.1437004,-1.1350188255310059,-1.6653105221190394,-2.527658764516012,2.3129872518726806,-1.0192535559283655,0.44878455996513367
1708437425.1457028,-1.134989619255066,-1.665325780908102,-2.527670685444967,2.3129872518726806,-1.0192535559283655,0.448874294757843
1708437425.1477509,-1.1350350379943848,-1.6653133831419886,-2.5277238527881067,2.3130320745655517,-1.0192464033709925,0.44886231422424316
1708437425.1497455,-1.1350111961364746,-1.6652761898436488,-2.527724329625265,2.31295029699292,-1.0192039648639124,0.4488050937652588
1708437425.1517437,-1.1350144147872925,-1.6652566395201625,-2.5276663939105433,2.3130037027546386,-1.0192416349994105,0.44881701469421387
1708437425.1537597,-1.135043740272522,-1.6653391323485316,-2.5276716391192835,2.312966747874878,-1.0192087332354944,0.4488213062286377
1708437425.1557117,-1.1350350379943848,-1.6652971706786097,-2.527658764516012,2.3129710394093017,-1.0192626158343714,0.44884613156318665
1708437425.1577234,-1.1350350379943848,-1.6652895412840785,-2.5276663939105433,2.312941713924072,-1.0192330519305628,0.4488007724285126
1708437425.159703,-1.1350032091140747,-1.6653224430479945,-2.527703110371725,2.312974377269409,-1.0192449728595179,0.4488375186920166
1708437425.1616957,-1.1350393295288086,-1.6653372249998988,-2.5276172796832483,2.3130244451710205,-1.0192583242999476,0.448886513710022
1708437425.1637151,-1.135030746459961,-1.6653224430479945,-2.527646843587057,2.3130201536365966,-1.0192831198321741,0.4488418400287628
1708437425.1657,-1.134994387626648,-1.6652971706786097,-2.5276792685138147,2.312913342113159,-1.0192492643939417,0.44881269335746765
1708437425.1677303,-1.135055661201477,-1.6653415165343226,-2.527670685444967,2.312938614482544,-1.0192583242999476,0.4488213062286377
1708437425.1697035,-1.1350481510162354,-1.6653176746764125,-2.5276954809771937,2.3129960733601074,-1.0192416349994105,0.448874294757843
1708437425.1717083,-1.1349693536758423,-1.6652804813780726,-2.5277281443225306,2.3129634100147705,-1.0192330519305628,0.44879648089408875
1708437425.173717,-1.135002613067627,-1.6653224430479945,-2.527707640324728,2.3129634100147705,-1.0191925207721155,0.4488332271575928
1708437425.175715,-1.1349899768829346,-1.6653348408141078,-2.5276499430285853,2.312950535411499,-1.0192611853228968,0.44884514808654785
1708437425.1777012,-1.1350644826889038,-1.6653133831419886,-2.5276792685138147,2.3129753309437255,-1.0192297140704554,0.4488255977630615
1708437425.1796918,-1.1349942684173584,-1.6652852497496546,-2.527658764516012,2.3129915434071044,-1.0192211310016077,0.44881269335746765
1708437425.1816967,-1.1350069046020508,-1.6653763256468714,-2.5276618639575403,2.3129677015491943,-1.0192163626300257,0.44881269335746765
1708437425.183744,-1.1350111961364746,-1.6652971706786097,-2.5276792685138147,2.312939329738281,-1.0192416349994105,0.4488202929496765
1708437425.1857972,-1.135014533996582,-1.6653086147704066,-2.5276346842395228,2.3129100042530517,-1.0192211310016077,0.44886136054992676
1708437425.1877196,-1.1350157260894775,-1.6653176746764125,-2.5276663939105433,2.3129429060169677,-1.0192254225360315,0.4488375186920166
1708437425.189723,-1.1350481510162354,-1.665325780908102,-2.527663056050436,2.3129753309437255,-1.0192130247699183,0.448840856552124
1708437425.191726,-1.1349825859069824,-1.6652733288206996,-2.52769118944277,2.312905712718628,-1.0191996733294886,0.4488699436187744
1708437425.1937451,-1.1350120306015015,-1.6652399502196253,-2.5276792685138147,2.312955780620239,-1.0192297140704554,0.4488984942436218
1708437425.1957097,-1.1349868774414062,-1.6653391323485316,-2.527674976979391,2.3129471975513916,-1.0192583242999476,0.44885706901550293
1708437425.197702,-1.1350111961364746,-1.6653014622130335,-2.5276621023761194,2.312921925182007,-1.0192583242999476,0.44889742136001587
1708437425.1997144,-1.1350067853927612,-1.6652881107726039,-2.5277043024646204,2.3129753309437255,-1.0192211310016077,0.44882890582084656
1708437425.2017446,-1.1349825859069824,-1.6653596363463343,-2.5276954809771937,2.3129264551350097,-1.0191882292376917,0.44886136054992676
1708437425.2036812,-1.1350157260894775,-1.6653415165343226,-2.5276954809771937,2.3129231172749023,-1.0192211310016077,0.44887423515319824
1708437425.2056887,-1.1350075006484985,-1.6653462849059046,-2.527654472981588,2.3129677015491943,-1.0192130247699183,0.44881585240364075
1708437425.2076843,-1.1350075006484985,-1.665321489373678,-2.527703110371725,2.312976523036621,-1.0192416349994105,0.4488973915576935
1708437425.209733,-1.1349706649780273,-1.665361066857809,-2.5276835600482386,2.3128902155109863,-1.0192583242999476,0.4488907754421234
1708437425.2116995,-1.1350042819976807,-1.6653629742064417,-2.5276954809771937,2.3129100042530517,-1.0192211310016077,0.4488973319530487
1708437425.2136776,-1.1349256038665771,-1.665321489373678,-2.527674976979391,2.3128654199787597,-1.0192535559283655,0.4488811492919922
1708437425.215691,-1.134958028793335,-1.6653086147704066,-2.527703110371725,2.312920017833374,-1.0192044417010706,0.4489016532897949
1708437425.2176778,-1.134962558746338,-1.6653744182982386,-2.527618471776144,2.312943859691284,-1.0192907492267054,0.4489016830921173
1708437425.219717,-1.1350129842758179,-1.665300031701559,-2.527670685444967,2.312964602107666,-1.0192535559283655,0.4489060938358307
1708437425.2216756,-1.134962558746338,-1.6653701267638148,-2.5276835600482386,2.312927408809326,-1.0192254225360315,0.44888871908187866
1708437425.2236814,-1.1349223852157593,-1.665349622766012,-2.527707640324728,2.312858744258545,-1.0192535559283655,0.4489016830921173
1708437425.2256813,-1.13493013381958,-1.6653133831419886,-2.527658764516012,2.312854214305542,-1.0191953817950647,0.44890519976615906
1708437425.2276976,-1.1349549293518066,-1.6653720341124476,-2.52769118944277,2.312854214305542,-1.0192416349994105,0.44894641637802124
1708437425.2296786,-1.1349267959594727,-1.6653043232359828,-2.5276673475848597,2.312793417567871,-1.0192535559283655,0.44889238476753235
1708437425.231672,-1.1349430084228516,-1.665316721002096,-2.5277279059039515,2.312864227885864,-1.019226376210348,0.4489366114139557
1708437425.233677,-1.1349310874938965,-1.6653133831419886,-2.5276954809771937,2.312847777003906,-1.0192654768573206,0.4489247798919678
1708437425.23573,-1.1349225044250488,-1.665295263329977,-2.527642313634054,2.3128151136585693,-1.0192907492267054,0.44895753264427185
1708437425.2377455,-1.1348893642425537,-1.6653629742064417,-2.5277119318591517,2.312750979060791,-1.0192549864398401,0.4489247798919678
1708437425.2397203,-1.1349194049835205,-1.6653057537474574,-2.52763802209963,2.312791271800659,-1.0192254225360315,0.4489365816116333
1708437425.2417102,-1.1349105834960938,-1.6653348408141078,-2.527707640324728,2.312758608455322,-1.0192416349994105,0.44891613721847534
1708437425.2436771,-1.1348817348480225,-1.66528381923818,-2.527682606373922,2.3127869802662353,-1.0192130247699183,0.4489365518093109
1708437425.245701,-1.1348862648010254,-1.6653629742064417,-2.5276511351214808,2.312770290965698,-1.0192416349994105,0.44896507263183594
1708437425.2477217,-1.1348905563354492,-1.665325780908102,-2.5276663939105433,2.312758370036743,-1.0192211310016077,0.44897696375846863
1708437425.2497525,-1.1348624229431152,-1.6653744182982386,-2.5276792685138147,2.3127869802662353,-1.0192654768573206,0.44897374510765076
1708437425.2517772,-1.1348743438720703,-1.665300031701559,-2.5276954809771937,2.3127497869678955,-1.0192535559283655,0.44898122549057007
1708437425.253701,-1.134894847869873,-1.665358682672018,-2.527686897908346,2.3127049642750244,-1.0191929976092737,0.4489607512950897
1708437425.2557044,-1.1348292827606201,-1.6653453312315882,-2.527686897908346,2.312730236644409,-1.0192449728595179,0.4489445388317108
1708437425.2577002,-1.134871244430542,-1.6653372249998988,-2.5276511351214808,2.31270615636792,-1.0192416349994105,0.44900187849998474
1708437425.2596912,-1.134866714477539,-1.665353914300436,-2.5277162233935755,2.3127354818531494,-1.0192163626300257,0.44893163442611694
1708437425.2616916,-1.1348586082458496,-1.665349622766012,-2.5276337305652063,2.312711639995239,-1.0191839377032679,0.44900184869766235
1708437425.2636957,-1.1348381042480469,-1.6653653583922328,-2.5276954809771937,2.3127354818531494,-1.0192626158343714,0.44894352555274963
1708437425.2657006,-1.1348423957824707,-1.665358682672018,-2.527658764516012,2.312699480647705,-1.0192330519305628,0.44900864362716675
1708437425.2677205,-1.1348392963409424,-1.6653148136534632,-2.527642552052633,2.3126789766499023,-1.0192044417010706,0.4489758610725403
1708437425.2697024,-1.1348180770874023,-1.665356298486227,-2.527654472981588,2.312634153957031,-1.0192254225360315,0.4490422010421753
1708437425.2716908,-1.134785532951355,-1.665410657922262,-2.5276792685138147,2.312671347255371,-1.0192130247699183,0.44900867342948914
1708437425.2737162,-1.1347942352294922,-1.6654077968993128,-2.527630392705099,2.312671347255371,-1.0192373434649866,0.4490334987640381
1708437425.2756913,-1.1347540616989136,-1.6652990780272425,-2.5276954809771937,2.312675638789795,-1.0191972891436976,0.4489845335483551
1708437425.2776947,-1.134745478630066,-1.665328165093893,-2.527658764516012,2.312671347255371,-1.0192506949054163,0.44895970821380615
1708437425.2796764,-1.1347328424453735,-1.665361066857809,-2.5276673475848597,2.3126396375843505,-1.0192416349994105,0.44904083013534546
1708437425.2816777,-1.134758472442627,-1.665356298486227,-2.527630392705099,2.3126353460499267,-1.0192330519305628,0.4490322172641754
1708437425.2837012,-1.1346967220306396,-1.6653896770873011,-2.527646843587057,2.312537117595337,-1.0192492643939417,0.4490000903606415
1708437425.285713,-1.134714126586914,-1.6654187641539515,-2.527674976979391,2.31258408605542,-1.0192416349994105,0.4490163326263428
1708437425.2877035,-1.1346893310546875,-1.6653782329955042,-2.5276792685138147,2.312542601222656,-1.0192254225360315,0.44904446601867676
1708437425.2896893,-1.1346936225891113,-1.6653810940184535,-2.527663056050436,2.31258408605542,-1.0192163626300257,0.4490163028240204
1708437425.2917058,-1.1346197128295898,-1.6654254398741664,-2.5276716391192835,2.312490387553833,-1.0192254225360315,0.44906938076019287
1708437425.2937095,-1.1346827745437622,-1.6654168568053187,-2.527625862752096,2.31246201574292,-1.0192254225360315,0.44909775257110596
1708437425.2957103,-1.134583830833435,-1.6654530964293421,-2.527646843587057,2.3124140936085205,-1.0192506949054163,0.4491215944290161
1708437425.2977145,-1.134588599205017,-1.6655346355833949,-2.5276954809771937,2.3124632078358154,-1.0192254225360315,0.44910097122192383
1708437425.2997088,-1.1345691680908203,-1.6654092274107875,-2.5276337305652063,2.312374992961548,-1.0192626158343714,0.44908806681632996
1708437425.3016946,-1.1346015930175781,-1.665497442285055,-2.5276716391192835,2.312337799663208,-1.0192788282977503,0.44912052154541016
1708437425.3036869,-1.1345415115356445,-1.6655360660948695,-2.5276499430285853,2.3123463827320556,-1.0191839377032679,0.44911181926727295
1708437425.3056927,-1.1345038414001465,-1.6655408344664515,-2.527674976979391,2.312298460597656,-1.0192254225360315,0.44919005036354065
1708437425.3077333,-1.134533405303955,-1.6655498943724574,-2.5276954809771937,2.312347574824951,-1.0192282835589808,0.44918572902679443
1708437425.309692,-1.1344890594482422,-1.6655198536314906,-2.52769118944277,2.3122593599506835,-1.0192039648639124,0.4491770565509796
1708437425.311685,-1.1344902515411377,-1.6655484638609828,-2.527658764516012,2.3122429090687255,-1.019240681325094,0.44915971159935
1708437425.3137033,-1.1344363689422607,-1.6656142673888148,-2.5277119318591517,2.312187357539795,-1.0192773977862757,0.44922927021980286
1708437425.315672,-1.1344044208526611,-1.665600915948385,-2.5277119318591517,2.31217543661084,-1.0192611853228968,0.4491676986217499
1708437425.3176954,-1.1344044208526611,-1.6656085453429164,-2.527686897908346,2.3121513563343505,-1.0192816893206995,0.4492577314376831
1708437425.3196669,-1.134385108947754,-1.665678163568014,-2.527663056050436,2.312152310008667,-1.0192373434649866,0.4492534399032593
1708437425.3216903,-1.1343238353729248,-1.6656447849669398,-2.5276554266559046,2.3120390611835937,-1.0192492643939417,0.44926097989082336
1708437425.3236783,-1.1343001127243042,-1.665708681146139,-2.5276554266559046,2.3120388227650146,-1.0192492643939417,0.4492553472518921
1708437425.325668,-1.1342755556106567,-1.6657420597472132,-2.5276673475848597,2.3119985300251464,-1.0192669073687952,0.4492437541484833
1708437425.3277063,-1.1342201232910156,-1.6657659016051234,-2.5276337305652063,2.311971350307129,-1.01915151277651,0.44932520389556885
1708437425.3296914,-1.1342449188232422,-1.6657287083067835,-2.527663056050436,2.3119475084492187,-1.0191972891436976,0.44930434226989746
1708437425.3316827,-1.134122371673584,-1.6657806835570277,-2.5277116934405726,2.3118907648273925,-1.0192549864398401,0.44931983947753906
1708437425.3337057,-1.1341400146484375,-1.6657854519286097,-2.5277040640460413,2.311854763621948,-1.0192626158343714,0.44940125942230225
1708437425.335779,-1.1340829133987427,-1.6658088169493617,-2.527663056050436,2.3118395048328857,-1.0192130247699183,0.4493925869464874
1708437425.3377059,-1.1340467929840088,-1.665828367272848,-2.527654472981588,2.3117992120930175,-1.0192254225360315,0.44943612813949585
1708437425.3396988,-1.1339447498321533,-1.6658603153624476,-2.5276880900012415,2.3117760854908447,-1.0192506949054163,0.4494361877441406
1708437425.3417048,-1.1339384317398071,-1.6659170589842738,-2.5276880900012415,2.3116988378712158,-1.0191996733294886,0.44947218894958496
1708437425.343713,-1.133894681930542,-1.665907999078268,-2.5276172796832483,2.3116466242023925,-1.0192330519305628,0.4495112895965576
1708437425.345727,-1.1338391304016113,-1.665919920007223,-2.527663056050436,2.311664028758667,-1.0192163626300257,0.44953280687332153
1708437425.3477032,-1.1337615251541138,-1.665988107720846,-2.5276063124286097,2.311602993602417,-1.0192211310016077,0.4495764672756195
1708437425.3497143,-1.1337008476257324,-1.6660496197142542,-2.5276554266559046,2.31155173360791,-1.0192416349994105,0.4495558738708496
1708437425.3517504,-1.1336946487426758,-1.6660362682738246,-2.5277116934405726,2.3115243154713134,-1.0192015806781214,0.4495667517185211
1708437425.3537247,-1.1336058378219604,-1.666067739526266,-2.527630392705099,2.311427517528198,-1.0192535559283655,0.4496319591999054
1708437425.355728,-1.1335495710372925,-1.6661039791502894,-2.527646843587057,2.311370773906372,-1.0192211310016077,0.4496398866176605
1708437425.3577142,-1.133538842201233,-1.6661740742125453,-2.5276597181903284,2.3113316732593994,-1.0192254225360315,0.4496723413467407
1708437425.359691,-1.133461833000183,-1.6662179432311,-2.527663056050436,2.311190052623413,-1.0191805998431605,0.4497007727622986
1708437425.3616977,-1.133352279663086,-1.6661879024901332,-2.5276182333575647,2.311175747508667,-1.0192015806781214,0.44973641633987427
1708437425.3637028,-1.1333085298538208,-1.6662355862059535,-2.5276270548449915,2.3110872942158203,-1.0192058722125452,0.44971126317977905
1708437425.3657067,-1.1332597732543945,-1.666276594201559,-2.5276346842395228,2.311022921199463,-1.0192344824420374,0.449780136346817
1708437425.367715,-1.133183479309082,-1.6663090191283167,-2.5276554266559046,2.3109347063251953,-1.0192506949054163,0.44977471232414246
1708437425.369701,-1.1331323385238647,-1.6663195095457972,-2.5276673475848597,2.310882492656372,-1.0191972891436976,0.4498237371444702
1708437425.3716927,-1.1330757141113281,-1.6664000950255335,-2.527642075215475,2.310795231456421,-1.0192130247699183,0.44987595081329346
1708437425.3737228,-1.1329877376556396,-1.666408201257223,-2.527663056050436,2.3107103544422607,-1.0192058722125452,0.44989213347435
1708437425.3757167,-1.1329115629196167,-1.6664678059019984,-2.5276270548449915,2.3106960493275146,-1.0191476980792444,0.44996389746665955
1708437425.37773,-1.1328926086425781,-1.6664616070189417,-2.5276344458209437,2.3106412130543212,-1.0191777388202112,0.44991424679756165
1708437425.3796945,-1.1327600479125977,-1.66656555751943,-2.52757174173464,2.310483379954956,-1.0191777388202112,0.4499824047088623
1708437425.3817093,-1.1327075958251953,-1.6666127643980921,-2.5276721159564417,2.3104538160511474,-1.019186798726217,0.4499934911727905
1708437425.3855605,-1.132562518119812,-1.6666323147215785,-2.5276601950274866,2.3101934629627685,-1.019186798726217,0.4500424861907959
1708437425.3877628,-1.1324009895324707,-1.6667491398253382,-2.5275657812701624,2.310098810786865,-1.0191133658038538,0.45019134879112244
1708437425.3897333,-1.1323002576828003,-1.6667596302428187,-2.5276103655444544,2.3100320535847167,-1.0190961996661585,0.45022711157798767
1708437425.391707,-1.1322251558303833,-1.66679110149526,-2.5275865236865442,2.309891386623047,-1.0190919081317347,0.4502054750919342
1708437425.3937507,-1.132108211517334,-1.6668759785094203,-2.527579132710592,2.309819384212158,-1.0191219488727015,0.45033520460128784
1708437425.3957205,-1.131980061531067,-1.6668945751585902,-2.5276029745685022,2.309715910548828,-1.0190680662738245,0.45037877559661865
1708437425.3977284,-1.1319330930709839,-1.666943689385885,-2.527558151875631,2.3095754820057373,-1.0191267172442835,0.45044267177581787
1708437425.3997493,-1.131783127784729,-1.6669990024962367,-2.527583662663595,2.309504194850586,-1.0190938154803675,0.45046135783195496
1708437425.401685,-1.1316717863082886,-1.6670605144896449,-2.5275593439685267,2.309347553844116,-1.0190938154803675,0.450513631105423
1708437425.4037209,-1.1315635442733765,-1.6671277485289515,-2.5276039282428187,2.3092190462299804,-1.0190981070147913,0.4505820572376251
1708437425.4057014,-1.131462812423706,-1.6671792469420375,-2.5275505224811,2.3091444212147216,-1.0191009680377405,0.4506874680519104
1708437425.4077253,-1.1312763690948486,-1.6672355137267054,-2.5275264422046106,2.309016152019165,-1.0190237204181116,0.4506986141204834
1708437425.4097137,-1.1312317848205566,-1.667311807672018,-2.5275266806231897,2.3088721471973876,-1.0190618673907679,0.45072051882743835
1708437425.4116838,-1.1310691833496094,-1.6673585377135218,-2.527527634297506,2.3087805944630126,-1.0190947691546839,0.4508538842201233
1708437425.4137664,-1.1309326887130737,-1.6673971615233363,-2.5275593439685267,2.308612509364746,-1.0190532843219202,0.45090609788894653
1708437425.4157164,-1.1308408975601196,-1.6674915752806605,-2.5275383631335657,2.3084568220325927,-1.018996540700094,0.45092928409576416
1708437425.417726,-1.1306921243667603,-1.6675292454161585,-2.5275028387652796,2.308339996928833,-1.0190141836749476,0.45098045468330383
1708437425.4197083,-1.1305482387542725,-1.66758455852651,-2.527466599141256,2.3081959921070556,-1.0190427939044397,0.4510935842990875
1708437425.421719,-1.130439281463623,-1.6676646671690882,-2.527510468159811,2.308042450542114,-1.0190098921405237,0.4511415660381317
1708437425.4237258,-1.1303517818450928,-1.6677552662291468,-2.527489725743429,2.307875795955322,-1.0189603010760706,0.4512046277523041
1708437425.4256873,-1.1301653385162354,-1.6677938900389613,-2.5275190512286585,2.307731791133545,-1.019006077443258,0.45130446553230286
1708437425.4277503,-1.1300249099731445,-1.6678735218443812,-2.5275519529925745,2.3075880247303466,-1.0189736525165003,0.4513319134712219
1708437425.4296856,-1.1298766136169434,-1.667919775048727,-2.527527634297506,2.3074864584156494,-1.018966023121969,0.4514169692993164
1708437425.4317005,-1.1297332048416138,-1.6680547199644984,-2.527527634297506,2.307309313411377,-1.0189779440509241,0.45143458247184753
1708437425.4337165,-1.129568099975586,-1.6680628261961878,-2.5275309721576136,2.3071607786365966,-1.018937889729635,0.4515681266784668
1708437425.4357708,-1.1294538974761963,-1.6682220898070277,-2.5275233427630823,2.306915207500122,-1.018975083027975,0.4516202211380005
1708437425.4376957,-1.1292980909347534,-1.6682893238463343,-2.5274952093707483,2.30680434286084,-1.0189006964312952,0.45167940855026245
1708437425.4397652,-1.1291494369506836,-1.668373247186178,-2.5275071302997034,2.3067096906849365,-1.0189421812640589,0.4517543315887451
1708437425.4417076,-1.129041314125061,-1.6684643230833949,-2.5274577776538294,2.3065129953571777,-1.018954102193014,0.45183470845222473
1708437425.4437442,-1.128845453262329,-1.6685482464232386,-2.527482811604635,2.3063110548206787,-1.018937889729635,0.4519197642803192
1708437425.4456935,-1.1287099123001099,-1.6686278782286585,-2.5274785200702112,2.3061410623737792,-1.01892596880068,0.4520556926727295
1708437425.4476874,-1.1285572052001953,-1.6687084637083949,-2.5274952093707483,2.305981083507202,-1.018946949635641,0.45209813117980957
1708437425.4497242,-1.1283971071243286,-1.6688491306700648,-2.527482811604635,2.3058087068745117,-1.018897835408346,0.45215052366256714
1708437425.4517126,-1.1282292604446411,-1.6689006290831507,-2.5274913946734827,2.3056656557270507,-1.0188687483416956,0.4522460103034973
1708437425.4537513,-1.1280981302261353,-1.6690036259093226,-2.527482811604635,2.3054401117512207,-1.0188940207110804,0.45233866572380066
1708437425.455722,-1.1279174089431763,-1.6690994701781214,-2.527454439793722,2.3052963453480224,-1.0188778082477015,0.45241254568099976
1708437425.4577005,-1.127708911895752,-1.6691624126830042,-2.527475420628683,2.305138035411499,-1.0188449064837855,0.45250624418258667
1708437425.4597044,-1.1276060342788696,-1.6692787609496058,-2.52743369737734,2.3049420553394775,-1.0188820997821253,0.45259028673171997
1708437425.4617536,-1.1274219751358032,-1.6693493328490199,-2.5274186770068567,2.3047732549854736,-1.0188449064837855,0.4526248872280121
1708437425.4637194,-1.1272379159927368,-1.6694828472533167,-2.52744704881777,2.304603024119995,-1.0188258329974573,0.4527045786380768
1708437425.46571,-1.12710702419281,-1.6695782146849574,-2.5274396578418177,2.304433985347412,-1.0188091436969202,0.45284152030944824
1708437425.4676998,-1.1269378662109375,-1.669704099694723,-2.5274396578418177,2.304246349925659,-1.018818203602926,0.4529132544994354
1708437425.4697006,-1.1267507076263428,-1.669778963128561,-2.5274110476123255,2.304041548366211,-1.018790070210592,0.4529842138290405
1708437425.4717221,-1.126552939414978,-1.6698581180968226,-2.5274232069598597,2.3038789468952636,-1.018794361745016,0.45309606194496155
1708437425.4737008,-1.1264545917510986,-1.6699253521361292,-2.527402464543478,2.3037068086811523,-1.0187609831439417,0.45318862795829773
1708437425.4756804,-1.1262378692626953,-1.6700545750060023,-2.5274153391467493,2.3034910398670654,-1.018768612538473,0.45328015089035034
1708437425.4777234,-1.1260533332824707,-1.6701322994627894,-2.5274153391467493,2.3032380777546386,-1.0188034216510218,0.4532942473888397
1708437425.4796813,-1.125952124595642,-1.6702491245665492,-2.5273948351489466,2.3031233984180908,-1.0187729040728968,0.4534596800804138
1708437425.481727,-1.1256937980651855,-1.670373102227682,-2.5274110476123255,2.3028575617023925,-1.0187657515155237,0.45352703332901
1708437425.4837444,-1.1255587339401245,-1.6704689464964808,-2.527381722127096,2.302682085628174,-1.0187581221209925,0.4535987973213196
1708437425.4857674,-1.1253573894500732,-1.6706305942931117,-2.527375046406881,2.302563353175781,-1.0187209288226526,0.45367729663848877
1708437425.4877665,-1.1252182722091675,-1.6706096134581507,-2.5273457209216517,2.3024205404468994,-1.0187624136554163,0.45374155044555664
1708437425.489712,-1.1250630617141724,-1.6707760296263636,-2.5273783842669886,2.3022231298634033,-1.0187833944903772,0.4538417160511017
1708437425.4917092,-1.1248670816421509,-1.6708761654295863,-2.5274284521686,2.3020402628132324,-1.0187714735614222,0.45400360226631165
1708437425.4937575,-1.1246742010116577,-1.671025892297262,-2.5274153391467493,2.3018438059040527,-1.018759552632467,0.45403745770454407
1708437425.4957023,-1.1245352029800415,-1.67106356243276,-2.5273664633380335,2.301692171687744,-1.0187013784991663,0.45417913794517517
1708437425.4977372,-1.1243435144424438,-1.6712128124632777,-2.527375046406881,2.301497145290039,-1.0187180677997034,0.45418524742126465
1708437425.4997256,-1.124161958694458,-1.6713000736632289,-2.5273869673358362,2.30129520475354,-1.018791977559225,0.454330176115036
1708437425.5016952,-1.1239619255065918,-1.6713534794249476,-2.527358595524923,2.301095886821411,-1.0187223593341272,0.45442140102386475
1708437425.503736,-1.123827576637268,-1.6715036831297816,-2.527412239705221,2.300880118007324,-1.0187104384051722,0.4544772505760193
1708437425.5057101,-1.1236059665679932,-1.6715814075865687,-2.5273664633380335,2.3006643491932373,-1.018693749104635,0.454649955034256
1708437425.507677,-1.1234383583068848,-1.6717354259886683,-2.527400080357687,2.3004647928425292,-1.018693749104635,0.4546686112880707
1708437425.509726,-1.123304009437561,-1.6718059978880824,-2.527395788823263,2.3002487856098632,-1.018686596547262,0.4547526240348816
1708437425.5116847,-1.1231142282485962,-1.67189421276235,-2.527400557194845,2.300053759212158,-1.0186775366412562,0.4548395276069641
1708437425.513693,-1.1229221820831299,-1.671948095361227,-2.5273662249194544,2.299893303508423,-1.0186741987811487,0.45494839549064636
1708437425.5157063,-1.1227831840515137,-1.6720649204649867,-2.527342144642965,2.2996525007435302,-1.0187199751483362,0.45499950647354126
1708437425.517705,-1.1225953102111816,-1.6721984348692835,-2.527383867894308,2.299513979549072,-1.0186503569232386,0.4551365375518799
1708437425.5197244,-1.122403621673584,-1.6723062000670375,-2.5274034182177942,2.2993339735218505,-1.0186665693866175,0.4552043378353119
1708437425.5216863,-1.122259497642517,-1.672340532342428,-2.5273881594287317,2.2991041380115966,-1.0185969511615198,0.45527487993240356
1708437425.5237057,-1.122104287147522,-1.672474046746725,-2.527330462132589,2.2989200788685302,-1.0186427275287073,0.4553185701370239
1708437425.525674,-1.1218791007995605,-1.6725202999510707,-2.527423922215597,2.298802061671875,-1.0186470190631312,0.4554152190685272
1708437425.527687,-1.1217328310012817,-1.6726700268187464,-2.527412239705221,2.2986137109943847,-1.0186222235309046,0.45549049973487854
1708437425.52972,-1.1214745044708252,-1.6727239094176234,-2.5273378531085413,2.298454447383545,-1.0186594168292444,0.45559826493263245
1708437425.5316875,-1.1213511228561401,-1.6728645763792933,-2.527379337941305,2.29828326284375,-1.0186474959002894,0.4556537866592407
1708437425.5336945,-1.1211305856704712,-1.6729570827879847,-2.5273881594287317,2.2980989652821044,-1.0186265150653284,0.4557257890701294
1708437425.5357196,-1.1209791898727417,-1.6730529270567835,-2.527346674595968,2.297926588649414,-1.0186103026019495,0.455813467502594
1708437425.5376925,-1.1207877397537231,-1.6731072864928187,-2.5273588339435022,2.2977184492298584,-1.0186145941363733,0.4558844566345215
1708437425.5397234,-1.1206146478652954,-1.673166891137594,-2.5273717085467737,2.2975386816212158,-1.0186799208270472,0.4559897184371948
1708437425.5416996,-1.1205087900161743,-1.673314710656637,-2.5273600260363978,2.297383947963379,-1.0185893217669886,0.45607230067253113
1708437425.543692,-1.120308518409729,-1.6734076939024867,-2.527350966130392,2.2971626955219726,-1.0186188856707972,0.45617035031318665
1708437425.545724,-1.1201732158660889,-1.6734873257079066,-2.527350966130392,2.296978159541748,-1.018606964741842,0.45618775486946106
1708437425.5477114,-1.1199923753738403,-1.6735121212401332,-2.527339045201437,2.2967821794697265,-1.018623177205221,0.4563082158565521
1708437425.5497334,-1.1197961568832397,-1.6736847362914027,-2.5273717085467737,2.2966436582752685,-1.0185859839068812,0.45638352632522583
1708437425.5517137,-1.1196722984313965,-1.6736937961974085,-2.527302090321676,2.296527548427246,-1.0186355749713343,0.4564225673675537
1708437425.5537581,-1.1194674968719482,-1.6738225422301234,-2.527350966130392,2.2963642317005615,-1.018590275441305,0.4565432667732239
1708437425.5557368,-1.1193523406982422,-1.673922678033346,-2.527350966130392,2.2961925703236084,-1.018590275441305,0.4566151201725006
1708437425.5577211,-1.1191719770431519,-1.6740261516966761,-2.5273595491992396,2.296013279552124,-1.018606964741842,0.4567359983921051
1708437425.5597103,-1.1190685033798218,-1.6740652523436488,-2.5273552576648157,2.295827551479004,-1.0186145941363733,0.45678678154945374
1708437425.5616734,-1.1188889741897583,-1.6741439304747523,-2.527346436177389,2.295667811031006,-1.018590275441305,0.45686647295951843
1708437425.5636828,-1.1187480688095093,-1.6742450199522914,-2.527302090321676,2.295516176814697,-1.018616024647848,0.45697927474975586
1708437425.5657294,-1.1186127662658691,-1.6743422947325648,-2.527318302785055,2.2953364092060546,-1.0186026732074183,0.45701512694358826
1708437425.567699,-1.118448257446289,-1.6743766270079554,-2.527322594319479,2.2951597410389404,-1.0185945669757288,0.4570576250553131
1708437425.569714,-1.1183416843414307,-1.674530645410055,-2.5273311773883265,2.2950288492390136,-1.0186117331134241,0.4571618437767029
1708437425.5716968,-1.118135690689087,-1.674568315545553,-2.5273063818561,2.2948524194904785,-1.0185945669757288,0.45718491077423096
1708437425.573695,-1.1180325746536255,-1.6746565304198207,-2.5273311773883265,2.2947181898304443,-1.0185893217669886,0.45729777216911316
1708437425.5757098,-1.1178901195526123,-1.6747690639891566,-2.5273106733905237,2.2945079046436767,-1.0185859839068812,0.4573533236980438
1708437425.5776775,-1.1177648305892944,-1.6748291454710902,-2.5273106733905237,2.294377489680908,-1.018627945576803,0.4574250876903534
1708437425.5796726,-1.1176422834396362,-1.6748959026732386,-2.527339045201437,2.2941714960285644,-1.018590275441305,0.45749253034591675
1708437425.5816984,-1.1175100803375244,-1.6750408611693324,-2.52737266222109,2.2940639692493896,-1.0186117331134241,0.4575481116771698
1708437425.5836952,-1.117387294769287,-1.675112863580221,-2.5273433367358606,2.294010563487671,-1.018545929585592,0.4575837254524231
1708437425.5857408,-1.1172046661376953,-1.6751071415343226,-2.5272868315326136,2.2938341337391357,-1.018574062977926,0.45767202973365784
1708437425.5877068,-1.1170819997787476,-1.6751896343626917,-2.5273564497577112,2.293677492732666,-1.018590275441305,0.4577435553073883
1708437425.5896964,-1.1169140338897705,-1.6752625904478968,-2.5273268858539026,2.2935585218616943,-1.0185945669757288,0.457770973443985
1708437425.5917008,-1.1168593168258667,-1.6753870449461878,-2.527278010045187,2.293414517039917,-1.0186188856707972,0.45786333084106445
1708437425.5936909,-1.1167104244232178,-1.6755100689330042,-2.5272987524615687,2.2931923109241943,-1.0185983816729944,0.4578491151332855
1708437425.595711,-1.1165790557861328,-1.6755358181395472,-2.5273106733905237,2.2931477266499023,-1.018606964741842,0.45792528986930847
1708437425.597726,-1.1164098978042603,-1.6755653820433558,-2.527294460927145,2.2929579454609375,-1.0186145941363733,0.4580264985561371
1708437425.5996897,-1.1162775754928589,-1.6756788692870082,-2.5273030439959925,2.292855902309082,-1.0185945669757288,0.4580742120742798
1708437425.601731,-1.1161293983459473,-1.6756969890990199,-2.5273149649249476,2.2927350240894775,-1.018557373677389,0.4581056237220764
1708437425.6037364,-1.116021752357483,-1.6757494411864222,-2.5273433367358606,2.292562885875366,-1.0186188856707972,0.45817309617996216
1708437425.6056993,-1.1159108877182007,-1.675878187219137,-2.5273552576648157,2.292415066356323,-1.0185993353473108,0.45829784870147705
1708437425.6077244,-1.115752935409546,-1.6758886776366175,-2.527294460927145,2.2922591406055908,-1.0185940901385706,0.4583003520965576
1708437425.609704,-1.1157028675079346,-1.676014085809225,-2.5273106733905237,2.2921880918690185,-1.0186026732074183,0.45836883783340454
1708437425.6116827,-1.1155303716659546,-1.6760860882201136,-2.527313772832052,2.2920023637958984,-1.0186355749713343,0.45841652154922485
1708437425.6137233,-1.1154712438583374,-1.676067968408102,-2.5272868315326136,2.29191963254895,-1.0186355749713343,0.45846015214920044
1708437425.6156874,-1.1153926849365234,-1.676126619378561,-2.5273192564593714,2.2917751508900146,-1.0185983816729944,0.4585481286048889
1708437425.6176958,-1.115218997001648,-1.6762238941588343,-2.527290169392721,2.2916835981556396,-1.0186188856707972,0.45859605073928833
1708437425.6197052,-1.1150950193405151,-1.6763507328429164,-2.5273311773883265,2.2916008669086914,-1.0186145941363733,0.4586274325847626
1708437425.6216836,-1.114986538887024,-1.6763149700560511,-2.5273433367358606,2.291405602092407,-1.0186236540423792,0.4587201178073883
1708437425.6237257,-1.1148990392684937,-1.6763717136778773,-2.527322594319479,2.291409655208252,-1.0186117331134241,0.45876771211624146
1708437425.625683,-1.1147866249084473,-1.676460405389303,-2.5273106733905237,2.2912632662006835,-1.0185859839068812,0.45881128311157227
1708437425.6277218,-1.114662766456604,-1.6765247784056605,-2.5273311773883265,2.291111870402954,-1.0186308065997522,0.458854615688324
1708437425.6297064,-1.1146082878112793,-1.676535268823141,-2.5273433367358606,2.2909955221363525,-1.0186026732074183,0.45892319083213806
1708437425.6317077,-1.1144756078720093,-1.6767102680602015,-2.5273268858539026,2.290952606792114,-1.0186355749713343,0.45899173617362976
1708437425.6337183,-1.1143840551376343,-1.6766506634154261,-2.527302090321676,2.2908124166676025,-1.0186236540423792,0.4589895009994507
1708437425.6357284,-1.1142338514328003,-1.6767031155028285,-2.527342144642965,2.2907284933277587,-1.0185859839068812,0.459081768989563
1708437425.6377256,-1.1141587495803833,-1.6767837009825648,-2.527322594319479,2.2906650739857177,-1.0186026732074183,0.4591626226902008
1708437425.6397085,-1.1141154766082764,-1.676861425439352,-2.5273311773883265,2.2904831606098632,-1.0186265150653284,0.4591972827911377
1708437425.6417267,-1.1139953136444092,-1.6768800220885218,-2.527334753667013,2.2904698091694335,-1.0186427275287073,0.4592667818069458
1708437425.64372,-1.1139156818389893,-1.6768824062743128,-2.5273924509631556,2.2903329569050292,-1.0186103026019495,0.45929422974586487
1708437425.6456974,-1.1138278245925903,-1.6770292721190394,-2.527355496083395,2.290233774776123,-1.0186474959002894,0.45938655734062195
1708437425.6477106,-1.113677978515625,-1.677068372766012,-2.5273268858539026,2.290158434505127,-1.0186875502215784,0.45942583680152893
1708437425.6497226,-1.1136521100997925,-1.6770411930479945,-2.527363125477926,2.2899958330341796,-1.0186713377581995,0.4594896733760834
1708437425.6517396,-1.113552451133728,-1.677138467828268,-2.5273762384997767,2.2899948793598632,-1.018587891255514,0.4595091938972473
1708437425.6537707,-1.1134305000305176,-1.677155157128805,-2.5273106733905237,2.289886160487793,-1.0187071005450647,0.45961377024650574
1708437425.6557233,-1.1133809089660645,-1.6772448025145472,-2.527313772832052,2.289785547847412,-1.0186384359942835,0.4596617817878723
1708437425.657742,-1.1132707595825195,-1.6772495708861292,-2.5273683706866663,2.289726420039795,-1.018632713948385,0.4597049653530121
1708437425.6597483,-1.1131994724273682,-1.6773001156248988,-2.527322594319479,2.2895726400562744,-1.0186784903155726,0.45978033542633057
1708437425.6617146,-1.1130616664886475,-1.6773654423155726,-2.5273595491992396,2.2895099359699707,-1.0187023321734827,0.4598071575164795
1708437425.663723,-1.113052248954773,-1.6773926220335902,-2.527371946965353,2.289421721095703,-1.018686596547262,0.45988893508911133
1708437425.6657147,-1.1129932403564453,-1.6774665317931117,-2.5273638407336634,2.2892841535755615,-1.0187066237079065,0.4598943889141083
1708437425.6677427,-1.1128592491149902,-1.677422662774557,-2.5273688475238245,2.289271040553711,-1.018714729939596,0.46000754833221436
1708437425.66971,-1.1127835512161255,-1.6775051556029261,-2.527318302785055,2.2892390924641113,-1.0187071005450647,0.46006715297698975
1708437425.6717007,-1.1127041578292847,-1.6775785885252894,-2.527330462132589,2.289109631175659,-1.018693749104635,0.4601875841617584
1708437425.6737223,-1.112627625465393,-1.6775890789427699,-2.5273433367358606,2.289058132762573,-1.0187180677997034,0.4602466821670532
1708437425.6756988,-1.1125725507736206,-1.6776610813536585,-2.5273259321795862,2.288958712215088,-1.0187385717975062,0.46031057834625244
1708437425.6777306,-1.1124886274337769,-1.6776639423766078,-2.527383867894308,2.2888948160358886,-1.0187342802630823,0.46044424176216125
1708437425.6796825,-1.1124285459518433,-1.6777249775328578,-2.5273600260363978,2.2887658315845947,-1.0187552610980433,0.4604172706604004
1708437425.6816819,-1.1123483180999756,-1.6777736149229945,-2.527339045201437,2.288755102748535,-1.0187342802630823,0.4605586528778076
1708437425.6836965,-1.1122645139694214,-1.6777969799437464,-2.5273595491992396,2.288647337550781,-1.0187180677997034,0.4606498181819916
1708437425.685766,-1.1121273040771484,-1.677845140496725,-2.527322594319479,2.288590355510376,-1.0187462011920374,0.4607453942298889
1708437425.68773,-1.1121329069137573,-1.6778975925841273,-2.5273881594287317,2.288498802776001,-1.0187132994281214,0.46080100536346436
1708437425.6897185,-1.1120685338974,-1.6779004536070765,-2.527383867894308,2.2884394365498046,-1.0187581221209925,0.4609052836894989
1708437425.6917381,-1.1120545864105225,-1.6779858074583949,-2.5273433367358606,2.2883588510700683,-1.0187504927264612,0.4610007405281067
1708437425.693729,-1.1119375228881836,-1.6779920063414515,-2.527350966130392,2.288306875819824,-1.0187209288226526,0.46109673380851746
1708437425.6957073,-1.1118443012237549,-1.6780725918211878,-2.5273717085467737,2.288189335460327,-1.0187581221209925,0.4612160921096802
1708437425.6977384,-1.1118292808532715,-1.6780477962889613,-2.527379337941305,2.288118286723755,-1.0187581221209925,0.46130451560020447
1708437425.6997082,-1.1117116212844849,-1.6781159840025843,-2.527379576359884,2.288083716029785,-1.0187819639789026,0.46139028668403625
1708437425.7016993,-1.1116889715194702,-1.6781851253905238,-2.527363125477926,2.287966175670288,-1.0187504927264612,0.46154671907424927
1708437425.7037308,-1.111575722694397,-1.6782294712462367,-2.527379337941305,2.288008375758789,-1.018794361745016,0.4616304636001587
1708437425.7056994,-1.1115729808807373,-1.678220888177389,-2.5273166338550013,2.287865563029907,-1.0187609831439417,0.46176639199256897
1708437425.7077188,-1.1115168333053589,-1.6782719097533167,-2.5273717085467737,2.287872000331543,-1.0187743345843714,0.4618861675262451
1708437425.7097425,-1.111379623413086,-1.678324361840719,-2.527375046406881,2.28780381261792,-1.0187862555133265,0.46199044585227966
1708437425.7117004,-1.1114109754562378,-1.6784097156920375,-2.527363125477926,2.287719889278076,-1.0187862555133265,0.46205243468284607
1708437425.7136772,-1.1113051176071167,-1.6783958874144496,-2.52733284631838,2.2876996236988525,-1.0188029448138636,0.46218839287757874
1708437425.7156954,-1.111220121383667,-1.678439279595846,-2.527363125477926,2.2876033025928955,-1.0187986532794397,0.4623849391937256
1708437425.717698,-1.1111316680908203,-1.6784965000548304,-2.527379337941305,2.2875558572956542,-1.018794361745016,0.4624440670013428
1708437425.7196865,-1.1111128330230713,-1.6784831486144007,-2.527395550404684,2.2874459463306884,-1.01878530183901,0.46260344982147217
1708437425.721678,-1.1110846996307373,-1.678514143029684,-2.52738863626589,2.287452383632324,-1.0187810103045862,0.4627600610256195
1708437425.7236974,-1.1110050678253174,-1.6785994968810023,-2.5273545424090784,2.2874247270771484,-1.018851105366842,0.4629233777523041
1708437425.7256727,-1.110973834991455,-1.6786323986449183,-2.5273130575763147,2.2873610693165283,-1.0188100973712366,0.46304306387901306
1708437425.7277126,-1.1109018325805664,-1.6786471805968226,-2.527384106312887,2.287271662349365,-1.018839184437887,0.4631776511669159
1708437425.7297118,-1.110849142074585,-1.678688188592428,-2.5273826758014124,2.287186546916626,-1.01882249513735,0.46338728070259094
1708437425.7317076,-1.1108217239379883,-1.6787401638426722,-2.52739125887026,2.28713504850354,-1.018801514302389,0.463427871465683
1708437425.733697,-1.1107409000396729,-1.6788207493224085,-2.52739125887026,2.2871286112019042,-1.018818203602926,0.4636410176753998
1708437425.7357485,-1.1107128858566284,-1.6787268124022425,-2.527363125477926,2.287059708232544,-1.0188215414630335,0.46375495195388794
1708437425.7377172,-1.1106781959533691,-1.6788026295103968,-2.5273457209216517,2.286996050471924,-1.0188091436969202,0.46395963430404663
1708437425.739728,-1.1106094121932983,-1.6787868938841761,-2.5273707548724573,2.2869197565266113,-1.018879238759176,0.46412771940231323
1708437425.7416952,-1.110556721687317,-1.6788374386229457,-2.5273869673358362,2.286872549647949,-1.0188258329974573,0.46430209279060364
1708437425.7437267,-1.1105016469955444,-1.6788345775999964,-2.527350966130392,2.286820097560547,-1.0188701788531702,0.46454310417175293
1708437425.7456944,-1.1104621887207031,-1.6788865528502406,-2.527363125477926,2.2866901594349365,-1.0189030806170862,0.46475520730018616
1708437425.747696,-1.110426425933838,-1.678948541680807,-2.527330462132589,2.2867204385944824,-1.0187962690936487,0.46494951844215393
1708437425.7497466,-1.1103496551513672,-1.6789752445616664,-2.5273869673358362,2.2866641718098144,-1.0188615957843226,0.4651203751564026
1708437425.7517083,-1.1102969646453857,-1.6789752445616664,-2.527396027241842,2.2865421014973144,-1.0188701788531702,0.46538063883781433
1708437425.7537775,-1.1102538108825684,-1.6790744266905726,-2.527395788823263,2.2866007524677734,-1.0188329855548304,0.4655303955078125
1708437425.755722,-1.110234260559082,-1.678981443444723,-2.5273826758014124,2.286512537593506,-1.0188210646258753,0.4657663404941559
1708437425.7577019,-1.1101535558700562,-1.6790052853026332,-2.527363125477926,2.286440058345459,-1.0188377539264124,0.4659978449344635
1708437425.7597246,-1.1100772619247437,-1.6790501079955042,-2.527384106312887,2.286420984859131,-1.01884633699526,0.4661763906478882
1708437425.7616825,-1.1100902557373047,-1.6790501079955042,-2.527375046406881,2.2864014345356445,-1.0188420454608362,0.46643197536468506
1708437425.7636836,-1.1099843978881836,-1.6791235409178675,-2.527375046406881,2.2862958151051025,-1.0188334623919886,0.46670791506767273
1708437425.7656798,-1.1099413633346558,-1.6791054211058558,-2.5273783842669886,2.286273165340088,-1.0188329855548304,0.4669055938720703
1708437425.767695,-1.1099343299865723,-1.6791101894774378,-2.5273826758014124,2.2862164217182617,-1.0188301245318812,0.46718284487724304
1708437425.7696888,-1.1098729372024536,-1.679150720635885,-2.5273707548724573,2.2862207132526855,-1.0188630262957972,0.46742522716522217
1708437425.7717013,-1.1098248958587646,-1.6791836223998011,-2.5273707548724573,2.286090536708496,-1.0188048521624964,0.46773776412010193
1708437425.7736928,-1.1097486019134521,-1.6791702709593714,-2.5274081865893763,2.2860798078724365,-1.018862549458639,0.46799173951148987
1708437425.7757196,-1.1097540855407715,-1.679213663140768,-2.5273869673358362,2.2860123354145507,-1.0188539663897913,0.46828314661979675
1708437425.7777116,-1.1097302436828613,-1.6792761288084925,-2.5273335615741175,2.2860209184833984,-1.0188258329974573,0.46852603554725647
1708437425.7797008,-1.1096569299697876,-1.679225584069723,-2.527436081563131,2.285988970393799,-1.0188630262957972,0.46877649426460266
1708437425.7816916,-1.1096376180648804,-1.679302831689352,-2.5273502508746546,2.285966082210205,-1.01882249513735,0.46910518407821655
1708437425.7836888,-1.1095538139343262,-1.6793152294554652,-2.5274274984942835,2.2858518797108154,-1.0188420454608362,0.4693553149700165
1708437425.7857633,-1.1095374822616577,-1.6792646847166957,-2.527436081563131,2.2858454424091796,-1.0188377539264124,0.46970334649086
1708437425.7877007,-1.1095147132873535,-1.6793185673155726,-2.5273991266833704,2.2857841688343505,-1.0188048521624964,0.46999335289001465
1708437425.789728,-1.1094341278076172,-1.6793586216368617,-2.527386252080099,2.285684033031128,-1.01884633699526,0.47034913301467896
1708437425.7917569,-1.1094307899475098,-1.679390092889303,-2.5274317900287073,2.28562776624646,-1.0188258329974573,0.47068724036216736
1708437425.7937393,-1.1093990802764893,-1.6794215641417445,-2.527423922215597,2.285649462337158,-1.0188301245318812,0.4710218012332916
1708437425.7957282,-1.1092851161956787,-1.6794549427428187,-2.527419630681173,2.2855569559284667,-1.018796745930807,0.4713731110095978
1708437425.7977037,-1.109273076057434,-1.679436822930807,-2.5274153391467493,2.2855238157459716,-1.0188139120685022,0.47174063324928284
1708437425.7997098,-1.1092100143432617,-1.6794945202269496,-2.527395550404684,2.285505457515381,-1.0188301245318812,0.47204315662384033
1708437425.8017519,-1.1092431545257568,-1.6795383892455042,-2.5274153391467493,2.2855021196552734,-1.018827263508932,0.47238874435424805
1708437425.8037255,-1.1092034578323364,-1.679563661614889,-2.52739125887026,2.2854246336170654,-1.01884633699526,0.472764790058136
1708437425.8057086,-1.1091346740722656,-1.6795488796629847,-2.5273545424090784,2.2854019838520507,-1.0188749472247522,0.4731346666812897
1708437425.8076913,-1.1090946197509766,-1.6796394787230433,-2.5273826758014124,2.2853731352039794,-1.0188210646258753,0.47352612018585205
1708437425.809738,-1.1090376377105713,-1.679610391656393,-2.5273502508746546,2.285247727031372,-1.0188630262957972,0.47393253445625305
1708437425.811704,-1.1089987754821777,-1.679643293420309,-2.5273335615741175,2.285268946284912,-1.0188301245318812,0.4743688404560089
1708437425.8136861,-1.1089550256729126,-1.6797076664366664,-2.5273545424090784,2.2852088648029785,-1.018801514302389,0.4747750461101532
1708437425.8157163,-1.108926773071289,-1.6797357998290003,-2.5273826758014124,2.2851692873188476,-1.018796745930807,0.47513753175735474
1708437425.8177269,-1.1088322401046753,-1.6797253094115199,-2.5274155775653284,2.2851335245319824,-1.0187566916095179,0.475597083568573
1708437425.819686,-1.108817458152771,-1.6797462902464808,-2.5274317900287073,2.285113974208496,-1.0188058058368128,0.47603556513786316
1708437425.8216865,-1.1087697744369507,-1.6797658405699671,-2.5273869673358362,2.285008593196533,-1.0187700430499476,0.4764697551727295
1708437425.823686,-1.1087872982025146,-1.6797615490355433,-2.527444903050558,2.284993811244629,-1.018794361745016,0.4768965244293213
1708437425.8257143,-1.1087216138839722,-1.6798182926573695,-2.5273707548724573,2.284949465388916,-1.0188034216510218,0.47737058997154236
1708437425.827689,-1.1086745262145996,-1.6797882519164027,-2.527396027241842,2.2849342065998535,-1.0187538305865687,0.4778546988964081
1708437425.8296978,-1.1085889339447021,-1.679807802239889,-2.527379337941305,2.2848374086567382,-1.0187447706805628,0.47828468680381775
1708437425.8316934,-1.108569860458374,-1.6798764667906703,-2.52739125887026,2.284825487727783,-1.0187819639789026,0.4787549078464508
1708437425.8336911,-1.1085829734802246,-1.679873605767721,-2.5273545424090784,2.2847890096851806,-1.0187833944903772,0.47926199436187744
1708437425.8357904,-1.1085180044174194,-1.679880758325094,-2.5273826758014124,2.284733934993408,-1.0187538305865687,0.47967076301574707
1708437425.837719,-1.108510971069336,-1.6799122295775355,-2.5274034182177942,2.2846976953693847,-1.0187376181231897,0.48014166951179504
1708437425.839732,-1.108442783355713,-1.6799289188780726,-2.527395550404684,2.2846576410480957,-1.0187462011920374,0.48065584897994995
1708437425.8417225,-1.1084308624267578,-1.6799575291075648,-2.5273707548724573,2.284588022822998,-1.0187624136554163,0.4811388850212097
1708437425.8437204,-1.108370304107666,-1.6799575291075648,-2.5273495356189173,2.2846128183552246,-1.0187013784991663,0.4816214442253113
1708437425.8457015,-1.1083056926727295,-1.6800266704955042,-2.5273621718036097,2.284524841899536,-1.0187180677997034,0.4821719527244568
1708437425.8477104,-1.1083099842071533,-1.6800576649107875,-2.5273545424090784,2.284538908595703,-1.0186980406390589,0.4827217161655426
1708437425.849755,-1.108213186264038,-1.6799785099425257,-2.5273991266833704,2.2844409185596923,-1.0186522642718714,0.48316335678100586
1708437425.851695,-1.1082475185394287,-1.6801101169981898,-2.527407709752218,2.284381552333496,-1.018693749104635,0.48364531993865967
1708437425.8537827,-1.1081374883651733,-1.6800562343993128,-2.5273991266833704,2.284373922938965,-1.018660847340719,0.48413994908332825
1708437425.855742,-1.1081743240356445,-1.6800834141173304,-2.5273545424090784,2.2843052583881835,-1.0187400023089808,0.48469528555870056
1708437425.8577518,-1.1081066131591797,-1.6801029644408167,-2.527375046406881,2.2843386369892578,-1.0187237898456019,0.4851934015750885
1708437425.8597474,-1.1080416440963745,-1.6801325283446253,-2.527407709752218,2.284282847041748,-1.018669907246725,0.4857805371284485
1708437425.8617318,-1.1080677509307861,-1.680126806298727,-2.527379337941305,2.2842094141193847,-1.018641773854391,0.48628154397010803
1708437425.8638365,-1.1080020666122437,-1.6801969013609828,-2.5273740927325647,2.2842675882526855,-1.0186250845538538,0.48687174916267395
1708437425.8656974,-1.1079500913619995,-1.6801630459227503,-2.527400080357687,2.284203215236328,-1.0186875502215784,0.4874264895915985
1708437425.8677235,-1.1078972816467285,-1.6802078686156214,-2.5273881594287317,2.28414694845166,-1.0186503569232386,0.4879530668258667
1708437425.8697195,-1.1078698635101318,-1.6802240810790003,-2.5274034182177942,2.2840770918079834,-1.0186012426959437,0.4885271489620209
1708437425.8716798,-1.1078248023986816,-1.6802264652647914,-2.5273783842669886,2.2840792375751953,-1.0186341444598597,0.4890919327735901
1708437425.8737164,-1.1078510284423828,-1.6802431545653285,-2.527342144642965,2.284006043071411,-1.0186265150653284,0.4896671175956726
1708437425.875675,-1.1078033447265625,-1.6803046665587367,-2.5273500124560755,2.2839531141468505,-1.0186384359942835,0.4902813136577606
1708437425.8776903,-1.107742190361023,-1.6803285084166468,-2.52735406557192,2.2839347559162597,-1.0186355749713343,0.4908497631549835
1708437425.8796873,-1.1077227592468262,-1.680336137811178,-2.5273216406451624,2.2838608461567382,-1.0186222235309046,0.4914610981941223
1708437425.8816893,-1.1076819896697998,-1.680308004418844,-2.5273380915271204,2.283865376109741,-1.0186517874347132,0.49205464124679565
1708437425.8836932,-1.1076626777648926,-1.6803647480406703,-2.527363125477926,2.2838503557392578,-1.0186026732074183,0.49268507957458496
1708437425.8857968,-1.1076030731201172,-1.680397172967428,-2.527383867894308,2.2837654787250976,-1.0185812155352991,0.4932548701763153
1708437425.8877184,-1.107569932937622,-1.680361887017721,-2.527383867894308,2.283754511470459,-1.0185812155352991,0.493897408246994
1708437425.8897283,-1.1075754165649414,-1.6804124317564906,-2.527355496083395,2.283734007472656,-1.018590275441305,0.49450740218162537
1708437425.8916962,-1.1075234413146973,-1.6804939709105433,-2.527363125477926,2.2836944299885253,-1.018550221120016,0.4950980842113495
1708437425.8937027,-1.1074665784835815,-1.6804033718504847,-2.527313772832052,2.2836381632038574,-1.018574062977926,0.4956873059272766
1708437425.8956916,-1.1074340343475342,-1.68054260830068,-2.527346436177389,2.2836178976246337,-1.0185707251178187,0.49628958106040955
1708437425.897721,-1.1074028015136719,-1.6804892025389613,-2.5273717085467737,2.283604069347046,-1.018529240285055,0.4969235360622406
1708437425.899764,-1.1073378324508667,-1.6805154285826625,-2.5273552576648157,2.2835091787525634,-1.018562142048971,0.49758222699165344
1708437425.9016938,-1.1073421239852905,-1.680556436578268,-2.527383867894308,2.283506079311035,-1.0185917059527796,0.49817100167274475
1708437425.9037054,-1.1073275804519653,-1.6805888615050257,-2.527400080357687,2.2835287290760498,-1.0185826460467737,0.4987998604774475
1708437425.9056895,-1.1073026657104492,-1.680584569970602,-2.5273717085467737,2.2834717470356445,-1.0185545126544397,0.49951985478401184
1708437425.9077265,-1.1072473526000977,-1.6805626354613246,-2.527346674595968,2.2833830553242187,-1.0185707251178187,0.5000885128974915
1708437425.909753,-1.1072187423706055,-1.6805712185301722,-2.5273063818561,2.2833055692860107,-1.0185425917254847,0.5006940960884094
1708437425.9121914,-1.107215404510498,-1.6806651554503382,-2.527334515248434,2.2832819658466796,-1.0185707251178187,0.5013082027435303
1708437425.9137526,-1.1071796417236328,-1.6806355915465296,-2.527334753667013,2.283249779338501,-1.0185096899615687,0.5019996166229248
1708437425.9156964,-1.1071184873580933,-1.6806642017760218,-2.52736741701235,2.2832466798969726,-1.0185306707965296,0.5026289820671082
1708437425.9177217,-1.1071314811706543,-1.6806642017760218,-2.5273552576648157,2.2832390505024414,-1.0185187498675745,0.5032347440719604
1708437425.919715,-1.1070665121078491,-1.6807285747923792,-2.527334753667013,2.2832037645527343,-1.0184982458697718,0.5039085745811462
1708437425.921698,-1.107038974761963,-1.680749078790182,-2.527346674595968,2.2831432062336425,-1.0185440222369593,0.504575252532959
1708437425.9237163,-1.1070181131362915,-1.6807075939574183,-2.527350966130392,2.283065004939697,-1.0185068289386194,0.5052257180213928
1708437425.9257183,-1.1069955825805664,-1.6807195148863734,-2.527334753667013,2.2830208975025634,-1.0184991995440882,0.5059430599212646
1708437425.927704,-1.106963038444519,-1.6807433567442835,-2.5273094812976282,2.2830793100544433,-1.0184858481036585,0.5065780282020569
1708437425.9297016,-1.106947422027588,-1.6807643375792445,-2.527330462132589,2.283010407085083,-1.0184620062457483,0.5072775483131409
1708437425.931709,-1.106877326965332,-1.6807629070677699,-2.527317825947897,2.2829736906239013,-1.0184572378741663,0.5079753994941711
1708437425.9337492,-1.1069035530090332,-1.6808363399901332,-2.527363125477926,2.282958670253418,-1.0184662977801722,0.5085500478744507
1708437425.935749,-1.1068391799926758,-1.6808272800841273,-2.527372185383932,2.2829391199299316,-1.018503491078512,0.509289026260376
1708437425.9377513,-1.1067947149276733,-1.680814882318014,-2.5273094812976282,2.2829319673725585,-1.0184949080096644,0.509971559047699
1708437425.9397035,-1.1067745685577393,-1.6807948551573695,-2.5273552576648157,2.282834692592285,-1.0184796492206019,0.5106582641601562
1708437425.941715,-1.1067790985107422,-1.6809121570982875,-2.52736741701235,2.2828220564075927,-1.018508259450094,0.5113070607185364
1708437425.9436939,-1.1067227125167847,-1.6808630428709925,-2.527302090321676,2.2827820020863037,-1.0184791723834437,0.5120245218276978
1708437425.9456904,-1.1066495180130005,-1.6808797321715296,-2.5273476282702845,2.2827345567890625,-1.0184991995440882,0.512730062007904
1708437425.9477289,-1.1066906452178955,-1.6809035740294398,-2.5273268858539026,2.2827133375355224,-1.0184839407550257,0.5134934782981873
1708437425.9497056,-1.1066551208496094,-1.680885454217428,-2.527339045201437,2.2826906877705078,-1.0184291044818323,0.5142183303833008
1708437425.9516833,-1.1066594123840332,-1.6809307537474574,-2.527317825947897,2.2827111917683105,-1.0184510389911097,0.5148429274559021
1708437425.9536989,-1.1066398620605469,-1.6809874973692835,-2.527339760457174,2.2826711374470214,-1.0184629599200647,0.5154848694801331
1708437425.9557307,-1.1065536737442017,-1.680974622766012,-2.5272987524615687,2.2826260763355712,-1.0184467474566858,0.5160818099975586
1708437425.9577217,-1.1065635681152344,-1.6809874973692835,-2.5273311773883265,2.2826639848896484,-1.0184629599200647,0.5167034864425659
1708437425.9597445,-1.106506586074829,-1.6809693775572718,-2.5273552576648157,2.282576485271118,-1.0184467474566858,0.5174665451049805
1708437425.9616857,-1.106536626815796,-1.6809727154173792,-2.5273192564593714,2.282576485271118,-1.0184629599200647,0.5181854963302612
1708437425.9636958,-1.1064308881759644,-1.680986066857809,-2.5273476282702845,2.2825562196918945,-1.0184467474566858,0.5188221335411072
1708437425.965696,-1.106423258781433,-1.6810757122435511,-2.527330462132589,2.282491369838379,-1.0184186140643519,0.5195050835609436
1708437425.9677038,-1.1064190864562988,-1.6810499630370082,-2.527322594319479,2.282447500819824,-1.0184066931353968,0.5201587677001953
1708437425.9697187,-1.1064057350158691,-1.681054254571432,-2.5273359457599085,2.282435579890869,-1.018409554158346,0.520858883857727
1708437425.971679,-1.1063746213912964,-1.6810409031310023,-2.5273223559008997,2.2823828893848876,-1.018430534993307,0.5216108560562134
1708437425.9736874,-1.1063833236694336,-1.6810785732665003,-2.5273075739489954,2.2823962408253173,-1.0184553305255335,0.5222925543785095
1708437425.9757092,-1.1062982082366943,-1.6811071834959925,-2.527273718510763,2.2823468881794433,-1.0184348265277308,0.5229862928390503
1708437425.977695,-1.10627019405365,-1.6810771427550257,-2.5273149649249476,2.282355471248291,-1.0184348265277308,0.5237176418304443
1708437425.9797063,-1.1062712669372559,-1.6811114750304164,-2.527294460927145,2.2823197084614257,-1.0184348265277308,0.5244064927101135
1708437425.9816773,-1.1062463521957397,-1.681105752984518,-2.52733284631838,2.2822787004658203,-1.0184186140643519,0.5250647664070129
1708437425.9836886,-1.1061817407608032,-1.681129594842428,-2.5272746721850794,2.2822553354450683,-1.0184019247638147,0.5256763696670532
1708437425.985729,-1.1062068939208984,-1.6811429462828578,-2.5272954146014612,2.282263918513916,-1.0184186140643519,0.526368260383606
1708437425.9877007,-1.106162428855896,-1.6811539135374964,-2.52731162706484,2.282235785121582,-1.0184271971331995,0.5269731879234314
1708437425.9897118,-1.1061465740203857,-1.6811911068358363,-2.5272911230670374,2.2821950155445556,-1.0184434095965784,0.5277133584022522
1708437425.9916875,-1.1061346530914307,-1.6812221012511195,-2.5272825399981897,2.282150908107422,-1.0184066931353968,0.5283916592597961
1708437425.9937193,-1.1060751676559448,-1.6811939678587855,-2.527321163808004,2.2821551996418457,-1.0183985869037073,0.5289996266365051
1708437425.9956944,-1.1060870885849,-1.6811701260008753,-2.5272792021380823,2.282094879741333,-1.0184109846698206,0.5297315716743469
1708437425.9977088,-1.1060019731521606,-1.681197305718893,-2.5272706190692347,2.282082958812378,-1.0184271971331995,0.5303928256034851
1708437425.9997418,-1.1060357093811035,-1.681230207482809,-2.5272746721850794,2.2820917802998046,-1.0183942953692835,0.5309531092643738
1708437426.001686,-1.1059956550598145,-1.68127503017568,-2.5272911230670374,2.2820235925861816,-1.0183900038348597,0.5316687822341919
1708437426.0036829,-1.1059925556182861,-1.681270261804098,-2.5272868315326136,2.2819699484058837,-1.0184152762042444,0.5322582721710205
1708437426.0056787,-1.1059223413467407,-1.681282182733053,-2.5272954146014612,2.2819840151020507,-1.0184314886676233,0.5328781604766846
1708437426.007681,-1.1058917045593262,-1.6812731228270472,-2.5273030439959925,2.2819925981708984,-1.0183900038348597,0.5334862470626831
1708437426.009737,-1.10587477684021,-1.6812731228270472,-2.5273519198047083,2.2819320398518066,-1.0184028784381312,0.5341565608978271
1708437426.0116832,-1.1058098077774048,-1.6813179455199183,-2.5272701422320765,2.2819077211567382,-1.0184271971331995,0.5348289608955383
