Eg3-git/Classifiers/Data Collection/u5/u5xyz2_ur3e_joint_states.csv
time,elbow_joint,shoulder_lift_joint,shoulder_pan_joint,wrist_1_joint,wrist_2_joint,wrist_3_joint
1708437497.5100276,-1.133426308631897,-1.6666504345335902,-2.523637835179464,2.309295340175293,-1.011679474507467,0.11888190358877182
1708437497.5120006,-1.1333906650543213,-1.6666494808592738,-2.523555580769674,2.3092447954365234,-1.011679474507467,0.11888960748910904
1708437497.514037,-1.1333861351013184,-1.6666704616942347,-2.5235841909991663,2.3092683988758544,-1.011679474507467,0.1188775897026062
1708437497.5160203,-1.1333861351013184,-1.6666790447630824,-2.523560110722677,2.3092610078999023,-1.011695686970846,0.11889373511075974
1708437497.5180426,-1.1334189176559448,-1.6666590176024378,-2.523567501698629,2.3093060690113525,-1.011707607899801,0.11886600404977798
1708437497.5200253,-1.1333436965942383,-1.6666904888548792,-2.5236006418811243,2.3092941480823974,-1.0117033163653772,0.11882136762142181
1708437497.5220373,-1.1333727836608887,-1.666666646996969,-2.5235629717456263,2.3092610078999023,-1.0116871039019983,0.11884546279907227
1708437497.524072,-1.1333290338516235,-1.6666590176024378,-2.5235629717456263,2.309319420451782,-1.0116332213031214,0.11883693933486938
1708437497.5260627,-1.13336181640625,-1.6666461429991664,-2.5235841909991663,2.3093060690113525,-1.0116708914386194,0.11884543299674988
1708437497.5280662,-1.1334524154663086,-1.6666375599303187,-2.5235586802112024,2.3092774587818603,-1.011679474507467,0.11882886290550232
1708437497.5300462,-1.1334115266799927,-1.6667243442931117,-2.5236051718341272,2.3092402654835205,-1.011711899434225,0.11882035434246063
1708437497.5320268,-1.1334116458892822,-1.6666795216002406,-2.5236170927630823,2.3092610078999023,-1.011695686970846,0.11886169016361237
1708437497.5340488,-1.1333980560302734,-1.666654726068014,-2.5236051718341272,2.3093105989643554,-1.0116751829730433,0.11887757480144501
1708437497.5360296,-1.1333527565002441,-1.6666461429991664,-2.523567501698629,2.3092683988758544,-1.011683766041891,0.11884544789791107
1708437497.5380588,-1.1333608627319336,-1.66668762783193,-2.523572031651632,2.3093148904987792,-1.011646572743551,0.11883319169282913
1708437497.540052,-1.1334189176559448,-1.6666833362975062,-2.5235796610461634,2.3093148904987792,-1.0117161909686487,0.11884976923465729
1708437497.5420578,-1.1333482265472412,-1.666694780389303,-2.523581091557638,2.3092655378529052,-1.0117033163653772,0.11882464587688446
1708437497.5440602,-1.1334352493286133,-1.6665970287718714,-2.5235467592822474,2.3092805582233886,-1.0117033163653772,0.11885847896337509
1708437497.546022,-1.1334024667739868,-1.666699071923727,-2.5235870520221155,2.3092896181293945,-1.0116584936725062,0.1188497394323349
1708437497.5480256,-1.133285403251648,-1.6666861973204554,-2.5235422293292444,2.309295340175293,-1.0117195288287562,0.11879635602235794
1708437497.550035,-1.1333861351013184,-1.6666623554625453,-2.5235887209521692,2.3093103605457763,-1.0117033163653772,0.11883759498596191
1708437497.552007,-1.1333742141723633,-1.66668762783193,-2.523621384297506,2.3092116552540283,-1.0116499106036585,0.11885415762662888
1708437497.5540776,-1.13336980342865,-1.6667114696898402,-2.523560110722677,2.309295340175293,-1.0117252508746546,0.1188584715127945
1708437497.5560184,-1.1333953142166138,-1.6666704616942347,-2.523576561604635,2.3092896181293945,-1.011707607899801,0.11882998049259186
1708437497.5580275,-1.1333861351013184,-1.6667314968504847,-2.523534599934713,2.3092312055775146,-1.011683766041891,0.11876371502876282
1708437497.560019,-1.1334069967269897,-1.6667353115477503,-2.523602072392599,2.309319420451782,-1.011646572743551,0.11882566660642624
1708437497.5620813,-1.1334205865859985,-1.666715761224264,-2.52356464067568,2.3093134599873046,-1.0116871039019983,0.11884190887212753
1708437497.564173,-1.1334189176559448,-1.666715761224264,-2.523572031651632,2.3093389707752685,-1.0117209593402308,0.11883759498596191
1708437497.5660398,-1.1333861351013184,-1.6666790447630824,-2.523555580769674,2.3092402654835205,-1.0116632620440882,0.11882136017084122
1708437497.5680468,-1.133414387702942,-1.666715761224264,-2.523576561604635,2.3092970091053466,-1.0116913954364222,0.11877664178609848
1708437497.5700452,-1.1333696842193604,-1.6666103802123011,-2.523593250905172,2.3093105989643554,-1.011679474507467,0.11883432418107986
1708437497.572021,-1.1333905458450317,-1.6666790447630824,-2.523534599934713,2.3092941480823974,-1.0116589705096644,0.11875608563423157
1708437497.574047,-1.1334099769592285,-1.6667114696898402,-2.523567501698629,2.3092402654835205,-1.0116546789752405,0.11876901239156723
1708437497.5760393,-1.1333363056182861,-1.6666537723936976,-2.523572031651632,2.3092729288288574,-1.0116632620440882,0.11878526955842972
1708437497.5780227,-1.1333742141723633,-1.6667314968504847,-2.523597542439596,2.3092312055775146,-1.011646572743551,0.11880183219909668
1708437497.5800264,-1.133360743522644,-1.66668762783193,-2.5235751310931605,2.3092357355305175,-1.011683766041891,0.11878526955842972
1708437497.582041,-1.133365273475647,-1.6666919193663539,-2.5235841909991663,2.3092521864124755,-1.0116751829730433,0.1187647208571434
1708437497.584083,-1.1333861351013184,-1.6666833362975062,-2.5236125628100794,2.3092774587818603,-1.0116880575763147,0.11874096095561981
1708437497.5860226,-1.1334069967269897,-1.666666170159811,-2.5235841909991663,2.3093389707752685,-1.0116351286517542,0.1187896803021431
1708437497.5880153,-1.1334161758422852,-1.666694780389303,-2.5235887209521692,2.3092402654835205,-1.011683766041891,0.11876903474330902
1708437497.5900304,-1.13336181640625,-1.666694780389303,-2.523572031651632,2.3092774587818603,-1.011683766041891,0.11870960146188736
1708437497.5920181,-1.1333951950073242,-1.6666704616942347,-2.523551050816671,2.3092610078999023,-1.0116546789752405,0.11876152455806732
1708437497.5940738,-1.13336980342865,-1.6666623554625453,-2.52356464067568,2.309302969569824,-1.0116751829730433,0.11876153945922852
1708437497.5960186,-1.1334024667739868,-1.6667114696898402,-2.523576561604635,2.3093435007282714,-1.0116665999041956,0.11874528229236603
1708437497.5980492,-1.1334024667739868,-1.6666537723936976,-2.523551050816671,2.3093554216572265,-1.011667553578512,0.11875820904970169
1708437497.6000242,-1.133381724357605,-1.6666861973204554,-2.523560110722677,2.3092819887348632,-1.0117047468768519,0.11875822395086288
1708437497.6019921,-1.1333951950073242,-1.6666494808592738,-2.523538891469137,2.3092447954365234,-1.0116589705096644,0.11878640204668045
1708437497.6040423,-1.1333788633346558,-1.666699071923727,-2.5235841909991663,2.3092941480823974,-1.0116708914386194,0.11874528229236603
1708437497.606,-1.1333951950073242,-1.6667314968504847,-2.523551050816671,2.30933587133374,-1.011683766041891,0.11876589804887772
1708437497.6079893,-1.1333363056182861,-1.666661878625387,-2.5235796610461634,2.3092819887348632,-1.011679474507467,0.11875822395086288
1708437497.6099968,-1.1333905458450317,-1.6666790447630824,-2.523593250905172,2.3092729288288574,-1.011707607899801,0.11874095350503922
1708437497.6119869,-1.1333980560302734,-1.6666494808592738,-2.523572031651632,2.3092476564594726,-1.011711899434225,0.11874528229236603
1708437497.6140418,-1.1334189176559448,-1.666666646996969,-2.523572031651632,2.3092564779468994,-1.0116871039019983,0.11879071593284607
1708437497.6160026,-1.133365273475647,-1.666699071923727,-2.523538891469137,2.3092896181293945,-1.0116589705096644,0.11880693584680557
1708437497.618032,-1.1334054470062256,-1.666699071923727,-2.523581091557638,2.3092641073414306,-1.0116708914386194,0.11872144043445587
1708437497.620004,-1.1333571672439575,-1.6666904888548792,-2.52356464067568,2.309319420451782,-1.0116375128375452,0.11878634989261627
1708437497.6220315,-1.1333571672439575,-1.6667071781554164,-2.5236051718341272,2.3092774587818603,-1.011650864277975,0.11873767524957657
1708437497.624024,-1.133365273475647,-1.6667028866209925,-2.523551050816671,2.3092896181293945,-1.011667553578512,0.11875392496585846
1708437497.6260278,-1.1333438158035278,-1.6666494808592738,-2.523555580769674,2.3092564779468994,-1.011679474507467,0.11879067867994308
1708437497.6280653,-1.1333363056182861,-1.6666623554625453,-2.523597542439596,2.3092521864124755,-1.0116375128375452,0.11872142553329468
1708437497.6300387,-1.1333935260772705,-1.6666461429991664,-2.5235887209521692,2.309302969569824,-1.011646572743551,0.11871382594108582
1708437497.6320012,-1.1333662271499634,-1.666699071923727,-2.523572031651632,2.3093134599873046,-1.011683766041891,0.11870093643665314
1708437497.6340215,-1.13336980342865,-1.6666790447630824,-2.523551050816671,2.309319420451782,-1.0117090384112757,0.11873874813318253
1708437497.636017,-1.1333742141723633,-1.6666537723936976,-2.5235629717456263,2.3092521864124755,-1.0116499106036585,0.1187874972820282
1708437497.6380634,-1.1333571672439575,-1.6666790447630824,-2.523531500493185,2.3093225198933105,-1.0116351286517542,0.11873435974121094
1708437497.6400282,-1.1333482265472412,-1.66668762783193,-2.52356464067568,2.3093060690113525,-1.0116999785052698,0.11875064671039581
1708437497.642052,-1.1333832740783691,-1.6667033634581507,-2.5236216227160853,2.30933587133374,-1.011679474507467,0.11874313652515411
1708437497.644021,-1.1333199739456177,-1.6666833362975062,-2.5236290136920374,2.30933587133374,-1.0116375128375452,0.11871813237667084
1708437497.6459982,-1.1333199739456177,-1.666715761224264,-2.5235841909991663,2.3092402654835205,-1.011728588734762,0.11869840323925018
1708437497.6479976,-1.133387804031372,-1.6666747532286585,-2.523560110722677,2.3092774587818603,-1.0116751829730433,0.11871030181646347
1708437497.6500242,-1.1333662271499634,-1.6667033634581507,-2.523621384297506,2.3092986780354003,-1.011646572743551,0.11871033161878586
1708437497.6520092,-1.1333454847335815,-1.666699071923727,-2.523613993321554,2.3092686372944335,-1.0116999785052698,0.11864932626485825
1708437497.654076,-1.1333171129226685,-1.6667114696898402,-2.5236051718341272,2.3092896181293945,-1.011679474507467,0.11868645250797272
1708437497.6560147,-1.1333696842193604,-1.6666375599303187,-2.5235629717456263,2.3093089300343017,-1.0116632620440882,0.11873981356620789
1708437497.6580184,-1.13336181640625,-1.6666795216002406,-2.5235887209521692,2.3092970091053466,-1.011683766041891,0.1186821386218071
1708437497.6600254,-1.1333788633346558,-1.6666504345335902,-2.523567501698629,2.3092896181293945,-1.011683766041891,0.11868211627006531
1708437497.6620858,-1.1333571672439575,-1.666727205316061,-2.5235467592822474,2.3092564779468994,-1.0116999785052698,0.1186407208442688
1708437497.6640222,-1.1333707571029663,-1.6667186222472132,-2.523572031651632,2.3093015390583496,-1.0116303602801722,0.11866585165262222
1708437497.6659994,-1.1333526372909546,-1.6667114696898402,-2.523621384297506,2.3093313413807373,-1.0116217772113245,0.11869838833808899
1708437497.6680002,-1.1333922147750854,-1.6667033634581507,-2.5235796610461634,2.3093179899403076,-1.0116751829730433,0.11867789179086685
1708437497.6700308,-1.1333788633346558,-1.6667071781554164,-2.523567501698629,2.3092521864124755,-1.011646572743551,0.11865368485450745
1708437497.672012,-1.1333788633346558,-1.6666776142516078,-2.5235796610461634,2.3092729288288574,-1.011683766041891,0.11865365505218506
1708437497.6740482,-1.1333588361740112,-1.666666646996969,-2.523613993321554,2.3092774587818603,-1.0116913954364222,0.11864935606718063
1708437497.6760638,-1.1333290338516235,-1.6667114696898402,-2.523572031651632,2.3092683988758544,-1.011650864277975,0.11867022514343262
1708437497.678022,-1.1333198547363281,-1.6667186222472132,-2.5235136190997522,2.3092402654835205,-1.011650864277975,0.1186746284365654
1708437497.6800404,-1.1333543062210083,-1.6666704616942347,-2.5235841909991663,2.3093392091938476,-1.011695686970846,0.11865731328725815
1708437497.6820269,-1.13336181640625,-1.666715761224264,-2.523551050816671,2.3092896181293945,-1.0116179625140589,0.1186659187078476
1708437497.6839929,-1.133349895477295,-1.6667071781554164,-2.5235753695117396,2.3093015390583496,-1.0116880575763147,0.1186746284365654
1708437497.6860206,-1.1333335638046265,-1.6666943035521449,-2.523609463368551,2.3092402654835205,-1.011683766041891,0.11865372210741043
1708437497.688021,-1.13336181640625,-1.6667100391783656,-2.523567501698629,2.3093134599873046,-1.011683766041891,0.11866242438554764
1708437497.6900616,-1.1333707571029663,-1.6667143307127894,-2.523621384297506,2.3093105989643554,-1.011639420186178,0.11866237223148346
1708437497.6920898,-1.133349895477295,-1.666722913781637,-2.523539129887716,2.3092986780354003,-1.011646572743551,0.11862561851739883
1708437497.694016,-1.133366346359253,-1.6667396030821742,-2.523552481328146,2.3092924791523437,-1.0116718451129358,0.11864183843135834
1708437497.6960227,-1.1333634853363037,-1.6667143307127894,-2.523538891469137,2.3092729288288574,-1.011650864277975,0.11860828101634979
1708437497.6980171,-1.1333571672439575,-1.6667763195433558,-2.52354342142214,2.3093179899403076,-1.0116999785052698,0.11870387196540833
1708437497.7000082,-1.1333379745483398,-1.666743894616598,-2.5235887209521692,2.3092476564594726,-1.011695686970846,0.11869083344936371
1708437497.702011,-1.133349895477295,-1.6667186222472132,-2.523637835179464,2.3093015390583496,-1.011641804371969,0.11867894232273102
1708437497.7040386,-1.133349895477295,-1.6667028866209925,-2.523572031651632,2.3092896181293945,-1.011679474507467,0.11862556636333466
1708437497.7060442,-1.1333136558532715,-1.6666790447630824,-2.523576561604635,2.3093103605457763,-1.011679474507467,0.11863742768764496
1708437497.7079902,-1.133366346359253,-1.6666857204832972,-2.523602072392599,2.3092941480823974,-1.011695686970846,0.11865806579589844
1708437497.7100387,-1.1333407163619995,-1.6666985950865687,-2.523593250905172,2.309319420451782,-1.011695686970846,0.11863738298416138
1708437497.7120228,-1.1332955360412598,-1.6667310200133265,-2.523581091557638,2.3092896181293945,-1.0116093794452112,0.11865806579589844
1708437497.7140148,-1.133297324180603,-1.6667186222472132,-2.5235512892352503,2.3093060690113525,-1.0116751829730433,0.11862559616565704
1708437497.7160316,-1.1333515644073486,-1.6666623554625453,-2.5235887209521692,2.309286518687866,-1.011679474507467,0.11866237968206406
1708437497.7179859,-1.1333798170089722,-1.666772028008932,-2.5235629717456263,2.3092986780354003,-1.011711899434225,0.1186908632516861
1708437497.719986,-1.133285403251648,-1.6667267284789027,-2.523576561604635,2.3092729288288574,-1.011695686970846,0.11861798912286758
1708437497.7219994,-1.1332881450653076,-1.6666776142516078,-2.523581091557638,2.3093060690113525,-1.011695686970846,0.11861367523670197
1708437497.7240334,-1.1333515644073486,-1.6667186222472132,-2.5235796610461634,2.3092610078999023,-1.011695686970846,0.11863851547241211
1708437497.7260873,-1.1333136558532715,-1.6666790447630824,-2.5235961119281214,2.3093301492878417,-1.0116880575763147,0.11864614486694336
1708437497.7280495,-1.1332683563232422,-1.6667353115477503,-2.5236333052264612,2.3093060690113525,-1.0116880575763147,0.11866337060928345
1708437497.7300463,-1.133280873298645,-1.6667310200133265,-2.523572031651632,2.3092476564594726,-1.0116761366473597,0.1186385378241539
1708437497.7319925,-1.1332591772079468,-1.6667310200133265,-2.5235915819751185,2.3092941480823974,-1.011683766041891,0.11863422393798828
1708437497.7340457,-1.133344292640686,-1.6667186222472132,-2.5235915819751185,2.3092850881763916,-1.0116880575763147,0.11864183098077774
1708437497.7359896,-1.1333225965499878,-1.6666985950865687,-2.5235841909991663,2.3092805582233886,-1.0116422812091272,0.11860495805740356
1708437497.7380495,-1.133256435394287,-1.666727205316061,-2.523576561604635,2.3092729288288574,-1.011646572743551,0.11863849312067032
1708437497.7400396,-1.133285403251648,-1.6667353115477503,-2.523572031651632,2.3093060690113525,-1.0116308371173304,0.11866669356822968
1708437497.7420378,-1.133285403251648,-1.6667143307127894,-2.5235841909991663,2.3092357355305175,-1.0116880575763147,0.11864614486694336
1708437497.7440033,-1.1332944631576538,-1.6666904888548792,-2.5235961119281214,2.3092896181293945,-1.011679474507467,0.11860824376344681
1708437497.7459948,-1.1332474946975708,-1.6667396030821742,-2.5235300699817103,2.3093060690113525,-1.0116999785052698,0.11864615976810455
1708437497.7480211,-1.1332473754882812,-1.6667472324767054,-2.5236168543445032,2.309286518687866,-1.0116718451129358,0.11866669356822968
1708437497.7500234,-1.1332944631576538,-1.6666776142516078,-2.5235887209521692,2.3092641073414306,-1.011646572743551,0.11865045875310898
1708437497.7520258,-1.1332944631576538,-1.666743894616598,-2.5235841909991663,2.3092729288288574,-1.0116589705096644,0.11862991750240326
1708437497.7540784,-1.133277416229248,-1.6667057476439417,-2.5235586802112024,2.3092357355305175,-1.0116551558123987,0.11866233497858047
1708437497.7560232,-1.13326096534729,-1.666746278802389,-2.523576561604635,2.3093225198933105,-1.011646572743551,0.11869517713785172
1708437497.758039,-1.1332327127456665,-1.6667787037291468,-2.5235796610461634,2.3092445570179443,-1.0116589705096644,0.11868321150541306
1708437497.760019,-1.133253574371338,-1.6667782268919886,-2.5235841909991663,2.3092655378529052,-1.01172382036318,0.1186547726392746
1708437497.7620747,-1.1331963539123535,-1.6668836079039515,-2.5236125628100794,2.3092819887348632,-1.011679474507467,0.11865810304880142
1708437497.7640746,-1.1331753730773926,-1.66674866298818,-2.5236333052264612,2.3092941480823974,-1.011650864277975,0.11865909397602081
1708437497.7660403,-1.13319993019104,-1.6668421230711878,-2.5235841909991663,2.3092986780354003,-1.0116351286517542,0.11864615231752396
1708437497.768038,-1.1332579851150513,-1.6668421230711878,-2.5236125628100794,2.3092683988758544,-1.0116632620440882,0.11858877539634705
1708437497.7700765,-1.1332252025604248,-1.6668292484679164,-2.5235841909991663,2.3092819887348632,-1.0116594473468226,0.1186746284365654
1708437497.7720816,-1.1332372426986694,-1.66687073330068,-2.5235796610461634,2.309270067805908,-1.011639420186178,0.11868752539157867
1708437497.774052,-1.1332788467407227,-1.6669227085509242,-2.5236244837390345,2.3091952043720703,-1.0117090384112757,0.11868325620889664
1708437497.7760246,-1.1332581043243408,-1.666910787621969,-2.5235663096057337,2.3092610078999023,-1.0116708914386194,0.11866665631532669
1708437497.7780428,-1.1332178115844727,-1.6668817005553187,-2.523609463368551,2.309229536647461,-1.0116785208331507,0.11863744258880615
1708437497.7800953,-1.1332907676696777,-1.6668664417662562,-2.5235632101642054,2.3092610078999023,-1.0117152372943323,0.11860933154821396
1708437497.782036,-1.133204460144043,-1.666898866693014,-2.523572031651632,2.3092941480823974,-1.0117033163653772,0.11867022514343262
1708437497.7840288,-1.1332952976226807,-1.6669064960875453,-2.5235632101642054,2.309232636088989,-1.0117109457599085,0.11865906417369843
1708437497.7860239,-1.1332907676696777,-1.6668936214842738,-2.5235841909991663,2.309183283443115,-1.0116990248309534,0.11863742768764496
1708437497.7880661,-1.133249044418335,-1.6669994793333949,-2.523567501698629,2.3092447954365234,-1.0117347876178187,0.11864614486694336
1708437497.790045,-1.1332207918167114,-1.6669703922667445,-2.5235841909991663,2.3092447954365234,-1.0116990248309534,0.11862994730472565
1708437497.792008,-1.1332699060440063,-1.6669627628722132,-2.5235841909991663,2.309307499522827,-1.0117281118976038,0.11866672337055206
1708437497.794057,-1.1332207918167114,-1.6669184170165003,-2.5236406962024134,2.309262676829956,-1.0116828123675745,0.11866237968206406
1708437497.7960382,-1.1332491636276245,-1.6669584713377894,-2.5235915819751185,2.309246225947998,-1.0116913954364222,0.11869951337575912
1708437497.7980437,-1.1332460641860962,-1.6668969593443812,-2.5236170927630823,2.309201164836548,-1.011735741292135,0.11864615231752396
1708437497.8000107,-1.1332341432571411,-1.6669627628722132,-2.5236199537860315,2.30925361692395,-1.0116871039019983,0.11862988770008087
1708437497.8020363,-1.1332581043243408,-1.6669422588744105,-2.5236199537860315,2.3092641073414306,-1.0116785208331507,0.11865806579589844
1708437497.8040576,-1.1332054138183594,-1.6669703922667445,-2.5236530939685267,2.309217615718506,-1.011735741292135,0.11866670846939087
1708437497.805994,-1.1332088708877563,-1.6669637165465296,-2.523660723363058,2.3092221456715087,-1.011744801198141,0.11868321895599365
1708437497.807987,-1.1332461833953857,-1.6669508419432582,-2.5236273447619837,2.3092474180408935,-1.0116990248309534,0.11867894232273102
1708437497.8100138,-1.1332134008407593,-1.6669260464110316,-2.523665253316061,2.3091935354420166,-1.0116947332965296,0.11865480989217758
1708437497.811996,-1.1331510543823242,-1.6669312916197718,-2.523675505314962,2.3092102247425537,-1.0117433706866663,0.11866239458322525
1708437497.814021,-1.1332178115844727,-1.6669184170165003,-2.523663584386007,2.3092025953480224,-1.0116856733905237,0.11862991005182266
1708437497.816004,-1.1332433223724365,-1.66688932994985,-2.523729387913839,2.3091563421436767,-1.0117152372943323,0.11867107450962067
1708437497.818051,-1.1331629753112793,-1.6669022045531214,-2.5237537066089075,2.3092145162769775,-1.0116546789752405,0.11868326365947723
1708437497.8200037,-1.133189082145691,-1.666955133477682,-2.5236666838275355,2.309141083354614,-1.011650864277975,0.11864613741636276
1708437497.8220565,-1.1332224607467651,-1.666943212548727,-2.5237370173083704,2.3091365534016113,-1.011667553578512,0.1186060681939125
1708437497.8240278,-1.133196473121643,-1.6668578586974085,-2.52369195619692,2.3091367918201904,-1.011646572743551,0.11864183098077774
1708437497.8260798,-1.1331889629364014,-1.666877885858053,-2.5236993471728724,2.3091696935841064,-1.0116751829730433,0.11864614486694336
1708437497.8280108,-1.1332144737243652,-1.6668945751585902,-2.5237160364734095,2.30915014326062,-1.011728588734762,0.11864611506462097
1708437497.8300421,-1.1331764459609985,-1.6668902836241664,-2.523745838795797,2.309129162425659,-1.0117033163653772,0.11868209391832352
1708437497.8320658,-1.1332404613494873,-1.666915079156393,-2.5237248579608362,2.3091038900562744,-1.0116871039019983,0.11865480989217758
1708437497.8340478,-1.1332190036773682,-1.6668864689269007,-2.5236621538745325,2.309141083354614,-1.011707607899801,0.11862988770008087
1708437497.8360314,-1.1331391334533691,-1.6668817005553187,-2.5236948172198694,2.3091787534901123,-1.01172382036318,0.11869517713785172
1708437497.8380432,-1.1331228017807007,-1.666877885858053,-2.5237234274493616,2.309145613307617,-1.0116990248309534,0.11863307654857635
1708437497.8400397,-1.1332025527954102,-1.6669022045531214,-2.523680035267965,2.309141083354614,-1.0116694609271448,0.1186746284365654
1708437497.842057,-1.1331981420516968,-1.6669184170165003,-2.523696486149923,2.309133692378662,-1.011707607899801,0.11865806579589844
1708437497.8440158,-1.1331981420516968,-1.666927000085348,-2.5237370173083704,2.309121771449707,-1.0117161909686487,0.11862561851739883
1708437497.846033,-1.1331855058670044,-1.666877885858053,-2.523675505314962,2.309109612102173,-1.0117195288287562,0.11862993240356445
1708437497.8480132,-1.1331735849380493,-1.6669141254820765,-2.5237415472613733,2.3091322618671875,-1.0116871039019983,0.11866237968206406
1708437497.8500307,-1.133143663406372,-1.6668535671629847,-2.523696486149923,2.309145613307617,-1.0117033163653772,0.1186908632516861
1708437497.8520122,-1.1332098245620728,-1.6668859920897425,-2.5236712137805384,2.3091367918201904,-1.0117271582232874,0.11865806579589844
1708437497.8540359,-1.1331720352172852,-1.6669260464110316,-2.5236621538745325,2.309154673213623,-1.0117152372943323,0.11864614486694336
1708437497.8560064,-1.1331483125686646,-1.6669346294798792,-2.523675505314962,2.309170885677002,-1.0117033163653772,0.11863742768764496
1708437497.857998,-1.1331346035003662,-1.6669064960875453,-2.5236712137805384,2.30915014326062,-1.0117433706866663,0.1186547726392746
1708437497.8599906,-1.1332433223724365,-1.6668979130186976,-2.523675505314962,2.309166594142578,-1.0117152372943323,0.11865366250276566
1708437497.8620799,-1.1332224607467651,-1.6668945751585902,-2.5237038771258753,2.309079809779785,-1.0117228666888636,0.11867894232273102
1708437497.8640409,-1.1331934928894043,-1.6668902836241664,-2.5236874262439173,2.309145613307617,-1.0117314497577112,0.11867023259401321
1708437497.8660424,-1.1332025527954102,-1.6668945751585902,-2.5237084070788782,2.309145613307617,-1.0117314497577112,0.11867022514343262
1708437497.8680196,-1.1332316398620605,-1.6669064960875453,-2.5236621538745325,2.309145613307617,-1.0117066542254847,0.11867894232273102
1708437497.8699965,-1.133181095123291,-1.6668902836241664,-2.523729387913839,2.309133692378662,-1.0117109457599085,0.11866240203380585
1708437497.871999,-1.1331934928894043,-1.6668693027892054,-2.52369195619692,2.30915014326062,-1.0117271582232874,0.11864932626485825
1708437497.8740153,-1.133164644241333,-1.6668945751585902,-2.5236874262439173,2.309121771449707,-1.0117314497577112,0.11869517713785172
1708437497.8760517,-1.1332026720046997,-1.6669227085509242,-2.5236502329455774,2.309154434795044,-1.011707607899801,0.11866237968206406
1708437497.8780322,-1.1331273317337036,-1.6668578586974085,-2.523701016102926,2.30915014326062,-1.0116737524615687,0.1186952218413353
1708437497.8800006,-1.1331900358200073,-1.6669446430602015,-2.5237038771258753,2.3091084200092773,-1.0117347876178187,0.11870267242193222
1708437497.8820257,-1.133181095123291,-1.6668664417662562,-2.523680035267965,2.309138222331665,-1.0117672125445765,0.11862559616565704
1708437497.8840017,-1.1331409215927124,-1.6669236622252406,-2.523684565220968,2.309166355723999,-1.0117629210101526,0.11866593360900879
1708437497.886008,-1.1331981420516968,-1.6669064960875453,-2.523663584386007,2.309170885677002,-1.0117390791522425,0.11864502727985382
1708437497.8879914,-1.1332190036773682,-1.6669031582274378,-2.52366811433901,2.309192104930542,-1.0117390791522425,0.11865806579589844
1708437497.8900206,-1.133169174194336,-1.6668817005553187,-2.523663584386007,2.3091367918201904,-1.011763874684469,0.11868219822645187
1708437497.89203,-1.1331599950790405,-1.6669184170165003,-2.523672644292013,2.3090993601032714,-1.0117510000811976,0.1186605766415596
1708437497.8940523,-1.1331764459609985,-1.666849275628561,-2.523672644292013,2.30915014326062,-1.0117390791522425,0.11865806579589844
1708437497.8960106,-1.133207082748413,-1.6668859920897425,-2.523660723363058,2.309079809779785,-1.0117228666888636,0.11869838088750839
1708437497.898048,-1.1331855058670044,-1.666877885858053,-2.5236709753619593,2.309142513866089,-1.0117023626910608,0.11871135234832764
1708437497.900053,-1.1332190036773682,-1.666910787621969,-2.523712937031881,2.309133692378662,-1.0117195288287562,0.11867024004459381
1708437497.9020429,-1.1332054138183594,-1.6669594250121058,-2.5236547628985804,2.309124632472656,-1.0117271582232874,0.11864934861660004
1708437497.9040103,-1.1331764459609985,-1.666898866693014,-2.523680035267965,2.3091129499622802,-1.0116899649249476,0.11867024749517441
1708437497.906029,-1.1332098245620728,-1.6668859920897425,-2.5236709753619593,2.3091248708912353,-1.0117400328265589,0.11868977546691895
1708437497.908012,-1.1331720352172852,-1.6669022045531214,-2.523701016102926,2.309145613307617,-1.0117314497577112,0.11867783963680267
1708437497.9099994,-1.1331934928894043,-1.6668945751585902,-2.5237038771258753,2.3091158109852294,-1.0117228666888636,0.11863308399915695
1708437497.9120011,-1.1332054138183594,-1.6668864689269007,-2.5237084070788782,2.309138222331665,-1.0116828123675745,0.11871464550495148
1708437497.9140391,-1.1331981420516968,-1.666882177392477,-2.5236428419696253,2.309170885677002,-1.0117152372943323,0.11868976056575775
1708437497.9160056,-1.1331799030303955,-1.6668907604613246,-2.523675505314962,2.3091532427021484,-1.0117510000811976,0.1186908632516861
1708437497.9180515,-1.1332098245620728,-1.6668817005553187,-2.523663584386007,2.309121771449707,-1.0117314497577112,0.11872685700654984
1708437497.9200158,-1.1332188844680786,-1.6668864689269007,-2.5237296263324183,2.3091530042835693,-1.0117109457599085,0.11871030181646347
1708437497.9220164,-1.1331844329833984,-1.666877885858053,-2.5236709753619593,2.309141083354614,-1.0117066542254847,0.11871463060379028
1708437497.9240468,-1.1331764459609985,-1.6669031582274378,-2.5236709753619593,2.309170885677002,-1.0117109457599085,0.11869727820158005
1708437497.926048,-1.1332098245620728,-1.6668836079039515,-2.523696486149923,2.309166594142578,-1.0117271582232874,0.11867787688970566
1708437497.9280636,-1.1331918239593506,-1.6668454609312953,-2.5236428419696253,2.3091367918201904,-1.011768643056051,0.11870162189006805
1708437497.9300148,-1.133200764656067,-1.6668583355345667,-2.52369195619692,2.3091084200092773,-1.0117757956134241,0.11869406700134277
1708437497.9320278,-1.1331735849380493,-1.6668750248351039,-2.523663584386007,2.30915014326062,-1.0116785208331507,0.11870158463716507
1708437497.934043,-1.1331981420516968,-1.6668583355345667,-2.523675505314962,2.3091530042835693,-1.0117271582232874,0.11868645250797272
1708437497.9360054,-1.133200764656067,-1.6668302021422328,-2.523717228566305,2.3091038900562744,-1.0117347876178187,0.11870598793029785
1708437497.9380455,-1.1332144737243652,-1.6668793163695277,-2.523675505314962,2.3091470438190917,-1.0117228666888636,0.11872684210538864
1708437497.9400222,-1.1331300735473633,-1.6668836079039515,-2.523693386708395,2.309129162425659,-1.0117314497577112,0.11872687935829163
1708437497.942034,-1.1331673860549927,-1.666821619073385,-2.523680035267965,2.309096260661743,-1.0116899649249476,0.11869724839925766
1708437497.9440112,-1.1332341432571411,-1.666825910607809,-2.523675505314962,2.309170885677002,-1.0116947332965296,0.11872255802154541
1708437497.9459844,-1.1331934928894043,-1.6668311558165492,-2.523634974156515,2.309187574977539,-1.0117271582232874,0.11871815472841263
1708437497.9480429,-1.1332297325134277,-1.666912694970602,-2.523647133504049,2.309141083354614,-1.0117467085467737,0.11872252821922302
1708437497.9500175,-1.133226990699768,-1.6668225727477015,-2.5236228148089808,2.309187574977539,-1.0117672125445765,0.11876685917377472
1708437497.9519916,-1.133200764656067,-1.6668387852110804,-2.523647133504049,2.3091038900562744,-1.0117476622210901,0.11878206580877304
1708437497.9540446,-1.1332178115844727,-1.6668302021422328,-2.523647133504049,2.309162064189575,-1.0117347876178187,0.11871716380119324
1708437497.9560096,-1.1332207918167114,-1.6668139896788539,-2.523693386708395,2.3092068868824462,-1.0117524305926722,0.11880262196063995
1708437497.9580479,-1.1331918239593506,-1.666847368279928,-2.5236154238330286,2.3092068868824462,-1.0117271582232874,0.11877775192260742
1708437497.96001,-1.1332088708877563,-1.666847368279928,-2.5236697832690638,2.309133692378662,-1.0117510000811976,0.11876903474330902
1708437497.9620469,-1.1332371234893799,-1.666797777215475,-2.52366811433901,2.3091742235371093,-1.0116947332965296,0.11880183964967728
1708437497.9641263,-1.1332088708877563,-1.6667896709837855,-2.523665253316061,2.3091696935841064,-1.0117552916156214,0.11883430927991867
1708437497.9660714,-1.1332759857177734,-1.6668149433531703,-2.523639504109518,2.309145613307617,-1.0116947332965296,0.11881053447723389
1708437497.9680412,-1.1332224607467651,-1.66679110149526,-2.5236273447619837,2.3091904360004882,-1.0116899649249476,0.11880183964967728
1708437497.970057,-1.1332178115844727,-1.6668726406493128,-2.5235825220691126,2.3091816145130615,-1.0116899649249476,0.11880182474851608
1708437497.9720213,-1.1332989931106567,-1.6667868099608363,-2.523660723363058,2.3091322618671875,-1.0117510000811976,0.1187647208571434
1708437497.9740472,-1.133265495300293,-1.666795393029684,-2.523651663457052,2.309145613307617,-1.0117195288287562,0.11880628019571304
1708437497.9760385,-1.1332898139953613,-1.666819234887594,-2.5236485640155237,2.3091904360004882,-1.0117152372943323,0.11880625039339066
1708437497.9780238,-1.1332563161849976,-1.6668397388853968,-2.523665253316061,2.3091608720966796,-1.0116871039019983,0.11876040697097778
1708437497.980026,-1.133265495300293,-1.6667825184264125,-2.5236154238330286,2.3091441827961425,-1.011707607899801,0.11879751831293106
1708437497.9820352,-1.1332744359970093,-1.6667739353575648,-2.5235872904406946,2.309166594142578,-1.0117281118976038,0.11881913989782333
1708437497.9840062,-1.133277416229248,-1.6668149433531703,-2.5235708395587366,2.3091906744190673,-1.0116871039019983,0.1188105046749115
1708437497.9860408,-1.1333017349243164,-1.66679110149526,-2.5235870520221155,2.3091890054890136,-1.0116785208331507,0.1187647208571434
1708437497.988016,-1.133297324180603,-1.6667996845641078,-2.523560110722677,2.3091727930256347,-1.0117047468768519,0.11879320442676544
1708437497.9900692,-1.1333017349243164,-1.666734357873434,-2.5235841909991663,2.3091935354420166,-1.0116871039019983,0.11876903474330902
1708437497.99202,-1.1333351135253906,-1.6667829952635707,-2.523555580769674,2.3091935354420166,-1.011683766041891,0.1187647208571434
1708437497.994023,-1.133280873298645,-1.6667829952635707,-2.523555580769674,2.309180184001587,-1.0117195288287562,0.11878526955842972
1708437497.9960673,-1.1333396434783936,-1.666701456109518,-2.523581091557638,2.3092221456715087,-1.011707607899801,0.11881375312805176
1708437497.9979987,-1.1333225965499878,-1.6667472324767054,-2.523531500493185,2.309196873302124,-1.0117595831500452,0.1188310980796814
1708437498.0000143,-1.1333225965499878,-1.6667057476439417,-2.523522679005758,2.3092385965534667,-1.0116990248309534,0.11881803721189499
1708437498.0020323,-1.1333136558532715,-1.6666790447630824,-2.52351957956423,2.309192343349121,-1.011735741292135,0.11877015233039856
1708437498.0040102,-1.133280873298645,-1.6667143307127894,-2.5235405603991907,2.309216185207031,-1.0117152372943323,0.11879320442676544
1708437498.0059955,-1.1332837343215942,-1.6666904888548792,-2.5235241095172327,2.309258146876953,-1.0116990248309534,0.11877232789993286
1708437498.0079834,-1.1333587169647217,-1.6666861973204554,-2.5235286394702356,2.3093105989643554,-1.011756722127096,0.11878526955842972
1708437498.0100443,-1.1333588361740112,-1.6667028866209925,-2.5235286394702356,2.3093060690113525,-1.0116828123675745,0.11884734034538269
1708437498.012012,-1.1333000659942627,-1.6666747532286585,-2.523503128682272,2.3093060690113525,-1.0116665999041956,0.11881375312805176
1708437498.0139956,-1.1333045959472656,-1.6666461429991664,-2.523531500493185,2.309349461192749,-1.0116880575763147,0.11881804466247559
1708437498.0160034,-1.1333351135253906,-1.666694780389303,-2.523515049611227,2.309325619334839,-1.0117161909686487,0.11883430182933807
1708437498.0180216,-1.133333444595337,-1.666638513604635,-2.523547951375143,2.309316797847412,-1.0116828123675745,0.11882567405700684
1708437498.020034,-1.1333379745483398,-1.6666590176024378,-2.52351957956423,2.309295578593872,-1.0116913954364222,0.11876041442155838
1708437498.022043,-1.133349895477295,-1.6666623554625453,-2.523552481328146,2.3093089300343017,-1.0117476622210901,0.11878525465726852
1708437498.0240164,-1.1333543062210083,-1.666654726068014,-2.523536030446188,2.3093089300343017,-1.011695686970846,0.1187896579504013
1708437498.0260293,-1.133349895477295,-1.666699071923727,-2.52351957956423,2.309328718776367,-1.0116871039019983,0.11882678419351578
1708437498.0280237,-1.1333788633346558,-1.6666790447630824,-2.523573700581686,2.309304638499878,-1.0116947332965296,0.11879754811525345
1708437498.0300465,-1.1333832740783691,-1.666715761224264,-2.523576323186056,2.3092550474354248,-1.011683766041891,0.11880622059106827
1708437498.0320559,-1.133340835571289,-1.6667200527586878,-2.5235779921161097,2.309316797847412,-1.0117271582232874,0.1188148558139801
1708437498.034026,-1.1333832740783691,-1.6666790447630824,-2.5235241095172327,2.309340401286743,-1.0116217772113245,0.11879751831293106
1708437498.0360582,-1.1333905458450317,-1.666715761224264,-2.523538891469137,2.3093628126331787,-1.011707607899801,0.11878527700901031
1708437498.0380652,-1.1333788633346558,-1.666638513604635,-2.523573700581686,2.3093673425861816,-1.0116880575763147,0.11879754811525345
1708437498.0400345,-1.1333935260772705,-1.6667005024352015,-2.5235570112811487,2.309321089381836,-1.0117161909686487,0.1187441274523735
1708437498.04207,-1.1333980560302734,-1.6666504345335902,-2.523536030446188,2.309337540263794,-1.0116913954364222,0.11881054937839508
1708437498.0440245,-1.1333935260772705,-1.6666904888548792,-2.5235450903521937,2.309403343791626,-1.011695686970846,0.11880181729793549
1708437498.0460293,-1.1334189176559448,-1.6666504345335902,-2.5235076586352747,2.30937044202771,-1.0117161909686487,0.11876902729272842
1708437498.048008,-1.1334233283996582,-1.6666833362975062,-2.5235496203051966,2.309340639705322,-1.011707607899801,0.11882241815328598
1708437498.0500247,-1.13339364528656,-1.666699071923727,-2.5235496203051966,2.3093134599873046,-1.0116913954364222,0.11876903474330902
1708437498.052018,-1.1334172487258911,-1.666666646996969,-2.52356464067568,2.309349461192749,-1.0117281118976038,0.11882240325212479
1708437498.0540092,-1.1334433555603027,-1.6666790447630824,-2.523503128682272,2.309353991145752,-1.011646572743551,0.1187809407711029
1708437498.0560102,-1.133446216583252,-1.6666623554625453,-2.523585383092062,2.309324188823364,-1.0117252508746546,0.11880625784397125
1708437498.0580263,-1.1334253549575806,-1.6666094265379847,-2.523518149052755,2.309316559428833,-1.0116351286517542,0.11879748106002808
1708437498.059994,-1.1334389448165894,-1.6666223011412562,-2.523536030446188,2.309361620540283,-1.0116971174823206,0.1187734603881836
1708437498.0620437,-1.1334298849105835,-1.666642805139059,-2.523531500493185,2.309279127711914,-1.0115931669818323,0.1187484860420227
1708437498.06408,-1.1334389448165894,-1.6666833362975062,-2.523567501698629,2.309349461192749,-1.0116437117206019,0.11880947649478912
1708437498.0660324,-1.1334389448165894,-1.6666461429991664,-2.523552481328146,2.30937044202771,-1.0116151014911097,0.11876034736633301
1708437498.0680184,-1.1334761381149292,-1.6666299305357875,-2.523581091557638,2.309370680446289,-1.0116236845599573,0.11878089606761932
1708437498.0699954,-1.1334507465362549,-1.6666795216002406,-2.523552481328146,2.309378071422241,-1.0116313139544886,0.11880509555339813
1708437498.0720234,-1.1334308385849,-1.6666180096068324,-2.523534599934713,2.3093854623981933,-1.0116522947894495,0.1187896654009819
1708437498.0740001,-1.1334887742996216,-1.6666308842101039,-2.52354342142214,2.3093690115162353,-1.0116437117206019,0.11881807446479797
1708437498.0760098,-1.133420705795288,-1.6666676006712855,-2.523522679005758,2.309382601375244,-1.0116522947894495,0.11880072206258774
1708437498.078061,-1.1333963871002197,-1.6666223011412562,-2.5235405603991907,2.3094064432331542,-1.0116480032550257,0.11883430182933807
1708437498.0800204,-1.133446216583252,-1.6666223011412562,-2.523552481328146,2.3093899923511962,-1.0116594473468226,0.11880514025688171
1708437498.0820563,-1.133484125137329,-1.6666223011412562,-2.523531500493185,2.3093809324451904,-1.0116437117206019,0.11877775192260742
1708437498.0840325,-1.1334506273269653,-1.666654726068014,-2.5234909693347376,2.3094140726276855,-1.0116193930255335,0.11883427947759628
1708437498.0860243,-1.1335004568099976,-1.666666646996969,-2.5234954992877405,2.3094467359730224,-1.0116480032550257,0.11882998794317245
1708437498.0880082,-1.1334534883499146,-1.666642805139059,-2.523552481328146,2.3094259935566406,-1.0116637388812464,0.11880623549222946
1708437498.0900316,-1.133458137512207,-1.6666752300658167,-2.5235241095172327,2.3094424444385986,-1.0116522947894495,0.11881056427955627
1708437498.092034,-1.1334418058395386,-1.6666833362975062,-2.52351957956423,2.3094634252735595,-1.0116356054889124,0.11881806701421738
1708437498.0939977,-1.1334625482559204,-1.6666919193663539,-2.5235241095172327,2.309478445644043,-1.0116613546954554,0.11876792460680008
1708437498.0960171,-1.1335079669952393,-1.666642805139059,-2.5235076586352747,2.3094815450855712,-1.0116270224200647,0.11879399418830872
1708437498.098016,-1.133489966392517,-1.6666504345335902,-2.523531500493185,2.309506817454956,-1.0116313139544886,0.11882135272026062
1708437498.0999966,-1.1335152387619019,-1.6666299305357875,-2.523531500493185,2.3095504480549316,-1.0116193930255335,0.11880181729793549
1708437498.1019974,-1.1335033178329468,-1.6667071781554164,-2.52356464067568,2.3095428186604003,-1.011639420186178,0.11880183219909668
1708437498.1040015,-1.1335062980651855,-1.666654726068014,-2.523503128682272,2.3095053869434814,-1.0116108099566858,0.11881806701421738
1708437498.1059926,-1.133522629737854,-1.666694780389303,-2.5235076586352747,2.3094965654560546,-1.0116480032550257,0.11882685124874115
1708437498.1079998,-1.133527159690857,-1.6666704616942347,-2.523482147847311,2.3095173078724365,-1.011622730885641,0.11883001029491425
1708437498.1100152,-1.1335062980651855,-1.6666213474669398,-2.52351957956423,2.309536858195923,-1.0116594473468226,0.11883759498596191
1708437498.1120207,-1.1335062980651855,-1.6667071781554164,-2.5235405603991907,2.3095008569904785,-1.011594597493307,0.1187896728515625
1708437498.1140187,-1.133527159690857,-1.6666704616942347,-2.5235121885882776,2.3095621305653076,-1.0116437117206019,0.11878889799118042
1708437498.1160061,-1.1334691047668457,-1.6666461429991664,-2.523573700581686,2.3095294672199707,-1.0116151014911097,0.11880183219909668
1708437498.1179996,-1.1335515975952148,-1.6666580639281214,-2.5235286394702356,2.3094979959675292,-1.011618439351217,0.11882567405700684
1708437498.119989,-1.1335515975952148,-1.6666590176024378,-2.5235944429980677,2.3095127779194335,-1.011589829121725,0.11881054937839508
1708437498.1219964,-1.1335062980651855,-1.666670938531393,-2.5235241095172327,2.309520645732544,-1.0116480032550257,0.11882567405700684
1708437498.1240342,-1.1335018873214722,-1.666654726068014,-2.52351957956423,2.3095084863850097,-1.0116031805621546,0.11878526955842972
1708437498.126029,-1.1334824562072754,-1.666666646996969,-2.5235405603991907,2.3095173078724365,-1.0116279760943812,0.1187484934926033
1708437498.12802,-1.1335033178329468,-1.6666308842101039,-2.523547951375143,2.3095261293598632,-1.0115779081927698,0.1188267394900322
1708437498.130039,-1.1334898471832275,-1.6666461429991664,-2.523538891469137,2.3094469743916015,-1.0116236845599573,0.11877238750457764
1708437498.132022,-1.1334854364395142,-1.6666232548155726,-2.523510519658224,2.3095099168964843,-1.0116031805621546,0.11881806701421738
1708437498.1340423,-1.1335062980651855,-1.6666590176024378,-2.5235076586352747,2.3094934660145263,-1.0116279760943812,0.11879751831293106
1708437498.1360102,-1.1334987878799438,-1.6666351757445277,-2.523531500493185,2.3094889360615234,-1.0116279760943812,0.11881380528211594
1708437498.137995,-1.1335062980651855,-1.6666676006712855,-2.5235405603991907,2.3095173078724365,-1.0116570631610315,0.11881054937839508
1708437498.1400237,-1.1334854364395142,-1.6666060886778773,-2.5235241095172327,2.3095547395893554,-1.0115836302386683,0.11882247030735016
1708437498.1420496,-1.1335301399230957,-1.6666022739806117,-2.5235241095172327,2.3094963270374755,-1.0115750471698206,0.11879751831293106
1708437498.1440122,-1.1334689855575562,-1.66662659267568,-2.523552481328146,2.3095547395893554,-1.0115955511676233,0.11882569640874863
1708437498.1459944,-1.1335152387619019,-1.6666470966734828,-2.523503128682272,2.3095173078724365,-1.0115869680987757,0.11878526955842972
1708437498.1479921,-1.1335480213165283,-1.6666470966734828,-2.523552481328146,2.3094636636921386,-1.0115955511676233,0.11881054937839508
1708437498.1499903,-1.133539080619812,-1.6666308842101039,-2.52351957956423,2.3094472128101806,-1.011632267628805,0.11879324167966843
1708437498.1520216,-1.1335062980651855,-1.6667052708067835,-2.523531500493185,2.3095218378254394,-1.0115669409381312,0.11879394203424454
1708437498.1540256,-1.1335062980651855,-1.6666223011412562,-2.5235570112811487,2.3095382887073974,-1.0115912596331995,0.11879751831293106
1708437498.1560225,-1.1334854364395142,-1.6666017971434535,-2.523560110722677,2.3095711904713134,-1.0116236845599573,0.11879751831293106
1708437498.1580184,-1.1335301399230957,-1.666654726068014,-2.523560110722677,2.3095339971729736,-1.0115955511676233,0.11882998049259186
1708437498.1600158,-1.1335017681121826,-1.6665979824461878,-2.523526970540182,2.3095053869434814,-1.0115998427020472,0.11883430182933807
1708437498.1620343,-1.1335777044296265,-1.6666351757445277,-2.5235570112811487,2.3094727235981445,-1.0115955511676233,0.11880621314048767
1708437498.1640768,-1.1335434913635254,-1.6666470966734828,-2.5235241095172327,2.309535189265869,-1.0116193930255335,0.11878528445959091
1708437498.1660917,-1.1334717273712158,-1.6666223011412562,-2.5235570112811487,2.3095173078724365,-1.0116236845599573,0.11880181729793549
1708437498.1680195,-1.1335595846176147,-1.6666308842101039,-2.523560110722677,2.3095082479664306,-1.0116031805621546,0.11880183219909668
1708437498.1700184,-1.133539080619812,-1.6666342220702113,-2.5235405603991907,2.3095173078724365,-1.0116193930255335,0.11881811171770096
1708437498.172018,-1.1335970163345337,-1.666642805139059,-2.523482147847311,2.3095428186604003,-1.0115998427020472,0.11878896504640579
1708437498.174053,-1.1335642337799072,-1.6666833362975062,-2.52356464067568,2.3095547395893554,-1.0116236845599573,0.11882246285676956
1708437498.1760163,-1.1335378885269165,-1.666638513604635,-2.5235405603991907,2.3095053869434814,-1.0115912596331995,0.11880622804164886
1708437498.1780648,-1.1335806846618652,-1.666654726068014,-2.523547951375143,2.3095173078724365,-1.011648956929342,0.11882244795560837
1708437498.1800365,-1.1335687637329102,-1.6666470966734828,-2.523531500493185,2.3094770151325683,-1.0115750471698206,0.11880947649478912
1708437498.1820412,-1.1335549354553223,-1.6667047939696253,-2.5235121885882776,2.3095249372669677,-1.0116117636310022,0.11881052702665329
1708437498.18403,-1.1335595846176147,-1.666638513604635,-2.5235241095172327,2.3095578390308837,-1.0115912596331995,0.11881377547979355
1708437498.1860008,-1.133545994758606,-1.6666833362975062,-2.52351957956423,2.3095382887073974,-1.01164418855776,0.11882674694061279
1708437498.1880555,-1.1335505247116089,-1.6666795216002406,-2.523515049611227,2.3095127779194335,-1.0115988890277308,0.1187572032213211
1708437498.1900253,-1.1335759162902832,-1.6666137180724085,-2.5235405603991907,2.3095385271259765,-1.0116117636310022,0.1188267394900322
1708437498.192002,-1.1335968971252441,-1.6666470966734828,-2.5235405603991907,2.3094755846210937,-1.0116656462298792,0.11877347528934479
1708437498.1940374,-1.1335850954055786,-1.666670938531393,-2.5235076586352747,2.3094727235981445,-1.0115955511676233,0.11878527700901031
1708437498.1960104,-1.1335505247116089,-1.6666180096068324,-2.5235076586352747,2.3095623689838867,-1.0116236845599573,0.11879831552505493
1708437498.1980386,-1.1335515975952148,-1.6666394672789515,-2.523503128682272,2.3094681936451416,-1.0115702787982386,0.11880619078874588
1708437498.1999848,-1.133601427078247,-1.6666223011412562,-2.523552481328146,2.3095294672199707,-1.0116522947894495,0.11882998049259186
1708437498.2019868,-1.133539080619812,-1.6666556797423304,-2.523485247288839,2.3095547395893554,-1.0116813818561,0.11877232789993286
1708437498.2040317,-1.1335378885269165,-1.66662659267568,-2.523515049611227,2.3095339971729736,-1.0116074720965784,0.11880514770746231
1708437498.2059937,-1.1335045099258423,-1.6666223011412562,-2.523547951375143,2.3095547395893554,-1.0116117636310022,0.11880625784397125
1708437498.2080455,-1.133577585220337,-1.6666308842101039,-2.523531500493185,2.3095547395893554,-1.0115750471698206,0.11883760988712311
1708437498.2100174,-1.1334973573684692,-1.6666718922057093,-2.523593250905172,2.3095382887073974,-1.0115793387042444,0.11880511045455933
1708437498.2119884,-1.1335378885269165,-1.6665736637511195,-2.52354342142214,2.3095173078724365,-1.0116398970233362,0.11879752576351166
1708437498.2140305,-1.1335549354553223,-1.6666299305357875,-2.523552481328146,2.3095459181019287,-1.0116074720965784,0.11878526955842972
1708437498.2159858,-1.1335549354553223,-1.666638513604635,-2.523539129887716,2.3095008569904785,-1.0116236845599573,0.11878525465726852
1708437498.2180302,-1.1335182189941406,-1.6666103802123011,-2.523531500493185,2.3095666605183105,-1.0116193930255335,0.11874844878911972
1708437498.2200034,-1.1335595846176147,-1.66662659267568,-2.523552481328146,2.3094846445270996,-1.0115836302386683,0.11885057389736176
1708437498.2219849,-1.1335254907608032,-1.6666308842101039,-2.523538891469137,2.3095621305653076,-1.0116327444659632,0.11881807446479797
1708437498.2239826,-1.133584976196289,-1.6666308842101039,-2.523498837147848,2.3095413881489257,-1.0116398970233362,0.11881375312805176
1708437498.2260203,-1.1335378885269165,-1.6666017971434535,-2.523536030446188,2.3095127779194335,-1.0115912596331995,0.11885050684213638
1708437498.2280452,-1.133534550666809,-1.6666308842101039,-2.52351957956423,2.3095008569904785,-1.0116398970233362,0.11879321187734604
1708437498.230041,-1.1335712671279907,-1.6666308842101039,-2.5235405603991907,2.3095218378254394,-1.0115955511676233,0.11880183219909668
1708437498.2320104,-1.1334999799728394,-1.6665893993773402,-2.523515049611227,2.3095294672199707,-1.0116236845599573,0.11882998794317245
1708437498.2340648,-1.133507490158081,-1.666593690911764,-2.5235570112811487,2.3094965654560546,-1.0116151014911097,0.11878526955842972
1708437498.2360103,-1.1335642337799072,-1.6666308842101039,-2.523536030446188,2.3095218378254394,-1.0116522947894495,0.11882567405700684
1708437498.2380545,-1.1335686445236206,-1.6666189632811488,-2.52354342142214,2.309536858195923,-1.0115912596331995,0.11881375312805176
1708437498.2400484,-1.1335686445236206,-1.6666556797423304,-2.5235405603991907,2.3095082479664306,-1.0116327444659632,0.11880183219909668
1708437498.2420647,-1.133542537689209,-1.66662659267568,-2.5235570112811487,2.3095294672199707,-1.0116356054889124,0.11880944669246674
1708437498.2440045,-1.1335301399230957,-1.6666470966734828,-2.5235450903521937,2.3095998007008056,-1.0116356054889124,0.11882678419351578
1708437498.2459984,-1.1335091590881348,-1.666614671746725,-2.523536030446188,2.3095294672199707,-1.0116236845599573,0.11879751831293106
1708437498.248004,-1.1335549354553223,-1.6666137180724085,-2.5235405603991907,2.3094724851795654,-1.0116108099566858,0.11880623549222946
1708437498.2499928,-1.133589506149292,-1.6666919193663539,-2.523515049611227,2.3095053869434814,-1.0116108099566858,0.11879324913024902
1708437498.2520156,-1.1335301399230957,-1.6666351757445277,-2.523531500493185,2.3094844061085205,-1.011632267628805,0.11882678419351578
1708437498.2539847,-1.1334999799728394,-1.6666513882079066,-2.52351957956423,2.3095637994953613,-1.0115702787982386,0.11876475811004639
1708437498.2559874,-1.1335713863372803,-1.666593690911764,-2.523536030446188,2.3095144468494873,-1.0116074720965784,0.11883427947759628
1708437498.2579842,-1.133542537689209,-1.6666022739806117,-2.523531500493185,2.3095173078724365,-1.0116327444659632,0.11883105337619781
1708437498.2599971,-1.1335378885269165,-1.666638513604635,-2.5235899130450647,2.3094710546680908,-1.0116522947894495,0.11876903474330902
1708437498.2619863,-1.1335043907165527,-1.6666308842101039,-2.52351957956423,2.3094934660145263,-1.0116356054889124,0.11885493993759155
1708437498.2640662,-1.1335713863372803,-1.6666232548155726,-2.523515049611227,2.3095218378254394,-1.0116151014911097,0.11880183219909668
1708437498.266059,-1.1335301399230957,-1.66662659267568,-2.523569170628683,2.3094844061085205,-1.0116193930255335,0.11879398673772812
1708437498.2680438,-1.133500099182129,-1.6666060886778773,-2.523531500493185,2.3095084863850097,-1.0116437117206019,0.1187809556722641
1708437498.2700465,-1.1335642337799072,-1.6666590176024378,-2.523552481328146,2.3095249372669677,-1.0116727987872522,0.11884192377328873
1708437498.2720296,-1.133542537689209,-1.66662659267568,-2.523547951375143,2.3095339971729736,-1.0116193930255335,0.11880259215831757
1708437498.274028,-1.1335642337799072,-1.6666060886778773,-2.523547951375143,2.3094965654560546,-1.0116270224200647,0.11885054409503937
1708437498.27604,-1.1335208415985107,-1.6666223011412562,-2.5235241095172327,2.3095261293598632,-1.0115988890277308,0.11879392713308334
1708437498.2780402,-1.1335642337799072,-1.6666470966734828,-2.52354342142214,2.309530659312866,-1.0116522947894495,0.11877337843179703
1708437498.2800221,-1.1335136890411377,-1.6665779552855433,-2.523602072392599,2.3095008569904785,-1.0116270224200647,0.11880940943956375
1708437498.282043,-1.1335254907608032,-1.6666795216002406,-2.523585383092062,2.3095218378254394,-1.0116480032550257,0.11880180984735489
1708437498.2840095,-1.1335471868515015,-1.6665893993773402,-2.523526970540182,2.3095173078724365,-1.0115707556353968,0.11878526955842972
1708437498.286,-1.1335805654525757,-1.66662659267568,-2.52354342142214,2.3094844061085205,-1.0116031805621546,0.11880185455083847
1708437498.288013,-1.1335138082504272,-1.666654726068014,-2.523581091557638,2.3095459181019287,-1.0116108099566858,0.11880181729793549
1708437498.2900422,-1.1335254907608032,-1.66662659267568,-2.523526970540182,2.3095084863850097,-1.0116193930255335,0.11877667903900146
1708437498.2920625,-1.133539080619812,-1.6666418514647425,-2.523526970540182,2.309450312251709,-1.0116074720965784,0.11880625039339066
1708437498.2940342,-1.133542537689209,-1.6666590176024378,-2.523581091557638,2.3095127779194335,-1.0116074720965784,0.1187809407711029
1708437498.2960227,-1.133507490158081,-1.6666223011412562,-2.523536030446188,2.3094681936451416,-1.0116522947894495,0.11882674694061279
1708437498.2979896,-1.1335686445236206,-1.666699071923727,-2.523534599934713,2.3095173078724365,-1.0116522947894495,0.11885496228933334
1708437498.2999957,-1.1335045099258423,-1.6666137180724085,-2.523593250905172,2.3095173078724365,-1.0116193930255335,0.11880181729793549
1708437498.3019989,-1.1335515975952148,-1.6667005024352015,-2.523567501698629,2.3094963270374755,-1.0116031805621546,0.11883872747421265
1708437498.3040009,-1.1335549354553223,-1.6666752300658167,-2.523538891469137,2.3095218378254394,-1.0116270224200647,0.11882242560386658
1708437498.3060226,-1.133539080619812,-1.6666223011412562,-2.523585383092062,2.3095127779194335,-1.0115988890277308,0.11881808936595917
1708437498.308005,-1.1335471868515015,-1.666670938531393,-2.523572031651632,2.309530659312866,-1.0116437117206019,0.11882995814085007
1708437498.3100355,-1.1335517168045044,-1.666638513604635,-2.523572031651632,2.3094963270374755,-1.0116594473468226,0.11884623765945435
1708437498.312008,-1.1335301399230957,-1.6666461429991664,-2.5235629717456263,2.3094801145740966,-1.0116151014911097,0.11876476556062698
1708437498.3139987,-1.1335517168045044,-1.6666633091368617,-2.523536030446188,2.3095008569904785,-1.0116594473468226,0.11882134526968002
1708437498.3160012,-1.1335471868515015,-1.666614671746725,-2.523552481328146,2.3095428186604003,-1.0116522947894495,0.11885495483875275
1708437498.3180375,-1.133478045463562,-1.666638513604635,-2.523538891469137,2.309530659312866,-1.0116351286517542,0.11879752576351166
1708437498.319999,-1.133539080619812,-1.6666633091368617,-2.523547951375143,2.3095339971729736,-1.0116313139544886,0.11880623549222946
1708437498.3220167,-1.133565068244934,-1.6666795216002406,-2.52354342142214,2.3094844061085205,-1.0116480032550257,0.11877340823411942
1708437498.324014,-1.133527159690857,-1.6666513882079066,-2.523531500493185,2.3095218378254394,-1.0116551558123987,0.11882136762142181
1708437498.326056,-1.1334810256958008,-1.6665975056090296,-2.5235405603991907,2.3095144468494873,-1.011667553578512,0.11882674694061279
1708437498.328027,-1.133539080619812,-1.6666342220702113,-2.523547951375143,2.3094727235981445,-1.011646572743551,0.11880514770746231
1708437498.3300343,-1.1334943771362305,-1.6665979824461878,-2.523531500493185,2.309460325832031,-1.0116594473468226,0.11878453195095062
1708437498.332043,-1.1334943771362305,-1.666654726068014,-2.523536030446188,2.309464855785034,-1.0116108099566858,0.11884292960166931
1708437498.3340464,-1.1335062980651855,-1.6666676006712855,-2.523531500493185,2.3094727235981445,-1.0116351286517542,0.11879322677850723
1708437498.336001,-1.133461594581604,-1.6666633091368617,-2.523515049611227,2.3095053869434814,-1.0116480032550257,0.11883866786956787
1708437498.338022,-1.1334898471832275,-1.6666180096068324,-2.523522679005758,2.309486075038574,-1.0116437117206019,0.11881052702665329
1708437498.3400764,-1.1334943771362305,-1.666642805139059,-2.52351957956423,2.309486075038574,-1.011622730885641,0.1188429743051529
1708437498.3420632,-1.1334490776062012,-1.6666633091368617,-2.523555580769674,2.309502287501953,-1.0116594473468226,0.11881056427955627
1708437498.3439908,-1.1334660053253174,-1.6666752300658167,-2.523498837147848,2.309448404903076,-1.0116594473468226,0.11878448724746704
1708437498.3459883,-1.1334824562072754,-1.666670938531393,-2.523585383092062,2.3094889360615234,-1.0116108099566858,0.11882567405700684
1708437498.348002,-1.1334298849105835,-1.6666633091368617,-2.523538891469137,2.309461994762085,-1.0116551558123987,0.118859201669693
1708437498.3500457,-1.133473515510559,-1.6666833362975062,-2.523560110722677,2.309469385738037,-1.011622730885641,0.11885054409503937
1708437498.3520262,-1.133466124534607,-1.66662659267568,-2.523560110722677,2.309486075038574,-1.0116437117206019,0.11879322677850723
1708437498.3540409,-1.133500576019287,-1.666670938531393,-2.52354342142214,2.3094815450855712,-1.0116594473468226,0.11882998794317245
1708437498.35599,-1.133399248123169,-1.6666394672789515,-2.523581091557638,2.309478207225464,-1.011641804371969,0.11882247775793076
1708437498.3580396,-1.133458137512207,-1.6666470966734828,-2.523573700581686,2.309478445644043,-1.0116718451129358,0.11881806701421738
1708437498.360015,-1.1334298849105835,-1.6667076549925746,-2.523522679005758,2.3094872671314697,-1.011639420186178,0.11879320442676544
1708437498.3620157,-1.1333919763565063,-1.666642805139059,-2.523551050816671,2.3094333845325927,-1.011622730885641,0.11882567405700684
1708437498.364105,-1.133458137512207,-1.6666590176024378,-2.523572031651632,2.3094634252735595,-1.011639420186178,0.11879751831293106
1708437498.3660662,-1.1334218978881836,-1.666666646996969,-2.523536030446188,2.3094169336506347,-1.011618439351217,0.11884190142154694
1708437498.3680234,-1.1334552764892578,-1.66668762783193,-2.523581091557638,2.3093928533741455,-1.0116761366473597,0.11881379038095474
1708437498.3700552,-1.1333980560302734,-1.6666919193663539,-2.523597542439596,2.3093883234211425,-1.0116480032550257,0.11885054409503937
1708437498.372052,-1.1334507465362549,-1.6666633091368617,-2.523581091557638,2.309410734767578,-1.0116437117206019,0.11881375312805176
1708437498.37408,-1.1334389448165894,-1.6666342220702113,-2.523555580769674,2.3094302850910644,-1.0116551558123987,0.11882136017084122
1708437498.3760257,-1.1333980560302734,-1.6666504345335902,-2.523576561604635,2.309340401286743,-1.011667553578512,0.11882568895816803
1708437498.3780453,-1.1333816051483154,-1.666638513604635,-2.523552481328146,2.3093854623981933,-1.0116594473468226,0.11886278539896011
1708437498.3799975,-1.13339364528656,-1.66668762783193,-2.523572031651632,2.309394522304199,-1.0116637388812464,0.11883759498596191
1708437498.3820164,-1.1334055662155151,-1.6666623554625453,-2.523536030446188,2.309333010310791,-1.0116971174823206,0.11882887780666351
1708437498.3840187,-1.1333726644515991,-1.6666795216002406,-2.5235512892352503,2.309300108546875,-1.011622730885641,0.1188497543334961
1708437498.3860178,-1.1333861351013184,-1.6666747532286585,-2.523576561604635,2.309342070216797,-1.0116480032550257,0.11885317414999008
1708437498.388055,-1.133377194404602,-1.666666646996969,-2.5235887209521692,2.309304638499878,-1.011639420186178,0.1188775897026062
1708437498.3900487,-1.1334160566329956,-1.6666342220702113,-2.5235629717456263,2.3093225198933105,-1.011650864277975,0.1188938245177269
1708437498.3920166,-1.133365273475647,-1.6666590176024378,-2.523526970540182,2.309321089381836,-1.011650864277975,0.1188974380493164
1708437498.3940225,-1.1333980560302734,-1.666670938531393,-2.523609463368551,2.3092896181293945,-1.011683766041891,0.11888959258794785
1708437498.3960385,-1.1334069967269897,-1.6666833362975062,-2.523551050816671,2.3093015390583496,-1.011667553578512,0.1189223900437355
1708437498.3980286,-1.1333997249603271,-1.666654726068014,-2.52356464067568,2.3092896181293945,-1.011667553578512,0.11892560124397278
1708437498.4000044,-1.1333861351013184,-1.666654726068014,-2.5235841909991663,2.3093105989643554,-1.011667553578512,0.11892662197351456
1708437498.402024,-1.1333407163619995,-1.6666752300658167,-2.523534599934713,2.3092431265064697,-1.0116880575763147,0.1189136728644371
1708437498.404016,-1.1333634853363037,-1.6666747532286585,-2.523602072392599,2.3092805582233886,-1.0116913954364222,0.1188974380493164
1708437498.4059973,-1.1333996057510376,-1.666654726068014,-2.523597542439596,2.3092984396168212,-1.0116718451129358,0.11891364306211472
1708437498.4080296,-1.13336980342865,-1.6666904888548792,-2.523547951375143,2.309319420451782,-1.0116422812091272,0.11888962239027023
1708437498.4099991,-1.133366346359253,-1.6666704616942347,-2.5235570112811487,2.3092850881763916,-1.0116546789752405,0.11895833164453506
1708437498.4119887,-1.1333125829696655,-1.6666904888548792,-2.523526970540182,2.3093389707752685,-1.011667553578512,0.11892127245664597
1708437498.4139948,-1.1333515644073486,-1.6666537723936976,-2.523531500493185,2.3092476564594726,-1.011667553578512,0.11889314651489258
1708437498.4159966,-1.1333798170089722,-1.6666704616942347,-2.523539129887716,2.3092147546955566,-1.0117090384112757,0.11891256272792816
1708437498.4179966,-1.1333588361740112,-1.6666833362975062,-2.523538891469137,2.3092192846485595,-1.0116999785052698,0.11890939623117447
1708437498.4200006,-1.1333215236663818,-1.6666904888548792,-2.523547951375143,2.309302969569824,-1.0116880575763147,0.11890504509210587
1708437498.4219968,-1.1333171129226685,-1.6667186222472132,-2.523534599934713,2.3092071253010253,-1.011711899434225,0.11897452920675278
1708437498.4240174,-1.133309006690979,-1.6666985950865687,-2.523551050816671,2.3092896181293945,-1.0116999785052698,0.1188974380493164
1708437498.4259965,-1.1333379745483398,-1.6666747532286585,-2.523597542439596,2.309232636088989,-1.0116422812091272,0.11890070140361786
1708437498.4280505,-1.133297324180603,-1.666670938531393,-2.5235467592822474,2.309286280269287,-1.0117090384112757,0.11889632791280746
1708437498.4300487,-1.1332519054412842,-1.6666580639281214,-2.523518149052755,2.3092357355305175,-1.0117371718036097,0.11892127990722656
1708437498.4320362,-1.1333307027816772,-1.6666833362975062,-2.5236051718341272,2.309249086970947,-1.0116589705096644,0.11897027492523193
1708437498.4340174,-1.1332762241363525,-1.6666747532286585,-2.523534361516134,2.309258146876953,-1.011679474507467,0.11895833164453506
1708437498.436004,-1.133256435394287,-1.666694780389303,-2.523518149052755,2.309278889293335,-1.0116708914386194,0.11896588653326035
1708437498.4380176,-1.1332727670669556,-1.666694780389303,-2.523531500493185,2.309220715160034,-1.0117161909686487,0.11899086833000183
1708437498.4400158,-1.1332311630249023,-1.666694780389303,-2.523567501698629,2.3092385965534667,-1.0116871039019983,0.11889959871768951
1708437498.4420345,-1.133280873298645,-1.6666704616942347,-2.523630444203512,2.3091844755360107,-1.011667553578512,0.11890392005443573
1708437498.4440427,-1.1333017349243164,-1.6666299305357875,-2.5235300699817103,2.309171124095581,-1.011683766041891,0.11897024512290955
1708437498.4460008,-1.1332818269729614,-1.6667396030821742,-2.5235512892352503,2.3092147546955566,-1.0116632620440882,0.11898211389780045
1708437498.4480026,-1.1332446336746216,-1.6666375599303187,-2.523551050816671,2.3091365534016113,-1.011646572743551,0.11898575723171234
1708437498.4500215,-1.1332581043243408,-1.6667033634581507,-2.523580853139059,2.309141083354614,-1.011667553578512,0.11898136138916016
1708437498.451998,-1.133265495300293,-1.6666299305357875,-2.52354342142214,2.30915014326062,-1.0117247740374964,0.11896480619907379
1708437498.4540377,-1.133265495300293,-1.6666919193663539,-2.5236006418811243,2.30915014326062,-1.0116880575763147,0.11902119219303131
1708437498.4560153,-1.1332491636276245,-1.666694780389303,-2.5235841909991663,2.309112711543701,-1.0116179625140589,0.1190384030342102
1708437498.4580495,-1.133281946182251,-1.666670938531393,-2.523567501698629,2.309121771449707,-1.0116422812091272,0.11896044760942459
1708437498.4600036,-1.133216381072998,-1.6666904888548792,-2.5235841909991663,2.309141083354614,-1.0117042700396937,0.11900497227907181
1708437498.4620233,-1.1332744359970093,-1.6667071781554164,-2.523621384297506,2.3091084200092773,-1.011679474507467,0.11900065839290619
1708437498.4640357,-1.133253574371338,-1.6666623554625453,-2.523609463368551,2.309138222331665,-1.0117366949664515,0.11897607892751694
1708437498.4660623,-1.13319993019104,-1.6666504345335902,-2.523560110722677,2.309154673213623,-1.0116308371173304,0.11896859854459763
1708437498.4680018,-1.1332460641860962,-1.66668762783193,-2.523606602345602,2.3091680246540527,-1.011667553578512,0.11901245266199112
1708437498.469992,-1.13319993019104,-1.666694780389303,-2.523602072392599,2.3091305929371337,-1.011667553578512,0.11895986646413803
1708437498.471989,-1.133253574371338,-1.666727205316061,-2.523572031651632,2.309112711543701,-1.0116632620440882,0.11905292421579361
1708437498.4739966,-1.1331918239593506,-1.6667071781554164,-2.523531500493185,2.309129162425659,-1.0117204825030726,0.11898906528949738
1708437498.4759855,-1.133204460144043,-1.6666833362975062,-2.523573700581686,2.309121771449707,-1.0116551558123987,0.11900819092988968
1708437498.4779923,-1.1332134008407593,-1.666722913781637,-2.523531500493185,2.309108181590698,-1.011679474507467,0.11902473866939545
1708437498.4799924,-1.1332088708877563,-1.66666903118276,-2.523534361516134,2.3091248708912353,-1.0116589705096644,0.11901246011257172
1708437498.4820008,-1.1332342624664307,-1.6666904888548792,-2.5235887209521692,2.309129162425659,-1.0116546789752405,0.11907025426626205
1708437498.4840019,-1.1332341432571411,-1.666760107079977,-2.5235841909991663,2.309138222331665,-1.011667553578512,0.11905716359615326
1708437498.4860325,-1.1331918239593506,-1.6667353115477503,-2.523547951375143,2.309130831355713,-1.0116546789752405,0.11905284970998764
1708437498.4880023,-1.1332341432571411,-1.666727205316061,-2.523560110722677,2.3091141420551757,-1.011695686970846,0.11900496482849121
1708437498.4900005,-1.1332252025604248,-1.66673006633901,-2.523572031651632,2.309088869685791,-1.0116880575763147,0.11903342604637146
1708437498.492033,-1.1332342624664307,-1.6667143307127894,-2.523538891469137,2.309100790614746,-1.0116351286517542,0.11901174485683441
1708437498.4940224,-1.1332054138183594,-1.6666819057860316,-2.52354342142214,2.3090976911732177,-1.011646572743551,0.11897896975278854
1708437498.4960008,-1.1331889629364014,-1.6667143307127894,-2.523576561604635,2.309088869685791,-1.011679474507467,0.11902904510498047
1708437498.4980538,-1.133231520652771,-1.6667934856810511,-2.523604933415548,2.3090647894093017,-1.0116804281817835,0.11901692301034927
1708437498.500005,-1.133180022239685,-1.6667176685728968,-2.523613993321554,2.309088869685791,-1.0116923491107386,0.11903668195009232
1708437498.501995,-1.133236050605774,-1.6666771374144496,-2.523534599934713,2.3090736108967285,-1.0116999785052698,0.11902473866939545
1708437498.504016,-1.133189082145691,-1.6667634449400843,-2.52356464067568,2.30912630140271,-1.011683766041891,0.11900819838047028
1708437498.5059986,-1.1331720352172852,-1.666774412194723,-2.523576561604635,2.309100790614746,-1.011711899434225,0.11903665959835052
1708437498.5079966,-1.1331510543823242,-1.66676725963735,-2.5236006418811243,2.3090242582508544,-1.0116751829730433,0.1190125048160553
1708437498.5100243,-1.1331889629364014,-1.6667586765685023,-2.52354342142214,2.3091022211262207,-1.011679474507467,0.1190323606133461
1708437498.5120063,-1.1332026720046997,-1.6667868099608363,-2.5236006418811243,2.3090948301502685,-1.011711899434225,0.11905288696289062
1708437498.5140367,-1.1331244707107544,-1.6668359241881312,-2.523572031651632,2.3091487127491455,-1.0116589705096644,0.11905288696289062
1708437498.5160167,-1.1331647634506226,-1.6667782268919886,-2.5235467592822474,2.3091022211262207,-1.011650864277975,0.11906909942626953
1708437498.518043,-1.1331199407577515,-1.6668430767455042,-2.523576561604635,2.3090290266224365,-1.0116880575763147,0.11906588077545166
1708437498.520011,-1.133143663406372,-1.6668268642821253,-2.523597780858175,2.3090483385273437,-1.0116351286517542,0.11908566206693649
1708437498.5219927,-1.1331572532653809,-1.6668063602843226,-2.5235629717456263,2.3090991216846923,-1.011667553578512,0.11902475357055664
1708437498.524031,-1.1331944465637207,-1.6667973003783167,-2.523518149052755,2.3090662199207763,-1.0116761366473597,0.11905288696289062
1708437498.5260274,-1.1331661939620972,-1.666837831536764,-2.523551050816671,2.3089749056049804,-1.011679474507467,0.11905719339847565
1708437498.5280163,-1.1331363916397095,-1.6668669186034144,-2.523581091557638,2.309058828944824,-1.0116761366473597,0.11905288696289062
1708437498.5300305,-1.1331409215927124,-1.6668344936766566,-2.523572031651632,2.309042378062866,-1.011683766041891,0.11902475357055664
1708437498.5320504,-1.1331408023834229,-1.6668898067870082,-2.523555580769674,2.308988495463989,-1.0117161909686487,0.1190323606133461
1708437498.5340786,-1.1331273317337036,-1.6668583355345667,-2.523534599934713,2.309013767833374,-1.0116546789752405,0.11903773993253708
1708437498.53608,-1.1331244707107544,-1.66687073330068,-2.5235300699817103,2.308976336116455,-1.011679474507467,0.1190485805273056
1708437498.5380085,-1.133154273033142,-1.6668907604613246,-2.5235887209521692,2.3089958864399414,-1.011711899434225,0.11903666704893112
1708437498.5400414,-1.133137822151184,-1.6668621502318324,-2.523602072392599,2.30904666959729,-1.0116751829730433,0.11907335370779037
1708437498.542062,-1.1331125497817993,-1.6669441662230433,-2.5235961119281214,2.309042378062866,-1.011679474507467,0.11906588077545166
1708437498.544052,-1.133108139038086,-1.666898866693014,-2.523534361516134,2.3090378481098632,-1.0116999785052698,0.11906041949987411
1708437498.5460315,-1.1331616640090942,-1.666910787621969,-2.523576561604635,2.3090225893208007,-1.01172382036318,0.11905717849731445
1708437498.548028,-1.1331050395965576,-1.666910787621969,-2.5235887209521692,2.309004946345947,-1.0116880575763147,0.11903665959835052
1708437498.550041,-1.1331334114074707,-1.666898866693014,-2.523547951375143,2.309072180385254,-1.0116751829730433,0.11904195696115494
1708437498.5520003,-1.1331497430801392,-1.666849752465719,-2.523572031651632,2.309001846904419,-1.0116632620440882,0.11908996105194092
1708437498.5539837,-1.1331056356430054,-1.6669184170165003,-2.5235629717456263,2.308985157603882,-1.011679474507467,0.11902043968439102
1708437498.5560467,-1.1331453323364258,-1.6668979130186976,-2.5235841909991663,2.309025688762329,-1.0116632620440882,0.11902797222137451
1708437498.5580106,-1.133151650428772,-1.6668693027892054,-2.5235961119281214,2.3089732366749267,-1.0116871039019983,0.11911049485206604
1708437498.5600002,-1.133059024810791,-1.6668621502318324,-2.523618523274557,2.308952494258545,-1.0116913954364222,0.11907768249511719
1708437498.5619957,-1.1331144571304321,-1.666927000085348,-2.523576561604635,2.309025688762329,-1.011646572743551,0.11906909942626953
1708437498.5640392,-1.1330609321594238,-1.6669064960875453,-2.5235841909991663,2.3089732366749267,-1.011679474507467,0.11906906217336655
1708437498.5660896,-1.1330684423446655,-1.6669312916197718,-2.523576561604635,2.308947964305542,-1.0116999785052698,0.11905290186405182
1708437498.5680583,-1.1331056356430054,-1.6669064960875453,-2.523547951375143,2.3089567857929687,-1.011679474507467,0.11908135563135147
1708437498.5700703,-1.1330772638320923,-1.666877885858053,-2.52354342142214,2.3089403349110107,-1.011711899434225,0.11907695233821869
1708437498.572048,-1.1330490112304688,-1.6668578586974085,-2.523534599934713,2.3089613157459716,-1.0116751829730433,0.11903665959835052
1708437498.5740488,-1.1330698728561401,-1.6669064960875453,-2.523576561604635,2.3089732366749267,-1.0116718451129358,0.11907768994569778
1708437498.5760567,-1.13304603099823,-1.666837831536764,-2.5235887209521692,2.3089822965809326,-1.0116880575763147,0.11907341331243515
1708437498.5780597,-1.1330654621124268,-1.6668621502318324,-2.5235887209521692,2.3089417654224853,-1.011667553578512,0.11910941451787949
1708437498.5800147,-1.1330251693725586,-1.666915079156393,-2.523551050816671,2.3089000421711425,-1.0116632620440882,0.11906040459871292
1708437498.5820394,-1.1330206394195557,-1.666898866693014,-2.5235887209521692,2.3089658456989746,-1.0116708914386194,0.11911380290985107
1708437498.5840032,-1.1330132484436035,-1.666936536828512,-2.5235796610461634,2.3089298444935302,-1.0116379896747034,0.11902794986963272
1708437498.5860474,-1.1330534219741821,-1.6669064960875453,-2.523567501698629,2.308934374446533,-1.0116351286517542,0.1190398707985878
1708437498.5880222,-1.132983684539795,-1.6669064960875453,-2.523572031651632,2.3088924127766113,-1.011667553578512,0.11907267570495605
1708437498.5900567,-1.132979154586792,-1.6668945751585902,-2.5235841909991663,2.3089462953754882,-1.011679474507467,0.11915082484483719
1708437498.592015,-1.133017897605896,-1.6668693027892054,-2.523576561604635,2.3088759618946533,-1.0117090384112757,0.11910512298345566
1708437498.5940094,-1.1330225467681885,-1.6669346294798792,-2.523567501698629,2.308885021800659,-1.0116632620440882,0.11911806464195251
1708437498.5960453,-1.1329628229141235,-1.6669618091978968,-2.523518149052755,2.308893843288086,-1.011650864277975,0.11909642815589905
1708437498.5980327,-1.1329572200775146,-1.6669584713377894,-2.523560110722677,2.3088697630115966,-1.0116308371173304,0.11912918835878372
1708437498.6000457,-1.1329199075698853,-1.6669379673399867,-2.5236006418811243,2.3088697630115966,-1.011683766041891,0.11908888816833496
1708437498.6020193,-1.1328984498977661,-1.6669627628722132,-2.5235512892352503,2.3088292318531494,-1.011695686970846,0.11912068724632263
1708437498.604037,-1.13294517993927,-1.6669780216612757,-2.523572031651632,2.3088549810596923,-1.011695686970846,0.1191248893737793
1708437498.6060455,-1.1329243183135986,-1.6669823131956996,-2.523604933415548,2.3088337618061523,-1.011695686970846,0.11909151077270508
1708437498.6080475,-1.1329164505004883,-1.6669899425902308,-2.5235841909991663,2.3087665277668457,-1.0117195288287562,0.1191563606262207
1708437498.6100183,-1.1328717470169067,-1.666952749291891,-2.5236333052264612,2.308724566096924,-1.0117033163653772,0.11924967169761658
1708437498.612011,-1.1328563690185547,-1.6669823131956996,-2.5235887209521692,2.3087453085133056,-1.0117271582232874,0.11925720423460007
1708437498.6140156,-1.132877230644226,-1.6669899425902308,-2.523547951375143,2.308648033733032,-1.0117443243609827,0.11927379667758942
1708437498.6160078,-1.132812738418579,-1.667063375512594,-2.523572031651632,2.308694525355957,-1.0117390791522425,0.11926084011793137
1708437498.6179962,-1.1328006982803345,-1.6670390568175257,-2.5235841909991663,2.308607502574585,-1.0117595831500452,0.11932477355003357
1708437498.619991,-1.132796287536621,-1.667062898675436,-2.5235300699817103,2.3086089330860595,-1.0117304960833948,0.11935314536094666
1708437498.6220233,-1.132717490196228,-1.6670710049071253,-2.5235376993762415,2.3085641103931884,-1.0116975943194788,0.11935975402593613
1708437498.624013,-1.1327147483825684,-1.6670619450011195,-2.5235887209521692,2.30856101095166,-1.0117629210101526,0.11941170692443848
1708437498.6260111,-1.132704496383667,-1.6670605144896449,-2.5235629717456263,2.308520479793213,-1.0117586294757288,0.11944016814231873
1708437498.6280663,-1.1326552629470825,-1.6671067676939906,-2.5236333052264612,2.3084682661243896,-1.011754337941305,0.11948809027671814
1708437498.6300445,-1.1326347589492798,-1.667089124719137,-2.5236006418811243,2.3084770876118164,-1.011754337941305,0.11949563026428223
1708437498.6320095,-1.1325827836990356,-1.6671010456480921,-2.523613993321554,2.308471127147339,-1.011787239705221,0.11956814676523209
1708437498.634046,-1.1325470209121704,-1.6671925983824671,-2.5235751310931605,2.308438225383423,-1.0117786566363733,0.11962470412254333
1708437498.6360502,-1.1325678825378418,-1.6672073803343714,-2.5236006418811243,2.3083810049244384,-1.0118067900287073,0.11959123611450195
1708437498.637993,-1.1325311660766602,-1.6671987972655238,-2.5236290136920374,2.3083318906971435,-1.0117409865008753,0.11965504288673401
1708437498.6399977,-1.132449984550476,-1.6671940288939417,-2.5236125628100794,2.308342142696045,-1.011771027241842,0.11975297331809998
1708437498.642069,-1.1324348449707031,-1.6672221622862757,-2.5236006418811243,2.308358831996582,-1.0118358770953577,0.11973905563354492
1708437498.6440468,-1.1323857307434082,-1.6672045193114222,-2.523665253316061,2.3083183008381347,-1.011843506489889,0.11980322003364563
1708437498.6459913,-1.1323782205581665,-1.6672612629332484,-2.523684565220968,2.3082687097736816,-1.0118187109576624,0.11985552310943604
1708437498.647996,-1.1323038339614868,-1.6672526798644007,-2.5237084070788782,2.308246298427246,-1.0118144194232386,0.1199193000793457
1708437498.6500006,-1.1322728395462036,-1.6673089466490687,-2.5237205664264124,2.3082477289387207,-1.0118306318866175,0.11990213394165039
1708437498.6520102,-1.1322603225708008,-1.667398592034811,-2.5237446467029017,2.3081771570393066,-1.0118067900287073,0.11999475210905075
1708437498.6540167,-1.132218360900879,-1.6674424610533656,-2.5236902872668665,2.308147354716919,-1.0118024984942835,0.12003795802593231
1708437498.6560252,-1.1321685314178467,-1.6674424610533656,-2.5237401167498987,2.3080693918415527,-1.0118306318866175,0.12017958611249924
1708437498.6579897,-1.1321463584899902,-1.6674705944456996,-2.5238059202777308,2.308030529613159,-1.0118392149554651,0.120201975107193
1708437498.6599956,-1.1320486068725586,-1.667431970635885,-2.523759428654806,2.307964487666748,-1.0118468443499964,0.12026548385620117
1708437498.6620004,-1.1320291757583618,-1.667567869225973,-2.523775879536764,2.3079044061848144,-1.0118888060199183,0.12038163095712662
1708437498.6640058,-1.1319801807403564,-1.6675487957396449,-2.523775879536764,2.30788962423291,-1.0118635336505335,0.12046638876199722
1708437498.6660745,-1.1319493055343628,-1.6675602398314417,-2.523775879536764,2.3078431326099853,-1.0118711630450647,0.12055358290672302
1708437498.6680057,-1.1319174766540527,-1.667605539361471,-2.523780409489767,2.307793541545532,-1.0119198004352015,0.12061678618192673
1708437498.6699944,-1.1318291425704956,-1.6676370106139125,-2.523783508931295,2.3077334600635986,-1.0119522253619593,0.12077753990888596
1708437498.6719983,-1.1317929029464722,-1.6676775417723597,-2.5238121191607874,2.307652636165283,-1.0119555632220667,0.12087644636631012
1708437498.6739953,-1.1317248344421387,-1.6676880321898402,-2.5238285700427454,2.3075882631489257,-1.0119627157794397,0.1210165023803711
1708437498.6759994,-1.1316030025482178,-1.667753358880514,-2.5238450209247034,2.307511730785034,-1.0120084921466272,0.12109920382499695
1708437498.6780353,-1.1315288543701172,-1.6678310833373011,-2.5238359610186976,2.3074728685566406,-1.0120680967914026,0.1212308406829834
1708437498.6800485,-1.131487488746643,-1.6678043804564417,-2.5238524119006556,2.3073977667042236,-1.012099568043844,0.12144401669502258
1708437498.6820562,-1.1314465999603271,-1.6678687534727992,-2.5238240400897425,2.307337923640869,-1.0120986143695276,0.12158569693565369
1708437498.684029,-1.1313095092773438,-1.6679054699339808,-2.5238149801837366,2.3072869020649414,-1.0121548811541956,0.1217041015625
1708437498.686033,-1.1312332153320312,-1.667952676812643,-2.5238404909717005,2.3071774679371337,-1.012207333241598,0.12185937911272049
1708437498.6880016,-1.1311485767364502,-1.6679946384825648,-2.5238075892077845,2.3071293073841552,-1.0121901671039026,0.12203451991081238
1708437498.6900356,-1.131105661392212,-1.6680051289000453,-2.5238524119006556,2.3070949751087646,-1.0122302214251917,0.12217806279659271
1708437498.6920059,-1.1310510635375977,-1.6680480442442835,-2.5238104502307337,2.3069614607044677,-1.0123074690448206,0.12236660718917847
1708437498.6940718,-1.1309382915496826,-1.668039461175436,-2.5238433519946497,2.3068267542072753,-1.0122817198382776,0.1225099042057991
1708437498.6960187,-1.130845069885254,-1.6681276760497035,-2.523838822041647,2.3067609506794433,-1.012350861226217,0.12269215285778046
1708437498.6979926,-1.130734920501709,-1.668163915673727,-2.523838822041647,2.3066934782215576,-1.0123055616961878,0.12293741106987
1708437498.6999865,-1.1306143999099731,-1.668229719201559,-2.523817841206686,2.3066348272510986,-1.0123723188983362,0.1231113076210022
1708437498.702028,-1.130552053451538,-1.6682115993895472,-2.523912493382589,2.3064400392719726,-1.0123379866229456,0.12329935282468796
1708437498.703989,-1.1305004358291626,-1.6682926617064417,-2.523893181477682,2.306401177043579,-1.0123336950885218,0.12351483106613159
1708437498.7060575,-1.1303669214248657,-1.6682988605894984,-2.523896042500631,2.306264563197754,-1.012329403554098,0.12367601692676544
1708437498.7080028,-1.1302987337112427,-1.6684004269041957,-2.523900572453634,2.30618063985791,-1.0123589674579065,0.12391221523284912
1708437498.710018,-1.1301980018615723,-1.6684595547118128,-2.5239079634295862,2.3060518938251953,-1.0123503843890589,0.12412922084331512
1708437498.712032,-1.130086064338684,-1.6685053310790003,-2.523912493382589,2.305919809932373,-1.0123785177813929,0.12437623739242554
1708437498.7140152,-1.130006194114685,-1.6685687504210414,-2.5239272753344935,2.305898829097412,-1.0123785177813929,0.12461534142494202
1708437498.7160268,-1.1298415660858154,-1.668558736840719,-2.52396804491152,2.305691881770752,-1.0124099890338343,0.12496517598628998
1708437498.7180164,-1.1297366619110107,-1.6686111889281214,-2.5239394346820276,2.3056575494953613,-1.012458626423971,0.1252327859401703
1708437498.7200067,-1.1296038627624512,-1.6687036953368128,-2.5239978472339075,2.305558605785034,-1.0125039259540003,0.1255137026309967
1708437498.722028,-1.1295291185379028,-1.668755670587057,-2.524029556904928,2.305426521892212,-1.0124738852130335,0.12576498091220856
1708437498.7240124,-1.129360318183899,-1.668746133843893,-2.523996416722433,2.305251284236572,-1.012493912373678,0.12604469060897827
1708437498.7260292,-1.1292823553085327,-1.6688395939269007,-2.52403694788088,2.3052138525196533,-1.0125144163714808,0.12633654475212097
1708437498.7280345,-1.1291695833206177,-1.6688953838744105,-2.5240324179278772,2.305049105281494,-1.0125177542315882,0.12664249539375305
1708437498.7300375,-1.129037618637085,-1.668954988519186,-2.524008337651388,2.304929180736206,-1.0125373045550745,0.12701520323753357
1708437498.7320373,-1.1288963556289673,-1.6690432033934535,-2.5240445772754114,2.304825707072876,-1.0125778357135218,0.12731707096099854
1708437498.7340689,-1.1287811994552612,-1.6690947018065394,-2.5240445772754114,2.3046981531330566,-1.0125659147845667,0.12763099372386932
1708437498.7360082,-1.128585696220398,-1.6691509685912074,-2.5240803400622767,2.3045529562183837,-1.0126221815692347,0.12800343334674835
1708437498.7380195,-1.1285454034805298,-1.6692348919310511,-2.5240758101092737,2.3044537740894775,-1.012585465108053,0.1283620148897171
1708437498.7400126,-1.1284064054489136,-1.6692210636534632,-2.5240922609912317,2.30433098852124,-1.012641731892721,0.12874197959899902
1708437498.7420225,-1.1282689571380615,-1.6693550548949183,-2.5241404215442103,2.304112120265625,-1.0126450697528284,0.12910209596157074
1708437498.7440574,-1.1281166076660156,-1.6694027386107386,-2.524149243031637,2.3040026861378173,-1.0126569906817835,0.129423588514328
1708437498.7460144,-1.1279637813568115,-1.6694895229735316,-2.5241523424731653,2.3038620191761474,-1.0126779715167444,0.12984183430671692
1708437498.7480109,-1.1278575658798218,-1.6695291004576625,-2.5241764227496546,2.3037568765827636,-1.0126693884478968,0.1302204430103302
1708437498.750017,-1.1276897192001343,-1.6695929966368617,-2.5241838137256067,2.3035830694385986,-1.0126846472369593,0.1306559443473816
1708437498.7519972,-1.1275888681411743,-1.6696325741209925,-2.524212423955099,2.303452416057251,-1.012749497090475,0.13105851411819458
1708437498.7540102,-1.1274211406707764,-1.6697493992247523,-2.524262015019552,2.303283138866089,-1.012778107319967,0.13153743743896484
1708437498.756026,-1.127272605895996,-1.6698295078673304,-2.524252955113546,2.3031138616749267,-1.012794319783346,0.13189947605133057
1708437498.758023,-1.1271328926086426,-1.6698523960509242,-2.524252955113546,2.3029493528553466,-1.0127771536456507,0.1324152946472168
1708437498.7600029,-1.1270180940628052,-1.6699902019896449,-2.5242963472949427,2.302888794536255,-1.012812916432516,0.13282522559165955
1708437498.7619936,-1.1268455982208252,-1.670004507104391,-2.5243127981769007,2.3027614790150146,-1.012852970753805,0.13329309225082397
1708437498.764012,-1.1267268657684326,-1.6701332531371058,-2.524299208317892,2.3025428491779785,-1.0129182974444788,0.133712038397789
1708437498.7660787,-1.1265666484832764,-1.6702429256834925,-2.524299208317892,2.3024603563496093,-1.012876335774557,0.13415417075157166
1708437498.7680402,-1.1264134645462036,-1.6702529392638148,-2.524311129246847,2.30230896055188,-1.0129292646991175,0.13462072610855103
1708437498.7700436,-1.1262502670288086,-1.6702996693053187,-2.524311129246847,2.3021065431782226,-1.0129731337176722,0.13519681990146637
1708437498.77203,-1.1261136531829834,-1.6704489193358363,-2.524389092122213,2.3019911485859375,-1.0130088965045374,0.1356426179409027
1708437498.774071,-1.1259740591049194,-1.670537611047262,-2.5243638197528284,2.301848812694214,-1.0130608717547815,0.1361972987651825
1708437498.776043,-1.1258471012115479,-1.6706272564330042,-2.5243921915637415,2.301675005550049,-1.013125244771139,0.1366909146308899
1708437498.7783844,-1.1256649494171143,-1.670732160607809,-2.5243876616107386,2.301478548640869,-1.0131328741656702,0.13726209104061127
1708437498.7800205,-1.1255137920379639,-1.6708289585509242,-2.5243876616107386,2.3013929563709716,-1.0132015387164515,0.1378203183412552
1708437498.7820303,-1.125353455543518,-1.6708833179869593,-2.5244162718402308,2.3012282091328125,-1.0132253805743616,0.13836261630058289
1708437498.7840183,-1.1251775026321411,-1.6710320911803187,-2.524432961140768,2.30094496786084,-1.0132482687579554,0.13892115652561188
1708437498.7860184,-1.1250368356704712,-1.6710545025267542,-2.524423901234762,2.3008128839680175,-1.013308350239889,0.1394880712032318
1708437498.7880108,-1.124922752380371,-1.6711861095824183,-2.524435822163717,2.3006600576588134,-1.0134008566485804,0.14003726840019226
1708437498.7900467,-1.1247056722640991,-1.6713563404478968,-2.524444882069723,2.3004607397266845,-1.0134051481830042,0.14062456786632538
1708437498.7920208,-1.124597430229187,-1.671427389184469,-2.524419371281759,2.300325794810913,-1.013411823903219,0.14117036759853363
1708437498.7940357,-1.1244103908538818,-1.6714331112303675,-2.5244596640216272,2.3001534181782226,-1.013484303151266,0.14173251390457153
1708437498.7960098,-1.1242154836654663,-1.6715814075865687,-2.5244794527636927,2.299985333079956,-1.013500992451803,0.14236781001091003
1708437498.7980776,-1.1241068840026855,-1.671718259850973,-2.5244913736926478,2.2997802931019287,-1.0134957472430628,0.1429990530014038
1708437498.8000522,-1.1239516735076904,-1.6717902622618617,-2.5245078245746058,2.2996155458637695,-1.013519589100973,0.14359866082668304
1708437498.801998,-1.123721957206726,-1.6718818149962367,-2.524515215550558,2.299484892482422,-1.0135443846331995,0.14420463144779205
1708437498.8039978,-1.1235491037368774,-1.6719933948912562,-2.524519745503561,2.299285574550293,-1.0135443846331995,0.14491599798202515
1708437498.8060517,-1.123401403427124,-1.6720897159972132,-2.5245798269854944,2.29915635168042,-1.0135768095599573,0.14566738903522491
1708437498.8079913,-1.1232424974441528,-1.672201772729391,-2.5245872179614466,2.2989722925373535,-1.013503376637594,0.14634650945663452
1708437498.8099883,-1.1231157779693604,-1.6722690067686976,-2.5246201197253626,2.29883257925,-1.0135563055621546,0.14706115424633026
1708437498.812008,-1.1229301691055298,-1.6723810635008753,-2.524639670048849,2.2987024027058105,-1.0135358015643519,0.14776048064231873
1708437498.8140144,-1.122762680053711,-1.672478815118307,-2.524656359349386,2.2984892564960937,-1.0135682264911097,0.14846065640449524
1708437498.816002,-1.1225789785385132,-1.6725336513915003,-2.52462608018984,2.2983500200458984,-1.013632599507467,0.14917154610157013
1708437498.8179917,-1.122354507446289,-1.6726442776122035,-2.524684731160299,2.298104448909424,-1.013604466115133,0.1498735398054123
1708437498.8199995,-1.1221860647201538,-1.6726747951903285,-2.5247042814837855,2.297957344646118,-1.0136283079730433,0.15061436593532562
1708437498.821999,-1.1220256090164185,-1.6727906666197718,-2.5247655550586146,2.2977909284779052,-1.013634983693258,0.15132354199886322
1708437498.823994,-1.1218340396881104,-1.6729093990721644,-2.5247164408313196,2.2975572782703857,-1.01369554201235,0.15203392505645752
1708437498.8259883,-1.1217079162597656,-1.6730038128294886,-2.524719301854269,2.2974178034016113,-1.0137766043292444,0.15275438129901886
1708437498.8280046,-1.1214642524719238,-1.673091550866598,-2.524752203618185,2.2972137170979003,-1.013791863118307,0.15349836647510529
1708437498.8300965,-1.1213349103927612,-1.6731416187682093,-2.524771753941671,2.297046108836792,-1.013815704976217,0.15414541959762573
1708437498.832022,-1.121194839477539,-1.6732641659178675,-2.5247884432422083,2.296896143550537,-1.013871971760885,0.15491026639938354
1708437498.8341072,-1.1209585666656494,-1.6732989750304164,-2.5248196760760706,2.296665592784546,-1.0138514677630823,0.15555845201015472
1708437498.8360226,-1.120823621749878,-1.673472066918844,-2.5248406569110315,2.2965473371693115,-1.013911549245016,0.1563413441181183
1708437498.8380373,-1.1206295490264893,-1.6735063991942347,-2.5248242060290735,2.2963668543049316,-1.013935391102926,0.15714216232299805
1708437498.8400085,-1.1204500198364258,-1.6736165485777796,-2.5248106161700647,2.296257420177124,-1.013996426259176,0.1579735428094864
1708437498.842001,-1.1203410625457764,-1.6736670933165492,-2.524855677281515,2.296067162151001,-1.0140441099749964,0.15876813232898712
1708437498.844036,-1.1201472282409668,-1.67374910930776,-2.524876896535055,2.2958947855183105,-1.014026943837301,0.15954962372779846
1708437498.8460464,-1.1200093030929565,-1.6738625965514125,-2.5248435179339808,2.2957894045063476,-1.0140345732318323,0.16036522388458252
1708437498.848027,-1.1197906732559204,-1.6739374599852503,-2.5248916784869593,2.2955517011829834,-1.0140956083880823,0.16111381351947784
1708437498.8499944,-1.1196849346160889,-1.6740828953185023,-2.5249365011798304,2.2954491811939697,-1.0141118208514612,0.1619536429643631
1708437498.851984,-1.1194826364517212,-1.674154897729391,-2.5249410311328333,2.2952114778706054,-1.0141432921039026,0.16276061534881592
1708437498.8539994,-1.119369387626648,-1.6741968593993128,-2.5249322096454065,2.2950102525898437,-1.01418382326235,0.16360674798488617
1708437498.856052,-1.1191619634628296,-1.6742879352965296,-2.524939839039938,2.2948426443287353,-1.0142110029803675,0.16449469327926636
1708437498.858016,-1.1190165281295776,-1.674406190911764,-2.524939839039938,2.2947162824818115,-1.014214340840475,0.1652577668428421
1708437498.86,-1.1188589334487915,-1.674509664575094,-2.524980131779806,2.2945775228687744,-1.0142510573016565,0.1661785989999771
1708437498.8620162,-1.1187373399734497,-1.674539705316061,-2.524996582661764,2.2944258886524658,-1.0142706076251429,0.1669817417860031
1708437498.8640473,-1.1185353994369507,-1.6746698818602503,-2.5250254313098353,2.294248266811035,-1.0143025557147425,0.16793818771839142
1708437498.8660772,-1.1183913946151733,-1.674770017663473,-2.5250535647021692,2.294067307109497,-1.0143230597125452,0.16878162324428558
1708437498.8680558,-1.1182687282562256,-1.6747986278929652,-2.5250609556781214,2.2939581114002685,-1.0143426100360315,0.16960954666137695
1708437498.8700209,-1.1180795431137085,-1.6749659977354945,-2.5250447432147425,2.29376928388562,-1.0143950621234339,0.17049308121204376
1708437498.8719888,-1.1179234981536865,-1.6750084362425746,-2.5250073114978235,2.2936133581348876,-1.01439077058901,0.17131751775741577
1708437498.8740215,-1.1178308725357056,-1.6750756702818812,-2.5250101725207728,2.293447895640991,-1.014435116444723,0.17230048775672913
1708437498.8760033,-1.1175953149795532,-1.675213476220602,-2.525054995213644,2.293259306544922,-1.0144417921649378,0.17321085929870605
1708437498.8780162,-1.1174111366271973,-1.6752926311888636,-2.5250685850726526,2.293084068889282,-1.0144909063922327,0.17411211133003235
1708437498.8800473,-1.1173630952835083,-1.6754094562926234,-2.525088135396139,2.292949600810669,-1.014550511037008,0.17507654428482056
1708437498.8820438,-1.1172022819519043,-1.6754890880980433,-2.525121037160055,2.292792959804199,-1.0145629088031214,0.1758875846862793
1708437498.884019,-1.1170283555984497,-1.6755358181395472,-2.5251286665545862,2.2926549154468994,-1.01457387605776,0.17693255841732025
1708437498.8860614,-1.1168677806854248,-1.6756183109679164,-2.525144879017965,2.292482777232788,-1.0146225134478968,0.17784547805786133
1708437498.888009,-1.1167683601379395,-1.6757151089110316,-2.5251482168780726,2.292210741634033,-1.014642063771383,0.17883320152759552
1708437498.8900282,-1.1165679693222046,-1.6757461033263148,-2.5251269976245325,2.2921134668537597,-1.0146573225604456,0.1797334849834442
1708437498.8920205,-1.1164528131484985,-1.6758328876891078,-2.5251556078540247,2.292043610210083,-1.0146454016314905,0.1807144731283188
1708437498.8940492,-1.1162923574447632,-1.6759096584715785,-2.525179688130514,2.291867180461548,-1.0146902243243616,0.1816869080066681
1708437498.8961163,-1.1161694526672363,-1.676021238366598,-2.525184218083517,2.2917393881031494,-1.0146969000445765,0.1826687455177307
1708437498.8979993,-1.1159924268722534,-1.6760279140868128,-2.525208059941427,2.2916080194660644,-1.0147464911090296,0.18362385034561157
1708437498.8999815,-1.1158366203308105,-1.6761824093260707,-2.5252366701709192,2.291402741069458,-1.0146969000445765,0.18445302546024323
1708437498.9019976,-1.115714430809021,-1.6762730083861292,-2.525215450917379,2.2912537294575195,-1.014761749898092,0.18548795580863953
1708437498.90399,-1.1155873537063599,-1.6763497791686,-2.5253053347217005,2.291168375606201,-1.0147979895221155,0.1863800585269928
1708437498.906059,-1.1154462099075317,-1.6763392887511195,-2.5252471605883997,2.291048689479492,-1.0148184935199183,0.18740594387054443
1708437498.9080102,-1.1152738332748413,-1.676493307153219,-2.525275532399313,2.290886803264282,-1.0148261229144495,0.18841888010501862
1708437498.9099896,-1.1151506900787354,-1.6765338383116664,-2.52531606355776,2.2907396990009765,-1.0148175398456019,0.18931497633457184
1708437498.9119976,-1.1149739027023315,-1.676596303979391,-2.525332752858297,2.2906409937092285,-1.0148490110980433,0.1903378963470459
1708437498.914019,-1.1148351430892944,-1.6767012081541957,-2.5253236929522913,2.290398283595703,-1.014946762715475,0.19143477082252502
1708437498.916002,-1.1146857738494873,-1.6768013439574183,-2.5253852049456995,2.2902793127247314,-1.0149295965777796,0.19237612187862396
1708437498.9179955,-1.114545464515686,-1.6768166027464808,-2.5253880659686487,2.2901434141346435,-1.0149005095111292,0.19337353110313416
1708437498.9199982,-1.1144297122955322,-1.6768890819945277,-2.5253925959216517,2.289996309871338,-1.014949146901266,0.19432008266448975
1708437498.9220333,-1.1142884492874146,-1.6769558391966761,-2.525362555180685,2.289933128947876,-1.0149853865252894,0.19535210728645325
1708437498.9240177,-1.1141537427902222,-1.6770488224425257,-2.525440518056051,2.2897204595753173,-1.015022102986471,0.1963217854499817
1708437498.926017,-1.1140028238296509,-1.6770874462523402,-2.52541953722109,2.2895945745655517,-1.0150373617755335,0.19736063480377197
1708437498.928002,-1.11388099193573,-1.677155157128805,-2.525403086339132,2.2895092207142334,-1.0150569120990198,0.19838742911815643
1708437498.9301147,-1.1137293577194214,-1.6772433720030726,-2.5254433790790003,2.289423390025757,-1.0151551405536097,0.19943685829639435
1708437498.9320214,-1.113647222518921,-1.6773153744139613,-2.5254722277270716,2.289191408748291,-1.0151580015765589,0.20042449235916138
1708437498.9340196,-1.1135014295578003,-1.6774198017516078,-2.5254841486560267,2.2891134458729248,-1.0151451269732874,0.20156043767929077
1708437498.9360347,-1.1133863925933838,-1.6774302921690882,-2.525458637868063,2.2889479833790283,-1.0152018705951136,0.202520951628685
1708437498.9380145,-1.1132869720458984,-1.6775514088072718,-2.525433365498678,2.2888566690632324,-1.0152009169207972,0.20350328087806702
1708437498.9400144,-1.1131340265274048,-1.6775905094542445,-2.5254676977740687,2.288717671031616,-1.015273396168844,0.2044994980096817
1708437498.9420538,-1.1130398511886597,-1.677650590936178,-2.5255005995379847,2.288555784816406,-1.0153258482562464,0.2054368257522583
1708437498.9440336,-1.1129366159439087,-1.677713533441061,-2.525532070790426,2.288468762035034,-1.0153487364398401,0.2065790891647339
1708437498.9460545,-1.1127501726150513,-1.677819391290182,-2.525490109120504,2.2883283334919433,-1.0153282324420374,0.20758585631847382
1708437498.94804,-1.1126590967178345,-1.6778789959349574,-2.5255349318133753,2.2881852823444824,-1.0154054800616663,0.20868857204914093
1708437498.950043,-1.1125178337097168,-1.6778928242125453,-2.5256052652942103,2.2880233961292724,-1.01540452638735,0.20973919332027435
1708437498.9519958,-1.1123816967010498,-1.677969594995016,-2.5256174246417444,2.2879907327839355,-1.0154607931720179,0.21079786121845245
1708437498.9540398,-1.112310528755188,-1.6780830822386683,-2.5256009737597864,2.2877840238758544,-1.01542836824526,0.21190418303012848
1708437498.9560447,-1.1121667623519897,-1.6781584225096644,-2.5255754629718226,2.2877299028583984,-1.0154522101031702,0.21294625103473663
1708437498.9580004,-1.1120260953903198,-1.6781941852965296,-2.5256415049182337,2.2875889974781494,-1.015500847493307,0.21398918330669403
1708437498.9600322,-1.1119319200515747,-1.6782580814757289,-2.525602404271261,2.287493868465088,-1.0155051390277308,0.21505050361156464
1708437498.9619923,-1.111797571182251,-1.6783634624876917,-2.525644604359762,2.287430925960205,-1.0154922644244593,0.21604342758655548
1708437498.9640193,-1.1117019653320312,-1.6783958874144496,-2.525619093571798,2.2872623640247802,-1.0154274145709437,0.21715067327022552
1708437498.9660418,-1.1116076707839966,-1.6784974537291468,-2.5256429354297083,2.2871662813374023,-1.0154836813556116,0.2182914912700653
1708437498.968065,-1.1114925146102905,-1.6785155735411585,-2.5256593863116663,2.287050648326538,-1.0155370871173304,0.21925853192806244
1708437498.9700532,-1.1114131212234497,-1.6786252460875453,-2.5256622473346155,2.2869457441517334,-1.0155609289752405,0.22030332684516907
1708437498.9720218,-1.1112804412841797,-1.6786428890623988,-2.525707546864645,2.28682987272229,-1.015597168599264,0.2213452160358429
1708437498.9740295,-1.1111427545547485,-1.678716321984762,-2.5257719198810022,2.28671042501416,-1.0155885855304163,0.22243927419185638
1708437498.9760087,-1.1110514402389526,-1.6787926159300746,-2.525726858769552,2.28658573209729,-1.0156524817096155,0.22352175414562225
1708437498.978045,-1.1109647750854492,-1.6788646183409632,-2.525759998952047,2.286487026805542,-1.0156353155719202,0.22463226318359375
1708437498.980014,-1.1108183860778809,-1.6788631878294886,-2.5257886091815394,2.286330147380493,-1.0157049337970179,0.2256404012441635
