Eg3-git/Classifiers/Data Collection/u5/u5xyz3_ur3e_joint_states.csv
time,elbow_joint,shoulder_lift_joint,shoulder_pan_joint,wrist_1_joint,wrist_2_joint,wrist_3_joint
1708437522.5520916,-1.1061358451843262,-1.6813422642149867,-2.5264230410205286,2.2816800314136962,-1.0170539061175745,0.09535622596740723
1708437522.5542104,-1.1060870885849,-1.6813136539854945,-2.5264926592456263,2.281651182765625,-1.017041031514303,0.09534722566604614
1708437522.556096,-1.1060783863067627,-1.6813556156554164,-2.5264349619494837,2.281660242671631,-1.017057243977682,0.09535504877567291
1708437522.558107,-1.1061272621154785,-1.6813379726805628,-2.5264020601855677,2.281684561366699,-1.0170615355121058,0.09540573507547379
1708437522.560082,-1.1060947179794312,-1.6813341579832972,-2.526418749486105,2.2817427355,-1.0170453230487269,0.09534430503845215
1708437522.5621605,-1.1060794591903687,-1.6813212833800257,-2.5264435450183313,2.281689091319702,-1.0170820395099085,0.09537743031978607
1708437522.5641499,-1.106123924255371,-1.6813017330565394,-2.5264230410205286,2.281693621272705,-1.017012898121969,0.09532634913921356
1708437522.566123,-1.1061153411865234,-1.6814075909056605,-2.5264020601855677,2.281717224712036,-1.0170453230487269,0.09541728347539902
1708437522.5681074,-1.1061121225357056,-1.6813298664488734,-2.5264557043658655,2.2816921907612304,-1.0170453230487269,0.09536071121692657
1708437522.570098,-1.1061077117919922,-1.6813298664488734,-2.526426140462057,2.2817246156879882,-1.0170248190509241,0.09533528238534927
1708437522.572101,-1.1060870885849,-1.6813250980772914,-2.5264304319964808,2.2816592889973144,-1.017012898121969,0.09534429758787155
1708437522.5741014,-1.1061564683914185,-1.6813165150084437,-2.5264185110675257,2.281616373653076,-1.0170581976519983,0.09540283679962158
1708437522.5760946,-1.1061077117919922,-1.6813579998412074,-2.5264435450183313,2.2816430765339355,-1.017052952443258,0.09541019797325134
1708437522.5780933,-1.1060870885849,-1.6813508472838343,-2.526418749486105,2.2817129331776123,-1.0170701185809534,0.09538933634757996
1708437522.5800865,-1.1061240434646606,-1.6813465557494105,-2.5264599959002894,2.2816800314136962,-1.017029110585348,0.09537741541862488
1708437522.58209,-1.1061283349990845,-1.6813537083067835,-2.5264514128314417,2.281705303783081,-1.0170539061175745,0.09537295252084732
1708437522.5841138,-1.1060751676559448,-1.6813003025450648,-2.526447836552755,2.281668110484741,-1.0170334021197718,0.09539380669593811
1708437522.586109,-1.1061033010482788,-1.6812931499876917,-2.526447121297018,2.2816638189503173,-1.0170205275165003,0.09537743031978607
1708437522.5881124,-1.1060870885849,-1.6813379726805628,-2.5264719168292444,2.281721754665039,-1.017069164906637,0.09538030624389648
1708437522.590124,-1.1061283349990845,-1.6813661060728968,-2.526414457951681,2.281709833736084,-1.0170367399798792,0.09538935869932175
1708437522.5921404,-1.106095790863037,-1.6813050709166468,-2.526447121297018,2.2816800314136962,-1.017069164906637,0.09538934379816055
1708437522.5941374,-1.106099009513855,-1.6813575230040492,-2.5264557043658655,2.281705303783081,-1.0170453230487269,0.095368392765522
1708437522.596107,-1.106095790863037,-1.6813470325865687,-2.5264764467822474,2.281646652812622,-1.0170453230487269,0.09532344341278076
1708437522.598116,-1.106100082397461,-1.6813775501646937,-2.5264719168292444,2.281668110484741,-1.0170214811908167,0.09537293761968613
1708437522.6001337,-1.1061033010482788,-1.6813341579832972,-2.526458803807394,2.2816964822956542,-1.017012898121969,0.09540573507547379
1708437522.602092,-1.1060913801193237,-1.6813703976073207,-2.526468817387716,2.2816666799732666,-1.0170376936541956,0.09535164386034012
1708437522.604103,-1.1060914993286133,-1.6813703976073207,-2.5264392534839075,2.281668110484741,-1.0170453230487269,0.0953352302312851
1708437522.606097,-1.1061077117919922,-1.681394716302389,-2.5264602343188685,2.2816802698322753,-1.0170944372760218,0.09538933634757996
1708437522.6081038,-1.1061033010482788,-1.6813212833800257,-2.5264340082751673,2.281726284618042,-1.017012898121969,0.09535166621208191
1708437522.610084,-1.1061240434646606,-1.6813136539854945,-2.5264883677112024,2.2816385465809326,-1.017057243977682,0.09535622596740723
1708437522.6120918,-1.1060870885849,-1.681345125237936,-2.5264557043658655,2.2816757398792724,-1.0170496145831507,0.095339834690094
1708437522.614095,-1.1061283349990845,-1.6813575230040492,-2.5264514128314417,2.281738205546997,-1.0170453230487269,0.09539671242237091
1708437522.6161046,-1.106071949005127,-1.6813212833800257,-2.5264316240893763,2.2816964822956542,-1.0170496145831507,0.0953550636768341
1708437522.61809,-1.106095790863037,-1.6813537083067835,-2.5264392534839075,2.281684561366699,-1.0170334021197718,0.09534722566604614
1708437522.620099,-1.1060632467269897,-1.681307931939596,-2.526447121297018,2.281701012248657,-1.0170367399798792,0.09538477659225464
1708437522.622146,-1.1060795783996582,-1.6813584766783656,-2.5264316240893763,2.281705303783081,-1.0170119444476526,0.09536391496658325
1708437522.6241589,-1.1061044931411743,-1.6813794575133265,-2.526442591344015,2.2816919523426513,-1.0170496145831507,0.0953550636768341
1708437522.626092,-1.1060795783996582,-1.6813050709166468,-2.5264435450183313,2.281681938762329,-1.0170820395099085,0.09539487957954407
1708437522.6281438,-1.1060914993286133,-1.6813298664488734,-2.5264676252948206,2.2816433149525146,-1.0170334021197718,0.09538933634757996
1708437522.6301105,-1.1061445474624634,-1.6813470325865687,-2.5264063517199915,2.281668110484741,-1.0170777479754847,0.09540116786956787
1708437522.632134,-1.1061196327209473,-1.6813751659789027,-2.526442591344015,2.2816342550465087,-1.017012898121969,0.09539222717285156
1708437522.6341205,-1.1061077117919922,-1.6813584766783656,-2.5264719168292444,2.281710072154663,-1.0170367399798792,0.09538477659225464
1708437522.6361487,-1.106112003326416,-1.6813255749144496,-2.526414219533102,2.2816638189503173,-1.017012898121969,0.09536391496658325
1708437522.6381476,-1.106082797050476,-1.6813470325865687,-2.5264514128314417,2.281608982677124,-1.017029110585348,0.0953550636768341
1708437522.6401315,-1.106082797050476,-1.6813246212401332,-2.5264676252948206,2.281651182765625,-1.0170863310443323,0.0953594446182251
1708437522.6421032,-1.106083869934082,-1.6813250980772914,-2.5264557043658655,2.28171889364209,-1.0170376936541956,0.09538328647613525
1708437522.6441433,-1.1060795783996582,-1.6813293896117152,-2.5264762083636683,2.281710072154663,-1.0170086065875452,0.0953594446182251
1708437522.646106,-1.106083869934082,-1.6813212833800257,-2.5264435450183313,2.281651182765625,-1.0170367399798792,0.0953788161277771
1708437522.6481068,-1.1060794591903687,-1.681316991845602,-2.5264230410205286,2.281677170390747,-1.0170581976519983,0.09538328647613525
1708437522.650118,-1.1061077117919922,-1.6813246212401332,-2.5264557043658655,2.281705303783081,-1.0170777479754847,0.09539222717285156
1708437522.652108,-1.1060881614685059,-1.6813703976073207,-2.526479784642355,2.281677170390747,-1.0170539061175745,0.09542948007583618
1708437522.654112,-1.1061090230941772,-1.6813661060728968,-2.526418749486105,2.281655712718628,-1.0170496145831507,0.09535050392150879
1708437522.6561067,-1.1060751676559448,-1.6813584766783656,-2.5264392534839075,2.2816478449055175,-1.0170496145831507,0.09539485722780228
1708437522.6581106,-1.1061002016067505,-1.6813093624510707,-2.526447121297018,2.281655712718628,-1.0169966856585901,0.09543710947036743
1708437522.6600854,-1.1060751676559448,-1.6813422642149867,-2.5264349619494837,2.2816800314136962,-1.017029110585348,0.09540829062461853
1708437522.6621172,-1.106083869934082,-1.6813136539854945,-2.5264719168292444,2.281705303783081,-1.0170863310443323,0.09542948007583618
1708437522.6641812,-1.106070876121521,-1.6813494167723597,-2.5264230410205286,2.281684561366699,-1.0170086065875452,0.09542064368724823
1708437522.6661365,-1.106083869934082,-1.6813751659789027,-2.5264063517199915,2.2816800314136962,-1.0170052687274378,0.09544439613819122
1708437522.668124,-1.1060751676559448,-1.6813317737975062,-2.5264020601855677,2.281701012248657,-1.0170086065875452,0.09538326412439346
1708437522.6701317,-1.106083869934082,-1.681345125237936,-2.5264645258532923,2.2816547590443115,-1.0170052687274378,0.09538781642913818
1708437522.6721272,-1.1060707569122314,-1.6813990078368128,-2.5264392534839075,2.2816592889973144,-1.0170539061175745,0.09538131952285767
1708437522.6741192,-1.106100082397461,-1.6813470325865687,-2.5264065901385706,2.2816592889973144,-1.0170095602618616,0.09542350471019745
1708437522.6761355,-1.1061240434646606,-1.6813003025450648,-2.5264721552478235,2.281668110484741,-1.0170658270465296,0.09539485722780228
1708437522.6781325,-1.1060881614685059,-1.6813470325865687,-2.5264599959002894,2.2816504675098876,-1.0170376936541956,0.09543991088867188
1708437522.6801357,-1.106100082397461,-1.681345125237936,-2.5264273325549524,2.281705303783081,-1.0170539061175745,0.09550143033266068
1708437522.6820943,-1.1060795783996582,-1.6813866100706996,-2.526414219533102,2.2816638189503173,-1.0170419851886194,0.0954219251871109
1708437522.6841254,-1.1060343980789185,-1.6813775501646937,-2.5264926592456263,2.2816800314136962,-1.0170343557940882,0.09545058757066727
1708437522.6861126,-1.1060638427734375,-1.6813255749144496,-2.5264645258532923,2.281689091319702,-1.0170052687274378,0.09542915970087051
1708437522.688209,-1.1060913801193237,-1.681316991845602,-2.526480738316671,2.281651182765625,-1.0170214811908167,0.09551647305488586
1708437522.6901128,-1.106050729751587,-1.6813661060728968,-2.5264435450183313,2.281646652812622,-1.0170376936541956,0.09550744295120239
1708437522.6921227,-1.1060794591903687,-1.6813045940794886,-2.526463333760397,2.281693621272705,-1.0170095602618616,0.09551046788692474
1708437522.694105,-1.1060971021652222,-1.6813909016051234,-2.5264359156238,2.281672640437744,-1.0170257727252405,0.09551945328712463
1708437522.6961281,-1.1060882806777954,-1.6813584766783656,-2.5265045801745813,2.281677170390747,-1.0169933477984827,0.09552834182977676
1708437522.698106,-1.1061326265335083,-1.6813794575133265,-2.5264316240893763,2.281672640437744,-1.017000977193014,0.09563161432743073
1708437522.7001112,-1.1061121225357056,-1.6813036404051722,-2.5263989607440394,2.281672640437744,-1.0170019308673304,0.09561808407306671
1708437522.7021163,-1.106083869934082,-1.6813575230040492,-2.526442591344015,2.2816335397907714,-1.0169766584979456,0.09557598829269409
1708437522.7041306,-1.1061002016067505,-1.6813575230040492,-2.5264063517199915,2.2816547590443115,-1.0169976393329065,0.09547276794910431
1708437522.7060902,-1.1061002016067505,-1.6813703976073207,-2.5264392534839075,2.2816013532825927,-1.0169451872455042,0.09556858241558075
1708437522.7081025,-1.1061002016067505,-1.6813003025450648,-2.5264108816729944,2.281625195140503,-1.0169852415667933,0.09556862711906433
1708437522.7101402,-1.1061164140701294,-1.6813703976073207,-2.526458803807394,2.2816964822956542,-1.0169485251056116,0.09555961191654205
1708437522.7120824,-1.1061044931411743,-1.6813422642149867,-2.5264230410205286,2.281710072154663,-1.017026726399557,0.09555065631866455
1708437522.7140849,-1.1061090230941772,-1.6813579998412074,-2.526463333760397,2.2816378313251953,-1.0169809500323694,0.09549684822559357
1708437522.716128,-1.106095790863037,-1.6813661060728968,-2.5263901392566126,2.281729145640991,-1.0169408957110804,0.09555510431528091
1708437522.7180972,-1.1060751676559448,-1.6813122234740199,-2.5264392534839075,2.281672640437744,-1.016982380543844,0.0955265536904335
1708437522.7201202,-1.106095790863037,-1.681316991845602,-2.5264063517199915,2.281672640437744,-1.0170310179339808,0.09555508196353912
1708437522.7221036,-1.106083869934082,-1.6813661060728968,-2.526418749486105,2.281668110484741,-1.0169809500323694,0.09555067121982574
1708437522.7241254,-1.1060882806777954,-1.6813951931395472,-2.526418749486105,2.281698389644287,-1.0169780890094202,0.09557441622018814
1708437522.7261014,-1.106100082397461,-1.6813122234740199,-2.5264349619494837,2.2816712099262695,-1.016982380543844,0.09558790922164917
1708437522.7280984,-1.106083869934082,-1.6813293896117152,-2.526397768651144,2.281651182765625,-1.016961399708883,0.09558343142271042
1708437522.7300894,-1.106083869934082,-1.6813003025450648,-2.5264392534839075,2.2816592889973144,-1.0169780890094202,0.0956001728773117
1708437522.732093,-1.106100082397461,-1.6813775501646937,-2.5264514128314417,2.2816876608082275,-1.0169451872455042,0.09552646428346634
1708437522.7341273,-1.106112003326416,-1.6812683544554652,-2.5264514128314417,2.281629725093506,-1.016961399708883,0.09560900926589966
1708437522.7361503,-1.1060751676559448,-1.6813818416991175,-2.5264602343188685,2.281655712718628,-1.0169366041766565,0.0955670177936554
1708437522.7382221,-1.106071949005127,-1.6814075909056605,-2.5264392534839075,2.2816638189503173,-1.0169981161700647,0.09556547552347183
1708437522.740128,-1.1060707569122314,-1.6813584766783656,-2.5264316240893763,2.281689091319702,-1.016965691243307,0.09563460201025009
1708437522.7421184,-1.1060588359832764,-1.6813003025450648,-2.526447836552755,2.281651182765625,-1.016961399708883,0.09558344632387161
1708437522.7441251,-1.1061164140701294,-1.681345125237936,-2.526447836552755,2.2817084032246093,-1.0169289747821253,0.0955955982208252
1708437522.746099,-1.106071949005127,-1.6813732586302699,-2.5263946692096155,2.281729145640991,-1.0169289747821253,0.09556707739830017
1708437522.7481549,-1.106083869934082,-1.6813379726805628,-2.5264676252948206,2.281717463130615,-1.0169537703143519,0.09558215737342834
1708437522.7501028,-1.1061164140701294,-1.681345125237936,-2.526447836552755,2.281721754665039,-1.016949478779928,0.09563299268484116
1708437522.7520804,-1.1060301065444946,-1.681345125237936,-2.5264435450183313,2.2817367750355224,-1.016949478779928,0.09565252810716629
1708437522.754115,-1.1060751676559448,-1.6813470325865687,-2.5263827482806605,2.2816592889973144,-1.0169332663165491,0.09557440876960754
1708437522.7561138,-1.1060795783996582,-1.681307931939596,-2.5264392534839075,2.2816876608082275,-1.0169256369220179,0.09565255045890808
1708437522.7581055,-1.1060881614685059,-1.6813575230040492,-2.5263946692096155,2.281684561366699,-1.0169909636126917,0.09564477205276489
1708437522.7600896,-1.1061240434646606,-1.6814032993712367,-2.5264273325549524,2.2816712099262695,-1.0169017950641077,0.09560751914978027
1708437522.7620935,-1.106070876121521,-1.6813379726805628,-2.5264108816729944,2.281763716334961,-1.016909424458639,0.09559862315654755
1708437522.7641723,-1.1060881614685059,-1.6813661060728968,-2.5264392534839075,2.281668110484741,-1.0168889204608362,0.0956149697303772
1708437522.7661228,-1.1060795783996582,-1.6813494167723597,-2.5264392534839075,2.281733675593994,-1.016909424458639,0.0956641435623169
1708437522.7681007,-1.1060794591903687,-1.6813627682127894,-2.5264359156238,2.281714602107666,-1.0169256369220179,0.09564352035522461
1708437522.7701027,-1.1060914993286133,-1.6812874279417933,-2.5264557043658655,2.2817248541065673,-1.0169461409198206,0.09566418826580048
1708437522.7720945,-1.1061044931411743,-1.6813179455199183,-2.526397768651144,2.2816831308552246,-1.0169666449176233,0.09567603468894958
1708437522.7741761,-1.1061077117919922,-1.681307931939596,-2.5264349619494837,2.281642122859619,-1.0169580618487757,0.09568804502487183
1708437522.776099,-1.1061044931411743,-1.6812945804991664,-2.5264151732074183,2.2816757398792724,-1.0169504324542444,0.09567597508430481
1708437522.7781076,-1.106095790863037,-1.681296011010641,-2.526480738316671,2.2817129331776123,-1.0169180075274866,0.09564626216888428
1708437522.7801325,-1.1061164140701294,-1.681345125237936,-2.5264273325549524,2.281684561366699,-1.0168855826007288,0.09566712379455566
1708437522.7821007,-1.1061077117919922,-1.681345125237936,-2.526447836552755,2.2816964822956542,-1.0169256369220179,0.0956580862402916
1708437522.784142,-1.106058955192566,-1.681361814538473,-2.52647310892214,2.2817129331776123,-1.01689321199526,0.09569573402404785
1708437522.786108,-1.1060926914215088,-1.6813212833800257,-2.526468817387716,2.2817084032246093,-1.0168731848346155,0.0956835150718689
1708437522.788101,-1.1061326265335083,-1.6813818416991175,-2.5264020601855677,2.281684561366699,-1.0169428030597132,0.09565255045890808
1708437522.7901275,-1.1061164140701294,-1.6813003025450648,-2.5264273325549524,2.2817038732716064,-1.0169180075274866,0.0956525132060051
1708437522.7921064,-1.1060794591903687,-1.6813494167723597,-2.5263946692096155,2.2816547590443115,-1.0169222990619105,0.09563014656305313
1708437522.7941017,-1.1061153411865234,-1.6813818416991175,-2.5264108816729944,2.2817248541065673,-1.0168941656695765,0.09565964341163635
1708437522.7961173,-1.106070876121521,-1.6813298664488734,-2.5263989607440394,2.281729145640991,-1.0169017950641077,0.09567907452583313
1708437522.7981114,-1.106070876121521,-1.6813818416991175,-2.5264435450183313,2.2816876608082275,-1.0169146696673792,0.09566713869571686
1708437522.8001204,-1.1061121225357056,-1.6813751659789027,-2.526414457951681,2.2817410665699462,-1.0169222990619105,0.09564352035522461
1708437522.8020942,-1.1061283349990845,-1.6813422642149867,-2.5263989607440394,2.2816638189503173,-1.0168898741351526,0.09569696336984634
1708437522.8041408,-1.1060506105422974,-1.6813093624510707,-2.526423756276266,2.2816757398792724,-1.0169060865985315,0.09567159414291382
1708437522.8060966,-1.1060794591903687,-1.6813661060728968,-2.526419464741842,2.2816592889973144,-1.0168612639056605,0.09571221470832825
1708437522.808097,-1.1060632467269897,-1.681340833703512,-2.526419464741842,2.2816638189503173,-1.0168569723712366,0.09563467651605606
1708437522.8101697,-1.1060333251953125,-1.6813255749144496,-2.5263946692096155,2.2816964822956542,-1.0168655554400843,0.09568798542022705
1708437522.8120966,-1.1061402559280396,-1.6813751659789027,-2.526419464741842,2.2816378313251953,-1.0168941656695765,0.09569241106510162
1708437522.8140965,-1.1061489582061768,-1.6813379726805628,-2.526414457951681,2.2817656236835937,-1.0168898741351526,0.09570024907588959
1708437522.8161304,-1.1060914993286133,-1.6813165150084437,-2.5264273325549524,2.281705303783081,-1.0168975035296839,0.09563466906547546
1708437522.8180802,-1.106083869934082,-1.6813494167723597,-2.5263870398150843,2.2817529874989013,-1.0168774763690394,0.09560602903366089
1708437522.8201232,-1.106123924255371,-1.6813584766783656,-2.526419464741842,2.2817248541065673,-1.0168450514422815,0.0956835076212883
1708437522.8220973,-1.1061315536499023,-1.6813093624510707,-2.526419464741842,2.281729145640991,-1.0168975035296839,0.09564915299415588
1708437522.824104,-1.106123924255371,-1.681361814538473,-2.526403252278463,2.2816547590443115,-1.0168569723712366,0.09563913941383362
1708437522.8260934,-1.1061240434646606,-1.681333681146139,-2.5264151732074183,2.281684561366699,-1.0168774763690394,0.09566712379455566
1708437522.8281178,-1.1060707569122314,-1.6813751659789027,-2.5264108816729944,2.2817084032246093,-1.0168817679034632,0.09568798542022705
1708437522.8301063,-1.106123924255371,-1.681345125237936,-2.526428286229269,2.2817157942005615,-1.0168450514422815,0.09567597508430481
1708437522.8320901,-1.1061077117919922,-1.6814037762083949,-2.52636963525881,2.2816876608082275,-1.0168817679034632,0.09563466906547546
1708437522.8341322,-1.106095790863037,-1.6813584766783656,-2.5264645258532923,2.2816592889973144,-1.0168569723712366,0.09561794996261597
1708437522.8361602,-1.1061315536499023,-1.6813293896117152,-2.5264020601855677,2.2817248541065673,-1.0168731848346155,0.09561794996261597
1708437522.8381178,-1.1061121225357056,-1.6813212833800257,-2.526419464741842,2.2816831308552246,-1.0168731848346155,0.09568798542022705
1708437522.840147,-1.1061077117919922,-1.6813293896117152,-2.5263989607440394,2.2817441660114746,-1.016848389302389,0.09563466161489487
1708437522.8421538,-1.1061002016067505,-1.6813298664488734,-2.5264151732074183,2.281729145640991,-1.0168817679034632,0.09567904472351074
1708437522.8441048,-1.1061034202575684,-1.681333681146139,-2.5263901392566126,2.2816995817371826,-1.0169103781329554,0.09565809369087219
1708437522.846103,-1.1061283349990845,-1.6813703976073207,-2.5264065901385706,2.2816876608082275,-1.0168688933001917,0.09568798542022705
1708437522.84812,-1.1061315536499023,-1.6813255749144496,-2.5264151732074183,2.2816919523426513,-1.0168817679034632,0.0956641435623169
1708437522.8500998,-1.1061034202575684,-1.6813465557494105,-2.5264108816729944,2.2817129331776123,-1.0168898741351526,0.09569692611694336
1708437522.852103,-1.1060870885849,-1.6813494167723597,-2.5263903776751917,2.2817038732716064,-1.0168612639056605,0.09564622491598129
1708437522.8540878,-1.1061034202575684,-1.681333681146139,-2.5264151732074183,2.2817203241535644,-1.0168407599078577,0.09566712379455566
1708437522.8560767,-1.1061402559280396,-1.6813136539854945,-2.526403252278463,2.2817351061054687,-1.0168493429767054,0.09562563896179199
1708437522.8580782,-1.1061152219772339,-1.681345125237936,-2.526403252278463,2.2817486959644775,-1.0168374220477503,0.09563913941383362
1708437522.860102,-1.106099009513855,-1.6813298664488734,-2.5264273325549524,2.2817367750355224,-1.0168774763690394,0.09565073251724243
1708437522.862074,-1.1061477661132812,-1.6813818416991175,-2.526419464741842,2.2817157942005615,-1.016874138508932,0.09566861391067505
1708437522.8641539,-1.1061315536499023,-1.6813122234740199,-2.5263870398150843,2.2817322450825195,-1.0168941656695765,0.09568049758672714
1708437522.8661604,-1.10611093044281,-1.681345125237936,-2.526403252278463,2.2817322450825195,-1.0168536345111292,0.09568673372268677
1708437522.8681364,-1.1061153411865234,-1.6813627682127894,-2.5264316240893763,2.2817248541065673,-1.0168655554400843,0.09565520286560059
1708437522.8701167,-1.1061477661132812,-1.6812917194762171,-2.526379410420553,2.2817529874989013,-1.0168288389789026,0.09571364521980286
1708437522.8721697,-1.1061640977859497,-1.681307931939596,-2.52641207376589,2.2816995817371826,-1.0168331305133265,0.09568053483963013
1708437522.8741603,-1.1061315536499023,-1.6813165150084437,-2.526407543812887,2.281762047404907,-1.016874138508932,0.09565519541501999
1708437522.8761404,-1.1061183214187622,-1.6813494167723597,-2.5264230410205286,2.281766338939331,-1.0168612639056605,0.09561347961425781
1708437522.8781354,-1.1061640977859497,-1.6813909016051234,-2.526419464741842,2.2816874223896484,-1.0169027487384241,0.09568800032138824
1708437522.8801022,-1.106127142906189,-1.6813537083067835,-2.5264480749713343,2.2817529874989013,-1.0168417135821741,0.09571364521980286
1708437522.8821068,-1.1061196327209473,-1.6813212833800257,-2.5263989607440394,2.2817115026661376,-1.0168536345111292,0.09566712379455566
1708437522.8841214,-1.1061640977859497,-1.6813422642149867,-2.526403252278463,2.2817084032246093,-1.0168493429767054,0.0956256240606308
1708437522.8860958,-1.1061315536499023,-1.6813537083067835,-2.5263870398150843,2.2817115026661376,-1.0168374220477503,0.0956835150718689
1708437522.8881366,-1.1061598062515259,-1.681345125237936,-2.5264108816729944,2.2817084032246093,-1.0168493429767054,0.09566997736692429
1708437522.890119,-1.106127142906189,-1.681345125237936,-2.5263989607440394,2.2817203241535644,-1.0168364683734339,0.09565958380699158
1708437522.8921022,-1.1061640977859497,-1.6813732586302699,-2.5264316240893763,2.2817396360584716,-1.0168536345111292,0.09566417336463928
1708437522.8940833,-1.1061478853225708,-1.6812931499876917,-2.5264273325549524,2.2817367750355224,-1.0168536345111292,0.09567157924175262
1708437522.8961275,-1.1061434745788574,-1.6813794575133265,-2.526419464741842,2.2816740709492187,-1.0168817679034632,0.09564628452062607
1708437522.898115,-1.1061315536499023,-1.6813317737975062,-2.526403252278463,2.2817367750355224,-1.016874138508932,0.09559708833694458
1708437522.9001002,-1.1061434745788574,-1.6813050709166468,-2.5264316240893763,2.281762047404907,-1.0168569723712366,0.09565520286560059
1708437522.9021025,-1.1061766147613525,-1.681296011010641,-2.526440445576803,2.2817305761524658,-1.0168126265155237,0.09565520286560059
1708437522.904102,-1.106181025505066,-1.6813293896117152,-2.5263782183276575,2.2816786009022216,-1.0168374220477503,0.09566861391067505
1708437522.906098,-1.106181025505066,-1.681333681146139,-2.526447836552755,2.2817322450825195,-1.0168855826007288,0.09564352035522461
1708437522.908113,-1.1061228513717651,-1.6814118824400843,-2.5264480749713343,2.28176395475354,-1.0168612639056605,0.0956626683473587
1708437522.910127,-1.1061183214187622,-1.6813050709166468,-2.5264392534839075,2.2817656236835937,-1.0168946425067347,0.09565810859203339
1708437522.9120953,-1.1061434745788574,-1.6813627682127894,-2.526456658040182,2.281743212337158,-1.0168417135821741,0.09568798542022705
1708437522.9140985,-1.1061391830444336,-1.6813422642149867,-2.5263989607440394,2.281777544612549,-1.016869846974508,0.09563466906547546
1708437522.9160967,-1.1061723232269287,-1.6813212833800257,-2.5264151732074183,2.28176395475354,-1.016907040272848,0.09563916176557541
1708437522.9180932,-1.1061677932739258,-1.681288858453268,-2.5263989607440394,2.281726046199463,-1.016857926045553,0.09567597508430481
1708437522.9200966,-1.1061598062515259,-1.6813093624510707,-2.526423994694845,2.2818056780048828,-1.0168245474444788,0.09564624726772308
1708437522.922096,-1.1061972379684448,-1.6813379726805628,-2.5264151732074183,2.2818056780048828,-1.016918961201803,0.09563715010881424
1708437522.9241085,-1.1061478853225708,-1.6813255749144496,-2.52641207376589,2.281784935588501,-1.0168903509723108,0.0957002341747284
1708437522.926088,-1.1061228513717651,-1.6813751659789027,-2.5264108816729944,2.281747742290161,-1.0168450514422815,0.09564808011054993
1708437522.9281075,-1.1061640977859497,-1.6813255749144496,-2.5263662973987024,2.2818056780048828,-1.0168450514422815,0.09565956890583038
1708437522.930085,-1.1061723232269287,-1.6813579998412074,-2.5263870398150843,2.28182498990979,-1.0168536345111292,0.09563018381595612
1708437522.9321973,-1.1061021089553833,-1.6813837490477503,-2.526419464741842,2.28176395475354,-1.0168941656695765,0.09563913196325302
1708437522.934137,-1.106181025505066,-1.6813165150084437,-2.5263739267932337,2.2817954260059814,-1.0168374220477503,0.09563135355710983
1708437522.9361227,-1.1061553955078125,-1.6813494167723597,-2.5264108816729944,2.2818235593983154,-1.016907040272848,0.09562680125236511
1708437522.9381156,-1.1061302423477173,-1.6813212833800257,-2.526407543812887,2.2818643289753417,-1.016820255910055,0.09564808011054993
1708437522.9401245,-1.1061553955078125,-1.6813093624510707,-2.5264151732074183,2.281916542644165,-1.0168493429767054,0.0956435278058052
1708437522.9421084,-1.1061841249465942,-1.6813255749144496,-2.526419464741842,2.28190462171521,-1.0168536345111292,0.0956716239452362
1708437522.9441233,-1.1061840057373047,-1.6813341579832972,-2.5263662973987024,2.281883640880249,-1.0168774763690394,0.09562245011329651
1708437522.9460866,-1.1061553955078125,-1.681296011010641,-2.526403252278463,2.281879349345825,-1.016857926045553,0.09564810991287231
1708437522.948129,-1.1061553955078125,-1.6813255749144496,-2.526367489491598,2.28186742841687,-1.0168774763690394,0.09563139826059341
1708437522.9501123,-1.1061886548995972,-1.6813579998412074,-2.526440445576803,2.281954212779663,-1.016886059437887,0.09563466906547546
1708437522.9520838,-1.1061228513717651,-1.681333681146139,-2.526391331349508,2.28190462171521,-1.0168612639056605,0.09563019871711731
1708437522.954084,-1.1061723232269287,-1.681345125237936,-2.5264151732074183,2.28186742841687,-1.0168817679034632,0.09559861570596695
1708437522.9560943,-1.106163501739502,-1.681284090081686,-2.526391331349508,2.281859799022339,-1.0168898741351526,0.09562239795923233
1708437522.958111,-1.1061872243881226,-1.6813470325865687,-2.5263989607440394,2.2818643289753417,-1.0168774763690394,0.09563466906547546
1708437522.9601746,-1.106163501739502,-1.6813122234740199,-2.5264316240893763,2.281855269069336,-1.0168612639056605,0.09562686085700989
1708437522.9621043,-1.1061140298843384,-1.6813165150084437,-2.526403252278463,2.281871719951294,-1.0168774763690394,0.0956641435623169
1708437522.9641533,-1.1061797142028809,-1.6813045940794886,-2.526391331349508,2.281907482738159,-1.0168655554400843,0.09566612541675568
1708437522.9661536,-1.1061677932739258,-1.6813508472838343,-2.5263903776751917,2.2819418150135498,-1.016874138508932,0.0956641286611557
1708437522.968105,-1.1062166690826416,-1.681284090081686,-2.526452366505758,2.2818850713917236,-1.0168784300433558,0.09566420316696167
1708437522.9700797,-1.1062092781066895,-1.6813579998412074,-2.526407543812887,2.281932755107544,-1.0168655554400843,0.09565258026123047
1708437522.9720871,-1.106204867362976,-1.681284090081686,-2.5263825098620813,2.281907482738159,-1.0168774763690394,0.09563294053077698
1708437522.974085,-1.1061710119247437,-1.6813298664488734,-2.5263705889331263,2.281859799022339,-1.0168774763690394,0.0956239104270935
1708437522.9761221,-1.1061885356903076,-1.6813165150084437,-2.5264359156238,2.281895561809204,-1.0168536345111292,0.09557755291461945
1708437522.9780934,-1.1061228513717651,-1.6813537083067835,-2.5264151732074183,2.2819015222736816,-1.0169103781329554,0.09558211266994476
1708437522.98013,-1.1062003374099731,-1.6813494167723597,-2.5264609495746058,2.2819089132496337,-1.0168450514422815,0.09561943262815475
1708437522.9820976,-1.1061959266662598,-1.681296011010641,-2.526419464741842,2.281916542644165,-1.0169027487384241,0.09559398144483566
1708437522.9840925,-1.1061508655548096,-1.6813379726805628,-2.5264151732074183,2.2818969923206787,-1.0168774763690394,0.09560302644968033
1708437522.9861252,-1.1061797142028809,-1.6813003025450648,-2.5263589064227503,2.28186742841687,-1.0168817679034632,0.0955788791179657
1708437522.9881506,-1.1062091588974,-1.6813246212401332,-2.526423756276266,2.281900091762207,-1.0169103781329554,0.0955955982208252
1708437522.990118,-1.1061886548995972,-1.6813537083067835,-2.526440445576803,2.2818969923206787,-1.0168536345111292,0.09550851583480835
1708437522.9921148,-1.106203556060791,-1.6813579998412074,-2.5263870398150843,2.2818850713917236,-1.0168493429767054,0.09556248784065247
1708437522.9940953,-1.1061723232269287,-1.6813909016051234,-2.5264392534839075,2.2819418150135498,-1.0168288389789026,0.09556248784065247
1708437522.9960907,-1.106216549873352,-1.6813537083067835,-2.526419464741842,2.281879349345825,-1.0168941656695765,0.0955129861831665
1708437522.9981062,-1.1061959266662598,-1.6813255749144496,-2.526403252278463,2.281916542644165,-1.016886059437887,0.09550595283508301
1708437523.00011,-1.1061465740203857,-1.6813703976073207,-2.5263782183276575,2.2819253641315917,-1.0168946425067347,0.09548956155776978
1708437523.002142,-1.1062122583389282,-1.6813379726805628,-2.526444737111227,2.281855507487915,-1.0168536345111292,0.0955820381641388
1708437523.0041094,-1.1061960458755493,-1.6813422642149867,-2.5264151732074183,2.2818466860004882,-1.0168774763690394,0.09549519419670105
1708437523.0060892,-1.1061960458755493,-1.6813293896117152,-2.526403252278463,2.28186742841687,-1.016947094594137,0.09552383422851562
1708437523.0081005,-1.1061667203903198,-1.6813341579832972,-2.526403252278463,2.2818898397633056,-1.016881291066305,0.09549403190612793
1708437523.0101433,-1.1061797142028809,-1.6813379726805628,-2.5264108816729944,2.281920834178589,-1.0168941656695765,0.09552383422851562
1708437523.0121078,-1.1062003374099731,-1.6813212833800257,-2.526403252278463,2.28186742841687,-1.0168569723712366,0.0955328643321991
1708437523.0140977,-1.1061948537826538,-1.6813212833800257,-2.526428286229269,2.2819089132496337,-1.0168364683734339,0.09559842944145203
1708437523.0161135,-1.106191635131836,-1.681371351281637,-2.5263989607440394,2.281895561809204,-1.0168774763690394,0.09549519419670105
1708437523.0180898,-1.1061546802520752,-1.6813579998412074,-2.526407543812887,2.2819341856190185,-1.0168245474444788,0.09550744295120239
1708437523.0200956,-1.1061633825302124,-1.681296011010641,-2.526423756276266,2.2819253641315917,-1.0168493429767054,0.09554892778396606
1708437523.022103,-1.1061797142028809,-1.6812931499876917,-2.5264392534839075,2.2819341856190185,-1.016869846974508,0.09549975395202637
1708437523.0241106,-1.1061841249465942,-1.6813537083067835,-2.5264108816729944,2.28190462171521,-1.0168941656695765,0.09548337757587433
1708437523.026087,-1.1062284708023071,-1.6813093624510707,-2.5263989607440394,2.281900091762207,-1.0168612639056605,0.0955820381641388
1708437523.0280972,-1.1062122583389282,-1.6813627682127894,-2.526423756276266,2.28190462171521,-1.0169222990619105,0.09552831202745438
1708437523.0300949,-1.1061797142028809,-1.6813513241209925,-2.5263662973987024,2.281892700786255,-1.0168941656695765,0.09547880291938782
1708437523.0321088,-1.106191635131836,-1.6813341579832972,-2.5264065901385706,2.2818643289753417,-1.0168731848346155,0.09554892778396606
1708437523.034095,-1.1061753034591675,-1.6813298664488734,-2.526395622883932,2.28186742841687,-1.0168612639056605,0.09545505046844482
1708437523.0361085,-1.1062166690826416,-1.6813751659789027,-2.5264654795276087,2.281888170833252,-1.0168898741351526,0.09547880291938782
1708437523.0381017,-1.1062328815460205,-1.6813422642149867,-2.5263870398150843,2.281871719951294,-1.0168898741351526,0.0954863429069519
1708437523.0401106,-1.106191635131836,-1.6813422642149867,-2.526403252278463,2.2819341856190185,-1.016881291066305,0.09548629820346832
1708437523.0421064,-1.1061797142028809,-1.6813494167723597,-2.526403252278463,2.2819418150135498,-1.0168731848346155,0.09546995162963867
1708437523.0441337,-1.1062122583389282,-1.6813751659789027,-2.5264316240893763,2.281888170833252,-1.0169385115252894,0.09552541375160217
1708437523.0460973,-1.1061753034591675,-1.6813003025450648,-2.526391331349508,2.281871719951294,-1.0169103781329554,0.09551647305488586
1708437523.0481334,-1.1062003374099731,-1.6813045940794886,-2.5263870398150843,2.2819253641315917,-1.0168898741351526,0.09548038244247437
1708437523.0500977,-1.1062003374099731,-1.6812974415221156,-2.5264163653003138,2.281876249904297,-1.0168688933001917,0.09545505046844482
1708437523.0521047,-1.1061666011810303,-1.6813179455199183,-2.5263870398150843,2.281801386470459,-1.0169017950641077,0.09549975395202637
1708437523.054093,-1.1062241792678833,-1.6813093624510707,-2.5264359156238,2.281892700786255,-1.0168688933001917,0.09552094340324402
1708437523.0560873,-1.106216549873352,-1.6813579998412074,-2.5263662973987024,2.281879349345825,-1.0169180075274866,0.09551647305488586
1708437523.058077,-1.106216549873352,-1.6813136539854945,-2.5263662973987024,2.281879349345825,-1.0169299284564417,0.09549975395202637
1708437523.0601301,-1.1062079668045044,-1.6813003025450648,-2.5263946692096155,2.281888170833252,-1.016909424458639,0.09550869464874268
1708437523.0621023,-1.1061677932739258,-1.6813627682127894,-2.526419464741842,2.281888170833252,-1.0169103781329554,0.09550422430038452
1708437523.0641313,-1.1061590909957886,-1.6812917194762171,-2.5264316240893763,2.281883640880249,-1.0169299284564417,0.09552541375160217
1708437523.0661433,-1.1061829328536987,-1.6813165150084437,-2.5264151732074183,2.2819179731556396,-1.01689321199526,0.0955418050289154
1708437523.0681365,-1.106204867362976,-1.6813579998412074,-2.526419464741842,2.2819089132496337,-1.0169666449176233,0.09551647305488586
1708437523.0701215,-1.106163501739502,-1.6813255749144496,-2.5264151732074183,2.281839056605957,-1.0169461409198206,0.09548336267471313
1708437523.072134,-1.1061797142028809,-1.6812974415221156,-2.5263946692096155,2.2818643289753417,-1.016921345387594,0.09545504301786423
1708437523.0741255,-1.1061797142028809,-1.6812931499876917,-2.526452128087179,2.281876249904297,-1.0169137159930628,0.0954967737197876
1708437523.0761864,-1.1061666011810303,-1.681288858453268,-2.526419464741842,2.281888170833252,-1.016937557850973,0.09547880291938782
1708437523.0781264,-1.1061885356903076,-1.681284090081686,-2.5263662973987024,2.2818688589283447,-1.0169461409198206,0.09545505046844482
1708437523.0800967,-1.1061590909957886,-1.6813379726805628,-2.5264151732074183,2.281883640880249,-1.0168889204608362,0.09548336267471313
1708437523.08209,-1.106163501739502,-1.6813093624510707,-2.526428286229269,2.28190462171521,-1.016909424458639,0.09549973905086517
1708437523.084108,-1.106187343597412,-1.6813379726805628,-2.5263782183276575,2.2818643289753417,-1.0169256369220179,0.09545058012008667
1708437523.0861075,-1.1061710119247437,-1.6813465557494105,-2.5264151732074183,2.2819105821796875,-1.016937557850973,0.09551316499710083
1708437523.0881033,-1.1061710119247437,-1.6813045940794886,-2.5264151732074183,2.2818807798572998,-1.0169537703143519,0.09551772475242615
1708437523.090128,-1.1061840057373047,-1.6813255749144496,-2.5263589064227503,2.281888170833252,-1.0169699827777308,0.09553733468055725
1708437523.0921066,-1.1061797142028809,-1.6812683544554652,-2.5264151732074183,2.281855507487915,-1.0169537703143519,0.09548336267471313
1708437523.0941074,-1.1061723232269287,-1.6813379726805628,-2.5263662973987024,2.2818478780933837,-1.0169909636126917,0.0954788327217102
1708437523.0961268,-1.1062078475952148,-1.6813379726805628,-2.526452128087179,2.2819089132496337,-1.016937557850973,0.09550418704748154
1708437523.0981073,-1.1061959266662598,-1.6813050709166468,-2.5264316240893763,2.281859799022339,-1.0169170538531702,0.09550869464874268
1708437523.1001437,-1.106204867362976,-1.6812974415221156,-2.526419464741842,2.2818898397633056,-1.016949478779928,0.09548323601484299
1708437523.1021152,-1.1061421632766724,-1.6813246212401332,-2.526403252278463,2.2818941312977294,-1.016965691243307,0.09549975395202637
1708437523.1041355,-1.1062091588974,-1.6813255749144496,-2.5263989607440394,2.2818524080463867,-1.0169981161700647,0.0954551100730896
1708437523.1061347,-1.1061140298843384,-1.6813136539854945,-2.526440445576803,2.2818850713917236,-1.0169780890094202,0.09550422430038452
1708437523.1081266,-1.1061723232269287,-1.6813341579832972,-2.5263782183276575,2.2819105821796875,-1.016982380543844,0.09542930126190186
1708437523.1101785,-1.1061346530914307,-1.681251665154928,-2.5263946692096155,2.2818116384693603,-1.0169571081744593,0.0954669713973999
1708437523.112087,-1.106069564819336,-1.6813627682127894,-2.526407543812887,2.2818445402332763,-1.0169451872455042,0.09552094340324402
1708437523.1140869,-1.1061797142028809,-1.6813179455199183,-2.52636963525881,2.2818733888813476,-1.0169366041766565,0.0955253541469574
1708437523.1161304,-1.1061885356903076,-1.6813255749144496,-2.5263662973987024,2.281876249904297,-1.0169981161700647,0.09549973905086517
1708437523.1180794,-1.1061139106750488,-1.6813298664488734,-2.526419464741842,2.2818807798572998,-1.0169737974749964,0.09555336833000183
1708437523.120089,-1.1061885356903076,-1.6813794575133265,-2.5263827482806605,2.2818614679523925,-1.0169451872455042,0.09544149041175842
1708437523.1220887,-1.1061465740203857,-1.6813465557494105,-2.526403252278463,2.2818478780933837,-1.0169366041766565,0.09549230337142944
1708437523.1241543,-1.1061885356903076,-1.6813298664488734,-2.5263870398150843,2.2818659979053955,-1.016949478779928,0.09548336267471313
1708437523.1260889,-1.1061346530914307,-1.6813627682127894,-2.5263827482806605,2.2817908960529785,-1.0169699827777308,0.09548335522413254
1708437523.1280944,-1.1061547994613647,-1.681333681146139,-2.5263870398150843,2.2818400102802734,-1.0169866720782679,0.09548336267471313
1708437523.1300988,-1.1061723232269287,-1.6813298664488734,-2.5263827482806605,2.2818643289753417,-1.016961399708883,0.09550420939922333
1708437523.1320949,-1.1061521768569946,-1.6813703976073207,-2.526407543812887,2.2818354803272705,-1.0169780890094202,0.09549517929553986
1708437523.1341057,-1.1061677932739258,-1.6813670597472132,-2.526419464741842,2.28184358655896,-1.0169571081744593,0.09548494219779968
1708437523.136097,-1.1061590909957886,-1.6813179455199183,-2.5264316240893763,2.2818478780933837,-1.0169780890094202,0.09544607251882553
1708437523.1381376,-1.1061434745788574,-1.6813422642149867,-2.5264774004565638,2.2818354803272705,-1.0169809500323694,0.0954967513680458
1708437523.1401358,-1.1061885356903076,-1.6813255749144496,-2.5263989607440394,2.2818614679523925,-1.0169695059405726,0.09548334777355194
1708437523.1421165,-1.1061677932739258,-1.681316991845602,-2.5263705889331263,2.2818144994923095,-1.0169485251056116,0.09546695649623871
1708437523.1441193,-1.1061522960662842,-1.6813579998412074,-2.5264316240893763,2.28184358655896,-1.016989533101217,0.09550422430038452
1708437523.1461067,-1.1061797142028809,-1.6813136539854945,-2.526403252278463,2.2819151121326904,-1.0169809500323694,0.09549974650144577
1708437523.1481404,-1.1061345338821411,-1.6813255749144496,-2.5263870398150843,2.2818488317677,-1.016961399708883,0.09551767259836197
1708437523.1501253,-1.106168508529663,-1.6813951931395472,-2.5264392534839075,2.2818688589283447,-1.016993824635641,0.09551647305488586
1708437523.1521044,-1.1061885356903076,-1.6813212833800257,-2.526423756276266,2.2818309503742675,-1.0169366041766565,0.09554627537727356
1708437523.1540878,-1.1061391830444336,-1.6813093624510707,-2.5264151732074183,2.2818478780933837,-1.0169528166400355,0.09550420939922333
1708437523.1560893,-1.1061434745788574,-1.681361814538473,-2.5264151732074183,2.2818569379993896,-1.0170062224017542,0.0954669862985611
1708437523.158108,-1.1061553955078125,-1.681375642816061,-2.526428286229269,2.2818116384693603,-1.0169780890094202,0.09545058012008667
1708437523.1601496,-1.106204867362976,-1.6813627682127894,-2.526391331349508,2.2818478780933837,-1.0169652144061487,0.09542475640773773
1708437523.1621006,-1.1061723232269287,-1.6813003025450648,-2.526428286229269,2.2818400102802734,-1.016960922871725,0.09550868719816208
1708437523.1641135,-1.1061508655548096,-1.6812931499876917,-2.5263782183276575,2.2818147379108886,-1.0169737974749964,0.09550420939922333
1708437523.1661541,-1.1061766147613525,-1.6813136539854945,-2.5264020601855677,2.2818326193043212,-1.0169695059405726,0.09551647305488586
1708437523.168132,-1.1061677932739258,-1.681375642816061,-2.526419464741842,2.2818190294453125,-1.0170062224017542,0.09549074620008469
1708437523.1701026,-1.1061553955078125,-1.6813050709166468,-2.5264273325549524,2.2817997175404052,-1.0169246832477015,0.09549230337142944
1708437523.1721044,-1.1061598062515259,-1.6813222370543421,-2.5264359156238,2.2817863660999755,-1.016993824635641,0.09550867974758148
1708437523.1741033,-1.106176733970642,-1.6813465557494105,-2.526407543812887,2.2817789751240234,-1.0170181433307093,0.09552094340324402
1708437523.1761227,-1.1061598062515259,-1.6813579998412074,-2.5264273325549524,2.2818116384693603,-1.016949478779928,0.09544602036476135
1708437523.1780968,-1.1061841249465942,-1.6813136539854945,-2.5264316240893763,2.2818116384693603,-1.0169528166400355,0.09545505046844482
1708437523.1801045,-1.1061596870422363,-1.6813298664488734,-2.5263870398150843,2.281836910838745,-1.016989533101217,0.09554628282785416
1708437523.1821012,-1.1061421632766724,-1.6813494167723597,-2.526423756276266,2.28182498990979,-1.0169695059405726,0.09548631310462952
1708437523.1841264,-1.1061315536499023,-1.6813050709166468,-2.526403252278463,2.2818190294453125,-1.016993824635641,0.09545063972473145
1708437523.186116,-1.1061598062515259,-1.6813255749144496,-2.526456658040182,2.2817534643360595,-1.0170181433307093,0.09547428786754608
1708437523.1881223,-1.1061590909957886,-1.6813122234740199,-2.526403252278463,2.281841440791748,-1.0169809500323694,0.09550422430038452
1708437523.1901286,-1.1061553955078125,-1.681279798547262,-2.5263989607440394,2.281813068980835,-1.0169366041766565,0.09547591954469681
1708437523.1921268,-1.1062016487121582,-1.681316991845602,-2.5264392534839075,2.2817789751240234,-1.0169976393329065,0.09552540630102158
1708437523.1940928,-1.1061508655548096,-1.6813579998412074,-2.5264151732074183,2.28178779661145,-1.0169976393329065,0.09553733468055725
1708437523.1961005,-1.1061152219772339,-1.6813470325865687,-2.5263870398150843,2.28176395475354,-1.0170019308673304,0.0954863429069519
1708437523.198102,-1.1061315536499023,-1.6813255749144496,-2.5263782183276575,2.2818056780048828,-1.016993824635641,0.09552541375160217
1708437523.2001133,-1.1061183214187622,-1.6813093624510707,-2.5264065901385706,2.281747742290161,-1.016989533101217,0.09543833136558533
1708437523.202099,-1.1061972379684448,-1.6813298664488734,-2.5264316240893763,2.2817186552235107,-1.0170214811908167,0.09550422430038452
1708437523.2041178,-1.1061183214187622,-1.6813627682127894,-2.526403252278463,2.2817203241535644,-1.0169652144061487,0.09552541375160217
1708437523.206091,-1.1061677932739258,-1.6813579998412074,-2.526403252278463,2.2816831308552246,-1.016993824635641,0.09550422430038452
1708437523.208097,-1.1061521768569946,-1.6813136539854945,-2.5264065901385706,2.2817084032246093,-1.0170138517962855,0.0955328643321991
1708437523.2101743,-1.106181025505066,-1.681307931939596,-2.5264108816729944,2.2816757398792724,-1.0169852415667933,0.09554627537727356
1708437523.212105,-1.1061434745788574,-1.6813212833800257,-2.5264392534839075,2.2817203241535644,-1.016960922871725,0.09545058012008667
1708437523.2141042,-1.1061434745788574,-1.6813341579832972,-2.526447836552755,2.281726284618042,-1.016960922871725,0.09545054286718369
1708437523.2161453,-1.1061508655548096,-1.6813212833800257,-2.5264151732074183,2.2816876608082275,-1.0169695059405726,0.09555785357952118
1708437523.218093,-1.1061677932739258,-1.681345125237936,-2.526447836552755,2.2816964822956542,-1.0169695059405726,0.09548336267471313
1708437523.2200856,-1.1061640977859497,-1.6813045940794886,-2.5264316240893763,2.281759186381958,-1.0169737974749964,0.09551647305488586
1708437523.2220883,-1.1061553955078125,-1.6813837490477503,-2.5264359156238,2.2817115026661376,-1.0170181433307093,0.09552541375160217
1708437523.2241123,-1.106181025505066,-1.6813379726805628,-2.5263739267932337,2.2817203241535644,-1.0170343557940882,0.09551647305488586
1708437523.2260885,-1.1061183214187622,-1.6813341579832972,-2.5264151732074183,2.281702442760132,-1.0170257727252405,0.09547141194343567
1708437523.228122,-1.106139063835144,-1.681345125237936,-2.5264230410205286,2.2817129331776123,-1.0169804731952112,0.0955221951007843
1708437523.2300923,-1.1061391830444336,-1.6813627682127894,-2.5263827482806605,2.2816919523426513,-1.0169933477984827,0.09550422430038452
1708437523.2321424,-1.1061640977859497,-1.6813093624510707,-2.5264359156238,2.2816964822956542,-1.0169695059405726,0.09547880291938782
1708437523.2340949,-1.1061315536499023,-1.6813379726805628,-2.526468817387716,2.281701012248657,-1.0169809500323694,0.09552981704473495
1708437523.236109,-1.10611093044281,-1.6812931499876917,-2.5263946692096155,2.281729145640991,-1.0169766584979456,0.09548336267471313
1708437523.2381055,-1.1061640977859497,-1.681284090081686,-2.526440445576803,2.2816964822956542,-1.0169695059405726,0.09551316499710083
1708437523.240119,-1.1061464548110962,-1.681279798547262,-2.5264230410205286,2.2817203241535644,-1.0169766584979456,0.09545505046844482
1708437523.2421286,-1.1061640977859497,-1.6813255749144496,-2.5264151732074183,2.281766338939331,-1.0169976393329065,0.09552094340324402
1708437523.2441242,-1.1061139106750488,-1.6813212833800257,-2.5263901392566126,2.2817084032246093,-1.016956631337301,0.09549230337142944
1708437523.2461147,-1.1061391830444336,-1.6813465557494105,-2.526423756276266,2.281721754665039,-1.0170019308673304,0.09550133347511292
1708437523.2481198,-1.1061272621154785,-1.6813093624510707,-2.526423756276266,2.2817410665699462,-1.016984764729635,0.09547145664691925
1708437523.250123,-1.1061640977859497,-1.6813422642149867,-2.5263782183276575,2.2817486959644775,-1.0170181433307093,0.09549975395202637
1708437523.2520955,-1.1061608791351318,-1.681284090081686,-2.5264435450183313,2.281745596522949,-1.0170062224017542,0.0954669713973999
1708437523.2541006,-1.1061477661132812,-1.681316991845602,-2.5264435450183313,2.2816919523426513,-1.0170052687274378,0.09547144174575806
1708437523.2561042,-1.1061434745788574,-1.6812931499876917,-2.5264316240893763,2.2816757398792724,-1.016984764729635,0.09551187604665756
1708437523.2581017,-1.1061196327209473,-1.6813341579832972,-2.5264065901385706,2.2816669183918457,-1.0169809500323694,0.09549975395202637
1708437523.260139,-1.106099009513855,-1.6813422642149867,-2.5264316240893763,2.2816576200672607,-1.0169976393329065,0.09549976885318756
1708437523.2621129,-1.1061553955078125,-1.6813136539854945,-2.5263901392566126,2.2816800314136962,-1.0170300642596644,0.0954967737197876
1708437523.264114,-1.1061596870422363,-1.6813050709166468,-2.5264151732074183,2.2817038732716064,-1.0169852415667933,0.09544280171394348
1708437523.2661672,-1.1061766147613525,-1.6813670597472132,-2.5264065901385706,2.2816964822956542,-1.0169852415667933,0.09549972414970398
1708437523.2681823,-1.1062179803848267,-1.6813627682127894,-2.5263782183276575,2.2817038732716064,-1.0170052687274378,0.09547591209411621
1708437523.2701123,-1.1061553955078125,-1.6813212833800257,-2.5264316240893763,2.2816964822956542,-1.0169780890094202,0.09546247124671936
1708437523.2721367,-1.1061434745788574,-1.6813212833800257,-2.526447836552755,2.281717224712036,-1.017010513936178,0.0954878181219101
1708437523.2741766,-1.1061897277832031,-1.6813255749144496,-2.5263782183276575,2.2817084032246093,-1.0169737974749964,0.09547144174575806
1708437523.2761476,-1.1060739755630493,-1.6813017330565394,-2.526419464741842,2.2817203241535644,-1.0169976393329065,0.09549979120492935
1708437523.2781408,-1.1061434745788574,-1.681277414361471,-2.5264108816729944,2.2817115026661376,-1.0170343557940882,0.09546695649623871
1708437523.2801216,-1.1061066389083862,-1.681340833703512,-2.5263946692096155,2.2817410665699462,-1.0170019308673304,0.09545501321554184
1708437523.2821112,-1.1061228513717651,-1.6813293896117152,-2.526452128087179,2.2816964822956542,-1.0170300642596644,0.09551312029361725
1708437523.2841275,-1.1061477661132812,-1.6813212833800257,-2.5264599959002894,2.2816740709492187,-1.0169933477984827,0.09548337012529373
1708437523.286104,-1.106172800064087,-1.6813670597472132,-2.5263989607440394,2.2816876608082275,-1.016956631337301,0.09545055031776428
1708437523.2881396,-1.1061508655548096,-1.6813703976073207,-2.5264151732074183,2.2817203241535644,-1.0169890562640589,0.09548336267471313
1708437523.290121,-1.1061521768569946,-1.6813298664488734,-2.5264108816729944,2.2816995817371826,-1.0170019308673304,0.09546399861574173
1708437523.2921147,-1.1061228513717651,-1.6813794575133265,-2.5263946692096155,2.2817203241535644,-1.0169723669635218,0.09545501321554184
1708437523.2941306,-1.106176733970642,-1.6813003025450648,-2.526419464741842,2.281754418010376,-1.0169890562640589,0.0954967737197876
1708437523.296124,-1.1061478853225708,-1.681333681146139,-2.5264020601855677,2.2816964822956542,-1.016989533101217,0.09545054286718369
1708437523.2981281,-1.1061434745788574,-1.6813093624510707,-2.5263901392566126,2.2816919523426513,-1.0170062224017542,0.09547144174575806
1708437523.3001244,-1.1061228513717651,-1.681284090081686,-2.5264316240893763,2.2817248541065673,-1.0170095602618616,0.09548038244247437
1708437523.3021486,-1.1061346530914307,-1.6813136539854945,-2.526452128087179,2.2816995817371826,-1.0169809500323694,0.09543833136558533
1708437523.3041582,-1.106181025505066,-1.6813465557494105,-2.526423756276266,2.2816919523426513,-1.0169976393329065,0.09549973905086517
1708437523.306099,-1.1061596870422363,-1.6813255749144496,-2.526447836552755,2.2817322450825195,-1.0170019308673304,0.09548497200012207
1708437523.3081508,-1.106127142906189,-1.6813537083067835,-2.5264316240893763,2.2816876608082275,-1.016956631337301,0.09550129622220993
1708437523.3101346,-1.1061153411865234,-1.6813341579832972,-2.526423756276266,2.281646175975464,-1.0170181433307093,0.09545507282018661
1708437523.3121061,-1.106099009513855,-1.6813422642149867,-2.5264151732074183,2.2816995817371826,-1.0169976393329065,0.09549229592084885
1708437523.3141086,-1.1061315536499023,-1.681338449517721,-2.5264108816729944,2.2817203241535644,-1.0169766584979456,0.09550423920154572
1708437523.316094,-1.1061272621154785,-1.6813003025450648,-2.526447836552755,2.2817322450825195,-1.017026726399557,0.09546856582164764
1708437523.3180914,-1.1061598062515259,-1.6813494167723597,-2.5264273325549524,2.2816964822956542,-1.0169852415667933,0.09547147899866104
1708437523.3200886,-1.1061272621154785,-1.6813255749144496,-2.526403252278463,2.2817248541065673,-1.0170419851886194,0.09548038244247437
1708437523.322106,-1.1061633825302124,-1.6813794575133265,-2.526419464741842,2.2816995817371826,-1.0169809500323694,0.09553725272417068
1708437523.324111,-1.1061477661132812,-1.6813122234740199,-2.5264151732074183,2.2817038732716064,-1.0170019308673304,0.09545057266950607
1708437523.326093,-1.1061196327209473,-1.6813212833800257,-2.5264020601855677,2.2817157942005615,-1.016993824635641,0.09546694159507751
1708437523.3281329,-1.1061315536499023,-1.6813045940794886,-2.526419464741842,2.2816831308552246,-1.017010513936178,0.09545956552028656
1708437523.3300982,-1.106139063835144,-1.6813465557494105,-2.5263858477221888,2.2816964822956542,-1.0170019308673304,0.09550866484642029
1708437523.3321419,-1.1061183214187622,-1.6812817058958949,-2.5264065901385706,2.2817038732716064,-1.016993824635641,0.09546695649623871
1708437523.3340957,-1.1061723232269287,-1.681277414361471,-2.5264273325549524,2.2817157942005615,-1.016989533101217,0.09550416469573975
1708437523.336176,-1.1061391830444336,-1.6813341579832972,-2.5263827482806605,2.2817575174519042,-1.017022434865133,0.09548493474721909
1708437523.3381171,-1.1061345338821411,-1.6813136539854945,-2.5264316240893763,2.2817038732716064,-1.016982380543844,0.09549231827259064
1708437523.340152,-1.1061228513717651,-1.6813136539854945,-2.526403252278463,2.2816964822956542,-1.0170062224017542,0.0954338014125824
1708437523.3421142,-1.106139063835144,-1.681277414361471,-2.526407543812887,2.2816995817371826,-1.0169780890094202,0.09549971669912338
1708437523.3441398,-1.1061152219772339,-1.6813556156554164,-2.5264151732074183,2.2817322450825195,-1.016960922871725,0.09551641345024109
1708437523.346111,-1.1061640977859497,-1.6813003025450648,-2.5263705889331263,2.2817203241535644,-1.016993824635641,0.09546404331922531
1708437523.3481495,-1.1061553955078125,-1.6813465557494105,-2.5263782183276575,2.2816950517841796,-1.0169485251056116,0.09549975395202637
1708437523.3501332,-1.1061886548995972,-1.6813093624510707,-2.5263827482806605,2.2817322450825195,-1.016982380543844,0.09548494219779968
1708437523.3521485,-1.1061434745788574,-1.6813751659789027,-2.526452128087179,2.281717224712036,-1.0169737974749964,0.09549975395202637
1708437523.354099,-1.106168508529663,-1.681333681146139,-2.5264108816729944,2.2817486959644775,-1.0170019308673304,0.0955086499452591
1708437523.3560994,-1.1061228513717651,-1.6813255749144496,-2.5264359156238,2.2817701536365966,-1.016982380543844,0.09548336267471313
1708437523.3580909,-1.1061885356903076,-1.681284090081686,-2.526419464741842,2.2817248541065673,-1.017010513936178,0.09548787027597427
1708437523.3601449,-1.1061228513717651,-1.6813341579832972,-2.526419464741842,2.2816964822956542,-1.0169442335711878,0.09551312774419785
1708437523.3621132,-1.1061434745788574,-1.6813422642149867,-2.5263782183276575,2.2817157942005615,-1.0169528166400355,0.09545508772134781
1708437523.3641274,-1.1061434745788574,-1.6813212833800257,-2.5263946692096155,2.2817277151295166,-1.0169528166400355,0.09551321715116501
1708437523.3661556,-1.1061608791351318,-1.681316991845602,-2.5264151732074183,2.2817115026661376,-1.016993824635641,0.09546695649623871
1708437523.368143,-1.1061140298843384,-1.6812859974303187,-2.5264392534839075,2.2817203241535644,-1.0169289747821253,0.09549975395202637
1708437523.3701031,-1.1061315536499023,-1.6813255749144496,-2.526407543812887,2.2817115026661376,-1.0169127623187464,0.09548036754131317
1708437523.3721025,-1.106127142906189,-1.6813880405821742,-2.526423756276266,2.2817575174519042,-1.0169451872455042,0.09545949101448059
1708437523.3740997,-1.1061346530914307,-1.6813136539854945,-2.5264316240893763,2.281669779414795,-1.016982380543844,0.09549519419670105
1708437523.3761203,-1.1061315536499023,-1.681272645989889,-2.5263782183276575,2.2816504675098876,-1.0169451872455042,0.09545506536960602
1708437523.3780904,-1.1061596870422363,-1.6813422642149867,-2.5264557043658655,2.2816950517841796,-1.0169418493853968,0.09548783302307129
1708437523.3801017,-1.1061683893203735,-1.6813003025450648,-2.5264316240893763,2.281733675593994,-1.0169537703143519,0.09550132602453232
1708437523.38209,-1.1061596870422363,-1.6813379726805628,-2.5263739267932337,2.2817484575458984,-1.0169451872455042,0.09549975395202637
1708437523.3840973,-1.1061345338821411,-1.6813579998412074,-2.5264316240893763,2.2817115026661376,-1.0169780890094202,0.09547428041696548
1708437523.3861346,-1.1061640977859497,-1.6813003025450648,-2.526452366505758,2.2817367750355224,-1.0169785658465784,0.0954669862985611
1708437523.38815,-1.1061228513717651,-1.6813951931395472,-2.5264151732074183,2.2817203241535644,-1.016949478779928,0.09549681097269058
1708437523.390114,-1.1061196327209473,-1.6813537083067835,-2.5264151732074183,2.281712694759033,-1.016961399708883,0.0954623818397522
1708437523.3921301,-1.1061196327209473,-1.6813703976073207,-2.5264108816729944,2.2817248541065673,-1.016937557850973,0.09546852856874466
1708437523.394103,-1.1061477661132812,-1.6813465557494105,-2.526391331349508,2.2817486959644775,-1.016921345387594,0.0954640656709671
1708437523.3961022,-1.1061359643936157,-1.6813212833800257,-2.5264316240893763,2.2817277151295166,-1.0169256369220179,0.09549975395202637
1708437523.3981113,-1.1061972379684448,-1.6813751659789027,-2.5264273325549524,2.281721754665039,-1.0169418493853968,0.09548038244247437
1708437523.4001358,-1.1061723232269287,-1.6813212833800257,-2.5264316240893763,2.2817129331776123,-1.0169256369220179,0.09554628282785416
1708437523.4021146,-1.1061853170394897,-1.6813579998412074,-2.5264108816729944,2.2817279535480957,-1.016937557850973,0.09549678862094879
1708437523.4041054,-1.10611093044281,-1.6813093624510707,-2.5264108816729944,2.2816831308552246,-1.0169222990619105,0.09550420939922333
1708437523.4061213,-1.1061508655548096,-1.68133606533193,-2.5264151732074183,2.2817486959644775,-1.0168769995318812,0.09550423175096512
1708437523.408106,-1.1061153411865234,-1.6813050709166468,-2.5264316240893763,2.2817656236835937,-1.0169256369220179,0.09543833136558533
1708437523.4101086,-1.1060947179794312,-1.6813494167723597,-2.526452128087179,2.2817067342945556,-1.0168941656695765,0.09549519419670105
1708437523.4121299,-1.1061196327209473,-1.6813136539854945,-2.5264316240893763,2.281729145640991,-1.0169060865985315,0.09549975395202637
1708437523.4141157,-1.1061766147613525,-1.6813255749144496,-2.5263620058642786,2.2816623884388427,-1.016860310231344,0.09552989900112152
1708437523.4161012,-1.1061477661132812,-1.6813627682127894,-2.5263827482806605,2.2816504675098876,-1.0168941656695765,0.09551945328712463
1708437523.4180954,-1.1061228513717651,-1.6813579998412074,-2.5264151732074183,2.2816831308552246,-1.0168855826007288,0.09551191329956055
1708437523.420101,-1.1061315536499023,-1.6813579998412074,-2.526419464741842,2.2817699152180175,-1.0169265905963343,0.0954907163977623
1708437523.4220967,-1.1061402559280396,-1.681307931939596,-2.5263870398150843,2.2817084032246093,-1.0168774763690394,0.09548783302307129
1708437523.4241095,-1.106082797050476,-1.6812931499876917,-2.5264654795276087,2.2817231851765136,-1.0168569723712366,0.0954907238483429
1708437523.4260988,-1.1061272621154785,-1.6813003025450648,-2.5263662973987024,2.281745596522949,-1.0168493429767054,0.09548336267471313
1708437523.4280806,-1.10611093044281,-1.6813670597472132,-2.5264108816729944,2.2817203241535644,-1.0168774763690394,0.09550744295120239
1708437523.4301074,-1.1061402559280396,-1.6813627682127894,-2.5264151732074183,2.2816788393208007,-1.0168245474444788,0.09553733468055725
1708437523.4321232,-1.1061283349990845,-1.6813298664488734,-2.52641207376589,2.2817069727131347,-1.0168407599078577,0.09552383422851562
1708437523.43408,-1.1061066389083862,-1.6813122234740199,-2.5263989607440394,2.281729145640991,-1.0168135801898401,0.09552830457687378
1708437523.4361436,-1.1061315536499023,-1.6813136539854945,-2.526391331349508,2.281750126475952,-1.0168450514422815,0.09553989768028259
1708437523.4380994,-1.1061196327209473,-1.6813579998412074,-2.5263662973987024,2.2817575174519042,-1.016886059437887,0.09550744295120239
1708437523.4401245,-1.1061402559280396,-1.6813298664488734,-2.5264151732074183,2.2816459375568847,-1.0168417135821741,0.09554896503686905
1708437523.4421117,-1.1061153411865234,-1.6813627682127894,-2.5263169447528284,2.2816905218311767,-1.0168340841876429,0.09550744295120239
1708437523.444125,-1.106172800064087,-1.6813661060728968,-2.526391331349508,2.2817396360584716,-1.0168750921832483,0.0955355167388916
1708437523.4461167,-1.106099009513855,-1.681288858453268,-2.526440445576803,2.281770868892334,-1.0168092886554163,0.09558501839637756
1708437523.448132,-1.1061183214187622,-1.6813537083067835,-2.526363197957174,2.281721754665039,-1.0168221632586878,0.09553991258144379
1708437523.4501083,-1.1061315536499023,-1.6813379726805628,-2.526358668004171,2.2816876608082275,-1.016801659260885,0.09552648663520813
1708437523.452155,-1.1061315536499023,-1.6813818416991175,-2.526375118886129,2.281754418010376,-1.0167978445636194,0.09546837210655212
1708437523.4541116,-1.1061315536499023,-1.6812917194762171,-2.526367489491598,2.2817084032246093,-1.0167534987079065,0.09557598829269409
1708437523.4561012,-1.1061196327209473,-1.6813494167723597,-2.52635103860964,2.2816950517841796,-1.0167577902423304,0.09553554654121399
1708437523.458091,-1.1061240434646606,-1.6813537083067835,-2.526318136845724,2.2817157942005615,-1.0167415777789515,0.09556247293949127
1708437523.4601495,-1.1060870885849,-1.6813422642149867,-2.5263150374041956,2.281717224712036,-1.0167134443866175,0.0956091359257698
1708437523.4620965,-1.1061153411865234,-1.6813661060728968,-2.526306215916769,2.2817529874989013,-1.0167024771319788,0.09563745558261871
1708437523.46411,-1.1060914993286133,-1.6813794575133265,-2.5263236204730433,2.2816712099262695,-1.0166896025287073,0.0956149771809578
1708437523.4661188,-1.1061272621154785,-1.681345125237936,-2.526283327733175,2.281721754665039,-1.0167143980609339,0.0956239104270935
1708437523.4681942,-1.1061445474624634,-1.6813837490477503,-2.5262582937823694,2.2816623884388427,-1.016698185597555,0.09564032405614853
1708437523.4701316,-1.106082797050476,-1.6813379726805628,-2.52627140680422,2.2817203241535644,-1.0166614691363733,0.09570480138063431
1708437523.4721658,-1.1061521768569946,-1.6813861332335414,-2.52627140680422,2.2817248541065673,-1.0166743437396448,0.09571659564971924
1708437523.4741557,-1.1060870885849,-1.6812917194762171,-2.52627140680422,2.2817038732716064,-1.0166857878314417,0.09571217000484467
1708437523.4761667,-1.1060751676559448,-1.6813537083067835,-2.526193920766012,2.281754418010376,-1.0166900793658655,0.09568671882152557
1708437523.4781475,-1.1061164140701294,-1.681361814538473,-2.5262354055987757,2.2817787367054443,-1.0166328589068812,0.09571217745542526
1708437523.4801328,-1.1061034202575684,-1.6813627682127894,-2.5262680689441126,2.2816378313251953,-1.0166986624347132,0.09564909338951111
1708437523.4821134,-1.1060794591903687,-1.6813537083067835,-2.5262396971331995,2.2816712099262695,-1.0166500250445765,0.0957031175494194
1708437523.4841456,-1.1061044931411743,-1.6813703976073207,-2.5262723604785364,2.281646175975464,-1.0166500250445765,0.0957314670085907
1708437523.4861326,-1.1061164140701294,-1.681345125237936,-2.5262396971331995,2.2816876608082275,-1.0166056791888636,0.09575716406106949
1708437523.4881763,-1.1061164140701294,-1.681345125237936,-2.5262156168567103,2.281766338939331,-1.0166304747210901,0.09575551748275757
1708437523.4901435,-1.1061196327209473,-1.6813537083067835,-2.5262277762042444,2.2816800314136962,-1.0166099707232874,0.09576746076345444
1708437523.4921432,-1.1061034202575684,-1.6813751659789027,-2.5262027422534388,2.2816638189503173,-1.016590420399801,0.09581218659877777
1708437523.4941454,-1.106112003326416,-1.681340833703512,-2.5261903444873255,2.2817575174519042,-1.016590420399801,0.09579576551914215
1708437523.4961193,-1.1061240434646606,-1.6813093624510707,-2.5261829535113733,2.2816757398792724,-1.0165818373309534,0.09578680992126465
1708437523.4981246,-1.1061315536499023,-1.6814118824400843,-2.5261948744403284,2.2817129331776123,-1.0165498892413538,0.09581957757472992
1708437523.5001314,-1.1060913801193237,-1.6813203297057093,-2.5262027422534388,2.2816964822956542,-1.0166118780719202,0.0958060696721077
1708437523.502116,-1.1060926914215088,-1.6813703976073207,-2.526187245045797,2.2816876608082275,-1.0165584723102015,0.09581828117370605
1708437523.5041795,-1.1061077117919922,-1.6813122234740199,-2.526228729878561,2.281701012248657,-1.0165217558490198,0.09588423371315002
1708437523.5061166,-1.1060882806777954,-1.6813909016051234,-2.5261786619769495,2.2816504675098876,-1.0164902845965784,0.0958540141582489
1708437523.5081074,-1.1061121225357056,-1.6813165150084437,-2.5262156168567103,2.281717224712036,-1.0164826552020472,0.09591543674468994
1708437523.5101118,-1.1060675382614136,-1.6814032993712367,-2.5261829535113733,2.2816638189503173,-1.0164902845965784,0.09589458256959915
1708437523.5121062,-1.1061077117919922,-1.6813661060728968,-2.526187245045797,2.2817203241535644,-1.0164454619037073,0.09592735022306442
1708437523.5141013,-1.1060675382614136,-1.6813579998412074,-2.526212278996603,2.281745596522949,-1.0164826552020472,0.09598145633935928
1708437523.5160892,-1.1061164140701294,-1.681361814538473,-2.526195828114645,2.281684561366699,-1.0164745489703577,0.0959094762802124
1708437523.5180864,-1.1060795783996582,-1.6813818416991175,-2.526175324116842,2.281604452724121,-1.0164302031146448,0.09601584821939468
1708437523.520105,-1.1060881614685059,-1.6813494167723597,-2.526191536580221,2.281705303783081,-1.0164216200457972,0.09599627554416656
1708437523.5220878,-1.1061252355575562,-1.6813246212401332,-2.5262003580676478,2.281731052989624,-1.016413990651266,0.09598273038864136
1708437523.524105,-1.1061283349990845,-1.681361814538473,-2.526118342076437,2.2816638189503173,-1.0164387861834925,0.0959528386592865
1708437523.5260851,-1.1061044931411743,-1.6813537083067835,-2.526167694722311,2.281684561366699,-1.0164020697223108,0.09601426869630814
1708437523.5281444,-1.106071949005127,-1.6813136539854945,-2.526191536580221,2.2816638189503173,-1.0163944403277796,0.09605896472930908
1708437523.5301344,-1.1060420274734497,-1.681307931939596,-2.526167694722311,2.281693621272705,-1.0163949171649378,0.09603330492973328
1708437523.5321162,-1.1061177253723145,-1.6813818416991175,-2.526135269795553,2.28159682332959,-1.0163376967059534,0.09609169512987137
1708437523.534098,-1.1060588359832764,-1.6813909016051234,-2.5261228720294397,2.2816268640705566,-1.0163334051715296,0.09604553133249283
1708437523.5361052,-1.106046438217163,-1.681361814538473,-2.526163403187887,2.2816194730946044,-1.016346279774801,0.09606194496154785
1708437523.5381277,-1.106083869934082,-1.6813537083067835,-2.526151482258932,2.2816120821186523,-1.0163300673114222,0.0961262583732605
1708437523.540118,-1.106083869934082,-1.6813990078368128,-2.5261314550982874,2.281604452724121,-1.016322437916891,0.09609472751617432
1708437523.5421157,-1.1060751676559448,-1.6813732586302699,-2.5261603037463587,2.281592770213745,-1.0163548628436487,0.09613975882530212
1708437523.5441358,-1.1060764789581299,-1.681316991845602,-2.5261109511004847,2.2815446096607666,-1.016322437916891,0.09610828757286072
1708437523.546123,-1.1060751676559448,-1.6814161739745082,-2.5261109511004847,2.2815684515186767,-1.0163310209857386,0.0961802750825882
1708437523.5481224,-1.1060971021652222,-1.681333681146139,-2.52617317834963,2.2815727430531005,-1.0162656942950647,0.09613701701164246
1708437523.550123,-1.1060794591903687,-1.681361814538473,-2.5261109511004847,2.281542940730713,-1.0163515249835413,0.09620414674282074
1708437523.5521386,-1.106063961982727,-1.681410928765768,-2.5260990301715296,2.281498356456421,-1.0162785688983362,0.09614139795303345
1708437523.5540996,-1.1060882806777954,-1.681361814538473,-2.5260871092425745,2.2815860944935302,-1.0163233915912073,0.09616044163703918
1708437523.5560927,-1.1060314178466797,-1.6813484630980433,-2.5260914007769983,2.2815355497547607,-1.0162699858294886,0.09620994329452515
1708437523.5580962,-1.1060795783996582,-1.6813732586302699,-2.526078526173727,2.2814530569263916,-1.0162909666644495,0.09617269039154053
1708437523.5600913,-1.1060675382614136,-1.681368967095846,-2.5260749498950403,2.2815074163624267,-1.0162628332721155,0.09619355201721191
1708437523.5620954,-1.1060550212860107,-1.6814137897887171,-2.5260334650622767,2.2815324503132324,-1.016303841267721,0.09624305367469788
1708437523.564118,-1.1060506105422974,-1.6814433536925257,-2.5260334650622767,2.2815369802662353,-1.0162699858294886,0.09622186422348022
1708437523.566135,-1.1060476303100586,-1.6813975773253382,-2.526120726262228,2.2814997869678955,-1.01628286043276,0.09619197249412537
1708437523.5681798,-1.1060808897018433,-1.681418081323141,-2.526116434727804,2.2814878660389404,-1.0162299315081995,0.0962505042552948
1708437523.570112,-1.1060895919799805,-1.6814290485777796,-2.52605110803713,2.2815462785908203,-1.0162385145770472,0.0962250605225563
1708437523.5721078,-1.1061044931411743,-1.6813975773253382,-2.526120726262228,2.281463547343872,-1.0162223021136683,0.09623700380325317
1708437523.574111,-1.106071949005127,-1.6814052067198695,-2.5260348955737513,2.2815133768269042,-1.0162871519671839,0.09623254835605621
1708437523.576101,-1.1060550212860107,-1.6815315685667933,-2.5260794798480433,2.2815133768269042,-1.0162385145770472,0.09623411297798157
1708437523.578101,-1.1060270071029663,-1.6814037762083949,-2.5260422865497034,2.28147999822583,-1.016254727040426,0.09622955322265625
1708437523.5801005,-1.106052041053772,-1.6814352474608363,-2.5260356108294886,2.281488819713257,-1.01625901857485,0.09630009531974792
1708437523.5821033,-1.1060386896133423,-1.6814657650389613,-2.526015106831686,2.28147999822583,-1.0162671248065394,0.09624436497688293
1708437523.584096,-1.1060312986373901,-1.6815110645689906,-2.526076141987936,2.2815088468739013,-1.016254727040426,0.09628651291131973
1708437523.5860887,-1.1060150861740112,-1.681469579736227,-2.525994364415304,2.281538649196289,-1.01625901857485,0.09625784307718277
1708437523.5881455,-1.1060971021652222,-1.6814891300597132,-2.526071850453512,2.281444235438965,-1.0162060896502894,0.0962909683585167
1708437523.5901263,-1.1060432195663452,-1.681436677972311,-2.526027027760641,2.281472607249878,-1.016230885182516,0.09627747535705566
1708437523.5921268,-1.1060031652450562,-1.6815349064269007,-2.5260306040393274,2.2814971643635253,-1.016242806111471,0.09630000591278076
1708437523.5941238,-1.1060487031936646,-1.681481500665182,-2.526059691105978,2.28147999822583,-1.0162633101092737,0.09627300500869751
1708437523.596142,-1.106040120124817,-1.6814800701537074,-2.526039187108175,2.281447334880493,-1.016254727040426,0.09627747535705566
1708437523.598117,-1.1060075759887695,-1.6814772091307582,-2.526018206273214,2.2814923959919433,-1.01625901857485,0.09626230597496033
1708437523.6001265,-1.1060725450515747,-1.6815430126585902,-2.5260477701770228,2.281430883998535,-1.0162385145770472,0.09625628590583801
1708437523.602111,-1.1060237884521484,-1.681481500665182,-2.5260348955737513,2.281472607249878,-1.0161898771869105,0.09628203511238098
1708437523.604156,-1.106048822402954,-1.6814772091307582,-2.526043478642599,2.2814487653919677,-1.0162633101092737,0.09627747535705566
1708437523.6061113,-1.1060694456100464,-1.6814891300597132,-2.526059691105978,2.281444235438965,-1.0161941687213343,0.09628209471702576
1708437523.6081088,-1.105971097946167,-1.681554456750387,-2.52599007288088,2.2814859586903076,-1.0161975065814417,0.09625628590583801
1708437523.6101043,-1.1060237884521484,-1.6815515957274378,-2.526055399571554,2.281427784557007,-1.016230885182516,0.09624147415161133
1708437523.6121106,-1.1059969663619995,-1.681481500665182,-2.526076141987936,2.281444235438965,-1.0162223021136683,0.09626531600952148
1708437523.6141076,-1.1059668064117432,-1.6814729175963343,-2.5260849634753626,2.281423493022583,-1.0162633101092737,0.09626531600952148
1708437523.616101,-1.1060162782669067,-1.681530614892477,-2.5260806719409388,2.2814203935810546,-1.016242806111471,0.0962563157081604
1708437523.6180909,-1.105971097946167,-1.681509634057516,-2.526071850453512,2.2814456659504394,-1.0162714163409632,0.09626075625419617
1708437523.620099,-1.1059547662734985,-1.6814848385252894,-2.526039187108175,2.281427784557007,-1.0162470976458948,0.09626862406730652
1708437523.6220896,-1.1059925556182861,-1.6814772091307582,-2.5260139147387903,2.2814339834400634,-1.0162299315081995,0.09623990952968597
1708437523.624108,-1.105959415435791,-1.6815539799132289,-2.5260348955737513,2.281367703075073,-1.016214672719137,0.09623253345489502
1708437523.626089,-1.1059637069702148,-1.681481500665182,-2.526018206273214,2.2813662725635986,-1.0162385145770472,0.09626531600952148
1708437523.6280885,-1.1059354543685913,-1.6815349064269007,-2.526027027760641,2.2814339834400634,-1.016254727040426,0.09619951248168945
1708437523.6300933,-1.1059430837631226,-1.681509634057516,-2.5260313192950647,2.2814130026051025,-1.0161975065814417,0.09628938138484955
1708437523.6320987,-1.1059398651123047,-1.681521554986471,-2.526059691105978,2.2813708025166015,-1.0162714163409632,0.09626075625419617
1708437523.6341016,-1.1059067249298096,-1.681509634057516,-2.526076141987936,2.2814010816761474,-1.0162089506732386,0.096274234354496
1708437523.6361284,-1.1059679985046387,-1.6815139255919398,-2.5260682741748255,2.2814130026051025,-1.0162799994098108,0.09627299755811691
1708437523.6381261,-1.1059398651123047,-1.6814919910826625,-2.526071850453512,2.281367703075073,-1.016275707875387,0.09623994678258896
1708437523.6401124,-1.1059274673461914,-1.6814681492247523,-2.526039187108175,2.2813631731220703,-1.0162785688983362,0.09628203511238098
1708437523.6421044,-1.1058785915374756,-1.681530614892477,-2.526022736226217,2.281383200282715,-1.0162585417376917,0.09625788033008575
1708437523.6441257,-1.1059274673461914,-1.6814567051329554,-2.526076380406515,2.281447334880493,-1.016254727040426,0.09627747535705566
1708437523.646111,-1.1059287786483765,-1.6814962826170863,-2.5260849634753626,2.2814101415821533,-1.0162742773639124,0.0962207019329071
1708437523.6481228,-1.105948805809021,-1.6814891300597132,-2.52605110803713,2.2813965517231445,-1.0162542502032679,0.09628939628601074
1708437523.6501114,-1.1058872938156128,-1.681558748284811,-2.526083771382467,2.281392975444458,-1.0162699858294886,0.09628203511238098
1708437523.6521566,-1.1058703660964966,-1.6814919910826625,-2.5260422865497034,2.281388683910034,-1.0163233915912073,0.09628203511238098
1708437523.6541169,-1.1058917045593262,-1.6815349064269007,-2.526076141987936,2.281392975444458,-1.0163396040545862,0.09619486331939697
1708437523.656092,-1.1058467626571655,-1.681521554986471,-2.52608830133547,2.281311197871826,-1.0163191000567835,0.09625624120235443
1708437523.6581028,-1.1058717966079712,-1.6815387211241664,-2.5260306040393274,2.281336470241211,-1.0163353125201624,0.09624891728162766
1708437523.660143,-1.1058348417282104,-1.681558748284811,-2.52611214319338,2.281355782146118,-1.0163753668414515,0.09626233577728271
1708437523.662104,-1.1058804988861084,-1.6815039120116175,-2.5260468165027063,2.281384153957031,-1.0163915793048304,0.09626232832670212
1708437523.6643946,-1.1058229207992554,-1.6815577946104945,-2.526083771382467,2.2813572126575927,-1.0163496176349085,0.09627866744995117
1708437523.6661127,-1.1058404445648193,-1.6815992794432582,-2.526095692311422,2.281414433116577,-1.0163863340960901,0.09627872705459595
1708437523.6681774,-1.1058229207992554,-1.6815577946104945,-2.5260825792895716,2.281352921123169,-1.0164192358600062,0.09623988717794418
1708437523.6701403,-1.1058316230773926,-1.6815210781493128,-2.5260501543628138,2.281348391170166,-1.016385857258932,0.09623700380325317
1708437523.6721456,-1.1057777404785156,-1.6815453968443812,-2.526083771382467,2.2813736635395507,-1.0164344946490687,0.09625786542892456
1708437523.6741307,-1.1058077812194824,-1.681544920007223,-2.52611214319338,2.281315727824829,-1.016454044972555,0.09624436497688293
1708437523.67615,-1.1057778596878052,-1.6815368137755335,-2.5261076132403772,2.281341000194214,-1.0164912382708948,0.09624147415161133
1708437523.6781476,-1.1057908535003662,-1.6815368137755335,-2.5260990301715296,2.2812747198292236,-1.0165398756610315,0.09622509032487869
1708437523.680168,-1.1057628393173218,-1.681479116479391,-2.5260990301715296,2.281308098430298,-1.016498867665426,0.09623411297798157
1708437523.6821258,-1.1057583093643188,-1.6815210781493128,-2.5261359850512903,2.281341000194214,-1.0164945761310022,0.09624892473220825
1708437523.6841297,-1.1057790517807007,-1.6815339527525843,-2.5261152426349085,2.281324549312256,-1.0164979139911097,0.09629546105861664
1708437523.6860917,-1.1057476997375488,-1.6814876995482386,-2.5261226336108606,2.2812866407581787,-1.0165303389178675,0.09626531600952148
1708437523.688127,-1.1057802438735962,-1.681549688378805,-2.5261853376971644,2.281320019359253,-1.0165303389178675,0.09624891728162766
1708437523.6901073,-1.1057389974594116,-1.6815368137755335,-2.526212278996603,2.2812792497822265,-1.0165498892413538,0.09624147415161133
1708437523.6921144,-1.1057802438735962,-1.6815535030760707,-2.526236597691671,2.2812957006641845,-1.0165746847735804,0.09626530110836029
1708437523.69411,-1.105759620666504,-1.681549688378805,-2.5262156168567103,2.281352921123169,-1.0165661017047327,0.0962505042552948
1708437523.6961174,-1.1057119369506836,-1.6815034351744593,-2.5261991659747522,2.281282349223755,-1.016594711934225,0.09631190448999405
1708437523.69812,-1.1056863069534302,-1.681470056573385,-2.526219908391134,2.2812375265308837,-1.0166104475604456,0.09629100561141968
1708437523.700112,-1.105728268623352,-1.6814705334105433,-2.5262561480151575,2.2813262182423095,-1.0165780226336878,0.09623989462852478
1708437523.7021012,-1.1056820154190063,-1.6815687618651332,-2.5262396971331995,2.2812585073658447,-1.0166552702533167,0.09627751260995865
1708437523.7041652,-1.1057164669036865,-1.6816188297667445,-2.526222292576925,2.2812837797352294,-1.0166304747210901,0.09627751260995865
1708437523.7061212,-1.1056950092315674,-1.6815773449339808,-2.52627140680422,2.281313582057617,-1.0166872183429163,0.0962533950805664
1708437523.7081075,-1.105678677558899,-1.681544920007223,-2.526275698338644,2.2813216882893066,-1.0166662375079554,0.09637145698070526
1708437523.7101016,-1.1057164669036865,-1.6816069088377894,-2.526287619267599,2.2812630373188476,-1.0166533629046839,0.09631621837615967
1708437523.712099,-1.1056550741195679,-1.6815234623351039,-2.526292149220602,2.2812763887592773,-1.0167186895953577,0.0963534340262413
1708437523.714109,-1.1056561470031738,-1.6815687618651332,-2.5262911955462855,2.2812928396412353,-1.016738239918844,0.0964415892958641
1708437523.7161138,-1.1056506633758545,-1.681589265862936,-2.5263031164752405,2.2812437254139404,-1.016782585774557,0.09645797312259674
1708437523.7180862,-1.1056605577468872,-1.6815411053099574,-2.5263074080096644,2.2812928396412353,-1.0167372862445276,0.09644907712936401
1708437523.7201037,-1.1056268215179443,-1.6815806827940882,-2.526360575352804,2.2812599378773193,-1.0168145338641565,0.09652265906333923
1708437523.7220848,-1.1056681871414185,-1.6815968952574671,-2.5263193289386194,2.281268997783325,-1.0168135801898401,0.09651213884353638
1708437523.7240958,-1.1056193113327026,-1.6815687618651332,-2.5263312498675745,2.281248016948364,-1.0168417135821741,0.09661825001239777
1708437523.7260864,-1.1056073904037476,-1.6816417179503382,-2.5263641516314905,2.281277819270752,-1.0168903509723108,0.09659585356712341
1708437523.7280977,-1.1056562662124634,-1.681655069390768,-2.5263388792621058,2.281252546901367,-1.0169103781329554,0.09666171669960022
1708437523.7300947,-1.105611801147461,-1.6816135845580042,-2.52638823190798,2.2812153536030273,-1.0168688933001917,0.0966958999633789
1708437523.7320983,-1.1056160926818848,-1.6815935573973597,-2.5263806025134485,2.281236096019409,-1.0169008413897913,0.09673190116882324
1708437523.7340972,-1.1056029796600342,-1.681601186791891,-2.526400152836935,2.281224175090454,-1.016937557850973,0.09679174423217773
1708437523.7360883,-1.1055622100830078,-1.6816746197142542,-2.5263662973987024,2.2812539774128417,-1.0169699827777308,0.09687255322933197
1708437523.7381308,-1.1055947542190552,-1.6816159687437953,-2.5264359156238,2.281240625972412,-1.0169780890094202,0.09694132208824158
1708437523.7401068,-1.1055961847305298,-1.681629320184225,-2.5263989607440394,2.281224175090454,-1.0170257727252405,0.09699636697769165
1708437523.7421117,-1.105587363243103,-1.6816541157164515,-2.5264273325549524,2.28125707685437,-1.0170257727252405,0.09707102179527283
1708437523.7441583,-1.1055517196655273,-1.681617876092428,-2.526480738316671,2.281245155925415,-1.017029110585348,0.09712806344032288
1708437523.746108,-1.1056135892868042,-1.6816331348814906,-2.5264602343188685,2.281237764949463,-1.0171101729022425,0.0971955955028534
1708437523.7481153,-1.1055396795272827,-1.6816002331175746,-2.52643067041506,2.281232996577881,-1.0170605818377894,0.09729567170143127
1708437523.7501156,-1.1055723428726196,-1.681681295434469,-2.5265212694751185,2.281256838435791,-1.0170686880694788,0.09742099046707153
1708437523.7521346,-1.1055679321289062,-1.6815968952574671,-2.526421848927633,2.2812089163013916,-1.0171096960650843,0.09749294817447662
1708437523.7541096,-1.1055197715759277,-1.681629320184225,-2.526470963154928,2.2811686235615234,-1.0171735922442835,0.0975588858127594
1708437523.7561154,-1.1055078506469727,-1.6816374264159144,-2.526482884083883,2.2811552721210937,-1.017193619404928,0.09769174456596375
1708437523.758122,-1.1055277585983276,-1.681629320184225,-2.52651554742922,2.2811478811451416,-1.0172012487994593,0.0978158563375473
1708437523.7600882,-1.1054959297180176,-1.6816240749754847,-2.5265234152423304,2.2811967569538574,-1.0172250906573694,0.09788161516189575
1708437523.762102,-1.105470895767212,-1.6816493473448695,-2.526564661656515,2.2811521726795654,-1.0172489325152796,0.0979757308959961
1708437523.764135,-1.105500340461731,-1.6816116772093714,-2.5265560785876673,2.2811760145374755,-1.0172889868365687,0.09821227192878723
1708437523.7660956,-1.1054840087890625,-1.6816727123656214,-2.5265191237079065,2.2811731535145263,-1.017329517995016,0.0982765257358551
1708437523.768177,-1.1054514646530151,-1.6816536388792933,-2.5265310446368616,2.2811640936085205,-1.017325226460592,0.09840813279151917
1708437523.7701197,-1.1054720878601074,-1.6816288433470667,-2.526572291051046,2.2812177377888183,-1.0173328558551233,0.09856058657169342
1708437523.7720952,-1.105525255203247,-1.6816703281798304,-2.5265591780291956,2.2811524110981445,-1.0173361937152308,0.09877710789442062
1708437523.7741408,-1.1054720878601074,-1.6816569767394007,-2.5265679995166224,2.2811025816151123,-1.0173857847796839,0.09892100095748901
1708437523.7761052,-1.1054527759552002,-1.6816727123656214,-2.526588503514425,2.281174584026001,-1.0173361937152308,0.09903132915496826
1708437523.7780945,-1.1054143905639648,-1.6816636524596156,-2.526526753102438,2.281181975001953,-1.0174058119403284,0.09921392798423767
1708437523.7802117,-1.1054898500442505,-1.6816851101317347,-2.5265753904925745,2.281111403102539,-1.0173724333392542,0.09946060180664062
1708437523.7820973,-1.105431318283081,-1.6816970310606898,-2.5265920797931116,2.281120463008545,-1.0173514525042933,0.09963557124137878
1708437523.7841492,-1.105431318283081,-1.6816851101317347,-2.5265753904925745,2.2811338144489746,-1.0173853079425257,0.09986278414726257
1708437523.7860863,-1.1054039001464844,-1.6816970310606898,-2.526562277470724,2.28107134878125,-1.0173724333392542,0.10002443194389343
1708437523.7881358,-1.1053789854049683,-1.6817785702147425,-2.526599709187643,2.281078739757202,-1.0173686186419886,0.10029369592666626
1708437523.7901235,-1.105383276939392,-1.6817504368224085,-2.5266085306750696,2.281075878734253,-1.017360035573141,0.10051187872886658
1708437523.7921255,-1.105404019355774,-1.6817251644530238,-2.5266204516040247,2.2810520368763427,-1.0173524061786097,0.10073170065879822
1708437523.7941144,-1.1053920984268188,-1.6817828617491664,-2.5265710989581507,2.2811054426380615,-1.0173643271075647,0.100961834192276
1708437523.79612,-1.1053757667541504,-1.6816464863219203,-2.526574436818258,2.2810022073933105,-1.0173729101764124,0.10120278596878052
1708437523.79811,-1.105343222618103,-1.681732793847555,-2.526562277470724,2.281017227763794,-1.0173810164081019,0.10144522786140442
1708437523.8001213,-1.1053564548492432,-1.6817370853819789,-2.526595417653219,2.281012697810791,-1.017392937337057,0.10172004252672195
1708437523.8021073,-1.1053276062011719,-1.6817733250060023,-2.5266366640674036,2.280963583583496,-1.0173843542682093,0.10199974477291107
1708437523.804143,-1.1053407192230225,-1.6817776165404261,-2.526644293461935,2.281008167857788,-1.017388645802633,0.10230760276317596
1708437523.806159,-1.1053231954574585,-1.6817523441710414,-2.526591126118795,2.280984325999878,-1.017388645802633,0.10260851681232452
1708437523.8081021,-1.1052669286727905,-1.681814809838766,-2.526599709187643,2.280968113536499,-1.017416779194967,0.1029193252325058
1708437523.810093,-1.1053200960159302,-1.6817032299437464,-2.526599709187643,2.2809783655354003,-1.0174005667315882,0.10319296270608902
1708437523.812108,-1.105284333229065,-1.681826730767721,-2.52663237253298,2.2808989721485595,-1.0173724333392542,0.103475421667099
1708437523.8141017,-1.1053211688995361,-1.6817480526366175,-2.5266085306750696,2.280927820796631,-1.017404858266012,0.10383284091949463
1708437523.8161345,-1.1052021980285645,-1.6818047962584437,-2.5266290346728724,2.2810022073933105,-1.0173724333392542,0.10418012738227844
1708437523.8180823,-1.1052274703979492,-1.6818467579283656,-2.5266030470477503,2.280858202571533,-1.0174577871905726,0.10450294613838196
1708437523.8201032,-1.1052436828613281,-1.681784292260641,-2.526578966771261,2.280862732524536,-1.0174415747271937,0.10481049120426178
1708437523.822092,-1.1052273511886597,-1.6818582020201625,-2.526574436818258,2.280847950572632,-1.0174697081195276,0.10524882376194
1708437523.8241405,-1.1051678657531738,-1.681833406487936,-2.526578966771261,2.2808307844349365,-1.017416779194967,0.10563938319683075
1708437523.8260868,-1.1051753759384155,-1.6818486652769984,-2.5265875498401087,2.2808732229420166,-1.0174005667315882,0.1059577465057373
1708437523.8281193,-1.1051753759384155,-1.6818729839720667,-2.5265920797931116,2.2808732229420166,-1.017404858266012,0.1063450276851654
1708437523.8301032,-1.1051435470581055,-1.6818558178343714,-2.526599709187643,2.280824823970459,-1.0173919836627405,0.10676088184118271
1708437523.8321164,-1.1051597595214844,-1.681918283502096,-2.526627842579977,2.2808384138294677,-1.0174005667315882,0.10709843039512634
1708437523.8341877,-1.1051359176635742,-1.6819020710387171,-2.5265875498401087,2.280759497279785,-1.017404858266012,0.10755407065153122
1708437523.8360949,-1.105172872543335,-1.6818887195982875,-2.526616160069601,2.280789299602173,-1.017404858266012,0.10788368433713913
1708437523.8381693,-1.1051239967346191,-1.6819125614561976,-2.5265875498401087,2.2807773786732177,-1.0174382368670862,0.10830355435609818
1708437523.8401117,-1.105112075805664,-1.68194641689443,-2.5265710989581507,2.2807773786732177,-1.0173810164081019,0.10875371098518372
1708437523.8421178,-1.105128288269043,-1.681936880151266,-2.526562277470724,2.2807113367268066,-1.0173686186419886,0.10916917771100998
1708437523.8441534,-1.1051088571548462,-1.6819082699217738,-2.526566807423727,2.2806755739399414,-1.0173566977130335,0.10954800248146057
1708437523.846112,-1.1050682067871094,-1.6819287739195765,-2.526583258305685,2.280684395427368,-1.017331902180807,0.10994710773229599
1708437523.8481557,-1.1050313711166382,-1.681944032708639,-2.5266085306750696,2.2806600767322998,-1.0173242727862757,0.1103207916021347
1708437523.850117,-1.1050519943237305,-1.681997915307516,-2.526578966771261,2.2806734281727294,-1.017303768788473,0.11079148948192596
1708437523.8521338,-1.1049998998641968,-1.6819607220091761,-2.526562277470724,2.2806407648273925,-1.0173166433917444,0.1112462654709816
1708437523.8541334,-1.1049998998641968,-1.6819902859129847,-2.5265472571002405,2.2806123930164794,-1.0173047224627894,0.11169319599866867
1708437523.85611,-1.1049667596817017,-1.682042738000387,-2.5266204516040247,2.2805723386951904,-1.0172598997699183,0.11215084791183472
1708437523.858147,-1.1049259901046753,-1.6819597683348597,-2.526616160069601,2.280594750041626,-1.017252270375387,0.1126851737499237
1708437523.8601148,-1.1049844026565552,-1.6820084057249964,-2.526541773472921,2.2805613714405517,-1.0172770659076136,0.11308851838111877
1708437523.8620844,-1.1049437522888184,-1.6820575199522914,-2.5265710989581507,2.2805329996296386,-1.0172370115863245,0.11361178755760193
1708437523.8640935,-1.1049437522888184,-1.6820484600462855,-2.526517931615011,2.2805256086536865,-1.0172455946551722,0.11410347372293472
1708437523.8661277,-1.1049362421035767,-1.6820408306517542,-2.5265234152423304,2.2805463510700683,-1.0172250906573694,0.11460640281438828
1708437523.8681982,-1.1048873662948608,-1.6820208034911097,-2.526506010686056,2.280489369029663,-1.0172131697284144,0.11506237834692001
1708437523.8701267,-1.104876160621643,-1.6820441685118617,-2.5265591780291956,2.2805062967487792,-1.0171435515033167,0.11563192307949066
1708437523.872103,-1.104896068572998,-1.6820885143675746,-2.5265472571002405,2.280435724849365,-1.0171359221087855,0.11609695851802826
1708437523.8741229,-1.104836106300354,-1.682030817071432,-2.5265353361712855,2.280465527171753,-1.0171979109393519,0.1165814995765686
1708437523.8761613,-1.1048566102981567,-1.682108541528219,-2.5265396277057093,2.280444546336792,-1.0171249548541468,0.11719143390655518
1708437523.878124,-1.1048359870910645,-1.6820713482298792,-2.5265069643603724,2.2804133135029296,-1.0171096960650843,0.11762639880180359
1708437523.8801563,-1.1047909259796143,-1.6821042499937953,-2.526560370122091,2.2803680139729003,-1.0171015898333948,0.11819901317358017
1708437523.8820984,-1.1047865152359009,-1.6821204624571742,-2.526482884083883,2.2803353506275634,-1.017041031514303,0.11870022863149643
1708437523.8840983,-1.1047639846801758,-1.682136674920553,-2.526482884083883,2.280324860210083,-1.0170052687274378,0.11925051361322403
1708437523.8860896,-1.1047520637512207,-1.682157655755514,-2.5265079180346888,2.2803549009510498,-1.0169408957110804,0.1198984682559967
1708437523.8881605,-1.1047520637512207,-1.6821567020811976,-2.5264459292041224,2.2803472715565185,-1.0169408957110804,0.1203387975692749
1708437523.8901336,-1.1047358512878418,-1.6821896038451136,-2.526499334965841,2.2803096014210205,-1.016937557850973,0.12090501934289932
1708437523.8921146,-1.1047414541244507,-1.6821805439391078,-2.526458803807394,2.2802738386341552,-1.0169342199908655,0.12146756798028946
1708437523.8941214,-1.104666829109192,-1.6821638546385707,-2.5264185110675257,2.2801882463642578,-1.0168569723712366,0.12202975153923035
1708437523.896118,-1.1047039031982422,-1.6821347675719203,-2.526414219533102,2.2802247244068603,-1.0168774763690394,0.12257283180952072
1708437523.8981094,-1.1046432256698608,-1.6822005710997523,-2.5264065901385706,2.280151053065918,-1.0168374220477503,0.12318836152553558
1708437523.9001133,-1.104668140411377,-1.682183404962057,-2.5264273325549524,2.280176563853882,-1.016801659260885,0.12369876354932785
1708437523.9020925,-1.1046931743621826,-1.682232519189352,-2.526403252278463,2.2801899152943115,-1.0167611281024378,0.12425922602415085
1708437523.9041326,-1.1045905351638794,-1.682256361047262,-2.5263827482806605,2.28013722478833,-1.0167902151690882,0.12482349574565887
1708437523.9061115,-1.1046369075775146,-1.6821586094298304,-2.526407543812887,2.28013722478833,-1.0167048613177698,0.12542515993118286
1708437523.9081228,-1.1046236753463745,-1.6822520695128382,-2.5263662973987024,2.2800890642353515,-1.0166810194598597,0.12594148516654968
1708437523.9101,-1.1046005487442017,-1.6822320423521937,-2.526363197957174,2.280059500331543,-1.0167143980609339,0.12652941048145294
1708437523.9120862,-1.1046048402786255,-1.6822601757445277,-2.52635103860964,2.2800816732593994,-1.0167110602008265,0.12709110975265503
1708437523.9141078,-1.1045798063278198,-1.6822391949095667,-2.5263269583331507,2.28003112852063,-1.01662522951235,0.1276370882987976
1708437523.9161172,-1.104600429534912,-1.682185789147848,-2.5263150374041956,2.2800020414539794,-1.0166099707232874,0.12818755209445953
1708437523.9180949,-1.1045722961425781,-1.682263036767477,-2.526285473500387,2.280003471965454,-1.016590420399801,0.1288243979215622
1708437523.920117,-1.104560375213623,-1.6822883091368617,-2.5262790361987513,2.280008001918457,-1.0165823141681116,0.12930621206760406
1708437523.9220865,-1.1045647859573364,-1.682246824304098,-2.5262790361987513,2.28001253187146,-1.016594711934225,0.1299256533384323
1708437523.9240985,-1.1045241355895996,-1.682291646996969,-2.52627140680422,2.2799574571796875,-1.016529385243551,0.13042540848255157
1708437523.9260929,-1.104482650756836,-1.682263036767477,-2.526287619267599,2.2799977499195556,-1.0165465513812464,0.1309918910264969
1708437523.9281037,-1.1045410633087158,-1.6822716198363246,-2.5263007322894495,2.2800065714069824,-1.0164902845965784,0.13159535825252533
1708437523.9300957,-1.1045241355895996,-1.6823660335936488,-2.526226584111349,2.279941959972046,-1.0164702574359339,0.13216595351696014
1708437523.9320986,-1.1045297384262085,-1.682291646996969,-2.526226584111349,2.279928608531616,-1.016425911580221,0.1327677220106125
1708437523.934093,-1.1045122146606445,-1.6823092899718226,-2.526214663182394,2.2799123960682373,-1.0164106527911585,0.13332703709602356
1708437523.9361217,-1.1044796705245972,-1.6822873554625453,-2.5262396971331995,2.2799123960682373,-1.0163658300982874,0.13391318917274475
1708437523.9381337,-1.1044645309448242,-1.6823283634581507,-2.5261948744403284,2.279897375697754,-1.0163787047015589,0.1344708651304245
1708437523.9401321,-1.104455828666687,-1.6822582683958949,-2.526198212300436,2.2798942762562255,-1.0163138548480433,0.13502830266952515
1708437523.9421217,-1.1044942140579224,-1.6822992763915003,-2.526219908391134,2.279885454768799,-1.0162985960589808,0.1355983167886734
1708437523.9441059,-1.1044350862503052,-1.6822992763915003,-2.526187245045797,2.279897375697754,-1.016294304524557,0.1361743062734604
1708437523.9461412,-1.1044100522994995,-1.6822883091368617,-2.5261829535113733,2.2798492151447753,-1.0163114706622522,0.13675232231616974
1708437523.9481144,-1.1044350862503052,-1.682335992852682,-2.526245180760519,2.2798492151447753,-1.016233269368307,0.13739728927612305
1708437523.9501288,-1.1044645309448242,-1.6823002300658167,-2.526187245045797,2.2798356252857666,-1.016242806111471,0.13783863186836243
1708437523.9521291,-1.1044158935546875,-1.6822992763915003,-2.526130978261129,2.2798735338398437,-1.016198460255758,0.13835766911506653
1708437523.9541094,-1.1044780015945435,-1.6822945080199183,-2.5261383692370813,2.279825373286865,-1.016226593648092,0.13887488842010498
1708437523.9561303,-1.1044306755065918,-1.682364126245016,-2.526130978261129,2.2798239427753906,-1.0161860624896448,0.139455184340477
1708437523.9580903,-1.1044143438339233,-1.6823035679259242,-2.526175324116842,2.279829903239868,-1.0161917845355433,0.13995905220508575
1708437523.960098,-1.1044689416885376,-1.6822754345335902,-2.5261271635638636,2.2798239427753906,-1.0161917845355433,0.14045393466949463
1708437523.9621007,-1.1044187545776367,-1.6823154888548792,-2.52614409128298,2.279846115703247,-1.0161502997027796,0.14089198410511017
1708437523.9641244,-1.1044572591781616,-1.6823111973204554,-2.5261152426349085,2.2797836500355224,-1.0161502997027796,0.1414201706647873
1708437523.9661036,-1.104414463043213,-1.6823531589903773,-2.5260663668261927,2.2798208433338623,-1.0161274115191858,0.14187483489513397
1708437523.9681098,-1.1044025421142578,-1.6822496853270472,-2.526148859654562,2.279846115703247,-1.0161197821246546,0.14232026040554047
1708437523.9701307,-1.104461669921875,-1.682307859460348,-2.5260468165027063,2.279858036632202,-1.016050163899557,0.14280477166175842
1708437523.972109,-1.104374647140503,-1.682295938531393,-2.5260914007769983,2.279834194774292,-1.0160992781268519,0.14318802952766418
1708437523.9741004,-1.1044440269470215,-1.6823731861510218,-2.526095692311422,2.2798208433338623,-1.0161121527301233,0.14363430440425873
1708437523.9761143,-1.1044526100158691,-1.682295938531393,-2.5260139147387903,2.2798372942158203,-1.0160468260394495,0.14417152106761932
1708437523.9780858,-1.1043981313705444,-1.6823326549925746,-2.526022736226217,2.279822273845337,-1.0160349051104944,0.14458878338336945
1708437523.9801266,-1.1044526100158691,-1.682324071923727,-2.526006285344259,2.279846115703247,-1.0160759131061,0.1450895369052887
1708437523.9820855,-1.1044780015945435,-1.6823283634581507,-2.5260093847857874,2.2797927099415283,-1.0160391966449183,0.1454535275697708
1708437523.9840925,-1.1044365167617798,-1.682307859460348,-2.526043478642599,2.27981345235791,-1.0160349051104944,0.14589345455169678
1708437523.98608,-1.1044526100158691,-1.6823035679259242,-2.526015106831686,2.279797001475952,-1.016003433858053,0.14633673429489136
1708437523.9881046,-1.1043953895568848,-1.6822992763915003,-2.5260685125934046,2.2797762590595703,-1.0160272757159632,0.14677515625953674
1708437523.9901044,-1.104467749595642,-1.6822582683958949,-2.5260029474841517,2.279862566585205,-1.0159791151629847,0.14715787768363953
1708437523.9921353,-1.104432225227356,-1.682291646996969,-2.5260282198535364,2.27981345235791,-1.0159671942340296,0.14754578471183777
1708437523.9941025,-1.104455828666687,-1.6823283634581507,-2.5259791056262415,2.2798046308704834,-1.015930477772848,0.14791256189346313
1708437523.9960897,-1.1044481992721558,-1.6822453937926234,-2.5260074774371546,2.279780789012573,-1.0159629026996058,0.14827504754066467
1708437523.9980903,-1.1044645309448242,-1.682324071923727,-2.5259791056262415,2.279825373286865,-1.015930477772848,0.14860613644123077
1708437524.0000982,-1.1044970750808716,-1.6822840176024378,-2.5259910265551966,2.2798327642628173,-1.0159185568438929,0.14894436299800873
1708437524.002086,-1.1044883728027344,-1.6822759113707484,-2.5259538332568567,2.2798046308704834,-1.0159433523761194,0.14925284683704376
1708437524.00415,-1.1044883728027344,-1.6822215519347132,-2.5259791056262415,2.2799078661152343,-1.015956226979391,0.14952212572097778
1708437524.0060875,-1.1045252084732056,-1.6822716198363246,-2.52598220506777,2.2798537450977783,-1.0159314314471644,0.1498962640762329
1708437524.0080984,-1.1045328378677368,-1.6822344265379847,-2.5259626547442835,2.279901905650757,-1.0158751646624964,0.15011665225028992
1708437524.0100818,-1.1044960021972656,-1.6822716198363246,-2.525971237813131,2.279892845744751,-1.0159443060504358,0.1504535973072052
1708437524.0120838,-1.1045032739639282,-1.6822601757445277,-2.5259669462787073,2.279925509090088,-1.015895191823141,0.1507200300693512
1708437524.0140803,-1.104560375213623,-1.6822558842101039,-2.5260074774371546,2.2799345689960937,-1.0159195105182093,0.15098799765110016
1708437524.0161092,-1.1044989824295044,-1.6822520695128382,-2.5259669462787073,2.279916687602661,-1.015923802052633,0.15125128626823425
1708437524.0180864,-1.1045397520065308,-1.6821915111937464,-2.5259550253497522,2.279987259502075,-1.015928093587057,0.1515117734670639
