Eg3-git/Classifiers/Data Collection/u5/u5xyz5_ur3e_joint_states.csv
time,elbow_joint,shoulder_lift_joint,shoulder_pan_joint,wrist_1_joint,wrist_2_joint,wrist_3_joint
1708437572.324362,-1.1215053796768188,-1.6726747951903285,-2.527673308049337,2.298607750529907,-1.0192697683917444,-0.033919636403219044
1708437572.3263543,-1.1214981079101562,-1.6726833782591761,-2.527719799672262,2.298645182246826,-1.0192611853228968,-0.033820931111471
1708437572.328309,-1.121527075767517,-1.6726585827269496,-2.527682367955343,2.2986630636402587,-1.0192773977862757,-0.03387052217592412
1708437572.3303058,-1.121527075767517,-1.6726952991881312,-2.527698818837301,2.298649712199829,-1.0192416349994105,-0.03384906450380498
1708437572.3323162,-1.1214890480041504,-1.6726790867247523,-2.527741018925802,2.298645182246826,-1.0192535559283655,-0.03380424181093389
1708437572.334318,-1.1214817762374878,-1.6726833782591761,-2.527703348790304,2.298604889506958,-1.0192578474627894,-0.03387481371034795
1708437572.336384,-1.1215686798095703,-1.6726747951903285,-2.527674976979391,2.298600359553955,-1.0192244688617151,-0.03384906450380498
1708437572.3383133,-1.1215025186538696,-1.672727724114889,-2.52765399614443,2.2985989290424804,-1.01918870607485,-0.03383237520326787
1708437572.340352,-1.1214772462844849,-1.6726952991881312,-2.527715269719259,2.298649712199829,-1.0192297140704554,-0.03387290636171514
1708437572.3423069,-1.121511459350586,-1.6727234325804652,-2.527703348790304,2.298579378718994,-1.0192535559283655,-0.03380901018251592
1708437572.3443162,-1.121468186378479,-1.6727148495116175,-2.52765399614443,2.2986079889484863,-1.0192654768573206,-0.033837143574849904
1708437572.346341,-1.1214861869812012,-1.6726705036559046,-2.527679506932394,2.2985703188129882,-1.0192254225360315,-0.033820931111471
1708437572.3483512,-1.121538758277893,-1.672699590722555,-2.527691427861349,2.298624201411865,-1.0192211310016077,-0.033829514180318654
1708437572.3503046,-1.1215136051177979,-1.6726671657957972,-2.5276721159564417,2.2986737924763183,-1.0192130247699183,-0.033837143574849904
1708437572.3523405,-1.1215224266052246,-1.6726833782591761,-2.527670447026388,2.2985915380665283,-1.0192130247699183,-0.033829514180318654
1708437572.354313,-1.1215070486068726,-1.6726705036559046,-2.5276511351214808,2.298607750529907,-1.0192015806781214,-0.03384143510927373
1708437572.3563929,-1.1215434074401855,-1.6726876697936,-2.527625385914938,2.2986573415943603,-1.0192015806781214,-0.03381330171693975
1708437572.358366,-1.1214816570281982,-1.6726800403990687,-2.527646605168478,2.2986034589954834,-1.0191691557513636,-0.03387481371034795
1708437572.3603747,-1.1215687990188599,-1.6726790867247523,-2.527616326008932,2.298703594798706,-1.0192058722125452,-0.03378421465028936
1708437572.3623745,-1.1214981079101562,-1.6726790867247523,-2.527658526097433,2.298699064845703,-1.0192015806781214,-0.03380138078798467
1708437572.364318,-1.121527075767517,-1.6726747951903285,-2.527642075215475,2.298616810435913,-1.019210163746969,-0.033834282551900685
1708437572.3663101,-1.12153160572052,-1.6726981602110804,-2.527684036885397,2.2986032205769042,-1.0192340056048792,-0.0337756315814417
1708437572.368338,-1.1215224266052246,-1.6726790867247523,-2.5276556650744837,2.2986573415943603,-1.0192297140704554,-0.03379232088197881
1708437572.3703992,-1.1215299367904663,-1.6727234325804652,-2.5276601950274866,2.298645182246826,-1.0191848913775843,-0.03385049501527959
1708437572.372365,-1.1214981079101562,-1.6726542911925257,-2.5276299158679407,2.298624201411865,-1.0191805998431605,-0.03383857408632451
1708437572.3743193,-1.1214936971664429,-1.6727024517455042,-2.527646605168478,2.29861228048291,-1.0191734472857874,-0.0338061491595667
1708437572.3763032,-1.1215144395828247,-1.6726876697936,-2.527616326008932,2.2986034589954834,-1.0191691557513636,-0.033837143574849904
1708437572.378303,-1.1215299367904663,-1.672645708123678,-2.5276361147509974,2.29867069303479,-1.0191972891436976,-0.0338061491595667
1708437572.3803062,-1.121451735496521,-1.672711034814352,-2.5276511351214808,2.298628731364868,-1.0191777388202112,-0.033793274556295216
1708437572.382315,-1.1215009689331055,-1.672699590722555,-2.5275967756854456,2.2986315923878173,-1.0191777388202112,-0.03383094469179326
1708437572.3843079,-1.1214609146118164,-1.672711034814352,-2.5276134649859827,2.2985164362141113,-1.0192015806781214,-0.03381473222841436
1708437572.3863697,-1.1215180158615112,-1.6727234325804652,-2.5276179949389856,2.298596068019531,-1.0192015806781214,-0.03382236162294561
1708437572.3883016,-1.1214890480041504,-1.6726705036559046,-2.5276435057269495,2.298628731364868,-1.019193474446432,-0.033793274556295216
1708437572.3902946,-1.1214936971664429,-1.6726952991881312,-2.5276435057269495,2.2985915380665283,-1.0191329161273401,-0.03375608125795537
1708437572.3923185,-1.1215189695358276,-1.6726867161192835,-2.5276103655444544,2.298649712199829,-1.0191863218890589,-0.03379804292787725
1708437572.3942893,-1.1214845180511475,-1.6726747951903285,-2.5276225248919886,2.298616810435913,-1.019182030354635,-0.03373605409731084
1708437572.3963037,-1.1215224266052246,-1.672711034814352,-2.5276179949389856,2.2986618715473632,-1.0191777388202112,-0.0337446371661585
1708437572.398294,-1.1215180158615112,-1.6726671657957972,-2.5276225248919886,2.298621340388916,-1.019137207661764,-0.03383857408632451
1708437572.4003184,-1.1215506792068481,-1.6727153263487757,-2.5276435057269495,2.298621340388916,-1.0191782156573694,-0.033768479024068654
1708437572.4023378,-1.121527075767517,-1.672699590722555,-2.5276315847979944,2.2985915380665283,-1.0191906134234827,-0.03383094469179326
1708437572.404304,-1.1215053796768188,-1.6727196178831996,-2.5276315847979944,2.298625870341919,-1.0191534201251429,-0.03376514116396123
1708437572.4064338,-1.1215479373931885,-1.672661920587057,-2.5276406447040003,2.29867069303479,-1.0191906134234827,-0.03375608125795537
1708437572.4083462,-1.1214890480041504,-1.6726910076537074,-2.5276315847979944,2.2986618715473632,-1.0191124121295374,-0.03377992311586553
1708437572.4103327,-1.1215134859085083,-1.6726952991881312,-2.5275939146624964,2.298607750529907,-1.019193474446432,-0.03378183046449834
1708437572.4123645,-1.1214964389801025,-1.6726952991881312,-2.5276270548449915,2.298633261317871,-1.0191906134234827,-0.03373605409731084
1708437572.4143336,-1.121480107307434,-1.6727024517455042,-2.5275700728045862,2.298604889506958,-1.0191448370562952,-0.03375608125795537
1708437572.416341,-1.1215687990188599,-1.6727148495116175,-2.5275700728045862,2.298600359553955,-1.0191414991961878,-0.033760849629537404
1708437572.4183447,-1.121527075767517,-1.6726910076537074,-2.5275819937335413,2.298624201411865,-1.0191610495196741,-0.033768479024068654
1708437572.4203863,-1.121576189994812,-1.6727687321104945,-2.5275655428515833,2.298607750529907,-1.019137207661764,-0.03378898302187139
1708437572.422434,-1.1214772462844849,-1.6727234325804652,-2.5276103655444544,2.29861228048291,-1.0191124121295374,-0.0337446371661585
1708437572.4243531,-1.1214547157287598,-1.67265047649526,-2.5276194254504603,2.298645182246826,-1.019137207661764,-0.033760849629537404
1708437572.4263089,-1.1215053796768188,-1.6726585827269496,-2.527607504521505,2.2986945348927,-1.0191167036639612,-0.03382236162294561
1708437572.4283383,-1.1215053796768188,-1.6727796993651332,-2.5275819937335413,2.29864947378125,-1.019120995198385,-0.033732239400045216
1708437572.430333,-1.1215462684631348,-1.6727224789061488,-2.5275865236865442,2.2985870081135253,-1.0191620031939905,-0.03378183046449834
1708437572.4323254,-1.1215053796768188,-1.6726910076537074,-2.5275984446154993,2.2985915380665283,-1.01910907426943,-0.033773247395650685
1708437572.4343235,-1.1215224266052246,-1.672678133050436,-2.5276451746570032,2.2985703188129882,-1.0191252867328089,-0.03376514116396123
1708437572.4363906,-1.121527075767517,-1.672711034814352,-2.5275865236865442,2.298628731364868,-1.0191219488727015,-0.033760849629537404
1708437572.4383194,-1.1214593648910522,-1.6727234325804652,-2.527612034474508,2.2986361223408203,-1.0191133658038538,-0.03377753893007451
1708437572.4403186,-1.1214845180511475,-1.6726833782591761,-2.527633015309469,2.2986783224293212,-1.019080940877096,-0.03377753893007451
1708437572.442314,-1.1215462684631348,-1.6726910076537074,-2.5276406447040003,2.298595829600952,-1.0191543737994593,-0.033802334462301076
1708437572.44432,-1.1214755773544312,-1.6726790867247523,-2.527579132710592,2.2985915380665283,-1.0191338698016565,-0.0338061491595667
1708437572.4463117,-1.1215598583221436,-1.6726910076537074,-2.5276194254504603,2.298682852382324,-1.0191219488727015,-0.033760849629537404
1708437572.4483025,-1.1215523481369019,-1.6727153263487757,-2.527579132710592,2.2986482816883544,-1.019162956868307,-0.033760849629537404
1708437572.450324,-1.1215851306915283,-1.6726705036559046,-2.527607504521505,2.2985870081135253,-1.0190566221820276,-0.033760849629537404
1708437572.4522948,-1.1215434074401855,-1.6726747951903285,-2.527553383504049,2.298595829600952,-1.0190852324115198,-0.03371173540224248
1708437572.4543025,-1.121555209159851,-1.6727148495116175,-2.527600113545553,2.2986945348927,-1.019080940877096,-0.03374034563173467
1708437572.4563892,-1.121555209159851,-1.6726981602110804,-2.52759558359255,2.298616810435913,-1.0191381613360804,-0.033751789723531544
1708437572.4583402,-1.1215009689331055,-1.6726867161192835,-2.5275819937335413,2.29861228048291,-1.0191052595721644,-0.03377849260439092
1708437572.4603603,-1.1215134859085083,-1.6726790867247523,-2.527616564427511,2.298579140300415,-1.0190938154803675,-0.03374940553774053
1708437572.4623504,-1.1215343475341797,-1.6726910076537074,-2.527583662663595,2.2986153799244384,-1.0191305319415491,-0.033741299306051076
1708437572.4643264,-1.1215053796768188,-1.6727363071837367,-2.5275700728045862,2.298600359553955,-1.0190771261798304,-0.03371602693666631
1708437572.4663188,-1.121555209159851,-1.672678133050436,-2.527621094380514,2.298595829600952,-1.0190728346454065,-0.03370696703066045
1708437572.4683385,-1.1215418577194214,-1.6726876697936,-2.5276194254504603,2.298645182246826,-1.0191009680377405,-0.03376943269838506
1708437572.4703832,-1.121484637260437,-1.6726585827269496,-2.527583662663595,2.298649712199829,-1.0191391150103968,-0.03371125856508428
1708437572.4723628,-1.1215360164642334,-1.672727724114889,-2.5275700728045862,2.298637791270874,-1.0191023985492151,-0.033745590840474904
1708437572.4743326,-1.1214890480041504,-1.6727234325804652,-2.527574602757589,2.2986032205769042,-1.0190981070147913,-0.033736530934469044
1708437572.4763746,-1.1215418577194214,-1.6726910076537074,-2.5275700728045862,2.298649712199829,-1.0190652052508753,-0.03372794786562139
1708437572.4783545,-1.1215224266052246,-1.6726833782591761,-2.527597252522604,2.298645182246826,-1.0190900007831019,-0.0337446371661585
1708437572.4803545,-1.1215670108795166,-1.672711034814352,-2.527607504521505,2.29861228048291,-1.019073788319723,-0.033811394368306935
1708437572.4823413,-1.1214772462844849,-1.6726705036559046,-2.527583662663595,2.298654003734253,-1.0190609137164515,-0.03377849260439092
1708437572.4843435,-1.1215299367904663,-1.6726867161192835,-2.527583662663595,2.298625870341919,-1.0190771261798304,-0.03375846544374639
1708437572.4863384,-1.1215715408325195,-1.6727320156493128,-2.527562443410055,2.2986618715473632,-1.019085709248678,-0.03376514116396123
1708437572.4883068,-1.1215299367904663,-1.672706743279928,-2.527588192616598,2.298609419459961,-1.01902944246401,-0.03375846544374639
1708437572.490295,-1.1214874982833862,-1.6726910076537074,-2.527566973363058,2.2986301618763427,-1.0190618673907679,-0.03378659883608037
1708437572.4922953,-1.1215343475341797,-1.6727024517455042,-2.527588192616598,2.298588200206421,-1.0190618673907679,-0.03372317949403936
1708437572.4943006,-1.1215671300888062,-1.6727224789061488,-2.527612034474508,2.298574848765991,-1.019057575856344,-0.03370696703066045
1708437572.496298,-1.121538758277893,-1.6726910076537074,-2.527512852345602,2.298637791270874,-1.0190370718585413,-0.033741299306051076
1708437572.4983044,-1.1215224266052246,-1.6726910076537074,-2.527533833180563,2.298604889506958,-1.019045654927389,-0.033732239400045216
1708437572.5003376,-1.1215506792068481,-1.672727724114889,-2.527545754109518,2.298621340388916,-1.0190089384662073,-0.03371745744814092
1708437572.502313,-1.1215343475341797,-1.6726833782591761,-2.527545754109518,2.298640652293823,-1.0190499464618128,-0.03372031847109014
1708437572.5043051,-1.121527075767517,-1.672706743279928,-2.5275474230395716,2.298600359553955,-1.0191028753863733,-0.03377420106996709
1708437572.5063396,-1.121527075767517,-1.6727024517455042,-2.5275548140155237,2.298588200206421,-1.0190165678607386,-0.033750359212056935
1708437572.5083995,-1.1215180158615112,-1.672727724114889,-2.5275593439685267,2.298666401500366,-1.0190661589251917,-0.033736530934469044
1708437572.51036,-1.121564269065857,-1.6727405987181605,-2.527571503316061,2.298595829600952,-1.0190499464618128,-0.033762756978170216
1708437572.512353,-1.121538758277893,-1.6726910076537074,-2.5275428930865687,2.29861228048291,-1.0190098921405237,-0.03375369707216436
1708437572.5143318,-1.1215343475341797,-1.6727153263487757,-2.5275099913226526,2.2986032205769042,-1.0190704504596155,-0.033767048512594044
1708437572.5163217,-1.121555209159851,-1.6726747951903285,-2.5275548140155237,2.298595829600952,-1.0189889113055628,-0.033745590840474904
1708437572.5183315,-1.121538758277893,-1.6726747951903285,-2.5275638739215296,2.298604889506958,-1.019001309071676,-0.033745590840474904
1708437572.5203705,-1.1215299367904663,-1.6727386913695277,-2.5275848547564905,2.298645182246826,-1.0190251509295862,-0.03370839754213506
1708437572.52237,-1.1215434074401855,-1.6726910076537074,-2.5275383631335657,2.298645182246826,-1.0189932028399866,-0.03369599977602178
1708437572.5243273,-1.1215180158615112,-1.6727234325804652,-2.5275309721576136,2.298633261317871,-1.0190218130694788,-0.03375846544374639
1708437572.5262966,-1.1215144395828247,-1.6726910076537074,-2.5275383631335657,2.298541947002075,-1.0190056006061,-0.03367835680116826
1708437572.5283308,-1.1215224266052246,-1.6727024517455042,-2.527566973363058,2.298591299647949,-1.0190423170672815,-0.03378326097597295
1708437572.5303044,-1.121496558189392,-1.6726910076537074,-2.5275383631335657,2.298600359553955,-1.0190098921405237,-0.03372031847109014
1708437572.5323026,-1.1215180158615112,-1.6726981602110804,-2.5275548140155237,2.2985853391834716,-1.019017521535055,-0.03375465074648076
1708437572.5343113,-1.121538758277893,-1.672743936578268,-2.5275548140155237,2.298609419459961,-1.01896840730776,-0.03375465074648076
1708437572.5363421,-1.121555209159851,-1.672739645043844,-2.5275264422046106,2.298592730159424,-1.0190098921405237,-0.03373843828310186
1708437572.538313,-1.1215053796768188,-1.672678133050436,-2.5275309721576136,2.298613949412964,-1.0189769903766077,-0.03369170824159795
1708437572.5403292,-1.1215180158615112,-1.6726938686766566,-2.527545754109518,2.298588200206421,-1.0190056006061,-0.03371745744814092
1708437572.5423014,-1.1214756965637207,-1.6727234325804652,-2.5275309721576136,2.298558397884033,-1.01894456544985,-0.033741299306051076
1708437572.5443184,-1.1215418577194214,-1.6726938686766566,-2.5275309721576136,2.2986346918293457,-1.0190466086017054,-0.033762756978170216
1708437572.5463247,-1.1215523481369019,-1.672699590722555,-2.527550284062521,2.298583670253418,-1.0190056006061,-0.03370505968202764
1708437572.5483093,-1.1215299367904663,-1.6726747951903285,-2.527533833180563,2.298633261317871,-1.0190098921405237,-0.03370505968202764
1708437572.5503027,-1.1214920282363892,-1.6727320156493128,-2.5275638739215296,2.298600359553955,-1.0189974943744105,-0.033667866383687794
1708437572.5523117,-1.1215299367904663,-1.672727724114889,-2.5275519529925745,2.298562927837036,-1.0190141836749476,-0.033759419118062794
1708437572.5543306,-1.1215434074401855,-1.672711034814352,-2.5275264422046106,2.2986349302479248,-1.0189607779132288,-0.03371745744814092
1708437572.5563433,-1.1215134859085083,-1.6726981602110804,-2.5275564829455774,2.298562927837036,-1.0189650694476526,-0.03371745744814092
1708437572.5583594,-1.1215506792068481,-1.6726790867247523,-2.5275474230395716,2.298534079188965,-1.019043270741598,-0.033733669911519826
1708437572.5603414,-1.121559739112854,-1.6727320156493128,-2.5275190512286585,2.298613949412964,-1.0189932028399866,-0.03374702135194951
1708437572.5623844,-1.1215134859085083,-1.672661920587057,-2.5274980703936976,2.298555298442505,-1.0189531485186976,-0.03369361559023076
1708437572.5643272,-1.121555209159851,-1.6727191410460414,-2.5274980703936976,2.298609419459961,-1.0189736525165003,-0.033709351216451466
1708437572.5663164,-1.1215627193450928,-1.6727310619749964,-2.5275264422046106,2.2986017900654296,-1.0189650694476526,-0.03370029131044561
1708437572.568344,-1.1215053796768188,-1.6727105579771937,-2.5275264422046106,2.2985688883015136,-1.0189855734454554,-0.03372651735414678
1708437572.5703943,-1.1214876174926758,-1.6727234325804652,-2.5274816195117396,2.298642321223877,-1.0189693609820765,-0.03370410600771123
1708437572.5723927,-1.1214920282363892,-1.6726662121214808,-2.5275190512286585,2.298604889506958,-1.0189412275897425,-0.03370505968202764
1708437572.5743427,-1.1215178966522217,-1.672706743279928,-2.5275235811816614,2.298604889506958,-1.019010368977682,-0.03370505968202764
1708437572.5763278,-1.1215299367904663,-1.6726938686766566,-2.5274692217456263,2.298630400294922,-1.0189369360553187,-0.0337141195880335
1708437572.5783374,-1.121555209159851,-1.6726867161192835,-2.5275235811816614,2.2986466127583007,-1.0189574400531214,-0.033684555684224904
1708437572.5803103,-1.1215671300888062,-1.6726790867247523,-2.5275026003467005,2.2986630636402587,-1.0189855734454554,-0.03371745744814092
1708437572.5823023,-1.1215144395828247,-1.672706743279928,-2.5275309721576136,2.298613949412964,-1.018912140523092,-0.03369361559023076
1708437572.5843153,-1.1215224266052246,-1.6727191410460414,-2.5275026003467005,2.298609419459961,-1.0189693609820765,-0.03369790712465459
1708437572.5863502,-1.121555209159851,-1.6726662121214808,-2.5274317900287073,2.298604889506958,-1.0189488569842737,-0.03361827531923467
1708437572.5883205,-1.1214593648910522,-1.672743936578268,-2.5274818579303187,2.298558397884033,-1.0189531485186976,-0.03367215791811162
1708437572.5903172,-1.1215434074401855,-1.6726910076537074,-2.527478281651632,2.2985972601124267,-1.0189574400531214,-0.033676926289693654
1708437572.5923092,-1.1215598583221436,-1.6727024517455042,-2.527478281651632,2.2985762792774658,-1.0189531485186976,-0.03368550935854131
1708437572.5943115,-1.1215418577194214,-1.6726952991881312,-2.5275400320636194,2.298592730159424,-1.0189412275897425,-0.033667866383687794
1708437572.5963078,-1.1214592456817627,-1.6726671657957972,-2.5274484793292444,2.298592730159424,-1.0189693609820765,-0.0337141195880335
1708437572.5983062,-1.121538758277893,-1.6726895771422328,-2.527482811604635,2.298588200206421,-1.0189335981952112,-0.03366548219789678
1708437572.600329,-1.1215224266052246,-1.6727310619749964,-2.527482811604635,2.2986346918293457,-1.0189455191241663,-0.03366548219789678
1708437572.6023028,-1.121480107307434,-1.6726576290526332,-2.527482811604635,2.298604889506958,-1.0189250151263636,-0.03372651735414678
1708437572.6043286,-1.121571660041809,-1.672706743279928,-2.5275071302997034,2.298555298442505,-1.0189746061908167,-0.03363496461977178
1708437572.6063418,-1.1215343475341797,-1.672678133050436,-2.5274997393237513,2.2986392217823486,-1.0189746061908167,-0.033709351216451466
1708437572.6083946,-1.1214964389801025,-1.6726747951903285,-2.5275116602527063,2.2985567289539794,-1.0189421812640589,-0.03372317949403936
1708437572.6103523,-1.121538758277893,-1.672699590722555,-2.527473751698629,2.298583670253418,-1.0189054648028772,-0.033718411122457326
1708437572.6123652,-1.1215789318084717,-1.6726867161192835,-2.5274906794177454,2.298555298442505,-1.0189498106585901,-0.033652607594625294
1708437572.614329,-1.121555209159851,-1.6726867161192835,-2.527478281651632,2.2985643583485107,-1.018937889729635,-0.03366977373232061
1708437572.6163454,-1.1215299367904663,-1.6727525196471156,-2.5274861494647425,2.2985808092304687,-1.0189455191241663,-0.03368121782411748
1708437572.6183429,-1.121587872505188,-1.6727310619749964,-2.5275281111346644,2.2985476690479736,-1.0189345518695276,-0.03366071382631475
1708437572.620364,-1.1215299367904663,-1.6727062664427699,-2.527466360722677,2.2985808092304687,-1.018954102193014,-0.03363210359682256
1708437572.622466,-1.1215746402740479,-1.6727320156493128,-2.527482811604635,2.298630400294922,-1.0189455191241663,-0.033727471028463185
1708437572.6243536,-1.121468186378479,-1.6726895771422328,-2.5274952093707483,2.2985898691364746,-1.0189583937274378,-0.03367454210390264
1708437572.626301,-1.1215053796768188,-1.6726824245848597,-2.5275161902057093,2.298550768489502,-1.0189054648028772,-0.03363210359682256
1708437572.6283283,-1.121527075767517,-1.672649999658102,-2.527482811604635,2.2986346918293457,-1.0189335981952112,-0.033599201832906544
1708437572.6303024,-1.1215299367904663,-1.6727515659727992,-2.5274484793292444,2.298609419459961,-1.0188682715045374,-0.033678833638326466
1708437572.6323466,-1.1215299367904663,-1.6726910076537074,-2.5274861494647425,2.298604889506958,-1.018909756337301,-0.03366071382631475
1708437572.6343024,-1.1215462684631348,-1.6727234325804652,-2.527482811604635,2.2985431390949707,-1.0189173857318323,-0.03366977373232061
1708437572.6363366,-1.1215180158615112,-1.6727353535094203,-2.5274692217456263,2.2985972601124267,-1.0189421812640589,-0.03369456926454717
1708437572.638332,-1.1215671300888062,-1.6726747951903285,-2.527457300816671,2.298604889506958,-1.018897835408346,-0.03369027773012334
1708437572.640324,-1.1215506792068481,-1.672706743279928,-2.527454439793722,2.2985898691364746,-1.0189583937274378,-0.03366071382631475
1708437572.6423395,-1.121509075164795,-1.6726910076537074,-2.527473751698629,2.2985150057026367,-1.0189054648028772,-0.033657375966207326
1708437572.6442957,-1.1215134859085083,-1.6726910076537074,-2.527482811604635,2.2985195356556396,-1.018937889729635,-0.033661667500631154
1708437572.6463296,-1.1215626001358032,-1.6726824245848597,-2.527487341557638,2.2985808092304687,-1.018909756337301,-0.03369456926454717
1708437572.6483111,-1.1215626001358032,-1.6727024517455042,-2.5274952093707483,2.298609419459961,-1.0189302603351038,-0.033678833638326466
1708437572.6503122,-1.1215506792068481,-1.6726910076537074,-2.52747089067568,2.2985238271900634,-1.0189216772662562,-0.03363639513124639
1708437572.6523528,-1.1215462684631348,-1.672661920587057,-2.527473751698629,2.2986017900654296,-1.0189021269427698,-0.033678833638326466
1708437572.654315,-1.121555209159851,-1.6727267704405726,-2.527482811604635,2.2986106115528564,-1.0189011732684534,-0.033678833638326466
1708437572.6563492,-1.1215134859085083,-1.6726542911925257,-2.527482811604635,2.2985071378895263,-1.01892596880068,-0.033657375966207326
1708437572.6583793,-1.121496558189392,-1.6726910076537074,-2.5274906794177454,2.2985779482075195,-1.0189021269427698,-0.03364545503725225
1708437572.6603272,-1.121538758277893,-1.672739645043844,-2.52743369737734,2.2985779482075195,-1.0188811461078089,-0.03366977373232061
1708437572.6623595,-1.1215224266052246,-1.672678133050436,-2.5274952093707483,2.2985357481190185,-1.0189183394061487,-0.033678833638326466
1708437572.6643372,-1.1215180158615112,-1.6727353535094203,-2.527454439793722,2.2985824781605224,-1.018914047871725,-0.033678833638326466
1708437572.6663349,-1.121527075767517,-1.6726747951903285,-2.527449909840719,2.2985824781605224,-1.0188811461078089,-0.03361255327333623
1708437572.6683693,-1.1215715408325195,-1.672739645043844,-2.527458969746725,2.2985567289539794,-1.0189054648028772,-0.033661667500631154
1708437572.6703684,-1.1215254068374634,-1.672739645043844,-2.527454439793722,2.2986196714588623,-1.018909756337301,-0.033666435872213185
1708437572.6723754,-1.1215864419937134,-1.6727310619749964,-2.527482811604635,2.2985448080250244,-1.018876854573385,-0.033683125172750294
1708437572.6743653,-1.121538758277893,-1.6726628742613734,-2.527478281651632,2.2985986906239013,-1.0189345518695276,-0.033678833638326466
1708437572.6763756,-1.121504545211792,-1.6726910076537074,-2.527466360722677,2.2986032205769042,-1.0188606421100062,-0.03362161317934209
1708437572.67838,-1.1215343475341797,-1.6726867161192835,-2.527482811604635,2.2985402780720214,-1.0189345518695276,-0.03363639513124639
1708437572.6803741,-1.1215100288391113,-1.6727024517455042,-2.527504269276754,2.2985734182545166,-1.0188811461078089,-0.033678833638326466
1708437572.6823447,-1.1215343475341797,-1.672706743279928,-2.527482811604635,2.2985567289539794,-1.0189021269427698,-0.03361255327333623
1708437572.6843364,-1.1215462684631348,-1.6726418934264125,-2.527478281651632,2.2985657888599853,-1.0189216772662562,-0.03364259401430303
1708437572.686345,-1.1215343475341797,-1.6726910076537074,-2.527428929005758,2.2985612589069824,-1.0188854376422327,-0.033649746571676076
1708437572.6883066,-1.1215254068374634,-1.6727191410460414,-2.527529541646139,2.2985779482075195,-1.0188811461078089,-0.03364116350282842
1708437572.6903102,-1.121480107307434,-1.6726790867247523,-2.527482811604635,2.2985538679310302,-1.0189021269427698,-0.03360492387880498
1708437572.6922925,-1.121525526046753,-1.6727024517455042,-2.52747089067568,2.2984909254261474,-1.0189183394061487,-0.033678833638326466
1708437572.6942937,-1.1215299367904663,-1.6726938686766566,-2.52747089067568,2.298595829600952,-1.018914047871725,-0.033661667500631154
1708437572.6962907,-1.1215343475341797,-1.6727024517455042,-2.527417246495382,2.2985448080250244,-1.018897835408346,-0.03364545503725225
1708437572.6983068,-1.1215134859085083,-1.6726938686766566,-2.527482811604635,2.2985283571430664,-1.0188897291766565,-0.03360492387880498
1708437572.7002969,-1.1215418577194214,-1.6726867161192835,-2.527454439793722,2.2985116678425292,-1.0189388434039515,-0.033649746571676076
1708437572.7022948,-1.1215224266052246,-1.6727234325804652,-2.52744704881777,2.2985612589069824,-1.01886493364443,-0.03362447420229131
1708437572.7043023,-1.1215581893920898,-1.6726824245848597,-2.527458969746725,2.298537417049072,-1.0188811461078089,-0.03358823457826787
1708437572.706297,-1.1214876174926758,-1.672743936578268,-2.527482811604635,2.2985283571430664,-1.0188735167132776,-0.03363639513124639
1708437572.7083619,-1.121484637260437,-1.6726981602110804,-2.527478281651632,2.2985657888599853,-1.01886493364443,-0.033661667500631154
1708437572.710364,-1.1215506792068481,-1.6726790867247523,-2.527461830769674,2.2985283571430664,-1.0188811461078089,-0.033600632344381154
1708437572.7123604,-1.1215506792068481,-1.6726705036559046,-2.527482811604635,2.298499746913574,-1.0189226309405726,-0.033637825642721
1708437572.714353,-1.1215507984161377,-1.6726542911925257,-2.527475420628683,2.298504276866577,-1.0188897291766565,-0.033593002949849904
1708437572.7164035,-1.121538758277893,-1.6726910076537074,-2.527482811604635,2.2985448080250244,-1.0189107100116175,-0.033600632344381154
1708437572.718352,-1.1215180158615112,-1.6726938686766566,-2.5274515787707728,2.298562689418457,-1.0188692251788538,-0.03363639513124639
1708437572.7203326,-1.1215715408325195,-1.672671457330221,-2.527491871510641,2.2985238271900634,-1.01886493364443,-0.033591572438375294
1708437572.7224267,-1.1215046644210815,-1.6727148495116175,-2.527487341557638,2.2985238271900634,-1.0188897291766565,-0.033648316060201466
1708437572.7243576,-1.1215224266052246,-1.672706743279928,-2.527458969746725,2.2985312181660156,-1.018853012715475,-0.03362924257387334
1708437572.7263675,-1.1215180158615112,-1.6727148495116175,-2.527475420628683,2.2985867696949462,-1.01886493364443,-0.033608261738912404
1708437572.7283227,-1.1215343475341797,-1.672739645043844,-2.527458969746725,2.2985283571430664,-1.0189150015460413,-0.03362447420229131
1708437572.73031,-1.1215343475341797,-1.6727515659727992,-2.527463499699728,2.2985779482075195,-1.0189107100116175,-0.03361732164491826
1708437572.7322962,-1.1215462684631348,-1.6727153263487757,-2.52744704881777,2.298537417049072,-1.0189269224749964,-0.03360969225038701
1708437572.7343056,-1.1215462684631348,-1.672739645043844,-2.527487341557638,2.2985328870960693,-1.0188615957843226,-0.03360969225038701
1708437572.7363036,-1.1215134859085083,-1.6727024517455042,-2.527466360722677,2.2985328870960693,-1.0188940207110804,-0.03361255327333623
1708437572.7383761,-1.1215670108795166,-1.6726938686766566,-2.527458969746725,2.2985283571430664,-1.0188735167132776,-0.0336993376361292
1708437572.7402935,-1.121516466140747,-1.6726705036559046,-2.527458969746725,2.2984909254261474,-1.0188897291766565,-0.033600632344381154
1708437572.7422998,-1.121555209159851,-1.672743936578268,-2.5274515787707728,2.298504276866577,-1.0188854376422327,-0.03361875215639287
1708437572.7443368,-1.1215373277664185,-1.6726867161192835,-2.527442518864767,2.2985448080250244,-1.0189183394061487,-0.03363973299135381
1708437572.7463207,-1.1215462684631348,-1.6727310619749964,-2.527414147053854,2.298534079188965,-1.0188658873187464,-0.033600632344381154
1708437572.7483222,-1.12152099609375,-1.6726895771422328,-2.527454439793722,2.298516197795532,-1.0188863913165491,-0.03360492387880498
1708437572.7503214,-1.1215671300888062,-1.6727105579771937,-2.52744704881777,2.298471375102661,-1.018848721181051,-0.03360969225038701
1708437572.752324,-1.1215626001358032,-1.6726910076537074,-2.527496401463644,2.298516197795532,-1.0188410917865198,-0.03360969225038701
1708437572.754356,-1.1215671300888062,-1.6726952991881312,-2.52747089067568,2.298471375102661,-1.0188897291766565,-0.03363353410829717
1708437572.7563608,-1.121527075767517,-1.6726705036559046,-2.52744704881777,2.298529787654541,-1.0188778082477015,-0.03362638155092412
1708437572.758378,-1.1215009689331055,-1.672711034814352,-2.5274723211871546,2.2984952169605712,-1.0188539663897913,-0.03363067308534795
1708437572.7603717,-1.1215254068374634,-1.6727191410460414,-2.527475420628683,2.298529787654541,-1.0188410917865198,-0.03361732164491826
1708437572.7623785,-1.121576189994812,-1.6727515659727992,-2.527421538029806,2.2985493379780273,-1.018853012715475,-0.033593002949849904
1708437572.7643409,-1.1215343475341797,-1.6726976833739222,-2.527437988911764,2.298516197795532,-1.0188820997821253,-0.03361732164491826
1708437572.7663374,-1.1215299367904663,-1.6727224789061488,-2.527517859135763,2.2985221582600097,-1.0188453833209437,-0.0335467497455042
1708437572.768335,-1.121509075164795,-1.6727224789061488,-2.527430597935812,2.2985448080250244,-1.0188820997821253,-0.033637825642721
1708437572.7703717,-1.1215671300888062,-1.6727353535094203,-2.527449909840719,2.298550768489502,-1.0188420454608362,-0.03362447420229131
1708437572.7724006,-1.1215299367904663,-1.6726418934264125,-2.527449909840719,2.2985538679310302,-1.0188453833209437,-0.03358823457826787
1708437572.7744634,-1.1215299367904663,-1.672661920587057,-2.527414147053854,2.298537417049072,-1.0188334623919886,-0.03362638155092412
1708437572.7763464,-1.121509075164795,-1.6727386913695277,-2.52744704881777,2.298492355937622,-1.018862549458639,-0.033590141926900685
1708437572.7783227,-1.1215134859085083,-1.6727148495116175,-2.5274890104876917,2.298516197795532,-1.0188377539264124,-0.03360492387880498
1708437572.7803228,-1.121509075164795,-1.6727024517455042,-2.527426067982809,2.298520727748535,-1.018862549458639,-0.03358155885805303
1708437572.7823174,-1.1215046644210815,-1.672743936578268,-2.527417008076803,2.2985328870960693,-1.0188377539264124,-0.03358585039247686
1708437572.784321,-1.1215224266052246,-1.6726981602110804,-2.5274890104876917,2.298471375102661,-1.0188582579242151,-0.03358155885805303
1708437572.7863626,-1.1214964389801025,-1.6726938686766566,-2.527466360722677,2.298513336772583,-1.0188334623919886,-0.03362638155092412
1708437572.7883325,-1.1215611696243286,-1.6727234325804652,-2.527437988911764,2.2985328870960693,-1.0188496748553675,-0.03359729448427373
1708437572.7903442,-1.1215506792068481,-1.6727105579771937,-2.527437988911764,2.298499746913574,-1.018862549458639,-0.033594910298482716
1708437572.7923157,-1.1215298175811768,-1.6727429829039515,-2.527454439793722,2.298546476955078,-1.0188258329974573,-0.03356010118593389
1708437572.7943237,-1.1215299367904663,-1.672673841516012,-2.527437988911764,2.2984954553791503,-1.018862549458639,-0.03360158601869756
1708437572.7963307,-1.1215224266052246,-1.6727353535094203,-2.527405087147848,2.2985116678425292,-1.0188301245318812,-0.03361398378481084
1708437572.7983255,-1.1215254068374634,-1.6726705036559046,-2.527475420628683,2.298499746913574,-1.018801514302389,-0.033576790486471
1708437572.8003166,-1.121555209159851,-1.6727515659727992,-2.5274515787707728,2.298504276866577,-1.0188301245318812,-0.03358155885805303
1708437572.8023255,-1.1215134859085083,-1.6726705036559046,-2.527421538029806,2.298504276866577,-1.0188387076007288,-0.03361398378481084
1708437572.804338,-1.1215671300888062,-1.6727191410460414,-2.5273974577533167,2.298520727748535,-1.0188139120685022,-0.03356916109193975
1708437572.8063364,-1.1215134859085083,-1.6726576290526332,-2.5274606386767786,2.298516197795532,-1.0188582579242151,-0.03356916109193975
1708437572.8083804,-1.1215418577194214,-1.6727024517455042,-2.5274606386767786,2.2985538679310302,-1.0188053289996546,-0.03363067308534795
1708437572.8103957,-1.121538758277893,-1.672706743279928,-2.5274606386767786,2.2985657888599853,-1.0188096205340784,-0.03356010118593389
1708437572.8123794,-1.121500849723816,-1.6727224789061488,-2.5274441877948206,2.298525257701538,-1.0188096205340784,-0.03353625932802373
1708437572.8143568,-1.1215134859085083,-1.6727429829039515,-2.5274232069598597,2.298499746913574,-1.0187771956073206,-0.033590141926900685
1708437572.81634,-1.1215134859085083,-1.6727234325804652,-2.5274351278888147,2.298558397884033,-1.0188377539264124,-0.03358585039247686
1708437572.8183646,-1.1215462684631348,-1.672680994073385,-2.5274277369128626,2.298471375102661,-1.0188058058368128,-0.03355247179140264
1708437572.8203676,-1.1215715408325195,-1.672739645043844,-2.5273900667773646,2.298562689418457,-1.0188139120685022,-0.03358155885805303
1708437572.8223772,-1.1215834617614746,-1.6727062664427699,-2.527409617100851,2.298537417049072,-1.018790070210592,-0.03352719942201787
1708437572.8243697,-1.1215224266052246,-1.6727191410460414,-2.5274277369128626,2.298574610347412,-1.0188267866717737,-0.03354055086244756
1708437572.8263018,-1.1215134859085083,-1.6727224789061488,-2.527414147053854,2.298516197795532,-1.0188096205340784,-0.033531967793599904
1708437572.8283074,-1.1215581893920898,-1.6727062664427699,-2.5274770895587366,2.298516197795532,-1.0188139120685022,-0.03354055086244756
1708437572.8303137,-1.1216298341751099,-1.672673841516012,-2.5274515787707728,2.298516197795532,-1.0188029448138636,-0.03359729448427373
1708437572.8323212,-1.1215879917144775,-1.6727148495116175,-2.5273688475238245,2.298483296031616,-1.0188310782061976,-0.03356916109193975
1708437572.8343234,-1.1214936971664429,-1.6727191410460414,-2.5274110476123255,2.2985328870960693,-1.018790070210592,-0.033599201832906544
1708437572.8363209,-1.1215418577194214,-1.6727353535094203,-2.5274232069598597,2.298499746913574,-1.018801514302389,-0.033582512532369435
1708437572.8383183,-1.1215760707855225,-1.6727105579771937,-2.5274367968188685,2.298520727748535,-1.0188058058368128,-0.03353625932802373
1708437572.8403137,-1.1215299367904663,-1.6727267704405726,-2.5273855368243616,2.2985116678425292,-1.018834416066305,-0.033531967793599904
1708437572.8423243,-1.1215462684631348,-1.6727224789061488,-2.5274277369128626,2.298537417049072,-1.018818203602926,-0.03354961076845342
1708437572.8443248,-1.1215299367904663,-1.6727353535094203,-2.5274065176593226,2.298541947002075,-1.0188353697406214,-0.0335615316974085
1708437572.8463058,-1.121555209159851,-1.6727234325804652,-2.5274186770068567,2.2985221582600097,-1.0188058058368128,-0.03360158601869756
1708437572.8483388,-1.121504545211792,-1.6727062664427699,-2.5273991266833704,2.2985328870960693,-1.018790070210592,-0.033599201832906544
1708437572.8503056,-1.1215180158615112,-1.672788759271139,-2.5273855368243616,2.298496885890625,-1.0187614599811,-0.033565823231832326
1708437572.8523078,-1.121525526046753,-1.6726981602110804,-2.5274110476123255,2.298550768489502,-1.018790070210592,-0.033556763325826466
1708437572.8543158,-1.1214964389801025,-1.6727191410460414,-2.5274351278888147,2.29848496496167,-1.0187972227679651,-0.03354961076845342
1708437572.856358,-1.1215299367904663,-1.6726981602110804,-2.5274725596057337,2.298537417049072,-1.018773380910055,-0.03355390230287725
1708437572.858411,-1.1215506792068481,-1.6726976833739222,-2.5274110476123255,2.298475905055664,-1.018773380910055,-0.03354531923402959
1708437572.8603542,-1.1215537786483765,-1.6727754078307093,-2.5273810068713587,2.298525257701538,-1.018818203602926,-0.03354961076845342
1708437572.862344,-1.1215434074401855,-1.6726981602110804,-2.5274396578418177,2.298492355937622,-1.018794361745016,-0.03354961076845342
1708437572.864339,-1.1215790510177612,-1.6727267704405726,-2.5274019877063196,2.29850880681958,-1.0187986532794397,-0.033573452626363576
1708437572.8663409,-1.1215178966522217,-1.6726447544493617,-2.5274651686297815,2.29847161352124,-1.018790070210592,-0.0335615316974085
1708437572.868368,-1.1214890480041504,-1.6727310619749964,-2.5274110476123255,2.2985116678425292,-1.0188029448138636,-0.03355390230287725
1708437572.8704069,-1.1215053796768188,-1.6727472744383753,-2.5274065176593226,2.298520727748535,-1.0187819639789026,-0.03354961076845342
1708437572.8724022,-1.1215715408325195,-1.6727310619749964,-2.5273824373828333,2.298443003291748,-1.018794361745016,-0.033507649098531544
1708437572.8743858,-1.1215418577194214,-1.6727353535094203,-2.5274065176593226,2.298513336772583,-1.0188310782061976,-0.03354961076845342
1708437572.8763695,-1.121500849723816,-1.6727472744383753,-2.5274232069598597,2.2985328870960693,-1.0187657515155237,-0.03356296220888311
1708437572.8783648,-1.12152099609375,-1.6726867161192835,-2.5273855368243616,2.298499746913574,-1.0187776724444788,-0.033556763325826466
1708437572.8803575,-1.1215254068374634,-1.6727515659727992,-2.5274065176593226,2.298487825984619,-1.018794361745016,-0.033582512532369435
1708437572.88236,-1.121509075164795,-1.6727310619749964,-2.5273945967303675,2.298525257701538,-1.0187862555133265,-0.03354055086244756
1708437572.8843195,-1.1215506792068481,-1.6727472744383753,-2.5274186770068567,2.298551006908081,-1.0187538305865687,-0.03355390230287725
1708437572.8863387,-1.121504545211792,-1.6727224789061488,-2.5274110476123255,2.298516197795532,-1.0187614599811,-0.03355390230287725
1708437572.888313,-1.1215434074401855,-1.6726895771422328,-2.5274441877948206,2.298513336772583,-1.0187700430499476,-0.03355390230287725
1708437572.8903587,-1.1215745210647583,-1.6727310619749964,-2.5274606386767786,2.298537417049072,-1.0188143889056605,-0.03352576891054326
1708437572.892323,-1.121504545211792,-1.6727353535094203,-2.5273974577533167,2.298546476955078,-1.0187495390521448,-0.03352576891054326
1708437572.8943167,-1.1215671300888062,-1.6727234325804652,-2.5274351278888147,2.29848496496167,-1.0187743345843714,-0.03354245821108037
1708437572.8963356,-1.1215180158615112,-1.6727024517455042,-2.5274019877063196,2.298520727748535,-1.018794361745016,-0.03353768983949834
1708437572.898313,-1.1215254068374634,-1.6726938686766566,-2.5274019877063196,2.298525257701538,-1.0188353697406214,-0.03354245821108037
1708437572.9003506,-1.1215343475341797,-1.6726976833739222,-2.5274155775653284,2.2984623151966552,-1.018773380910055,-0.03354245821108037
1708437572.902379,-1.121543526649475,-1.6727234325804652,-2.5273991266833704,2.2985493379780273,-1.018799130116598,-0.03353768983949834
1708437572.904336,-1.1215180158615112,-1.6727515659727992,-2.527375046406881,2.2985493379780273,-1.0188058058368128,-0.03348380724062139
1708437572.906327,-1.121480107307434,-1.672678133050436,-2.5274110476123255,2.29850880681958,-1.0187819639789026,-0.03353768983949834
1708437572.9084508,-1.1214920282363892,-1.6726981602110804,-2.5274232069598597,2.298541947002075,-1.0187862555133265,-0.03358680406679326
1708437572.9103396,-1.1215506792068481,-1.672739645043844,-2.5274019877063196,2.2985238271900634,-1.0187986532794397,-0.03354055086244756
1708437572.9123685,-1.1215506792068481,-1.6727353535094203,-2.5274019877063196,2.29850880681958,-1.0188072363482874,-0.03353339830507451
1708437572.914348,-1.121504545211792,-1.6727148495116175,-2.5274036566363733,2.2985386091419677,-1.0187862555133265,-0.03351766267885381
1708437572.9163296,-1.1215254068374634,-1.672645708123678,-2.5273526350604456,2.298513336772583,-1.0187495390521448,-0.03357059160341436
1708437572.9183533,-1.1215134859085083,-1.6727191410460414,-2.5273824373828333,2.298496885890625,-1.018773380910055,-0.033574883137838185
1708437572.9203656,-1.121509075164795,-1.6727267704405726,-2.5273733774768274,2.298496885890625,-1.0187528769122522,-0.03355867067445928
1708437572.922376,-1.1215134859085083,-1.6727224789061488,-2.5274110476123255,2.2984682756611328,-1.0187776724444788,-0.033509079610006154
1708437572.924372,-1.1215373277664185,-1.6727429829039515,-2.5273945967303675,2.298516197795532,-1.0188029448138636,-0.03355867067445928
1708437572.9263136,-1.1215343475341797,-1.6727024517455042,-2.5274322668658655,2.2985493379780273,-1.0187862555133265,-0.033500019704000294
1708437572.928323,-1.1215418577194214,-1.6726981602110804,-2.5273991266833704,2.298504276866577,-1.0187700430499476,-0.03349286714662725
1708437572.930312,-1.121504545211792,-1.6727353535094203,-2.5273945967303675,2.298537417049072,-1.0187776724444788,-0.0335467497455042
1708437572.9323072,-1.1215550899505615,-1.6727148495116175,-2.5273779074298304,2.298558159465454,-1.0188029448138636,-0.03354531923402959
1708437572.934314,-1.1215373277664185,-1.6727310619749964,-2.5274201075183313,2.298516197795532,-1.0187819639789026,-0.03352576891054326
1708437572.9363155,-1.1215462684631348,-1.672680517236227,-2.5274036566363733,2.298520727748535,-1.0188100973712366,-0.033512417470113576
1708437572.9383454,-1.1215462684631348,-1.672706743279928,-2.5274186770068567,2.298487825984619,-1.0187700430499476,-0.03356773058046514
1708437572.9403338,-1.1215180158615112,-1.6727105579771937,-2.5273974577533167,2.298546238536499,-1.0187495390521448,-0.03354245821108037
1708437572.9423056,-1.1215671300888062,-1.6727234325804652,-2.5273900667773646,2.298525257701538,-1.018757168446676,-0.033512417470113576
1708437572.9443264,-1.1215180158615112,-1.672739645043844,-2.5274110476123255,2.298534079188965,-1.0187409559832972,-0.03357059160341436
1708437572.9462965,-1.1215001344680786,-1.6727191410460414,-2.5274110476123255,2.298525257701538,-1.0187614599811,-0.03355724016298467
1708437572.9483204,-1.1215343475341797,-1.6727062664427699,-2.5274232069598597,2.2985328870960693,-1.0187862555133265,-0.03355390230287725
1708437572.9502945,-1.1215388774871826,-1.6727267704405726,-2.5274441877948206,2.298513336772583,-1.0187862555133265,-0.03353339830507451
1708437572.9522984,-1.121559739112854,-1.6727310619749964,-2.5273900667773646,2.29850880681958,-1.0187776724444788,-0.03348380724062139
1708437572.9543102,-1.121564269065857,-1.672727724114889,-2.5274277369128626,2.298492355937622,-1.0187776724444788,-0.03352100053896123
1708437572.9563181,-1.1215506792068481,-1.6727429829039515,-2.5274110476123255,2.298475905055664,-1.018773380910055,-0.033500019704000294
1708437572.9584484,-1.121500849723816,-1.6726981602110804,-2.5274186770068567,2.2984670835682373,-1.0187776724444788,-0.03348857561220342
1708437572.9603703,-1.121555209159851,-1.672706743279928,-2.527430597935812,2.298574610347412,-1.0187862555133265,-0.03350192705263311
1708437572.9623523,-1.121509075164795,-1.6727224789061488,-2.5273659865008753,2.29850880681958,-1.018790070210592,-0.033574883137838185
1708437572.964356,-1.1215506792068481,-1.6727267704405726,-2.5274019877063196,2.298483296031616,-1.0188472906695765,-0.03348857561220342
1708437572.9663455,-1.121538758277893,-1.6727267704405726,-2.5273945967303675,2.298496885890625,-1.0188186804400843,-0.03346234956850225
1708437572.9683352,-1.1215343475341797,-1.6727148495116175,-2.5273945967303675,2.29856721937146,-1.018794361745016,-0.03348857561220342
1708437572.9703145,-1.1215298175811768,-1.672739645043844,-2.5274110476123255,2.298537417049072,-1.0187862555133265,-0.03348857561220342
1708437572.9723997,-1.1215418577194214,-1.672711034814352,-2.5274413267718714,2.2984954553791503,-1.0188515822040003,-0.033500019704000294
1708437572.9744003,-1.1215506792068481,-1.6727148495116175,-2.5273974577533167,2.298488064403198,-1.0187986532794397,-0.03355867067445928
1708437572.9763234,-1.1215180158615112,-1.6727267704405726,-2.5273659865008753,2.298488064403198,-1.018801514302389,-0.03358680406679326
1708437572.9783394,-1.1215506792068481,-1.6727024517455042,-2.5274396578418177,2.298516197795532,-1.018801514302389,-0.03356296220888311
1708437572.980321,-1.1215550899505615,-1.6727024517455042,-2.5274110476123255,2.2985448080250244,-1.0187986532794397,-0.0335467497455042
1708437572.9823513,-1.1215581893920898,-1.6726981602110804,-2.5274606386767786,2.298501415843628,-1.0188429991351526,-0.033579651509420216
1708437572.98432,-1.12152099609375,-1.672706743279928,-2.5274351278888147,2.298513336772583,-1.018834416066305,-0.03359586397279912
1708437572.986354,-1.1215790510177612,-1.6727024517455042,-2.5274186770068567,2.298513336772583,-1.0187690893756312,-0.03354961076845342
1708437572.9883976,-1.121509075164795,-1.6727148495116175,-2.5274277369128626,2.2984670835682373,-1.018818203602926,-0.03355390230287725
1708437572.9903204,-1.121509075164795,-1.672706743279928,-2.5274367968188685,2.2985538679310302,-1.0188100973712366,-0.03349763551820928
1708437572.99231,-1.1215790510177612,-1.6727601490416468,-2.5274065176593226,2.298529549235962,-1.018801514302389,-0.03354961076845342
1708437572.9943383,-1.1215864419937134,-1.6727310619749964,-2.5274515787707728,2.298496885890625,-1.0188310782061976,-0.03351766267885381
1708437572.9963608,-1.1215373277664185,-1.6727148495116175,-2.5274110476123255,2.298513336772583,-1.0188472906695765,-0.03352576891054326
1708437572.9983537,-1.121587872505188,-1.672645708123678,-2.5274396578418177,2.298496885890625,-1.0188267866717737,-0.03346711794008428
1708437573.0003715,-1.1215581893920898,-1.672678133050436,-2.5274515787707728,2.298487825984619,-1.01882249513735,-0.033516709004537404
1708437573.0023403,-1.1215506792068481,-1.672706743279928,-2.5274019877063196,2.298522396678589,-1.0188267866717737,-0.033500019704000294
1708437573.0043578,-1.1215224266052246,-1.6726910076537074,-2.5274065176593226,2.298496885890625,-1.0188472906695765,-0.03350431123842412
1708437573.0063345,-1.1215598583221436,-1.6727234325804652,-2.5274155775653284,2.298525257701538,-1.0188429991351526,-0.033512417470113576
1708437573.0084543,-1.1215790510177612,-1.6726938686766566,-2.5274232069598597,2.298480435008667,-1.0188100973712366,-0.03353339830507451
1708437573.0103726,-1.1215134859085083,-1.6726938686766566,-2.5274232069598597,2.298588200206421,-1.0188139120685022,-0.03353006044496709
1708437573.0123558,-1.12152099609375,-1.6727878055968226,-2.5274065176593226,2.298459454173706,-1.0188139120685022,-0.033509079610006154
1708437573.0143557,-1.1215626001358032,-1.6727148495116175,-2.5274277369128626,2.298546238536499,-1.018834416066305,-0.03352576891054326
1708437573.0163221,-1.1215626001358032,-1.6727267704405726,-2.5274561087237757,2.298504276866577,-1.018834416066305,-0.03352862993349248
1708437573.0183303,-1.1215626001358032,-1.6726981602110804,-2.5274484793292444,2.298496885890625,-1.0188592115985315,-0.03352100053896123
1708437573.0203292,-1.1215299367904663,-1.6726867161192835,-2.5274232069598597,2.298525257701538,-1.01884633699526,-0.03348857561220342
1708437573.0223365,-1.121504545211792,-1.6727024517455042,-2.5274019877063196,2.2984954553791503,-1.0187857786761683,-0.03352100053896123
1708437573.0244226,-1.1215506792068481,-1.6726938686766566,-2.5273974577533167,2.2985328870960693,-1.0187647978412073,-0.03351766267885381
1708437573.026378,-1.1215373277664185,-1.6726895771422328,-2.5274351278888147,2.2985328870960693,-1.0187972227679651,-0.03349286714662725
1708437573.028345,-1.121509075164795,-1.6727234325804652,-2.5274186770068567,2.298525257701538,-1.0188301245318812,-0.03352576891054326
1708437573.0303392,-1.1215299367904663,-1.6727024517455042,-2.5274396578418177,2.29850880681958,-1.0188420454608362,-0.03347474733461553
1708437573.0323052,-1.1215506792068481,-1.6727024517455042,-2.5274606386767786,2.298516197795532,-1.0188549200641077,-0.033516709004537404
1708437573.0343077,-1.1215462684631348,-1.6727148495116175,-2.5274396578418177,2.298517866725586,-1.0188301245318812,-0.03352576891054326
1708437573.036313,-1.1215009689331055,-1.672680517236227,-2.5274441877948206,2.298562689418457,-1.0188506285296839,-0.03352576891054326
1708437573.0383258,-1.121559739112854,-1.6727267704405726,-2.5274844805346888,2.2984954553791503,-1.0188258329974573,-0.03349286714662725
1708437573.0403533,-1.1215134859085083,-1.6727148495116175,-2.5274606386767786,2.2984670835682373,-1.0188830534564417,-0.03352862993349248
1708437573.0423033,-1.1215343475341797,-1.6727796993651332,-2.5274186770068567,2.2984909254261474,-1.0188787619220179,-0.03354245821108037
1708437573.044337,-1.1215343475341797,-1.6727234325804652,-2.52744704881777,2.298541947002075,-1.0188258329974573,-0.03347522417177373
1708437573.0463262,-1.1215851306915283,-1.672783990899557,-2.5274110476123255,2.2985283571430664,-1.0188139120685022,-0.033509079610006154
1708437573.0483227,-1.1215224266052246,-1.6727472744383753,-2.5274396578418177,2.298492355937622,-1.0188701788531702,-0.03356296220888311
1708437573.050311,-1.1215506792068481,-1.6727105579771937,-2.5274396578418177,2.298499746913574,-1.0187929312335413,-0.03355867067445928
1708437573.0523102,-1.1215715408325195,-1.6726938686766566,-2.527430597935812,2.298570080394409,-1.0188582579242151,-0.03353768983949834
1708437573.0543325,-1.121500849723816,-1.6727320156493128,-2.5274515787707728,2.298525257701538,-1.0188291708575647,-0.03354961076845342
1708437573.056308,-1.121587872505188,-1.6727920971312464,-2.5274065176593226,2.298504276866577,-1.018796745930807,-0.03352576891054326
1708437573.0584478,-1.1215537786483765,-1.6727148495116175,-2.5274277369128626,2.298541708583496,-1.0188582579242151,-0.033574883137838185
1708437573.0603418,-1.1215462684631348,-1.6727234325804652,-2.5274277369128626,2.298529787654541,-1.0188377539264124,-0.03353339830507451
1708437573.0623832,-1.1215909719467163,-1.6727711162962855,-2.5274561087237757,2.2984670835682373,-1.0188420454608362,-0.033509079610006154
1708437573.0643551,-1.1215627193450928,-1.6726981602110804,-2.5274890104876917,2.298541947002075,-1.01884633699526,-0.03356773058046514
1708437573.0663428,-1.12152099609375,-1.672678133050436,-2.5274186770068567,2.298537417049072,-1.0188658873187464,-0.033516709004537404
1708437573.0683846,-1.121538758277893,-1.6727267704405726,-2.5274396578418177,2.298517866725586,-1.0188291708575647,-0.033599201832906544
1708437573.0704172,-1.1215745210647583,-1.6727234325804652,-2.5274396578418177,2.298516197795532,-1.0188539663897913,-0.03353768983949834
1708437573.0723684,-1.12152099609375,-1.6727353535094203,-2.5274232069598597,2.298525257701538,-1.0188701788531702,-0.033516709004537404
1708437573.0743597,-1.1215417385101318,-1.6726952991881312,-2.5273974577533167,2.298562689418457,-1.018902603779928,-0.033556763325826466
1708437573.0763547,-1.1215462684631348,-1.6727148495116175,-2.5274351278888147,2.298504276866577,-1.0188129583941858,-0.03354961076845342
1708437573.0783775,-1.1215134859085083,-1.67273010830068,-2.52744704881777,2.298520727748535,-1.0188496748553675,-0.03356296220888311
1708437573.0804155,-1.1215134859085083,-1.6726976833739222,-2.5273974577533167,2.2984670835682373,-1.018862549458639,-0.03355867067445928
1708437573.0823863,-1.121538758277893,-1.6727024517455042,-2.5274232069598597,2.298525257701538,-1.0188377539264124,-0.03357059160341436
1708437573.08437,-1.1215343475341797,-1.6726824245848597,-2.527430597935812,2.298522396678589,-1.0188453833209437,-0.03354055086244756
1708437573.0863566,-1.1215299367904663,-1.6727148495116175,-2.5274232069598597,2.298499746913574,-1.018902603779928,-0.03357059160341436
1708437573.0883765,-1.1215715408325195,-1.6727515659727992,-2.5274680296527308,2.2984999853321533,-1.0188778082477015,-0.03358680406679326
1708437573.09035,-1.1215373277664185,-1.6727105579771937,-2.5274232069598597,2.298504276866577,-1.0188940207110804,-0.03357059160341436
1708437573.0923078,-1.1215299367904663,-1.6727353535094203,-2.5274515787707728,2.298546238536499,-1.0189312140094202,-0.033500019704000294
1708437573.0943072,-1.1215254068374634,-1.6727267704405726,-2.527426067982809,2.2985328870960693,-1.0189269224749964,-0.03354531923402959
1708437573.096299,-1.1215581893920898,-1.672678133050436,-2.527430597935812,2.298504276866577,-1.0188778082477015,-0.03354055086244756
1708437573.0983121,-1.1215506792068481,-1.6727267704405726,-2.527421538029806,2.298480435008667,-1.0188410917865198,-0.03354961076845342
1708437573.1003184,-1.121538758277893,-1.6726976833739222,-2.527426067982809,2.298516197795532,-1.018848721181051,-0.03357059160341436
1708437573.10236,-1.121555209159851,-1.6726952991881312,-2.5274887720691126,2.29846374570813,-1.0188940207110804,-0.03354961076845342
1708437573.1043432,-1.1215790510177612,-1.6727224789061488,-2.527421538029806,2.298504276866577,-1.0188615957843226,-0.03357059160341436
1708437573.1063435,-1.1215879917144775,-1.6727105579771937,-2.527442518864767,2.2984625536152343,-1.01886493364443,-0.03354531923402959
1708437573.108415,-1.121538758277893,-1.6727515659727992,-2.5273929278003138,2.298496885890625,-1.0188854376422327,-0.033599201832906544
1708437573.1103575,-1.1215626001358032,-1.6727353535094203,-2.527400795613424,2.298499746913574,-1.0188897291766565,-0.03357059160341436
1708437573.1123545,-1.1215671300888062,-1.6727024517455042,-2.527405087147848,2.29850880681958,-1.018897835408346,-0.033599201832906544
1708437573.1143975,-1.1215462684631348,-1.672783990899557,-2.5274561087237757,2.298480435008667,-1.0189183394061487,-0.03357059160341436
1708437573.1163237,-1.1215134859085083,-1.6727148495116175,-2.527487341557638,2.29850880681958,-1.0189345518695276,-0.033594910298482716
1708437573.1183178,-1.121538758277893,-1.6727353535094203,-2.527479950581686,2.298529787654541,-1.0189021269427698,-0.03361970583070928
1708437573.120353,-1.1215506792068481,-1.6727148495116175,-2.52744704881777,2.298562689418457,-1.0189302603351038,-0.03353768983949834
1708437573.1223724,-1.1215715408325195,-1.6727105579771937,-2.5274561087237757,2.298546238536499,-1.018914047871725,-0.033582512532369435
1708437573.1243951,-1.1215671300888062,-1.6727234325804652,-2.527426067982809,2.2984670835682373,-1.018909756337301,-0.033594910298482716
1708437573.1263366,-1.1214964389801025,-1.6727353535094203,-2.5274110476123255,2.298513336772583,-1.018909756337301,-0.03354531923402959
1708437573.1283004,-1.121587872505188,-1.6727482281126917,-2.5274890104876917,2.298537417049072,-1.0188854376422327,-0.033516709004537404
1708437573.1303067,-1.1215626001358032,-1.6727644405760707,-2.5274725596057337,2.298546238536499,-1.0188811461078089,-0.033565823231832326
1708437573.132343,-1.1215506792068481,-1.6727024517455042,-2.527430597935812,2.298517866725586,-1.018897835408346,-0.033524338399068654
1708437573.1343095,-1.1215462684631348,-1.672739645043844,-2.5274065176593226,2.2985240656086425,-1.0189335981952112,-0.03360635439027959
1708437573.136304,-1.1215806007385254,-1.6726933918394984,-2.5274725596057337,2.298513336772583,-1.018897835408346,-0.033573452626363576
1708437573.138359,-1.121527075767517,-1.6726981602110804,-2.5274768511401575,2.2985328870960693,-1.0188854376422327,-0.03360635439027959
1708437573.140343,-1.1215254068374634,-1.6727148495116175,-2.527430597935812,2.298475905055664,-1.0188940207110804,-0.033565823231832326
1708437573.1423094,-1.121538758277893,-1.672697206536764,-2.527426067982809,2.298504276866577,-1.0189021269427698,-0.03357059160341436
1708437573.1443315,-1.1215550899505615,-1.6727472744383753,-2.5274019877063196,2.29850880681958,-1.018897835408346,-0.033594910298482716
1708437573.1463003,-1.1215537786483765,-1.6727310619749964,-2.5274019877063196,2.2985266882130126,-1.0189421812640589,-0.03354055086244756
1708437573.1483278,-1.121509075164795,-1.6727472744383753,-2.5274186770068567,2.298516197795532,-1.018897835408346,-0.033573452626363576
1708437573.150325,-1.1215462684631348,-1.6727191410460414,-2.5274232069598597,2.298504276866577,-1.018914047871725,-0.03355247179140264
1708437573.1523044,-1.1215224266052246,-1.6726867161192835,-2.527428929005758,2.298550768489502,-1.0188811461078089,-0.03354055086244756
1708437573.1543276,-1.12152099609375,-1.6727234325804652,-2.5273974577533167,2.2985538679310302,-1.0189183394061487,-0.033524338399068654
1708437573.15633,-1.1215343475341797,-1.6726705036559046,-2.527475420628683,2.29850880681958,-1.0189550558673304,-0.03354531923402959
1708437573.1583998,-1.1215121746063232,-1.6727148495116175,-2.527458969746725,2.29850880681958,-1.0189183394061487,-0.033599201832906544
1708437573.1603692,-1.1215462684631348,-1.6726981602110804,-2.527463499699728,2.2985116678425292,-1.0189345518695276,-0.033524338399068654
1708437573.1623442,-1.121509075164795,-1.6727191410460414,-2.5274232069598597,2.29850880681958,-1.0188897291766565,-0.03355247179140264
1708437573.1643765,-1.1215745210647583,-1.6727625332274378,-2.5274561087237757,2.298529787654541,-1.0189064184771937,-0.03354055086244756
1708437573.1663532,-1.1215715408325195,-1.6727105579771937,-2.5274277369128626,2.2985221582600097,-1.0189216772662562,-0.03356916109193975
1708437573.1683388,-1.1215134859085083,-1.6727224789061488,-2.5274065176593226,2.298496885890625,-1.0189183394061487,-0.033573452626363576
1708437573.170347,-1.1215715408325195,-1.6727267704405726,-2.5274561087237757,2.2984790044971923,-1.0189388434039515,-0.033574883137838185
1708437573.1724,-1.1215434074401855,-1.6726576290526332,-2.527442518864767,2.2985328870960693,-1.0188897291766565,-0.0335615316974085
1708437573.174427,-1.1214964389801025,-1.6727754078307093,-2.5274441877948206,2.298475905055664,-1.0188940207110804,-0.03355390230287725
1708437573.176424,-1.1215009689331055,-1.6727062664427699,-2.527463499699728,2.2985612589069824,-1.0188811461078089,-0.03354531923402959
1708437573.1783142,-1.1215254068374634,-1.6726938686766566,-2.5274186770068567,2.298516197795532,-1.0189269224749964,-0.033590141926900685
1708437573.180341,-1.121555209159851,-1.6726576290526332,-2.5274770895587366,2.298520727748535,-1.01886493364443,-0.03354961076845342
1708437573.1823142,-1.1215550899505615,-1.6726576290526332,-2.527409617100851,2.298516197795532,-1.0189021269427698,-0.033574883137838185
1708437573.1843107,-1.1215790510177612,-1.6726981602110804,-2.527430597935812,2.298562689418457,-1.0189021269427698,-0.03352862993349248
1708437573.1863003,-1.1215417385101318,-1.6726576290526332,-2.527437988911764,2.298499746913574,-1.0188778082477015,-0.03354818025697881
1708437573.1883402,-1.1215715408325195,-1.6727925739684046,-2.527458969746725,2.298550768489502,-1.0188778082477015,-0.033599201832906544
1708437573.1903405,-1.1215626001358032,-1.6727625332274378,-2.527463499699728,2.2985328870960693,-1.0188453833209437,-0.033556763325826466
1708437573.1923196,-1.1215790510177612,-1.6727310619749964,-2.527400795613424,2.298558159465454,-1.0188539663897913,-0.03356916109193975
1708437573.1943412,-1.1215462684631348,-1.6726747951903285,-2.5274351278888147,2.298537417049072,-1.0188940207110804,-0.033594910298482716
1708437573.1963415,-1.1214712858200073,-1.6727239094176234,-2.527442518864767,2.298525257701538,-1.0188453833209437,-0.03354055086244756
1708437573.1983209,-1.1215462684631348,-1.6727148495116175,-2.5274723211871546,2.298499746913574,-1.0188863913165491,-0.0335615316974085
1708437573.200338,-1.1215462684631348,-1.6727472744383753,-2.5274515787707728,2.298520727748535,-1.0188615957843226,-0.03354055086244756
1708437573.202307,-1.1215626001358032,-1.6726652584471644,-2.52744704881777,2.2984835344501953,-1.0188668409930628,-0.0335615316974085
1708437573.2043037,-1.1215254068374634,-1.6727224789061488,-2.5274351278888147,2.2985283571430664,-1.0188215414630335,-0.033565823231832326
1708437573.2063026,-1.121555209159851,-1.6726767025389613,-2.527405325566427,2.29850880681958,-1.0188582579242151,-0.033565823231832326
1708437573.2083397,-1.121587872505188,-1.6727148495116175,-2.52744704881777,2.2984863954731445,-1.0188377539264124,-0.033565823231832326
1708437573.210349,-1.1215506792068481,-1.6727267704405726,-2.52744704881777,2.298504276866577,-1.0188334623919886,-0.03352862993349248
1708437573.212357,-1.121509075164795,-1.6727057896056117,-2.527458969746725,2.298546238536499,-1.0188172499286097,-0.03354341188539678
1708437573.2143526,-1.1215053796768188,-1.6727310619749964,-2.5274019877063196,2.2984537321278076,-1.01884633699526,-0.033524338399068654
1708437573.2163286,-1.1215373277664185,-1.6727062664427699,-2.527430597935812,2.298541708583496,-1.0188377539264124,-0.03353625932802373
1708437573.218328,-1.12152099609375,-1.6727353535094203,-2.52740985551943,2.2985283571430664,-1.0188301245318812,-0.03354961076845342
1708437573.2203295,-1.1215506792068481,-1.6727472744383753,-2.527421538029806,2.298504276866577,-1.0188506285296839,-0.033599201832906544
1708437573.222353,-1.12159264087677,-1.6727024517455042,-2.5274186770068567,2.298525257701538,-1.018790070210592,-0.033603970204488576
1708437573.2243533,-1.12152099609375,-1.6727267704405726,-2.5274277369128626,2.298488064403198,-1.0188053289996546,-0.033594910298482716
1708437573.2263522,-1.1215537786483765,-1.6727224789061488,-2.5274232069598597,2.298504276866577,-1.0187929312335413,-0.033590141926900685
1708437573.2283204,-1.12152099609375,-1.672673841516012,-2.527426067982809,2.2984952169605712,-1.0188139120685022,-0.03360635439027959
1708437573.2303174,-1.1215506792068481,-1.6727148495116175,-2.5274277369128626,2.298562689418457,-1.0187814871417444,-0.033486191426412404
1708437573.2323148,-1.1215671300888062,-1.672678133050436,-2.5274651686297815,2.298459454173706,-1.018790070210592,-0.03358680406679326
1708437573.2343063,-1.121509075164795,-1.6727062664427699,-2.5274110476123255,2.298516197795532,-1.0187857786761683,-0.03354961076845342
1708437573.2363193,-1.1214920282363892,-1.6727105579771937,-2.527414147053854,2.298541947002075,-1.018801514302389,-0.03351957002748662
1708437573.238324,-1.1215537786483765,-1.6726867161192835,-2.5273929278003138,2.298487825984619,-1.0188387076007288,-0.03355247179140264
1708437573.2403018,-1.1215506792068481,-1.672706743279928,-2.5273857752429407,2.298499746913574,-1.0187857786761683,-0.0335615316974085
1708437573.2422948,-1.1215418577194214,-1.6727024517455042,-2.5274351278888147,2.2985328870960693,-1.018790070210592,-0.033582512532369435
1708437573.244304,-1.121509075164795,-1.6727234325804652,-2.5274065176593226,2.298525257701538,-1.0187657515155237,-0.03353339830507451
1708437573.2462995,-1.1215134859085083,-1.6727353535094203,-2.5274065176593226,2.298525257701538,-1.0187986532794397,-0.03357822099794561
1708437573.2483184,-1.1215418577194214,-1.6727310619749964,-2.5273945967303675,2.298529787654541,-1.018773380910055,-0.03353768983949834
1708437573.25032,-1.121496558189392,-1.6727601490416468,-2.5274322668658655,2.29846374570813,-1.0187614599811,-0.03354531923402959
1708437573.252302,-1.1215462684631348,-1.6727310619749964,-2.5274019877063196,2.2985328870960693,-1.0187614599811,-0.03353339830507451
1708437573.2543106,-1.121555209159851,-1.672800680200094,-2.5273855368243616,2.298541947002075,-1.0187700430499476,-0.033490959797994435
1708437573.2563124,-1.121555209159851,-1.6726938686766566,-2.5274322668658655,2.298516197795532,-1.0187862555133265,-0.033516709004537404
1708437573.258354,-1.1215506792068481,-1.6726867161192835,-2.5273824373828333,2.298579140300415,-1.0187538305865687,-0.03353768983949834
1708437573.2603714,-1.1215462684631348,-1.6726824245848597,-2.5273945967303675,2.2984835344501953,-1.0187256971942347,-0.033591572438375294
1708437573.262334,-1.1215373277664185,-1.6727310619749964,-2.5273945967303675,2.298520727748535,-1.0187299887286585,-0.03355390230287725
1708437573.2643476,-1.1215626001358032,-1.6727224789061488,-2.5274155775653284,2.298529787654541,-1.0187667051898401,-0.03358680406679326
1708437573.2663267,-1.1215134859085083,-1.6726895771422328,-2.5274036566363733,2.2984835344501953,-1.0187018553363245,-0.033507649098531544
1708437573.2683268,-1.1215134859085083,-1.6726662121214808,-2.5273824373828333,2.298520727748535,-1.0187094847308558,-0.033509079610006154
1708437573.270325,-1.1215418577194214,-1.6726981602110804,-2.5273945967303675,2.2985238271900634,-1.0187094847308558,-0.033582512532369435
1708437573.272367,-1.1215418577194214,-1.672699590722555,-2.5274246374713343,2.298537417049072,-1.0187061468707483,-0.03351766267885381
1708437573.2743707,-1.1215581893920898,-1.6726938686766566,-2.5273824373828333,2.2984670835682373,-1.0186894575702112,-0.03353768983949834
1708437573.2763507,-1.1215581893920898,-1.6727310619749964,-2.5273705164538782,2.298529787654541,-1.018730942402975,-0.03348857561220342
1708437573.278347,-1.121570110321045,-1.6727353535094203,-2.5273945967303675,2.298517866725586,-1.018665615712301,-0.03356296220888311
1708437573.2803714,-1.1215165853500366,-1.6727796993651332,-2.5273991266833704,2.2984744745441894,-1.0186908880816858,-0.0335467497455042
1708437573.2823822,-1.1215671300888062,-1.6727711162962855,-2.5273824373828333,2.298546476955078,-1.0186823050128382,-0.03347951570619756
1708437573.2843568,-1.12152099609375,-1.6727386913695277,-2.527337376271383,2.2984954553791503,-1.0187190214740198,-0.03350431123842412
1708437573.286326,-1.1215462684631348,-1.6726981602110804,-2.527350966130392,2.298537417049072,-1.018641773854391,-0.033516709004537404
1708437573.2883575,-1.1215598583221436,-1.6727515659727992,-2.5273495356189173,2.298562689418457,-1.0186741987811487,-0.03353912035097295
1708437573.290328,-1.1215581893920898,-1.672739645043844,-2.527350966130392,2.298550768489502,-1.0186665693866175,-0.03350192705263311
1708437573.2922986,-1.1215373277664185,-1.6727191410460414,-2.5273223559008997,2.298499746913574,-1.0186341444598597,-0.03353482881654912
1708437573.2943015,-1.1215656995773315,-1.6726895771422328,-2.5273223559008997,2.2985538679310302,-1.0186103026019495,-0.03347760835756475
1708437573.2962928,-1.1215299367904663,-1.672706743279928,-2.527355496083395,2.2984835344501953,-1.0186179319964808,-0.03347760835756475
1708437573.298314,-1.1216192245483398,-1.672678133050436,-2.5273435751544397,2.298504276866577,-1.0186017195331019,-0.033510986958638966
1708437573.3003092,-1.1215134859085083,-1.6727353535094203,-2.5273645559894007,2.2985867696949462,-1.0186060110675257,-0.033498589192525685
1708437573.3023021,-1.1216028928756714,-1.6726910076537074,-2.5273810068713587,2.2985493379780273,-1.0186503569232386,-0.03345376649965459
1708437573.3043153,-1.1215299367904663,-1.6727429829039515,-2.5273104349719446,2.2985328870960693,-1.0185897986041468,-0.03345376649965459
1708437573.3063169,-1.1215002536773682,-1.672706743279928,-2.5272730032550257,2.2984835344501953,-1.0186017195331019,-0.03344947496523076
1708437573.3083327,-1.1215745210647583,-1.6727234325804652,-2.5273359457599085,2.2985283571430664,-1.0186145941363733,-0.0334246794330042
1708437573.310331,-1.1216073036193848,-1.6727234325804652,-2.5273121039019983,2.298504276866577,-1.0185940901385706,-0.03338748613466436
1708437573.312354,-1.1216118335723877,-1.6727224789061488,-2.5273314158069056,2.298501415843628,-1.0186145941363733,-0.03344947496523076
1708437573.314359,-1.1215983629226685,-1.6727224789061488,-2.5273030439959925,2.298487825984619,-1.018562142048971,-0.03344184557069951
1708437573.3163373,-1.121577501296997,-1.6727429829039515,-2.5273285547839563,2.298520727748535,-1.018590275441305,-0.03350431123842412
1708437573.3183444,-1.1215790510177612,-1.6727062664427699,-2.5272746721850794,2.2984670835682373,-1.018562142048971,-0.03347188631166631
1708437573.3203115,-1.1215448379516602,-1.6726976833739222,-2.5273030439959925,2.298525257701538,-1.018590275441305,-0.03344184557069951
1708437573.3223267,-1.1215418577194214,-1.6726867161192835,-2.5273330847369593,2.2985266882130126,-1.018574062977926,-0.033427063618795216
1708437573.3243432,-1.1215627193450928,-1.6727267704405726,-2.5273001829730433,2.29850880681958,-1.018606964741842,-0.033396546040670216
1708437573.3263636,-1.1215909719467163,-1.6727267704405726,-2.5272792021380823,2.2984999853321533,-1.0185697714435022,-0.03343850771059209
1708437573.3283536,-1.1215462684631348,-1.6726938686766566,-2.52733284631838,2.29850880681958,-1.0185912291156214,-0.033422295247213185
1708437573.3302982,-1.1215492486953735,-1.6727224789061488,-2.5273001829730433,2.298487825984619,-1.0185707251178187,-0.03338510194887334
1708437573.3323,-1.1216027736663818,-1.6726938686766566,-2.527241293584005,2.298517866725586,-1.0185588041888636,-0.03338176408876592
1708437573.3343189,-1.1215373277664185,-1.6726895771422328,-2.5272701422320765,2.298487825984619,-1.0185793081866663,-0.03336555162538701
1708437573.3363106,-1.1215611696243286,-1.6727310619749964,-2.5273030439959925,2.2984670835682373,-1.018517796193258,-0.03336078325380498
1708437573.3383539,-1.1216073036193848,-1.6726910076537074,-2.527313534413473,2.298480435008667,-1.0185630957232874,-0.03338176408876592
1708437573.3403144,-1.1215909719467163,-1.6727882824339808,-2.5272324720965784,2.2985116678425292,-1.0185187498675745,-0.03339511552919561
1708437573.3423033,-1.1215404272079468,-1.6726933918394984,-2.527250353490011,2.298492355937622,-1.0185511747943323,-0.03338653246034795
1708437573.3443098,-1.121504545211792,-1.6727234325804652,-2.5272911230670374,2.298513336772583,-1.0185630957232874,-0.03337413469423467
1708437573.3462996,-1.121553659439087,-1.6727386913695277,-2.5272627512561243,2.298520727748535,-1.0185025374041956,-0.033329312001363576
1708437573.3483315,-1.1215492486953735,-1.672783990899557,-2.5272701422320765,2.2985328870960693,-1.0184820334063929,-0.03337413469423467
1708437573.3503275,-1.121598482131958,-1.6727239094176234,-2.5272746721850794,2.298574610347412,-1.0184982458697718,-0.03337413469423467
1708437573.3523064,-1.121570110321045,-1.6727024517455042,-2.5272672812091272,2.298550768489502,-1.01855975786318,-0.033321682606832326
1708437573.3543193,-1.121593952178955,-1.6726867161192835,-2.527304712926046,2.298541947002075,-1.0185025374041956,-0.033346001301900685
1708437573.3563063,-1.1215492486953735,-1.6727520428099574,-2.5272837320910853,2.29861228048291,-1.0185230414019983,-0.03336221376527959
1708437573.3583083,-1.1216362714767456,-1.6726867161192835,-2.527304712926046,2.2985328870960693,-1.0184949080096644,-0.03333408037294561
1708437573.3603523,-1.12158203125,-1.6727105579771937,-2.5272672812091272,2.298541947002075,-1.0184782187091272,-0.033355061207906544
1708437573.3623483,-1.121622920036316,-1.6727200947203578,-2.527245823537008,2.298546238536499,-1.0184949080096644,-0.0333173910724085
1708437573.3643832,-1.1216058731079102,-1.6726981602110804,-2.5272865931140345,2.298504276866577,-1.018470589314596,-0.033355061207906544
1708437573.366363,-1.1215983629226685,-1.6726981602110804,-2.5272956530200403,2.298480435008667,-1.0185359160052698,-0.033338371907369435
1708437573.3683352,-1.1216192245483398,-1.6726867161192835,-2.527292791997091,2.2984863954731445,-1.0184662977801722,-0.033343140278951466
1708437573.3703346,-1.1216362714767456,-1.6727148495116175,-2.527238432561056,2.29847161352124,-1.0184991995440882,-0.03329307237734014
1708437573.3723633,-1.121593952178955,-1.6726933918394984,-2.5272582213031214,2.298487825984619,-1.0184457937823694,-0.03329307237734014
1708437573.3743901,-1.1215568780899048,-1.6727224789061488,-2.527242962514059,2.2984518247791748,-1.0184739271747034,-0.033272568379537404
1708437573.376379,-1.121577501296997,-1.6726933918394984,-2.5272672812091272,2.298516197795532,-1.0184295813189905,-0.03326780000795537
1708437573.378323,-1.1216318607330322,-1.6727472744383753,-2.527288262044088,2.298513336772583,-1.018470589314596,-0.033352200184957326
1708437573.3803673,-1.1215567588806152,-1.6726819477477015,-2.527276341115133,2.298516197795532,-1.0184662977801722,-0.03331023851503545
1708437573.3823483,-1.1216318607330322,-1.6726623974242152,-2.527238432561056,2.298505945796631,-1.0184910933123987,-0.033355061207906544
1708437573.3843136,-1.1216012239456177,-1.6726776562132777,-2.5273001829730433,2.298529787654541,-1.0185564200030726,-0.03329307237734014
1708437573.3863125,-1.12161386013031,-1.6726938686766566,-2.527233902608053,2.298541947002075,-1.0184910933123987,-0.03331929842104131
1708437573.3883421,-1.1216058731079102,-1.6726824245848597,-2.52727181116213,2.298537417049072,-1.018470589314596,-0.03333503404726201
1708437573.3903184,-1.1216347217559814,-1.6726776562132777,-2.527292791997091,2.298558159465454,-1.018486801777975,-0.03331023851503545
1708437573.3923683,-1.1216318607330322,-1.6726910076537074,-2.527242962514059,2.298558159465454,-1.018454376851217,-0.033302132283346
1708437573.3943193,-1.1215983629226685,-1.6726910076537074,-2.527280871068136,2.298504276866577,-1.0184991995440882,-0.033325974141256154
1708437573.3963041,-1.1215848922729492,-1.6727148495116175,-2.5272672812091272,2.298492355937622,-1.018486801777975,-0.03331023851503545
1708437573.3983092,-1.1215895414352417,-1.672711034814352,-2.527280871068136,2.298492355937622,-1.018458668385641,-0.03330594698061162
1708437573.400316,-1.1216436624526978,-1.6726819477477015,-2.52727181116213,2.298499746913574,-1.0184739271747034,-0.033264938985006154
1708437573.4023478,-1.12161386013031,-1.6726623974242152,-2.527210060750143,2.29850880681958,-1.018503491078512,-0.033339802418844044
1708437573.4043162,-1.1216182708740234,-1.6727148495116175,-2.527259413396017,2.29850880681958,-1.0185077826129358,-0.033253018056051076
1708437573.4063373,-1.1216182708740234,-1.6727315388121546,-2.527238432561056,2.298537417049072,-1.0184739271747034,-0.03331500688661748
1708437573.408391,-1.1215847730636597,-1.6726728878416957,-2.527198139821188,2.298504276866577,-1.0184620062457483,-0.03331500688661748
1708437573.4103668,-1.1216720342636108,-1.6726981602110804,-2.5272191206561487,2.298504276866577,-1.018454376851217,-0.03328591981996709
1708437573.4123394,-1.121662974357605,-1.6727024517455042,-2.527210060750143,2.2985493379780273,-1.018470589314596,-0.033348862324849904
1708437573.4143631,-1.1215640306472778,-1.6726981602110804,-2.52726394334902,2.298537417049072,-1.0184782187091272,-0.03331023851503545
1708437573.4163232,-1.12165105342865,-1.672706743279928,-2.5272520224200647,2.29848496496167,-1.0184910933123987,-0.03329021135439092
1708437573.418331,-1.1216466426849365,-1.6726933918394984,-2.527259413396017,2.298483296031616,-1.0185077826129358,-0.03328162828554326
1708437573.420336,-1.1216347217559814,-1.6727024517455042,-2.527233902608053,2.298504276866577,-1.0184991995440882,-0.03323966661562139
1708437573.4223733,-1.121634602546692,-1.6727224789061488,-2.527238432561056,2.298516197795532,-1.018470589314596,-0.033330742512838185
1708437573.4244285,-1.1216557025909424,-1.6727239094176234,-2.527288262044088,2.298541947002075,-1.0184620062457483,-0.03330690065492803
1708437573.426354,-1.121622920036316,-1.672732492486471,-2.527254883443014,2.298546238536499,-1.018470589314596,-0.03329307237734014
1708437573.4283433,-1.1216557025909424,-1.6726933918394984,-2.5272672812091272,2.2984954553791503,-1.0184906164752405,-0.03330690065492803
1708437573.4303188,-1.1216331720352173,-1.6726952991881312,-2.527226511632101,2.298558159465454,-1.018482510243551,-0.033364121113912404
1708437573.4323246,-1.1216496229171753,-1.6727191410460414,-2.527254883443014,2.2985493379780273,-1.018486801777975,-0.0333173910724085
1708437573.4343178,-1.1216421127319336,-1.6726819477477015,-2.527238432561056,2.298499746913574,-1.0184748808490198,-0.03328448930849248
1708437573.4363065,-1.1216301918029785,-1.6727191410460414,-2.5272520224200647,2.2985448080250244,-1.0184620062457483,-0.03327685991396123
1708437573.4383805,-1.1216421127319336,-1.6727401218810023,-2.52722937265505,2.2984954553791503,-1.018482510243551,-0.03329021135439092
1708437573.440307,-1.1216720342636108,-1.6726867161192835,-2.527226511632101,2.2985493379780273,-1.0184295813189905,-0.033260647450582326
1708437573.4423006,-1.1216049194335938,-1.6727520428099574,-2.52726394334902,2.2985283571430664,-1.0184500853167933,-0.03330594698061162
1708437573.4443684,-1.1216301918029785,-1.6726838550963343,-2.52722937265505,2.2985116678425292,-1.018470589314596,-0.03327542940248662
1708437573.4463022,-1.1216257810592651,-1.6726981602110804,-2.527226511632101,2.298579140300415,-1.0184662977801722,-0.033269707356588185
1708437573.4483666,-1.1216257810592651,-1.672645708123678,-2.52727181116213,2.298516197795532,-1.0184662977801722,-0.03329021135439092
1708437573.4503102,-1.121628761291504,-1.6727000675597132,-2.527254883443014,2.298562689418457,-1.018482510243551,-0.03329784074892217
1708437573.4523172,-1.1216421127319336,-1.6726657352843226,-2.5273121039019983,2.2984863954731445,-1.018470589314596,-0.03333503404726201
1708437573.4543128,-1.1217000484466553,-1.6727148495116175,-2.527226511632101,2.2985493379780273,-1.0185068289386194,-0.03332358995546514
1708437573.456314,-1.1216301918029785,-1.6727239094176234,-2.527245823537008,2.2985657888599853,-1.018482510243551,-0.033339802418844044
1708437573.4583201,-1.1216093301773071,-1.6726952991881312,-2.527233902608053,2.2985283571430664,-1.0184620062457483,-0.03328591981996709
1708437573.460387,-1.1216540336608887,-1.6727315388121546,-2.527238432561056,2.2985283571430664,-1.0184739271747034,-0.033330742512838185
1708437573.462335,-1.1216093301773071,-1.6727568111815394,-2.527254883443014,2.298516197795532,-1.018531624470846,-0.033302132283346
1708437573.4643764,-1.1216450929641724,-1.6727429829039515,-2.527233902608053,2.298516197795532,-1.0185077826129358,-0.03331023851503545
1708437573.46632,-1.1216540336608887,-1.6726819477477015,-2.5272682348834437,2.298537417049072,-1.018454376851217,-0.03331023851503545
1708437573.468326,-1.1216496229171753,-1.6726819477477015,-2.5272792021380823,2.2985071378895263,-1.0184739271747034,-0.03329307237734014
1708437573.470325,-1.1216377019882202,-1.6727024517455042,-2.5273001829730433,2.298520727748535,-1.0184662977801722,-0.03331929842104131
1708437573.4723692,-1.1216301918029785,-1.6726910076537074,-2.527254883443014,2.2985538679310302,-1.0184739271747034,-0.033330742512838185
1708437573.4743638,-1.1216049194335938,-1.6727057896056117,-2.527288262044088,2.298516197795532,-1.0184782187091272,-0.03333503404726201
1708437573.4763494,-1.121662974357605,-1.6726981602110804,-2.527226511632101,2.298525257701538,-1.0184662977801722,-0.03329021135439092
1708437573.4783669,-1.121658444404602,-1.6726495228209437,-2.5272792021380823,2.2985328870960693,-1.0185077826129358,-0.033302132283346
1708437573.4803784,-1.1216450929641724,-1.6727000675597132,-2.527231041585104,2.2985448080250244,-1.0184949080096644,-0.03327829042543584
1708437573.482372,-1.1216182708740234,-1.6727444134154261,-2.527250353490011,2.298537417049072,-1.0184863249408167,-0.03331500688661748
1708437573.4843385,-1.1216212511062622,-1.6726747951903285,-2.52722937265505,2.298562689418457,-1.0184863249408167,-0.03327685991396123
1708437573.4863205,-1.1216377019882202,-1.672706743279928,-2.527245823537008,2.2985448080250244,-1.018503491078512,-0.033262077962056935
1708437573.4883397,-1.1216496229171753,-1.6727267704405726,-2.527259413396017,2.2985283571430664,-1.0184782187091272,-0.03332358995546514
1708437573.4903011,-1.1216540336608887,-1.6728064022459925,-2.527288262044088,2.298562689418457,-1.0185187498675745,-0.03327685991396123
1708437573.4923074,-1.1216540336608887,-1.672706743279928,-2.527254883443014,2.298499746913574,-1.0185521284686487,-0.033264938985006154
1708437573.4943633,-1.121646523475647,-1.6726747951903285,-2.5272837320910853,2.2985598283955078,-1.018547836934225,-0.033255879079000294
1708437573.496306,-1.121646523475647,-1.6726981602110804,-2.527288262044088,2.2985328870960693,-1.0185025374041956,-0.03329307237734014
1708437573.4983165,-1.1216822862625122,-1.6726280651488246,-2.527226511632101,2.2985150057026367,-1.0185273329364222,-0.033264938985006154
1708437573.5003407,-1.1216496229171753,-1.6727024517455042,-2.527238432561056,2.298516197795532,-1.0184863249408167,-0.033347431813375294
1708437573.5023108,-1.12161386013031,-1.6726776562132777,-2.52726394334902,2.2985328870960693,-1.0185025374041956,-0.03331500688661748
1708437573.5043173,-1.1216703653335571,-1.6727358303465785,-2.527241293584005,2.2985328870960693,-1.0184782187091272,-0.033255879079000294
1708437573.5063229,-1.121634602546692,-1.6727358303465785,-2.527254883443014,2.298525257701538,-1.0185230414019983,-0.03327685991396123
1708437573.5083165,-1.1216615438461304,-1.6727239094176234,-2.5272582213031214,2.2985567289539794,-1.0184863249408167,-0.03327685991396123
1708437573.5103803,-1.1216124296188354,-1.67271151165151,-2.52727181116213,2.2985493379780273,-1.0185349623309534,-0.033325974141256154
1708437573.5123327,-1.1216331720352173,-1.672706743279928,-2.527238432561056,2.298483296031616,-1.0184534231769007,-0.03330690065492803
1708437573.5143645,-1.1216421127319336,-1.6727000675597132,-2.5272792021380823,2.2985538679310302,-1.018543545399801,-0.03328162828554326
1708437573.5163434,-1.12167489528656,-1.6726867161192835,-2.5272792021380823,2.298499746913574,-1.0184982458697718,-0.033302132283346
1708437573.5183682,-1.121658444404602,-1.6727239094176234,-2.5273240248309534,2.298525257701538,-1.0184949080096644,-0.03328448930849248
1708437573.5203192,-1.1216012239456177,-1.6726910076537074,-2.5272792021380823,2.2986032205769042,-1.018543545399801,-0.033347431813375294
1708437573.522341,-1.1216673851013184,-1.6726700268187464,-2.527245823537008,2.298504276866577,-1.0185230414019983,-0.033255879079000294
1708437573.5243685,-1.121662974357605,-1.67271151165151,-2.527276341115133,2.298520727748535,-1.0185392538653772,-0.033302132283346
1708437573.5263786,-1.1216049194335938,-1.6726700268187464,-2.5272837320910853,2.2985538679310302,-1.0184982458697718,-0.03333503404726201
1708437573.5284276,-1.1216257810592651,-1.6726657352843226,-2.5272837320910853,2.2985779482075195,-1.0185263792621058,-0.03330690065492803
1708437573.5303352,-1.12161386013031,-1.6726819477477015,-2.527254883443014,2.2985150057026367,-1.0185349623309534,-0.03329784074892217
1708437573.5323076,-1.1216496229171753,-1.6727024517455042,-2.5272627512561243,2.298516197795532,-1.0185306707965296,-0.03331023851503545
1708437573.5343122,-1.1216884851455688,-1.6727358303465785,-2.5272672812091272,2.2985071378895263,-1.0185263792621058,-0.03332358995546514
1708437573.5364149,-1.12167489528656,-1.6726910076537074,-2.527309242879049,2.2985328870960693,-1.018505875264303,-0.03328878084291631
1708437573.538349,-1.1217076778411865,-1.6727239094176234,-2.52733284631838,2.298574610347412,-1.0185707251178187,-0.03329784074892217
1708437573.5403063,-1.121646523475647,-1.6727024517455042,-2.527245823537008,2.298516197795532,-1.0185101667987269,-0.033330742512838185
1708437573.542298,-1.1215877532958984,-1.6726747951903285,-2.5272746721850794,2.2985824781605224,-1.0185425917254847,-0.033325974141256154
1708437573.544305,-1.121662974357605,-1.6727239094176234,-2.527250353490011,2.2985703188129882,-1.0185545126544397,-0.03331929842104131
1708437573.546293,-1.121646523475647,-1.6726414165892542,-2.5272746721850794,2.2985448080250244,-1.0185869375811976,-0.03335935274233037
1708437573.5483346,-1.1216838359832764,-1.6726952991881312,-2.5272672812091272,2.298483296031616,-1.0185793081866663,-0.03327685991396123
1708437573.5503263,-1.121634602546692,-1.6727315388121546,-2.5272672812091272,2.2985328870960693,-1.0185707251178187,-0.033325974141256154
1708437573.5523133,-1.121658444404602,-1.672706743279928,-2.527245823537008,2.2985448080250244,-1.0185912291156214,-0.03331500688661748
1708437573.5544133,-1.1216347217559814,-1.6726910076537074,-2.5272746721850794,2.2985779482075195,-1.0185869375811976,-0.033330742512838185
1708437573.556309,-1.1216003894805908,-1.6727239094176234,-2.5272792021380823,2.2985493379780273,-1.0185697714435022,-0.0333173910724085
1708437573.5583181,-1.1216540336608887,-1.6727310619749964,-2.52727181116213,2.2985328870960693,-1.0186317602740687,-0.03327685991396123
1708437573.5604305,-1.1216540336608887,-1.6726938686766566,-2.527241293584005,2.298538847560547,-1.018590275441305,-0.03330833116640264
1708437573.5623317,-1.1216673851013184,-1.6726933918394984,-2.527241293584005,2.298534317607544,-1.0186188856707972,-0.03329307237734014
1708437573.5643792,-1.1216866970062256,-1.6726776562132777,-2.5272701422320765,2.2984909254261474,-1.0186145941363733,-0.033338371907369435
1708437573.566344,-1.1216673851013184,-1.6726891003050746,-2.5272279421435755,2.2985476690479736,-1.0186060110675257,-0.03328878084291631
1708437573.5683336,-1.1216375827789307,-1.6727224789061488,-2.5272627512561243,2.298525257701538,-1.0186145941363733,-0.03329307237734014
1708437573.570331,-1.1216301918029785,-1.6727191410460414,-2.5272837320910853,2.2985567289539794,-1.0186179319964808,-0.033356491719381154
1708437573.5723293,-1.1216301918029785,-1.6726967296996058,-2.527233902608053,2.2985402780720214,-1.0186546484576624,-0.03330594698061162
1708437573.5743437,-1.1216212511062622,-1.6727024517455042,-2.527276341115133,2.2985026079365234,-1.0186060110675257,-0.033325974141256154
1708437573.576384,-1.1215803623199463,-1.672826429406637,-2.5272746721850794,2.2985567289539794,-1.0186298529254358,-0.03329784074892217
1708437573.5784428,-1.1216167211532593,-1.6727224789061488,-2.5272582213031214,2.298499746913574,-1.0186298529254358,-0.03330594698061162
1708437573.5803423,-1.1216301918029785,-1.6726891003050746,-2.5272746721850794,2.2985448080250244,-1.0186341444598597,-0.033338371907369435
1708437573.5823088,-1.1216392517089844,-1.6726776562132777,-2.5272792021380823,2.2985150057026367,-1.0186265150653284,-0.033325974141256154
1708437573.5843196,-1.1216058731079102,-1.6727315388121546,-2.5272627512561243,2.2985538679310302,-1.018609348927633,-0.033321682606832326
1708437573.5863104,-1.1216012239456177,-1.6726933918394984,-2.527250353490011,2.2985867696949462,-1.0186546484576624,-0.0333173910724085
1708437573.5883675,-1.1215848922729492,-1.67271151165151,-2.5272746721850794,2.298516197795532,-1.0186341444598597,-0.033330742512838185
1708437573.5903206,-1.121603012084961,-1.6727148495116175,-2.5272956530200403,2.2985328870960693,-1.0186708609210413,-0.03330117860902959
1708437573.5923393,-1.1216028928756714,-1.6727224789061488,-2.5273121039019983,2.298537417049072,-1.018625561391012,-0.033330742512838185
1708437573.594321,-1.1215492486953735,-1.6727429829039515,-2.5272582213031214,2.298487825984619,-1.0186665693866175,-0.03330833116640264
1708437573.5963168,-1.1215611696243286,-1.6727625332274378,-2.5272956530200403,2.29850880681958,-1.0186751524554651,-0.033255879079000294
1708437573.5983465,-1.1215373277664185,-1.6727267704405726,-2.5272865931140345,2.298447533244751,-1.0186579863177698,-0.033321682606832326
1708437573.600309,-1.121565580368042,-1.6727224789061488,-2.5272582213031214,2.298480435008667,-1.0186179319964808,-0.033347431813375294
1708437573.602311,-1.1215298175811768,-1.6727715931334437,-2.5273240248309534,2.298480435008667,-1.018691364918844,-0.03330690065492803
1708437573.60433,-1.1215254068374634,-1.6727882824339808,-2.5273075739489954,2.2984608846851806,-1.0186870733844202,-0.033329312001363576
1708437573.6063352,-1.1214799880981445,-1.6727906666197718,-2.5272956530200403,2.2984248834797363,-1.0186503569232386,-0.03331023851503545
1708437573.608358,-1.1214964389801025,-1.672824045220846,-2.5272911230670374,2.2984248834797363,-1.0186169783221644,-0.03329021135439092
1708437573.6104112,-1.1214816570281982,-1.672786375085348,-2.5272536913501185,2.298417492503784,-1.0186503569232386,-0.03331119218935186
1708437573.61241,-1.1215026378631592,-1.6728064022459925,-2.5272539297686976,2.298400803203247,-1.0186460653888147,-0.03333503404726201
1708437573.6143754,-1.121450424194336,-1.6728764973082484,-2.527316395436422,2.2983154493519287,-1.0186827818499964,-0.033264938985006154
1708437573.6163285,-1.121450424194336,-1.6728722057738246,-2.5272956530200403,2.2983409601398925,-1.0186503569232386,-0.033226792012349904
1708437573.6220562,-1.121421456336975,-1.672891756097311,-2.5273030439959925,2.298272057170532,-1.0186827818499964,-0.03327399889101201
1708437573.6223743,-1.1213738918304443,-1.6729032001891078,-2.5272865931140345,2.2982000547596435,-1.0186622778521937,-0.03330690065492803
1708437573.6244383,-1.1213456392288208,-1.6729032001891078,-2.5272956530200403,2.298173113460205,-1.0186665693866175,-0.033223930989400685
1708437573.6263576,-1.1212882995605469,-1.6729022465147914,-2.5273104349719446,2.2981909948536376,-1.0186708609210413,-0.0331957975970667
1708437573.6283023,-1.1212646961212158,-1.6729318104186,-2.5273149649249476,2.2980679708668212,-1.0186870733844202,-0.033246819172994435
1708437573.6303387,-1.1213018894195557,-1.6729008160033167,-2.5273121039019983,2.298072500819824,-1.0186708609210413,-0.03323489824403936
1708437573.6323457,-1.1212780475616455,-1.6729666195311488,-2.5273030439959925,2.298032208079956,-1.018625561391012,-0.033144776021138966
1708437573.6343138,-1.1212458610534668,-1.6729980907835902,-2.5272746721850794,2.2980381685444335,-1.0186622778521937,-0.033149067555562794
1708437573.6363506,-1.1212294101715088,-1.673030515710348,-2.5272956530200403,2.297952576274536,-1.0186179319964808,-0.0331042448626917
1708437573.6383705,-1.1212116479873657,-1.673063417474264,-2.5272627512561243,2.297969265575073,-1.0186460653888147,-0.03312999406923467
1708437573.6403458,-1.1211289167404175,-1.6730872593321742,-2.5273149649249476,2.2978927332111816,-1.0186665693866175,-0.03309804597963506
1708437573.6423495,-1.1210888624191284,-1.6730781994261683,-2.5272956530200403,2.2979349332996826,-1.018641773854391,-0.03303414980043584
1708437573.6443229,-1.1211068630218506,-1.673093935052389,-2.5272746721850794,2.2978731828876953,-1.0186503569232386,-0.03301746049989873
1708437573.646343,-1.1210169792175293,-1.673143049279684,-2.5272792021380823,2.297832890147827,-1.0186384359942835,-0.03294402757753545
1708437573.6483245,-1.1209430694580078,-1.673117300073141,-2.52733284631838,2.297771378154419,-1.0186546484576624,-0.032969299946920216
1708437573.6503131,-1.1209737062454224,-1.6731249294676722,-2.5273030439959925,2.2976996141621093,-1.0186503569232386,-0.03288871446718389
1708437573.6523676,-1.1209673881530762,-1.6732269726195277,-2.5272367636310022,2.297696276302002,-1.0186503569232386,-0.03287679353822881
1708437573.6543198,-1.1209180355072021,-1.6732179127135218,-2.5272911230670374,2.297684355373047,-1.0186470190631312,-0.03290683427919561
1708437573.656348,-1.1208535432815552,-1.673262735406393,-2.5272837320910853,2.2976574140736084,-1.0186503569232386,-0.03283721605409795
1708437573.6583357,-1.1207969188690186,-1.6732660732665003,-2.5273104349719446,2.297576351756714,-1.0186589399920862,-0.03276712099184209
1708437573.6604137,-1.1207332611083984,-1.6732899151244105,-2.5272837320910853,2.2975448805042724,-1.0186222235309046,-0.03282624879945928
1708437573.6623392,-1.1206879615783691,-1.6733347378172816,-2.5272837320910853,2.297513409251831,-1.0186341444598597,-0.032726589833394826
1708437573.6643739,-1.1206732988357544,-1.673361440698141,-2.5273166338550013,2.2973860937305908,-1.0186222235309046,-0.03268033662904912
1708437573.6663582,-1.1206046342849731,-1.6734181843199671,-2.5273450056659144,2.29738895475354,-1.018597427998678,-0.03274661699403936
1708437573.668353,-1.120593786239624,-1.6734091244139613,-2.5272820631610315,2.297327681178711,-1.0186060110675257,-0.03264457384218389
1708437573.6703377,-1.1205461025238037,-1.6734420261778773,-2.5273240248309534,2.2972587782093505,-1.0186384359942835,-0.03262550035585576
1708437573.6724122,-1.1204830408096313,-1.6735321484007777,-2.5272746721850794,2.2972287374683837,-1.0186060110675257,-0.03262216249574834
1708437573.6743646,-1.1203840970993042,-1.673476358453268,-2.5272792021380823,2.297243519420288,-1.0186103026019495,-0.032569710408346
1708437573.6764045,-1.1203782558441162,-1.6735383472838343,-2.5272701422320765,2.29708640157666,-1.0186265150653284,-0.03252917924989873
1708437573.678398,-1.1202672719955444,-1.6735769710936488,-2.527250353490011,2.297081871623657,-1.0186026732074183,-0.03247672716249639
1708437573.6803648,-1.120266079902649,-1.6735621891417445,-2.527241293584005,2.2970217901417236,-1.018651310597555,-0.03242475191225225
1708437573.6823797,-1.1201634407043457,-1.673591753045553,-2.5272672812091272,2.296891375178955,-1.018590275441305,-0.032413784657613576
1708437573.6843886,-1.120204210281372,-1.6736084423460902,-2.5272792021380823,2.2968854147144775,-1.018611256276266,-0.03236896196474248
1708437573.686383,-1.1200603246688843,-1.6736823521056117,-2.527250353490011,2.296804352397583,-1.0185859839068812,-0.032363239918844044
1708437573.688384,-1.120030164718628,-1.6737014255919398,-2.527250353490011,2.296649618739746,-1.01857835451235,-0.03232700029482061
1708437573.6903546,-1.1199491024017334,-1.673746248284811,-2.5272536913501185,2.2966438966938476,-1.018545929585592,-0.03226596513857061
1708437573.6923382,-1.1199060678482056,-1.6737686596312464,-2.527241293584005,2.296543522472046,-1.018517796193258,-0.03221303621401006
1708437573.694339,-1.1198101043701172,-1.6738296947874964,-2.5272911230670374,2.2965444761463623,-1.0185383001910608,-0.03219348589052373
1708437573.6963313,-1.1197494268417358,-1.6738535366454066,-2.527241293584005,2.2964398103901367,-1.0185306707965296,-0.03212482133974248
1708437573.69831,-1.1196447610855103,-1.673840185204977,-2.527254883443014,2.296422167415283,-1.018515412007467,-0.03210956255067998
1708437573.7003217,-1.119584560394287,-1.6739260158934535,-2.527259413396017,2.2963175016590576,-1.0184863249408167,-0.03204518953432256
1708437573.702301,-1.1195170879364014,-1.6739002666869105,-2.5272837320910853,2.2962052065083007,-1.0184620062457483,-0.031987969075338185
1708437573.7043107,-1.1194576025009155,-1.6739455662169398,-2.527254883443014,2.296128674144409,-1.0184748808490198,-0.03197795549501592
1708437573.7062986,-1.1193856000900269,-1.6739856205382289,-2.527238432561056,2.2960612016865234,-1.018486801777975,-0.031913105641500294
1708437573.7083182,-1.1192477941513062,-1.6740170917906703,-2.5273121039019983,2.2959980207630615,-1.018470589314596,-0.031829182301656544
1708437573.710395,-1.1192007064819336,-1.6740652523436488,-2.527221981679098,2.2958857256123046,-1.018458668385641,-0.03181010881532842
1708437573.7123926,-1.1191422939300537,-1.674101015130514,-2.5273166338550013,2.2957684236713867,-1.0184510389911097,-0.03174287477602178
1708437573.7143462,-1.11909019947052,-1.6741482220091761,-2.5273001829730433,2.295656366939209,-1.018442455922262,-0.03164846101869756
1708437573.7163577,-1.118939995765686,-1.6741639576353968,-2.5272837320910853,2.295626087779663,-1.0184348265277308,-0.03166324297060186
1708437573.7183528,-1.1189178228378296,-1.6742211780943812,-2.527238432561056,2.2955049711414794,-1.0184877554522913,-0.03154164949526006
1708437573.72034,-1.118776559829712,-1.6742450199522914,-2.52726394334902,2.2954582410999755,-1.0184152762042444,-0.03149253526796514
1708437573.7223496,-1.1187164783477783,-1.6743141613402308,-2.527292791997091,2.295299692744873,-1.0183704535113733,-0.03145963350404912
1708437573.724378,-1.1185781955718994,-1.674279352227682,-2.527238432561056,2.295224829311035,-1.0183747450457972,-0.03142100969423467
1708437573.7263823,-1.1185532808303833,-1.6743313274779261,-2.527254883443014,2.295166178340576,-1.018350903187887,-0.03129750887026006
1708437573.7283804,-1.1184858083724976,-1.6744047604002894,-2.527247492467062,2.295048876399658,-1.0183466116534632,-0.03131229082216436
1708437573.7303188,-1.1184064149856567,-1.6744948826231898,-2.527238432561056,2.2949606615253906,-1.0183756987201136,-0.031191174183980763
1708437573.732312,-1.1182786226272583,-1.674509664575094,-2.527231041585104,2.2948285776325683,-1.0183146635638636,-0.031131569539205373
1708437573.7343245,-1.1181886196136475,-1.6744948826231898,-2.527231041585104,2.2948106962391357,-1.0182421843158167,-0.03104573885072881
1708437573.7363226,-1.118065595626831,-1.6745511494078578,-2.527214590703146,2.294673128718994,-1.0182541052447718,-0.031020466481344044
1708437573.7383897,-1.1179771423339844,-1.6746159992613734,-2.527238432561056,2.2945608335682373,-1.0182793776141565,-0.030927483235494435
1708437573.7403266,-1.1179237365722656,-1.6746789417662562,-2.5272071997271937,2.2944273191639404,-1.0182626883136194,-0.030847851430074513
1708437573.7423167,-1.117763876914978,-1.6747943363585414,-2.5272236506091517,2.294377489680908,-1.0182550589190882,-0.03074342409242803
1708437573.744345,-1.1176519393920898,-1.6747719250121058,-2.5271907488452356,2.294245405788086,-1.018247429524557,-0.030654732381002248
1708437573.7463021,-1.117588996887207,-1.6747986278929652,-2.52718168893923,2.294182701701782,-1.0182107130633753,-0.030570809041158498
1708437573.7483084,-1.1174722909927368,-1.674821516076559,-2.5271785894977015,2.2940196233936767,-1.0181825796710413,-0.030507866536275685
1708437573.750324,-1.1173944473266602,-1.6749478779234828,-2.5271921793567103,2.2939490514942626,-1.0182159582721155,-0.030418221150533498
1708437573.752325,-1.1172986030578613,-1.6750008068480433,-2.527168099080221,2.2938787180134277,-1.0181625525103968,-0.030335728322164357
1708437573.754314,-1.1172066926956177,-1.6750356159605921,-2.527154509221212,2.2936836916157226,-1.0181387106524866,-0.030206982289449513
1708437573.7563205,-1.1171139478683472,-1.6750875912108363,-2.527196709309713,2.2935849863239746,-1.0181635061847132,-0.03013497987856084
1708437573.758313,-1.116972804069519,-1.675150056878561,-2.52714711824526,2.293438597316406,-1.0181549231158655,-0.030039612446920216
1708437573.76037,-1.116889476776123,-1.6751910648741664,-2.527130667363302,2.2933811384388427,-1.0181105772601526,-0.029902283345357716
1708437573.7623808,-1.116814374923706,-1.6751967869200648,-2.527165238057272,2.2933105665394287,-1.018151585255758,-0.02978545824159795
1708437573.764391,-1.11675226688385,-1.675303121606344,-2.527135197316305,2.2931782442280273,-1.018167797719137,-0.02974111238588506
1708437573.766389,-1.116605281829834,-1.675377985040182,-2.527106587086813,2.2930423456379394,-1.0181191603290003,-0.029586617146627248
1708437573.7683566,-1.1165019273757935,-1.6754347286620082,-2.5270989576922815,2.2929133611866455,-1.0181148687945765,-0.029532734547750294
1708437573.7703457,-1.1163897514343262,-1.6754991016783656,-2.5270705858813685,2.2928175169178466,-1.018139664326803,-0.029350105916158498
1708437573.7723413,-1.1163266897201538,-1.6755506000914515,-2.5270705858813685,2.292706175441406,-1.0181158224688929,-0.029243294392720998
1708437573.774357,-1.1161859035491943,-1.6756679020323695,-2.5270660559283655,2.2926134306141357,-1.0181077162372034,-0.0291522184955042
1708437573.7764518,-1.1161271333694458,-1.6756979427733363,-2.5270751158343714,2.2925607401081542,-1.0181034247027796,-0.029015366231099904
1708437573.7783594,-1.1160030364990234,-1.675671239892477,-2.52708870569338,2.292391224498413,-1.0180180708514612,-0.028919045125142873
1708437573.780313,-1.1158769130706787,-1.6757852039732875,-2.5270586649524134,2.2922791677662353,-1.0180547873126429,-0.028761212025777638
