Eg3-git/Classifiers/Data Collection/u5/u5xyz4_ur3e_joint_states.csv
time,elbow_joint,shoulder_lift_joint,shoulder_pan_joint,wrist_1_joint,wrist_2_joint,wrist_3_joint
1708437547.7482393,-1.104996919631958,-1.6819325886168421,-2.526879851018087,2.280789299602173,-1.0178402105914515,-0.20335179964174444
1708437547.7502077,-1.1050175428390503,-1.6819788418211878,-2.5268457571612757,2.2808055120655517,-1.0178359190570276,-0.20336801210512334
1708437547.7522159,-1.105008602142334,-1.6819244823851527,-2.526874367390768,2.2807275491901855,-1.0178564230548304,-0.20338470140566045
1708437547.754207,-1.104996919631958,-1.681944032708639,-2.5268831888781946,2.280764027232788,-1.0178197065936487,-0.2033475081073206
1708437547.7561893,-1.1049668788909912,-1.6819325886168421,-2.5268831888781946,2.280764027232788,-1.017799202595846,-0.20336801210512334
1708437547.7581985,-1.1049518585205078,-1.681936880151266,-2.526869837437765,2.2808055120655517,-1.0178402105914515,-0.2033603827105921
1708437547.7601998,-1.10495924949646,-1.6819650135436,-2.5268664995776575,2.280743284816406,-1.0178402105914515,-0.2033150831805628
1708437547.7622287,-1.105008602142334,-1.6819998226561488,-2.526902739201681,2.280796690578125,-1.0178239981280726,-0.20335609117616826
1708437547.7642655,-1.104971170425415,-1.6819650135436,-2.5269163290606897,2.280726118678711,-1.017799202595846,-0.20330316225160772
1708437547.7662666,-1.104988694190979,-1.6819201908507289,-2.5269039312945765,2.280759497279785,-1.0178487936602991,-0.20334417024721319
1708437547.7682416,-1.105008602142334,-1.6819035015501917,-2.526907269154684,2.280772848720215,-1.0178163687335413,-0.20334417024721319
1708437547.7702074,-1.1049880981445312,-1.6819244823851527,-2.5268786589251917,2.2807983595081787,-1.0177586714373987,-0.20328218141664678
1708437547.7722058,-1.1049754619598389,-1.6819607220091761,-2.5268877188311976,2.2808219629475097,-1.0177882353412073,-0.20336467424501592
1708437547.7742262,-1.104943037033081,-1.6819650135436,-2.5269039312945765,2.280730648631714,-1.017836872731344,-0.20329076448549444
1708437547.776253,-1.104992389678955,-1.6819201908507289,-2.5268996397601526,2.2807528215595703,-1.0177882353412073,-0.20336467424501592
1708437547.7782512,-1.1049754619598389,-1.681969781915182,-2.5268741289721888,2.2808100420185546,-1.0177553335772913,-0.20336467424501592
1708437547.7802305,-1.1049836874008179,-1.681944032708639,-2.5268951098071497,2.280789299602173,-1.0177839438067835,-0.20333558717836553
1708437547.7822497,-1.10495924949646,-1.6819035015501917,-2.5268996397601526,2.280756397838257,-1.0178163687335413,-0.20333987871278936
1708437547.7842257,-1.105008602142334,-1.6819325886168421,-2.5268877188311976,2.28078476964917,-1.0177553335772913,-0.20333987871278936
1708437547.7861965,-1.104971170425415,-1.6819168529906214,-2.5269163290606897,2.2808055120655517,-1.0177553335772913,-0.20334083238710576
1708437547.7881942,-1.105013132095337,-1.681936880151266,-2.5268996397601526,2.280756397838257,-1.0177391211139124,-0.20333987871278936
1708437547.7902033,-1.105008602142334,-1.6819201908507289,-2.5268545786487024,2.2807773786732177,-1.0177682081805628,-0.20333654085268194
1708437547.7922537,-1.1050012111663818,-1.6819459400572718,-2.5268786589251917,2.280813141460083,-1.017763916646139,-0.2033322493182581
1708437547.794203,-1.1049754619598389,-1.6819244823851527,-2.5268755594836634,2.2807773786732177,-1.0177839438067835,-0.20335704485048467
1708437547.7962377,-1.1049261093139648,-1.6818872890868128,-2.5269163290606897,2.2807320791431884,-1.0177882353412073,-0.20332891145815069
1708437547.7982361,-1.104963779449463,-1.6819616756834925,-2.5268636385547083,2.2808264929005126,-1.0178001562701624,-0.20333654085268194
1708437547.8002255,-1.105013132095337,-1.6819077930846156,-2.5268591086017054,2.280752106303833,-1.017763916646139,-0.20329219499696904
1708437547.8022087,-1.1049842834472656,-1.6819526157774867,-2.5268517176257532,2.2808427053638916,-1.0177596251117151,-0.2032993475543421
1708437547.8042378,-1.1049799919128418,-1.6819459400572718,-2.5268307367907923,2.280772848720215,-1.017763916646139,-0.2032707373248499
1708437547.8062112,-1.1050293445587158,-1.681899210015768,-2.5268142859088343,2.280789299602173,-1.0177715460406702,-0.20329505601991826
1708437547.8082237,-1.104992389678955,-1.6819616756834925,-2.526856247578756,2.280772848720215,-1.0178421179400843,-0.20328790346254522
1708437547.8102267,-1.1049754619598389,-1.6819616756834925,-2.5268142859088343,2.2807440000721435,-1.01774770418276,-0.20326644579042608
1708437547.8122253,-1.1049799919128418,-1.6819035015501917,-2.526806894932882,2.280768318767212,-1.017796818410055,-0.20330363908876592
1708437547.8142588,-1.1049754619598389,-1.681894441644186,-2.526839796696798,2.2808355528065185,-1.0177391211139124,-0.20326692262758428
1708437547.8162436,-1.1049880981445312,-1.6819526157774867,-2.526794497166769,2.2807654577442626,-1.0177925268756312,-0.20332461992372686
1708437547.8182087,-1.104992389678955,-1.6819035015501917,-2.5267935434924524,2.2808355528065185,-1.017763916646139,-0.20332366624941045
1708437547.8201993,-1.105008602142334,-1.6819154224791468,-2.5268307367907923,2.2807935911365966,-1.0177844206439417,-0.2033007780658167
1708437547.8221996,-1.1050218343734741,-1.6819411716856898,-2.526802364979879,2.2807304102131347,-1.0177434126483362,-0.20334083238710576
1708437547.8242033,-1.1049754619598389,-1.681997915307516,-2.526818815861837,2.2807935911365966,-1.0177314917193812,-0.20332080522646123
1708437547.8262136,-1.10495924949646,-1.681936880151266,-2.526827875767843,2.2808055120655517,-1.0177887121783655,-0.20336610475649053
1708437547.8282356,-1.1049880981445312,-1.6819325886168421,-2.526778046284811,2.280805750484131,-1.0177314917193812,-0.20327979723085576
1708437547.8301938,-1.104996919631958,-1.6819235287108363,-2.5267871061908167,2.280772848720215,-1.0177724997149866,-0.20326739946474248
1708437547.8322105,-1.10495924949646,-1.681894441644186,-2.526799027119772,2.280772848720215,-1.017735783253805,-0.20324975648988897
1708437547.8341963,-1.10495924949646,-1.6819526157774867,-2.526818815861837,2.2807230192371826,-1.0177391211139124,-0.2032712141620081
1708437547.8362093,-1.1049842834472656,-1.68192782024526,-2.526802364979879,2.2807983595081787,-1.0177844206439417,-0.2032383123980921
1708437547.838199,-1.1049549579620361,-1.681944032708639,-2.52683669725527,2.2808264929005126,-1.0177272001849573,-0.20329219499696904
1708437547.840217,-1.104988694190979,-1.6819335422911585,-2.526835266743795,2.2807394701191406,-1.017719570790426,-0.2032392660724085
1708437547.842206,-1.1049754619598389,-1.6819516621031703,-2.526799027119772,2.280772848720215,-1.0177682081805628,-0.20324308076967412
1708437547.8442106,-1.104943037033081,-1.6819483242430628,-2.526839796696798,2.280756397838257,-1.0177443663226526,-0.20332080522646123
1708437547.846193,-1.104996919631958,-1.6819077930846156,-2.526778046284811,2.2807609277912597,-1.017735783253805,-0.2032559553729456
1708437547.8482208,-1.1050012111663818,-1.6819077930846156,-2.526827875767843,2.2807788091846923,-1.0177519957171839,-0.2033465544330042
1708437547.8502064,-1.1049799919128418,-1.681894441644186,-2.52682334581484,2.280775948161743,-1.0177519957171839,-0.20329267183412725
1708437547.8522038,-1.10495924949646,-1.681911130944723,-2.52682334581484,2.280772848720215,-1.0177281538592737,-0.20328838029970342
1708437547.8542209,-1.1050012111663818,-1.6819664440550746,-2.526789967213766,2.28078476964917,-1.017691437398092,-0.20326310793031865
1708437547.856223,-1.1050055027008057,-1.681899210015768,-2.52682334581484,2.2807485300251464,-1.01772386232485,-0.203226391469137
1708437547.8582144,-1.1049799919128418,-1.6818963489928187,-2.526794497166769,2.28078476964917,-1.017735783253805,-0.20322782198061162
1708437547.860223,-1.104996919631958,-1.6818963489928187,-2.5267766157733362,2.280768318767212,-1.017719570790426,-0.20324260393251592
1708437547.8622212,-1.10495924949646,-1.6819459400572718,-2.526820484791891,2.280796690578125,-1.017707649861471,-0.20325166383852178
1708437547.8642306,-1.104943037033081,-1.68192782024526,-2.526827875767843,2.2807609277912597,-1.0177162329303187,-0.2032716909991663
1708437547.8662724,-1.104963779449463,-1.6819411716856898,-2.526789967213766,2.2807230192371826,-1.017695728932516,-0.20323497453798467
1708437547.8682353,-1.104992389678955,-1.6819125614561976,-2.526848618184225,2.2808055120655517,-1.017674748097555,-0.20326310793031865
1708437547.8702087,-1.1050055027008057,-1.6819664440550746,-2.526811424885885,2.2807609277912597,-1.017674748097555,-0.20326739946474248
1708437547.8722012,-1.1049799919128418,-1.6819292507567347,-2.526811424885885,2.2807394701191406,-1.0177248159991663,-0.20329267183412725
1708437547.8741958,-1.1050249338150024,-1.6818915806212367,-2.5268078486071985,2.2807938295551757,-1.0177410284625452,-0.2032387892352503
1708437547.8761992,-1.104943037033081,-1.6818872890868128,-2.526820484791891,2.2807699876972656,-1.0177086035357874,-0.20328838029970342
1708437547.8782053,-1.104996919631958,-1.6819292507567347,-2.526827875767843,2.2807394701191406,-1.0177043120013636,-0.20326024690736944
1708437547.880197,-1.1049518585205078,-1.681985994378561,-2.526785675679342,2.2807952600666503,-1.0176509062396448,-0.20326310793031865
1708437547.882195,-1.105008602142334,-1.6819244823851527,-2.526869599019186,2.280761881465576,-1.0177572409259241,-0.20330506960024053
1708437547.8841984,-1.1050055027008057,-1.6819502315916957,-2.5267825762378138,2.2807320791431884,-1.0177162329303187,-0.2032716909991663
1708437547.8861966,-1.1049799919128418,-1.6819201908507289,-2.5267871061908167,2.2807485300251464,-1.0177205244647425,-0.2033165136920374
1708437547.8881943,-1.105013132095337,-1.6819035015501917,-2.526752773915426,2.2807440000721435,-1.017658535634176,-0.2033012549029749
1708437547.8902009,-1.1049349308013916,-1.681911130944723,-2.526820484791891,2.28078476964917,-1.0177443663226526,-0.20326310793031865
1708437547.8922093,-1.1050218343734741,-1.6819650135436,-2.526778046284811,2.280800982112549,-1.017691437398092,-0.2032716909991663
1708437547.8942137,-1.104971170425415,-1.6819244823851527,-2.526839796696798,2.2807320791431884,-1.0177128950702112,-0.20320207277406865
1708437547.8961947,-1.1050012111663818,-1.6819483242430628,-2.526799027119772,2.2807022768208007,-1.0177119413958948,-0.2032559553729456
1708437547.8982174,-1.105008602142334,-1.6819244823851527,-2.526832405720846,2.2807065683552246,-1.0177324453936976,-0.20324737230409795
1708437547.9002185,-1.1049549579620361,-1.681944032708639,-2.52682334581484,2.2807609277912597,-1.0176833311664026,-0.2032716909991663
1708437547.9022157,-1.104963779449463,-1.6819187603392542,-2.526799027119772,2.2807320791431884,-1.0177486578570765,-0.20324260393251592
1708437547.9042287,-1.1049880981445312,-1.6819035015501917,-2.5267871061908167,2.2807320791431884,-1.0177205244647425,-0.20327598253359014
1708437547.9062107,-1.1049931049346924,-1.6819483242430628,-2.5267825762378138,2.280768318767212,-1.01772386232485,-0.2032840887652796
1708437547.9082186,-1.1049885749816895,-1.6819287739195765,-2.526818815861837,2.2807187277027587,-1.0177128950702112,-0.20322162309755498
1708437547.9102068,-1.1050012111663818,-1.6819411716856898,-2.52682334581484,2.2807773786732177,-1.0177119413958948,-0.20323497453798467
1708437547.9122171,-1.104996919631958,-1.681969781915182,-2.526773754750387,2.2807530599781494,-1.0177248159991663,-0.20326739946474248
1708437547.9142184,-1.1050143241882324,-1.6819035015501917,-2.526806894932882,2.2807394701191406,-1.017745319996969,-0.20326739946474248
1708437547.9162073,-1.1049799919128418,-1.6818963489928187,-2.526799027119772,2.2807745176502685,-1.017695728932516,-0.20328838029970342
1708437547.918213,-1.1050337553024292,-1.6819035015501917,-2.526752773915426,2.2807699876972656,-1.017695728932516,-0.2032392660724085
1708437547.9201953,-1.1050249338150024,-1.6818915806212367,-2.526815954838888,2.2807022768208007,-1.0177119413958948,-0.20326310793031865
1708437547.9221885,-1.1049754619598389,-1.681894441644186,-2.526789967213766,2.2807440000721435,-1.0176876227008265,-0.20328838029970342
1708437547.9242308,-1.1049799919128418,-1.681936880151266,-2.526811424885885,2.280752106303833,-1.0176962057696741,-0.20323068300356084
1708437547.926195,-1.104971170425415,-1.6819573841490687,-2.526806894932882,2.2807773786732177,-1.0177367369281214,-0.20329267183412725
1708437547.9281974,-1.1049680709838867,-1.6819573841490687,-2.526844088231222,2.280772848720215,-1.0177000204669397,-0.20324737230409795
1708437547.9301972,-1.1050055027008057,-1.6819411716856898,-2.5268035570727747,2.2807609277912597,-1.0177410284625452,-0.20324355760683233
1708437547.9322133,-1.105008602142334,-1.6819049320616664,-2.5268026033984583,2.2807187277027587,-1.0177205244647425,-0.20327598253359014
1708437547.9342003,-1.104992389678955,-1.6819573841490687,-2.526806894932882,2.2807440000721435,-1.0177205244647425,-0.20324737230409795
1708437547.936206,-1.1049842834472656,-1.6818677387633265,-2.52682334581484,2.2807742792316894,-1.0177529493915003,-0.2032392660724085
1708437547.9381926,-1.105008602142334,-1.6819168529906214,-2.5268078486071985,2.280757351512573,-1.01772386232485,-0.2032559553729456
1708437547.9402034,-1.1049474477767944,-1.6819335422911585,-2.5268035570727747,2.2808026510426025,-1.0177128950702112,-0.20329219499696904
1708437547.9422135,-1.1049842834472656,-1.6819125614561976,-2.526802364979879,2.2807158666798095,-1.0176790396319788,-0.20326024690736944
1708437547.944222,-1.1049387454986572,-1.6819411716856898,-2.526811424885885,2.2807485300251464,-1.0177128950702112,-0.20330983797182256
1708437547.9461915,-1.1049842834472656,-1.6818825207152308,-2.526844088231222,2.2807275491901855,-1.0176551977740687,-0.20333367982973272
1708437547.9482684,-1.104996919631958,-1.6819125614561976,-2.526832405720846,2.2807394701191406,-1.0176833311664026,-0.2033007780658167
1708437547.9502246,-1.1049680709838867,-1.6819035015501917,-2.526820484791891,2.2808145719715576,-1.0177043120013636,-0.20332080522646123
1708437547.9522169,-1.104996919631958,-1.6818753681578578,-2.526815954838888,2.2807609277912597,-1.0177248159991663,-0.2033007780658167
1708437547.9542143,-1.1049975156784058,-1.6819616756834925,-2.526778046284811,2.280756397838257,-1.0177529493915003,-0.2033165136920374
1708437547.9562335,-1.1049836874008179,-1.6819077930846156,-2.526832405720846,2.2807983595081787,-1.0176671187030237,-0.20329648653139287
1708437547.958209,-1.104963779449463,-1.6819378338255824,-2.526811424885885,2.2807773786732177,-1.0177128950702112,-0.20329648653139287
1708437547.9602103,-1.104971170425415,-1.6819125614561976,-2.526811424885885,2.2806994157978515,-1.0176833311664026,-0.20325881639589483
1708437547.9622402,-1.1049392223358154,-1.6819335422911585,-2.526811424885885,2.2807907301136474,-1.017707649861471,-0.20325833955873662
1708437547.964235,-1.105013132095337,-1.6818839512267054,-2.526825014744894,2.2807609277912597,-1.0176628271686,-0.20329648653139287
1708437547.9662485,-1.1050174236297607,-1.6818930111327113,-2.526820484791891,2.2807907301136474,-1.017695728932516,-0.20330363908876592
1708437547.9682858,-1.1049880981445312,-1.6818796596922816,-2.526794497166769,2.280772848720215,-1.0177248159991663,-0.20325881639589483
1708437547.9702432,-1.104996919631958,-1.6818915806212367,-2.526820484791891,2.2807068067738037,-1.0177205244647425,-0.2032836119281214
1708437547.972222,-1.1050012111663818,-1.6819154224791468,-2.526773754750387,2.2807609277912597,-1.017707649861471,-0.20332891145815069
1708437547.9742439,-1.1049799919128418,-1.6819459400572718,-2.5268123785602015,2.280756397838257,-1.0177572409259241,-0.20331222215761358
1708437547.9762344,-1.1049754619598389,-1.6819411716856898,-2.5267871061908167,2.280752106303833,-1.0177324453936976,-0.203348461781637
1708437547.97823,-1.1049842834472656,-1.6818825207152308,-2.526815954838888,2.280796690578125,-1.0177128950702112,-0.20335275331606084
1708437547.9802513,-1.1049518585205078,-1.6818825207152308,-2.526789967213766,2.2807440000721435,-1.0177281538592737,-0.20331174532045537
1708437547.9822059,-1.1050174236297607,-1.6819168529906214,-2.526773754750387,2.2807394701191406,-1.0177443663226526,-0.20335275331606084
1708437547.9842026,-1.104992389678955,-1.681866308251852,-2.526799027119772,2.2807485300251464,-1.0176833311664026,-0.2032864729510706
1708437547.9861963,-1.1049387454986572,-1.6818825207152308,-2.526811424885885,2.2807394701191406,-1.0177443663226526,-0.2033322493182581
1708437547.988206,-1.104996919631958,-1.6818705997862757,-2.526832405720846,2.280789299602173,-1.0177486578570765,-0.2032864729510706
1708437547.9902043,-1.1049680709838867,-1.6819292507567347,-2.52682334581484,2.280714197749756,-1.0177086035357874,-0.20331937471498662
1708437547.9922032,-1.1049680709838867,-1.6819125614561976,-2.526818815861837,2.2807654577442626,-1.0177000204669397,-0.2033475081073206
1708437547.9942024,-1.1049799919128418,-1.6819244823851527,-2.526806894932882,2.2807068067738037,-1.017695728932516,-0.20338470140566045
1708437547.9962242,-1.104996919631958,-1.6819616756834925,-2.526789967213766,2.2807530599781494,-1.0176790396319788,-0.2033475081073206
1708437547.998223,-1.1049754619598389,-1.6818844280638636,-2.526827875767843,2.2807819086262207,-1.0177529493915003,-0.20335179964174444
1708437548.0002098,-1.104996919631958,-1.6818844280638636,-2.526778046284811,2.2808055120655517,-1.0177205244647425,-0.20338040987123662
1708437548.002213,-1.1049680709838867,-1.6819831333556117,-2.52682334581484,2.2808026510426025,-1.0177119413958948,-0.20330745378603154
1708437548.004229,-1.104992389678955,-1.681866308251852,-2.5268026033984583,2.2807232576557617,-1.0176790396319788,-0.20339614549745733
1708437548.0062199,-1.1049754619598389,-1.6818796596922816,-2.526848856602804,2.2807349401661376,-1.0176833311664026,-0.2033761183368128
1708437548.0082312,-1.104992389678955,-1.6819125614561976,-2.52682334581484,2.2806903558918457,-1.0177162329303187,-0.20340043703188115
1708437548.0102139,-1.1050174236297607,-1.6819616756834925,-2.526799027119772,2.2807699876972656,-1.0177324453936976,-0.2033761183368128
1708437548.0122123,-1.104971170425415,-1.6819616756834925,-2.526802364979879,2.2807187277027587,-1.0177572409259241,-0.2034085432635706
1708437548.014218,-1.105008602142334,-1.6819292507567347,-2.526827875767843,2.2807864385792236,-1.0177281538592737,-0.20339996019472295
1708437548.0162344,-1.104992389678955,-1.6819168529906214,-2.526806894932882,2.2808026510426025,-1.01772386232485,-0.2033913771258753
1708437548.0182781,-1.104963779449463,-1.6819216213622035,-2.5268307367907923,2.2807773786732177,-1.0177324453936976,-0.2033632437335413
1708437548.0202038,-1.1049680709838867,-1.6819035015501917,-2.526778046284811,2.2807394701191406,-1.0177443663226526,-0.20335895219911748
1708437548.0221975,-1.1049842834472656,-1.6819154224791468,-2.526839796696798,2.280752106303833,-1.0177281538592737,-0.20343143144716436
1708437548.024194,-1.10495924949646,-1.6818872890868128,-2.526789967213766,2.2807609277912597,-1.0177119413958948,-0.20341951051820928
1708437548.0261972,-1.105008602142334,-1.6818753681578578,-2.52686053911318,2.280752106303833,-1.01772386232485,-0.2034686247455042
1708437548.0282133,-1.10495924949646,-1.6819831333556117,-2.526818815861837,2.2807187277027587,-1.0177486578570765,-0.2034390608416956
1708437548.030188,-1.1049386262893677,-1.68192782024526,-2.526806894932882,2.2807187277027587,-1.0177119413958948,-0.20344764391054326
1708437548.0322664,-1.104943037033081,-1.6819244823851527,-2.526757303868429,2.2807485300251464,-1.0177281538592737,-0.2034686247455042
1708437548.034193,-1.1050293445587158,-1.6819168529906214,-2.52682334581484,2.2808055120655517,-1.0177043120013636,-0.20346433321108037
1708437548.0362127,-1.104996919631958,-1.6819459400572718,-2.52683669725527,2.2808145719715576,-1.0177272001849573,-0.20346004167665654
1708437548.0382,-1.1049680709838867,-1.6819006405272425,-2.526794497166769,2.2807609277912597,-1.0177562872516077,-0.20350867906679326
1708437548.0402088,-1.1049474477767944,-1.6818963489928187,-2.52682334581484,2.2807349401661376,-1.0177281538592737,-0.20344764391054326
1708437548.0421984,-1.1050100326538086,-1.6819125614561976,-2.526781145726339,2.2807530599781494,-1.0177434126483362,-0.20344335237611944
1708437548.0442145,-1.105012059211731,-1.6819125614561976,-2.526848856602804,2.2807935911365966,-1.017735783253805,-0.2034838835345667
1708437548.046194,-1.104996919631958,-1.6819592914977015,-2.526832405720846,2.280768318767212,-1.0178054014789026,-0.2034514586078089
1708437548.048279,-1.104996919631958,-1.6819049320616664,-2.526827875767843,2.28078476964917,-1.0177562872516077,-0.2034671942340296
1708437548.050203,-1.1049680709838867,-1.6819292507567347,-2.526844326649801,2.280714197749756,-1.0177724997149866,-0.2034671942340296
1708437548.052209,-1.104947566986084,-1.6819459400572718,-2.526806894932882,2.2807609277912597,-1.0177443663226526,-0.20344144502748662
1708437548.0542095,-1.1049680709838867,-1.6818753681578578,-2.526867930089132,2.2807394701191406,-1.017763916646139,-0.2035163084613245
1708437548.0562146,-1.1050043106079102,-1.6818796596922816,-2.526853148137228,2.2808026510426025,-1.0177152792560022,-0.20351964632143194
1708437548.058215,-1.1050055027008057,-1.6819125614561976,-2.5268026033984583,2.2808191019245605,-1.0177152792560022,-0.2035282293902796
1708437548.0602643,-1.104996919631958,-1.6819077930846156,-2.526785437260763,2.280764027232788,-1.01774770418276,-0.20355683961977178
1708437548.0622215,-1.1049754619598389,-1.6819125614561976,-2.52682334581484,2.2807440000721435,-1.0177715460406702,-0.2035153547870081
1708437548.064211,-1.1049262285232544,-1.6819502315916957,-2.526835266743795,2.280764027232788,-1.017796818410055,-0.20359641710390264
1708437548.0662155,-1.104992389678955,-1.6819216213622035,-2.526844088231222,2.280772848720215,-1.0177434126483362,-0.2035763899432581
1708437548.0682752,-1.1049799919128418,-1.6819201908507289,-2.526806894932882,2.280756397838257,-1.017763916646139,-0.20355683961977178
1708437548.070207,-1.105013132095337,-1.6819125614561976,-2.5268517176257532,2.280789299602173,-1.0177715460406702,-0.20360070863832647
1708437548.0722017,-1.105020523071289,-1.6818767986693324,-2.526839796696798,2.28078476964917,-1.017796818410055,-0.20355111757387334
1708437548.074202,-1.104996919631958,-1.6819707355894984,-2.526818815861837,2.2807349401661376,-1.0178335348712366,-0.2035468260394495
1708437548.0761938,-1.1049754619598389,-1.6819125614561976,-2.526888910924093,2.2807230192371826,-1.0178011099444788,-0.2035468260394495
1708437548.078206,-1.1050174236297607,-1.6818543873228968,-2.526839796696798,2.2807935911365966,-1.017775837575094,-0.20354253450502569
1708437548.080199,-1.1050249338150024,-1.6818930111327113,-2.526785437260763,2.2807907301136474,-1.0177715460406702,-0.2035592238055628
1708437548.0821977,-1.1050249338150024,-1.6819740734496058,-2.5268054644214075,2.280756397838257,-1.0177596251117151,-0.20356351533998662
1708437548.084222,-1.104996919631958,-1.6819125614561976,-2.5267766157733362,2.280768318767212,-1.0177882353412073,-0.20362407365907842
1708437548.0862093,-1.105013132095337,-1.6818634472289027,-2.526839796696798,2.2807275491901855,-1.0178282896624964,-0.20358354250063115
1708437548.08821,-1.10495924949646,-1.6818963489928187,-2.5268545786487024,2.2807530599781494,-1.0178325811969202,-0.20360356966127569
1708437548.0902126,-1.1049799919128418,-1.6819077930846156,-2.5268755594836634,2.2807323175617675,-1.0177958647357386,-0.20360356966127569
1708437548.0922003,-1.1049836874008179,-1.6818825207152308,-2.5268262068377894,2.2807609277912597,-1.0177796522723597,-0.20362407365907842
1708437548.0941982,-1.105008602142334,-1.6819168529906214,-2.526839796696798,2.2807485300251464,-1.0177958647357386,-0.2035916487323206
1708437548.0962005,-1.1050174236297607,-1.6819168529906214,-2.5268338362323206,2.2807440000721435,-1.0178001562701624,-0.2035463492022913
1708437548.098217,-1.1049349308013916,-1.6819292507567347,-2.5268517176257532,2.280756397838257,-1.0177586714373987,-0.20356637636293584
1708437548.1002445,-1.1050174236297607,-1.6818977795042933,-2.526835266743795,2.2807699876972656,-1.0178034941302698,-0.20357019106020147
1708437548.1022131,-1.1049505472183228,-1.6818705997862757,-2.5268262068377894,2.2808026510426025,-1.0178163687335413,-0.20357877412904912
1708437548.1042407,-1.1049931049346924,-1.6819573841490687,-2.5269010702716272,2.2807320791431884,-1.0178325811969202,-0.20362407365907842
1708437548.1062026,-1.104963779449463,-1.6818915806212367,-2.5268219153033655,2.2807864385792236,-1.0178197065936487,-0.20360356966127569
1708437548.1082137,-1.1050174236297607,-1.6819125614561976,-2.5268307367907923,2.28074757635083,-1.0178197065936487,-0.2036197821246546
1708437548.1102066,-1.1049518585205078,-1.6819707355894984,-2.5268755594836634,2.2807440000721435,-1.0178402105914515,-0.20362407365907842
1708437548.1122057,-1.1049931049346924,-1.6818963489928187,-2.526839796696798,2.2807981210895996,-1.0178197065936487,-0.20358735719789678
1708437548.1142352,-1.1050143241882324,-1.6819097004332484,-2.5268471876727503,2.280697985286377,-1.0178478399859827,-0.20358306566347295
1708437548.1162758,-1.1049474477767944,-1.6819244823851527,-2.5268471876727503,2.28078476964917,-1.0178230444537562,-0.20355064073671514
1708437548.1182103,-1.105038046836853,-1.6819125614561976,-2.5268636385547083,2.2808100420185546,-1.0178521315204065,-0.20358735719789678
1708437548.1202354,-1.104992389678955,-1.6819006405272425,-2.5268381277667444,2.280752106303833,-1.0178845564471644,-0.20356780687441045
1708437548.1221986,-1.104963779449463,-1.6818915806212367,-2.526888910924093,2.2808071809956054,-1.0178802649127405,-0.20359594026674444
1708437548.1242013,-1.1049680709838867,-1.6819335422911585,-2.5268219153033655,2.2807935911365966,-1.0178597609149378,-0.2036078611956995
1708437548.1261911,-1.1050456762313843,-1.6818677387633265,-2.5268664995776575,2.280768318767212,-1.0178964773761194,-0.20356780687441045
1708437548.1282182,-1.1049343347549438,-1.6818753681578578,-2.5268755594836634,2.2807935911365966,-1.017867390309469,-0.20351106325258428
1708437548.130204,-1.1050012111663818,-1.6819459400572718,-2.5268173853503626,2.2807819086262207,-1.0178759733783167,-0.20350248018373662
1708437548.1322522,-1.1049754619598389,-1.6819006405272425,-2.5268800894366663,2.2807773786732177,-1.017883602772848,-0.2035282293902796
1708437548.1342008,-1.1050043106079102,-1.6818844280638636,-2.5269489924060267,2.28078476964917,-1.017883602772848,-0.20349151292909795
1708437548.1361976,-1.1050218343734741,-1.6818963489928187,-2.5269489924060267,2.28078476964917,-1.017907444630758,-0.20351201692690069
1708437548.1381984,-1.1049754619598389,-1.6819049320616664,-2.5269370714770716,2.2808071809956054,-1.0178545157061976,-0.2034390608416956
1708437548.140205,-1.1050055027008057,-1.6818915806212367,-2.526919190083639,2.280768557185791,-1.017928425465719,-0.2034390608416956
1708437548.1421928,-1.105020523071289,-1.6818677387633265,-2.526943031941549,2.2807440000721435,-1.017928425465719,-0.20341188112367803
1708437548.1442118,-1.1049799919128418,-1.6819526157774867,-2.526968781148092,2.2808191019245605,-1.0179112593280237,-0.20340329805483037
1708437548.1462033,-1.104943037033081,-1.6819259128966273,-2.526931111012594,2.280730648631714,-1.017911736165182,-0.20339996019472295
1708437548.1482217,-1.1050043106079102,-1.6819292507567347,-2.526947561894552,2.280768318767212,-1.0178750197040003,-0.2033141295062464
1708437548.1502302,-1.1049768924713135,-1.6818753681578578,-2.526919190083639,2.280756397838257,-1.017878834401266,-0.20333987871278936
1708437548.152246,-1.1049799919128418,-1.6819125614561976,-2.52690560022463,2.2807440000721435,-1.017928425465719,-0.2033160368548792
1708437548.1542315,-1.104947566986084,-1.6818872890868128,-2.5269926230060022,2.2808219629475097,-1.0179274717914026,-0.2032840887652796
1708437548.1562195,-1.105013132095337,-1.6818844280638636,-2.5269597212420862,2.2808026510426025,-1.017907444630758,-0.20323211351503545
1708437548.158227,-1.105008602142334,-1.6819049320616664,-2.5269597212420862,2.2807394701191406,-1.0178917090045374,-0.20315057436098272
1708437548.1602132,-1.1049723625183105,-1.6819139919676722,-2.527030054722921,2.2807864385792236,-1.0179031530963343,-0.2031186262713831
1708437548.162215,-1.1049518585205078,-1.6818510494627894,-2.52690560022463,2.2807983595081787,-1.0178945700274866,-0.20312816301454717
1708437548.1642585,-1.104996919631958,-1.6819049320616664,-2.5269716421710413,2.2807773786732177,-1.0179360548602503,-0.2030108610736292
1708437548.1662319,-1.10495924949646,-1.6819216213622035,-2.52696401277651,2.2807366090961914,-1.0178917090045374,-0.2029789129840296
1708437548.1682682,-1.1049768924713135,-1.6819244823851527,-2.5270031134234827,2.2807440000721435,-1.0179641882525843,-0.20293218294252569
1708437548.1702359,-1.1049799919128418,-1.681936880151266,-2.5269792715655726,2.280772848720215,-1.0179479757892054,-0.20287973085512334
1708437548.172216,-1.1049305200576782,-1.6819459400572718,-2.5269418398486536,2.2807742792316894,-1.0179641882525843,-0.20279962221254522
1708437548.174237,-1.1049606800079346,-1.6819168529906214,-2.5269373098956507,2.2807935911365966,-1.0179804007159632,-0.2026904265033167
1708437548.1762385,-1.104909896850586,-1.6819292507567347,-2.5269671122180384,2.2807654577442626,-1.0179641882525843,-0.20260793367494756
1708437548.1782362,-1.1049474477767944,-1.6819077930846156,-2.5269463698016565,2.2807609277912597,-1.0180085341082972,-0.2025073210345667
1708437548.1802227,-1.104960560798645,-1.6819459400572718,-2.5269418398486536,2.280756397838257,-1.0179632345782679,-0.20242339769472295
1708437548.1822236,-1.1049842834472656,-1.6819292507567347,-2.5269911924945276,2.2807609277912597,-1.0180123488055628,-0.20231563249696904
1708437548.1842113,-1.1049561500549316,-1.6818586788573207,-2.5269838015185755,2.2807530599781494,-1.0179956595050257,-0.20221215883363897
1708437548.1862261,-1.104963779449463,-1.6819244823851527,-2.5269580523120325,2.28074757635083,-1.018019978200094,-0.2020638624774378
1708437548.1882443,-1.1049723625183105,-1.6819664440550746,-2.5269535223590296,2.2807771402546386,-1.0179784933673304,-0.20191938081850225
1708437548.190201,-1.1049306392669678,-1.6819616756834925,-2.5269671122180384,2.2807609277912597,-1.0180071035968226,-0.20178395906557256
1708437548.1922,-1.1049649715423584,-1.681899210015768,-2.5270002524005335,2.2807320791431884,-1.0180276075946253,-0.20166093507875615
1708437548.1942146,-1.1049261093139648,-1.6818725071349085,-2.5269792715655726,2.2808145719715576,-1.0180071035968226,-0.201545540486471
1708437548.1962044,-1.104947566986084,-1.6819411716856898,-2.5269838015185755,2.280756397838257,-1.0180838743792933,-0.20131093660463506
1708437548.198207,-1.1049606800079346,-1.6819549999632777,-2.526970450078146,2.2807819086262207,-1.018060032521383,-0.2011016050921839
1708437548.200258,-1.1049723625183105,-1.6819201908507289,-2.5270002524005335,2.280764027232788,-1.0180590788470667,-0.2009800116168421
1708437548.2022152,-1.104939341545105,-1.6819201908507289,-2.5269418398486536,2.2808071809956054,-1.0180919806109827,-0.200782601033346
1708437548.2042608,-1.104911208152771,-1.6818872890868128,-2.5269911924945276,2.2807411390491943,-1.0180752913104456,-0.20064336458315069
1708437548.2062147,-1.1049156188964844,-1.681944032708639,-2.5269880930529993,2.2806948858448486,-1.0180624167071741,-0.2004779020892542
1708437548.2082176,-1.1049230098724365,-1.6819325886168421,-2.5269580523120325,2.2808262544819335,-1.0180991331683558,-0.2003091017352503
1708437548.2102282,-1.104924201965332,-1.681850095788473,-2.526944700871603,2.2808071809956054,-1.0180991331683558,-0.20000726381410772
1708437548.2122264,-1.1049062013626099,-1.6819168529906214,-2.5269671122180384,2.2807187277027587,-1.0181439558612269,-0.19984466234316045
1708437548.214233,-1.104883074760437,-1.6819573841490687,-2.5270076433764856,2.2807609277912597,-1.0181439558612269,-0.19962007204164678
1708437548.216204,-1.1049697399139404,-1.6819292507567347,-2.526923720036642,2.2807530599781494,-1.0180986563311976,-0.19938356081117803
1708437548.2182178,-1.1049156188964844,-1.68192782024526,-2.527052942906515,2.2807819086262207,-1.018151585255758,-0.1991947332965296
1708437548.2201986,-1.1049567461013794,-1.681939264337057,-2.527052942906515,2.2807485300251464,-1.0181711355792444,-0.1988924185382288
1708437548.2221956,-1.104899287223816,-1.6819483242430628,-2.527092997227804,2.2807440000721435,-1.0181224981891077,-0.19865543047060186
1708437548.2242062,-1.1048825979232788,-1.6818872890868128,-2.5270958582507532,2.2807068067738037,-1.0181916395770472,-0.1984499136554163
1708437548.2261958,-1.1048922538757324,-1.6819325886168421,-2.5270705858813685,2.280757351512573,-1.0181506315814417,-0.1981280485736292
1708437548.2282076,-1.1048542261123657,-1.6819125614561976,-2.5270705858813685,2.280757351512573,-1.0181635061847132,-0.19787341753114873
1708437548.2302084,-1.1049168109893799,-1.6819473705687464,-2.5271034876452845,2.2807440000721435,-1.0181353727923792,-0.19762736955751592
1708437548.2322462,-1.1048699617385864,-1.6819244823851527,-2.5270751158343714,2.2806755739399414,-1.0181439558612269,-0.19731551805605108
1708437548.2341995,-1.104892373085022,-1.6819154224791468,-2.5270825068103235,2.2807082372852783,-1.0181439558612269,-0.1969369093524378
1708437548.236196,-1.1048879623413086,-1.6819411716856898,-2.5271080175982874,2.280684395427368,-1.0180862585650843,-0.19665271440614873
1708437548.2382033,-1.1048316955566406,-1.6819335422911585,-2.5271123091327112,2.2806874948688964,-1.0181353727923792,-0.19631702104677373
1708437548.240191,-1.1048717498779297,-1.6819483242430628,-2.5271156469928187,2.280733509654663,-1.0181430021869105,-0.19603473344911748
1708437548.2422001,-1.1048879623413086,-1.6818915806212367,-2.527139727269308,2.2806801038929443,-1.0181506315814417,-0.19572621980776006
1708437548.2442248,-1.104851245880127,-1.6819335422911585,-2.527102295552389,2.2807246881672363,-1.0181754271136683,-0.19537860551942998
1708437548.2462502,-1.1048598289489746,-1.6819244823851527,-2.5270989576922815,2.280717297191284,-1.0181711355792444,-0.19500571886171514
1708437548.248196,-1.1048110723495483,-1.6819335422911585,-2.5271275679217737,2.2806636530109863,-1.0181787649737757,-0.194650952016012
1708437548.2502093,-1.1049009561538696,-1.6819168529906214,-2.527139727269308,2.280672474498413,-1.0181668440448206,-0.19427663484682256
1708437548.2522495,-1.1048078536987305,-1.6819244823851527,-2.527123037968771,2.280639095897339,-1.0182073752032679,-0.19386417070497686
1708437548.2542443,-1.1048492193222046,-1.6819950542845667,-2.5271111170398157,2.2806646066853027,-1.0182517210589808,-0.19346267381776983
1708437548.2562008,-1.1048566102981567,-1.6819616756834925,-2.527155939732687,2.280686064357422,-1.018243137990133,-0.19305926958192998
1708437548.2581942,-1.1047823429107666,-1.6819244823851527,-2.527180020009176,2.280599279994629,-1.0182464758502405,-0.19268399873842412
1708437548.2602143,-1.1047747135162354,-1.6819325886168421,-2.527113978062765,2.280681534404419,-1.0182388464557093,-0.19217950502504522
1708437548.262224,-1.1048414707183838,-1.6819549999632777,-2.527138058339254,2.2806362348743896,-1.0182750860797327,-0.19184428850282842
1708437548.2642484,-1.1048402786254883,-1.6819292507567347,-2.5271769205676478,2.2806407648273925,-1.0182836691485804,-0.19140893617738897
1708437548.2661977,-1.1048328876495361,-1.6819154224791468,-2.527175490056173,2.2806615072437744,-1.0183075110064905,-0.19102555910219365
1708437548.268253,-1.104799747467041,-1.681969781915182,-2.5271218458758753,2.2805916506000976,-1.0183232466327112,-0.19055301347841436
1708437548.270218,-1.1047991514205933,-1.6819411716856898,-2.527168099080221,2.2806362348743896,-1.0183799902545374,-0.190195385609762
1708437548.2722266,-1.1047909259796143,-1.681936880151266,-2.527142588292257,2.2806243139454345,-1.018294636403219,-0.18966228166689092
1708437548.274204,-1.104771614074707,-1.6819459400572718,-2.5272133986102503,2.280613823527954,-1.0182903448687952,-0.1892035643206995
1708437548.2762547,-1.104758381843567,-1.6819201908507289,-2.527154509221212,2.2805709081837158,-1.018367115651266,-0.18875104585756475
1708437548.2781973,-1.1047509908676147,-1.6819664440550746,-2.527175490056173,2.2805961805531005,-1.018350903187887,-0.1882689634906214
1708437548.2801998,-1.1047433614730835,-1.681911130944723,-2.527151648198263,2.280613823527954,-1.0183542410479944,-0.18781739870180303
1708437548.2821999,-1.1047759056091309,-1.6819244823851527,-2.52717096010317,2.2805463510700683,-1.0183833281146448,-0.18727666536440069
1708437548.2842185,-1.1047390699386597,-1.6819483242430628,-2.527175490056173,2.2805723386951904,-1.018407169972555,-0.1867902914630335
1708437548.2862153,-1.1047390699386597,-1.6819154224791468,-2.5271876494037073,2.2806214529224853,-1.0183380285846155,-0.1862128416644495
1708437548.2882063,-1.1047152280807495,-1.6819411716856898,-2.5271454493152063,2.280625744456909,-1.0184357802020472,-0.18565732637514287
1708437548.290204,-1.1047401428222656,-1.6819616756834925,-2.527213160191671,2.280602141017578,-1.0184434095965784,-0.1851566473590296
1708437548.2922246,-1.1047520637512207,-1.682002683679098,-2.5271454493152063,2.2806050020405273,-1.0184229055987757,-0.1845610777484339
1708437548.2942011,-1.1047271490097046,-1.6818872890868128,-2.527138058339254,2.2805961805531005,-1.0184639135943812,-0.18397599855531865
1708437548.2962043,-1.1047358512878418,-1.6819411716856898,-2.52714711824526,2.2806123930164794,-1.0184186140643519,-0.1834500471698206
1708437548.2982047,-1.1047401428222656,-1.6819526157774867,-2.5272372404681605,2.280538960094116,-1.0184629599200647,-0.18286163011659795
1708437548.3002288,-1.1047253608703613,-1.6819650135436,-2.5271876494037073,2.28058569013562,-1.0184467474566858,-0.18220454851259404
1708437548.3022149,-1.1047370433807373,-1.68192782024526,-2.5272281805621546,2.280581160182617,-1.0184500853167933,-0.18165666261781865
1708437548.304225,-1.1047208309173584,-1.6819607220091761,-2.5272071997271937,2.280568762416504,-1.018482510243551,-0.18098527589906865
1708437548.3062365,-1.1047457456588745,-1.6819077930846156,-2.5271952787982386,2.280593081111572,-1.0184791723834437,-0.1803987661944788
1708437548.3082426,-1.1046574115753174,-1.6819325886168421,-2.5272026697741907,2.2806095319935302,-1.018486801777975,-0.17963678041567022
1708437548.3102193,-1.104655146598816,-1.681969781915182,-2.5271907488452356,2.280625744456909,-1.0184629599200647,-0.1790717283831995
1708437548.3122125,-1.1046463251113892,-1.68192782024526,-2.527214590703146,2.280593081111572,-1.018458668385641,-0.1783970038043421
1708437548.3142297,-1.1047124862670898,-1.6819483242430628,-2.527259413396017,2.28058569013562,-1.018458668385641,-0.1777280012713831
1708437548.3162074,-1.104655146598816,-1.6819154224791468,-2.527172867451803,2.280581160182617,-1.018486801777975,-0.1770246664630335
1708437548.3182218,-1.1046638488769531,-1.6819683514037074,-2.527198139821188,2.280568762416504,-1.0184953848468226,-0.1762931982623499
1708437548.320221,-1.104668140411377,-1.6819607220091761,-2.527242962514059,2.280531330699585,-1.0184629599200647,-0.1755912939654749
1708437548.3222127,-1.1046726703643799,-1.681939264337057,-2.527288262044088,2.28050343572583,-1.018470589314596,-0.17480069795717412
1708437548.3242297,-1.1046189069747925,-1.6819526157774867,-2.527304712926046,2.2805256086536865,-1.0184510389911097,-0.1740511099444788
1708437548.3262103,-1.1046605110168457,-1.6819349728026332,-2.5273001829730433,2.280507727260254,-1.0184834639178675,-0.17330676714052373
1708437548.328222,-1.1046193838119507,-1.681955953637594,-2.5272658506976526,2.2805744844624023,-1.018515412007467,-0.17266494432558233
1708437548.3302166,-1.1046279668807983,-1.6819154224791468,-2.5272627512561243,2.2805210787006835,-1.0184739271747034,-0.17196542421449834
1708437548.3322577,-1.1046199798583984,-1.6819516621031703,-2.527316395436422,2.2805256086536865,-1.0185111204730433,-0.17121678987611944
1708437548.3342528,-1.1046242713928223,-1.68192782024526,-2.527250353490011,2.2804838854023437,-1.0185273329364222,-0.17051393190492803
1708437548.3362315,-1.1045798063278198,-1.681981702844137,-2.5273030439959925,2.2805165487476806,-1.0185564200030726,-0.16972238222231084
1708437548.3382287,-1.1046154499053955,-1.6819726429381312,-2.5273075739489954,2.2805256086536865,-1.018547836934225,-0.1689828077899378
1708437548.340209,-1.1046080589294434,-1.6819683514037074,-2.5272911230670374,2.2805375295826416,-1.0185392538653772,-0.16822368303407842
1708437548.3422213,-1.1044925451278687,-1.6820126972594203,-2.5272939840899866,2.2805375295826416,-1.0185187498675745,-0.16745263734926397
1708437548.344236,-1.1046091318130493,-1.681955953637594,-2.5273194948779505,2.2804884153553466,-1.0185383001910608,-0.16660911241640264
1708437548.3462207,-1.1045527458190918,-1.6819845638670863,-2.5273104349719446,2.2804550367542724,-1.01857835451235,-0.1658552328692835
1708437548.3482144,-1.1045739650726318,-1.6819726429381312,-2.5273435751544397,2.280468626613281,-1.0185383001910608,-0.16501123109926397
1708437548.3502178,-1.104511022567749,-1.6819874248900355,-2.5273223559008997,2.2805046278187255,-1.0185912291156214,-0.16412765184511358
1708437548.3522098,-1.104532241821289,-1.6819874248900355,-2.527289692555563,2.280463858241699,-1.018590275441305,-0.16334373155702764
1708437548.3542202,-1.1045002937316895,-1.6820036373534144,-2.5273478666888636,2.28049819051709,-1.018606964741842,-0.16245729127992803
1708437548.3562071,-1.104536533355713,-1.6820231876769007,-2.5273643175708216,2.28043715536084,-1.0186017195331019,-0.16165715852846319
1708437548.3582108,-1.1044883728027344,-1.682002683679098,-2.527306143437521,2.280481739635132,-1.0186589399920862,-0.16076928773988897
1708437548.3602138,-1.1044883728027344,-1.6820727787413539,-2.5273523966418665,2.2804698187061767,-1.0186470190631312,-0.15994149843324834
1708437548.362205,-1.1044796705245972,-1.682122369805807,-2.5273104349719446,2.280465527171753,-1.0186298529254358,-0.15909272829164678
1708437548.36425,-1.104455828666687,-1.682134290734762,-2.5272942225085657,2.2804416853138427,-1.0186589399920862,-0.158304516469137
1708437548.366213,-1.1044634580612183,-1.6820789776244105,-2.5273478666888636,2.280449076289795,-1.0186622778521937,-0.15740567842592412
1708437548.3682752,-1.1044926643371582,-1.6821524105467738,-2.5273223559008997,2.2804667192646484,-1.0187318960772913,-0.1566394011126917
1708437548.3702867,-1.1044645309448242,-1.6820861301817835,-2.5273314158069056,2.2804340559193115,-1.0186827818499964,-0.15577823320497686
1708437548.3722205,-1.1044853925704956,-1.6821657619872035,-2.5273268858539026,2.2803665834614257,-1.0187190214740198,-0.15488034883608037
1708437548.3742294,-1.1044764518737793,-1.6821352444090785,-2.527355496083395,2.2803754049488525,-1.018686596547262,-0.154093090687887
1708437548.376234,-1.104410171508789,-1.6821524105467738,-2.527339045201437,2.2804223734089355,-1.0187066237079065,-0.15315801302065069
1708437548.3782482,-1.1044948101043701,-1.6821280918517054,-2.527350966130392,2.2804133135029296,-1.018693749104635,-0.1522734800921839
1708437548.3802671,-1.1044689416885376,-1.6821896038451136,-2.5273359457599085,2.2804223734089355,-1.0187223593341272,-0.15147906938661748
1708437548.3822272,-1.1044572591781616,-1.6821352444090785,-2.5273810068713587,2.2804223734089355,-1.0187786261187952,-0.15057927766908819
1708437548.3842242,-1.104448676109314,-1.6821805439391078,-2.527334515248434,2.280360622996948,-1.0187581221209925,-0.14969379106630498
1708437548.386221,-1.1044658422470093,-1.6821967564024867,-2.527339045201437,2.2803308206745605,-1.0187419096576136,-0.14878446260561162
1708437548.3882253,-1.1043996810913086,-1.682167192498678,-2.527350966130392,2.280397816295288,-1.0187342802630823,-0.14793903032411748
1708437548.3902333,-1.1044321060180664,-1.6822077236571253,-2.527358595524923,2.2803043562122802,-1.0187214056598108,-0.14702922502626592
1708437548.3922136,-1.1044082641601562,-1.682228227654928,-2.527379576359884,2.280373974437378,-1.0186966101275843,-0.1460660139666956
1708437548.394207,-1.1043596267700195,-1.6821743450560511,-2.5273616949664515,2.2803279596516113,-1.0187590757953089,-0.14518577257265264
1708437548.396211,-1.1043637990951538,-1.682200094262594,-2.527367655430929,2.2803665834614257,-1.0187376181231897,-0.14435130754579717
1708437548.398225,-1.104318380355835,-1.68227018932485,-2.527424399052755,2.280308647746704,-1.018782917653219,-0.1433046499835413
1708437548.4002233,-1.104323148727417,-1.682228227654928,-2.527391497288839,2.2803429800220947,-1.0187061468707483,-0.14243632951845342
1708437548.4022253,-1.1043363809585571,-1.6822544536986292,-2.5274277369128626,2.2802468973347167,-1.018726650868551,-0.1415656248675745
1708437548.4042487,-1.1043200492858887,-1.6822239361205042,-2.5274365584002894,2.2802840906330566,-1.0187104384051722,-0.14068442979921514
1708437548.406215,-1.1042593717575073,-1.6822363338866175,-2.5274155775653284,2.2803265291401367,-1.018726650868551,-0.13979989687074834
1708437548.40823,-1.104254961013794,-1.6822520695128382,-2.5274232069598597,2.2802812296101074,-1.0187299887286585,-0.13887101808656865
1708437548.4102087,-1.1043260097503662,-1.6822272739806117,-2.5274110476123255,2.2802528577991943,-1.0187667051898401,-0.13800126711000615
1708437548.4122415,-1.1042723655700684,-1.6822363338866175,-2.5274396578418177,2.280233545894287,-1.0187624136554163,-0.13703900972475225
1708437548.4142094,-1.1042343378067017,-1.6822411022581996,-2.5273857752429407,2.2802693086811523,-1.018782917653219,-0.13618451753725225
1708437548.4162157,-1.1042979955673218,-1.6822806797423304,-2.5274065176593226,2.2802528577991943,-1.0187905470477503,-0.13525945345033819
1708437548.4182265,-1.104231595993042,-1.6822601757445277,-2.527479950581686,2.280240936870239,-1.0187743345843714,-0.1343596617328089
1708437548.4202108,-1.104194164276123,-1.6822477779784144,-2.52744704881777,2.2802619177052,-1.0187700430499476,-0.13342506090273076
1708437548.4222083,-1.1041548252105713,-1.6822520695128382,-2.5274351278888147,2.280245466823242,-1.0187538305865687,-0.13264352480043584
1708437548.4242072,-1.1041927337646484,-1.6822477779784144,-2.5274515787707728,2.280229015941284,-1.0187862555133265,-0.13164931932558233
1708437548.4261956,-1.1041465997695923,-1.6822434864439906,-2.5274515787707728,2.2802514272877197,-1.018790070210592,-0.13064700761903936
1708437548.4282098,-1.1041675806045532,-1.6822887859740199,-2.527437988911764,2.280179424876831,-1.0187819639789026,-0.1297853628741663
1708437548.4302013,-1.1041641235351562,-1.6822558842101039,-2.5274961630450647,2.2801882463642578,-1.018790070210592,-0.12882882753481084
1708437548.4322271,-1.104132890701294,-1.6822558842101039,-2.5274797121631067,2.280167503947876,-1.0187690893756312,-0.12797052065004522
1708437548.4342034,-1.1041312217712402,-1.6823121509947718,-2.52743369737734,2.280176563853882,-1.0187857786761683,-0.12707788148988897
1708437548.4362063,-1.1040910482406616,-1.6822973690428675,-2.527450148259298,2.280160112971924,-1.0188301245318812,-0.12622195879091436
1708437548.4382095,-1.1040925979614258,-1.6822558842101039,-2.52743369737734,2.2801734644123535,-1.018834416066305,-0.12535220781435186
1708437548.4402354,-1.104116439819336,-1.6822887859740199,-2.52743369737734,2.28016106664624,-1.0188830534564417,-0.12440520921816045
1708437548.4421966,-1.104088306427002,-1.6823092899718226,-2.527449909840719,2.280106707210205,-1.0188668409930628,-0.1235879103290003
1708437548.444222,-1.1040925979614258,-1.6823049984373988,-2.527491871510641,2.280083103770874,-1.0188701788531702,-0.12264615694154912
1708437548.4462,-1.104063630104065,-1.6823121509947718,-2.5275116602527063,2.280150814647339,-1.0188410917865198,-0.1217415968524378
1708437548.448214,-1.1041017770767212,-1.6823121509947718,-2.527491633092062,2.2800802427479248,-1.0188897291766565,-0.12085372606386358
1708437548.4502277,-1.1040427684783936,-1.6822778187193812,-2.527478281651632,2.2800935941883544,-1.0188940207110804,-0.11997491518129522
1708437548.452224,-1.104063630104065,-1.682324071923727,-2.527487341557638,2.2801055151173095,-1.0188735167132776,-0.11907989183534795
1708437548.4543574,-1.1040652990341187,-1.6823317013182582,-2.5275116602527063,2.280017538661621,-1.01892596880068,-0.11822873750795537
1708437548.4562442,-1.1040728092193604,-1.6823483906187953,-2.5275026003467005,2.2799693781086425,-1.0189464727984827,-0.11733657518495733
1708437548.4582212,-1.1039913892745972,-1.6823317013182582,-2.5274575392352503,2.280090494746826,-1.018982235585348,-0.11640388170351201
1708437548.460212,-1.1040116548538208,-1.6823812923827113,-2.527473751698629,2.279987259502075,-1.0189703146563929,-0.11547452608217412
1708437548.4622097,-1.1040161848068237,-1.6823317013182582,-2.527520481740133,2.280019922847412,-1.0189865271197718,-0.11454278627504522
1708437548.4642425,-1.1040014028549194,-1.6823483906187953,-2.5274692217456263,2.280008001918457,-1.018954102193014,-0.11355382600893194
1708437548.4662242,-1.1040178537368774,-1.6823722324767054,-2.527461830769674,2.279975100154541,-1.0189703146563929,-0.1126940886126917
1708437548.4683108,-1.1039797067642212,-1.6823307476439417,-2.527536932622091,2.279967947597168,-1.0189951101886194,-0.11178237596620733
1708437548.4702568,-1.1039843559265137,-1.6823679409422816,-2.5275116602527063,2.279996319408081,-1.0189779440509241,-0.11085349718202764
1708437548.4722226,-1.1039526462554932,-1.6823722324767054,-2.5275145212756556,2.280028982753418,-1.0189335981952112,-0.10992175737489873
1708437548.4742134,-1.1039526462554932,-1.6823770008482875,-2.5275326410876673,2.2800304132648925,-1.018982235585348,-0.10910302797426397
1708437548.4762306,-1.1039198637008667,-1.6823421917357386,-2.5275278727160853,2.279963417644165,-1.0189703146563929,-0.10823613802065069
1708437548.478215,-1.10390043258667,-1.6824008427061976,-2.5275190512286585,2.2799739080616455,-1.018966023121969,-0.10737687746156865
1708437548.4802139,-1.1038743257522583,-1.6823498211302699,-2.5274863878833216,2.2799486356922607,-1.0189369360553187,-0.10645848909486944
1708437548.4822145,-1.1038744449615479,-1.6823960743346156,-2.5275548140155237,2.2799767690845947,-1.0189250151263636,-0.10561210313905889
1708437548.4842198,-1.1039491891860962,-1.6824213467040003,-2.5275264422046106,2.2798942762562255,-1.0189855734454554,-0.10472232500185186
1708437548.4862008,-1.1039140224456787,-1.6824032268919886,-2.5275638739215296,2.2799076276966552,-1.0189779440509241,-0.10382539430727178
1708437548.4882312,-1.1038273572921753,-1.6824122867979945,-2.5275803248034876,2.279900475139282,-1.0189455191241663,-0.10296708742250615
1708437548.49021,-1.1038761138916016,-1.6824289760985316,-2.527529541646139,2.2799033361622314,-1.0189650694476526,-0.10204726854433233
1708437548.4921992,-1.1038731336593628,-1.682382722894186,-2.527600113545553,2.279941959972046,-1.0189779440509241,-0.10119754472841436
1708437548.494208,-1.1038403511047363,-1.68237366298818,-2.527600113545553,2.279913826579712,-1.0190017859088343,-0.10030728975404912
1708437548.4962354,-1.1038329601287842,-1.6824737987914027,-2.5275548140155237,2.279888554210327,-1.0190017859088343,-0.09940797487367803
1708437548.4982262,-1.1038239002227783,-1.6824304066100062,-2.527541462575094,2.279876633281372,-1.0189650694476526,-0.09850484529604131
1708437548.5002587,-1.103832721710205,-1.6824938259520472,-2.527588192616598,2.2798513609119873,-1.0190141836749476,-0.09768134752382451
1708437548.502221,-1.1038492918014526,-1.6824938259520472,-2.527550284062521,2.279880924815796,-1.0190261046039026,-0.09686929384340459
1708437548.5042849,-1.1038492918014526,-1.6824847660460414,-2.52759558359255,2.279901905650757,-1.0190303961383265,-0.09607965150942022
1708437548.5062513,-1.1037949323654175,-1.682472368279928,-2.527604405079977,2.279885454768799,-1.018984619771139,-0.09525186220277959
1708437548.5082347,-1.103830099105835,-1.682446619073385,-2.527607504521505,2.2798690038868408,-1.019001309071676,-0.09445411363710576
1708437548.5102153,-1.1038084030151367,-1.6824351749815882,-2.527536932622091,2.2798194128223876,-1.0190218130694788,-0.09361821809877569
1708437548.512222,-1.1037594079971313,-1.6824871502318324,-2.527553383504049,2.279885454768799,-1.0190046469317835,-0.09280378023256475
1708437548.5142322,-1.1037429571151733,-1.6825338802733363,-2.5275278727160853,2.279885454768799,-1.0190661589251917,-0.0920184294330042
1708437548.5162525,-1.103817105293274,-1.6824871502318324,-2.5275819937335413,2.2798148828693847,-1.0190413633929651,-0.09126931825746709
1708437548.518216,-1.1037683486938477,-1.6824914417662562,-2.527553383504049,2.2798492151447753,-1.0191023985492151,-0.09043246904482061
1708437548.520225,-1.1037265062332153,-1.6824423275389613,-2.527574602757589,2.279846115703247,-1.0190694967852991,-0.08958465257753545
1708437548.5222101,-1.1037845611572266,-1.6825086079039515,-2.527607504521505,2.2798752027698974,-1.019057575856344,-0.08878690401186162
1708437548.524245,-1.1037236452102661,-1.6824633083739222,-2.527623955403463,2.2798237043568115,-1.0190532843219202,-0.08800918260683233
1708437548.5262053,-1.1036782264709473,-1.6824871502318324,-2.527545754109518,2.279841824168823,-1.0190685431109827,-0.08716947237123662
1708437548.5282125,-1.1037654876708984,-1.6825276813902796,-2.5275819937335413,2.279846115703247,-1.019085709248678,-0.08641463914980108
1708437548.5302024,-1.103744387626648,-1.682486196557516,-2.5275865236865442,2.2798208433338623,-1.0190852324115198,-0.08558351198305303
1708437548.5322402,-1.1037253141403198,-1.6824904880919398,-2.527599875126974,2.279801531428955,-1.0191262404071253,-0.08477241197694951
1708437548.534209,-1.1037325859069824,-1.6824995479979457,-2.5275819937335413,2.2798165517994384,-1.0191424528705042,-0.08395749727358037
1708437548.5362568,-1.1037298440933228,-1.6825486622252406,-2.5275865236865442,2.279780789012573,-1.0191095511065882,-0.08308154741396123
1708437548.5384214,-1.1036875247955322,-1.6825486622252406,-2.527591053639547,2.279768868083618,-1.0191252867328089,-0.08235818544496709
1708437548.540212,-1.1037507057189941,-1.682507177392477,-2.5275984446154993,2.279726667995117,-1.0191009680377405,-0.08151704469789678
1708437548.542225,-1.1036757230758667,-1.6825162372984828,-2.5276406447040003,2.279808922404907,-1.0191543737994593,-0.08071500459779912
1708437548.5441935,-1.1037206649780273,-1.6824828586974085,-2.5275731722461146,2.279751701945923,-1.0191133658038538,-0.07998210588564092
1708437548.5462027,-1.103684425354004,-1.682498117486471,-2.5276315847979944,2.2797741132923584,-1.0191252867328089,-0.07917768159975225
1708437548.5481994,-1.1036475896835327,-1.6824947796263636,-2.5275896231280726,2.279777689571045,-1.01910907426943,-0.07843333879579717
1708437548.5502334,-1.10365629196167,-1.6824690304198207,-2.5276148954974573,2.2797562318989257,-1.0191543737994593,-0.07764846483339483
1708437548.5522358,-1.103652000427246,-1.6825114689269007,-2.527612034474508,2.279777689571045,-1.0191381613360804,-0.07688647905458623
1708437548.5542088,-1.1036639213562012,-1.682507177392477,-2.5275731722461146,2.2797652918049316,-1.0191052595721644,-0.07611209550966436
1708437548.5562267,-1.1036605834960938,-1.6825324497618617,-2.5275657812701624,2.2797867494770507,-1.0191338698016565,-0.07536489168276006
1708437548.5582037,-1.103681206703186,-1.682498117486471,-2.5276358763324183,2.2797443109699707,-1.0191662947284144,-0.07456714311708623
1708437548.5602171,-1.103640079498291,-1.682519098321432,-2.5276270548449915,2.2797414499470214,-1.0191414991961878,-0.07379180589784795
1708437548.5621939,-1.1036486625671387,-1.6824904880919398,-2.5276270548449915,2.2797326284595947,-1.019137207661764,-0.07305318513979131
1708437548.5642374,-1.1036485433578491,-1.6825396023192347,-2.5276435057269495,2.279707117671631,-1.019165341054098,-0.07236367860902959
1708437548.5662415,-1.1036324501037598,-1.6824714146056117,-2.5276477972613733,2.279750271434448,-1.0191577116595667,-0.07152253786195928
1708437548.568242,-1.1037062406539917,-1.6825162372984828,-2.527613703404562,2.2797414499470214,-1.0191286245929163,-0.07078630128969365
1708437548.5702624,-1.1036648750305176,-1.682481428185934,-2.5276225248919886,2.2797579008289794,-1.0191534201251429,-0.07000524202455694
1708437548.5722337,-1.1035993099212646,-1.6825605831541957,-2.527613703404562,2.2797249990650634,-1.019149128590719,-0.06929999986757451
1708437548.5742295,-1.1036605834960938,-1.6825486622252406,-2.5276103655444544,2.2797130781361084,-1.0191610495196741,-0.06848031679262334
1708437548.576252,-1.1036155223846436,-1.6824904880919398,-2.527609173451559,2.2797488409229736,-1.019182030354635,-0.06772882143129522
1708437548.578239,-1.1036195755004883,-1.6825820408263148,-2.527646605168478,2.279766722316406,-1.0191848913775843,-0.06701070467104131
1708437548.580281,-1.103641152381897,-1.682526250878805,-2.5277002493487757,2.2797371584125976,-1.019189182912008,-0.0663216749774378
1708437548.5822256,-1.1036243438720703,-1.682519098321432,-2.527670447026388,2.2797130781361084,-1.0191610495196741,-0.0655744711505335
1708437548.5842745,-1.1036323308944702,-1.682580133477682,-2.5276299158679407,2.279754801387451,-1.019193474446432,-0.06488353410829717
1708437548.5862749,-1.103628158569336,-1.682531019250387,-2.527654234563009,2.2797741132923584,-1.019189182912008,-0.06417972246278936
1708437548.588244,-1.1036412715911865,-1.682535310784811,-2.527646605168478,2.2797414499470214,-1.019189182912008,-0.06343204179872686
1708437548.590222,-1.1036324501037598,-1.6825233898558558,-2.527674976979391,2.2797741132923584,-1.0191848913775843,-0.0627067724810999
1708437548.5922136,-1.1036081314086914,-1.6825653515257777,-2.5277121702777308,2.2797459799000244,-1.0191929976092737,-0.06199008623232061
1708437548.5942018,-1.1036356687545776,-1.6825486622252406,-2.527679506932394,2.2797161775776367,-1.0192578474627894,-0.0613330046283167
1708437548.5962284,-1.1036367416381836,-1.6825024090208949,-2.5276451746570032,2.2797579008289794,-1.0192416349994105,-0.060662094746724904
1708437548.5981996,-1.103628158569336,-1.68247713665151,-2.527724091206686,2.2797621923634033,-1.0192535559283655,-0.059935871754781544
1708437548.6002653,-1.1036691665649414,-1.6825024090208949,-2.527698818837301,2.27977101385083,-1.0192087332354944,-0.059281174336568654
1708437548.602277,-1.1035993099212646,-1.682519098321432,-2.527686897908346,2.279754801387451,-1.0192697683917444,-0.058626953755513966
1708437548.6042378,-1.1035950183868408,-1.6825515232481898,-2.527670447026388,2.2798001009174804,-1.0192893187152308,-0.05794126192201787
1708437548.606239,-1.1036155223846436,-1.6825162372984828,-2.527674976979391,2.2797443109699707,-1.019256893788473,-0.05721122423280889
1708437548.608217,-1.1036198139190674,-1.682535310784811,-2.527694288884298,2.2797369199940185,-1.0193021933185022,-0.05651694933046514
1708437548.6102285,-1.1036286354064941,-1.6825443706908167,-2.52771240869631,2.2797459799000244,-1.0192893187152308,-0.055849854146138966
1708437548.6122162,-1.1036412715911865,-1.6825443706908167,-2.527686897908346,2.2797369199940185,-1.0193055311786097,-0.055183235798971
1708437548.614314,-1.1036648750305176,-1.682519098321432,-2.527724329625265,2.2797621923634033,-1.0193136374102991,-0.05447560945619756
1708437548.6162443,-1.1036574840545654,-1.6825643978514613,-2.527707640324728,2.2797443109699707,-1.0192764441119593,-0.05382997194399053
1708437548.6182244,-1.1036412715911865,-1.68251432994985,-2.527666155491964,2.2796999651142578,-1.0193169752704065,-0.053129021321431935
1708437548.6202035,-1.1036412715911865,-1.6825820408263148,-2.527689758931295,2.2797369199940185,-1.0193622748004358,-0.052419487630025685
1708437548.6222494,-1.1036412715911865,-1.6825233898558558,-2.5276525656329554,2.2797369199940185,-1.0193007628070276,-0.05169088045229131
1708437548.6242023,-1.1036529541015625,-1.6825605831541957,-2.527719799672262,2.2797867494770507,-1.0193007628070276,-0.05104953447450811
1708437548.626209,-1.1036854982376099,-1.682481428185934,-2.527710739766256,2.2797278600880126,-1.0193331877337855,-0.05041534105409795
1708437548.6282015,-1.1036412715911865,-1.6825100384154261,-2.527689758931295,2.2797786432453613,-1.0193656126605433,-0.04973489442934209
1708437548.6302073,-1.103599190711975,-1.6825276813902796,-2.527710739766256,2.2796923357197265,-1.0193536917315882,-0.04901248613466436
1708437548.6322036,-1.1036779880523682,-1.682507177392477,-2.5277062098132532,2.2797652918049316,-1.0193570295916956,-0.04840404192079717
1708437548.6341982,-1.1036324501037598,-1.6824490032591761,-2.527710739766256,2.2797488409229736,-1.0193494001971644,-0.04781181017030889
1708437548.6362174,-1.1036574840545654,-1.6825415096678675,-2.5277441183673304,2.2797042566486816,-1.019304100667135,-0.047135178242818654
1708437548.638231,-1.1036078929901123,-1.6825233898558558,-2.5277016798602503,2.2797652918049316,-1.0193408171283167,-0.046517197285787404
1708437548.6402178,-1.1036605834960938,-1.6825233898558558,-2.5277186075793665,2.279782457942627,-1.0193494001971644,-0.04588777223695928
1708437548.6421976,-1.1035993099212646,-1.6825205288329066,-2.527764860783712,2.279773159618042,-1.019304100667135,-0.04530221620668584
1708437548.644243,-1.1036280393600464,-1.6825114689269007,-2.5277259985553187,2.279773398036621,-1.019320313130514,-0.044683281575338185
1708437548.646251,-1.1036155223846436,-1.6824947796263636,-2.5277350584613245,2.279815121287964,-1.0193656126605433,-0.044047180806295216
1708437548.6482346,-1.1036280393600464,-1.682568689385885,-2.5277887026416224,2.2797652918049316,-1.0193408171283167,-0.043461147938863576
1708437548.65023,-1.1036155223846436,-1.682493349114889,-2.5277515093432825,2.2797607618519287,-1.0193775335894983,-0.04280215898622686
1708437548.6522448,-1.1036198139190674,-1.682486196557516,-2.5277634302722376,2.2797443109699707,-1.0194180647479456,-0.04211742082704717
1708437548.654239,-1.1036854982376099,-1.6824780903258265,-2.5277753512011927,2.2797741132923584,-1.019409481679098,-0.04150563875307256
1708437548.6562338,-1.103628158569336,-1.6825443706908167,-2.5277543703662317,2.2797533708759765,-1.0194061438189905,-0.04083615938295537
1708437548.6582267,-1.1036900281906128,-1.682531019250387,-2.5277753512011927,2.2797533708759765,-1.019437615071432,-0.04023963609804326
1708437548.6602383,-1.103590726852417,-1.6825443706908167,-2.5278082529651087,2.2797698217579345,-1.0193803946124476,-0.03960305849184209
1708437548.6622357,-1.1036243438720703,-1.6824780903258265,-2.527803961430685,2.279747410411499,-1.0194008986102503,-0.0390093962298792
1708437548.664248,-1.1036605834960938,-1.682498117486471,-2.527790371571676,2.2797910410114746,-1.019421402608053,-0.03827411333192998
1708437548.6662266,-1.1036769151687622,-1.682535310784811,-2.527745548878805,2.279777689571045,-1.0194247404681605,-0.03769570985902959
1708437548.6682189,-1.1035993099212646,-1.6824690304198207,-2.527790371571676,2.279782219524048,-1.0194085280047815,-0.03705341020692998
1708437548.670289,-1.1036486625671387,-1.6825205288329066,-2.527832333241598,2.279768868083618,-1.019461456929342,-0.036444965993062794
1708437548.6722634,-1.1036605834960938,-1.6824995479979457,-2.5277815500842493,2.279797001475952,-1.0194290320025843,-0.03588992754091436
1708437548.6742206,-1.1036112308502197,-1.6824904880919398,-2.527832333241598,2.2797600465961914,-1.0194485823260706,-0.03522664705385381
1708437548.6762037,-1.1036367416381836,-1.682547231713766,-2.527794901524679,2.2798594671436767,-1.0194810072528284,-0.034636799489156544
1708437548.678207,-1.103674292564392,-1.6825086079039515,-2.5278189818011683,2.2798313337513427,-1.0194528738604944,-0.034014526997701466
1708437548.6802077,-1.103668212890625,-1.6825324497618617,-2.527774159108297,2.279806061381958,-1.0194442907916468,-0.03350192705263311
1708437548.6822042,-1.1036854982376099,-1.682535310784811,-2.5278309027301233,2.2797896105,-1.0194442907916468,-0.03293067613710576
1708437548.68423,-1.1036648750305176,-1.682498117486471,-2.5278025309192103,2.279825373286865,-1.019501034413473,-0.03228980699648076
1708437548.686212,-1.103681206703186,-1.682481428185934,-2.527839962636129,2.279825373286865,-1.0194843451129358,-0.03174764314760381
1708437548.688201,-1.1036725044250488,-1.6825534305968226,-2.527790371571676,2.2798446851917724,-1.0194767157184046,-0.031176392232076466
1708437548.6902032,-1.1035993099212646,-1.682572980920309,-2.527832333241598,2.2799033361622314,-1.019512955342428,-0.03059083620180303
1708437548.6921914,-1.1036930084228516,-1.6824904880919398,-2.5277980009662073,2.279862566585205,-1.0194967428790491,-0.029941383992330373
1708437548.6942089,-1.1036725044250488,-1.6825038395323695,-2.527839962636129,2.279848261470459,-1.019524876271383,-0.029416386281148732
1708437548.6962202,-1.1036313772201538,-1.6824575863280238,-2.5277891794787806,2.279880924815796,-1.0194843451129358,-0.028794590626851857
1708437548.6982045,-1.1036767959594727,-1.6825162372984828,-2.5278025309192103,2.279901905650757,-1.0195453802691858,-0.028228584920064748
1708437548.700229,-1.103640079498291,-1.6825486622252406,-2.5278189818011683,2.279925747508667,-1.019501034413473,-0.02771026292909795
1708437548.7022312,-1.1036529541015625,-1.6825486622252406,-2.5278309027301233,2.279872103328369,-1.0195453802691858,-0.027085129414693654
1708437548.7042587,-1.1036516427993774,-1.682481428185934,-2.5278382937060755,2.279909296626709,-1.019524876271383,-0.026549641286031544
1708437548.7062395,-1.10365629196167,-1.6824737987914027,-2.527832333241598,2.2798632818409423,-1.019529167805807,-0.025970284138814748
1708437548.7082322,-1.1036367416381836,-1.6824995479979457,-2.5278099218951624,2.2798585134693603,-1.0195282141314905,-0.025423828755513966
1708437548.7102418,-1.103652000427246,-1.6824666462340296,-2.5278428236590784,2.279909296626709,-1.0195477644549769,-0.024875942860738576
1708437548.7122285,-1.103685975074768,-1.682507177392477,-2.5278382937060755,2.279925747508667,-1.019585434590475,-0.024350468312398732
1708437548.7142413,-1.1036150455474854,-1.6824737987914027,-2.5277891794787806,2.279916687602661,-1.019553009663717,-0.023778263722554982
1708437548.7162328,-1.10362708568573,-1.6825396023192347,-2.5278683344470423,2.279892845744751,-1.0195444265948694,-0.02321035066713506
1708437548.7182174,-1.1036887168884277,-1.6825605831541957,-2.5278847853290003,2.279913826579712,-1.0195358435260218,-0.022651497517720998
1708437548.720224,-1.1036516427993774,-1.6825024090208949,-2.5278638044940394,2.279937430019043,-1.0195367972003382,-0.02213746706117803
1708437548.7222114,-1.1037169694900513,-1.6825653515257777,-2.5279222170459192,2.2799619871326904,-1.0195401350604456,-0.021508042012349904
1708437548.724253,-1.1036635637283325,-1.6825324497618617,-2.527851645146505,2.2799739080616455,-1.019569222127096,-0.020926777516500294
1708437548.726206,-1.1036595106124878,-1.6825324497618617,-2.5278175512896937,2.2799152570911865,-1.0195367972003382,-0.02039987245668584
1708437548.7282298,-1.1036357879638672,-1.6825443706908167,-2.527879063283102,2.2799948888966064,-1.0195563475238245,-0.019849602376119435
1708437548.7302098,-1.1036639213562012,-1.6824904880919398,-2.5278473536120813,2.2799619871326904,-1.0195935408221644,-0.01931935945619756
1708437548.7322135,-1.103696346282959,-1.6824780903258265,-2.5278309027301233,2.279945059413574,-1.0195606390582483,-0.018807236348287404
1708437548.7342086,-1.10368013381958,-1.6824737987914027,-2.5278263727771204,2.2799405294605712,-1.0195806662188929,-0.018268887196676076
1708437548.7362342,-1.1037169694900513,-1.6825324497618617,-2.5278759638415735,2.2799648481556396,-1.0195606390582483,-0.017723862324849904
1708437548.7382128,-1.1037251949310303,-1.6825038395323695,-2.5278878847705286,2.2799605566212158,-1.019581143056051,-0.01719361940492803
1708437548.7401993,-1.1037532091140747,-1.6825038395323695,-2.527874533330099,2.2799648481556396,-1.0195978323565882,-0.01668244997133428
1708437548.7422044,-1.103712558746338,-1.6825024090208949,-2.5278640429126185,2.2800065714069824,-1.0195978323565882,-0.01618367830385381
1708437548.7442343,-1.1037431955337524,-1.6824575863280238,-2.5278473536120813,2.2799605566212158,-1.0195768515216272,-0.01570445695985967
1708437548.7462087,-1.1037487983703613,-1.6825248203673304,-2.5278669039355677,2.2800139623829345,-1.0195606390582483,-0.015192333851949513
1708437548.7482076,-1.1036946773529053,-1.6824780903258265,-2.527846161519186,2.2800139623829345,-1.0196049849139612,-0.014762226735250294
1708437548.7501967,-1.1037163734436035,-1.6825024090208949,-2.5278757254229944,2.2799977499195556,-1.0196135679828089,-0.014319721852437794
1708437548.752224,-1.1037076711654663,-1.6825205288329066,-2.527879063283102,2.2800423341938476,-1.0195892492877405,-0.013811413441793263
1708437548.7542171,-1.1037120819091797,-1.6825486622252406,-2.5278294722186487,2.2799932199665527,-1.0195606390582483,-0.01332265535463506
1708437548.7562866,-1.1037206649780273,-1.6824623546996058,-2.5278337637530726,2.2799767690845947,-1.0196006933795374,-0.012786690388814748
1708437548.7582207,-1.1037325859069824,-1.6825233898558558,-2.5278669039355677,2.280008001918457,-1.0196049849139612,-0.012361828480855763
1708437548.7602112,-1.1037609577178955,-1.6824914417662562,-2.5278340021716517,2.2800139623829345,-1.0196049849139612,-0.011879746113912404
1708437548.762212,-1.1037399768829346,-1.6824780903258265,-2.5278924147235315,2.2800215917774658,-1.0195964018451136,-0.011393372212545216
1708437548.7642395,-1.1037402153015137,-1.6825114689269007,-2.5278595129596155,2.279963656062744,-1.0195849577533167,-0.01096660295595342
1708437548.7662342,-1.1037445068359375,-1.6825233898558558,-2.5278175512896937,2.280045910472534,-1.0196130911456507,-0.010511223469869435
1708437548.7682412,-1.1037813425064087,-1.6824904880919398,-2.5278428236590784,2.280000849361084,-1.0195921103106897,-0.01004058519472295
1708437548.7702816,-1.1037235260009766,-1.6825486622252406,-2.5278969446765345,2.279963417644165,-1.0195964018451136,-0.009604279194967091
1708437548.772236,-1.103775978088379,-1.6825205288329066,-2.5278130213366907,2.280015392894409,-1.0195639769183558,-0.009123627339498341
1708437548.7742498,-1.1037434339523315,-1.68247713665151,-2.527883593236105,2.279991551036499,-1.0196173826800745,-0.008705917988912404
1708437548.7762783,-1.1037769317626953,-1.6825276813902796,-2.5278263727771204,2.280095263118408,-1.0195725599872034,-0.008307758961812794
1708437548.778322,-1.1037845611572266,-1.6825162372984828,-2.5278549830066126,2.280066891307495,-1.0195978323565882,-0.007880036030904591
1708437548.7802935,-1.1037553548812866,-1.6825324497618617,-2.5278263727771204,2.280050440425537,-1.0196006933795374,-0.007427517567769826
1708437548.7822452,-1.103800892829895,-1.6824408970274867,-2.527879063283102,2.2800325590321044,-1.0195849577533167,-0.007015530263082326
1708437548.7842414,-1.1037272214889526,-1.6824995479979457,-2.5278382937060755,2.2800533014484863,-1.0195892492877405,-0.006592098866597951
1708437548.7862566,-1.103817105293274,-1.6825367412962855,-2.5278638044940394,2.280019922847412,-1.0196293036090296,-0.0061600844012659195
1708437548.788215,-1.1037683486938477,-1.6824623546996058,-2.5278549830066126,2.280019922847412,-1.0195639769183558,-0.00576192537416631
1708437548.7902048,-1.1037921905517578,-1.6825024090208949,-2.5278354326831263,2.2800368505665283,-1.019609276448385,-0.005424801503316701
1708437548.7922149,-1.1038011312484741,-1.6824947796263636,-2.5278428236590784,2.280041380519531,-1.0195892492877405,-0.004966560994283498
1708437548.7942,-1.1038391590118408,-1.6825114689269007,-2.5278175512896937,2.2800280290791015,-1.0195725599872034,-0.004648987446920216
1708437548.7962298,-1.10381281375885,-1.6825577221312464,-2.5278473536120813,2.280041380519531,-1.019543472920553,-0.0042679945575159195
1708437548.7982183,-1.103817105293274,-1.6825205288329066,-2.527846161519186,2.280074043864868,-1.0195768515216272,-0.00393850008119756
1708437548.8001966,-1.1037757396697998,-1.6824666462340296,-2.5278337637530726,2.280066652888916,-1.019576374684469,-0.00350362459291631
1708437548.802208,-1.1038492918014526,-1.6825038395323695,-2.5278294722186487,2.280057831401489,-1.0195682684527796,-0.0031774679767053726
1708437548.8042479,-1.103804111480713,-1.6825038395323695,-2.5278518835650843,2.2800487714954834,-1.0195606390582483,-0.0028489271747034195
1708437548.8062177,-1.103766679763794,-1.6825162372984828,-2.5278473536120813,2.280106707210205,-1.0195282141314905,-0.002526585255758107
1708437548.8082404,-1.1037949323654175,-1.6824714146056117,-2.5278428236590784,2.2800606924244384,-1.019581143056051,-0.0022123495685022476
1708437548.810223,-1.1037952899932861,-1.6824451885619105,-2.5278175512896937,2.2800444799610595,-1.019524876271383,-0.0018838087665002945
1708437548.8122187,-1.1038284301757812,-1.6824780903258265,-2.5278340021716517,2.2800935941883544,-1.0195367972003382,-0.0015724341021936539
1708437548.8142169,-1.1037949323654175,-1.6824828586974085,-2.5278218428241175,2.280015392894409,-1.0194671789752405,-0.0012729803668420914
1708437548.816266,-1.1038239002227783,-1.6824995479979457,-2.5278175512896937,2.2800280290791015,-1.0195172468768519,-0.001027409230367482
1708437548.8182495,-1.1038613319396973,-1.6824780903258265,-2.5278428236590784,2.2800325590321044,-1.0194843451129358,-0.0007231871234338882
1708437548.8202164,-1.1038403511047363,-1.682519098321432,-2.5278056303607386,2.2800518709370117,-1.0194967428790491,-0.00037652650942021637
1708437548.8222036,-1.1038328409194946,-1.6825038395323695,-2.5278847853290003,2.28007881223645,-1.0195258299456995,-9.376207460576325e-05
1708437548.8242574,-1.1038522720336914,-1.6824623546996058,-2.527872864400045,2.2800234991260986,-1.0194972197162073,0.00015616416931152344
1708437548.8262062,-1.1038568019866943,-1.6824890575804652,-2.5278189818011683,2.28007881223645,-1.0194929281817835,0.00040648007416166365
1708437548.8282273,-1.1038479804992676,-1.6824871502318324,-2.5278504530536097,2.2800652223774414,-1.0194442907916468,0.0006745787104591727
1708437548.8302064,-1.1038672924041748,-1.6825086079039515,-2.5278354326831263,2.280146999950073,-1.0194366613971155,0.0009383052820339799
1708437548.8322115,-1.1038761138916016,-1.6824451885619105,-2.5278189818011683,2.2800816732593994,-1.0194366613971155,0.0011569435009732842
1708437548.8342066,-1.1038880348205566,-1.6825114689269007,-2.5278354326831263,2.280102415675781,-1.0194042364703577,0.001405844115652144
1708437548.8362079,-1.1038641929626465,-1.6824590168394984,-2.527811590825216,2.2800637918659667,-1.0194452444659632,0.001645818818360567
1708437548.8382323,-1.1039259433746338,-1.6825128994383753,-2.527848784123556,2.280075712794922,-1.019376579915182,0.0019030295079573989
1708437548.8402126,-1.1038925647735596,-1.6824408970274867,-2.527799431477682,2.2801262575336914,-1.0194290320025843,0.00199908297508955
1708437548.8422024,-1.1039050817489624,-1.6824995479979457,-2.527827803288595,2.2800935941883544,-1.0194256941424769,0.0022521847859025
1708437548.8442361,-1.103912353515625,-1.6824623546996058,-2.52775746980776,2.2800978857227783,-1.019360367451803,0.002394735347479582
1708437548.8462148,-1.1038880348205566,-1.6825086079039515,-2.527820412312643,2.2801217275806884,-1.0193570295916956,0.0026325578801333904
1708437548.8482096,-1.1039615869522095,-1.6824666462340296,-2.5277753512011927,2.280085964793823,-1.0193083922015589,0.002789935329928994
1708437548.8502076,-1.10392427444458,-1.6824633083739222,-2.527749840413229,2.2801129060932617,-1.0192797819720667,0.002991217654198408
1708437548.8522534,-1.103957176208496,-1.6824304066100062,-2.5277543703662317,2.2800845342823486,-1.0192926565753382,0.0031631821766495705
1708437548.8542275,-1.1039270162582397,-1.6825219593443812,-2.5277395884143274,2.2800845342823486,-1.0193136374102991,0.00331019121222198
1708437548.8562438,-1.1039319038391113,-1.6824962101378382,-2.5277469793902796,2.2801009851643066,-1.0192731062518519,0.003440493019297719
1708437548.8582377,-1.1039361953735352,-1.6824633083739222,-2.5277231375323694,2.2800964552113037,-1.0192611853228968,0.0036319370847195387
1708437548.8602417,-1.1039605140686035,-1.6824351749815882,-2.5277441183673304,2.2801129060932617,-1.0192211310016077,0.0036934432573616505
1708437548.8622148,-1.1039434671401978,-1.6824513874449671,-2.527698818837301,2.2800606924244384,-1.0192168394671839,0.003856867318972945
1708437548.8642263,-1.1039106845855713,-1.6824799976744593,-2.527686897908346,2.280071182841919,-1.019160572682516,0.0039407904259860516
1708437548.8662212,-1.1039605140686035,-1.6823841534056605,-2.527682367955343,2.2801009851643066,-1.0191610495196741,0.004036730621010065
1708437548.8682554,-1.1039434671401978,-1.6824847660460414,-2.527698818837301,2.2801381784626464,-1.0191534201251429,0.0041071828454732895
1708437548.8702781,-1.1039843559265137,-1.6824184856810511,-2.527703348790304,2.2801381784626464,-1.0191167036639612,0.004231566097587347
1708437548.8722453,-1.1040267944335938,-1.682411333123678,-2.527695957814352,2.2800964552113037,-1.0191295782672327,0.00429878244176507
1708437548.8742115,-1.1039724349975586,-1.682448526422018,-2.5276675860034388,2.280103846187256,-1.0190895239459437,0.004358625505119562
1708437548.8762033,-1.1040388345718384,-1.6824647388853968,-2.527646843587057,2.280162735576294,-1.0190489927874964,0.004414576105773449
1708437548.8782053,-1.1040343046188354,-1.6824451885619105,-2.5276511351214808,2.280165358180664,-1.019057575856344,0.004495167639106512
1708437548.880199,-1.1039878129959106,-1.682382722894186,-2.5276644865619105,2.28016106664624,-1.0190499464618128,0.0045476374216377735
1708437548.8821986,-1.104020595550537,-1.6823722324767054,-2.5276477972613733,2.280132694835327,-1.0190089384662073,0.004543089773505926
1708437548.8842223,-1.1040652990341187,-1.6823708019652308,-2.5275567213641565,2.2802137571522216,-1.0190499464618128,0.004603260662406683
1708437548.8862243,-1.1040743589401245,-1.6823307476439417,-2.5276315847979944,2.280165596599243,-1.0190098921405237,0.00458979606628418
1708437548.8882034,-1.104090690612793,-1.6823512516417445,-2.5276315847979944,2.2802180486866455,-1.0189769903766077,0.004630344919860363
1708437548.890219,-1.104030728340149,-1.6823512516417445,-2.527553383504049,2.2801944452473144,-1.01894456544985,0.0045882523991167545
1708437548.892217,-1.1041197776794434,-1.6823531589903773,-2.527557913457052,2.2801717954822998,-1.019010368977682,0.004642176441848278
1708437548.8942006,-1.1041107177734375,-1.6823598347105921,-2.527587954198019,2.2802092271992187,-1.0189011732684534,0.004613637924194336
1708437548.8962407,-1.1041045188903809,-1.6822735271849574,-2.527599875126974,2.280221624965332,-1.0188892523394983,0.0045374720357358456
1708437548.8982215,-1.1040898561477661,-1.6822582683958949,-2.527583662663595,2.280226154918335,-1.0189021269427698,0.004480558447539806
1708437548.9002302,-1.1041063070297241,-1.6823035679259242,-2.5275548140155237,2.2801973062702636,-1.0189550558673304,0.0044160219840705395
1708437548.9022424,-1.1041090488433838,-1.682295938531393,-2.527550284062521,2.280237837428711,-1.0188658873187464,0.004385781474411488
1708437548.904243,-1.1041045188903809,-1.6822668514647425,-2.5275383631335657,2.2802468973347167,-1.018874470387594,0.004378235433250666
1708437548.9062397,-1.1041299104690552,-1.6823121509947718,-2.5275681654559534,2.280233545894287,-1.0188496748553675,0.004276392515748739
1708437548.9082546,-1.1040747165679932,-1.6822887859740199,-2.5275026003467005,2.280183716411255,-1.0188387076007288,0.004171640146523714
1708437548.9102297,-1.104140281677246,-1.682246824304098,-2.5275071302997034,2.2802092271992187,-1.018801514302389,0.004144555423408747
1708437548.9122598,-1.1041209697723389,-1.682213922540182,-2.52751595178713,2.280249996776245,-1.018801514302389,0.004072889685630798
1708437548.9142337,-1.1041476726531982,-1.6822048626341761,-2.52751595178713,2.2802693086811523,-1.0188100973712366,0.004017168655991554
1708437548.9162536,-1.1041775941848755,-1.6822558842101039,-2.5274952093707483,2.280308170909546,-1.0188072363482874,0.003970727324485779
1708437548.9182441,-1.1041730642318726,-1.6823021374144496,-2.5274410883532923,2.2802201944538574,-1.0187462011920374,0.0038255308754742146
1708437548.9202325,-1.1041686534881592,-1.6822716198363246,-2.527454439793722,2.280240936870239,-1.0187462011920374,0.003716206643730402
1708437548.9222267,-1.10419762134552,-1.682295938531393,-2.5274620691882532,2.280229015941284,-1.0186975638019007,0.0035680087748914957
1708437548.924239,-1.10419762134552,-1.6822887859740199,-2.527426306401388,2.280266209239624,-1.0187104384051722,0.0035064846742898226
1708437548.9262114,-1.1041884422302246,-1.6822840176024378,-2.527381245289938,2.280282660121582,-1.0186784903155726,0.003311682026833296
1708437548.9282272,-1.1042284965515137,-1.682213922540182,-2.5274439493762415,2.2802068430134277,-1.018669907246725,0.0031606857664883137
1708437548.9302356,-1.1042615175247192,-1.6822644672789515,-2.5274351278888147,2.280282660121582,-1.0186622778521937,0.002967516425997019
1708437548.9322212,-1.1042078733444214,-1.6823183498778285,-2.527381245289938,2.280257387752197,-1.0186179319964808,0.002820337191224098
1708437548.9342318,-1.104236125946045,-1.6822644672789515,-2.5273991266833704,2.2802201944538574,-1.0186103026019495,0.0026854074094444513
1708437548.936239,-1.1042811870574951,-1.6822601757445277,-2.5273705164538782,2.2802738386341552,-1.0186179319964808,0.002463806187734008
1708437548.9382114,-1.1042650938034058,-1.6822716198363246,-2.527428929005758,2.2802619177052,-1.018623177205221,0.0023093342315405607
1708437548.9402456,-1.1042650938034058,-1.6823002300658167,-2.5273662249194544,2.2802976804920654,-1.0185287634478968,0.002080082893371582
1708437548.9422264,-1.1043049097061157,-1.6822434864439906,-2.527363125477926,2.280327482814453,-1.01857835451235,0.0018839240074157715
1708437548.9442174,-1.1043081283569336,-1.6822806797423304,-2.527363125477926,2.2803138929554443,-1.018550221120016,0.0016710460186004639
1708437548.946234,-1.1043617725372314,-1.6822716198363246,-2.527350966130392,2.2802604871937255,-1.0185383001910608,0.0014839597279205918
1708437548.9482193,-1.1043609380722046,-1.6822887859740199,-2.5273223559008997,2.2803005415150146,-1.0185793081866663,0.001272484427317977
1708437548.9502177,-1.1043484210968018,-1.6822759113707484,-2.5273478666888636,2.2803429800220947,-1.0185144583331507,0.0010162775870412588
1708437548.9522812,-1.104356288909912,-1.6822759113707484,-2.5273149649249476,2.280329390163086,-1.0184982458697718,0.0008168754284270108
1708437548.9542465,-1.1043609380722046,-1.6823140583434046,-2.5273104349719446,2.280312939281128,-1.0184739271747034,0.0005324847879819572
1708437548.9562378,-1.1043846607208252,-1.6822520695128382,-2.5273447672473353,2.280357761973999,-1.018482510243551,0.0003210604190826416
1708437548.9582412,-1.1043727397918701,-1.6822229824461878,-2.5272656122790735,2.280329390163086,-1.0185077826129358,5.178245919523761e-05
1708437548.960253,-1.1043726205825806,-1.6822849712767542,-2.5272324720965784,2.280402346248291,-1.0185120741473597,-0.0001252333270471695
1708437548.962231,-1.104371190071106,-1.6822058163084925,-2.5272703806506556,2.280377073878906,-1.0184834639178675,-0.00040656725038701325
1708437548.964234,-1.10435950756073,-1.682228227654928,-2.5272956530200403,2.280360622996948,-1.0184629599200647,-0.000642124806539357
1708437548.9662251,-1.1044113636016846,-1.6822239361205042,-2.52727181116213,2.280393524760864,-1.0183981100665491,-0.0008924643145959976
1708437548.9682498,-1.1044248342514038,-1.6822411022581996,-2.527238432561056,2.2804178434559326,-1.0184152762042444,-0.0011404196368616226
1708437548.9702702,-1.1044083833694458,-1.6821829281248988,-2.52726394334902,2.2804223734089355,-1.0184152762042444,-0.0014331976519983414
1708437548.972271,-1.1044397354125977,-1.682167192498678,-2.527226511632101,2.2803844648548584,-1.0183585325824183,-0.0016577879535120132
1708437548.9742477,-1.1044139862060547,-1.6821986637511195,-2.5272517840014856,2.2803799349018554,-1.0183423201190394,-0.0019243399249475601
1708437548.9762397,-1.1044601202011108,-1.68217196087026,-2.527231041585104,2.2803754049488525,-1.018334690724508,-0.0022199789630334976
1708437548.9782445,-1.1044214963912964,-1.682167192498678,-2.5272026697741907,2.2804133135029296,-1.0182693640338343,-0.0024979750262659195
1708437548.9802577,-1.1044764518737793,-1.682167192498678,-2.5272355715381067,2.280453606242798,-1.0183356443988245,-0.00282460847963506
1708437548.982245,-1.1044883728027344,-1.6821729145445765,-2.5271907488452356,2.2804252344318847,-1.0183103720294397,-0.0031045118915002945
1708437548.984299,-1.1045591831207275,-1.68217196087026,-2.5271998087512415,2.2804252344318847,-1.0183103720294397,-0.00335103670229131
1708437548.9862328,-1.1045286655426025,-1.6821657619872035,-2.5271785894977015,2.2804743486591796,-1.0182908217059534,-0.003609959279195607
1708437548.988228,-1.1044915914535522,-1.6821614704527796,-2.5272162596331995,2.280449076289795,-1.0182707945453089,-0.003939453755513966
1708437548.990236,-1.1045527458190918,-1.6821309528746546,-2.5271619001971644,2.280481739635132,-1.018303696309225,-0.004164520894185841
1708437548.9922256,-1.1045576333999634,-1.6821323833861292,-2.5272043387042444,2.280444546336792,-1.0183079878436487,-0.004477326069967091
1708437548.994216,-1.104576587677002,-1.6821238003172816,-2.5271785894977015,2.28048483907666,-1.0182064215289515,-0.004843537007467091
1708437548.9962137,-1.1045395135879517,-1.6821280918517054,-2.527126137410299,2.2804927068897705,-1.0182107130633753,-0.005055729542867482
1708437548.9982138,-1.104600429534912,-1.6820908985533656,-2.5271456877337855,2.2804550367542724,-1.018243137990133,-0.005413834248678029
1708437549.000232,-1.1045558452606201,-1.6821705303587855,-2.5271292368518274,2.280452175731323,-1.018203083668844,-0.005701843892232716
1708437549.0022259,-1.1045842170715332,-1.6820908985533656,-2.527109448109762,2.28048483907666,-1.0182278792010706,-0.006025139485494435
1708437549.0042574,-1.1045496463775635,-1.6821204624571742,-2.527138058339254,2.2805210787006835,-1.0181787649737757,-0.006245438252584279
1708437549.0062208,-1.1046442985534668,-1.6821280918517054,-2.52714711824526,2.280480309123657,-1.0181506315814417,-0.0065911451922815445
1708437549.008248,-1.10468327999115,-1.6821323833861292,-2.527123037968771,2.2805329996296386,-1.0181539694415491,-0.006917778645650685
1708437549.010233,-1.1046278476715088,-1.682075639764303,-2.527188841496603,2.2805628019520263,-1.0181997458087366,-0.007248226796285451
1708437549.012222,-1.1046323776245117,-1.682096620599264,-2.527118508015768,2.2805701929279785,-1.0181506315814417,-0.007500950490133107
1708437549.0142279,-1.1046638488769531,-1.6821252308287562,-2.5271485487567347,2.2805494505115966,-1.0181549231158655,-0.007805172597066701
1708437549.0162125,-1.104668140411377,-1.6820832691588343,-2.527123037968771,2.280568762416504,-1.0181668440448206,-0.008208099995748341
1708437549.0182126,-1.1046383380889893,-1.6820875606932582,-2.5270825068103235,2.2805821138569335,-1.0181711355792444,-0.008435551320211232
1708437549.0202332,-1.1046992540359497,-1.6820923290648402,-2.5271275679217737,2.2805449205585937,-1.0181754271136683,-0.008732620869771779
1708437549.0222259,-1.1047084331512451,-1.68212952236318,-2.527085606251852,2.280576630229614,-1.0181635061847132,-0.009036842976705373
1708437549.0242186,-1.104720950126648,-1.682101388970846,-2.5270989576922815,2.280597611064575,-1.018151585255758,-0.009324375783101857
1708437549.02621,-1.1047401428222656,-1.6821252308287562,-2.5270989576922815,2.280576630229614,-1.018127743397848,-0.009595696126119435
1708437549.0282378,-1.1047701835632324,-1.682051797906393,-2.5271604696856897,2.2806095319935302,-1.018139664326803,-0.009909931813375294
1708437549.0302088,-1.1047446727752686,-1.6820141277708949,-2.5270782152758997,2.280594511623047,-1.018090550099508,-0.010247055684224904
1708437549.032234,-1.1047520637512207,-1.6820923290648402,-2.5270453135119837,2.280587359065674,-1.018094841633932,-0.010575596486226857
1708437549.0342,-1.1047431230545044,-1.6820889912047328,-2.5270705858813685,2.2806362348743896,-1.018083397542135,-0.010851208363668263
1708437549.0362086,-1.1047848463058472,-1.68206848720693,-2.5271077791797083,2.2806407648273925,-1.0180709997760218,-0.011133972798482716
1708437549.0382078,-1.1047804355621338,-1.682051797906393,-2.5270586649524134,2.2806660371967773,-1.0181077162372034,-0.011424843464986623
1708437549.0402155,-1.1047759056091309,-1.682042738000387,-2.5270586649524134,2.2806779581257324,-1.0180791060077112,-0.011720005665914357
1708437549.0422037,-1.104783296585083,-1.68206848720693,-2.5270796457873743,2.2806495863148193,-1.0180633703814905,-0.012120072041646779
1708437549.044269,-1.1048541069030762,-1.6820532284178675,-2.5270424524890345,2.2806407648273925,-1.0181120077716272,-0.01235992113222295
1708437549.0462048,-1.1047905683517456,-1.6820279560484828,-2.527039353047506,2.2806903558918457,-1.0180795828448694,-0.012654606495992482
1708437549.048214,-1.1048105955123901,-1.682030817071432,-2.526989761983053,2.28070251523938,-1.0180838743792933,-0.01295644441713506
1708437549.0502176,-1.1048314571380615,-1.6820651493468226,-2.5270076433764856,2.280677004451416,-1.0180590788470667,-0.01317769685854131
1708437549.0522525,-1.104815125465393,-1.682002683679098,-2.5269792715655726,2.280726118678711,-1.0180838743792933,-0.013465229664937794
1708437549.0542257,-1.1048433780670166,-1.6820322475829066,-2.526994053517477,2.280672474498413,-1.0180676619159144,-0.013778511677877248
1708437549.056206,-1.1048154830932617,-1.6819983921446742,-2.5269792715655726,2.280721588725708,-1.0180395285235804,-0.01403838792909795
1708437549.058212,-1.1048598289489746,-1.6819964847960414,-2.526970450078146,2.280733509654663,-1.0180471579181116,-0.014376465474263966
1708437549.0602095,-1.1048433780670166,-1.6819712124266566,-2.5269373098956507,2.280729218120239,-1.0180352369891565,-0.014604870473043263
1708437549.0622284,-1.1048717498779297,-1.682009836236471,-2.5270076433764856,2.280729218120239,-1.0180514494525355,-0.014848057423726857
1708437549.0642138,-1.1048641204833984,-1.6819964847960414,-2.5269537607776087,2.2807320791431884,-1.0180190245257776,-0.015108410512105763
1708437549.0662239,-1.1048110723495483,-1.682063718835348,-2.5269580523120325,2.2807745176502685,-1.0180276075946253,-0.015346829091207326
1708437549.0682518,-1.1048153638839722,-1.682014604608053,-2.5270045439349573,2.2807952600666503,-1.0180113951312464,-0.01565581956972295
1708437549.0702207,-1.1048917770385742,-1.6819635830321253,-2.5270045439349573,2.2806948858448486,-1.018008057271139,-0.01584178606142217
1708437549.0722723,-1.1048643589019775,-1.6819187603392542,-2.5269551912890833,2.2807864385792236,-1.0179913679706019,-0.016125981007711232
1708437549.0742195,-1.1048433780670166,-1.681997915307516,-2.5269880930529993,2.2807819086262207,-1.0179756323443812,-0.016349617634908498
1708437549.076236,-1.1048392057418823,-1.681939264337057,-2.5269866625415247,2.2807819086262207,-1.0179265181170862,-0.01662618318666631
1708437549.0782225,-1.1048479080200195,-1.6819774113097132,-2.5269537607776087,2.2806874948688964,-1.0179842154132288,-0.016919914876119435
1708437549.0802069,-1.1048760414123535,-1.6819607220091761,-2.5269418398486536,2.2807485300251464,-1.0179761091815394,-0.017175022755758107
1708437549.0822067,-1.104815125465393,-1.681944032708639,-2.5269880930529993,2.280745430583618,-1.0179265181170862,-0.0174029509173792
1708437549.0842328,-1.1048270463943481,-1.6819650135436,-2.5270119349109095,2.2806994157978515,-1.0179317633258265,-0.017621342335836232
1708437549.0862098,-1.1048760414123535,-1.6819650135436,-2.526970450078146,2.280749960536621,-1.0179231802569788,-0.01785308519472295
1708437549.08821,-1.1049052476882935,-1.6819774113097132,-2.5270164648639124,2.2807275491901855,-1.0179479757892054,-0.018056217824117482
1708437549.0902228,-1.1048314571380615,-1.6819683514037074,-2.5270403067218226,2.280733509654663,-1.0179274717914026,-0.0182879606830042
1708437549.0922155,-1.104803204536438,-1.6820341549315394,-2.5270002524005335,2.280688925380371,-1.0180013815509241,-0.018470589314595998
1708437549.094207,-1.1048359870910645,-1.6819802723326625,-2.5269957224475306,2.2807246881672363,-1.0179641882525843,-0.01872903505434209
1708437549.0962133,-1.1047905683517456,-1.681997915307516,-2.5269463698016565,2.2807187277027587,-1.0179598967181605,-0.018886391316549123
1708437549.0982106,-1.1048376560211182,-1.6819755039610804,-2.526975933705465,2.2806600767322998,-1.0179274717914026,-0.019101921712056935
1708437549.1002355,-1.1047639846801758,-1.6819993458189906,-2.5269418398486536,2.280681772822998,-1.0179598967181605,-0.019276920949117482
1708437549.102215,-1.1047759056091309,-1.682009836236471,-2.526938501988546,2.2806526857563476,-1.0179641882525843,-0.01946574846376592
1708437549.1042228,-1.1046990156173706,-1.6820255718626917,-2.5269671122180384,2.2806169229694824,-1.0179598967181605,-0.01955873170961553
1708437549.1062396,-1.1047520637512207,-1.6820651493468226,-2.5269463698016565,2.2806050020405273,-1.0179274717914026,-0.01979715028871709
1708437549.1082764,-1.1047251224517822,-1.6821147404112757,-2.5268967787372034,2.280581160182617,-1.0179761091815394,-0.019933525715963185
1708437549.1102328,-1.1046262979507446,-1.6820923290648402,-2.526975933705465,2.280559702510498,-1.017918888722555,-0.020080391560689748
1708437549.1122208,-1.1046353578567505,-1.6821161709227503,-2.526970450078146,2.2805284696766357,-1.0179927984820765,-0.020276371632711232
1708437549.1142356,-1.1045550107955933,-1.6821443043150843,-2.5270076433764856,2.2804927068897705,-1.0179675261126917,-0.020416084920064748
1708437549.116226,-1.1045441627502441,-1.682150503198141,-2.5269880930529993,2.28046099721875,-1.0179761091815394,-0.02062875429262334
1708437549.1182413,-1.1044940948486328,-1.6821629009642542,-2.5270119349109095,2.280392571086548,-1.0179274717914026,-0.020792309437887013
1708437549.1202245,-1.104451060295105,-1.6822825870909632,-2.526970450078146,2.2803427416035156,-1.0179761091815394,-0.020923916493551076
1708437549.122212,-1.1043857336044312,-1.6823002300658167,-2.5270403067218226,2.280369682902954,-1.0179360548602503,-0.021082703267232716
1708437549.1242263,-1.1043801307678223,-1.6823002300658167,-2.5270448366748255,2.280287190074585,-1.0179522673236292,-0.021181408558980763
1708437549.1262128,-1.104301929473877,-1.682319780389303,-2.526956860219137,2.2802769380756835,-1.0179598967181605,-0.021343533192769826
1708437549.1282127,-1.1042406558990479,-1.6823531589903773,-2.526944700871603,2.2802366453358154,-1.0179641882525843,-0.021494213734762013
1708437549.130207,-1.1041340827941895,-1.6824051342406214,-2.526980702077047,2.2801267343708496,-1.0179913679706019,-0.02159768739809209
1708437549.1322112,-1.1040501594543457,-1.6824032268919886,-2.527060333882467,2.280099316234253,-1.018008057271139,-0.021665398274556935
1708437549.134219,-1.1039543151855469,-1.6825176678099574,-2.527039353047506,2.2800606924244384,-1.0179994742022913,-0.021764580403463185
1708437549.1362305,-1.1038460731506348,-1.6824962101378382,-2.5270631949054163,2.2799886900135498,-1.0180524031268519,-0.021860424672262013
1708437549.1382117,-1.103766679763794,-1.6825643978514613,-2.527052704487936,2.2798959451862792,-1.0180557409869593,-0.022038761769429982
1708437549.1402032,-1.1036006212234497,-1.6825949154295863,-2.5269866625415247,2.2798690038868408,-1.0180147329913538,-0.022096935902730763
1708437549.142202,-1.1034969091415405,-1.682718416253561,-2.5270424524890345,2.2797600465961914,-1.0180590788470667,-0.022169415150777638
1708437549.144217,-1.1033574342727661,-1.6827522716917933,-2.527088467274801,2.279689236278198,-1.0180752913104456,-0.022281471882955373
1708437549.146199,-1.103143334388733,-1.6828237972655238,-2.5270944277392786,2.279515429134033,-1.0181077162372034,-0.022327725087301076
1708437549.1482267,-1.103009819984436,-1.6829620800414027,-2.527135197316305,2.2794079023548584,-1.018111530934469,-0.022454086934224904
1708437549.150208,-1.102766752243042,-1.6829916439452113,-2.527138058339254,2.279291554088257,-1.018151585255758,-0.022516552601949513
1708437549.1522522,-1.1025761365890503,-1.683080335656637,-2.52717096010317,2.279139204616211,-1.0181830565081995,-0.022567574177877248
1708437549.1542354,-1.1023926734924316,-1.6831637821593226,-2.527196470891134,2.2789861398884277,-1.0182116667376917,-0.022618595753804982
1708437549.1562116,-1.1021053791046143,-1.6832028828062953,-2.5272279421435755,2.2788888651081542,-1.0182398001300257,-0.022720162068502248
1708437549.1582375,-1.101960301399231,-1.6833273373045863,-2.527259413396017,2.278686686153076,-1.0182388464557093,-0.022738281880513966
1708437549.1602876,-1.1017500162124634,-1.6834069691100062,-2.5273118654834192,2.2785257536121826,-1.018271271382467,-0.022827927266256154
1708437549.1622245,-1.1014564037322998,-1.6835104427733363,-2.5273402372943323,2.2783922392078857,-1.0182707945453089,-0.02285939851869756
1708437549.1642241,-1.1011667251586914,-1.6836291752257289,-2.5273764769183558,2.278193159694336,-1.0183313528644007,-0.022894207631246388
1708437549.1662147,-1.1008286476135254,-1.6838575802245082,-2.527437750493185,2.2779671388813476,-1.018338982258932,-0.022922817860738576
1708437549.1682405,-1.1005147695541382,-1.6839400730528773,-2.5274110476123255,2.2777387338825683,-1.018367115651266,-0.0230334440814417
1708437549.1702576,-1.1001979112625122,-1.6840759716429652,-2.5274677912341517,2.2774862486072998,-1.0184152762042444,-0.022978130971090138
1708437549.1722615,-1.0998575687408447,-1.6841746769347132,-2.5274997393237513,2.2772597509571533,-1.018402401600973,-0.023067299519674123
1708437549.1742463,-1.099556565284729,-1.6843301258482875,-2.5275443235980433,2.2770346838184814,-1.0184877554522913,-0.023018662129537404
1708437549.1762383,-1.099194884300232,-1.6844617329039515,-2.527592484151022,2.2768232065388183,-1.0184620062457483,-0.02306682268251592
1708437549.1782408,-1.0988256931304932,-1.6845880947508753,-2.527623955403463,2.276526613826416,-1.0184910933123987,-0.02306682268251592
1708437549.1802511,-1.0984179973602295,-1.6848303280272425,-2.5276735464679163,2.2762536245533447,-1.018543545399801,-0.023003403340474904
1708437549.1822462,-1.098029375076294,-1.6849914989867152,-2.527707640324728,2.275954409236572,-1.0185826460467737,-0.02307778993715459
1708437549.1842427,-1.0975526571273804,-1.6852055988707484,-2.527835194264547,2.275646134013794,-1.0186956564532679,-0.023069206868306935
1708437549.1862364,-1.0970836877822876,-1.685404439965719,-2.527811590825216,2.2753218847462158,-1.018726650868551,-0.02311259904970342
1708437549.188251,-1.0966118574142456,-1.6856333218016566,-2.5278893152820032,2.275023861522339,-1.0187905470477503,-0.023021523152486623
1708437549.190233,-1.0962047576904297,-1.6858421764769496,-2.527886454259054,2.274707003230713,-1.0188267866717737,-0.023043457661763966
1708437549.1922114,-1.0957131385803223,-1.6861211262144984,-2.527947489415304,2.274343176479004,-1.0189192930804651,-0.022980515156881154
1708437549.1942036,-1.0952460765838623,-1.686312814752096,-2.5280407110797327,2.2740282255360107,-1.0189703146563929,-0.022937599812642873
1708437549.196235,-1.094591498374939,-1.6865645847716273,-2.528060261403219,2.2735892969318847,-1.019139591847555,-0.022922341023580373
1708437549.19821,-1.0940423011779785,-1.6868025265135707,-2.528135363255636,2.273230476970337,-1.0191782156573694,-0.02287751833070928
1708437549.20025,-1.0935207605361938,-1.687148233453268,-2.5282045046435755,2.272750063533447,-1.01931077638735,-0.022836987172262013
1708437549.2021954,-1.0928951501846313,-1.6873251400389613,-2.5282674471484583,2.2723135191151123,-1.0193656126605433,-0.022819344197408498
